EastLYD/RoboCupatHomeSim/InteractiveCleanUp/RoboCup/Motion_Data/File1.dat
KINECT_DATA POSITION:40.114017,33.499744,-103.800438 HEAD_JOINT1:0.988751,0.126231,-0.000000,0.080229 LARM_JOINT2:0.838482,0.000000,0.027867,-0.544216 LARM_JOINT3:0.958790,0.000000,-0.206590,-0.195043 LLEG_JOINT2:0.998386,0.000353,0.000000,0.056794 LLEG_JOINT4:0.997114,0.049194,0.000000,-0.057816 RARM_JOINT2:0.799878,0.000000,-0.047616,0.598270 RARM_JOINT3:0.948799,0.000000,0.262265,0.176059 RLEG_JOINT2:0.998800,-0.018594,-0.000000,-0.045317 RLEG_JOINT4:0.992279,0.119448,0.000000,0.033387 WAIST:0.998825,0.000000,-0.045271,0.017320 WAIST_JOINT0:0.998440,0.000000,-0.054155,0.013604 WAIST_JOINT1:0.999717,0.022069,0.000000,-0.008837 END:
KINECT_DATA_Sensor  AnkleLeft:-0.015259,-0.637540,0.050485,0.768610 AnkleRight:0.100256,0.994384,-0.017980,-0.028747 ElbowLeft:-0.065367,0.891704,-0.210855,-0.395135 ElbowRight:-0.010539,0.822459,0.145897,0.549695 FootLeft:0.000000,0.000000,0.000000,0.000000 FootRight:0.000000,0.000000,0.000000,0.000000 HandLeft:0.036495,-0.555808,-0.154716,0.815971 HandRight:0.195465,-0.458237,-0.182057,0.847743 HandTipLeft:0.000000,0.000000,0.000000,0.000000 HandTipRight:0.000000,0.000000,0.000000,0.000000 Head:0.000000,0.000000,0.000000,0.000000 HipLeft:0.175976,-0.666326,0.703423,-0.173890 HipRight:-0.121444,0.700842,0.692796,-0.118767 KneeLeft:-0.053919,0.736405,-0.050783,-0.672474 KneeRight:-0.032056,0.673380,0.008670,0.738551 Neck:0.053812,0.008620,0.997784,-0.038161 ShoulderLeft:-0.051498,0.776047,-0.623859,0.076801 ShoulderRight:0.017152,0.792305,0.609822,0.008696 SpineBase:0.045254,0.009600,0.998929,-0.000855 SpineMid:0.049720,0.009597,0.998717,-0.000898 SpineShoulder:0.054092,0.009496,0.998338,-0.017461 ThumbLeft:0.000000,0.000000,0.000000,0.000000 ThumbRight:0.000000,0.000000,0.000000,0.000000 WristLeft:0.116452,-0.537661,-0.129591,0.824964 WristRight:0.091873,-0.477197,-0.176160,0.856044 END:
KINECT_DATA POSITION:40.057434,33.480625,-103.916977 HEAD_JOINT1:0.988572,0.125941,-0.000000,0.082845 LARM_JOINT2:0.838623,0.000000,0.030185,-0.543875 LARM_JOINT3:0.959021,0.000000,-0.205729,-0.194821 LLEG_JOINT2:0.998359,0.000148,0.000000,0.057265 LLEG_JOINT4:0.997134,0.048325,0.000000,-0.058217 RARM_JOINT2:0.800054,0.000000,-0.047309,0.598059 RARM_JOINT3:0.950447,0.000000,0.257193,0.174649 RLEG_JOINT2:0.998837,-0.019877,-0.000000,-0.043932 RLEG_JOINT4:0.992529,0.118260,0.000000,0.030002 WAIST:0.998803,0.000000,-0.045695,0.017447 WAIST_JOINT0:0.998467,0.000000,-0.053628,0.013687 WAIST_JOINT1:0.999738,0.020884,0.000000,-0.009383 END:
KINECT_DATA_Sensor  AnkleLeft:-0.014364,-0.636290,0.049764,0.769710 AnkleRight:0.076089,0.671772,0.063837,0.734070 ElbowLeft:-0.064513,0.892033,-0.211161,-0.394368 ElbowRight:-0.010883,0.826447,0.145940,0.543662 FootLeft:0.000000,0.000000,0.000000,0.000000 FootRight:0.000000,0.000000,0.000000,0.000000 HandLeft:0.050013,-0.614880,-0.148037,0.772986 HandRight:-0.240478,0.723055,0.108335,-0.638455 HandTipLeft:0.000000,0.000000,0.000000,0.000000 HandTipRight:0.000000,0.000000,0.000000,0.000000 Head:0.000000,0.000000,0.000000,0.000000 HipLeft:0.176948,-0.666314,0.703267,-0.173584 HipRight:-0.121737,0.701013,0.692675,-0.118159 KneeLeft:-0.054511,0.736661,-0.051021,-0.672128 KneeRight:-0.031969,0.673053,0.006711,0.738873 Neck:0.053336,0.008266,0.997862,-0.036852 ShoulderLeft:-0.052720,0.777008,-0.622635,0.076190 ShoulderRight:0.015228,0.793185,0.608729,0.008642 SpineBase:0.045700,0.009290,0.998912,-0.000012 SpineMid:0.049696,0.009290,0.998721,-0.000049 SpineShoulder:0.053598,0.009039,0.998388,-0.016338 ThumbLeft:0.000000,0.000000,0.000000,0.000000 ThumbRight:0.000000,0.000000,0.000000,0.000000 WristLeft:0.124857,-0.597772,-0.120376,0.782681 WristRight:-0.145669,0.747238,0.129245,-0.635383 END:
KINECT_DATA POSITION:40.037594,33.476093,-103.904816 HEAD_JOINT1:0.988591,0.125454,-0.000000,0.083358 LARM_JOINT2:0.838534,0.000000,0.030919,-0.543972 LARM_JOINT3:0.957785,0.000000,-0.212844,-0.193251 LLEG_JOINT2:0.998386,0.000446,0.000000,0.056790 LLEG_JOINT4:0.997231,0.047847,0.000000,-0.056935 RARM_JOINT2:0.800300,0.000000,-0.045709,0.597854 RARM_JOINT3:0.946045,0.000000,0.269286,0.180234 RLEG_JOINT2:0.998809,-0.021607,-0.000000,-0.043750 RLEG_JOINT4:0.992150,0.121598,0.000000,0.029205 WAIST:0.998796,0.000000,-0.045819,0.017543 WAIST_JOINT0:0.998509,0.000000,-0.052716,0.014160 WAIST_JOINT1:0.999748,0.020434,0.000000,-0.009309 END:
KINECT_DATA_Sensor  AnkleLeft:-0.013616,-0.637975,0.050111,0.768304 AnkleRight:0.076975,0.671635,0.065287,0.733975 ElbowLeft:-0.064560,0.891691,-0.211201,-0.395112 ElbowRight:-0.012207,0.827453,0.145353,0.542259 FootLeft:0.000000,0.000000,0.000000,0.000000 FootRight:0.000000,0.000000,0.000000,0.000000 HandLeft:-0.085227,0.700516,0.157462,-0.690810 HandRight:0.238849,-0.535306,-0.187396,0.788214 HandTipLeft:0.000000,0.000000,0.000000,0.000000 HandTipRight:0.000000,0.000000,0.000000,0.000000 Head:0.000000,0.000000,0.000000,0.000000 HipLeft:0.177327,-0.666293,0.703232,-0.173416 HipRight:-0.121963,0.701142,0.692571,-0.117773 KneeLeft:-0.054030,0.736781,-0.050985,-0.672038 KneeRight:-0.033054,0.672881,0.005346,0.738993 Neck:0.052430,0.008507,0.997926,-0.036368 ShoulderLeft:-0.052790,0.777249,-0.622422,0.075426 ShoulderRight:0.013942,0.793928,0.607798,0.008065 SpineBase:0.045836,0.009374,0.998905,0.000444 SpineMid:0.049313,0.009376,0.998739,0.000412 SpineShoulder:0.052690,0.009196,0.998442,-0.015887 ThumbLeft:0.000000,0.000000,0.000000,0.000000 ThumbRight:0.000000,0.000000,0.000000,0.000000 WristLeft:0.138112,-0.682950,-0.105215,0.709531 WristRight:0.115374,-0.558543,-0.166275,0.804407 END:
KINECT_DATA POSITION:40.010376,33.449993,-103.806641 HEAD_JOINT1:0.988904,0.123560,-0.000000,0.082473 LARM_JOINT2:0.838273,0.000000,0.029826,-0.544434 LARM_JOINT3:0.957948,0.000000,-0.211109,-0.194340 LLEG_JOINT2:0.998414,-0.000486,0.000000,0.056292 LLEG_JOINT4:0.997123,0.050115,0.000000,-0.056870 RARM_JOINT2:0.801535,0.000000,-0.010068,0.597863 RARM_JOINT3:0.945777,0.000000,0.275678,0.171777 RLEG_JOINT2:0.998791,-0.020752,-0.000000,-0.044562 RLEG_JOINT4:0.992018,0.122359,0.000000,0.030487 WAIST:0.998906,0.000000,-0.043142,0.018022 WAIST_JOINT0:0.998710,0.000000,-0.048355,0.015466 WAIST_JOINT1:0.999765,0.019476,0.000000,-0.009536 END:
KINECT_DATA_Sensor  AnkleLeft:-0.014992,-0.643700,0.051018,0.763428 AnkleRight:0.101130,0.994048,-0.017025,-0.036769 ElbowLeft:-0.065620,0.890542,-0.210228,-0.398036 ElbowRight:-0.038779,0.832968,0.132901,0.535722 FootLeft:0.000000,0.000000,0.000000,0.000000 FootRight:0.000000,0.000000,0.000000,0.000000 HandLeft:0.070374,-0.662860,-0.156414,0.728833 HandRight:0.238792,-0.460091,-0.219988,0.826377 HandTipLeft:0.000000,0.000000,0.000000,0.000000 HandTipRight:0.000000,0.000000,0.000000,0.000000 Head:0.000000,0.000000,0.000000,0.000000 HipLeft:0.177044,-0.666484,0.703645,-0.171287 HipRight:-0.124711,0.701260,0.691779,-0.118842 KneeLeft:-0.054529,0.734959,-0.050409,-0.674033 KneeRight:-0.032683,0.674869,0.006063,0.737189 Neck:0.048194,0.008818,0.998179,-0.035190 ShoulderLeft:-0.052244,0.777926,-0.621957,0.072603 ShoulderRight:0.008945,0.795743,0.605552,0.004430 SpineBase:0.043196,0.009340,0.999021,0.001834 SpineMid:0.045876,0.009345,0.998902,0.001809 SpineShoulder:0.048443,0.009350,0.998670,-0.014967 ThumbLeft:0.000000,0.000000,0.000000,0.000000 ThumbRight:0.000000,0.000000,0.000000,0.000000 WristLeft:0.134331,-0.647438,-0.114385,0.741415 WristRight:0.116546,-0.487508,-0.197360,0.842497 END:
KINECT_DATA POSITION:40.073788,33.465492,-103.713631 HEAD_JOINT1:0.989590,0.120267,-0.000000,0.079046 LARM_JOINT2:0.836688,0.000000,0.034028,-0.546621 LARM_JOINT3:0.959983,0.000000,-0.210352,-0.184889 LLEG_JOINT2:0.998477,0.000217,0.000000,0.055162 LLEG_JOINT4:0.997248,0.048964,0.000000,-0.055660 RARM_JOINT2:0.803259,0.000000,0.051955,0.593359 RARM_JOINT3:0.947385,0.000000,0.285322,0.145095 RLEG_JOINT2:0.998830,-0.019175,-0.000000,-0.044397 RLEG_JOINT4:0.991896,0.123813,0.000000,0.028516 WAIST:0.999060,0.000000,-0.039352,0.018192 WAIST_JOINT0:0.999206,0.000000,-0.036166,0.016715 WAIST_JOINT1:0.999802,0.017938,0.000000,-0.008570 END:
KINECT_DATA_Sensor  AnkleLeft:-0.014640,-0.640251,0.050711,0.766350 AnkleRight:0.079480,0.676296,0.069321,0.729042 ElbowLeft:-0.065714,0.882392,-0.208899,-0.416446 ElbowRight:-0.083318,0.847007,0.111845,0.512961 FootLeft:0.000000,0.000000,0.000000,0.000000 FootRight:0.000000,0.000000,0.000000,0.000000 HandLeft:0.077781,-0.659112,-0.121141,0.738137 HandRight:0.250775,-0.455236,-0.292816,0.802578 HandTipLeft:0.000000,0.000000,0.000000,0.000000 HandTipRight:0.000000,0.000000,0.000000,0.000000 Head:0.000000,0.000000,0.000000,0.000000 HipLeft:0.175751,-0.666895,0.704175,-0.168820 HipRight:-0.128428,0.701081,0.691054,-0.120150 KneeLeft:-0.053197,0.732484,-0.050441,-0.676826 KneeRight:-0.031363,0.677697,0.006719,0.734642 Neck:0.036250,0.010537,0.998740,-0.033052 ShoulderLeft:-0.049973,0.777814,-0.623073,0.065484 ShoulderRight:-0.004150,0.796924,0.604024,-0.007085 SpineBase:0.039441,0.010403,0.999162,0.003275 SpineMid:0.038057,0.010399,0.999216,0.003289 SpineShoulder:0.036474,0.010328,0.999191,-0.013427 ThumbLeft:0.000000,0.000000,0.000000,0.000000 ThumbRight:0.000000,0.000000,0.000000,0.000000 WristLeft:0.141097,-0.645742,-0.118332,0.741017 WristRight:0.144346,-0.488899,-0.224640,0.830469 END:
KINECT_DATA POSITION:40.201538,33.483402,-103.627655 HEAD_JOINT1:0.989993,0.118328,-0.000000,0.076896 LARM_JOINT2:0.835868,0.000000,0.036224,-0.547734 LARM_JOINT3:0.959321,0.000000,-0.212117,-0.186305 LLEG_JOINT2:0.998528,0.000677,0.000000,0.054236 LLEG_JOINT4:0.997381,0.047182,0.000000,-0.054825 RARM_JOINT2:0.806064,0.000000,0.077717,0.586703 RARM_JOINT3:0.949870,0.000000,0.279222,0.140649 RLEG_JOINT2:0.998784,-0.020267,-0.000000,-0.044932 RLEG_JOINT4:0.991659,0.126173,0.000000,0.026316 WAIST:0.999267,0.000000,-0.033828,0.017918 WAIST_JOINT0:0.999568,0.000000,-0.022939,0.018352 WAIST_JOINT1:0.999818,0.017659,0.000000,-0.007263 END:
KINECT_DATA_Sensor  AnkleLeft:-0.014862,-0.643808,0.049122,0.763464 AnkleRight:0.076472,0.665653,0.074268,0.738608 ElbowLeft:-0.064961,0.876198,-0.209026,-0.429377 ElbowRight:-0.104238,0.852195,0.105646,0.501734 FootLeft:0.000000,0.000000,0.000000,0.000000 FootRight:0.000000,0.000000,0.000000,0.000000 HandLeft:0.071402,-0.671734,-0.121044,0.727340 HandRight:0.157407,-0.168413,-0.344178,0.910166 HandTipLeft:0.000000,0.000000,0.000000,0.000000 HandTipRight:0.000000,0.000000,0.000000,0.000000 Head:0.000000,0.000000,0.000000,0.000000 HipLeft:0.172505,-0.667761,0.704920,-0.165603 HipRight:-0.132829,0.700462,0.690469,-0.122321 KneeLeft:-0.051805,0.728800,-0.050177,-0.680917 KneeRight:-0.032829,0.681615,0.006308,0.730947 Neck:0.023236,0.011884,0.999118,-0.032897 ShoulderLeft:-0.046967,0.776890,-0.625127,0.058752 ShoulderRight:-0.017885,0.797685,0.602459,-0.020554 SpineBase:0.033929,0.012173,0.999341,0.004202 SpineMid:0.028849,0.012151,0.999501,0.004264 SpineShoulder:0.023459,0.011290,0.999578,-0.012874 ThumbLeft:0.000000,0.000000,0.000000,0.000000 ThumbRight:0.000000,0.000000,0.000000,0.000000 WristLeft:0.147556,-0.654800,-0.116065,0.732116 WristRight:0.069758,-0.200204,-0.273073,0.938341 END:
KINECT_DATA POSITION:40.733250,33.438293,-103.345421 HEAD_JOINT1:0.991319,0.113221,-0.000000,0.066841 LARM_JOINT2:0.831045,0.000000,0.039049,-0.554832 LARM_JOINT3:0.958367,0.000000,-0.218788,-0.183477 LLEG_JOINT2:0.998746,0.002378,0.000000,0.050018 LLEG_JOINT4:0.997870,0.043012,0.000000,-0.049044 RARM_JOINT2:0.828237,0.000000,0.249106,0.501967 RARM_JOINT3:0.955083,0.000000,0.290309,0.059481 RLEG_JOINT2:0.998467,-0.015874,-0.000000,-0.053022 RLEG_JOINT4:0.990600,0.127765,0.000000,0.048859 WAIST:0.999685,0.000000,-0.019430,0.015883 WAIST_JOINT0:0.999506,-0.000000,0.017119,0.026367 WAIST_JOINT1:0.999839,0.017947,-0.000000,0.000448 END:
KINECT_DATA_Sensor  AnkleLeft:-0.014977,-0.645050,0.046226,0.762594 AnkleRight:0.089434,0.687846,0.068865,0.717027 ElbowLeft:-0.060779,0.865552,-0.207790,-0.451608 ElbowRight:-0.258269,0.836639,0.066697,0.478419 FootLeft:0.000000,0.000000,0.000000,0.000000 FootRight:0.000000,0.000000,0.000000,0.000000 HandLeft:-0.091190,0.718557,0.126698,-0.677722 HandRight:0.051843,-0.016781,-0.462990,0.884687 HandTipLeft:0.000000,0.000000,0.000000,0.000000 HandTipRight:0.000000,0.000000,0.000000,0.000000 Head:0.000000,0.000000,0.000000,0.000000 HipLeft:0.162155,-0.670449,0.706357,-0.158946 HipRight:-0.142496,0.697996,0.689987,-0.128118 KneeLeft:-0.045608,0.719195,-0.047604,-0.691673 KneeRight:-0.036992,0.691857,0.015959,0.720910 Neck:-0.016315,0.018147,0.999146,-0.033339 ShoulderLeft:-0.038631,0.776422,-0.627765,0.039846 ShoulderRight:-0.061014,0.804409,0.587658,-0.062132 SpineBase:0.019491,0.017742,0.999643,0.004410 SpineMid:0.002085,0.017662,0.999831,0.004718 SpineShoulder:-0.016014,0.017022,0.999653,-0.012142 ThumbLeft:0.000000,0.000000,0.000000,0.000000 ThumbRight:0.000000,0.000000,0.000000,0.000000 WristLeft:-0.161177,0.708287,0.099311,-0.680066 WristRight:0.001939,-0.043911,-0.409233,0.911371 END:
KINECT_DATA POSITION:40.928986,33.419476,-103.183746 HEAD_JOINT1:0.991758,0.114516,-0.000000,0.057459 LARM_JOINT2:0.829301,0.000000,0.031508,-0.557913 LARM_JOINT3:0.957734,0.000000,-0.219174,-0.186301 LLEG_JOINT2:0.998803,0.000637,0.000000,0.048903 LLEG_JOINT4:0.998075,0.044413,0.000000,-0.043279 RARM_JOINT2:0.830515,0.000000,0.423545,0.361739 RARM_JOINT3:0.975759,0.000000,0.213351,0.048741 RLEG_JOINT2:0.998320,-0.014430,-0.000000,-0.056112 RLEG_JOINT4:0.990511,0.124531,0.000000,0.058138 WAIST:0.999899,0.000000,-0.005474,0.013099 WAIST_JOINT0:0.998667,-0.000000,0.045070,0.025142 WAIST_JOINT1:0.999805,0.018896,-0.000000,0.005763 END:
KINECT_DATA_Sensor  AnkleLeft:-0.017216,-0.689578,0.045609,0.722569 AnkleRight:0.109908,0.993792,-0.017244,-0.000344 ElbowLeft:-0.060686,0.863896,-0.205845,-0.455664 ElbowRight:-0.419701,0.849138,0.057968,0.315366 FootLeft:0.000000,0.000000,0.000000,0.000000 FootRight:0.000000,0.000000,0.000000,0.000000 HandLeft:0.087549,-0.676005,-0.140969,0.717970 HandRight:0.074601,-0.026552,-0.495240,0.865140 HandTipLeft:0.000000,0.000000,0.000000,0.000000 HandTipRight:0.000000,0.000000,0.000000,0.000000 Head:0.000000,0.000000,0.000000,0.000000 HipLeft:0.153208,-0.673401,0.706924,-0.152699 HipRight:-0.150885,0.694406,0.690247,-0.136359 KneeLeft:-0.043569,0.709587,-0.044091,-0.701886 KneeRight:-0.040487,0.701700,0.020458,0.711027 Neck:-0.044219,0.021125,0.998232,-0.033637 ShoulderLeft:-0.034477,0.777966,-0.626704,0.028667 ShoulderRight:-0.093337,0.802434,0.581850,-0.094011 SpineBase:0.005499,0.018721,0.999804,0.003349 SpineMid:-0.018742,0.018634,0.999643,0.003802 SpineShoulder:-0.043921,0.019459,0.998763,-0.012806 ThumbLeft:0.000000,0.000000,0.000000,0.000000 ThumbRight:0.000000,0.000000,0.000000,0.000000 WristLeft:0.154790,-0.659083,-0.110974,0.727554 WristRight:0.017231,-0.059355,-0.486116,0.871706 END:
KINECT_DATA POSITION:40.955185,33.418903,-103.152061 HEAD_JOINT1:0.991790,0.114947,-0.000000,0.056038 LARM_JOINT2:0.828982,0.000000,0.031166,-0.558406 LARM_JOINT3:0.957581,0.000000,-0.218957,-0.187343 LLEG_JOINT2:0.998806,0.000500,0.000000,0.048850 LLEG_JOINT4:0.998112,0.044235,0.000000,-0.042610 RARM_JOINT2:0.815614,0.000000,0.485406,0.314889 RARM_JOINT3:0.986455,0.000000,0.142162,0.081826 RLEG_JOINT2:0.998326,-0.013888,-0.000000,-0.056147 RLEG_JOINT4:0.990515,0.124391,0.000000,0.058373 WAIST:0.999914,0.000000,-0.003194,0.012706 WAIST_JOINT0:0.998610,-0.000000,0.046277,0.025230 WAIST_JOINT1:0.999789,0.019433,-0.000000,0.006589 END:
KINECT_DATA_Sensor  AnkleLeft:-0.016983,-0.688945,0.045449,0.723188 AnkleRight:0.110382,0.993753,-0.016367,0.001418 ElbowLeft:-0.059941,0.862993,-0.205965,-0.457415 ElbowRight:-0.424371,0.880559,0.204168,-0.053291 FootLeft:0.000000,0.000000,0.000000,0.000000 FootRight:0.000000,0.000000,0.000000,0.000000 HandLeft:0.085070,-0.681954,-0.144379,0.711938 HandRight:0.020305,0.003872,-0.594819,0.803594 HandTipLeft:0.000000,0.000000,0.000000,0.000000 HandTipRight:0.000000,0.000000,0.000000,0.000000 Head:0.000000,0.000000,0.000000,0.000000 HipLeft:0.151519,-0.673858,0.707022,-0.151916 HipRight:-0.151973,0.693881,0.690225,-0.137921 KneeLeft:-0.043271,0.708003,-0.043756,-0.703524 KneeRight:-0.040472,0.703333,0.021030,0.709396 Neck:-0.045339,0.021534,0.998156,-0.034135 ShoulderLeft:-0.032245,0.778134,-0.626676,0.027298 ShoulderRight:-0.092467,0.802452,0.581888,-0.094485 SpineBase:0.003212,0.018879,0.999813,0.002811 SpineMid:-0.020454,0.018807,0.999609,0.003257 SpineShoulder:-0.045038,0.019851,0.998699,-0.013373 ThumbLeft:0.000000,0.000000,0.000000,0.000000 ThumbRight:0.000000,0.000000,0.000000,0.000000 WristLeft:0.155599,-0.663773,-0.108228,0.723520 WristRight:0.002654,-0.009828,-0.413900,0.910266 END:
KINECT_DATA POSITION:40.958282,33.415718,-103.147362 HEAD_JOINT1:0.991866,0.114973,-0.000000,0.054610 LARM_JOINT2:0.828163,0.000000,0.032248,-0.559560 LARM_JOINT3:0.957843,0.000000,-0.218419,-0.186629 LLEG_JOINT2:0.998830,0.000482,0.000000,0.048365 LLEG_JOINT4:0.998211,0.043601,0.000000,-0.040923 RARM_JOINT2:0.815896,0.000000,0.493363,0.301508 RARM_JOINT3:0.986484,0.000000,0.136021,0.091361 RLEG_JOINT2:0.998325,-0.013001,-0.000000,-0.056382 RLEG_JOINT4:0.990655,0.123398,0.000000,0.058100 WAIST:0.999922,0.000000,-0.000799,0.012494 WAIST_JOINT0:0.998461,-0.000000,0.049217,0.025542 WAIST_JOINT1:0.999772,0.019975,-0.000000,0.007586 END:
KINECT_DATA_Sensor  AnkleLeft:-0.015916,-0.687484,0.045596,0.724592 AnkleRight:0.088912,0.703960,0.067029,0.701457 ElbowLeft:-0.058967,0.859614,-0.205884,-0.463895 ElbowRight:-0.425046,0.871230,0.225838,-0.096394 FootLeft:0.000000,0.000000,0.000000,0.000000 FootRight:0.000000,0.000000,0.000000,0.000000 HandLeft:-0.083987,0.706469,0.133083,-0.690026 HandRight:0.060111,-0.040273,-0.596701,0.799195 HandTipLeft:0.000000,0.000000,0.000000,0.000000 HandTipRight:0.000000,0.000000,0.000000,0.000000 Head:0.000000,0.000000,0.000000,0.000000 HipLeft:0.149636,-0.674306,0.707229,-0.150821 HipRight:-0.153127,0.693549,0.690022,-0.139324 KneeLeft:-0.042708,0.706346,-0.043334,-0.705247 KneeRight:-0.040232,0.705062,0.021856,0.707666 Neck:-0.048336,0.022439,0.997978,-0.034641 ShoulderLeft:-0.029280,0.777483,-0.627726,0.024957 ShoulderRight:-0.093398,0.802028,0.581946,-0.096778 SpineBase:0.000813,0.019221,0.999812,0.002424 SpineMid:-0.023148,0.019158,0.999544,0.002884 SpineShoulder:-0.048030,0.020585,0.998537,-0.013883 ThumbLeft:0.000000,0.000000,0.000000,0.000000 ThumbRight:0.000000,0.000000,0.000000,0.000000 WristLeft:0.160847,-0.685009,-0.103910,0.702918 WristRight:0.028515,-0.066061,-0.408873,0.909750 END:
KINECT_DATA POSITION:40.935017,33.407829,-103.156044 HEAD_JOINT1:0.992015,0.114735,-0.000000,0.052357 LARM_JOINT2:0.827590,0.000000,0.037935,-0.560050 LARM_JOINT3:0.955443,0.000000,-0.224702,-0.191409 LLEG_JOINT2:0.998839,0.000389,0.000000,0.048170 LLEG_JOINT4:0.998305,0.042743,0.000000,-0.039491 RARM_JOINT2:0.830772,0.000000,0.459691,0.313851 RARM_JOINT3:0.982108,0.000000,0.181716,0.049418 RLEG_JOINT2:0.998287,-0.012094,-0.000000,-0.057240 RLEG_JOINT4:0.990244,0.124836,0.000000,0.061906 WAIST:0.999922,-0.000000,0.002002,0.012309 WAIST_JOINT0:0.998237,-0.000000,0.053642,0.025391 WAIST_JOINT1:0.999757,0.020116,-0.000000,0.008978 END:
KINECT_DATA_Sensor  AnkleLeft:-0.014583,-0.685212,0.045577,0.726770 AnkleRight:0.110982,0.990491,-0.026144,-0.076986 ElbowLeft:-0.056514,0.852761,-0.207937,-0.475781 ElbowRight:-0.451365,0.867475,0.112028,0.176651 FootLeft:0.000000,0.000000,0.000000,0.000000 FootRight:0.000000,0.000000,0.000000,0.000000 HandLeft:-0.082701,0.740583,0.139092,-0.652189 HandRight:0.063238,-0.056780,-0.546628,0.833052 HandTipLeft:0.000000,0.000000,0.000000,0.000000 HandTipRight:0.000000,0.000000,0.000000,0.000000 Head:0.000000,0.000000,0.000000,0.000000 HipLeft:0.147313,-0.674864,0.707497,-0.149348 HipRight:-0.154272,0.693389,0.689731,-0.140294 KneeLeft:0.042409,-0.704379,0.043094,0.707244 KneeRight:-0.040417,0.707046,0.023100,0.705634 Neck:-0.052669,0.023668,0.997729,-0.034684 ShoulderLeft:-0.026669,0.777498,-0.627943,0.021751 ShoulderRight:-0.096372,0.801368,0.581765,-0.100355 SpineBase:-0.001991,0.020035,0.999795,0.002206 SpineMid:-0.026694,0.019974,0.999440,0.002701 SpineShoulder:-0.052346,0.021757,0.998294,-0.013967 ThumbLeft:0.000000,0.000000,0.000000,0.000000 ThumbRight:0.000000,0.000000,0.000000,0.000000 WristLeft:-0.171710,0.729202,0.093570,-0.655762 WristRight:0.026351,-0.082667,-0.475142,0.875621 END:
KINECT_DATA POSITION:40.886806,33.406456,-103.192642 HEAD_JOINT1:0.991957,0.115638,-0.000000,0.051475 LARM_JOINT2:0.826832,0.000000,0.036496,-0.561263 LARM_JOINT3:0.955251,0.000000,-0.226532,-0.190208 LLEG_JOINT2:0.998861,-0.000624,0.000000,0.047704 LLEG_JOINT4:0.998355,0.042792,0.000000,-0.038148 RARM_JOINT2:0.828780,0.000000,0.473040,0.298925 RARM_JOINT3:0.985083,0.000000,0.163896,0.052432 RLEG_JOINT2:0.998252,-0.012136,-0.000000,-0.057834 RLEG_JOINT4:0.990060,0.125292,0.000000,0.063893 WAIST:0.999908,-0.000000,0.005482,0.012412 WAIST_JOINT0:0.998121,-0.000000,0.055977,0.024915 WAIST_JOINT1:0.999762,0.019576,-0.000000,0.009594 END:
KINECT_DATA_Sensor  AnkleLeft:-0.011656,-0.655456,0.045943,0.753745 AnkleRight:0.111561,0.990814,-0.026318,-0.071756 ElbowLeft:-0.056434,0.852730,-0.206890,-0.476302 ElbowRight:-0.455272,0.873140,0.148010,0.091904 FootLeft:0.000000,0.000000,0.000000,0.000000 FootRight:0.000000,0.000000,0.000000,0.000000 HandLeft:-0.096963,0.747778,0.143108,-0.641052 HandRight:0.063413,-0.054417,-0.573142,0.815185 HandTipLeft:0.000000,0.000000,0.000000,0.000000 HandTipRight:0.000000,0.000000,0.000000,0.000000 Head:0.000000,0.000000,0.000000,0.000000 HipLeft:0.144958,-0.675222,0.708107,-0.147131 HipRight:-0.156161,0.693181,0.689240,-0.141639 KneeLeft:0.042757,-0.701910,0.042240,0.709725 KneeRight:-0.040907,0.709465,0.023242,0.703168 Neck:-0.055024,0.024247,0.997609,-0.034066 ShoulderLeft:-0.024256,0.777201,-0.628505,0.018753 ShoulderRight:-0.096926,0.800494,0.582740,-0.101137 SpineBase:-0.005471,0.020664,0.999769,0.002358 SpineMid:-0.029617,0.020601,0.999345,0.002856 SpineShoulder:-0.054691,0.022372,0.998161,-0.013491 ThumbLeft:0.000000,0.000000,0.000000,0.000000 ThumbRight:0.000000,0.000000,0.000000,0.000000 WristLeft:-0.172575,0.738428,0.090457,-0.645569 WristRight:0.020996,-0.088001,-0.463676,0.881374 END:
KINECT_DATA POSITION:40.845634,33.409138,-103.247978 HEAD_JOINT1:0.991924,0.116147,-0.000000,0.050952 LARM_JOINT2:0.826452,0.000000,0.036625,-0.561815 LARM_JOINT3:0.955963,0.000000,-0.226815,-0.186249 LLEG_JOINT2:0.998850,-0.001832,0.000000,0.047911 LLEG_JOINT4:0.998347,0.043487,0.000000,-0.037574 RARM_JOINT2:0.832849,0.000000,0.467285,0.296659 RARM_JOINT3:0.984123,0.000000,0.168615,0.055420 RLEG_JOINT2:0.998251,-0.012295,-0.000000,-0.057818 RLEG_JOINT4:0.990057,0.125061,0.000000,0.064403 WAIST:0.999893,-0.000000,0.007902,0.012340 WAIST_JOINT0:0.997979,-0.000000,0.058689,0.024350 WAIST_JOINT1:0.999762,0.019440,-0.000000,0.009874 END:
KINECT_DATA_Sensor  AnkleLeft:-0.012664,-0.682604,0.045524,0.729259 AnkleRight:0.111311,0.991037,-0.025911,-0.069162 ElbowLeft:-0.056092,0.850906,-0.206505,-0.479759 ElbowRight:-0.457007,0.870764,0.144423,0.109805 FootLeft:0.000000,0.000000,0.000000,0.000000 FootRight:0.000000,0.000000,0.000000,0.000000 HandLeft:0.089653,-0.674370,-0.144142,0.718617 HandRight:0.068763,-0.055091,-0.562425,0.822141 HandTipLeft:0.000000,0.000000,0.000000,0.000000 HandTipRight:0.000000,0.000000,0.000000,0.000000 Head:0.000000,0.000000,0.000000,0.000000 HipLeft:0.143263,-0.675588,0.708418,-0.145607 HipRight:-0.157512,0.692901,0.688966,-0.142840 KneeLeft:0.043633,-0.700165,0.041569,0.711433 KneeRight:-0.041136,0.711147,0.023048,0.701460 Neck:-0.057706,0.024401,0.997458,-0.033936 ShoulderLeft:-0.023188,0.777524,-0.628198,0.016903 ShoulderRight:-0.099305,0.799894,0.582743,-0.103528 SpineBase:-0.007892,0.020887,0.999748,0.002344 SpineMid:-0.032163,0.020824,0.999262,0.002850 SpineShoulder:-0.057372,0.022535,0.998009,-0.013369 ThumbLeft:0.000000,0.000000,0.000000,0.000000 ThumbRight:0.000000,0.000000,0.000000,0.000000 WristLeft:0.161578,-0.655429,-0.110191,0.729495 WristRight:0.021004,-0.091042,-0.468102,0.878721 END:
KINECT_DATA POSITION:40.817539,33.472721,-103.400085 HEAD_JOINT1:0.992086,0.115562,-0.000000,0.049102 LARM_JOINT2:0.827808,0.000000,0.036009,-0.559854 LARM_JOINT3:0.955795,0.000000,-0.224027,-0.190440 LLEG_JOINT2:0.998815,-0.002350,0.000000,0.048615 LLEG_JOINT4:0.998347,0.042679,0.000000,-0.038489 RARM_JOINT2:0.834860,0.000000,0.459899,0.302493 RARM_JOINT3:0.983323,0.000000,0.173322,0.055090 RLEG_JOINT2:0.998222,-0.013969,-0.000000,-0.057940 RLEG_JOINT4:0.990035,0.125537,0.000000,0.063812 WAIST:0.999890,-0.000000,0.008267,0.012350 WAIST_JOINT0:0.997929,-0.000000,0.059654,0.024048 WAIST_JOINT1:0.999778,0.018480,-0.000000,0.010119 END:
KINECT_DATA_Sensor  AnkleLeft:-0.011879,-0.682113,0.044432,0.729799 AnkleRight:0.095103,0.744112,0.061019,0.658429 ElbowLeft:-0.057008,0.853675,-0.208556,-0.473807 ElbowRight:-0.460075,0.863339,0.115184,0.172367 FootLeft:0.000000,0.000000,0.000000,0.000000 FootRight:0.000000,0.000000,0.000000,0.000000 HandLeft:0.087383,-0.690993,-0.138827,0.704003 HandRight:0.069504,-0.039558,-0.534172,0.841585 HandTipLeft:0.000000,0.000000,0.000000,0.000000 HandTipRight:0.000000,0.000000,0.000000,0.000000 Head:0.000000,0.000000,0.000000,0.000000 HipLeft:0.143319,-0.675695,0.708396,-0.145162 HipRight:-0.158306,0.692950,0.688764,-0.142705 KneeLeft:0.044491,-0.699858,0.041725,0.711672 KneeRight:-0.042404,0.711281,0.021909,0.701285 Neck:-0.058879,0.024601,0.997421,-0.032866 ShoulderLeft:-0.023542,0.777072,-0.628772,0.015804 ShoulderRight:-0.101240,0.799445,0.582911,-0.104178 SpineBase:-0.008256,0.021256,0.999736,0.002911 SpineMid:-0.032923,0.021178,0.999228,0.003435 SpineShoulder:-0.058539,0.022764,0.997948,-0.012413 ThumbLeft:0.000000,0.000000,0.000000,0.000000 ThumbRight:0.000000,0.000000,0.000000,0.000000 WristLeft:0.163011,-0.671257,-0.108121,0.714948 WristRight:0.009696,-0.079341,-0.481611,0.872732 END:
KINECT_DATA POSITION:40.789780,33.517998,-103.519676 HEAD_JOINT1:0.991897,0.116981,-0.000000,0.049559 LARM_JOINT2:0.827999,0.000000,0.034947,-0.559640 LARM_JOINT3:0.956227,0.000000,-0.223033,-0.189438 LLEG_JOINT2:0.998790,-0.002925,0.000000,0.049100 LLEG_JOINT4:0.998330,0.042678,0.000000,-0.038925 RARM_JOINT2:0.833173,0.000000,0.463137,0.302203 RARM_JOINT3:0.983753,0.000000,0.171136,0.054252 RLEG_JOINT2:0.998227,-0.016030,-0.000000,-0.057318 RLEG_JOINT4:0.989745,0.127585,0.000000,0.064234 WAIST:0.999903,-0.000000,0.006785,0.012158 WAIST_JOINT0:0.997985,-0.000000,0.058559,0.024423 WAIST_JOINT1:0.999778,0.018479,-0.000000,0.010140 END:
KINECT_DATA_Sensor  AnkleLeft:-0.009412,-0.647568,0.044452,0.760652 AnkleRight:0.109546,0.989611,-0.028401,-0.088672 ElbowLeft:-0.058092,0.854557,-0.208220,-0.472230 ElbowRight:-0.457018,0.868625,0.130096,0.140358 FootLeft:0.000000,0.000000,0.000000,0.000000 FootRight:0.000000,0.000000,0.000000,0.000000 HandLeft:0.083802,-0.675689,-0.137976,0.719294 HandRight:0.061082,-0.032771,-0.553807,0.829755 HandTipLeft:0.000000,0.000000,0.000000,0.000000 HandTipRight:0.000000,0.000000,0.000000,0.000000 Head:0.000000,0.000000,0.000000,0.000000 HipLeft:0.144153,-0.675718,0.708033,-0.145997 HipRight:-0.157507,0.693049,0.689024,-0.141845 KneeLeft:0.045155,-0.700890,0.041477,0.710629 KneeRight:-0.043500,0.710111,0.020208,0.702454 Neck:-0.057861,0.024429,0.997484,-0.032867 ShoulderLeft:-0.023253,0.776771,-0.629151,0.015963 ShoulderRight:-0.099612,0.799846,0.582897,-0.102737 SpineBase:-0.006775,0.021240,0.999747,0.002956 SpineMid:-0.031672,0.021160,0.999268,0.003484 SpineShoulder:-0.057520,0.022642,0.998011,-0.012388 ThumbLeft:0.000000,0.000000,0.000000,0.000000 ThumbRight:0.000000,0.000000,0.000000,0.000000 WristLeft:0.160766,-0.655986,-0.112012,0.728896 WristRight:0.006944,-0.071911,-0.473144,0.878018 END:
KINECT_DATA POSITION:40.763672,33.576374,-103.689980 HEAD_JOINT1:0.992023,0.116267,-0.000000,0.048701 LARM_JOINT2:0.827131,0.000000,0.034497,-0.560949 LARM_JOINT3:0.956771,0.000000,-0.223186,-0.186488 LLEG_JOINT2:0.998802,-0.004039,0.000000,0.048766 LLEG_JOINT4:0.998346,0.042742,0.000000,-0.038453 RARM_JOINT2:0.831530,0.000000,0.467249,0.300394 RARM_JOINT3:0.984495,0.000000,0.166072,0.056479 RLEG_JOINT2:0.998192,-0.017663,-0.000000,-0.057453 RLEG_JOINT4:0.989592,0.128368,0.000000,0.065027 WAIST:0.999906,-0.000000,0.005672,0.012446 WAIST_JOINT0:0.998087,-0.000000,0.056684,0.024687 WAIST_JOINT1:0.999793,0.017796,-0.000000,0.009882 END:
KINECT_DATA_Sensor  AnkleLeft:-0.010440,-0.683875,0.043518,0.728225 AnkleRight:0.095123,0.734033,0.060112,0.669726 ElbowLeft:-0.058949,0.854455,-0.206230,-0.473182 ElbowRight:-0.454713,0.872286,0.146788,0.103952 FootLeft:0.000000,0.000000,0.000000,0.000000 FootRight:0.000000,0.000000,0.000000,0.000000 HandLeft:-0.094791,0.707566,0.137815,-0.686565 HandRight:0.062927,-0.047618,-0.565315,0.821091 HandTipLeft:0.000000,0.000000,0.000000,0.000000 HandTipRight:0.000000,0.000000,0.000000,0.000000 Head:0.000000,0.000000,0.000000,0.000000 HipLeft:0.145270,-0.675522,0.707920,-0.146343 HipRight:-0.157397,0.693476,0.688807,-0.140936 KneeLeft:0.045954,-0.701659,0.040617,0.709868 KneeRight:-0.044509,0.709219,0.018990,0.703326 Neck:-0.055957,0.024370,0.997617,-0.032184 ShoulderLeft:-0.024173,0.776760,-0.629119,0.016421 ShoulderRight:-0.098019,0.800342,0.582919,-0.100254 SpineBase:-0.005659,0.021410,0.999748,0.003600 SpineMid:-0.030163,0.021315,0.999309,0.004123 SpineShoulder:-0.055609,0.022668,0.998127,-0.011711 ThumbLeft:0.000000,0.000000,0.000000,0.000000 ThumbRight:0.000000,0.000000,0.000000,0.000000 WristLeft:0.165665,-0.687456,-0.103374,0.699480 WristRight:0.015746,-0.083733,-0.465149,0.881123 END:
KINECT_DATA POSITION:40.752075,33.598751,-103.754829 HEAD_JOINT1:0.991865,0.116739,-0.000000,0.050752 LARM_JOINT2:0.827347,0.000000,0.034479,-0.560631 LARM_JOINT3:0.955842,0.000000,-0.226396,-0.187381 LLEG_JOINT2:0.998775,-0.004527,0.000000,0.049281 LLEG_JOINT4:0.998288,0.043278,0.000000,-0.039352 RARM_JOINT2:0.832547,0.000000,0.463857,0.302824 RARM_JOINT3:0.984466,0.000000,0.165953,0.057327 RLEG_JOINT2:0.998172,-0.018941,-0.000000,-0.057398 RLEG_JOINT4:0.989678,0.128123,0.000000,0.064196 WAIST:0.999914,-0.000000,0.003565,0.012603 WAIST_JOINT0:0.998139,-0.000000,0.055677,0.024889 WAIST_JOINT1:0.999803,0.017487,-0.000000,0.009408 END:
KINECT_DATA_Sensor  AnkleLeft:-0.010506,-0.684440,0.043448,0.727697 AnkleRight:0.106791,0.989106,-0.030084,-0.096751 ElbowLeft:-0.059509,0.855790,-0.206075,-0.470760 ElbowRight:-0.451890,0.872914,0.148718,0.108163 FootLeft:0.000000,0.000000,0.000000,0.000000 FootRight:0.000000,0.000000,0.000000,0.000000 HandLeft:0.092990,-0.669429,-0.154414,0.720676 HandRight:0.050792,-0.042453,-0.562109,0.824410 HandTipLeft:0.000000,0.000000,0.000000,0.000000 HandTipRight:0.000000,0.000000,0.000000,0.000000 Head:0.000000,0.000000,0.000000,0.000000 HipLeft:0.146583,-0.675292,0.707674,-0.147282 HipRight:-0.156119,0.693898,0.688938,-0.139631 KneeLeft:0.046841,-0.703113,0.040670,0.708367 KneeRight:-0.045202,0.707655,0.018042,0.704880 Neck:-0.054822,0.024055,0.997699,-0.031806 ShoulderLeft:-0.025523,0.777042,-0.628693,0.017312 ShoulderRight:-0.097903,0.800727,0.582560,-0.099374 SpineBase:-0.003549,0.021219,0.999761,0.003787 SpineMid:-0.028536,0.021118,0.999360,0.004316 SpineShoulder:-0.054477,0.022402,0.998199,-0.011383 ThumbLeft:0.000000,0.000000,0.000000,0.000000 ThumbRight:0.000000,0.000000,0.000000,0.000000 WristLeft:0.159577,-0.651392,-0.112084,0.733253 WristRight:0.008403,-0.075209,-0.463262,0.882984 END:
KINECT_DATA POSITION:40.738689,33.603825,-103.790352 HEAD_JOINT1:0.992193,0.115736,-0.000000,0.046449 LARM_JOINT2:0.825052,0.000000,0.037230,-0.563828 LARM_JOINT3:0.957453,0.000000,-0.221176,-0.185379 LLEG_JOINT2:0.998772,-0.005058,0.000000,0.049291 LLEG_JOINT4:0.998312,0.043278,0.000000,-0.038722 RARM_JOINT2:0.835540,0.000000,0.465192,0.292349 RARM_JOINT3:0.981247,0.000000,0.179831,0.069396 RLEG_JOINT2:0.998103,-0.019939,-0.000000,-0.058250 RLEG_JOINT4:0.989249,0.130924,0.000000,0.065155 WAIST:0.999892,-0.000000,0.007271,0.012737 WAIST_JOINT0:0.997768,-0.000000,0.061919,0.024985 WAIST_JOINT1:0.999810,0.016404,-0.000000,0.010550 END:
KINECT_DATA_Sensor  AnkleLeft:-0.009673,-0.681154,0.043538,0.730780 AnkleRight:0.109162,0.990210,-0.028140,-0.082322 ElbowLeft:-0.059494,0.847220,-0.203564,-0.487073 ElbowRight:-0.457183,0.870163,0.158793,0.092652 FootLeft:0.000000,0.000000,0.000000,0.000000 FootRight:0.000000,0.000000,0.000000,0.000000 HandLeft:-0.131789,0.956142,0.078775,-0.249437 HandRight:0.061462,-0.017211,-0.565258,0.822441 HandTipLeft:0.000000,0.000000,0.000000,0.000000 HandTipRight:0.000000,0.000000,0.000000,0.000000 Head:0.000000,0.000000,0.000000,0.000000 HipLeft:0.145033,-0.675654,0.708095,-0.145118 HipRight:-0.158958,0.693696,0.688170,-0.141211 KneeLeft:0.047204,-0.700458,0.040537,0.710976 KneeRight:-0.046516,0.710147,0.017628,0.702294 Neck:-0.060890,0.025514,0.997351,-0.030526 ShoulderLeft:-0.021768,0.777519,-0.628384,0.011139 ShoulderRight:-0.101856,0.800771,0.581221,-0.102825 SpineBase:-0.007252,0.021792,0.999726,0.004527 SpineMid:-0.033402,0.021666,0.999194,0.005095 SpineShoulder:-0.060539,0.023518,0.997836,-0.010266 ThumbLeft:0.000000,0.000000,0.000000,0.000000 ThumbRight:0.000000,0.000000,0.000000,0.000000 WristLeft:-0.199762,0.945886,0.002022,-0.255714 WristRight:0.012789,-0.052610,-0.466181,0.883031 END:
KINECT_DATA POSITION:40.567699,33.561291,-103.886368 HEAD_JOINT1:0.993186,0.112612,-0.000000,0.030001 LARM_JOINT2:0.818491,0.000000,0.051842,-0.572176 LARM_JOINT3:0.957462,0.000000,-0.227368,-0.177680 LLEG_JOINT2:0.998626,-0.007639,0.000000,0.051853 LLEG_JOINT4:0.998562,0.040642,0.000000,-0.034947 RARM_JOINT2:0.834765,0.000000,0.487637,0.255690 RARM_JOINT3:0.977985,0.000000,0.177873,0.109121 RLEG_JOINT2:0.998001,-0.019637,-0.000000,-0.060073 RLEG_JOINT4:0.991016,0.121306,0.000000,0.056317 WAIST:0.999667,-0.000000,0.023265,0.011151 WAIST_JOINT0:0.995747,-0.000000,0.088638,0.025112 WAIST_JOINT1:0.999769,0.014798,-0.000000,0.015574 END:
KINECT_DATA_Sensor  AnkleLeft:-0.003058,-0.667113,0.042934,0.743712 AnkleRight:0.100186,0.985352,-0.017505,-0.136884 ElbowLeft:-0.048960,0.826181,-0.201144,-0.523994 ElbowRight:-0.489266,0.855353,0.158846,0.061304 FootLeft:0.000000,0.000000,0.000000,0.000000 FootRight:0.000000,0.000000,0.000000,0.000000 HandLeft:0.081337,-0.686860,-0.124845,0.711352 HandRight:0.106382,0.012981,-0.488777,0.865801 HandTipLeft:0.000000,0.000000,0.000000,0.000000 HandTipRight:0.000000,0.000000,0.000000,0.000000 Head:0.000000,0.000000,0.000000,0.000000 HipLeft:0.135465,-0.678744,0.708926,-0.135574 HipRight:-0.169274,0.691646,0.686493,-0.147308 KneeLeft:0.049215,-0.688862,0.040088,0.722108 KneeRight:-0.049171,0.721124,0.019326,0.690789 Neck:-0.087269,0.029149,0.995341,-0.028808 ShoulderLeft:-0.003822,0.779408,-0.626360,-0.013503 ShoulderRight:-0.117217,0.801086,0.574536,-0.120127 SpineBase:-0.023273,0.024685,0.999405,0.006165 SpineMid:-0.054475,0.024481,0.998191,0.006933 SpineShoulder:-0.086887,0.026678,0.995825,-0.008467 ThumbLeft:0.000000,0.000000,0.000000,0.000000 ThumbRight:0.000000,0.000000,0.000000,0.000000 WristLeft:0.174452,-0.662236,-0.100920,0.721682 WristRight:0.033446,-0.028063,-0.491068,0.870026 END:
KINECT_DATA POSITION:40.566822,33.558807,-103.938271 HEAD_JOINT1:0.994017,0.107485,-0.000000,0.019438 LARM_JOINT2:0.816859,0.000000,0.055947,-0.574117 LARM_JOINT3:0.958567,0.000000,-0.229486,-0.168776 LLEG_JOINT2:0.998514,-0.008842,0.000000,0.053777 LLEG_JOINT4:0.998596,0.039030,0.000000,-0.035811 RARM_JOINT2:0.837742,0.000000,0.488780,0.243481 RARM_JOINT3:0.972314,0.000000,0.196855,0.125913 RLEG_JOINT2:0.997999,-0.020032,-0.000000,-0.059978 RLEG_JOINT4:0.988761,0.132021,0.000000,0.070154 WAIST:0.999375,-0.000000,0.033775,0.010418 WAIST_JOINT0:0.994152,-0.000000,0.105697,0.022146 WAIST_JOINT1:0.999753,0.012963,-0.000000,0.018061 END:
KINECT_DATA_Sensor  AnkleLeft:-0.001112,-0.657548,0.041094,0.752290 AnkleRight:0.110503,0.987415,-0.026474,-0.110001 ElbowLeft:-0.047446,0.814200,-0.200889,-0.542651 ElbowRight:-0.499841,0.849853,0.157400,0.055984 FootLeft:0.000000,0.000000,0.000000,0.000000 FootRight:0.000000,0.000000,0.000000,0.000000 HandLeft:-0.100784,0.702086,0.110271,-0.696246 HandRight:0.139826,0.057316,-0.472215,0.868433 HandTipLeft:0.000000,0.000000,0.000000,0.000000 HandTipRight:0.000000,0.000000,0.000000,0.000000 Head:0.000000,0.000000,0.000000,0.000000 HipLeft:0.129953,-0.680050,0.709882,-0.129273 HipRight:-0.177638,0.689584,0.685190,-0.153080 KneeLeft:0.050552,-0.681118,0.040584,0.729298 KneeRight:-0.050173,0.728292,0.018885,0.683167 Neck:-0.104476,0.031195,0.993679,-0.026727 ShoulderLeft:0.003785,0.780290,-0.624808,-0.027369 ShoulderRight:-0.131580,0.797986,0.572783,-0.133511 SpineBase:-0.033799,0.025720,0.999071,0.007270 SpineMid:-0.068273,0.025454,0.997309,0.008153 SpineShoulder:-0.104094,0.028172,0.994146,-0.006640 ThumbLeft:0.000000,0.000000,0.000000,0.000000 ThumbRight:0.000000,0.000000,0.000000,0.000000 WristLeft:0.182973,-0.678620,-0.089102,0.705731 WristRight:0.038342,0.001386,-0.499763,0.865312 END:
KINECT_DATA POSITION:41.428558,33.588112,-103.675819 HEAD_JOINT1:0.994580,0.103188,0.000000,-0.012779 LARM_JOINT2:0.811460,0.000000,0.061521,-0.581161 LARM_JOINT3:0.956567,0.000000,-0.236416,-0.170549 LLEG_JOINT2:0.998681,-0.012276,0.000000,0.049859 LLEG_JOINT4:0.998832,0.038133,0.000000,-0.029674 RARM_JOINT2:0.866455,0.000000,0.445788,0.224786 RARM_JOINT3:0.951559,0.000000,0.266689,0.153008 RLEG_JOINT2:0.997526,-0.009854,-0.000000,-0.069607 RLEG_JOINT4:0.987356,0.135882,0.000000,0.081640 WAIST:0.997170,-0.000000,0.074675,0.008738 WAIST_JOINT0:0.988878,-0.000000,0.147621,0.018104 WAIST_JOINT1:0.999639,0.008507,-0.000000,0.025471 END:
KINECT_DATA_Sensor  AnkleLeft:0.000626,-0.633372,0.038288,0.772899 AnkleRight:0.126384,0.989088,-0.012975,-0.074586 ElbowLeft:-0.038148,0.790673,-0.199313,-0.577628 ElbowRight:-0.506070,0.843380,0.162521,0.078678 FootLeft:0.000000,0.000000,0.000000,0.000000 FootRight:0.000000,0.000000,0.000000,0.000000 HandLeft:0.116883,-0.672782,-0.102893,0.723267 HandRight:0.139275,0.075879,-0.468798,0.868949 HandTipLeft:0.000000,0.000000,0.000000,0.000000 HandTipRight:0.000000,0.000000,0.000000,0.000000 Head:0.000000,0.000000,0.000000,0.000000 HipLeft:0.114981,-0.683072,0.712225,-0.113702 HipRight:-0.213843,0.682095,0.676349,-0.177677 KneeLeft:0.048019,-0.650746,0.035922,0.756924 KneeRight:-0.053038,0.756024,0.031743,0.651619 Neck:-0.147006,0.035989,0.988203,-0.023413 ShoulderLeft:0.017765,0.778152,-0.625317,-0.056057 ShoulderRight:-0.173326,0.788368,0.565188,-0.170284 SpineBase:-0.074799,0.033048,0.996586,0.011352 SpineMid:-0.109828,0.032628,0.993336,0.012508 SpineShoulder:-0.146515,0.033568,0.988635,-0.002919 ThumbLeft:0.000000,0.000000,0.000000,0.000000 ThumbRight:0.000000,0.000000,0.000000,0.000000 WristLeft:0.189636,-0.654822,-0.092334,0.725756 WristRight:0.109280,0.054406,-0.503899,0.855093 END:
KINECT_DATA POSITION:42.626476,33.701038,-103.230789 HEAD_JOINT1:0.994813,0.092699,0.000000,-0.041875 LARM_JOINT2:0.802646,0.000000,0.067182,-0.592661 LARM_JOINT3:0.956914,0.000000,-0.236138,-0.168980 LLEG_JOINT2:0.999142,-0.012535,0.000000,0.039477 LLEG_JOINT4:0.999123,0.033972,0.000000,-0.024480 RARM_JOINT2:0.859209,0.000000,0.445582,0.251430 RARM_JOINT3:0.950243,0.000000,0.289770,0.114333 RLEG_JOINT2:0.996530,0.008262,0.000000,-0.082825 RLEG_JOINT4:0.988458,0.119707,0.000000,0.092847 WAIST:0.992856,-0.000000,0.118807,0.011012 WAIST_JOINT0:0.983306,-0.000000,0.181740,0.008890 WAIST_JOINT1:0.999493,0.002032,-0.000000,0.031778 END:
KINECT_DATA_Sensor  AnkleLeft:0.000401,-0.612284,0.032790,0.789957 AnkleRight:0.128072,0.988877,-0.002077,-0.075604 ElbowLeft:-0.029935,0.762705,-0.193724,-0.616325 ElbowRight:-0.502133,0.855937,0.108346,0.059122 FootLeft:0.000000,0.000000,0.000000,0.000000 FootRight:0.000000,0.000000,0.000000,0.000000 HandLeft:0.127881,-0.650976,-0.095252,0.742162 HandRight:0.243500,0.127488,-0.570884,0.773658 HandTipLeft:0.000000,0.000000,0.000000,0.000000 HandTipRight:0.000000,0.000000,0.000000,0.000000 Head:0.000000,0.000000,0.000000,0.000000 HipLeft:0.093057,-0.684339,0.717580,-0.089998 HipRight:-0.243898,0.677960,0.664659,-0.197768 KneeLeft:0.042055,-0.616713,0.031032,0.785451 KneeRight:-0.052132,0.785373,0.050037,0.614791 Neck:-0.181965,0.044483,0.982123,-0.018534 ShoulderLeft:0.039875,0.775163,-0.623814,-0.091587 ShoulderRight:-0.195718,0.775410,0.569682,-0.189461 SpineBase:-0.118962,0.040979,0.991933,0.015412 SpineMid:-0.149350,0.040486,0.987815,0.016663 SpineShoulder:-0.181316,0.041986,0.982526,0.001900 ThumbLeft:0.000000,0.000000,0.000000,0.000000 ThumbRight:0.000000,0.000000,0.000000,0.000000 WristLeft:0.195931,-0.634548,-0.086318,0.742637 WristRight:0.140351,0.070313,-0.496888,0.853499 END:
KINECT_DATA POSITION:42.732792,33.818501,-103.294708 HEAD_JOINT1:0.994581,0.087162,0.000000,-0.056662 LARM_JOINT2:0.798810,0.000000,0.075887,-0.596778 LARM_JOINT3:0.955708,0.000000,-0.242900,-0.166198 LLEG_JOINT2:0.998906,-0.015039,0.000000,0.044287 LLEG_JOINT4:0.999023,0.034189,0.000000,-0.028005 RARM_JOINT2:0.847615,0.000000,0.460441,0.263711 RARM_JOINT3:0.943300,0.000000,0.316700,0.099425 RLEG_JOINT2:0.996833,0.004872,0.000000,-0.079371 RLEG_JOINT4:0.988371,0.120267,0.000000,0.093053 WAIST:0.991660,-0.000000,0.128678,0.007260 WAIST_JOINT0:0.980157,-0.000000,0.198120,0.006355 WAIST_JOINT1:0.999320,0.001357,-0.000000,0.036842 END:
KINECT_DATA_Sensor  AnkleLeft:0.000174,-0.601992,0.029686,0.797950 AnkleRight:0.090933,0.768494,0.086770,0.627391 ElbowLeft:-0.023138,0.746713,-0.191841,-0.636460 ElbowRight:-0.506040,0.854279,0.041423,0.111425 FootLeft:0.000000,0.000000,0.000000,0.000000 FootRight:0.000000,0.000000,0.000000,0.000000 HandLeft:0.129359,-0.610349,-0.104238,0.774516 HandRight:0.286231,0.097233,-0.519911,0.798943 HandTipLeft:0.000000,0.000000,0.000000,0.000000 HandTipRight:0.000000,0.000000,0.000000,0.000000 Head:0.000000,0.000000,0.000000,0.000000 HipLeft:0.085247,-0.687139,0.716643,-0.083645 HipRight:-0.249218,0.674211,0.665446,-0.201275 KneeLeft:0.044091,-0.608771,0.030999,0.791513 KneeRight:-0.054699,0.791251,0.047278,0.607202 Neck:-0.198781,0.046470,0.978770,-0.018325 ShoulderLeft:0.053010,0.773106,-0.622853,-0.107475 ShoulderRight:-0.204074,0.771067,0.569027,-0.200044 SpineBase:-0.128929,0.041974,0.990654,0.014834 SpineMid:-0.162699,0.041442,0.985671,0.016259 SpineShoulder:-0.198151,0.043113,0.979221,0.001981 ThumbLeft:0.000000,0.000000,0.000000,0.000000 ThumbRight:0.000000,0.000000,0.000000,0.000000 WristLeft:0.194807,-0.594076,-0.090882,0.775155 WristRight:0.214440,0.053562,-0.517840,0.826431 END:
KINECT_DATA POSITION:42.894749,34.203323,-103.644821 HEAD_JOINT1:0.994605,0.076711,0.000000,-0.069836 LARM_JOINT2:0.799912,0.000000,0.081469,-0.594561 LARM_JOINT3:0.955165,0.000000,-0.242921,-0.169262 LLEG_JOINT2:0.998445,-0.024002,0.000000,0.050323 LLEG_JOINT4:0.998777,0.039836,0.000000,-0.029282 RARM_JOINT2:0.839230,0.000000,0.468233,0.276497 RARM_JOINT3:0.940959,0.000000,0.329515,0.077561 RLEG_JOINT2:0.997048,0.000996,0.000000,-0.076773 RLEG_JOINT4:0.983897,0.124298,0.000000,0.128437 WAIST:0.988884,-0.000000,0.148688,0.000058 WAIST_JOINT0:0.976547,-0.000000,0.215207,0.006492 WAIST_JOINT1:0.998956,0.000877,-0.000000,0.045677 END:
KINECT_DATA_Sensor  AnkleLeft:-0.000126,-0.591276,0.026341,0.806039 AnkleRight:0.134666,0.990772,-0.015174,-0.002474 ElbowLeft:-0.014535,0.737919,-0.197673,-0.645128 ElbowRight:-0.499550,0.857018,-0.005075,0.126269 FootLeft:0.000000,0.000000,0.000000,0.000000 FootRight:0.000000,0.000000,0.000000,0.000000 HandLeft:0.147316,-0.664101,-0.078313,0.728790 HandRight:0.289049,0.161257,-0.543227,0.771590 HandTipLeft:0.000000,0.000000,0.000000,0.000000 HandTipRight:0.000000,0.000000,0.000000,0.000000 Head:0.000000,0.000000,0.000000,0.000000 HipLeft:0.070021,-0.693272,0.713588,-0.072551 HipRight:-0.258807,0.667154,0.666152,-0.210156 KneeLeft:0.049259,-0.592765,0.026235,0.803439 KneeRight:-0.061056,0.802867,0.046460,0.591201 Neck:-0.215491,0.048134,0.975123,-0.019549 ShoulderLeft:0.067534,0.767103,-0.626524,-0.120248 ShoulderRight:-0.212525,0.763069,0.572432,-0.211851 SpineBase:-0.149036,0.042642,0.987835,0.012312 SpineMid:-0.181196,0.042217,0.982445,0.013697 SpineShoulder:-0.214875,0.044659,0.975620,0.000262 ThumbLeft:0.000000,0.000000,0.000000,0.000000 ThumbRight:0.000000,0.000000,0.000000,0.000000 WristLeft:0.199032,-0.651786,-0.066441,0.728798 WristRight:0.222196,0.120250,-0.539170,0.803408 END:
KINECT_DATA POSITION:43.215179,34.688152,-103.951622 HEAD_JOINT1:0.994932,0.069777,0.000000,-0.072395 LARM_JOINT2:0.796743,0.000000,0.061313,-0.601200 LARM_JOINT3:0.955651,0.000000,-0.241902,-0.167973 LLEG_JOINT2:0.998301,-0.029985,0.000000,0.049957 LLEG_JOINT4:0.998746,0.041147,0.000000,-0.028534 RARM_JOINT2:0.818380,0.000000,0.501331,0.280929 RARM_JOINT3:0.948872,0.000000,0.308208,0.068187 RLEG_JOINT2:0.997277,0.003915,0.000000,-0.073643 RLEG_JOINT4:0.988537,0.119825,0.000000,0.091850 WAIST:0.985258,0.000000,0.171048,-0.003069 WAIST_JOINT0:0.973205,-0.000000,0.229920,0.002970 WAIST_JOINT1:0.998788,0.002164,-0.000000,0.049167 END:
KINECT_DATA_Sensor  AnkleLeft:0.000867,-0.581621,0.021754,0.813169 AnkleRight:0.028060,0.417177,0.121671,0.900207 ElbowLeft:-0.018582,0.736504,-0.188123,-0.649481 ElbowRight:-0.499883,0.858159,-0.057775,0.101694 FootLeft:0.000000,0.000000,0.000000,0.000000 FootRight:0.000000,0.000000,0.000000,0.000000 HandLeft:0.162688,-0.606303,-0.118268,0.769378 HandRight:0.302868,0.211293,-0.527057,0.765400 HandTipLeft:0.000000,0.000000,0.000000,0.000000 HandTipRight:0.000000,0.000000,0.000000,0.000000 Head:0.000000,0.000000,0.000000,0.000000 HipLeft:0.055057,-0.697208,0.712287,-0.059310 HipRight:-0.268617,0.661610,0.663548,-0.223206 KneeLeft:0.051114,-0.574659,0.021407,0.816514 KneeRight:-0.060034,0.816309,0.047877,0.572488 Neck:-0.229966,0.048906,0.971695,-0.023069 ShoulderLeft:0.088935,0.762204,-0.626340,-0.137239 ShoulderRight:-0.210125,0.754819,0.582187,-0.217150 SpineBase:-0.171364,0.041593,0.984274,0.010454 SpineMid:-0.199740,0.041274,0.978910,0.011652 SpineShoulder:-0.229411,0.044468,0.972309,-0.002882 ThumbLeft:0.000000,0.000000,0.000000,0.000000 ThumbRight:0.000000,0.000000,0.000000,0.000000 WristLeft:0.191601,-0.596074,-0.077938,0.775829 WristRight:0.223640,0.156992,-0.545145,0.792563 END:
KINECT_DATA POSITION:43.459713,34.847012,-103.997971 HEAD_JOINT1:0.994728,0.066704,0.000000,-0.077891 LARM_JOINT2:0.796220,0.000000,0.051434,-0.602817 LARM_JOINT3:0.955793,0.000000,-0.237110,-0.173894 LLEG_JOINT2:0.998300,-0.034247,0.000000,0.047156 LLEG_JOINT4:0.998660,0.044740,0.000000,-0.026000 RARM_JOINT2:0.817445,0.000000,0.498842,0.287992 RARM_JOINT3:0.941941,0.000000,0.326910,0.076659 RLEG_JOINT2:0.997112,0.009479,0.000000,-0.075354 RLEG_JOINT4:0.988954,0.114056,0.000000,0.094662 WAIST:0.982358,0.000000,0.186972,-0.003745 WAIST_JOINT0:0.972201,-0.000000,0.234128,0.002905 WAIST_JOINT1:0.998687,0.000056,-0.000000,0.051236 END:
KINECT_DATA_Sensor  AnkleLeft:0.000144,-0.578844,0.020725,0.815175 AnkleRight:0.024460,0.416429,0.122396,0.900560 ElbowLeft:-0.020834,0.740822,-0.185887,-0.645132 ElbowRight:-0.495101,0.862925,-0.062635,0.079447 FootLeft:0.000000,0.000000,0.000000,0.000000 FootRight:0.000000,0.000000,0.000000,0.000000 HandLeft:0.158607,-0.574015,-0.127202,0.793202 HandRight:0.416956,0.125636,-0.465264,0.770644 HandTipLeft:0.000000,0.000000,0.000000,0.000000 HandTipRight:0.000000,0.000000,0.000000,0.000000 Head:0.000000,0.000000,0.000000,0.000000 HipLeft:0.045091,-0.697470,0.713623,-0.047382 HipRight:-0.278517,0.658113,0.660582,-0.230101 KneeLeft:0.052195,-0.561473,0.017084,0.825670 KneeRight:-0.059457,0.825902,0.053037,0.558156 Neck:-0.233910,0.050659,0.970673,-0.022675 ShoulderLeft:0.092282,0.760087,-0.627524,-0.141301 ShoulderRight:-0.212405,0.752159,0.584284,-0.218524 SpineBase:-0.187338,0.042489,0.981307,0.011644 SpineMid:-0.209775,0.042211,0.976757,0.012615 SpineShoulder:-0.233344,0.045796,0.971312,-0.002439 ThumbLeft:0.000000,0.000000,0.000000,0.000000 ThumbRight:0.000000,0.000000,0.000000,0.000000 WristLeft:0.187816,-0.564087,-0.090506,0.798962 WristRight:0.327051,0.065246,-0.492164,0.804086 END:
KINECT_DATA POSITION:43.456081,34.679188,-103.978134 HEAD_JOINT1:0.994297,0.063691,0.000000,-0.085540 LARM_JOINT2:0.792600,0.000000,0.045970,-0.608007 LARM_JOINT3:0.960531,0.000000,-0.228952,-0.157991 LLEG_JOINT2:0.998328,-0.031438,0.000000,0.048499 LLEG_JOINT4:0.998713,0.042495,0.000000,-0.027668 RARM_JOINT2:0.773883,0.000000,0.548678,0.316318 RARM_JOINT3:0.947234,0.000000,0.314052,0.064187 RLEG_JOINT2:0.997163,0.007733,0.000000,-0.074876 RLEG_JOINT4:0.988637,0.117490,0.000000,0.093767 WAIST:0.983721,0.000000,0.179672,-0.003139 WAIST_JOINT0:0.971902,-0.000000,0.235332,0.004947 WAIST_JOINT1:0.998790,0.000938,-0.000000,0.049172 END:
KINECT_DATA_Sensor  AnkleLeft:0.000262,-0.578295,0.021181,0.815553 AnkleRight:0.026538,0.415927,0.123583,0.900571 ElbowLeft:-0.024025,0.744517,-0.177429,-0.643146 ElbowRight:-0.477160,0.864789,-0.134855,0.079199 FootLeft:0.000000,0.000000,0.000000,0.000000 FootRight:0.000000,0.000000,0.000000,0.000000 HandLeft:0.175022,-0.606353,-0.119316,0.766464 HandRight:0.385784,0.204066,-0.480882,0.760447 HandTipLeft:0.000000,0.000000,0.000000,0.000000 HandTipRight:0.000000,0.000000,0.000000,0.000000 Head:0.000000,0.000000,0.000000,0.000000 HipLeft:0.050981,-0.698902,0.711381,-0.053615 HipRight:-0.274535,0.661407,0.660140,-0.226686 KneeLeft:0.051224,-0.567471,0.019797,0.821560 KneeRight:-0.059280,0.821591,0.051299,0.564662 Neck:-0.234759,0.049061,0.970558,-0.022332 ShoulderLeft:0.094815,0.758711,-0.628470,-0.142803 ShoulderRight:-0.210862,0.753003,0.583828,-0.218329 SpineBase:-0.180026,0.041386,0.982723,0.011582 SpineMid:-0.206509,0.041058,0.977500,0.012696 SpineShoulder:-0.234215,0.044400,0.971168,-0.002304 ThumbLeft:0.000000,0.000000,0.000000,0.000000 ThumbRight:0.000000,0.000000,0.000000,0.000000 WristLeft:0.183360,-0.600683,-0.073231,0.774723 WristRight:0.327992,0.154570,-0.519843,0.773494 END:
KINECT_DATA POSITION:43.602467,34.213528,-103.995010 HEAD_JOINT1:0.994172,0.060691,0.000000,-0.089104 LARM_JOINT2:0.791018,0.000000,0.035018,-0.610790 LARM_JOINT3:0.966667,0.000000,-0.209315,-0.147454 LLEG_JOINT2:0.998246,-0.032226,0.000000,0.049662 LLEG_JOINT4:0.998776,0.041700,0.000000,-0.026614 RARM_JOINT2:0.744171,0.000000,0.586687,0.319386 RARM_JOINT3:0.957403,0.000000,0.284145,0.051394 RLEG_JOINT2:0.997292,0.009043,0.000000,-0.072985 RLEG_JOINT4:0.989075,0.117146,0.000000,0.089487 WAIST:0.983156,0.000000,0.182662,-0.006182 WAIST_JOINT0:0.970783,-0.000000,0.239579,0.013532 WAIST_JOINT1:0.998674,0.001012,-0.000000,0.051462 END:
KINECT_DATA_Sensor  AnkleLeft:0.000610,-0.576117,0.019977,0.817122 AnkleRight:0.020220,0.413492,0.125696,0.901563 ElbowLeft:-0.025638,0.759986,-0.172368,-0.626141 ElbowRight:-0.473058,0.860034,-0.181034,0.061516 FootLeft:0.000000,0.000000,0.000000,0.000000 FootRight:0.000000,0.000000,0.000000,0.000000 HandLeft:0.189466,-0.622182,-0.108340,0.751834 HandRight:0.425953,0.182128,-0.452316,0.762105 HandTipLeft:0.000000,0.000000,0.000000,0.000000 HandTipRight:0.000000,0.000000,0.000000,0.000000 Head:0.000000,0.000000,0.000000,0.000000 HipLeft:0.046054,-0.701392,0.709585,-0.049167 HipRight:-0.273112,0.659141,0.662604,-0.227815 KneeLeft:0.050314,-0.565048,0.018330,0.823318 KneeRight:-0.059257,0.823352,0.053294,0.561908 Neck:-0.238773,0.048301,0.969601,-0.022994 ShoulderLeft:0.107064,0.748380,-0.637591,-0.148129 ShoulderRight:-0.205081,0.753456,0.585708,-0.217236 SpineBase:-0.183035,0.040148,0.982229,0.010630 SpineMid:-0.210090,0.039839,0.976799,0.011735 SpineShoulder:-0.238251,0.043609,0.970220,-0.002934 ThumbLeft:0.000000,0.000000,0.000000,0.000000 ThumbRight:0.000000,0.000000,0.000000,0.000000 WristLeft:0.167288,-0.622199,-0.054703,0.762818 WristRight:0.360765,0.123948,-0.502145,0.776103 END:
KINECT_DATA POSITION:43.617676,34.039146,-104.115822 HEAD_JOINT1:0.994218,0.059029,0.000000,-0.089700 LARM_JOINT2:0.792903,0.000000,0.025465,-0.608815 LARM_JOINT3:0.966405,0.000000,-0.207510,-0.151663 LLEG_JOINT2:0.998236,-0.033545,0.000000,0.048991 LLEG_JOINT4:0.998797,0.040772,0.000000,-0.027261 RARM_JOINT2:0.748947,0.000000,0.593043,0.295597 RARM_JOINT3:0.955252,0.000000,0.288888,0.063549 RLEG_JOINT2:0.997290,0.012771,0.000000,-0.072452 RLEG_JOINT4:0.989817,0.112477,0.000000,0.087246 WAIST:0.981696,0.000000,0.190350,-0.006258 WAIST_JOINT0:0.967925,-0.000000,0.250455,0.019841 WAIST_JOINT1:0.998732,0.001990,-0.000000,0.050300 END:
KINECT_DATA_Sensor  AnkleLeft:0.001531,-0.569402,0.017629,0.821869 AnkleRight:0.016402,0.413833,0.125200,0.901553 ElbowLeft:-0.027726,0.767350,-0.172850,-0.616869 ElbowRight:-0.498119,0.853635,-0.152179,0.005123 FootLeft:0.000000,0.000000,0.000000,0.000000 FootRight:0.000000,0.000000,0.000000,0.000000 HandLeft:0.201841,-0.638237,-0.118984,0.733319 HandRight:0.453124,0.148326,-0.440340,0.760775 HandTipLeft:0.000000,0.000000,0.000000,0.000000 HandTipRight:0.000000,0.000000,0.000000,0.000000 Head:0.000000,0.000000,0.000000,0.000000 HipLeft:0.039593,-0.701824,0.709932,-0.043269 HipRight:-0.274933,0.657693,0.661824,-0.232038 KneeLeft:0.050796,-0.558683,0.017417,0.827641 KneeRight:-0.057132,0.827939,0.055724,0.555111 Neck:-0.249658,0.047019,0.966890,-0.024154 ShoulderLeft:0.115532,0.740480,-0.644349,-0.152168 ShoulderRight:-0.212809,0.750771,0.582400,-0.227740 SpineBase:-0.190655,0.038656,0.980851,0.009347 SpineMid:-0.219372,0.038365,0.974830,0.010478 SpineShoulder:-0.249184,0.042186,0.967529,-0.003967 ThumbLeft:0.000000,0.000000,0.000000,0.000000 ThumbRight:0.000000,0.000000,0.000000,0.000000 WristLeft:0.165348,-0.640337,-0.049306,0.748463 WristRight:0.391481,0.103059,-0.468564,0.785219 END:
KINECT_DATA POSITION:43.565224,33.955376,-104.177307 HEAD_JOINT1:0.994105,0.058922,0.000000,-0.091011 LARM_JOINT2:0.793562,0.000000,0.025778,-0.607943 LARM_JOINT3:0.966259,0.000000,-0.206749,-0.153621 LLEG_JOINT2:0.998197,-0.035818,0.000000,0.048160 LLEG_JOINT4:0.998764,0.042846,0.000000,-0.025177 RARM_JOINT2:0.741540,0.000000,0.601046,0.298097 RARM_JOINT3:0.958674,0.000000,0.279255,0.054420 RLEG_JOINT2:0.997358,0.013223,0.000000,-0.071429 RLEG_JOINT4:0.990125,0.110482,0.000000,0.086296 WAIST:0.981222,0.000000,0.192768,-0.006631 WAIST_JOINT0:0.968994,-0.000000,0.246344,0.019120 WAIST_JOINT1:0.998726,0.001869,-0.000000,0.050426 END:
KINECT_DATA_Sensor  AnkleLeft:0.001962,-0.572066,0.018325,0.820000 AnkleRight:0.015476,0.414679,0.123843,0.901368 ElbowLeft:-0.026121,0.769933,-0.173966,-0.613398 ElbowRight:-0.492418,0.852710,-0.173633,0.016178 FootLeft:0.000000,0.000000,0.000000,0.000000 FootRight:0.000000,0.000000,0.000000,0.000000 HandLeft:0.205425,-0.658192,-0.107187,0.716306 HandRight:0.372486,0.291674,-0.510357,0.718134 HandTipLeft:0.000000,0.000000,0.000000,0.000000 HandTipRight:0.000000,0.000000,0.000000,0.000000 Head:0.000000,0.000000,0.000000,0.000000 HipLeft:0.036942,-0.702115,0.709951,-0.040495 HipRight:-0.275254,0.656997,0.662017,-0.233074 KneeLeft:0.051901,-0.556710,0.015338,0.828942 KneeRight:-0.056420,0.829344,0.055661,0.553089 Neck:-0.245231,0.046778,0.968032,-0.024233 ShoulderLeft:0.114336,0.743105,-0.641829,-0.150925 ShoulderRight:-0.207163,0.753179,0.583012,-0.223388 SpineBase:-0.193062,0.037874,0.980414,0.009002 SpineMid:-0.218424,0.037628,0.975077,0.009981 SpineShoulder:-0.244773,0.041845,0.968667,-0.004396 ThumbLeft:0.000000,0.000000,0.000000,0.000000 ThumbRight:0.000000,0.000000,0.000000,0.000000 WristLeft:0.165340,-0.661192,-0.046777,0.730274 WristRight:0.298356,0.238427,-0.537971,0.751481 END:
KINECT_DATA POSITION:43.544231,33.926582,-104.194046 HEAD_JOINT1:0.993861,0.060349,0.000000,-0.092730 LARM_JOINT2:0.793582,0.000000,0.024460,-0.607971 LARM_JOINT3:0.965457,0.000000,-0.211090,-0.152754 LLEG_JOINT2:0.998237,-0.036091,0.000000,0.047110 LLEG_JOINT4:0.998778,0.042961,0.000000,-0.024432 RARM_JOINT2:0.744682,0.000000,0.603269,0.285510 RARM_JOINT3:0.956756,0.000000,0.283483,0.065225 RLEG_JOINT2:0.997353,0.013740,0.000000,-0.071400 RLEG_JOINT4:0.990707,0.108775,0.000000,0.081650 WAIST:0.981354,0.000000,0.192108,-0.006175 WAIST_JOINT0:0.969620,-0.000000,0.243695,0.021197 WAIST_JOINT1:0.998771,0.002585,-0.000000,0.049500 END:
KINECT_DATA_Sensor  AnkleLeft:0.002233,-0.573874,0.018311,0.818736 AnkleRight:0.011379,0.414970,0.122784,0.901440 ElbowLeft:-0.026707,0.769874,-0.173375,-0.613614 ElbowRight:-0.506660,0.848405,-0.152866,-0.011685 FootLeft:0.000000,0.000000,0.000000,0.000000 FootRight:0.000000,0.000000,0.000000,0.000000 HandLeft:0.211288,-0.617926,-0.126053,0.746750 HandRight:0.465756,0.111260,-0.418381,0.771783 HandTipLeft:0.000000,0.000000,0.000000,0.000000 HandTipRight:0.000000,0.000000,0.000000,0.000000 Head:0.000000,0.000000,0.000000,0.000000 HipLeft:0.036951,-0.701760,0.710293,-0.040625 HipRight:-0.274232,0.657302,0.662184,-0.232945 KneeLeft:0.051877,-0.557316,0.014600,0.828550 KneeRight:-0.055751,0.828993,0.055784,0.553670 Neck:-0.242362,0.046253,0.968761,-0.024978 ShoulderLeft:0.116046,0.742047,-0.642896,-0.150278 ShoulderRight:-0.201462,0.755048,0.583963,-0.219777 SpineBase:-0.192380,0.037349,0.980571,0.008694 SpineMid:-0.216677,0.037122,0.975490,0.009619 SpineShoulder:-0.241916,0.041249,0.969407,-0.004973 ThumbLeft:0.000000,0.000000,0.000000,0.000000 ThumbRight:0.000000,0.000000,0.000000,0.000000 WristLeft:0.162925,-0.622295,-0.055390,0.763634 WristRight:0.420224,0.073704,-0.446932,0.786277 END:
KINECT_DATA POSITION:43.547470,33.906002,-104.257751 HEAD_JOINT1:0.993463,0.064142,0.000000,-0.094433 LARM_JOINT2:0.792110,0.000000,0.019542,-0.610065 LARM_JOINT3:0.968473,0.000000,-0.202864,-0.144591 LLEG_JOINT2:0.998295,-0.035963,0.000000,0.045973 LLEG_JOINT4:0.998793,0.042630,0.000000,-0.024391 RARM_JOINT2:0.738079,0.000000,0.606478,0.295675 RARM_JOINT3:0.960679,0.000000,0.272826,0.051594 RLEG_JOINT2:0.997292,0.013603,0.000000,-0.072273 RLEG_JOINT4:0.990457,0.108965,0.000000,0.084389 WAIST:0.981288,0.000000,0.192470,-0.005384 WAIST_JOINT0:0.969757,-0.000000,0.243050,0.022294 WAIST_JOINT1:0.998812,0.004224,-0.000000,0.048543 END:
KINECT_DATA_Sensor  AnkleLeft:0.002333,-0.574270,0.017855,0.818468 AnkleRight:0.013966,0.415189,0.122546,0.901335 ElbowLeft:-0.028079,0.771094,-0.170258,-0.612892 ElbowRight:-0.490994,0.851796,-0.181510,0.020563 FootLeft:0.000000,0.000000,0.000000,0.000000 FootRight:0.000000,0.000000,0.000000,0.000000 HandLeft:0.206714,-0.630565,-0.104316,0.740793 HandRight:0.424366,0.201356,-0.457500,0.755025 HandTipLeft:0.000000,0.000000,0.000000,0.000000 HandTipRight:0.000000,0.000000,0.000000,0.000000 Head:0.000000,0.000000,0.000000,0.000000 HipLeft:0.035647,-0.700975,0.711141,-0.040519 HipRight:-0.273401,0.657353,0.662209,-0.233704 KneeLeft:0.051686,-0.557115,0.014311,0.828702 KneeRight:-0.056023,0.829113,0.055573,0.553485 Neck:-0.241896,0.045890,0.968850,-0.026666 ShoulderLeft:0.118922,0.740651,-0.644036,-0.150038 ShoulderRight:-0.198104,0.755431,0.584848,-0.219162 SpineBase:-0.192681,0.037148,0.980529,0.007612 SpineMid:-0.216612,0.036951,0.975521,0.008519 SpineShoulder:-0.241468,0.040831,0.969528,-0.006412 ThumbLeft:0.000000,0.000000,0.000000,0.000000 ThumbRight:0.000000,0.000000,0.000000,0.000000 WristLeft:0.161501,-0.634405,-0.050363,0.754262 WristRight:0.359152,0.145859,-0.501925,0.773179 END:
KINECT_DATA POSITION:43.551792,33.928505,-104.267929 HEAD_JOINT1:0.993390,0.064158,0.000000,-0.095182 LARM_JOINT2:0.791747,0.000000,0.017360,-0.610603 LARM_JOINT3:0.968511,0.000000,-0.202208,-0.145254 LLEG_JOINT2:0.998295,-0.036210,0.000000,0.045788 LLEG_JOINT4:0.998792,0.042889,0.000000,-0.023986 RARM_JOINT2:0.736930,0.000000,0.607495,0.296450 RARM_JOINT3:0.962217,0.000000,0.268251,0.046687 RLEG_JOINT2:0.997301,0.013673,0.000000,-0.072131 RLEG_JOINT4:0.990538,0.108322,0.000000,0.084268 WAIST:0.981338,0.000000,0.192214,-0.005440 WAIST_JOINT0:0.969922,-0.000000,0.242338,0.022877 WAIST_JOINT1:0.998814,0.005643,-0.000000,0.048351 END:
KINECT_DATA_Sensor  AnkleLeft:0.002402,-0.574753,0.018005,0.818125 AnkleRight:0.013983,0.415443,0.121979,0.901295 ElbowLeft:-0.027878,0.772735,-0.169412,-0.611067 ElbowRight:-0.488172,0.852451,-0.185382,0.025477 FootLeft:0.000000,0.000000,0.000000,0.000000 FootRight:0.000000,0.000000,0.000000,0.000000 HandLeft:0.189265,-0.535871,-0.134206,0.811794 HandRight:0.452255,0.139677,-0.430418,0.768568 HandTipLeft:0.000000,0.000000,0.000000,0.000000 HandTipRight:0.000000,0.000000,0.000000,0.000000 Head:0.000000,0.000000,0.000000,0.000000 HipLeft:0.035523,-0.700905,0.711180,-0.041156 HipRight:-0.272887,0.657132,0.662514,-0.234065 KneeLeft:0.051751,-0.557382,0.013970,0.828524 KneeRight:-0.055894,0.828944,0.055601,0.553747 Neck:-0.241293,0.045584,0.968973,-0.028126 ShoulderLeft:0.121485,0.739374,-0.645114,-0.149651 ShoulderRight:-0.195008,0.755129,0.586569,-0.218378 SpineBase:-0.192399,0.036854,0.980600,0.006967 SpineMid:-0.216184,0.036674,0.975632,0.007861 SpineShoulder:-0.240891,0.040335,0.969683,-0.007768 ThumbLeft:0.000000,0.000000,0.000000,0.000000 ThumbRight:0.000000,0.000000,0.000000,0.000000 WristLeft:0.152526,-0.538207,-0.069063,0.826014 WristRight:0.391697,0.086236,-0.475898,0.782725 END:
KINECT_DATA POSITION:43.579140,33.955528,-104.297447 HEAD_JOINT1:0.993359,0.065674,0.000000,-0.094471 LARM_JOINT2:0.791991,0.000000,0.015487,-0.610336 LARM_JOINT3:0.968721,0.000000,-0.201816,-0.144398 LLEG_JOINT2:0.998334,-0.036131,0.000000,0.044977 LLEG_JOINT4:0.998787,0.043041,0.000000,-0.023923 RARM_JOINT2:0.737563,0.000000,0.609884,0.289901 RARM_JOINT3:0.959170,0.000000,0.277281,0.055749 RLEG_JOINT2:0.997248,0.013540,0.000000,-0.072887 RLEG_JOINT4:0.990210,0.109678,0.000000,0.086340 WAIST:0.981431,0.000000,0.191746,-0.005072 WAIST_JOINT0:0.970227,-0.000000,0.241265,0.021228 WAIST_JOINT1:0.998849,0.006921,-0.000000,0.047468 END:
KINECT_DATA_Sensor  AnkleLeft:0.002067,-0.575257,0.017763,0.817777 AnkleRight:0.015804,0.414848,0.123016,0.901398 ElbowLeft:-0.027864,0.774429,-0.169255,-0.608964 ElbowRight:-0.496264,0.850780,-0.172823,0.005268 FootLeft:0.000000,0.000000,0.000000,0.000000 FootRight:0.000000,0.000000,0.000000,0.000000 HandLeft:0.190786,-0.533017,-0.136297,0.812968 HandRight:0.423009,0.201045,-0.458308,0.755379 HandTipLeft:0.000000,0.000000,0.000000,0.000000 HandTipRight:0.000000,0.000000,0.000000,0.000000 Head:0.000000,0.000000,0.000000,0.000000 HipLeft:0.035529,-0.700518,0.711498,-0.042221 HipRight:-0.271987,0.657042,0.662705,-0.234821 KneeLeft:0.051502,-0.557855,0.013578,0.828227 KneeRight:-0.056319,0.828580,0.055672,0.554242 Neck:-0.240071,0.044994,0.969273,-0.029180 ShoulderLeft:0.122675,0.740411,-0.643755,-0.149401 ShoulderRight:-0.192127,0.754121,0.589316,-0.217014 SpineBase:-0.191884,0.036204,0.980731,0.005981 SpineMid:-0.215343,0.036050,0.975849,0.006847 SpineShoulder:-0.239700,0.039610,0.969998,-0.008924 ThumbLeft:0.000000,0.000000,0.000000,0.000000 ThumbRight:0.000000,0.000000,0.000000,0.000000 WristLeft:0.151059,-0.535810,-0.068721,0.827868 WristRight:0.366529,0.153247,-0.495811,0.772233 END:
KINECT_DATA POSITION:43.587822,33.965527,-104.315971 HEAD_JOINT1:0.993137,0.066078,0.000000,-0.096502 LARM_JOINT2:0.791178,0.000000,0.012892,-0.611450 LARM_JOINT3:0.969501,0.000000,-0.198045,-0.144378 LLEG_JOINT2:0.998346,-0.036447,0.000000,0.044470 LLEG_JOINT4:0.998791,0.042935,0.000000,-0.023952 RARM_JOINT2:0.734348,0.000000,0.610498,0.296691 RARM_JOINT3:0.962579,0.000000,0.267666,0.042395 RLEG_JOINT2:0.997220,0.013462,0.000000,-0.073289 RLEG_JOINT4:0.990193,0.109842,0.000000,0.086323 WAIST:0.981345,0.000000,0.192195,-0.004814 WAIST_JOINT0:0.970041,-0.000000,0.241722,0.024319 WAIST_JOINT1:0.998856,0.007325,-0.000000,0.047263 END:
KINECT_DATA_Sensor  AnkleLeft:0.002298,-0.575089,0.017275,0.817905 AnkleRight:0.015531,0.414835,0.123077,0.901401 ElbowLeft:-0.028568,0.776338,-0.167663,-0.606937 ElbowRight:-0.485866,0.852669,-0.190126,0.027253 FootLeft:0.000000,0.000000,0.000000,0.000000 FootRight:0.000000,0.000000,0.000000,0.000000 HandLeft:0.198863,-0.633380,-0.111416,0.739506 HandRight:0.456923,0.137686,-0.431518,0.765543 HandTipLeft:0.000000,0.000000,0.000000,0.000000 HandTipRight:0.000000,0.000000,0.000000,0.000000 Head:0.000000,0.000000,0.000000,0.000000 HipLeft:0.034851,-0.700265,0.711795,-0.041969 HipRight:-0.271869,0.656960,0.662656,-0.235327 KneeLeft:0.051655,-0.557518,0.013191,0.828451 KneeRight:-0.056541,0.828794,0.055622,0.553904 Neck:-0.240626,0.045056,0.969121,-0.029558 ShoulderLeft:0.125419,0.736926,-0.647163,-0.149634 ShoulderRight:-0.190676,0.754487,0.589380,-0.216850 SpineBase:-0.192313,0.036059,0.980655,0.005568 SpineMid:-0.215850,0.035915,0.975745,0.006433 SpineShoulder:-0.240263,0.039580,0.969856,-0.009297 ThumbLeft:0.000000,0.000000,0.000000,0.000000 ThumbRight:0.000000,0.000000,0.000000,0.000000 WristLeft:0.157076,-0.636514,-0.048736,0.753526 WristRight:0.394485,0.084251,-0.474727,0.782252 END:
KINECT_DATA POSITION:43.585949,33.966061,-104.317024 HEAD_JOINT1:0.993021,0.065395,0.000000,-0.098148 LARM_JOINT2:0.791527,0.000000,0.010872,-0.611037 LARM_JOINT3:0.969960,0.000000,-0.196232,-0.143774 LLEG_JOINT2:0.998341,-0.037373,0.000000,0.043802 LLEG_JOINT4:0.998733,0.044533,0.000000,-0.023420 RARM_JOINT2:0.735192,0.000000,0.611366,0.292786 RARM_JOINT3:0.962400,0.000000,0.267923,0.044753 RLEG_JOINT2:0.997185,0.013635,0.000000,-0.073732 RLEG_JOINT4:0.990818,0.108814,0.000000,0.080245 WAIST:0.981207,0.000000,0.192911,-0.004390 WAIST_JOINT0:0.969975,-0.000000,0.241914,0.025019 WAIST_JOINT1:0.998854,0.008417,-0.000000,0.047118 END:
KINECT_DATA_Sensor  AnkleLeft:0.001922,-0.575008,0.017831,0.817951 AnkleRight:0.009178,0.415061,0.122503,0.901462 ElbowLeft:-0.028517,0.778548,-0.168442,-0.603885 ElbowRight:-0.488820,0.851914,-0.186654,0.021377 FootLeft:0.000000,0.000000,0.000000,0.000000 FootRight:0.000000,0.000000,0.000000,0.000000 HandLeft:0.189954,-0.577244,-0.120712,0.784943 HandRight:0.447377,0.158260,-0.440868,0.761868 HandTipLeft:0.000000,0.000000,0.000000,0.000000 HandTipRight:0.000000,0.000000,0.000000,0.000000 Head:0.000000,0.000000,0.000000,0.000000 HipLeft:0.033910,-0.699922,0.712191,-0.041765 HipRight:-0.271620,0.656908,0.662526,-0.236124 KneeLeft:0.052337,-0.556974,0.012464,0.828785 KneeRight:-0.056554,0.829168,0.055673,0.553338 Neck:-0.240655,0.045294,0.969066,-0.030747 ShoulderLeft:0.127286,0.736911,-0.646721,-0.150040 ShoulderRight:-0.188630,0.755102,0.589275,-0.216781 SpineBase:-0.192996,0.035849,0.980532,0.004897 SpineMid:-0.216218,0.035722,0.975675,0.005747 SpineShoulder:-0.240307,0.039637,0.969832,-0.010368 ThumbLeft:0.000000,0.000000,0.000000,0.000000 ThumbRight:0.000000,0.000000,0.000000,0.000000 WristLeft:0.151997,-0.579794,-0.059444,0.798249 WristRight:0.381573,0.103752,-0.483088,0.781194 END:
KINECT_DATA POSITION:43.602654,34.003323,-104.349350 HEAD_JOINT1:0.992618,0.068551,0.000000,-0.100050 LARM_JOINT2:0.788841,0.000000,0.005844,-0.614570 LARM_JOINT3:0.972589,0.000000,-0.187251,-0.137870 LLEG_JOINT2:0.998384,-0.036122,0.000000,0.043867 LLEG_JOINT4:0.998798,0.042655,0.000000,-0.024167 RARM_JOINT2:0.740867,0.000000,0.597278,0.307204 RARM_JOINT3:0.959835,0.000000,0.266992,0.086206 RLEG_JOINT2:0.997127,0.013414,0.000000,-0.074546 RLEG_JOINT4:0.990257,0.110514,0.000000,0.084716 WAIST:0.981665,0.000000,0.190572,-0.004035 WAIST_JOINT0:0.970604,-0.000000,0.239912,0.019234 WAIST_JOINT1:0.998834,0.010313,-0.000000,0.047161 END:
KINECT_DATA_Sensor  AnkleLeft:0.002400,-0.575946,0.017163,0.817304 AnkleRight:0.013795,0.414230,0.123620,0.901632 ElbowLeft:-0.031163,0.776408,-0.163757,-0.607785 ElbowRight:-0.484414,0.860637,-0.156943,-0.003997 FootLeft:0.000000,0.000000,0.000000,0.000000 FootRight:0.000000,0.000000,0.000000,0.000000 HandLeft:0.188811,-0.682111,-0.102434,0.698986 HandRight:0.397845,0.203596,-0.407958,0.796140 HandTipLeft:0.000000,0.000000,0.000000,0.000000 HandTipRight:0.000000,0.000000,0.000000,0.000000 Head:0.000000,0.000000,0.000000,0.000000 HipLeft:0.034863,-0.699272,0.712616,-0.044517 HipRight:-0.269916,0.657019,0.663198,-0.235879 KneeLeft:0.051623,-0.559024,0.013339,0.827436 KneeRight:-0.056984,0.827749,0.055817,0.555400 Neck:-0.238584,0.045491,0.969502,-0.032768 ShoulderLeft:0.125346,0.743610,-0.639539,-0.149404 ShoulderRight:-0.186520,0.755348,0.589851,-0.216183 SpineBase:-0.190603,0.035922,0.981003,0.003625 SpineMid:-0.213974,0.035826,0.976172,0.004482 SpineShoulder:-0.238244,0.039796,0.970315,-0.012027 ThumbLeft:0.000000,0.000000,0.000000,0.000000 ThumbRight:0.000000,0.000000,0.000000,0.000000 WristLeft:0.155708,-0.683159,-0.030245,0.712835 WristRight:0.361870,0.152507,-0.477283,0.786125 END:
KINECT_DATA POSITION:43.965054,34.366631,-104.586075 HEAD_JOINT1:0.990891,0.091520,0.000000,-0.098786 LARM_JOINT2:0.802791,0.000000,0.052417,-0.593953 LARM_JOINT3:0.956122,0.000000,-0.234560,-0.175535 LLEG_JOINT2:0.997735,-0.037224,0.000000,0.056024 LLEG_JOINT4:0.998417,0.047039,0.000000,-0.030819 RARM_JOINT2:0.784650,0.000000,0.420773,0.455275 RARM_JOINT3:0.949161,0.000000,0.272434,0.157712 RLEG_JOINT2:0.997359,0.009118,0.000000,-0.072049 RLEG_JOINT4:0.988295,0.113782,0.000000,0.101624 WAIST:0.984871,0.000000,0.172904,-0.011562 WAIST_JOINT0:0.970956,-0.000000,0.238585,0.017923 WAIST_JOINT1:0.998432,0.015295,-0.000000,0.053852 END:
KINECT_DATA_Sensor  AnkleLeft:-0.001797,-0.576426,0.018059,0.816948 AnkleRight:0.030744,0.416751,0.121967,0.900276 ElbowLeft:-0.008428,0.752232,-0.197052,-0.628687 ElbowRight:-0.345776,0.933309,-0.059009,0.076750 FootLeft:0.000000,0.000000,0.000000,0.000000 FootRight:0.000000,0.000000,0.000000,0.000000 HandLeft:0.148710,-0.585847,-0.131340,0.785760 HandRight:0.246456,0.337747,-0.370316,0.829489 HandTipLeft:0.000000,0.000000,0.000000,0.000000 HandTipRight:0.000000,0.000000,0.000000,0.000000 Head:0.000000,0.000000,0.000000,0.000000 HipLeft:0.049764,-0.702932,0.706159,-0.068918 HipRight:-0.263140,0.653390,0.670410,-0.233212 KneeLeft:0.054463,-0.573954,0.016399,0.816910 KneeRight:-0.061805,0.816839,0.057093,0.570697 Neck:-0.236966,0.044739,0.969754,-0.037717 ShoulderLeft:0.097212,0.765567,-0.622819,-0.128658 ShoulderRight:-0.209740,0.768374,0.555211,-0.239481 SpineBase:-0.172697,0.035132,0.984346,-0.001937 SpineMid:-0.204000,0.035176,0.978338,-0.000815 SpineShoulder:-0.236696,0.038947,0.970661,-0.016601 ThumbLeft:0.000000,0.000000,0.000000,0.000000 ThumbRight:0.000000,0.000000,0.000000,0.000000 WristLeft:0.170419,-0.576557,-0.071894,0.795846 WristRight:0.221239,0.301715,-0.442552,0.814966 END:
KINECT_DATA POSITION:44.050335,34.084114,-104.883743 HEAD_JOINT1:0.990688,0.104280,0.000000,-0.087536 LARM_JOINT2:0.800279,0.000000,0.043319,-0.598060 LARM_JOINT3:0.954477,0.000000,-0.243891,-0.171730 LLEG_JOINT2:0.997836,-0.041408,0.000000,0.051082 LLEG_JOINT4:0.997775,0.057965,0.000000,-0.032950 RARM_JOINT2:0.792594,0.000000,0.377993,0.478452 RARM_JOINT3:0.949338,0.000000,0.255440,0.183051 RLEG_JOINT2:0.997226,0.002856,0.000000,-0.074376 RLEG_JOINT4:0.990320,0.113137,0.000000,0.080415 WAIST:0.988605,0.000000,0.150443,-0.005162 WAIST_JOINT0:0.980571,-0.000000,0.195543,0.015592 WAIST_JOINT1:0.998808,0.020502,-0.000000,0.044302 END:
KINECT_DATA_Sensor  AnkleLeft:-0.006538,-0.602855,0.020628,0.797558 AnkleRight:0.018055,0.419398,0.114978,0.900311 ElbowLeft:-0.014427,0.765131,-0.188562,-0.615476 ElbowRight:-0.315259,0.946920,-0.011003,0.061903 FootLeft:0.000000,0.000000,0.000000,0.000000 FootRight:0.000000,0.000000,0.000000,0.000000 HandLeft:0.165831,-0.643960,-0.142144,0.733219 HandRight:0.235795,0.295987,-0.361969,0.851922 HandTipLeft:0.000000,0.000000,0.000000,0.000000 HandTipRight:0.000000,0.000000,0.000000,0.000000 Head:0.000000,0.000000,0.000000,0.000000 HipLeft:0.059585,-0.698031,0.708946,-0.081230 HipRight:-0.243809,0.661396,0.673289,-0.223148 KneeLeft:0.059968,-0.592381,0.013031,0.803317 KneeRight:-0.061839,0.803065,0.050037,0.590558 Neck:-0.194141,0.040038,0.979290,-0.041196 ShoulderLeft:0.085853,0.769151,-0.624989,-0.102102 ShoulderRight:-0.164827,0.774622,0.576868,-0.200037 SpineBase:-0.150143,0.032344,0.988122,-0.005155 SpineMid:-0.171544,0.032449,0.984632,-0.004452 SpineShoulder:-0.193840,0.035640,0.980178,-0.020180 ThumbLeft:0.000000,0.000000,0.000000,0.000000 ThumbRight:0.000000,0.000000,0.000000,0.000000 WristLeft:0.174777,-0.637951,-0.074862,0.746236 WristRight:0.201914,0.276641,-0.387520,0.855879 END:
KINECT_DATA POSITION:43.713833,33.884964,-105.361465 HEAD_JOINT1:0.991387,0.117702,0.000000,-0.057423 LARM_JOINT2:0.806845,0.000000,0.018635,-0.590469 LARM_JOINT3:0.957261,0.000000,-0.236295,-0.166782 LLEG_JOINT2:0.998127,-0.038611,0.000000,0.047461 LLEG_JOINT4:0.997607,0.056805,0.000000,-0.039423 RARM_JOINT2:0.793148,0.000000,0.326695,0.513991 RARM_JOINT3:0.956132,0.000000,0.247468,0.156750 RLEG_JOINT2:0.997190,-0.005931,-0.000000,-0.074673 RLEG_JOINT4:0.990226,0.115962,0.000000,0.077489 WAIST:0.993989,-0.000000,0.109434,0.003176 WAIST_JOINT0:0.988374,-0.000000,0.150513,0.021520 WAIST_JOINT1:0.999238,0.028111,-0.000000,0.027086 END:
KINECT_DATA_Sensor  AnkleLeft:-0.007073,-0.629803,0.019805,0.776470 AnkleRight:0.055426,0.626849,0.094592,0.771389 ElbowLeft:-0.032550,0.799690,-0.184632,-0.570393 ElbowRight:-0.267443,0.946307,0.001434,0.181592 FootLeft:0.000000,0.000000,0.000000,0.000000 FootRight:0.000000,0.000000,0.000000,0.000000 HandLeft:-0.173572,0.742205,0.148184,-0.630115 HandRight:0.201967,0.253032,-0.349787,0.879109 HandTipLeft:0.000000,0.000000,0.000000,0.000000 HandTipRight:0.000000,0.000000,0.000000,0.000000 Head:0.000000,0.000000,0.000000,0.000000 HipLeft:0.077715,-0.689526,0.712863,-0.101689 HipRight:-0.209775,0.672140,0.679874,-0.204922 KneeLeft:0.062047,-0.624554,0.015144,0.778366 KneeRight:-0.059780,0.777471,0.039769,0.624806 Neck:-0.150601,0.029333,0.987084,-0.046084 ShoulderLeft:0.064594,0.769949,-0.631591,-0.064027 ShoulderRight:-0.129970,0.786375,0.579742,-0.169178 SpineBase:-0.109185,0.024763,0.993654,-0.010797 SpineMid:-0.129381,0.024978,0.991227,-0.010291 SpineShoulder:-0.150271,0.027927,0.987947,-0.024470 ThumbLeft:0.000000,0.000000,0.000000,0.000000 ThumbRight:0.000000,0.000000,0.000000,0.000000 WristLeft:-0.176998,0.743421,0.057836,-0.642380 WristRight:0.135383,0.223588,-0.378294,0.888017 END:
KINECT_DATA POSITION:44.550747,33.475304,-105.167389 HEAD_JOINT1:0.990700,0.135896,0.000000,-0.006767 LARM_JOINT2:0.816928,0.000000,0.014925,-0.576547 LARM_JOINT3:0.957862,0.000000,-0.232619,-0.168488 LLEG_JOINT2:0.999734,-0.018506,0.000000,0.013734 LLEG_JOINT4:0.998614,0.043207,0.000000,-0.030054 RARM_JOINT2:0.795947,0.000000,0.229888,0.560018 RARM_JOINT3:0.951278,0.000000,0.272361,0.144532 RLEG_JOINT2:0.995559,-0.009080,-0.000000,-0.093702 RLEG_JOINT4:0.992400,0.107860,0.000000,0.059231 WAIST:0.998443,-0.000000,0.050747,0.023137 WAIST_JOINT0:0.995949,-0.000000,0.086822,0.023403 WAIST_JOINT1:0.999538,0.030281,-0.000000,0.002427 END:
KINECT_DATA_Sensor  AnkleLeft:-0.012820,-0.665885,0.020865,0.745652 AnkleRight:0.094640,0.993598,0.025514,0.056168 ElbowLeft:-0.047658,0.836808,-0.193380,-0.509986 ElbowRight:-0.193673,0.910055,0.025104,0.365595 FootLeft:0.000000,0.000000,0.000000,0.000000 FootRight:0.000000,0.000000,0.000000,0.000000 HandLeft:0.141904,-0.671836,-0.163330,0.708394 HandRight:0.186213,0.195281,-0.305247,0.913244 HandTipLeft:0.000000,0.000000,0.000000,0.000000 HandTipRight:0.000000,0.000000,0.000000,0.000000 Head:0.000000,0.000000,0.000000,0.000000 HipLeft:0.114100,-0.671257,0.720875,-0.129364 HipRight:-0.176695,0.692017,0.677008,-0.177627 KneeLeft:0.039292,-0.669817,0.014133,0.741351 KneeRight:-0.059347,0.739410,0.039717,0.669457 Neck:-0.086706,0.026901,0.994833,-0.045453 ShoulderLeft:0.027730,0.772867,-0.633747,-0.016499 ShoulderRight:-0.084578,0.794899,0.589348,-0.116840 SpineBase:-0.050951,0.022260,0.998415,-0.008706 SpineMid:-0.068365,0.022408,0.997374,-0.008317 SpineShoulder:-0.086417,0.024469,0.995662,-0.024312 ThumbLeft:0.000000,0.000000,0.000000,0.000000 ThumbRight:0.000000,0.000000,0.000000,0.000000 WristLeft:0.161507,-0.665011,-0.093149,0.723187 WristRight:0.083184,0.152205,-0.377216,0.909738 END:
KINECT_DATA POSITION:45.907341,33.162197,-105.152802 HEAD_JOINT1:0.982134,0.180817,-0.000000,0.052134 LARM_JOINT2:0.833207,0.000000,-0.014487,-0.552772 LARM_JOINT3:0.959090,0.000000,-0.221421,-0.176404 LLEG_JOINT2:0.999856,-0.013947,0.000000,0.009697 LLEG_JOINT4:0.997928,0.044949,0.000000,-0.046034 RARM_JOINT2:0.794638,0.000000,0.088780,0.600557 RARM_JOINT3:0.951263,0.000000,0.280128,0.128945 RLEG_JOINT2:0.994884,-0.031405,-0.000000,-0.096016 RLEG_JOINT4:0.992789,0.116326,0.000000,0.028945 WAIST:0.999481,0.000000,-0.013713,0.029145 WAIST_JOINT0:0.999683,0.000000,-0.006154,0.024412 WAIST_JOINT1:0.999172,0.036583,0.000000,-0.017791 END:
KINECT_DATA_Sensor  AnkleLeft:0.027052,0.714473,-0.017534,-0.698919 AnkleRight:0.055428,0.846973,0.074817,0.523418 ElbowLeft:-0.074843,0.882663,-0.196790,-0.420212 ElbowRight:-0.090621,0.850212,0.088268,0.511015 FootLeft:0.000000,0.000000,0.000000,0.000000 FootRight:0.000000,0.000000,0.000000,0.000000 HandLeft:-0.106237,0.692376,0.186068,-0.688990 HandRight:0.272075,-0.660087,-0.132565,0.687522 HandTipLeft:0.000000,0.000000,0.000000,0.000000 HandTipRight:0.000000,0.000000,0.000000,0.000000 Head:0.000000,0.000000,0.000000,0.000000 HipLeft:0.146553,-0.662268,0.717181,-0.159921 HipRight:-0.126911,0.705758,0.682785,-0.140014 KneeLeft:-0.037291,0.715784,-0.017339,-0.697110 KneeRight:-0.068971,0.693554,0.026274,0.716614 Neck:0.005192,0.012187,0.998491,-0.053288 ShoulderLeft:-0.014616,0.765400,-0.641257,0.052326 ShoulderRight:-0.008377,0.794797,0.605384,-0.041684 SpineBase:0.013164,0.014617,0.999727,-0.012590 SpineMid:0.009514,0.014663,0.999769,-0.012536 SpineShoulder:0.005455,0.012080,0.999421,-0.031341 ThumbLeft:0.000000,0.000000,0.000000,0.000000 ThumbRight:0.000000,0.000000,0.000000,0.000000 WristLeft:0.151003,-0.676229,-0.107014,0.713064 WristRight:0.230806,-0.673218,-0.183459,0.678122 END:
KINECT_DATA POSITION:45.608120,33.098419,-105.358887 HEAD_JOINT1:0.980825,0.184922,-0.000000,0.061540 LARM_JOINT2:0.834333,0.000000,-0.011980,-0.551131 LARM_JOINT3:0.958638,0.000000,-0.220593,-0.179868 LLEG_JOINT2:0.999644,-0.013192,0.000000,0.023190 LLEG_JOINT4:0.997490,0.045218,0.000000,-0.054498 RARM_JOINT2:0.800868,0.000000,0.046907,0.597001 RARM_JOINT3:0.948967,0.000000,0.273122,0.157688 RLEG_JOINT2:0.995925,-0.034755,-0.000000,-0.083216 RLEG_JOINT4:0.992255,0.122333,0.000000,0.021564 WAIST:0.999225,0.000000,-0.031656,0.023374 WAIST_JOINT0:0.999565,0.000000,-0.020384,0.021317 WAIST_JOINT1:0.999218,0.035627,0.000000,-0.017169 END:
KINECT_DATA_Sensor  AnkleLeft:0.028089,0.721756,-0.018671,-0.691326 AnkleRight:0.090287,0.995279,0.032787,0.013879 ElbowLeft:-0.077431,0.886845,-0.192709,-0.412764 ElbowRight:-0.066795,0.843309,0.119312,0.519743 FootLeft:0.000000,0.000000,0.000000,0.000000 FootRight:0.000000,0.000000,0.000000,0.000000 HandLeft:0.071772,-0.673395,-0.181518,0.713050 HandRight:0.165613,-0.424955,-0.153690,0.876564 HandTipLeft:0.000000,0.000000,0.000000,0.000000 HandTipRight:0.000000,0.000000,0.000000,0.000000 Head:0.000000,0.000000,0.000000,0.000000 HipLeft:0.159581,-0.663013,0.710946,-0.171765 HipRight:-0.115345,0.703115,0.689142,-0.131939 KneeLeft:-0.042479,0.727736,-0.022723,-0.684163 KneeRight:-0.065837,0.681165,0.020328,0.728880 Neck:0.019675,0.007565,0.998416,-0.052173 ShoulderLeft:-0.021678,0.766630,-0.638837,0.060797 ShoulderRight:0.003432,0.792233,0.609563,-0.028066 SpineBase:0.031119,0.008271,0.999385,-0.013921 SpineMid:0.025620,0.008348,0.999541,-0.013875 SpineShoulder:0.019877,0.007776,0.999297,-0.030826 ThumbLeft:0.000000,0.000000,0.000000,0.000000 ThumbRight:0.000000,0.000000,0.000000,0.000000 WristLeft:0.144601,-0.653800,-0.125039,0.732122 WristRight:0.148246,-0.432277,-0.237648,0.857137 END:
KINECT_DATA POSITION:44.002975,33.124393,-105.118034 HEAD_JOINT1:0.980952,0.178746,-0.000000,0.076042 LARM_JOINT2:0.837435,0.000000,-0.001269,-0.546536 LARM_JOINT3:0.957620,0.000000,-0.213506,-0.193337 LLEG_JOINT2:0.998966,-0.011548,0.000000,0.043965 LLEG_JOINT4:0.996706,0.049159,0.000000,-0.064498 RARM_JOINT2:0.801140,0.000000,-0.007884,0.598425 RARM_JOINT3:0.954008,0.000000,0.255732,0.156430 RLEG_JOINT2:0.997617,-0.034254,-0.000000,-0.059891 RLEG_JOINT4:0.992506,0.122137,0.000000,0.003687 WAIST:0.999080,0.000000,-0.038831,0.018223 WAIST_JOINT0:0.999245,0.000000,-0.035829,0.014994 WAIST_JOINT1:0.999473,0.029718,0.000000,-0.013043 END:
KINECT_DATA_Sensor  AnkleLeft:0.027684,0.730000,-0.026538,-0.682371 AnkleRight:0.089624,0.993728,0.035316,0.056783 ElbowLeft:-0.077062,0.890922,-0.198147,-0.401318 ElbowRight:-0.034939,0.829249,0.138516,0.540313 FootLeft:0.000000,0.000000,0.000000,0.000000 FootRight:0.000000,0.000000,0.000000,0.000000 HandLeft:0.040033,-0.667042,-0.181486,0.721467 HandRight:0.120325,-0.430829,-0.146321,0.882326 HandTipLeft:0.000000,0.000000,0.000000,0.000000 HandTipRight:0.000000,0.000000,0.000000,0.000000 Head:0.000000,0.000000,0.000000,0.000000 HipLeft:0.170475,-0.665174,0.705684,-0.174617 HipRight:-0.118152,0.699743,0.692921,-0.127513 KneeLeft:-0.053015,0.732034,-0.034194,-0.678341 KneeRight:-0.052958,0.677031,0.007793,0.734005 Neck:0.035865,0.006851,0.998278,-0.045915 ShoulderLeft:-0.035426,0.770131,-0.633197,0.068589 ShoulderRight:0.010570,0.787400,0.616243,-0.011595 SpineBase:0.038575,0.005151,0.999208,-0.008241 SpineMid:0.037335,0.005161,0.999256,-0.008235 SpineShoulder:0.036010,0.006260,0.999017,-0.025076 ThumbLeft:0.000000,0.000000,0.000000,0.000000 ThumbRight:0.000000,0.000000,0.000000,0.000000 WristLeft:0.139225,-0.639796,-0.126183,0.745221 WristRight:0.104656,-0.434472,-0.207390,0.870213 END:
KINECT_DATA POSITION:42.712223,33.258320,-104.261688 HEAD_JOINT1:0.981119,0.173150,-0.000000,0.086161 LARM_JOINT2:0.838228,0.000000,0.009486,-0.545238 LARM_JOINT3:0.955197,0.000000,-0.217035,-0.201232 LLEG_JOINT2:0.998868,-0.003347,0.000000,0.047457 LLEG_JOINT4:0.996982,0.047849,0.000000,-0.061129 RARM_JOINT2:0.801771,0.000000,-0.012757,0.597496 RARM_JOINT3:0.959529,0.000000,0.232837,0.158401 RLEG_JOINT2:0.998049,-0.031013,-0.000000,-0.054196 RLEG_JOINT4:0.991859,0.126751,0.000000,0.012253 WAIST:0.998781,0.000000,-0.045502,0.019153 WAIST_JOINT0:0.998925,0.000000,-0.043815,0.015156 WAIST_JOINT1:0.999697,0.022196,0.000000,-0.010685 END:
KINECT_DATA_Sensor  AnkleLeft:0.026493,0.734579,-0.037113,-0.676990 AnkleRight:0.096967,0.991527,0.021388,0.083749 ElbowLeft:-0.077234,0.895342,-0.203333,-0.388654 ElbowRight:-0.032018,0.840610,0.136218,0.523253 FootLeft:0.000000,0.000000,0.000000,0.000000 FootRight:0.000000,0.000000,0.000000,0.000000 HandLeft:0.050373,-0.658545,-0.188867,0.726712 HandRight:0.144431,-0.442381,-0.165073,0.869592 HandTipLeft:0.000000,0.000000,0.000000,0.000000 HandTipRight:0.000000,0.000000,0.000000,0.000000 Head:0.000000,0.000000,0.000000,0.000000 HipLeft:0.178370,-0.664635,0.704248,-0.174581 HipRight:-0.121024,0.701858,0.691866,-0.118617 KneeLeft:-0.050837,0.736828,-0.043034,-0.672791 KneeRight:-0.045921,0.672303,0.005550,0.738829 Neck:0.043677,0.009733,0.998259,-0.038436 ShoulderLeft:-0.045316,0.770532,-0.631997,0.069325 ShoulderRight:0.010626,0.788680,0.614712,-0.000075 SpineBase:0.045495,0.008765,0.998926,-0.000460 SpineMid:0.044777,0.008765,0.998958,-0.000453 SpineShoulder:0.043906,0.009441,0.998837,-0.017523 ThumbLeft:0.000000,0.000000,0.000000,0.000000 ThumbRight:0.000000,0.000000,0.000000,0.000000 WristLeft:0.134691,-0.636019,-0.131513,0.748360 WristRight:0.088359,-0.452298,-0.177448,0.869558 END:
KINECT_DATA POSITION:41.042469,33.586361,-103.449158 HEAD_JOINT1:0.991263,0.101919,-0.000000,0.083731 LARM_JOINT2:0.836671,0.000000,0.014955,-0.547502 LARM_JOINT3:0.957068,0.000000,-0.213208,-0.196373 LLEG_JOINT2:0.998417,0.006101,0.000000,0.055907 LLEG_JOINT4:0.997352,0.042621,0.000000,-0.058922 RARM_JOINT2:0.801687,0.000000,-0.039811,0.596417 RARM_JOINT3:0.958162,0.000000,0.236553,0.161146 RLEG_JOINT2:0.998697,-0.021929,-0.000000,-0.046090 RLEG_JOINT4:0.991936,0.125524,0.000000,0.017537 WAIST:0.998768,0.000000,-0.046714,0.016764 WAIST_JOINT0:0.998743,0.000000,-0.047529,0.015911 WAIST_JOINT1:0.999761,0.021010,0.000000,-0.005968 END:
KINECT_DATA_Sensor  AnkleLeft:0.023201,0.736905,-0.045666,-0.674053 AnkleRight:0.065133,0.626419,0.082484,0.772369 ElbowLeft:-0.074639,0.894971,-0.204324,-0.389497 ElbowRight:-0.014494,0.831535,0.143279,0.536480 FootLeft:0.000000,0.000000,0.000000,0.000000 FootRight:0.000000,0.000000,0.000000,0.000000 HandLeft:0.065130,-0.683490,-0.166769,0.707663 HandRight:0.117433,-0.410969,-0.159312,0.889907 HandTipLeft:0.000000,0.000000,0.000000,0.000000 HandTipRight:0.000000,0.000000,0.000000,0.000000 Head:0.000000,0.000000,0.000000,0.000000 HipLeft:0.178627,-0.666274,0.702440,-0.175356 HipRight:-0.123400,0.700792,0.692883,-0.116516 KneeLeft:-0.049036,0.737641,-0.054003,-0.671241 KneeRight:-0.035407,0.672007,0.007443,0.739661 Neck:0.046991,0.011487,0.998136,-0.037200 ShoulderLeft:-0.055282,0.776258,-0.623366,0.076040 ShoulderRight:0.004364,0.796524,0.604590,-0.000671 SpineBase:0.046746,0.011947,0.998834,0.001321 SpineMid:0.047124,0.011948,0.998817,0.001316 SpineShoulder:0.047298,0.011852,0.998681,-0.016104 ThumbLeft:0.000000,0.000000,0.000000,0.000000 ThumbRight:0.000000,0.000000,0.000000,0.000000 WristLeft:0.138391,-0.665109,-0.123616,0.723324 WristRight:0.077938,-0.417740,-0.174068,0.888324 END:
KINECT_DATA POSITION:40.845364,33.842892,-103.591064 HEAD_JOINT1:0.997652,0.011536,-0.000000,0.067510 LARM_JOINT2:0.836256,0.000000,0.005598,-0.548310 LARM_JOINT3:0.956321,0.000000,-0.218927,-0.193705 LLEG_JOINT2:0.998437,0.004209,0.000000,0.055736 LLEG_JOINT4:0.997441,0.043553,0.000000,-0.056698 RARM_JOINT2:0.802079,0.000000,-0.041459,0.595777 RARM_JOINT3:0.953478,0.000000,0.254856,0.161021 RLEG_JOINT2:0.998633,-0.022236,-0.000000,-0.047303 RLEG_JOINT4:0.992164,0.122286,0.000000,0.025612 WAIST:0.998836,0.000000,-0.045398,0.016287 WAIST_JOINT0:0.998673,0.000000,-0.048653,0.016881 WAIST_JOINT1:0.999732,0.022478,0.000000,-0.005526 END:
KINECT_DATA_Sensor  AnkleLeft:0.021528,0.737625,-0.045919,-0.673303 AnkleRight:0.066817,0.625362,0.075735,0.773772 ElbowLeft:-0.078035,0.898258,-0.201206,-0.382830 ElbowRight:-0.015181,0.822371,0.144904,0.549981 FootLeft:0.000000,0.000000,0.000000,0.000000 FootRight:0.000000,0.000000,0.000000,0.000000 HandLeft:0.043377,-0.519044,-0.193796,0.831357 HandRight:0.149766,-0.446049,-0.179690,0.863899 HandTipLeft:0.000000,0.000000,0.000000,0.000000 HandTipRight:0.000000,0.000000,0.000000,0.000000 Head:0.000000,0.000000,0.000000,0.000000 HipLeft:0.176639,-0.666509,0.702523,-0.176144 HipRight:-0.123484,0.700264,0.693057,-0.118547 KneeLeft:-0.049801,0.736719,-0.052196,-0.672340 KneeRight:-0.036816,0.672897,0.008403,0.738771 Neck:0.047963,0.011233,0.998053,-0.038263 ShoulderLeft:-0.067000,0.787779,-0.606263,0.085796 ShoulderRight:-0.007048,0.809124,0.587548,-0.007462 SpineBase:0.045391,0.012500,0.998891,-0.000480 SpineMid:0.046927,0.012500,0.998820,-0.000499 SpineShoulder:0.048273,0.011866,0.998607,-0.017701 ThumbLeft:0.000000,0.000000,0.000000,0.000000 ThumbRight:0.000000,0.000000,0.000000,0.000000 WristLeft:0.107310,-0.503394,-0.155508,0.843147 WristRight:0.086972,-0.457672,-0.181511,0.866041 END:
KINECT_DATA POSITION:40.736206,33.983437,-103.385040 HEAD_JOINT1:0.997708,-0.015231,0.000000,0.065936 LARM_JOINT2:0.837370,0.000000,-0.000045,-0.546637 LARM_JOINT3:0.956831,0.000000,-0.216128,-0.194327 LLEG_JOINT2:0.998431,0.002344,0.000000,0.055952 LLEG_JOINT4:0.997284,0.048887,0.000000,-0.055085 RARM_JOINT2:0.801999,0.000000,-0.046748,0.595494 RARM_JOINT3:0.951620,0.000000,0.263257,0.158475 RLEG_JOINT2:0.998614,-0.024531,-0.000000,-0.046567 RLEG_JOINT4:0.991460,0.127824,0.000000,0.025857 WAIST:0.998919,0.000000,-0.043822,0.015477 WAIST_JOINT0:0.998497,0.000000,-0.052067,0.017124 WAIST_JOINT1:0.999848,0.016627,0.000000,-0.005257 END:
KINECT_DATA_Sensor  AnkleLeft:0.023380,0.739204,-0.048969,-0.671292 AnkleRight:0.066564,0.601404,0.080153,0.792122 ElbowLeft:-0.086048,0.900501,-0.198327,-0.377306 ElbowRight:-0.018532,0.816732,0.144329,0.558368 FootLeft:0.000000,0.000000,0.000000,0.000000 FootRight:0.000000,0.000000,0.000000,0.000000 HandLeft:0.052561,-0.541705,-0.198017,0.815219 HandRight:0.118751,-0.357290,-0.207470,0.902883 HandTipLeft:0.000000,0.000000,0.000000,0.000000 HandTipRight:0.000000,0.000000,0.000000,0.000000 Head:0.000000,0.000000,0.000000,0.000000 HipLeft:0.178438,-0.667932,0.701465,-0.173127 HipRight:-0.126948,0.699987,0.692874,-0.117594 KneeLeft:-0.050590,0.735653,-0.050451,-0.673580 KneeRight:-0.038614,0.673935,0.006801,0.737750 Neck:0.051622,0.010199,0.998135,-0.030946 ShoulderLeft:-0.081864,0.792828,-0.597075,0.090682 ShoulderRight:-0.017715,0.814014,0.580544,-0.006040 SpineBase:0.043886,0.011538,0.998965,0.003220 SpineMid:0.047918,0.011551,0.998779,0.003173 SpineShoulder:0.051883,0.011011,0.998516,-0.012382 ThumbLeft:0.000000,0.000000,0.000000,0.000000 ThumbRight:0.000000,0.000000,0.000000,0.000000 WristLeft:0.114006,-0.526339,-0.157647,0.827718 WristRight:0.070282,-0.367756,-0.200498,0.905327 END:
KINECT_DATA POSITION:40.617561,34.047295,-103.056839 HEAD_JOINT1:0.997542,-0.024237,0.000000,0.065739 LARM_JOINT2:0.837562,0.000000,-0.001809,-0.546339 LARM_JOINT3:0.958166,0.000000,-0.208614,-0.195956 LLEG_JOINT2:0.998502,0.004164,0.000000,0.054564 LLEG_JOINT4:0.997328,0.050098,0.000000,-0.053178 RARM_JOINT2:0.801496,0.000000,-0.051536,0.595775 RARM_JOINT3:0.950880,0.000000,0.263647,0.162224 RLEG_JOINT2:0.998652,-0.019252,-0.000000,-0.048199 RLEG_JOINT4:0.991614,0.126155,0.000000,0.028039 WAIST:0.998780,0.000000,-0.046682,0.016109 WAIST_JOINT0:0.998350,0.000000,-0.054853,0.016969 WAIST_JOINT1:0.999910,0.011524,0.000000,-0.006826 END:
KINECT_DATA_Sensor  AnkleLeft:0.024476,0.740508,-0.052099,-0.669578 AnkleRight:0.075002,0.646244,0.077409,0.755481 ElbowLeft:-0.090584,0.904189,-0.195231,-0.368946 ElbowRight:-0.020370,0.809881,0.143786,0.568334 FootLeft:0.000000,0.000000,0.000000,0.000000 FootRight:0.000000,0.000000,0.000000,0.000000 HandLeft:0.070552,-0.646125,-0.184653,0.737189 HandRight:0.123568,-0.340172,-0.194561,0.911680 HandTipLeft:0.000000,0.000000,0.000000,0.000000 HandTipRight:0.000000,0.000000,0.000000,0.000000 Head:0.000000,0.000000,0.000000,0.000000 HipLeft:0.184342,-0.668067,0.700217,-0.171467 HipRight:-0.128742,0.701163,0.692040,-0.113476 KneeLeft:-0.048888,0.737727,-0.051205,-0.671376 KneeRight:-0.035315,0.672056,0.011266,0.739572 Neck:0.054652,0.008870,0.998151,-0.025087 ShoulderLeft:-0.091096,0.794192,-0.593637,0.092494 ShoulderRight:-0.023227,0.814865,0.579178,-0.002984 SpineBase:0.046869,0.010117,0.998813,0.008527 SpineMid:0.050893,0.010151,0.998616,0.008486 SpineShoulder:0.054881,0.010005,0.998414,-0.007644 ThumbLeft:0.000000,0.000000,0.000000,0.000000 ThumbRight:0.000000,0.000000,0.000000,0.000000 WristLeft:0.132886,-0.630448,-0.143365,0.751214 WristRight:0.065080,-0.351603,-0.209700,0.910036 END:
KINECT_DATA POSITION:40.569359,34.058796,-102.970863 HEAD_JOINT1:0.997668,-0.021344,0.000000,0.064826 LARM_JOINT2:0.837428,0.000000,0.000495,-0.546548 LARM_JOINT3:0.960301,0.000000,-0.196942,-0.197576 LLEG_JOINT2:0.998516,0.004333,0.000000,0.054290 LLEG_JOINT4:0.997344,0.050396,0.000000,-0.052592 RARM_JOINT2:0.801534,0.000000,-0.054693,0.595443 RARM_JOINT3:0.950268,0.000000,0.265784,0.162326 RLEG_JOINT2:0.998661,-0.017820,-0.000000,-0.048566 RLEG_JOINT4:0.992078,0.121846,0.000000,0.030580 WAIST:0.998815,0.000000,-0.045994,0.015904 WAIST_JOINT0:0.998254,0.000000,-0.056770,0.016321 WAIST_JOINT1:0.999942,0.008452,0.000000,-0.006664 END:
KINECT_DATA_Sensor  AnkleLeft:0.024842,0.741373,-0.052434,-0.668580 AnkleRight:0.073682,0.641719,0.074552,0.759743 ElbowLeft:-0.090271,0.905649,-0.195020,-0.365540 ElbowRight:-0.021612,0.807385,0.143540,0.571891 FootLeft:0.000000,0.000000,0.000000,0.000000 FootRight:0.000000,0.000000,0.000000,0.000000 HandLeft:0.056746,-0.652120,-0.159995,0.738864 HandRight:0.135945,-0.385784,-0.190748,0.892359 HandTipLeft:0.000000,0.000000,0.000000,0.000000 HandTipRight:0.000000,0.000000,0.000000,0.000000 Head:0.000000,0.000000,0.000000,0.000000 HipLeft:0.185519,-0.668611,0.699813,-0.169717 HipRight:-0.130653,0.701151,0.691853,-0.112496 KneeLeft:-0.048398,0.737310,-0.051028,-0.671884 KneeRight:-0.034666,0.672604,0.012615,0.739082 Neck:0.056549,0.008733,0.998103,-0.022712 ShoulderLeft:-0.095661,0.793675,-0.593581,0.092681 ShoulderRight:-0.025321,0.813843,0.580533,-0.000284 SpineBase:0.046227,0.009867,0.998824,0.010831 SpineMid:0.051494,0.009923,0.998566,0.010779 SpineShoulder:0.056780,0.009800,0.998329,-0.004370 ThumbLeft:0.000000,0.000000,0.000000,0.000000 ThumbRight:0.000000,0.000000,0.000000,0.000000 WristLeft:0.132042,-0.634042,-0.141296,0.748727 WristRight:0.075330,-0.397458,-0.209691,0.890159 END:
