EastLYD/RoboCupatHomeSim/InteractiveCleanUp/Current_motion.dat
KINECT_DATA POSITION:24.839338,37.509544,-47.479641 HEAD_JOINT1:0.990911,0.100977,-0.000000,0.088871 LARM_JOINT2:0.842100,0.000000,0.016850,-0.539058 LARM_JOINT3:0.962147,0.000000,-0.184994,-0.200127 LLEG_JOINT2:0.998281,-0.006648,0.000000,0.058239 LLEG_JOINT4:0.995861,0.060776,0.000000,-0.067576 RARM_JOINT2:0.798520,0.000000,-0.073826,0.597424 RARM_JOINT3:0.958257,0.000000,0.217340,0.185762 RLEG_JOINT2:0.997837,-0.034272,-0.000000,-0.056091 RLEG_JOINT4:0.987428,0.144543,0.000000,0.063981 WAIST:0.998863,0.000000,-0.045838,0.013121 WAIST_JOINT0:0.998435,0.000000,-0.053574,0.016063 WAIST_JOINT1:0.999866,0.012149,0.000000,-0.010942 END:
KINECT_DATA_Sensor  AnkleLeft:0.034455,0.740366,-0.042519,-0.669972 AnkleRight:0.096695,0.668477,0.058693,0.735081 ElbowLeft:-0.066993,0.919286,-0.207343,-0.327771 ElbowRight:0.003636,0.841732,0.154912,0.517181 FootLeft:0.000000,0.000000,0.000000,0.000000 FootRight:0.000000,0.000000,0.000000,0.000000 HandLeft:-0.092782,0.708301,0.176078,-0.677273 HandRight:-0.088865,0.758884,-0.146294,0.628329 HandTipLeft:0.000000,0.000000,0.000000,0.000000 HandTipRight:0.000000,0.000000,0.000000,0.000000 Head:0.000000,0.000000,0.000000,0.000000 HipLeft:0.179909,-0.669057,0.702482,-0.162835 HipRight:-0.126843,0.695928,0.697793,-0.112608 KneeLeft:-0.056779,0.736730,-0.043578,-0.672388 KneeRight:-0.053872,0.671526,0.009001,0.738965 Neck:0.053698,0.001501,0.998182,-0.027337 ShoulderLeft:-0.062698,0.784139,-0.613061,0.073145 ShoulderRight:0.004907,0.801107,0.598359,0.013027 SpineBase:0.046028,0.004254,0.998893,0.008740 SpineMid:0.049932,0.004288,0.998705,0.008723 SpineShoulder:0.053835,0.003015,0.998514,-0.007909 ThumbLeft:0.000000,0.000000,0.000000,0.000000 ThumbRight:0.000000,0.000000,0.000000,0.000000 WristLeft:-0.118867,0.712337,0.091002,-0.685686 WristRight:-0.124703,0.755705,-0.109513,0.633534 END:
KINECT_DATA POSITION:24.792463,37.485695,-47.463322 HEAD_JOINT1:0.991144,0.098818,-0.000000,0.088700 LARM_JOINT2:0.842791,0.000000,0.017290,-0.537964 LARM_JOINT3:0.962429,0.000000,-0.185848,-0.197967 LLEG_JOINT2:0.998284,-0.006148,0.000000,0.058242 LLEG_JOINT4:0.995901,0.060304,0.000000,-0.067413 RARM_JOINT2:0.799031,0.000000,-0.072157,0.596945 RARM_JOINT3:0.956844,0.000000,0.223922,0.185223 RLEG_JOINT2:0.997839,-0.033856,-0.000000,-0.056308 RLEG_JOINT4:0.987463,0.144733,0.000000,0.063000 WAIST:0.998829,0.000000,-0.046487,0.013405 WAIST_JOINT0:0.998419,0.000000,-0.053878,0.016020 WAIST_JOINT1:0.999849,0.013130,0.000000,-0.011383 END:
KINECT_DATA_Sensor  AnkleLeft:0.034106,0.740436,-0.042899,-0.669888 AnkleRight:0.096588,0.668019,0.059713,0.735429 ElbowLeft:-0.067234,0.917907,-0.208589,-0.330783 ElbowRight:0.003260,0.842214,0.155646,0.516177 FootLeft:0.000000,0.000000,0.000000,0.000000 FootRight:0.000000,0.000000,0.000000,0.000000 HandLeft:-0.104608,0.738670,0.158536,-0.646753 HandRight:-0.130299,0.834421,-0.136921,0.517703 HandTipLeft:0.000000,0.000000,0.000000,0.000000 HandTipRight:0.000000,0.000000,0.000000,0.000000 Head:0.000000,0.000000,0.000000,0.000000 HipLeft:0.179228,-0.668833,0.702828,-0.163009 HipRight:-0.125360,0.696172,0.697871,-0.112270 KneeLeft:-0.056666,0.737169,-0.044120,-0.671881 KneeRight:-0.053498,0.671088,0.009285,0.739387 Neck:0.053991,0.001391,0.998133,-0.028521 ShoulderLeft:-0.061400,0.782875,-0.614774,0.073422 ShoulderRight:0.006700,0.799855,0.600013,0.013085 SpineBase:0.046666,0.004159,0.998870,0.007945 SpineMid:0.050402,0.004189,0.998689,0.007929 SpineShoulder:0.054131,0.002908,0.998490,-0.008857 ThumbLeft:0.000000,0.000000,0.000000,0.000000 ThumbRight:0.000000,0.000000,0.000000,0.000000 WristLeft:-0.124173,0.740615,0.086642,-0.654648 WristRight:-0.139033,0.834997,-0.092155,0.524364 END:
KINECT_DATA POSITION:24.800112,37.455463,-47.300182 HEAD_JOINT1:0.991646,0.106812,-0.000000,0.072314 LARM_JOINT2:0.837972,0.000000,0.032889,-0.544721 LARM_JOINT3:0.964722,0.000000,-0.180782,-0.191390 LLEG_JOINT2:0.998334,-0.004354,0.000000,0.057541 LLEG_JOINT4:0.996269,0.056065,0.000000,-0.065611 RARM_JOINT2:0.804761,0.000000,-0.052270,0.591293 RARM_JOINT3:0.955042,0.000000,0.221015,0.197605 RLEG_JOINT2:0.997877,-0.031116,-0.000000,-0.057218 RLEG_JOINT4:0.987005,0.145160,0.000000,0.068916 WAIST:0.999281,0.000000,-0.035384,0.013654 WAIST_JOINT0:0.999418,0.000000,-0.029484,0.017178 WAIST_JOINT1:0.999853,0.015294,0.000000,-0.007716 END:
KINECT_DATA_Sensor  AnkleLeft:0.031435,0.727053,-0.041869,-0.684582 AnkleRight:0.089987,0.539704,0.075663,0.833605 ElbowLeft:-0.055718,0.903410,-0.209670,-0.369842 ElbowRight:-0.006153,0.870600,0.154786,0.466969 FootLeft:0.000000,0.000000,0.000000,0.000000 FootRight:0.000000,0.000000,0.000000,0.000000 HandLeft:-0.079702,0.737750,0.114735,-0.660461 HandRight:-0.156648,0.854364,-0.160353,0.468840 HandTipLeft:0.000000,0.000000,0.000000,0.000000 HandTipRight:0.000000,0.000000,0.000000,0.000000 Head:0.000000,0.000000,0.000000,0.000000 HipLeft:0.172446,-0.669181,0.704991,-0.159522 HipRight:-0.132861,0.694785,0.696495,-0.120484 KneeLeft:-0.054714,0.729734,-0.045660,-0.680007 KneeRight:-0.052145,0.679324,0.010943,0.731902 Neck:0.029866,0.006248,0.999068,-0.030528 ShoulderLeft:-0.047382,0.779779,-0.621552,0.058070 ShoulderRight:-0.009793,0.798236,0.602187,-0.009684 SpineBase:0.035517,0.006508,0.999327,0.006385 SpineMid:0.032853,0.006491,0.999419,0.006403 SpineShoulder:0.030033,0.006665,0.999470,-0.010666 ThumbLeft:0.000000,0.000000,0.000000,0.000000 ThumbRight:0.000000,0.000000,0.000000,0.000000 WristLeft:-0.127357,0.733025,0.079024,-0.663483 WristRight:-0.132542,0.862150,-0.099046,0.478874 END:
KINECT_DATA POSITION:24.837200,37.407448,-47.211636 HEAD_JOINT1:0.992636,0.105876,-0.000000,0.058859 LARM_JOINT2:0.831336,0.000000,0.043749,-0.554045 LARM_JOINT3:0.964872,0.000000,-0.189148,-0.182332 LLEG_JOINT2:0.998396,-0.003193,0.000000,0.056522 LLEG_JOINT4:0.996603,0.052709,0.000000,-0.063281 RARM_JOINT2:0.809970,0.000000,-0.039173,0.585162 RARM_JOINT3:0.955698,0.000000,0.213836,0.202273 RLEG_JOINT2:0.997898,-0.030027,-0.000000,-0.057433 RLEG_JOINT4:0.983281,0.151655,0.000000,0.100791 WAIST:0.999624,0.000000,-0.023884,0.013470 WAIST_JOINT0:0.999767,-0.000000,0.003634,0.021298 WAIST_JOINT1:0.999845,0.016899,0.000000,-0.005032 END:
KINECT_DATA_Sensor  AnkleLeft:0.028835,0.708597,-0.041042,-0.703828 AnkleRight:0.123466,0.609520,0.054670,0.781187 ElbowLeft:-0.046325,0.888117,-0.205113,-0.408695 ElbowRight:-0.014338,0.888160,0.156969,0.431656 FootLeft:0.000000,0.000000,0.000000,0.000000 FootRight:0.000000,0.000000,0.000000,0.000000 HandLeft:0.071342,-0.646408,-0.130629,0.748333 HandRight:-0.160237,0.884586,-0.145583,0.413082 HandTipLeft:0.000000,0.000000,0.000000,0.000000 HandTipRight:0.000000,0.000000,0.000000,0.000000 Head:0.000000,0.000000,0.000000,0.000000 HipLeft:0.164773,-0.670857,0.706213,-0.155126 HipRight:-0.139939,0.693871,0.694549,-0.128692 KneeLeft:-0.052627,0.721949,-0.046188,-0.688395 KneeRight:-0.051870,0.687698,0.011268,0.724054 Neck:-0.003119,0.009517,0.999448,-0.031683 ShoulderLeft:-0.021594,0.777825,-0.627365,0.030563 ShoulderRight:-0.026089,0.800013,0.598458,-0.033873 SpineBase:0.023977,0.008134,0.999667,0.004913 SpineMid:0.010689,0.008068,0.999898,0.005021 SpineShoulder:-0.002952,0.009218,0.999882,-0.011945 ThumbLeft:0.000000,0.000000,0.000000,0.000000 ThumbRight:0.000000,0.000000,0.000000,0.000000 WristLeft:0.120171,-0.635936,-0.088062,0.757225 WristRight:-0.133578,0.891818,-0.099702,0.420567 END:
KINECT_DATA POSITION:24.833347,37.368378,-47.210777 HEAD_JOINT1:0.992620,0.114376,-0.000000,0.040303 LARM_JOINT2:0.822208,0.000000,0.051820,-0.566823 LARM_JOINT3:0.965499,0.000000,-0.196914,-0.170404 LLEG_JOINT2:0.998352,-0.006538,0.000000,0.057007 LLEG_JOINT4:0.996800,0.053773,0.000000,-0.059142 RARM_JOINT2:0.814510,0.000000,-0.031051,0.579318 RARM_JOINT3:0.955321,0.000000,0.213071,0.204846 RLEG_JOINT2:0.997997,-0.029145,-0.000000,-0.056141 RLEG_JOINT4:0.986309,0.144534,0.000000,0.079405 WAIST:0.999887,0.000000,-0.009296,0.011814 WAIST_JOINT0:0.999347,-0.000000,0.027225,0.023739 WAIST_JOINT1:0.999886,0.015052,-0.000000,0.001302 END:
KINECT_DATA_Sensor  AnkleLeft:-0.025361,-0.694950,0.040994,0.717441 AnkleRight:0.095720,0.552810,0.074057,0.824472 ElbowLeft:-0.042189,0.866210,-0.196103,-0.457650 ElbowRight:-0.024278,0.897879,0.156235,0.410870 FootLeft:0.000000,0.000000,0.000000,0.000000 FootRight:0.000000,0.000000,0.000000,0.000000 HandLeft:-0.089801,0.724626,0.125523,-0.671638 HandRight:-0.167551,0.908237,-0.146144,0.354505 HandTipLeft:0.000000,0.000000,0.000000,0.000000 HandTipRight:0.000000,0.000000,0.000000,0.000000 Head:0.000000,0.000000,0.000000,0.000000 HipLeft:0.153621,-0.674940,0.706857,-0.145635 HipRight:-0.147712,0.692963,0.692916,-0.133609 KneeLeft:-0.053616,0.711740,-0.043586,-0.699036 KneeRight:-0.051804,0.698121,0.011226,0.714015 Neck:-0.026741,0.014307,0.999114,-0.029195 ShoulderLeft:-0.005855,0.776848,-0.629595,0.009112 ShoulderRight:-0.040416,0.802141,0.593705,-0.049510 SpineBase:0.009368,0.011167,0.999877,0.005788 SpineMid:-0.008345,0.011063,0.999886,0.005985 SpineShoulder:-0.026522,0.013612,0.999507,-0.009812 ThumbLeft:0.000000,0.000000,0.000000,0.000000 ThumbRight:0.000000,0.000000,0.000000,0.000000 WristLeft:-0.140041,0.720784,0.068248,-0.675427 WristRight:-0.141437,0.915946,-0.098330,0.362450 END:
KINECT_DATA POSITION:24.777454,37.288128,-47.298466 HEAD_JOINT1:0.993880,0.108176,-0.000000,0.022368 LARM_JOINT2:0.816649,0.000000,0.053997,-0.574604 LARM_JOINT3:0.966004,0.000000,-0.199519,-0.164401 LLEG_JOINT2:0.998310,-0.010273,0.000000,0.057203 LLEG_JOINT4:0.997172,0.053517,0.000000,-0.052765 RARM_JOINT2:0.816178,0.000000,-0.023043,0.577341 RARM_JOINT3:0.957219,0.000000,0.210797,0.198233 RLEG_JOINT2:0.998111,-0.028282,-0.000000,-0.054535 RLEG_JOINT4:0.985521,0.143443,0.000000,0.090406 WAIST:0.999932,-0.000000,0.006795,0.009522 WAIST_JOINT0:0.998569,-0.000000,0.047624,0.024342 WAIST_JOINT1:0.999827,0.017212,-0.000000,0.007080 END:
KINECT_DATA_Sensor  AnkleLeft:-0.019992,-0.682692,0.040619,0.729302 AnkleRight:0.070691,0.232238,0.101994,0.964710 ElbowLeft:-0.035881,0.852793,-0.192484,-0.484155 ElbowRight:-0.031615,0.902445,0.153146,0.401423 FootLeft:0.000000,0.000000,0.000000,0.000000 FootRight:0.000000,0.000000,0.000000,0.000000 HandLeft:-0.097063,0.743322,0.119852,-0.650912 HandRight:-0.135842,0.865991,-0.159822,0.453943 HandTipLeft:0.000000,0.000000,0.000000,0.000000 HandTipRight:0.000000,0.000000,0.000000,0.000000 Head:0.000000,0.000000,0.000000,0.000000 HipLeft:0.139862,-0.678438,0.708305,-0.135880 HipRight:-0.154967,0.690337,0.692666,-0.140118 KneeLeft:0.054228,-0.700370,0.040200,0.710581 KneeRight:-0.051983,0.709444,0.011351,0.702750 Neck:-0.047349,0.017957,0.998215,-0.031663 ShoulderLeft:0.014315,0.775711,-0.630842,-0.010246 ShoulderRight:-0.046179,0.802640,0.591348,-0.062806 SpineBase:-0.006772,0.014352,0.999864,0.004592 SpineMid:-0.026653,0.014258,0.999531,0.004876 SpineShoulder:-0.047090,0.016906,0.998679,-0.011696 ThumbLeft:0.000000,0.000000,0.000000,0.000000 ThumbRight:0.000000,0.000000,0.000000,0.000000 WristLeft:-0.143863,0.739699,0.058623,-0.654761 WristRight:-0.131565,0.869850,-0.116761,0.460889 END:
KINECT_DATA POSITION:24.667395,37.222290,-47.536995 HEAD_JOINT1:0.993006,0.117815,-0.000000,0.007611 LARM_JOINT2:0.815037,0.000000,0.051096,-0.577152 LARM_JOINT3:0.964517,0.000000,-0.206625,-0.164356 LLEG_JOINT2:0.998239,-0.015069,0.000000,0.057371 LLEG_JOINT4:0.997256,0.055835,0.000000,-0.048616 RARM_JOINT2:0.817206,0.000000,-0.026538,0.575734 RARM_JOINT3:0.958856,0.000000,0.208271,0.192922 RLEG_JOINT2:0.998140,-0.028356,-0.000000,-0.053961 RLEG_JOINT4:0.986241,0.143499,0.000000,0.082080 WAIST:0.999785,-0.000000,0.019001,0.008243 WAIST_JOINT0:0.998151,-0.000000,0.055827,0.024048 WAIST_JOINT1:0.999821,0.015897,-0.000000,0.010214 END:
KINECT_DATA_Sensor  AnkleLeft:-0.016728,-0.677571,0.040609,0.734145 AnkleRight:0.103025,0.671780,0.063298,0.730815 ElbowLeft:-0.036139,0.848020,-0.190315,-0.493291 ElbowRight:-0.033894,0.902453,0.152973,0.401283 FootLeft:0.000000,0.000000,0.000000,0.000000 FootRight:0.000000,0.000000,0.000000,0.000000 HandLeft:-0.126805,0.762791,0.135757,-0.619388 HandRight:-0.114678,0.848883,-0.148633,0.494121 HandTipLeft:0.000000,0.000000,0.000000,0.000000 HandTipRight:0.000000,0.000000,0.000000,0.000000 Head:0.000000,0.000000,0.000000,0.000000 HipLeft:0.132781,-0.679445,0.709970,-0.129098 HipRight:-0.164513,0.687173,0.692335,-0.146291 KneeLeft:0.056488,-0.691544,0.036657,0.719188 KneeRight:-0.052742,0.717860,0.011076,0.694098 Neck:-0.055723,0.019464,0.997796,-0.030302 ShoulderLeft:0.013879,0.775833,-0.630637,-0.013731 ShoulderRight:-0.057432,0.803256,0.588438,-0.072270 SpineBase:-0.019000,0.016840,0.999663,0.005400 SpineMid:-0.036928,0.016740,0.999161,0.005702 SpineShoulder:-0.055441,0.018485,0.998235,-0.010594 ThumbLeft:0.000000,0.000000,0.000000,0.000000 ThumbRight:0.000000,0.000000,0.000000,0.000000 WristLeft:-0.148397,0.762840,0.052156,-0.627162 WristRight:-0.128345,0.848325,-0.123211,0.498690 END:
KINECT_DATA POSITION:24.536980,37.165703,-47.680832 HEAD_JOINT1:0.992741,0.119863,-0.000000,0.009913 LARM_JOINT2:0.816713,0.000000,0.047152,-0.575114 LARM_JOINT3:0.963284,0.000000,-0.212661,-0.163888 LLEG_JOINT2:0.998230,-0.016310,0.000000,0.057183 LLEG_JOINT4:0.997305,0.055941,0.000000,-0.047470 RARM_JOINT2:0.818025,0.000000,-0.031874,0.574299 RARM_JOINT3:0.959223,0.000000,0.202010,0.197697 RLEG_JOINT2:0.998136,-0.029495,-0.000000,-0.053424 RLEG_JOINT4:0.986460,0.143467,0.000000,0.079459 WAIST:0.999775,-0.000000,0.019409,0.008503 WAIST_JOINT0:0.998234,-0.000000,0.054488,0.023645 WAIST_JOINT1:0.999827,0.016354,-0.000000,0.008839 END:
KINECT_DATA_Sensor  AnkleLeft:-0.015124,-0.678197,0.040641,0.733599 AnkleRight:0.087137,0.523559,0.081411,0.843603 ElbowLeft:-0.038463,0.849904,-0.190744,-0.489695 ElbowRight:-0.030763,0.901961,0.157385,0.400936 FootLeft:0.000000,0.000000,0.000000,0.000000 FootRight:0.000000,0.000000,0.000000,0.000000 HandLeft:-0.145944,0.750476,0.150939,-0.626661 HandRight:-0.091653,0.868477,-0.129192,0.469741 HandTipLeft:0.000000,0.000000,0.000000,0.000000 HandTipRight:0.000000,0.000000,0.000000,0.000000 Head:0.000000,0.000000,0.000000,0.000000 HipLeft:0.132737,-0.678722,0.710599,-0.129486 HipRight:-0.164470,0.686586,0.692634,-0.147671 KneeLeft:0.057424,-0.691202,0.035862,0.719483 KneeRight:-0.052965,0.718117,0.009674,0.693837 Neck:-0.054278,0.018190,0.997887,-0.030720 ShoulderLeft:0.012173,0.775373,-0.631288,-0.011147 ShoulderRight:-0.057443,0.801643,0.590609,-0.072455 SpineBase:-0.019401,0.015966,0.999674,0.004538 SpineMid:-0.036435,0.015886,0.999198,0.004809 SpineShoulder:-0.054013,0.017385,0.998327,-0.011135 ThumbLeft:0.000000,0.000000,0.000000,0.000000 ThumbRight:0.000000,0.000000,0.000000,0.000000 WristLeft:-0.148668,0.753714,0.055040,-0.637796 WristRight:-0.130630,0.863083,-0.119063,0.473125 END:
KINECT_DATA POSITION:24.473499,37.144428,-47.669769 HEAD_JOINT1:0.992080,0.124182,-0.000000,0.018866 LARM_JOINT2:0.822030,0.000000,0.033917,-0.568433 LARM_JOINT3:0.962950,0.000000,-0.207867,-0.171810 LLEG_JOINT2:0.998240,-0.014369,0.000000,0.057532 LLEG_JOINT4:0.997292,0.054649,0.000000,-0.049209 RARM_JOINT2:0.814999,0.000000,-0.041605,0.577967 RARM_JOINT3:0.959558,0.000000,0.201060,0.197036 RLEG_JOINT2:0.998115,-0.030715,-0.000000,-0.053130 RLEG_JOINT4:0.986539,0.145655,0.000000,0.074328 WAIST:0.999869,-0.000000,0.013164,0.009428 WAIST_JOINT0:0.998822,-0.000000,0.041983,0.024333 WAIST_JOINT1:0.999829,0.017445,-0.000000,0.006097 END:
KINECT_DATA_Sensor  AnkleLeft:-0.015845,-0.685609,0.040831,0.726652 AnkleRight:0.101141,0.692211,0.062971,0.711793 ElbowLeft:-0.045223,0.867911,-0.193936,-0.455054 ElbowRight:-0.021665,0.895751,0.158349,0.414833 FootLeft:0.000000,0.000000,0.000000,0.000000 FootRight:0.000000,0.000000,0.000000,0.000000 HandLeft:-0.137801,0.710895,0.174996,-0.667095 HandRight:-0.086892,0.891808,-0.114918,0.428860 HandTipLeft:0.000000,0.000000,0.000000,0.000000 HandTipRight:0.000000,0.000000,0.000000,0.000000 Head:0.000000,0.000000,0.000000,0.000000 HipLeft:0.137192,-0.677293,0.710279,-0.134002 HipRight:-0.160457,0.687762,0.692961,-0.145058 KneeLeft:0.057115,-0.695682,0.037800,0.715077 KneeRight:-0.052851,0.713758,0.008310,0.698346 Neck:-0.041828,0.015558,0.998492,-0.031976 ShoulderLeft:0.005780,0.774668,-0.632341,-0.001008 ShoulderRight:-0.047997,0.801516,0.592719,-0.062867 SpineBase:-0.013148,0.015272,0.999789,0.004001 SpineMid:-0.027104,0.015215,0.999508,0.004214 SpineShoulder:-0.041546,0.015854,0.998936,-0.012265 ThumbLeft:0.000000,0.000000,0.000000,0.000000 ThumbRight:0.000000,0.000000,0.000000,0.000000 WristLeft:-0.140175,0.717571,0.067047,-0.678931 WristRight:-0.133844,0.885242,-0.108785,0.431970 END:
KINECT_DATA POSITION:24.237944,37.153812,-47.404778 HEAD_JOINT1:0.991994,0.121215,-0.000000,0.035412 LARM_JOINT2:0.829735,0.000000,0.014881,-0.557959 LARM_JOINT3:0.961982,0.000000,-0.205682,-0.179681 LLEG_JOINT2:0.998062,-0.010905,0.000000,0.061266 LLEG_JOINT4:0.996737,0.058098,0.000000,-0.056036 RARM_JOINT2:0.809261,0.000000,-0.050642,0.585262 RARM_JOINT3:0.959377,0.000000,0.206757,0.191959 RLEG_JOINT2:0.998205,-0.030576,-0.000000,-0.051498 RLEG_JOINT4:0.987030,0.144427,0.000000,0.070083 WAIST:0.999934,0.000000,-0.004836,0.010377 WAIST_JOINT0:0.999781,-0.000000,0.005412,0.020230 WAIST_JOINT1:0.999818,0.019062,-0.000000,0.000663 END:
KINECT_DATA_Sensor  AnkleLeft:0.022102,0.706441,-0.044424,-0.706031 AnkleRight:0.097855,0.650122,0.065624,0.750640 ElbowLeft:-0.057696,0.891515,-0.196969,-0.403826 ElbowRight:-0.010607,0.882611,0.157686,0.442741 FootLeft:0.000000,0.000000,0.000000,0.000000 FootRight:0.000000,0.000000,0.000000,0.000000 HandLeft:-0.152363,0.743076,0.190161,-0.623267 HandRight:-0.083884,0.825333,-0.113995,0.546620 HandTipLeft:0.000000,0.000000,0.000000,0.000000 HandTipRight:0.000000,0.000000,0.000000,0.000000 Head:0.000000,0.000000,0.000000,0.000000 HipLeft:0.150655,-0.674218,0.708296,-0.145084 HipRight:-0.151148,0.689377,0.694910,-0.137887 KneeLeft:-0.058553,0.708276,-0.042647,-0.702209 KneeRight:-0.050648,0.701350,0.007665,0.710975 Neck:-0.005653,0.010178,0.999349,-0.034135 ShoulderLeft:-0.011524,0.775341,-0.630950,0.024832 ShoulderRight:-0.018970,0.798395,0.600975,-0.032163 SpineBase:0.004872,0.011843,0.999910,0.003974 SpineMid:-0.000106,0.011824,0.999922,0.004033 SpineShoulder:-0.005376,0.011691,0.999819,-0.014029 ThumbLeft:0.000000,0.000000,0.000000,0.000000 ThumbRight:0.000000,0.000000,0.000000,0.000000 WristLeft:-0.138789,0.753555,0.069943,-0.638750 WristRight:-0.120532,0.819376,-0.120599,0.547312 END:
KINECT_DATA POSITION:24.032619,37.225285,-47.156109 HEAD_JOINT1:0.989522,0.126493,-0.000000,0.069613 LARM_JOINT2:0.838741,0.000000,0.004627,-0.544511 LARM_JOINT3:0.962640,0.000000,-0.191653,-0.191294 LLEG_JOINT2:0.997959,-0.008497,0.000000,0.063291 LLEG_JOINT4:0.996011,0.062808,0.000000,-0.063388 RARM_JOINT2:0.799725,0.000000,-0.066323,0.596692 RARM_JOINT3:0.958330,0.000000,0.212854,0.190515 RLEG_JOINT2:0.998304,-0.029363,-0.000000,-0.050278 RLEG_JOINT4:0.986409,0.147157,0.000000,0.073093 WAIST:0.999611,0.000000,-0.025083,0.012210 WAIST_JOINT0:0.999299,0.000000,-0.032832,0.017986 WAIST_JOINT1:0.999773,0.019707,0.000000,-0.008068 END:
KINECT_DATA_Sensor  AnkleLeft:0.029372,0.727913,-0.047416,-0.683397 AnkleRight:0.089300,0.442945,0.085325,0.888000 ElbowLeft:-0.064138,0.913668,-0.203480,-0.345968 ElbowRight:0.003325,0.858713,0.155450,0.488300 FootLeft:0.000000,0.000000,0.000000,0.000000 FootRight:0.000000,0.000000,0.000000,0.000000 HandLeft:0.106283,-0.657784,-0.195220,0.719662 HandRight:-0.069121,0.790181,-0.140047,0.592640 HandTipLeft:0.000000,0.000000,0.000000,0.000000 HandTipRight:0.000000,0.000000,0.000000,0.000000 Head:0.000000,0.000000,0.000000,0.000000 HipLeft:0.164141,-0.670700,0.706434,-0.155468 HipRight:-0.137984,0.692176,0.696740,-0.128084 KneeLeft:-0.060357,0.722211,-0.046037,-0.687494 KneeRight:-0.047312,0.687212,0.007519,0.724875 Neck:0.032562,0.002378,0.998863,-0.034747 ShoulderLeft:-0.035604,0.774499,-0.629131,0.055471 ShoulderRight:0.005870,0.794645,0.607038,-0.003057 SpineBase:0.025147,0.007290,0.999650,0.003721 SpineMid:0.029021,0.007305,0.999545,0.003693 SpineShoulder:0.032785,0.005160,0.999334,-0.015144 ThumbLeft:0.000000,0.000000,0.000000,0.000000 ThumbRight:0.000000,0.000000,0.000000,0.000000 WristLeft:0.114923,-0.657039,-0.094956,0.738969 WristRight:-0.118969,0.784883,-0.113774,0.597378 END:
KINECT_DATA POSITION:24.039257,37.205128,-47.105087 HEAD_JOINT1:0.985306,0.149407,-0.000000,0.082758 LARM_JOINT2:0.841387,0.000000,0.002926,-0.540425 LARM_JOINT3:0.962862,0.000000,-0.189229,-0.192586 LLEG_JOINT2:0.998047,-0.007174,0.000000,0.062047 LLEG_JOINT4:0.995859,0.063506,0.000000,-0.065050 RARM_JOINT2:0.798097,0.000000,-0.064753,0.599040 RARM_JOINT3:0.957024,0.000000,0.218951,0.190174 RLEG_JOINT2:0.998278,-0.028269,-0.000000,-0.051398 RLEG_JOINT4:0.985211,0.151289,0.000000,0.080437 WAIST:0.999374,0.000000,-0.032662,0.013569 WAIST_JOINT0:0.998887,0.000000,-0.043485,0.018288 WAIST_JOINT1:0.999707,0.021811,0.000000,-0.010488 END:
KINECT_DATA_Sensor  AnkleLeft:0.031693,0.733857,-0.048069,-0.676859 AnkleRight:0.076673,0.217093,0.106190,0.967324 ElbowLeft:-0.065121,0.917962,-0.207125,-0.331971 ElbowRight:0.005512,0.853794,0.154327,0.497181 FootLeft:0.000000,0.000000,0.000000,0.000000 FootRight:0.000000,0.000000,0.000000,0.000000 HandLeft:-0.132337,0.763276,0.160519,-0.611662 HandRight:-0.095950,0.830119,-0.146793,0.529290 HandTipLeft:0.000000,0.000000,0.000000,0.000000 HandTipRight:0.000000,0.000000,0.000000,0.000000 Head:0.000000,0.000000,0.000000,0.000000 HipLeft:0.166044,-0.669191,0.706439,-0.159865 HipRight:-0.130207,0.693955,0.697009,-0.125102 KneeLeft:-0.059785,0.727439,-0.046721,-0.681965 KneeRight:-0.046194,0.681848,0.008558,0.729984 Neck:0.043189,0.002033,0.998369,-0.037290 ShoulderLeft:-0.038673,0.771001,-0.632492,0.063372 ShoulderRight:0.016637,0.791372,0.611085,0.005389 SpineBase:0.032683,0.006061,0.999447,0.000905 SpineMid:0.038069,0.006066,0.999256,0.000873 SpineShoulder:0.043384,0.004045,0.998901,-0.017287 ThumbLeft:0.000000,0.000000,0.000000,0.000000 ThumbRight:0.000000,0.000000,0.000000,0.000000 WristLeft:-0.126036,0.768604,0.077907,-0.622329 WristRight:-0.128621,0.828334,-0.102179,0.535612 END:
KINECT_DATA POSITION:24.052485,37.165249,-47.084202 HEAD_JOINT1:0.987148,0.133466,-0.000000,0.087897 LARM_JOINT2:0.844767,0.000000,-0.009541,-0.535050 LARM_JOINT3:0.960605,0.000000,-0.196124,-0.196907 LLEG_JOINT2:0.998048,-0.006613,0.000000,0.062095 LLEG_JOINT4:0.995608,0.064776,0.000000,-0.067590 RARM_JOINT2:0.795469,0.000000,-0.059495,0.603066 RARM_JOINT3:0.957159,0.000000,0.223043,0.184656 RLEG_JOINT2:0.998264,-0.028444,-0.000000,-0.051564 RLEG_JOINT4:0.985963,0.149316,0.000000,0.074716 WAIST:0.999168,0.000000,-0.038256,0.014111 WAIST_JOINT0:0.998389,0.000000,-0.053494,0.018911 WAIST_JOINT1:0.999503,0.029220,0.000000,-0.011815 END:
KINECT_DATA_Sensor  AnkleLeft:0.034312,0.739431,-0.048186,-0.670629 AnkleRight:0.110766,0.618784,0.062806,0.775172 ElbowLeft:-0.068855,0.923506,-0.211120,-0.312769 ElbowRight:0.008165,0.843463,0.152557,0.515005 FootLeft:0.000000,0.000000,0.000000,0.000000 FootRight:0.000000,0.000000,0.000000,0.000000 HandLeft:-0.124484,0.707441,0.193214,-0.668356 HandRight:-0.068766,0.771730,-0.154389,0.613081 HandTipLeft:0.000000,0.000000,0.000000,0.000000 HandTipRight:0.000000,0.000000,0.000000,0.000000 Head:0.000000,0.000000,0.000000,0.000000 HipLeft:0.165339,-0.668110,0.706305,-0.165605 HipRight:-0.122432,0.694892,0.697443,-0.125329 KneeLeft:-0.060033,0.731165,-0.047262,-0.677908 KneeRight:-0.045949,0.677881,0.008498,0.733685 Neck:0.052609,0.001725,0.997580,-0.045418 ShoulderLeft:-0.033101,0.767412,-0.636426,0.070321 ShoulderRight:0.034735,0.788969,0.613314,0.012971 SpineBase:0.038151,0.005159,0.999248,-0.004634 SpineMid:0.045513,0.005125,0.998940,-0.004671 SpineShoulder:0.052814,0.003378,0.998296,-0.024598 ThumbLeft:0.000000,0.000000,0.000000,0.000000 ThumbRight:0.000000,0.000000,0.000000,0.000000 WristLeft:-0.117062,0.717507,0.091226,-0.680557 WristRight:-0.122781,0.767266,-0.113218,0.619200 END:
KINECT_DATA POSITION:24.144518,37.148357,-47.006248 HEAD_JOINT1:0.985132,0.143076,-0.000000,0.095101 LARM_JOINT2:0.847378,0.000000,-0.012479,-0.530844 LARM_JOINT3:0.962478,0.000000,-0.181203,-0.201993 LLEG_JOINT2:0.998106,-0.004388,0.000000,0.061355 LLEG_JOINT4:0.995464,0.064210,0.000000,-0.070203 RARM_JOINT2:0.794436,0.000000,-0.064533,0.603910 RARM_JOINT3:0.957565,0.000000,0.221082,0.184910 RLEG_JOINT2:0.998202,-0.028538,-0.000000,-0.052714 RLEG_JOINT4:0.986974,0.146229,0.000000,0.067077 WAIST:0.998762,0.000000,-0.047513,0.014725 WAIST_JOINT0:0.997791,0.000000,-0.063987,0.017838 WAIST_JOINT1:0.999560,0.026207,0.000000,-0.013888 END:
KINECT_DATA_Sensor  AnkleLeft:0.037101,0.745327,-0.047949,-0.663937 AnkleRight:0.107686,0.665852,0.057737,0.736010 ElbowLeft:-0.076004,0.927168,-0.211756,-0.299571 ElbowRight:0.010682,0.838237,0.152822,0.523345 FootLeft:0.000000,0.000000,0.000000,0.000000 FootRight:0.000000,0.000000,0.000000,0.000000 HandLeft:0.058843,-0.581623,-0.164350,0.794507 HandRight:-0.076026,0.783753,-0.150195,0.597823 HandTipLeft:0.000000,0.000000,0.000000,0.000000 HandTipRight:0.000000,0.000000,0.000000,0.000000 Head:0.000000,0.000000,0.000000,0.000000 HipLeft:0.171211,-0.666649,0.705309,-0.169720 HipRight:-0.116958,0.696184,0.698136,-0.119392 KneeLeft:-0.058757,0.737538,-0.048390,-0.671002 KneeRight:-0.046185,0.671057,0.009372,0.739906 Neck:0.063359,0.000015,0.997120,-0.041691 ShoulderLeft:-0.047113,0.767443,-0.634234,0.080984 ShoulderRight:0.034449,0.788300,0.614030,0.019065 SpineBase:0.047419,0.004491,0.998857,-0.003881 SpineMid:0.055503,0.004459,0.998441,-0.003917 SpineShoulder:0.063555,0.002181,0.997732,-0.022058 ThumbLeft:0.000000,0.000000,0.000000,0.000000 ThumbRight:0.000000,0.000000,0.000000,0.000000 WristLeft:0.096739,-0.574038,-0.119712,0.804233 WristRight:-0.125584,0.779977,-0.105973,0.603849 END:
KINECT_DATA POSITION:24.214533,37.137691,-46.860443 HEAD_JOINT1:0.986058,0.136325,-0.000000,0.095416 LARM_JOINT2:0.846954,0.000000,-0.007927,-0.531607 LARM_JOINT3:0.962371,0.000000,-0.180720,-0.202933 LLEG_JOINT2:0.998141,-0.003073,0.000000,0.060874 LLEG_JOINT4:0.995495,0.063470,0.000000,-0.070438 RARM_JOINT2:0.794238,0.000000,-0.059309,0.604706 RARM_JOINT3:0.955251,0.000000,0.229975,0.186027 RLEG_JOINT2:0.998201,-0.027981,-0.000000,-0.053030 RLEG_JOINT4:0.985261,0.150656,0.000000,0.081014 WAIST:0.998599,0.000000,-0.050800,0.014795 WAIST_JOINT0:0.997769,0.000000,-0.064394,0.017646 WAIST_JOINT1:0.999541,0.027037,0.000000,-0.013645 END:
KINECT_DATA_Sensor  AnkleLeft:0.037701,0.745548,-0.048196,-0.663637 AnkleRight:0.117512,0.616372,0.057865,0.776484 ElbowLeft:-0.074005,0.925508,-0.212354,-0.304736 ElbowRight:0.008854,0.838117,0.150677,0.524192 FootLeft:0.000000,0.000000,0.000000,0.000000 FootRight:0.000000,0.000000,0.000000,0.000000 HandLeft:-0.081270,0.750778,0.144378,-0.639439 HandRight:-0.124217,0.853718,-0.157536,0.480540 HandTipLeft:0.000000,0.000000,0.000000,0.000000 HandTipRight:0.000000,0.000000,0.000000,0.000000 Head:0.000000,0.000000,0.000000,0.000000 HipLeft:0.171722,-0.665934,0.705452,-0.171410 HipRight:-0.113027,0.696408,0.698983,-0.116893 KneeLeft:-0.057691,0.739815,-0.048939,-0.668543 KneeRight:-0.045868,0.668661,0.010118,0.742083 Neck:0.063569,0.000676,0.997055,-0.042892 ShoulderLeft:-0.042718,0.767418,-0.634886,0.078517 ShoulderRight:0.039188,0.787760,0.614350,0.021751 SpineBase:0.050678,0.004472,0.998693,-0.004982 SpineMid:0.057248,0.004439,0.998338,-0.005012 SpineShoulder:0.063773,0.002648,0.997700,-0.022807 ThumbLeft:0.000000,0.000000,0.000000,0.000000 ThumbRight:0.000000,0.000000,0.000000,0.000000 WristLeft:-0.122814,0.748656,0.091330,-0.645050 WristRight:-0.141121,0.855605,-0.089482,0.489916 END:
KINECT_DATA POSITION:24.258276,37.142056,-46.650673 HEAD_JOINT1:0.984847,0.143668,-0.000000,0.097144 LARM_JOINT2:0.846332,0.000000,0.000015,-0.532656 LARM_JOINT3:0.960033,0.000000,-0.190755,-0.204816 LLEG_JOINT2:0.998234,-0.001408,0.000000,0.059382 LLEG_JOINT4:0.995659,0.062876,0.000000,-0.068632 RARM_JOINT2:0.794860,0.000000,-0.078182,0.601735 RARM_JOINT3:0.951089,0.000000,0.241236,0.192963 RLEG_JOINT2:0.998203,-0.026457,-0.000000,-0.053766 RLEG_JOINT4:0.987349,0.140086,0.000000,0.074279 WAIST:0.998578,0.000000,-0.051198,0.014828 WAIST_JOINT0:0.998386,0.000000,-0.053477,0.019097 WAIST_JOINT1:0.999693,0.019832,0.000000,-0.014876 END:
KINECT_DATA_Sensor  AnkleLeft:0.037700,0.739619,-0.049591,-0.670137 AnkleRight:0.105650,0.614852,0.056882,0.779461 ElbowLeft:-0.073971,0.924623,-0.209951,-0.309063 ElbowRight:0.013947,0.832459,0.156496,0.531344 FootLeft:0.000000,0.000000,0.000000,0.000000 FootRight:0.000000,0.000000,0.000000,0.000000 HandLeft:-0.098383,0.730459,0.186189,-0.649679 HandRight:-0.139845,0.844959,-0.151595,0.493464 HandTipLeft:0.000000,0.000000,0.000000,0.000000 HandTipRight:0.000000,0.000000,0.000000,0.000000 Head:0.000000,0.000000,0.000000,0.000000 HipLeft:0.174116,-0.666520,0.705008,-0.168521 HipRight:-0.114674,0.696908,0.698810,-0.113284 KneeLeft:-0.055495,0.740300,-0.049194,-0.668173 KneeRight:-0.045201,0.668347,0.011683,0.742383 Neck:0.053696,-0.000344,0.997977,-0.034036 ShoulderLeft:-0.055053,0.770966,-0.629755,0.077391 ShoulderRight:0.013524,0.792415,0.609780,0.007982 SpineBase:0.051181,0.004296,0.998680,-0.000876 SpineMid:0.052547,0.004295,0.998609,-0.000881 SpineShoulder:0.053817,0.001336,0.998418,-0.016204 ThumbLeft:0.000000,0.000000,0.000000,0.000000 ThumbRight:0.000000,0.000000,0.000000,0.000000 WristLeft:-0.121592,0.735799,0.094984,-0.659388 WristRight:-0.145602,0.846995,-0.096252,0.502130 END:
KINECT_DATA POSITION:24.320177,37.177761,-46.695541 HEAD_JOINT1:0.986129,0.138237,-0.000000,0.091875 LARM_JOINT2:0.842420,0.000000,0.006423,-0.538783 LARM_JOINT3:0.962800,0.000000,-0.180887,-0.200739 LLEG_JOINT2:0.998291,-0.003399,0.000000,0.058347 LLEG_JOINT4:0.995594,0.064587,0.000000,-0.067979 RARM_JOINT2:0.796951,0.000000,-0.067145,0.600301 RARM_JOINT3:0.955422,0.000000,0.233321,0.180917 RLEG_JOINT2:0.998121,-0.026206,-0.000000,-0.055393 RLEG_JOINT4:0.987072,0.144776,0.000000,0.068763 WAIST:0.998738,0.000000,-0.047913,0.015041 WAIST_JOINT0:0.998256,0.000000,-0.056668,0.016573 WAIST_JOINT1:0.999798,0.015270,0.000000,-0.013054 END:
KINECT_DATA_Sensor  AnkleLeft:0.038069,0.741430,-0.048901,-0.668162 AnkleRight:0.107115,0.655358,0.060196,0.745258 ElbowLeft:-0.072472,0.920814,-0.205187,-0.323646 ElbowRight:0.002592,0.840127,0.151689,0.520740 FootLeft:0.000000,0.000000,0.000000,0.000000 FootRight:0.000000,0.000000,0.000000,0.000000 HandLeft:-0.079597,0.728274,0.151178,-0.663646 HandRight:-0.160434,0.882133,-0.114694,0.427723 HandTipLeft:0.000000,0.000000,0.000000,0.000000 HandTipRight:0.000000,0.000000,0.000000,0.000000 Head:0.000000,0.000000,0.000000,0.000000 HipLeft:0.174766,-0.667507,0.705076,-0.163581 HipRight:-0.119061,0.697235,0.697968,-0.111933 KneeLeft:-0.056095,0.738117,-0.047320,-0.670670 KneeRight:-0.046035,0.670655,0.012716,0.740230 Neck:0.056893,0.001609,0.997919,-0.030303 ShoulderLeft:-0.059158,0.774032,-0.625832,0.075562 ShoulderRight:0.013360,0.792212,0.609924,0.014657 SpineBase:0.048009,0.004261,0.998831,0.003575 SpineMid:0.052524,0.004277,0.998604,0.003555 SpineShoulder:0.057029,0.002901,0.998305,-0.011239 ThumbLeft:0.000000,0.000000,0.000000,0.000000 ThumbRight:0.000000,0.000000,0.000000,0.000000 WristLeft:-0.122411,0.726120,0.097871,-0.669467 WristRight:-0.154378,0.884030,-0.084969,0.432941 END:
KINECT_DATA POSITION:26.738914,37.362564,-47.338295 HEAD_JOINT1:0.987811,0.123580,-0.000000,0.094640 LARM_JOINT2:0.845829,0.000000,-0.001475,-0.533452 LARM_JOINT3:0.961656,0.000000,-0.189930,-0.197849 LLEG_JOINT2:0.998452,-0.004726,0.000000,0.055428 LLEG_JOINT4:0.995373,0.056677,0.000000,-0.077592 RARM_JOINT2:0.798521,0.000000,-0.061744,0.598792 RARM_JOINT3:0.954876,0.000000,0.228971,0.189165 RLEG_JOINT2:0.996710,-0.049147,-0.000000,-0.064449 RLEG_JOINT4:0.989573,0.135668,0.000000,0.048372 WAIST:0.998429,0.000000,-0.055062,0.010405 WAIST_JOINT0:0.997719,0.000000,-0.065604,0.015906 WAIST_JOINT1:0.999705,0.020266,0.000000,-0.013386 END:
KINECT_DATA_Sensor  AnkleLeft:0.044204,0.749140,-0.030605,-0.660226 AnkleRight:0.061867,0.664950,0.061700,0.741759 ElbowLeft:-0.073467,0.927700,-0.206037,-0.302529 ElbowRight:0.000849,0.835540,0.158599,0.526041 FootLeft:0.000000,0.000000,0.000000,0.000000 FootRight:0.000000,0.000000,0.000000,0.000000 HandLeft:0.108405,-0.685226,-0.166716,0.700657 HandRight:-0.113861,0.828369,-0.147538,0.528274 HandTipLeft:0.000000,0.000000,0.000000,0.000000 HandTipRight:0.000000,0.000000,0.000000,0.000000 Head:0.000000,0.000000,0.000000,0.000000 HipLeft:0.177654,-0.669238,0.701307,-0.169493 HipRight:-0.111173,0.694694,0.702276,-0.108856 KneeLeft:-0.051802,0.743178,-0.040782,-0.665838 KneeRight:-0.072287,0.663298,0.007730,0.744815 Neck:0.065238,-0.003637,0.997201,-0.036345 ShoulderLeft:-0.057457,0.773306,-0.626085,0.081939 ShoulderRight:0.025892,0.791731,0.609946,0.021403 SpineBase:0.055076,0.000788,0.998482,0.000543 SpineMid:0.060199,0.000791,0.998186,0.000539 SpineShoulder:0.065344,-0.001559,0.997734,-0.015964 ThumbLeft:0.000000,0.000000,0.000000,0.000000 ThumbRight:0.000000,0.000000,0.000000,0.000000 WristLeft:0.108287,-0.686340,-0.112277,0.710356 WristRight:-0.147747,0.826017,-0.095378,0.535509 END:
KINECT_DATA POSITION:24.172127,37.289650,-47.650112 HEAD_JOINT1:0.986790,0.144449,-0.000000,0.073348 LARM_JOINT2:0.832399,0.000000,0.001875,-0.554174 LARM_JOINT3:0.963911,0.000000,-0.183282,-0.193089 LLEG_JOINT2:0.998130,-0.007399,0.000000,0.060676 LLEG_JOINT4:0.996591,0.057150,0.000000,-0.059498 RARM_JOINT2:0.809584,0.000000,-0.068331,0.583013 RARM_JOINT3:0.956185,0.000000,0.232810,0.177511 RLEG_JOINT2:0.997751,-0.049483,-0.000000,-0.045208 RLEG_JOINT4:0.989354,0.135262,0.000000,0.053698 WAIST:0.999326,0.000000,-0.034818,0.011668 WAIST_JOINT0:0.998784,0.000000,-0.047001,0.014860 WAIST_JOINT1:0.999855,0.016169,0.000000,-0.005315 END:
KINECT_DATA_Sensor  AnkleLeft:0.025332,0.735601,-0.044989,-0.675445 AnkleRight:0.076117,0.660186,0.045795,0.745831 ElbowLeft:-0.072931,0.908741,-0.190206,-0.364269 ElbowRight:-0.002836,0.850807,0.167784,0.497964 FootLeft:0.000000,0.000000,0.000000,0.000000 FootRight:0.000000,0.000000,0.000000,0.000000 HandLeft:-0.073919,0.797014,0.168667,-0.575201 HandRight:-0.147541,0.749920,-0.103754,0.636464 HandTipLeft:0.000000,0.000000,0.000000,0.000000 HandTipRight:0.000000,0.000000,0.000000,0.000000 Head:0.000000,0.000000,0.000000,0.000000 HipLeft:0.166587,-0.671234,0.705015,-0.156996 HipRight:-0.128959,0.694130,0.698366,-0.117635 KneeLeft:-0.057671,0.729122,-0.044179,-0.680517 KneeRight:-0.058767,0.679046,-0.009034,0.731684 Neck:0.047198,0.005796,0.998376,-0.031378 ShoulderLeft:-0.052069,0.773755,-0.627653,0.068139 ShoulderRight:0.008243,0.790093,0.612894,0.006706 SpineBase:0.034893,0.007728,0.999350,0.004827 SpineMid:0.041172,0.007759,0.999111,0.004779 SpineShoulder:0.047411,0.007004,0.998784,-0.011591 ThumbLeft:0.000000,0.000000,0.000000,0.000000 ThumbRight:0.000000,0.000000,0.000000,0.000000 WristLeft:-0.142690,0.796304,0.079764,-0.582389 WristRight:-0.129039,0.753583,-0.117810,0.633705 END:
KINECT_DATA POSITION:22.372099,37.301945,-47.968830 HEAD_JOINT1:0.988334,0.142707,-0.000000,0.053203 LARM_JOINT2:0.820491,0.000000,0.026436,-0.571048 LARM_JOINT3:0.965906,0.000000,-0.194439,-0.170938 LLEG_JOINT2:0.997724,-0.038776,0.000000,0.055161 LLEG_JOINT4:0.993979,0.099277,0.000000,-0.046358 RARM_JOINT2:0.817141,0.000000,-0.063019,0.572982 RARM_JOINT3:0.952190,0.000000,0.231288,0.199599 RLEG_JOINT2:0.997864,-0.045941,-0.000000,-0.046440 RLEG_JOINT4:0.989956,0.123936,0.000000,0.068022 WAIST:0.999772,0.000000,-0.011833,0.017772 WAIST_JOINT0:0.999742,0.000000,-0.014792,0.017246 WAIST_JOINT1:0.999902,0.013957,0.000000,-0.001433 END:
KINECT_DATA_Sensor  AnkleLeft:0.023927,0.714854,-0.061623,-0.696142 AnkleRight:0.080109,0.606627,0.036107,0.790115 ElbowLeft:-0.055929,0.883031,-0.187198,-0.426715 ElbowRight:-0.010464,0.870861,0.167628,0.461944 FootLeft:0.000000,0.000000,0.000000,0.000000 FootRight:0.000000,0.000000,0.000000,0.000000 HandLeft:0.096218,-0.677303,-0.145166,0.714794 HandRight:-0.096211,0.665709,-0.186906,0.715990 HandTipLeft:0.000000,0.000000,0.000000,0.000000 HandTipRight:0.000000,0.000000,0.000000,0.000000 Head:0.000000,0.000000,0.000000,0.000000 HipLeft:0.150277,-0.670163,0.712651,-0.142925 HipRight:-0.143882,0.696745,0.691095,-0.127403 KneeLeft:-0.079135,0.711946,-0.023161,-0.697377 KneeRight:-0.052741,0.695602,-0.011524,0.716396 Neck:0.014865,0.015625,0.999362,-0.028470 ShoulderLeft:-0.023453,0.774165,-0.631613,0.034398 ShoulderRight:-0.004464,0.791985,0.610442,-0.010038 SpineBase:0.011945,0.016959,0.999766,0.006077 SpineMid:0.013701,0.016970,0.999744,0.006047 SpineShoulder:0.015222,0.016720,0.999701,-0.009357 ThumbLeft:0.000000,0.000000,0.000000,0.000000 ThumbRight:0.000000,0.000000,0.000000,0.000000 WristLeft:0.131883,-0.669009,-0.095372,0.725216 WristRight:-0.101796,0.666282,-0.141117,0.725115 END:
KINECT_DATA POSITION:23.859522,37.237705,-48.178066 HEAD_JOINT1:0.986764,0.146274,-0.000000,0.070000 LARM_JOINT2:0.837373,0.000000,0.017174,-0.546362 LARM_JOINT3:0.964435,0.000000,-0.198392,-0.174656 LLEG_JOINT2:0.998219,-0.022886,0.000000,0.055083 LLEG_JOINT4:0.995873,0.072252,0.000000,-0.054922 RARM_JOINT2:0.804515,0.000000,-0.063563,0.590521 RARM_JOINT3:0.952154,0.000000,0.222348,0.209678 RLEG_JOINT2:0.997777,-0.048173,-0.000000,-0.046054 RLEG_JOINT4:0.985405,0.149215,0.000000,0.081931 WAIST:0.999630,0.000000,-0.024433,0.011936 WAIST_JOINT0:0.999546,0.000000,-0.024361,0.017705 WAIST_JOINT1:0.999907,0.010404,0.000000,-0.008868 END:
KINECT_DATA_Sensor  AnkleLeft:0.025685,0.723164,-0.044067,-0.688790 AnkleRight:0.092500,0.450849,0.064177,0.885472 ElbowLeft:-0.067053,0.902757,-0.199121,-0.375345 ElbowRight:-0.008572,0.864434,0.158594,0.476999 FootLeft:0.000000,0.000000,0.000000,0.000000 FootRight:0.000000,0.000000,0.000000,0.000000 HandLeft:-0.158582,0.704771,0.155181,-0.673846 HandRight:-0.098542,0.827405,-0.184973,0.521033 HandTipLeft:0.000000,0.000000,0.000000,0.000000 HandTipRight:0.000000,0.000000,0.000000,0.000000 Head:0.000000,0.000000,0.000000,0.000000 HipLeft:0.163946,-0.673489,0.705870,-0.145879 HipRight:-0.137331,0.693858,0.696522,-0.120660 KneeLeft:-0.064137,0.721564,-0.029743,-0.688728 KneeRight:-0.058205,0.686794,-0.008389,0.724469 Neck:0.024619,0.002499,0.999368,-0.025509 ShoulderLeft:-0.038989,0.777014,-0.626706,0.044383 ShoulderRight:-0.007984,0.796021,0.605198,-0.004633 SpineBase:0.024628,0.004619,0.999633,0.010264 SpineMid:0.024719,0.004620,0.999631,0.010264 SpineShoulder:0.024733,0.003584,0.999671,-0.005799 ThumbLeft:0.000000,0.000000,0.000000,0.000000 ThumbRight:0.000000,0.000000,0.000000,0.000000 WristLeft:-0.132873,0.710654,0.089889,-0.685008 WristRight:-0.137666,0.828308,-0.113540,0.531096 END:
KINECT_DATA POSITION:25.660625,37.247963,-48.041523 HEAD_JOINT1:0.986577,0.144432,-0.000000,0.076191 LARM_JOINT2:0.840735,0.000000,0.012547,-0.541301 LARM_JOINT3:0.964083,0.000000,-0.191835,-0.183694 LLEG_JOINT2:0.998559,-0.015240,0.000000,0.051459 LLEG_JOINT4:0.995865,0.062580,0.000000,-0.065856 RARM_JOINT2:0.800141,0.000000,-0.066598,0.596103 RARM_JOINT3:0.954384,0.000000,0.223041,0.198506 RLEG_JOINT2:0.997282,-0.050271,-0.000000,-0.053862 RLEG_JOINT4:0.988698,0.140224,0.000000,0.053043 WAIST:0.999318,0.000000,-0.035583,0.009841 WAIST_JOINT0:0.999038,0.000000,-0.040667,0.016428 WAIST_JOINT1:0.999870,0.011322,0.000000,-0.011502 END:
KINECT_DATA_Sensor  AnkleLeft:0.036161,0.734815,-0.031365,-0.676577 AnkleRight:0.072853,0.677969,0.054568,0.729434 ElbowLeft:-0.069594,0.912125,-0.199372,-0.351335 ElbowRight:-0.005051,0.852374,0.157644,0.498580 FootLeft:0.000000,0.000000,0.000000,0.000000 FootRight:0.000000,0.000000,0.000000,0.000000 HandLeft:-0.141145,0.746871,0.153306,-0.631474 HandRight:-0.114220,0.858823,-0.153052,0.475345 HandTipLeft:0.000000,0.000000,0.000000,0.000000 HandTipRight:0.000000,0.000000,0.000000,0.000000 Head:0.000000,0.000000,0.000000,0.000000 HipLeft:0.171329,-0.673521,0.702696,-0.152427 HipRight:-0.128435,0.693427,0.699623,-0.114856 KneeLeft:-0.055018,0.729868,-0.030813,-0.680673 KneeRight:-0.066549,0.678204,-0.001912,0.731851 Neck:0.040904,-0.002269,0.998808,-0.026548 ShoulderLeft:-0.049393,0.777457,-0.624298,0.058077 ShoulderRight:0.002387,0.794929,0.606657,0.007115 SpineBase:0.035761,0.000214,0.999317,0.009294 SpineMid:0.038339,0.000238,0.999222,0.009294 SpineShoulder:0.040948,-0.001006,0.999137,-0.006914 ThumbLeft:0.000000,0.000000,0.000000,0.000000 ThumbRight:0.000000,0.000000,0.000000,0.000000 WristLeft:-0.131840,0.750893,0.087108,-0.641241 WristRight:-0.148540,0.857129,-0.097653,0.483456 END:
KINECT_DATA POSITION:26.046726,37.353615,-47.993340 HEAD_JOINT1:0.987063,0.139330,-0.000000,0.079338 LARM_JOINT2:0.842675,0.000000,0.009003,-0.538348 LARM_JOINT3:0.959177,0.000000,-0.190681,-0.208853 LLEG_JOINT2:0.998644,-0.011693,0.000000,0.050728 LLEG_JOINT4:0.995823,0.061686,0.000000,-0.067315 RARM_JOINT2:0.802709,0.000000,-0.061823,0.593158 RARM_JOINT3:0.955485,0.000000,0.224340,0.191625 RLEG_JOINT2:0.997722,-0.040290,-0.000000,-0.054107 RLEG_JOINT4:0.987206,0.149658,0.000000,0.055021 WAIST:0.999026,0.000000,-0.043024,0.009808 WAIST_JOINT0:0.998582,0.000000,-0.050350,0.017303 WAIST_JOINT1:0.999887,0.012862,0.000000,-0.007787 END:
KINECT_DATA_Sensor  AnkleLeft:0.039445,0.740368,-0.032056,-0.670277 AnkleRight:0.041100,0.186011,0.102663,0.976305 ElbowLeft:-0.071482,0.919912,-0.206032,-0.325887 ElbowRight:-0.004882,0.852563,0.157328,0.498357 FootLeft:0.000000,0.000000,0.000000,0.000000 FootRight:0.000000,0.000000,0.000000,0.000000 HandLeft:-0.096592,0.755538,0.185855,-0.620718 HandRight:-0.102464,0.730732,-0.149524,0.658160 HandTipLeft:0.000000,0.000000,0.000000,0.000000 HandTipRight:0.000000,0.000000,0.000000,0.000000 Head:0.000000,0.000000,0.000000,0.000000 HipLeft:0.175450,-0.672065,0.701683,-0.158703 HipRight:-0.125016,0.693915,0.700402,-0.110864 KneeLeft:-0.052230,0.735142,-0.032569,-0.675113 KneeRight:-0.059354,0.673242,0.005608,0.737015 Neck:0.050378,0.001757,0.998330,-0.028227 ShoulderLeft:-0.057284,0.775941,-0.624429,0.068719 ShoulderRight:0.006601,0.795490,0.605820,0.011580 SpineBase:0.043166,0.002898,0.999026,0.008648 SpineMid:0.046826,0.002930,0.998861,0.008637 SpineShoulder:0.050497,0.002715,0.998686,-0.008340 ThumbLeft:0.000000,0.000000,0.000000,0.000000 ThumbRight:0.000000,0.000000,0.000000,0.000000 WristLeft:-0.127117,0.759777,0.095213,-0.630488 WristRight:-0.123226,0.728079,-0.130155,0.661646 END:
KINECT_DATA POSITION:24.634108,37.389576,-48.083092 HEAD_JOINT1:0.982816,0.142373,-0.000000,0.117486 LARM_JOINT2:0.848533,0.000000,-0.013588,-0.528969 LARM_JOINT3:0.962583,0.000000,-0.184791,-0.198210 LLEG_JOINT2:0.998552,-0.010586,0.000000,0.052738 LLEG_JOINT4:0.995593,0.064520,0.000000,-0.068059 RARM_JOINT2:0.790278,0.000000,-0.075718,0.608052 RARM_JOINT3:0.953394,0.000000,0.233496,0.191099 RLEG_JOINT2:0.997934,-0.035991,-0.000000,-0.053226 RLEG_JOINT4:0.989920,0.134869,0.000000,0.043218 WAIST:0.998001,0.000000,-0.061137,0.016034 WAIST_JOINT0:0.996283,0.000000,-0.084073,0.018766 WAIST_JOINT1:0.999710,0.016482,0.000000,-0.017553 END:
KINECT_DATA_Sensor  AnkleLeft:0.036636,0.756947,-0.040780,-0.651173 AnkleRight:0.079355,0.658969,0.061205,0.745464 ElbowLeft:-0.087126,0.932118,-0.206772,-0.284271 ElbowRight:0.013178,0.827476,0.148546,0.541335 FootLeft:0.000000,0.000000,0.000000,0.000000 FootRight:0.000000,0.000000,0.000000,0.000000 HandLeft:0.051583,-0.454202,-0.195199,0.867720 HandRight:-0.084270,0.709781,-0.176039,0.676846 HandTipLeft:0.000000,0.000000,0.000000,0.000000 HandTipRight:0.000000,0.000000,0.000000,0.000000 Head:0.000000,0.000000,0.000000,0.000000 HipLeft:0.185710,-0.665065,0.702739,-0.171342 HipRight:-0.113227,0.698740,0.698359,-0.106008 KneeLeft:-0.057858,0.746889,-0.038289,-0.661319 KneeRight:-0.050905,0.660482,0.004650,0.749100 Neck:0.083850,-0.002691,0.995941,-0.032625 ShoulderLeft:-0.070981,0.771075,-0.625840,0.093431 ShoulderRight:0.036100,0.791769,0.608498,0.039107 SpineBase:0.061282,0.002108,0.998107,0.004635 SpineMid:0.072584,0.002160,0.997349,0.004611 SpineShoulder:0.083993,-0.000301,0.996387,-0.012610 ThumbLeft:0.000000,0.000000,0.000000,0.000000 ThumbRight:0.000000,0.000000,0.000000,0.000000 WristLeft:0.076227,-0.449350,-0.142432,0.878628 WristRight:-0.121936,0.707600,-0.128864,0.683980 END:
KINECT_DATA POSITION:26.864094,37.335026,-48.567043 HEAD_JOINT1:0.981459,0.142360,-0.000000,0.128342 LARM_JOINT2:0.847192,0.000000,-0.013108,-0.531125 LARM_JOINT3:0.964111,0.000000,-0.182865,-0.192486 LLEG_JOINT2:0.998838,-0.012465,0.000000,0.046545 LLEG_JOINT4:0.994909,0.059854,0.000000,-0.081080 RARM_JOINT2:0.792006,0.000000,-0.072366,0.606209 RARM_JOINT3:0.951948,0.000000,0.235896,0.195317 RLEG_JOINT2:0.996524,-0.051641,-0.000000,-0.065368 RLEG_JOINT4:0.990887,0.133039,0.000000,0.021064 WAIST:0.997112,0.000000,-0.074272,0.015867 WAIST_JOINT0:0.994981,0.000000,-0.098581,0.017173 WAIST_JOINT1:0.999493,0.025000,0.000000,-0.019716 END:
KINECT_DATA_Sensor  AnkleLeft:0.046410,0.766821,-0.023602,-0.639746 AnkleRight:0.045017,0.652001,0.074811,0.753174 ElbowLeft:-0.080135,0.936620,-0.204867,-0.272675 ElbowRight:0.017025,0.815073,0.155724,0.557778 FootLeft:0.000000,0.000000,0.000000,0.000000 FootRight:0.000000,0.000000,0.000000,0.000000 HandLeft:0.105461,-0.684786,-0.150847,0.705118 HandRight:-0.056979,0.673596,-0.187349,0.712686 HandTipLeft:0.000000,0.000000,0.000000,0.000000 HandTipRight:0.000000,0.000000,0.000000,0.000000 Head:0.000000,0.000000,0.000000,0.000000 HipLeft:0.187522,-0.662193,0.701892,-0.183532 HipRight:-0.097019,0.699327,0.700705,-0.102671 KneeLeft:-0.054638,0.755603,-0.032076,-0.651958 KneeRight:-0.070605,0.649177,0.004526,0.757340 Neck:0.097689,-0.004452,0.994337,-0.041608 ShoulderLeft:-0.070078,0.768310,-0.627195,0.106847 ShoulderRight:0.055279,0.788522,0.610699,0.047154 SpineBase:0.074136,0.000635,0.997237,-0.004607 SpineMid:0.085947,0.000580,0.996289,-0.004614 SpineShoulder:0.097855,-0.001970,0.994969,-0.021389 ThumbLeft:0.000000,0.000000,0.000000,0.000000 ThumbRight:0.000000,0.000000,0.000000,0.000000 WristLeft:0.103031,-0.685909,-0.113485,0.711361 WristRight:-0.119963,0.659041,-0.127150,0.731510 END:
KINECT_DATA POSITION:28.075754,37.337666,-48.608101 HEAD_JOINT1:0.980646,0.147126,-0.000000,0.129183 LARM_JOINT2:0.848204,0.000000,-0.011141,-0.529552 LARM_JOINT3:0.961845,0.000000,-0.187807,-0.198953 LLEG_JOINT2:0.999029,-0.010208,0.000000,0.042847 LLEG_JOINT4:0.994827,0.056064,0.000000,-0.084716 RARM_JOINT2:0.789749,0.000000,-0.077021,0.608575 RARM_JOINT3:0.948032,0.000000,0.253295,0.192553 RLEG_JOINT2:0.995664,-0.067536,-0.000000,-0.063977 RLEG_JOINT4:0.990001,0.141044,0.000000,0.001905 WAIST:0.996708,0.000000,-0.079557,0.015635 WAIST_JOINT0:0.994445,0.000000,-0.103866,0.017046 WAIST_JOINT1:0.999559,0.021141,0.000000,-0.020853 END:
KINECT_DATA_Sensor  AnkleLeft:0.051000,0.770670,-0.017709,-0.634944 AnkleRight:0.028174,0.648666,0.083257,0.755981 ElbowLeft:-0.082169,0.939203,-0.204505,-0.263294 ElbowRight:0.017851,0.809002,0.153597,0.567103 FootLeft:0.000000,0.000000,0.000000,0.000000 FootRight:0.000000,0.000000,0.000000,0.000000 HandLeft:-0.118380,0.730854,0.171368,-0.649979 HandRight:-0.123540,0.712643,-0.197714,0.661654 HandTipLeft:0.000000,0.000000,0.000000,0.000000 HandTipRight:0.000000,0.000000,0.000000,0.000000 Head:0.000000,0.000000,0.000000,0.000000 HipLeft:0.193220,-0.661919,0.700182,-0.185133 HipRight:-0.095286,0.699829,0.701128,-0.097878 KneeLeft:-0.050299,0.759408,-0.031023,-0.647926 KneeRight:-0.081867,0.644068,-0.006291,0.760549 Neck:0.103207,-0.005744,0.993957,-0.036950 ShoulderLeft:-0.080130,0.769477,-0.623666,0.111916 ShoulderRight:0.051937,0.789811,0.609022,0.050925 SpineBase:0.079506,-0.000452,0.996832,-0.001902 SpineMid:0.091346,-0.000475,0.995817,-0.001896 SpineShoulder:0.103317,-0.003465,0.994480,-0.018001 ThumbLeft:0.000000,0.000000,0.000000,0.000000 ThumbRight:0.000000,0.000000,0.000000,0.000000 WristLeft:-0.108305,0.736366,0.110676,-0.658624 WristRight:-0.135369,0.717261,-0.120158,0.672885 END:
KINECT_DATA POSITION:27.303699,37.317181,-47.565937 HEAD_JOINT1:0.985364,0.132548,-0.000000,0.107182 LARM_JOINT2:0.842603,0.000000,-0.003671,-0.538523 LARM_JOINT3:0.962068,0.000000,-0.179851,-0.205130 LLEG_JOINT2:0.999177,-0.003315,0.000000,0.040431 LLEG_JOINT4:0.995757,0.054608,0.000000,-0.074063 RARM_JOINT2:0.801011,0.000000,-0.058611,0.595773 RARM_JOINT3:0.955557,0.000000,0.237897,0.174114 RLEG_JOINT2:0.996585,-0.054407,-0.000000,-0.062112 RLEG_JOINT4:0.991501,0.129528,0.000000,0.012152 WAIST:0.997775,0.000000,-0.064687,0.016118 WAIST_JOINT0:0.996594,0.000000,-0.080703,0.016951 WAIST_JOINT1:0.999695,0.018463,0.000000,-0.016429 END:
KINECT_DATA_Sensor  AnkleLeft:0.048165,0.757760,-0.026915,-0.650196 AnkleRight:0.035922,0.659714,0.075159,0.746886 ElbowLeft:-0.077943,0.929633,-0.200612,-0.299102 ElbowRight:-0.000207,0.835191,0.158334,0.526675 FootLeft:0.000000,0.000000,0.000000,0.000000 FootRight:0.000000,0.000000,0.000000,0.000000 HandLeft:-0.046188,0.699587,0.176317,-0.690911 HandRight:-0.168273,0.762836,-0.124879,0.611696 HandTipLeft:0.000000,0.000000,0.000000,0.000000 HandTipRight:0.000000,0.000000,0.000000,0.000000 Head:0.000000,0.000000,0.000000,0.000000 HipLeft:0.185489,-0.664469,0.702738,-0.173876 HipRight:-0.106769,0.699598,0.699068,-0.102307 KneeLeft:-0.043955,0.750138,-0.035567,-0.658860 KneeRight:-0.070496,0.656129,-0.000733,0.751348 Neck:0.080380,-0.000497,0.996166,-0.034514 ShoulderLeft:-0.066175,0.771111,-0.626624,0.091385 ShoulderRight:0.036631,0.790166,0.610769,0.035467 SpineBase:0.064769,0.002361,0.997894,0.002502 SpineMid:0.072619,0.002381,0.997354,0.002484 SpineShoulder:0.080520,0.000956,0.996645,-0.014632 ThumbLeft:0.000000,0.000000,0.000000,0.000000 ThumbRight:0.000000,0.000000,0.000000,0.000000 WristLeft:0.109809,-0.684695,-0.111479,0.711833 WristRight:-0.138159,0.768480,-0.108549,0.615278 END:
KINECT_DATA POSITION:25.742249,37.354137,-46.957291 HEAD_JOINT1:0.986873,0.138229,-0.000000,0.083511 LARM_JOINT2:0.838870,0.000000,0.009746,-0.544244 LARM_JOINT3:0.962544,0.000000,-0.181475,-0.201434 LLEG_JOINT2:0.998821,-0.000743,0.000000,0.048533 LLEG_JOINT4:0.996180,0.055987,0.000000,-0.067014 RARM_JOINT2:0.809762,0.000000,-0.053015,0.584359 RARM_JOINT3:0.954050,0.000000,0.235014,0.185893 RLEG_JOINT2:0.997780,-0.041088,-0.000000,-0.052417 RLEG_JOINT4:0.989405,0.136567,0.000000,0.049269 WAIST:0.998921,0.000000,-0.044622,0.012859 WAIST_JOINT0:0.998403,0.000000,-0.054515,0.014832 WAIST_JOINT1:0.999842,0.016025,0.000000,-0.007693 END:
KINECT_DATA_Sensor  AnkleLeft:0.042266,0.742070,-0.036755,-0.667978 AnkleRight:0.060966,0.463161,0.075145,0.880976 ElbowLeft:-0.068541,0.918349,-0.203466,-0.332474 ElbowRight:-0.009087,0.858481,0.163803,0.485898 FootLeft:0.000000,0.000000,0.000000,0.000000 FootRight:0.000000,0.000000,0.000000,0.000000 HandLeft:-0.064599,0.705221,0.165412,-0.686389 HandRight:-0.183526,0.801497,-0.139027,0.551899 HandTipLeft:0.000000,0.000000,0.000000,0.000000 HandTipRight:0.000000,0.000000,0.000000,0.000000 Head:0.000000,0.000000,0.000000,0.000000 HipLeft:0.173172,-0.669347,0.704091,-0.161993 HipRight:-0.122127,0.696010,0.698779,-0.111189 KneeLeft:-0.045394,0.736605,-0.041284,-0.673534 KneeRight:-0.056621,0.672114,0.001782,0.738277 Neck:0.054299,0.004852,0.998018,-0.031441 ShoulderLeft:-0.051851,0.774324,-0.626782,0.069842 ShoulderRight:0.017476,0.790992,0.611363,0.016168 SpineBase:0.044722,0.006683,0.998963,0.005225 SpineMid:0.049633,0.006709,0.998731,0.005192 SpineShoulder:0.054497,0.006004,0.998429,-0.011543 ThumbLeft:0.000000,0.000000,0.000000,0.000000 ThumbRight:0.000000,0.000000,0.000000,0.000000 WristLeft:0.116827,-0.689734,-0.099911,0.707557 WristRight:-0.136755,0.810982,-0.105185,0.559055 END:
KINECT_DATA POSITION:24.293917,37.318600,-46.819878 HEAD_JOINT1:0.985415,0.152658,-0.000000,0.075182 LARM_JOINT2:0.833597,0.000000,0.018672,-0.552058 LARM_JOINT3:0.964756,0.000000,-0.182502,-0.189574 LLEG_JOINT2:0.998492,-0.000945,0.000000,0.054880 LLEG_JOINT4:0.996517,0.057335,0.000000,-0.060557 RARM_JOINT2:0.811879,0.000000,-0.053356,0.581382 RARM_JOINT3:0.956374,0.000000,0.223570,0.188056 RLEG_JOINT2:0.998276,-0.037982,-0.000000,-0.044753 RLEG_JOINT4:0.988342,0.139449,0.000000,0.061109 WAIST:0.999449,0.000000,-0.030825,0.012326 WAIST_JOINT0:0.999269,0.000000,-0.033979,0.017540 WAIST_JOINT1:0.999927,0.011753,0.000000,-0.002795 END:
KINECT_DATA_Sensor  AnkleLeft:0.034334,0.729128,-0.045522,-0.681999 AnkleRight:0.082356,0.517106,0.066946,0.849316 ElbowLeft:-0.066463,0.903949,-0.199244,-0.372505 ElbowRight:-0.012695,0.870791,0.161463,0.464210 FootLeft:0.000000,0.000000,0.000000,0.000000 FootRight:0.000000,0.000000,0.000000,0.000000 HandLeft:-0.101578,0.811985,0.153556,-0.553880 HandRight:-0.154933,0.785802,-0.126487,0.585246 HandTipLeft:0.000000,0.000000,0.000000,0.000000 HandTipRight:0.000000,0.000000,0.000000,0.000000 Head:0.000000,0.000000,0.000000,0.000000 HipLeft:0.165749,-0.671822,0.705674,-0.152339 HipRight:-0.134214,0.694881,0.696902,-0.115995 KneeLeft:-0.049332,0.726924,-0.045601,-0.683424 KneeRight:-0.049618,0.682612,-0.002193,0.729091 Neck:0.033767,0.009103,0.999033,-0.026660 ShoulderLeft:-0.041895,0.773641,-0.630168,0.051115 ShoulderRight:0.001033,0.793857,0.608097,0.002987 SpineBase:0.030948,0.010702,0.999422,0.009080 SpineMid:0.032555,0.010716,0.999371,0.009063 SpineShoulder:0.034012,0.010098,0.999345,-0.007074 ThumbLeft:0.000000,0.000000,0.000000,0.000000 ThumbRight:0.000000,0.000000,0.000000,0.000000 WristLeft:-0.143379,0.812733,0.059373,-0.561589 WristRight:-0.127142,0.791072,-0.120160,0.586176 END:
KINECT_DATA POSITION:20.148609,36.987507,-47.955002 HEAD_JOINT1:0.987143,0.153992,-0.000000,0.042846 LARM_JOINT2:0.827593,0.000000,0.018724,-0.561017 LARM_JOINT3:0.962865,0.000000,-0.195301,-0.186409 LLEG_JOINT2:0.997965,-0.020784,0.000000,0.060289 LLEG_JOINT4:0.997085,0.070203,0.000000,-0.029889 RARM_JOINT2:0.812272,0.000000,-0.051578,0.580994 RARM_JOINT3:0.956395,0.000000,0.224993,0.186243 RLEG_JOINT2:0.998521,-0.040578,-0.000000,-0.036173 RLEG_JOINT4:0.987458,0.139774,0.000000,0.073411 WAIST:0.999800,-0.000000,0.000027,0.020020 WAIST_JOINT0:0.999707,-0.000000,0.002304,0.024085 WAIST_JOINT1:0.999813,0.019316,-0.000000,0.000032 END:
KINECT_DATA_Sensor  AnkleLeft:0.000741,-0.701782,0.070371,0.708907 AnkleRight:0.110966,0.701221,0.029912,0.703620 ElbowLeft:-0.058463,0.882766,-0.202534,-0.419865 ElbowRight:-0.010493,0.880325,0.154617,0.448342 FootLeft:0.000000,0.000000,0.000000,0.000000 FootRight:0.000000,0.000000,0.000000,0.000000 HandLeft:-0.092068,0.726292,0.159696,-0.662208 HandRight:-0.104570,0.717510,-0.150289,0.672055 HandTipLeft:0.000000,0.000000,0.000000,0.000000 HandTipRight:0.000000,0.000000,0.000000,0.000000 Head:0.000000,0.000000,0.000000,0.000000 HipLeft:0.140483,-0.669046,0.716428,-0.139185 HipRight:-0.151362,0.695834,0.688348,-0.138133 KneeLeft:0.071494,-0.704062,0.041968,0.705283 KneeRight:-0.040100,0.704827,-0.017310,0.708033 Neck:-0.002266,0.019724,0.999205,-0.034580 ShoulderLeft:-0.011108,0.769659,-0.637818,0.026256 ShoulderRight:-0.014205,0.795624,0.604970,-0.028159 SpineBase:0.000019,0.020165,0.999794,0.002308 SpineMid:-0.000744,0.020163,0.999794,0.002323 SpineShoulder:-0.001849,0.020190,0.999692,-0.014327 ThumbLeft:0.000000,0.000000,0.000000,0.000000 ThumbRight:0.000000,0.000000,0.000000,0.000000 WristLeft:-0.144355,0.725714,0.075034,-0.668484 WristRight:-0.101424,0.718281,-0.145027,0.672869 END:
KINECT_DATA POSITION:19.854788,36.977585,-48.234676 HEAD_JOINT1:0.987078,0.153299,-0.000000,0.046653 LARM_JOINT2:0.827961,0.000000,0.022219,-0.560345 LARM_JOINT3:0.963001,0.000000,-0.204084,-0.176009 LLEG_JOINT2:0.998033,-0.024551,0.000000,0.057684 LLEG_JOINT4:0.996457,0.079659,0.000000,-0.026968 RARM_JOINT2:0.814056,0.000000,-0.052709,0.578390 RARM_JOINT3:0.955030,0.000000,0.219213,0.199656 RLEG_JOINT2:0.998480,-0.040347,-0.000000,-0.037538 RLEG_JOINT4:0.987107,0.138423,0.000000,0.080364 WAIST:0.999763,-0.000000,0.000835,0.021732 WAIST_JOINT0:0.999723,-0.000000,0.002229,0.023417 WAIST_JOINT1:0.999798,0.020109,0.000000,-0.000604 END:
KINECT_DATA_Sensor  AnkleLeft:-0.001966,-0.700939,0.075777,0.709182 AnkleRight:0.115302,0.701246,0.024129,0.703120 ElbowLeft:-0.055849,0.881628,-0.205673,-0.421083 ElbowRight:-0.009459,0.881813,0.157220,0.444520 FootLeft:0.000000,0.000000,0.000000,0.000000 FootRight:0.000000,0.000000,0.000000,0.000000 HandLeft:-0.141469,0.714750,0.139505,-0.670566 HandRight:-0.072619,0.752922,-0.169370,0.631782 HandTipLeft:0.000000,0.000000,0.000000,0.000000 HandTipRight:0.000000,0.000000,0.000000,0.000000 Head:0.000000,0.000000,0.000000,0.000000 HipLeft:0.138603,-0.667871,0.717834,-0.139472 HipRight:-0.150978,0.696795,0.687227,-0.139291 KneeLeft:0.073507,-0.703438,0.038702,0.705885 KneeRight:-0.039689,0.705350,-0.017435,0.707533 Neck:-0.002189,0.020515,0.999171,-0.035095 ShoulderLeft:-0.010622,0.769646,-0.637811,0.027012 ShoulderRight:-0.013603,0.794773,0.606070,-0.028820 SpineBase:-0.000816,0.021524,0.999768,0.000873 SpineMid:-0.001106,0.021523,0.999767,0.000879 SpineShoulder:-0.001746,0.021313,0.999655,-0.015232 ThumbLeft:0.000000,0.000000,0.000000,0.000000 ThumbRight:0.000000,0.000000,0.000000,0.000000 WristLeft:-0.142659,0.715998,0.077483,-0.678963 WristRight:-0.106089,0.750598,-0.136759,0.637687 END:
KINECT_DATA POSITION:21.386850,37.129623,-47.988129 HEAD_JOINT1:0.987458,0.142832,-0.000000,0.067271 LARM_JOINT2:0.833793,0.000000,0.013882,-0.551903 LARM_JOINT3:0.964533,0.000000,-0.205714,-0.165404 LLEG_JOINT2:0.998077,-0.018744,0.000000,0.059078 LLEG_JOINT4:0.996863,0.069252,0.000000,-0.038308 RARM_JOINT2:0.807901,0.000000,-0.059650,0.586292 RARM_JOINT3:0.950716,0.000000,0.229780,0.208182 RLEG_JOINT2:0.998615,-0.037699,-0.000000,-0.036691 RLEG_JOINT4:0.985439,0.144392,0.000000,0.089777 WAIST:0.999781,0.000000,-0.012956,0.016460 WAIST_JOINT0:0.999626,0.000000,-0.016677,0.021690 WAIST_JOINT1:0.999828,0.017412,0.000000,-0.006425 END:
KINECT_DATA_Sensor  AnkleLeft:0.008987,0.714682,-0.062078,-0.696631 AnkleRight:0.114933,0.485853,0.056332,0.864618 ElbowLeft:-0.065370,0.890777,-0.200644,-0.402473 ElbowRight:-0.006631,0.869873,0.159101,0.466866 FootLeft:0.000000,0.000000,0.000000,0.000000 FootRight:0.000000,0.000000,0.000000,0.000000 HandLeft:-0.175783,0.724829,0.145888,-0.649954 HandRight:-0.106948,0.826480,-0.192411,0.518142 HandTipLeft:0.000000,0.000000,0.000000,0.000000 HandTipRight:0.000000,0.000000,0.000000,0.000000 Head:0.000000,0.000000,0.000000,0.000000 HipLeft:0.150798,-0.670804,0.711765,-0.143778 HipRight:-0.141947,0.695097,0.692564,-0.130565 KneeLeft:-0.067052,0.713395,-0.039334,-0.696437 KneeRight:-0.040965,0.696039,-0.011698,0.716739 Neck:0.016346,0.009186,0.999290,-0.032675 ShoulderLeft:-0.023226,0.770291,-0.636099,0.038610 ShoulderRight:-0.002484,0.795197,0.606236,-0.011590 SpineBase:0.013038,0.011880,0.999837,0.003899 SpineMid:0.014916,0.011888,0.999811,0.003876 SpineShoulder:0.016611,0.010516,0.999727,-0.012629 ThumbLeft:0.000000,0.000000,0.000000,0.000000 ThumbRight:0.000000,0.000000,0.000000,0.000000 WristLeft:-0.144220,0.730813,0.077252,-0.662681 WristRight:-0.132561,0.830014,-0.117137,0.528945 END:
KINECT_DATA POSITION:22.932779,37.200462,-47.719086 HEAD_JOINT1:0.986469,0.148961,-0.000000,0.068483 LARM_JOINT2:0.839032,0.000000,0.012534,-0.543938 LARM_JOINT3:0.964387,0.000000,-0.195523,-0.178123 LLEG_JOINT2:0.998323,-0.011286,0.000000,0.056771 LLEG_JOINT4:0.996983,0.060804,0.000000,-0.048243 RARM_JOINT2:0.807212,0.000000,-0.060654,0.587137 RARM_JOINT3:0.952129,0.000000,0.224079,0.207939 RLEG_JOINT2:0.998479,-0.036529,-0.000000,-0.041295 RLEG_JOINT4:0.985894,0.143234,0.000000,0.086587 WAIST:0.999661,0.000000,-0.022571,0.012975 WAIST_JOINT0:0.999397,0.000000,-0.028865,0.019284 WAIST_JOINT1:0.999879,0.014231,0.000000,-0.006278 END:
KINECT_DATA_Sensor  AnkleLeft:0.019226,0.724150,-0.050578,-0.687516 AnkleRight:0.116258,0.646172,0.037925,0.753331 ElbowLeft:-0.068487,0.903151,-0.205423,-0.370715 ElbowRight:-0.006241,0.870255,0.160161,0.465796 FootLeft:0.000000,0.000000,0.000000,0.000000 FootRight:0.000000,0.000000,0.000000,0.000000 HandLeft:-0.156350,0.741106,0.146833,-0.636205 HandRight:-0.093440,0.759053,-0.186385,0.616740 HandTipLeft:0.000000,0.000000,0.000000,0.000000 HandTipRight:0.000000,0.000000,0.000000,0.000000 Head:0.000000,0.000000,0.000000,0.000000 HipLeft:0.159142,-0.672430,0.707643,-0.147487 HipRight:-0.137001,0.694126,0.695896,-0.123078 KneeLeft:-0.058021,0.720726,-0.040185,-0.689618 KneeRight:-0.045768,0.688992,-0.004608,0.723308 Neck:0.028819,0.005915,0.999137,-0.029317 ShoulderLeft:-0.036798,0.771841,-0.632874,0.048763 ShoulderRight:-0.000169,0.793482,0.608589,-0.002410 SpineBase:0.022687,0.008534,0.999684,0.006705 SpineMid:0.025905,0.008556,0.999605,0.006678 SpineShoulder:0.029021,0.007251,0.999506,-0.009588 ThumbLeft:0.000000,0.000000,0.000000,0.000000 ThumbRight:0.000000,0.000000,0.000000,0.000000 WristLeft:-0.139310,0.745526,0.076577,-0.647240 WristRight:-0.116598,0.760666,-0.130124,0.625187 END:
KINECT_DATA POSITION:24.299337,37.280769,-47.723450 HEAD_JOINT1:0.985305,0.151409,-0.000000,0.079057 LARM_JOINT2:0.841590,0.000000,0.006883,-0.540072 LARM_JOINT3:0.963622,0.000000,-0.192494,-0.185413 LLEG_JOINT2:0.998482,-0.008200,0.000000,0.054459 LLEG_JOINT4:0.996519,0.058683,0.000000,-0.059206 RARM_JOINT2:0.803171,0.000000,-0.065278,0.592162 RARM_JOINT3:0.954296,0.000000,0.222780,0.199218 RLEG_JOINT2:0.998047,-0.040161,-0.000000,-0.047850 RLEG_JOINT4:0.986483,0.146360,0.000000,0.073692 WAIST:0.999287,0.000000,-0.035916,0.011601 WAIST_JOINT0:0.998965,0.000000,-0.042882,0.015179 WAIST_JOINT1:0.999853,0.014281,0.000000,-0.009435 END:
KINECT_DATA_Sensor  AnkleLeft:0.029996,0.733974,-0.041553,-0.677241 AnkleRight:0.081327,0.372680,0.079052,0.921003 ElbowLeft:-0.072781,0.912873,-0.203602,-0.346284 ElbowRight:-0.003120,0.853898,0.159710,0.495320 FootLeft:0.000000,0.000000,0.000000,0.000000 FootRight:0.000000,0.000000,0.000000,0.000000 HandLeft:-0.135158,0.728106,0.162639,-0.652029 HandRight:-0.059923,0.663792,-0.170955,0.725647 HandTipLeft:0.000000,0.000000,0.000000,0.000000 HandTipRight:0.000000,0.000000,0.000000,0.000000 Head:0.000000,0.000000,0.000000,0.000000 HipLeft:0.168725,-0.671852,0.704411,-0.154765 HipRight:-0.128184,0.694360,0.698526,-0.116163 KneeLeft:-0.053660,0.730190,-0.039261,-0.680001 KneeRight:-0.053806,0.678875,-0.000597,0.732279 Neck:0.042937,0.001494,0.998635,-0.029698 ShoulderLeft:-0.047305,0.774926,-0.627343,0.060771 ShoulderRight:0.007413,0.791466,0.611123,0.007424 SpineBase:0.036043,0.004242,0.999318,0.006775 SpineMid:0.039572,0.004266,0.999185,0.006760 SpineShoulder:0.043071,0.002928,0.999020,-0.009749 ThumbLeft:0.000000,0.000000,0.000000,0.000000 ThumbRight:0.000000,0.000000,0.000000,0.000000 WristLeft:-0.132044,0.732267,0.088217,-0.662244 WristRight:-0.106710,0.654289,-0.141290,0.735225 END:
KINECT_DATA POSITION:24.809290,37.290604,-47.827351 HEAD_JOINT1:0.985749,0.144677,-0.000000,0.085831 LARM_JOINT2:0.843148,0.000000,0.002692,-0.537676 LARM_JOINT3:0.962181,0.000000,-0.195239,-0.189974 LLEG_JOINT2:0.998546,-0.008524,0.000000,0.053233 LLEG_JOINT4:0.996323,0.058744,0.000000,-0.062374 RARM_JOINT2:0.801513,0.000000,-0.068182,0.594078 RARM_JOINT3:0.955368,0.000000,0.223642,0.193018 RLEG_JOINT2:0.997937,-0.040423,-0.000000,-0.049880 RLEG_JOINT4:0.988080,0.141985,0.000000,0.059477 WAIST:0.998940,0.000000,-0.044506,0.011729 WAIST_JOINT0:0.998402,0.000000,-0.054367,0.015397 WAIST_JOINT1:0.999821,0.015492,0.000000,-0.010879 END:
KINECT_DATA_Sensor  AnkleLeft:0.032726,0.740859,-0.038741,-0.669743 AnkleRight:0.071594,0.434479,0.076258,0.894588 ElbowLeft:-0.075060,0.919285,-0.204172,-0.328016 ElbowRight:0.001107,0.846623,0.159980,0.507578 FootLeft:0.000000,0.000000,0.000000,0.000000 FootRight:0.000000,0.000000,0.000000,0.000000 HandLeft:-0.142340,0.747648,0.179226,-0.623410 HandRight:-0.080098,0.696980,-0.158632,0.694723 HandTipLeft:0.000000,0.000000,0.000000,0.000000 HandTipRight:0.000000,0.000000,0.000000,0.000000 Head:0.000000,0.000000,0.000000,0.000000 HipLeft:0.173634,-0.670505,0.703237,-0.160410 HipRight:-0.122070,0.695023,0.699593,-0.112300 KneeLeft:-0.053330,0.736044,-0.037892,-0.673765 KneeRight:-0.055214,0.672510,0.001166,0.738025 Neck:0.054224,0.000224,0.998046,-0.031062 ShoulderLeft:-0.051153,0.773727,-0.627733,0.068420 ShoulderRight:0.018090,0.790649,0.611755,0.017375 SpineBase:0.044619,0.003110,0.998984,0.005524 SpineMid:0.049483,0.003137,0.998755,0.005509 SpineShoulder:0.054350,0.001766,0.998459,-0.011089 ThumbLeft:0.000000,0.000000,0.000000,0.000000 ThumbRight:0.000000,0.000000,0.000000,0.000000 WristLeft:-0.130737,0.755277,0.087629,-0.636228 WristRight:-0.114458,0.686808,-0.129320,0.706025 END:
KINECT_DATA POSITION:25.214756,37.340084,-47.939255 HEAD_JOINT1:0.983228,0.151338,-0.000000,0.101778 LARM_JOINT2:0.845726,0.000000,-0.004107,-0.533602 LARM_JOINT3:0.962045,0.000000,-0.192911,-0.193013 LLEG_JOINT2:0.998575,-0.010460,0.000000,0.052337 LLEG_JOINT4:0.995958,0.061451,0.000000,-0.065512 RARM_JOINT2:0.797162,0.000000,-0.074212,0.599187 RARM_JOINT3:0.954660,0.000000,0.230186,0.188782 RLEG_JOINT2:0.997855,-0.039189,-0.000000,-0.052438 RLEG_JOINT4:0.989823,0.135422,0.000000,0.043724 WAIST:0.998511,0.000000,-0.053147,0.012313 WAIST_JOINT0:0.997567,0.000000,-0.067973,0.015507 WAIST_JOINT1:0.999796,0.014099,0.000000,-0.014459 END:
KINECT_DATA_Sensor  AnkleLeft:0.035679,0.748673,-0.037240,-0.660930 AnkleRight:0.075059,0.665038,0.061652,0.740466 ElbowLeft:-0.081590,0.925532,-0.203051,-0.309037 ElbowRight:0.004445,0.832935,0.157716,0.530401 FootLeft:0.000000,0.000000,0.000000,0.000000 FootRight:0.000000,0.000000,0.000000,0.000000 HandLeft:-0.122592,0.691283,0.192810,-0.685510 HandRight:-0.086782,0.705330,-0.153127,0.686681 HandTipLeft:0.000000,0.000000,0.000000,0.000000 HandTipRight:0.000000,0.000000,0.000000,0.000000 Head:0.000000,0.000000,0.000000,0.000000 HipLeft:0.180391,-0.669336,0.701780,-0.164174 HipRight:-0.116909,0.696168,0.700082,-0.107554 KneeLeft:-0.054630,0.741783,-0.035867,-0.667448 KneeRight:-0.055513,0.666184,0.004037,0.743708 Neck:0.068059,-0.002928,0.997233,-0.029757 ShoulderLeft:-0.063982,0.774087,-0.624661,0.080590 ShoulderRight:0.022855,0.790726,0.611151,0.026909 SpineBase:0.053303,0.000342,0.998558,0.006406 SpineMid:0.060676,0.000389,0.998137,0.006404 SpineShoulder:0.068141,-0.001173,0.997625,-0.009988 ThumbLeft:0.000000,0.000000,0.000000,0.000000 ThumbRight:0.000000,0.000000,0.000000,0.000000 WristLeft:0.119358,-0.693050,-0.108151,0.702666 WristRight:-0.125538,0.700424,-0.127097,0.691009 END:
KINECT_DATA POSITION:25.619081,37.311024,-47.939468 HEAD_JOINT1:0.984381,0.139143,-0.000000,0.107857 LARM_JOINT2:0.848307,0.000000,-0.013224,-0.529339 LARM_JOINT3:0.962277,0.000000,-0.189141,-0.195571 LLEG_JOINT2:0.998561,-0.010281,0.000000,0.052641 LLEG_JOINT4:0.995773,0.061842,0.000000,-0.067911 RARM_JOINT2:0.796529,0.000000,-0.074177,0.600033 RARM_JOINT3:0.952840,0.000000,0.237464,0.188961 RLEG_JOINT2:0.997582,-0.041162,-0.000000,-0.055992 RLEG_JOINT4:0.990429,0.130213,0.000000,0.045771 WAIST:0.998232,0.000000,-0.058372,0.011196 WAIST_JOINT0:0.996764,0.000000,-0.078762,0.016094 WAIST_JOINT1:0.999716,0.017442,0.000000,-0.016227 END:
KINECT_DATA_Sensor  AnkleLeft:0.038398,0.754852,-0.035519,-0.653806 AnkleRight:0.056729,0.518266,0.069671,0.850487 ElbowLeft:-0.084161,0.932187,-0.203883,-0.287012 ElbowRight:0.007641,0.830830,0.160720,0.532759 FootLeft:0.000000,0.000000,0.000000,0.000000 FootRight:0.000000,0.000000,0.000000,0.000000 HandLeft:-0.120753,0.694488,0.189219,-0.683595 HandRight:-0.102718,0.664045,-0.172129,0.720323 HandTipLeft:0.000000,0.000000,0.000000,0.000000 HandTipRight:0.000000,0.000000,0.000000,0.000000 Head:0.000000,0.000000,0.000000,0.000000 HipLeft:0.182747,-0.669012,0.700415,-0.168661 HipRight:-0.111743,0.695518,0.701694,-0.106741 KneeLeft:-0.054093,0.745254,-0.035170,-0.663652 KneeRight:-0.060076,0.662081,0.006499,0.746992 Neck:0.078647,-0.005851,0.996321,-0.033537 ShoulderLeft:-0.066722,0.771951,-0.625828,0.089324 ShoulderRight:0.033870,0.789446,0.611904,0.034670 SpineBase:0.058467,-0.001991,0.998280,0.003792 SpineMid:0.068508,-0.001952,0.997641,0.003812 SpineShoulder:0.078706,-0.003883,0.996801,-0.013329 ThumbLeft:0.000000,0.000000,0.000000,0.000000 ThumbRight:0.000000,0.000000,0.000000,0.000000 WristLeft:0.113750,-0.695052,-0.110714,0.701218 WristRight:-0.117334,0.661594,-0.128851,0.729331 END:
KINECT_DATA POSITION:26.220629,37.380836,-47.588837 HEAD_JOINT1:0.983754,0.149284,-0.000000,0.099707 LARM_JOINT2:0.846130,0.000000,-0.014531,-0.532779 LARM_JOINT3:0.964775,0.000000,-0.183572,-0.188441 LLEG_JOINT2:0.998617,-0.005585,0.000000,0.052286 LLEG_JOINT4:0.995887,0.058234,0.000000,-0.069415 RARM_JOINT2:0.805270,0.000000,-0.080776,0.587380 RARM_JOINT3:0.939813,0.000000,0.280625,0.194941 RLEG_JOINT2:0.997449,-0.044896,-0.000000,-0.055497 RLEG_JOINT4:0.991562,0.124999,0.000000,0.034359 WAIST:0.998189,0.000000,-0.059585,0.008288 WAIST_JOINT0:0.996576,0.000000,-0.081775,0.012230 WAIST_JOINT1:0.999787,0.015897,0.000000,-0.013139 END:
KINECT_DATA_Sensor  AnkleLeft:0.042554,0.756989,-0.032944,-0.651208 AnkleRight:0.052387,0.661917,0.062644,0.745116 ElbowLeft:-0.086590,0.931472,-0.198651,-0.292233 ElbowRight:0.001928,0.816827,0.175640,0.549491 FootLeft:0.000000,0.000000,0.000000,0.000000 FootRight:0.000000,0.000000,0.000000,0.000000 HandLeft:0.062785,-0.465301,-0.198096,0.860413 HandRight:-0.166256,0.614634,-0.227167,0.736871 HandTipLeft:0.000000,0.000000,0.000000,0.000000 HandTipRight:0.000000,0.000000,0.000000,0.000000 Head:0.000000,0.000000,0.000000,0.000000 HipLeft:0.183883,-0.670878,0.698260,-0.168945 HipRight:-0.111473,0.693923,0.703662,-0.104427 KneeLeft:-0.048678,0.746452,-0.036362,-0.662659 KneeRight:-0.064578,0.660800,0.005758,0.747757 Neck:0.081679,-0.005683,0.996140,-0.031655 ShoulderLeft:-0.071871,0.772931,-0.623618,0.092265 ShoulderRight:0.032722,0.786843,0.615227,0.036112 SpineBase:0.059679,-0.002278,0.998202,0.005023 SpineMid:0.070615,-0.002223,0.997488,0.005048 SpineShoulder:0.081733,-0.003790,0.996579,-0.011674 ThumbLeft:0.000000,0.000000,0.000000,0.000000 ThumbRight:0.000000,0.000000,0.000000,0.000000 WristLeft:0.079118,-0.462301,-0.140334,0.871966 WristRight:-0.134882,0.624166,-0.143088,0.756141 END:
KINECT_DATA POSITION:26.454252,37.349277,-47.257950 HEAD_JOINT1:0.985864,0.140106,-0.000000,0.091887 LARM_JOINT2:0.840830,0.000000,-0.009513,-0.541216 LARM_JOINT3:0.964823,0.000000,-0.174225,-0.196882 LLEG_JOINT2:0.998711,-0.002888,0.000000,0.050681 LLEG_JOINT4:0.996178,0.056032,0.000000,-0.067003 RARM_JOINT2:0.808712,0.000000,-0.041753,0.586721 RARM_JOINT3:0.940289,0.000000,0.276961,0.197863 RLEG_JOINT2:0.997654,-0.040950,-0.000000,-0.054859 RLEG_JOINT4:0.989681,0.133202,0.000000,0.052815 WAIST:0.998586,0.000000,-0.052698,0.007014 WAIST_JOINT0:0.997592,0.000000,-0.068232,0.012426 WAIST_JOINT1:0.999790,0.017315,0.000000,-0.010925 END:
KINECT_DATA_Sensor  AnkleLeft:0.043232,0.749884,-0.032788,-0.659341 AnkleRight:0.054434,0.440338,0.075305,0.893011 ElbowLeft:-0.079428,0.926498,-0.192390,-0.313493 ElbowRight:-0.024164,0.835522,0.166253,0.523144 FootLeft:0.000000,0.000000,0.000000,0.000000 FootRight:0.000000,0.000000,0.000000,0.000000 HandLeft:-0.059310,0.738969,0.158509,-0.652137 HandRight:-0.112478,0.523864,-0.277376,0.797482 HandTipLeft:0.000000,0.000000,0.000000,0.000000 HandTipRight:0.000000,0.000000,0.000000,0.000000 Head:0.000000,0.000000,0.000000,0.000000 HipLeft:0.179346,-0.672242,0.698758,-0.166320 HipRight:-0.115409,0.692354,0.703893,-0.108909 KneeLeft:-0.044563,0.742093,-0.036698,-0.667806 KneeRight:-0.062199,0.666128,0.008341,0.743192 Neck:0.068182,-0.004360,0.997115,-0.033073 ShoulderLeft:-0.063480,0.773100,-0.625536,0.083616 ShoulderRight:0.023840,0.787524,0.615367,0.023682 SpineBase:0.052763,-0.001666,0.998597,0.004135 SpineMid:0.060436,-0.001634,0.998162,0.004148 SpineShoulder:0.068231,-0.002910,0.997582,-0.012879 ThumbLeft:0.000000,0.000000,0.000000,0.000000 ThumbRight:0.000000,0.000000,0.000000,0.000000 WristLeft:-0.121933,0.735541,0.103240,-0.658371 WristRight:-0.117896,0.524847,-0.177626,0.824066 END:
KINECT_DATA POSITION:26.435699,37.309448,-47.048725 HEAD_JOINT1:0.985700,0.144381,-0.000000,0.086886 LARM_JOINT2:0.838466,0.000000,-0.003341,-0.544943 LARM_JOINT3:0.963168,0.000000,-0.190323,-0.189959 LLEG_JOINT2:0.998779,-0.001483,0.000000,0.049389 LLEG_JOINT4:0.996392,0.054367,0.000000,-0.065167 RARM_JOINT2:0.809347,0.000000,-0.036946,0.586167 RARM_JOINT3:0.951266,0.000000,0.244810,0.187511 RLEG_JOINT2:0.997831,-0.036501,-0.000000,-0.054776 RLEG_JOINT4:0.988387,0.138447,0.000000,0.062645 WAIST:0.998861,0.000000,-0.047131,0.007412 WAIST_JOINT0:0.998163,0.000000,-0.059031,0.013637 WAIST_JOINT1:0.999844,0.015118,0.000000,-0.009086 END:
KINECT_DATA_Sensor  AnkleLeft:0.042464,0.744983,-0.033074,-0.664908 AnkleRight:0.086524,0.668030,0.057076,0.736880 ElbowLeft:-0.076000,0.922629,-0.191728,-0.325913 ElbowRight:-0.027564,0.846487,0.162798,0.506158 FootLeft:0.000000,0.000000,0.000000,0.000000 FootRight:0.000000,0.000000,0.000000,0.000000 HandLeft:-0.121435,0.759187,0.183093,-0.612671 HandRight:-0.148190,0.761594,-0.157926,0.610798 HandTipLeft:0.000000,0.000000,0.000000,0.000000 HandTipRight:0.000000,0.000000,0.000000,0.000000 Head:0.000000,0.000000,0.000000,0.000000 HipLeft:0.177045,-0.672944,0.699714,-0.161869 HipRight:-0.120080,0.692385,0.702869,-0.110266 KneeLeft:-0.042761,0.738476,-0.037376,-0.671883 KneeRight:-0.058647,0.670470,0.010629,0.739539 Neck:0.059185,-0.001641,0.997790,-0.030144 ShoulderLeft:-0.062494,0.774607,-0.624501,0.077949 ShoulderRight:0.013027,0.790250,0.612448,0.015543 SpineBase:0.047227,-0.000608,0.998864,0.006304 SpineMid:0.053181,-0.000570,0.998565,0.006308 SpineShoulder:0.059233,-0.000980,0.998186,-0.010780 ThumbLeft:0.000000,0.000000,0.000000,0.000000 ThumbRight:0.000000,0.000000,0.000000,0.000000 WristLeft:-0.127625,0.764974,0.096729,-0.623835 WristRight:-0.158934,0.760355,-0.130270,0.616142 END:
KINECT_DATA POSITION:26.348347,37.279625,-46.999954 HEAD_JOINT1:0.985176,0.146813,-0.000000,0.088739 LARM_JOINT2:0.836369,0.000000,-0.013207,-0.548008 LARM_JOINT3:0.959540,0.000000,-0.213906,-0.183106 LLEG_JOINT2:0.998784,-0.001434,0.000000,0.049284 LLEG_JOINT4:0.996375,0.054977,0.000000,-0.064916 RARM_JOINT2:0.807059,0.000000,-0.047322,0.588572 RARM_JOINT3:0.954487,0.000000,0.231990,0.187443 RLEG_JOINT2:0.997868,-0.035586,-0.000000,-0.054700 RLEG_JOINT4:0.988205,0.139767,0.000000,0.062582 WAIST:0.998877,0.000000,-0.046722,0.007910 WAIST_JOINT0:0.998174,0.000000,-0.058691,0.014268 WAIST_JOINT1:0.999856,0.014469,0.000000,-0.008924 END:
KINECT_DATA_Sensor  AnkleLeft:0.042475,0.744734,-0.033982,-0.665141 AnkleRight:0.088528,0.668224,0.058231,0.736375 ElbowLeft:-0.085035,0.919065,-0.184119,-0.337918 ElbowRight:-0.018373,0.847926,0.162182,0.504362 FootLeft:0.000000,0.000000,0.000000,0.000000 FootRight:0.000000,0.000000,0.000000,0.000000 HandLeft:-0.172504,0.746068,0.237479,-0.597686 HandRight:-0.115471,0.728136,-0.142064,0.660532 HandTipLeft:0.000000,0.000000,0.000000,0.000000 HandTipRight:0.000000,0.000000,0.000000,0.000000 Head:0.000000,0.000000,0.000000,0.000000 HipLeft:0.176775,-0.672723,0.700104,-0.161398 HipRight:-0.120665,0.692767,0.702435,-0.109995 KneeLeft:-0.042989,0.738190,-0.037708,-0.672165 KneeRight:-0.057574,0.670816,0.010814,0.739306 Neck:0.058856,-0.001239,0.997828,-0.029571 ShoulderLeft:-0.062314,0.775097,-0.624036,0.076949 ShoulderRight:0.012709,0.791183,0.611235,0.016152 SpineBase:0.046825,0.000203,0.998880,0.006727 SpineMid:0.052832,0.000243,0.998581,0.006725 SpineShoulder:0.058924,-0.000278,0.998211,-0.010104 ThumbLeft:0.000000,0.000000,0.000000,0.000000 ThumbRight:0.000000,0.000000,0.000000,0.000000 WristLeft:-0.137339,0.765231,0.110283,-0.619191 WristRight:-0.140485,0.723680,-0.134106,0.662243 END:
KINECT_DATA POSITION:26.181660,37.261692,-47.114193 HEAD_JOINT1:0.984442,0.150629,-0.000000,0.090473 LARM_JOINT2:0.836925,0.000000,-0.025376,-0.546729 LARM_JOINT3:0.962567,0.000000,-0.198533,-0.184526 LLEG_JOINT2:0.998811,-0.001455,0.000000,0.048722 LLEG_JOINT4:0.996351,0.054915,0.000000,-0.065334 RARM_JOINT2:0.802007,0.000000,-0.062465,0.594040 RARM_JOINT3:0.954211,0.000000,0.235778,0.184095 RLEG_JOINT2:0.997789,-0.037978,-0.000000,-0.054534 RLEG_JOINT4:0.989229,0.138463,0.000000,0.047469 WAIST:0.998620,0.000000,-0.051654,0.009460 WAIST_JOINT0:0.997683,0.000000,-0.066370,0.014961 WAIST_JOINT1:0.999870,0.012817,0.000000,-0.009792 END:
KINECT_DATA_Sensor  AnkleLeft:0.041958,0.748789,-0.034547,-0.660576 AnkleRight:0.077294,0.666102,0.065265,0.738969 ElbowLeft:-0.095102,0.924437,-0.181229,-0.321758 ElbowRight:-0.007188,0.836221,0.158507,0.524936 FootLeft:0.000000,0.000000,0.000000,0.000000 FootRight:0.000000,0.000000,0.000000,0.000000 HandLeft:0.107325,-0.662023,-0.214177,0.710166 HandRight:-0.095711,0.634944,-0.152655,0.751254 HandTipLeft:0.000000,0.000000,0.000000,0.000000 HandTipRight:0.000000,0.000000,0.000000,0.000000 Head:0.000000,0.000000,0.000000,0.000000 HipLeft:0.179922,-0.671344,0.700175,-0.163341 HipRight:-0.118077,0.694503,0.701781,-0.105955 KneeLeft:-0.043838,0.741478,-0.038226,-0.668451 KneeRight:-0.058060,0.667044,0.008302,0.742706 Neck:0.066478,-0.000920,0.997394,-0.028032 ShoulderLeft:-0.067425,0.774934,-0.623169,0.081181 ShoulderRight:0.017279,0.791678,0.610224,0.023959 SpineBase:0.051789,0.001187,0.998627,0.007747 SpineMid:0.059136,0.001244,0.998219,0.007738 SpineShoulder:0.066576,0.000487,0.997745,-0.008540 ThumbLeft:0.000000,0.000000,0.000000,0.000000 ThumbRight:0.000000,0.000000,0.000000,0.000000 WristLeft:0.119637,-0.661387,-0.136952,0.727666 WristRight:-0.121331,0.629653,-0.148040,0.752928 END:
KINECT_DATA POSITION:25.977034,37.285923,-47.332130 HEAD_JOINT1:0.983446,0.148226,-0.000000,0.104231 LARM_JOINT2:0.838781,0.000000,-0.023612,-0.543956 LARM_JOINT3:0.961819,0.000000,-0.195404,-0.191631 LLEG_JOINT2:0.998748,-0.002963,0.000000,0.049929 LLEG_JOINT4:0.996002,0.057470,0.000000,-0.068395 RARM_JOINT2:0.795654,0.000000,-0.074279,0.601180 RARM_JOINT3:0.957861,0.000000,0.222650,0.181463 RLEG_JOINT2:0.997711,-0.040713,-0.000000,-0.054001 RLEG_JOINT4:0.990227,0.134542,0.000000,0.036721 WAIST:0.998153,0.000000,-0.059757,0.010900 WAIST_JOINT0:0.996772,0.000000,-0.078743,0.015625 WAIST_JOINT1:0.999836,0.012896,0.000000,-0.012696 END:
KINECT_DATA_Sensor  AnkleLeft:0.042886,0.755346,-0.035390,-0.652964 AnkleRight:0.067150,0.660922,0.066938,0.744441 ElbowLeft:-0.093839,0.930092,-0.183928,-0.303798 ElbowRight:0.005521,0.829433,0.154599,0.536759 FootLeft:0.000000,0.000000,0.000000,0.000000 FootRight:0.000000,0.000000,0.000000,0.000000 HandLeft:-0.096759,0.677967,0.222717,-0.693827 HandRight:-0.086155,0.719675,-0.125825,0.677358 HandTipLeft:0.000000,0.000000,0.000000,0.000000 HandTipRight:0.000000,0.000000,0.000000,0.000000 Head:0.000000,0.000000,0.000000,0.000000 HipLeft:0.184252,-0.669549,0.699800,-0.167436 HipRight:-0.111913,0.696135,0.701782,-0.101850 KneeLeft:-0.047015,0.746719,-0.038608,-0.662351 KneeRight:-0.058606,0.661011,0.005603,0.748063 Neck:0.078788,-0.002372,0.996490,-0.028171 ShoulderLeft:-0.069987,0.774142,-0.623096,0.086934 ShoulderRight:0.030497,0.790351,0.610753,0.037369 SpineBase:0.059908,-0.000119,0.998180,0.006926 SpineMid:0.069318,-0.000054,0.997571,0.006927 SpineShoulder:0.078870,-0.000909,0.996845,-0.008896 ThumbLeft:0.000000,0.000000,0.000000,0.000000 ThumbRight:0.000000,0.000000,0.000000,0.000000 WristLeft:0.115267,-0.675364,-0.133185,0.716142 WristRight:-0.127658,0.713058,-0.121395,0.678612 END:
KINECT_DATA POSITION:25.626362,37.275471,-47.778439 HEAD_JOINT1:0.981351,0.147851,-0.000000,0.122846 LARM_JOINT2:0.843976,0.000000,-0.038330,-0.535010 LARM_JOINT3:0.959854,0.000000,-0.196235,-0.200429 LLEG_JOINT2:0.998579,-0.004039,0.000000,0.053140 LLEG_JOINT4:0.995572,0.059219,0.000000,-0.072999 RARM_JOINT2:0.791046,0.000000,-0.087403,0.605481 RARM_JOINT3:0.955660,0.000000,0.228930,0.185216 RLEG_JOINT2:0.997620,-0.045145,-0.000000,-0.052109 RLEG_JOINT4:0.991087,0.129599,0.000000,0.030841 WAIST:0.997024,0.000000,-0.076149,0.012040 WAIST_JOINT0:0.994713,0.000000,-0.101798,0.013519 WAIST_JOINT1:0.999747,0.015063,0.000000,-0.016700 END:
KINECT_DATA_Sensor  AnkleLeft:0.043205,0.767115,-0.036503,-0.639012 AnkleRight:0.059379,0.648995,0.062188,0.755918 ElbowLeft:-0.103726,0.941780,-0.186895,-0.259539 ElbowRight:0.019106,0.812204,0.155971,0.561812 FootLeft:0.000000,0.000000,0.000000,0.000000 FootRight:0.000000,0.000000,0.000000,0.000000 HandLeft:-0.193193,0.906244,0.189302,-0.324903 HandRight:-0.062164,0.603023,-0.148016,0.781403 HandTipLeft:0.000000,0.000000,0.000000,0.000000 HandTipRight:0.000000,0.000000,0.000000,0.000000 Head:0.000000,0.000000,0.000000,0.000000 HipLeft:0.192279,-0.666563,0.698132,-0.177018 HipRight:-0.099309,0.697949,0.702939,-0.094243 KneeLeft:-0.051465,0.757222,-0.040029,-0.649895 KneeRight:-0.059698,0.648741,0.001580,0.758662 Neck:0.101852,-0.005119,0.994314,-0.030653 ShoulderLeft:-0.083812,0.773440,-0.619123,0.107013 ShoulderRight:0.046334,0.787145,0.612718,0.053227 SpineBase:0.076261,-0.002369,0.997077,0.004132 SpineMid:0.088977,-0.002316,0.996022,0.004162 SpineShoulder:0.101916,-0.003489,0.994720,-0.011512 ThumbLeft:0.000000,0.000000,0.000000,0.000000 ThumbRight:0.000000,0.000000,0.000000,0.000000 WristLeft:-0.157439,0.921597,0.079918,-0.345666 WristRight:-0.108320,0.593701,-0.132893,0.786209 END:
KINECT_DATA POSITION:25.514036,37.251465,-47.911488 HEAD_JOINT1:0.981194,0.140922,-0.000000,0.131905 LARM_JOINT2:0.845676,0.000000,-0.038270,-0.532322 LARM_JOINT3:0.961317,0.000000,-0.178958,-0.209388 LLEG_JOINT2:0.998539,-0.004342,0.000000,0.053859 LLEG_JOINT4:0.995400,0.059823,0.000000,-0.074830 RARM_JOINT2:0.791342,0.000000,-0.082763,0.605746 RARM_JOINT3:0.949656,0.000000,0.254952,0.182079 RLEG_JOINT2:0.997510,-0.046925,-0.000000,-0.052642 RLEG_JOINT4:0.991043,0.129608,0.000000,0.032191 WAIST:0.996481,0.000000,-0.082811,0.012955 WAIST_JOINT0:0.993598,0.000000,-0.112117,0.013879 WAIST_JOINT1:0.999707,0.017298,0.000000,-0.016920 END:
KINECT_DATA_Sensor  AnkleLeft:0.043481,0.772359,-0.036913,-0.632621 AnkleRight:0.059659,0.644007,0.059445,0.760369 ElbowLeft:-0.102681,0.945192,-0.191545,-0.243681 ElbowRight:0.018918,0.808334,0.155068,0.567620 FootLeft:0.000000,0.000000,0.000000,0.000000 FootRight:0.000000,0.000000,0.000000,0.000000 HandLeft:-0.129985,0.924831,0.154493,-0.322373 HandRight:-0.177499,0.749752,-0.163958,0.616023 HandTipLeft:0.000000,0.000000,0.000000,0.000000 HandTipRight:0.000000,0.000000,0.000000,0.000000 Head:0.000000,0.000000,0.000000,0.000000 HipLeft:0.195709,-0.664687,0.697676,-0.182036 HipRight:-0.095034,0.698891,0.702943,-0.091602 KneeLeft:-0.053067,0.761436,-0.040615,-0.644786 KneeRight:-0.060685,0.643575,0.000647,0.762973 Neck:0.111760,-0.004399,0.993156,-0.033641 ShoulderLeft:-0.087571,0.773262,-0.617306,0.115459 ShoulderRight:0.055071,0.788049,0.610131,0.060707 SpineBase:0.082893,-0.001732,0.996553,0.002785 SpineMid:0.097256,-0.001692,0.995254,0.002810 SpineShoulder:0.111868,-0.002578,0.993626,-0.013671 ThumbLeft:0.000000,0.000000,0.000000,0.000000 ThumbRight:0.000000,0.000000,0.000000,0.000000 WristLeft:-0.152961,0.926932,0.079410,-0.333308 WristRight:-0.139523,0.758551,-0.104994,0.627782 END:
KINECT_DATA POSITION:25.484663,37.245422,-47.913506 HEAD_JOINT1:0.981484,0.142877,-0.000000,0.127574 LARM_JOINT2:0.841614,0.000000,-0.018816,-0.539751 LARM_JOINT3:0.962770,0.000000,-0.170366,-0.209880 LLEG_JOINT2:0.998599,-0.004720,0.000000,0.052706 LLEG_JOINT4:0.995467,0.060763,0.000000,-0.073161 RARM_JOINT2:0.798443,0.000000,-0.054308,0.599616 RARM_JOINT3:0.948723,0.000000,0.262451,0.176191 RLEG_JOINT2:0.997482,-0.046460,-0.000000,-0.053591 RLEG_JOINT4:0.990611,0.131649,0.000000,0.036849 WAIST:0.996660,0.000000,-0.080536,0.013521 WAIST_JOINT0:0.994519,0.000000,-0.103374,0.015674 WAIST_JOINT1:0.999757,0.016133,0.000000,-0.015037 END:
KINECT_DATA_Sensor  AnkleLeft:0.042952,0.767768,-0.038179,-0.638146 AnkleRight:0.054116,0.515792,0.067471,0.852337 ElbowLeft:-0.089306,0.940911,-0.191936,-0.264331 ElbowRight:-0.004454,0.817686,0.153065,0.554923 FootLeft:0.000000,0.000000,0.000000,0.000000 FootRight:0.000000,0.000000,0.000000,0.000000 HandLeft:-0.087022,0.919135,0.144294,-0.356086 HandRight:-0.220484,0.786000,-0.159419,0.555136 HandTipLeft:0.000000,0.000000,0.000000,0.000000 HandTipRight:0.000000,0.000000,0.000000,0.000000 Head:0.000000,0.000000,0.000000,0.000000 HipLeft:0.195027,-0.664378,0.698246,-0.181709 HipRight:-0.097852,0.699077,0.702167,-0.093158 KneeLeft:-0.052762,0.759988,-0.040080,-0.646551 KneeRight:-0.060569,0.645194,0.001103,0.761613 Neck:0.103129,-0.001851,0.994153,-0.031951 ShoulderLeft:-0.084213,0.773056,-0.619162,0.109229 ShoulderRight:0.047324,0.790086,0.608816,0.053554 SpineBase:0.080628,0.000003,0.996739,0.003189 SpineMid:0.091857,0.000039,0.995767,0.003188 SpineShoulder:0.103264,-0.000153,0.994575,-0.012531 ThumbLeft:0.000000,0.000000,0.000000,0.000000 ThumbRight:0.000000,0.000000,0.000000,0.000000 WristLeft:-0.144612,0.916988,0.074463,-0.364247 WristRight:-0.163076,0.799019,-0.103342,0.569470 END:
KINECT_DATA POSITION:25.247828,37.276833,-47.749710 HEAD_JOINT1:0.984860,0.138894,-0.000000,0.103728 LARM_JOINT2:0.835881,0.000000,-0.000076,-0.548911 LARM_JOINT3:0.965370,0.000000,-0.177597,-0.191102 LLEG_JOINT2:0.998690,-0.005365,0.000000,0.050886 LLEG_JOINT4:0.996264,0.058848,0.000000,-0.063209 RARM_JOINT2:0.808355,0.000000,-0.029342,0.587963 RARM_JOINT3:0.950406,0.000000,0.253988,0.179495 RLEG_JOINT2:0.997772,-0.041659,-0.000000,-0.052112 RLEG_JOINT4:0.987636,0.142484,0.000000,0.065368 WAIST:0.998205,0.000000,-0.058618,0.012238 WAIST_JOINT0:0.997802,0.000000,-0.064645,0.014552 WAIST_JOINT1:0.999851,0.014296,0.000000,-0.009637 END:
KINECT_DATA_Sensor  AnkleLeft:0.036274,0.746569,-0.040145,-0.663104 AnkleRight:0.055908,0.189103,0.088913,0.976324 ElbowLeft:-0.078947,0.921075,-0.190210,-0.330466 ElbowRight:-0.027574,0.847370,0.155232,0.507056 FootLeft:0.000000,0.000000,0.000000,0.000000 FootRight:0.000000,0.000000,0.000000,0.000000 HandLeft:-0.056766,0.712141,0.146917,-0.684141 HandRight:-0.191808,0.688545,-0.209685,0.667193 HandTipLeft:0.000000,0.000000,0.000000,0.000000 HandTipRight:0.000000,0.000000,0.000000,0.000000 Head:0.000000,0.000000,0.000000,0.000000 HipLeft:0.184874,-0.667506,0.700533,-0.171786 HipRight:-0.115392,0.696404,0.700371,-0.105768 KneeLeft:-0.050243,0.745734,-0.038427,-0.663234 KneeRight:-0.057124,0.661815,0.002540,0.747483 Neck:0.064956,0.002369,0.997449,-0.029495 ShoulderLeft:-0.063390,0.776612,-0.621667,0.079902 ShoulderRight:0.019399,0.791392,0.610572,0.022882 SpineBase:0.058730,0.003697,0.998253,0.005305 SpineMid:0.061925,0.003714,0.998060,0.005293 SpineShoulder:0.065113,0.003676,0.997820,-0.010119 ThumbLeft:0.000000,0.000000,0.000000,0.000000 ThumbRight:0.000000,0.000000,0.000000,0.000000 WristLeft:0.119341,-0.689778,-0.113360,0.705063 WristRight:-0.141686,0.702942,-0.136481,0.683499 END:
KINECT_DATA POSITION:24.850002,37.299892,-47.679375 HEAD_JOINT1:0.987334,0.138989,-0.000000,0.076505 LARM_JOINT2:0.830893,0.000000,0.017136,-0.556168 LARM_JOINT3:0.966884,0.000000,-0.178734,-0.182183 LLEG_JOINT2:0.998693,-0.006992,0.000000,0.050635 LLEG_JOINT4:0.996758,0.057443,0.000000,-0.056339 RARM_JOINT2:0.821469,0.000000,-0.019784,0.569910 RARM_JOINT3:0.952451,0.000000,0.243849,0.182689 RLEG_JOINT2:0.998087,-0.037137,-0.000000,-0.049423 RLEG_JOINT4:0.987651,0.140770,0.000000,0.068776 WAIST:0.999222,0.000000,-0.037732,0.011462 WAIST_JOINT0:0.999419,0.000000,-0.031580,0.012818 WAIST_JOINT1:0.999881,0.014706,0.000000,-0.004662 END:
KINECT_DATA_Sensor  AnkleLeft:0.030253,0.727801,-0.041197,-0.683881 AnkleRight:0.057787,0.187730,0.092265,0.976169 ElbowLeft:-0.065254,0.903927,-0.192087,-0.376512 ElbowRight:-0.042645,0.863336,0.168502,0.473751 FootLeft:0.000000,0.000000,0.000000,0.000000 FootRight:0.000000,0.000000,0.000000,0.000000 HandLeft:-0.074283,0.762865,0.126023,-0.629792 HandRight:-0.216003,0.845293,-0.137328,0.469003 HandTipLeft:0.000000,0.000000,0.000000,0.000000 HandTipRight:0.000000,0.000000,0.000000,0.000000 Head:0.000000,0.000000,0.000000,0.000000 HipLeft:0.170521,-0.670872,0.704026,-0.158749 HipRight:-0.127571,0.694543,0.698770,-0.114260 KneeLeft:-0.049988,0.731681,-0.037375,-0.678784 KneeRight:-0.052748,0.677490,0.002816,0.733632 Neck:0.031963,0.006945,0.999016,-0.029958 ShoulderLeft:-0.041483,0.777301,-0.625466,0.053623 ShoulderRight:-0.000723,0.790067,0.613014,-0.002738 SpineBase:0.037830,0.007528,0.999235,0.006437 SpineMid:0.035075,0.007511,0.999336,0.006458 SpineShoulder:0.032158,0.007598,0.999405,-0.009933 ThumbLeft:0.000000,0.000000,0.000000,0.000000 ThumbRight:0.000000,0.000000,0.000000,0.000000 WristLeft:-0.135218,0.757149,0.082792,-0.633709 WristRight:-0.173703,0.855066,-0.095858,0.479063 END:
KINECT_DATA POSITION:24.312277,37.267197,-47.693073 HEAD_JOINT1:0.986642,0.147878,-0.000000,0.068335 LARM_JOINT2:0.829717,0.000000,0.017434,-0.557911 LARM_JOINT3:0.966120,0.000000,-0.185440,-0.179509 LLEG_JOINT2:0.998406,-0.011498,0.000000,0.055265 LLEG_JOINT4:0.996727,0.059932,0.000000,-0.054246 RARM_JOINT2:0.824797,0.000000,-0.024566,0.564895 RARM_JOINT3:0.951568,0.000000,0.241833,0.189830 RLEG_JOINT2:0.998452,-0.034274,-0.000000,-0.043796 RLEG_JOINT4:0.988616,0.134552,0.000000,0.067344 WAIST:0.999763,0.000000,-0.019547,0.009610 WAIST_JOINT0:0.999825,0.000000,-0.011726,0.014559 WAIST_JOINT1:0.999881,0.015353,0.000000,-0.001788 END:
KINECT_DATA_Sensor  AnkleLeft:0.025972,0.716282,-0.042331,-0.696042 AnkleRight:0.094730,0.670920,0.047793,0.733900 ElbowLeft:-0.060891,0.896789,-0.192510,-0.393701 ElbowRight:-0.042445,0.874375,0.174260,0.450887 FootLeft:0.000000,0.000000,0.000000,0.000000 FootRight:0.000000,0.000000,0.000000,0.000000 HandLeft:-0.093888,0.729522,0.148556,-0.660995 HandRight:-0.195398,0.809974,-0.162535,0.528531 HandTipLeft:0.000000,0.000000,0.000000,0.000000 HandTipRight:0.000000,0.000000,0.000000,0.000000 Head:0.000000,0.000000,0.000000,0.000000 HipLeft:0.157429,-0.674620,0.705937,-0.147502 HipRight:-0.137757,0.691858,0.697875,-0.123796 KneeLeft:-0.054611,0.718865,-0.036767,-0.692025 KneeRight:-0.048276,0.691059,0.000955,0.721184 Neck:0.012271,0.007825,0.999431,-0.030440 ShoulderLeft:-0.031013,0.775957,-0.628711,0.040628 ShoulderRight:-0.015542,0.790677,0.611697,-0.020398 SpineBase:0.019611,0.008622,0.999752,0.006112 SpineMid:0.016134,0.008601,0.999814,0.006142 SpineShoulder:0.012462,0.008359,0.999833,-0.010434 ThumbLeft:0.000000,0.000000,0.000000,0.000000 ThumbRight:0.000000,0.000000,0.000000,0.000000 WristLeft:-0.133745,0.728417,0.080072,-0.667165 WristRight:-0.157476,0.819517,-0.110101,0.539881 END:
KINECT_DATA POSITION:23.936308,37.182434,-47.692074 HEAD_JOINT1:0.988112,0.146264,-0.000000,0.047350 LARM_JOINT2:0.824379,0.000000,0.024123,-0.565524 LARM_JOINT3:0.965850,0.000000,-0.192546,-0.173377 LLEG_JOINT2:0.998434,-0.012997,0.000000,0.054418 LLEG_JOINT4:0.997157,0.059176,0.000000,-0.046648 RARM_JOINT2:0.828687,0.000000,-0.017375,0.559443 RARM_JOINT3:0.950539,0.000000,0.237431,0.200253 RLEG_JOINT2:0.998419,-0.034197,-0.000000,-0.044610 RLEG_JOINT4:0.987075,0.137525,0.000000,0.082276 WAIST:0.999922,0.000000,-0.007495,0.009985 WAIST_JOINT0:0.999768,-0.000000,0.011226,0.018393 WAIST_JOINT1:0.999866,0.016060,-0.000000,0.003078 END:
KINECT_DATA_Sensor  AnkleLeft:-0.019375,-0.702443,0.045477,0.710022 AnkleRight:0.096709,0.526161,0.060819,0.842676 ElbowLeft:-0.057195,0.879514,-0.190414,-0.432350 ElbowRight:-0.046622,0.888412,0.173810,0.422304 FootLeft:0.000000,0.000000,0.000000,0.000000 FootRight:0.000000,0.000000,0.000000,0.000000 HandLeft:-0.087849,0.706349,0.146163,-0.687015 HandRight:-0.183300,0.818825,-0.180859,0.513048 HandTipLeft:0.000000,0.000000,0.000000,0.000000 HandTipRight:0.000000,0.000000,0.000000,0.000000 Head:0.000000,0.000000,0.000000,0.000000 HipLeft:0.148511,-0.675512,0.708140,-0.142002 HipRight:-0.145789,0.691031,0.695865,-0.130358 KneeLeft:-0.054959,0.710479,-0.035942,-0.700648 KneeRight:-0.048617,0.699494,0.000648,0.712982 Neck:-0.010725,0.013441,0.999377,-0.030817 ShoulderLeft:-0.016253,0.774495,-0.631937,0.023451 ShoulderRight:-0.030365,0.793600,0.606441,-0.038817 SpineBase:0.007531,0.013100,0.999871,0.005400 SpineMid:-0.001297,0.013052,0.999899,0.005516 SpineShoulder:-0.010469,0.013474,0.999795,-0.010933 ThumbLeft:0.000000,0.000000,0.000000,0.000000 ThumbRight:0.000000,0.000000,0.000000,0.000000 WristLeft:0.138905,-0.689735,-0.085226,0.705483 WristRight:-0.151031,0.828933,-0.116799,0.525755 END:
KINECT_DATA POSITION:23.439960,37.090225,-47.773026 HEAD_JOINT1:0.987767,0.148408,-0.000000,0.047874 LARM_JOINT2:0.823370,0.000000,0.019574,-0.567168 LARM_JOINT3:0.962017,0.000000,-0.209973,-0.174453 LLEG_JOINT2:0.998488,-0.012781,0.000000,0.053455 LLEG_JOINT4:0.997605,0.055967,0.000000,-0.040637 RARM_JOINT2:0.823589,0.000000,-0.016170,0.566956 RARM_JOINT3:0.956267,0.000000,0.213877,0.199525 RLEG_JOINT2:0.998462,-0.035343,-0.000000,-0.042714 RLEG_JOINT4:0.986324,0.145092,0.000000,0.078191 WAIST:0.999937,0.000000,-0.000623,0.011234 WAIST_JOINT0:0.999666,-0.000000,0.016018,0.020287 WAIST_JOINT1:0.999782,0.020267,-0.000000,0.004981 END:
KINECT_DATA_Sensor  AnkleLeft:-0.013125,-0.698955,0.047548,0.713463 AnkleRight:0.096120,0.497131,0.071342,0.859379 ElbowLeft:-0.057856,0.872897,-0.191614,-0.444957 ElbowRight:-0.040048,0.893326,0.163844,0.416557 FootLeft:0.000000,0.000000,0.000000,0.000000 FootRight:0.000000,0.000000,0.000000,0.000000 HandLeft:-0.128094,0.765124,0.172747,-0.606907 HandRight:-0.132424,0.901827,-0.135596,0.388310 HandTipLeft:0.000000,0.000000,0.000000,0.000000 HandTipRight:0.000000,0.000000,0.000000,0.000000 Head:0.000000,0.000000,0.000000,0.000000 HipLeft:0.141487,-0.674808,0.710612,-0.140164 HipRight:-0.149183,0.690529,0.694522,-0.136212 KneeLeft:0.054804,-0.705697,0.036630,0.705441 KneeRight:-0.047251,0.704295,-0.002773,0.708328 Neck:-0.015889,0.016560,0.999107,-0.035468 ShoulderLeft:-0.003686,0.770930,-0.636670,0.017434 ShoulderRight:-0.024309,0.792771,0.607665,-0.040816 SpineBase:0.000638,0.016033,0.999869,0.002325 SpineMid:-0.007276,0.016014,0.999842,0.002451 SpineShoulder:-0.015570,0.016544,0.999630,-0.014988 ThumbLeft:0.000000,0.000000,0.000000,0.000000 ThumbRight:0.000000,0.000000,0.000000,0.000000 WristLeft:-0.154074,0.768174,0.068661,-0.617621 WristRight:-0.156697,0.899843,-0.099608,0.394723 END:
KINECT_DATA POSITION:23.028593,37.040901,-47.618530 HEAD_JOINT1:0.985168,0.160041,-0.000000,0.061895 LARM_JOINT2:0.827788,0.000000,0.003217,-0.561031 LARM_JOINT3:0.959445,0.000000,-0.223751,-0.171466 LLEG_JOINT2:0.998417,-0.010239,0.000000,0.055301 LLEG_JOINT4:0.997510,0.055256,0.000000,-0.043816 RARM_JOINT2:0.811900,0.000000,-0.038804,0.582505 RARM_JOINT3:0.955698,0.000000,0.215807,0.200172 RLEG_JOINT2:0.998540,-0.035997,-0.000000,-0.040278 RLEG_JOINT4:0.986574,0.145438,0.000000,0.074292 WAIST:0.999875,0.000000,-0.008123,0.013585 WAIST_JOINT0:0.999744,-0.000000,0.003271,0.022371 WAIST_JOINT1:0.999836,0.018104,-0.000000,0.000942 END:
KINECT_DATA_Sensor  AnkleLeft:0.013514,0.706023,-0.049689,-0.706314 AnkleRight:0.104681,0.587033,0.058377,0.800641 ElbowLeft:-0.072723,0.882941,-0.190468,-0.422905 ElbowRight:-0.018648,0.885224,0.154118,0.438495 FootLeft:0.000000,0.000000,0.000000,0.000000 FootRight:0.000000,0.000000,0.000000,0.000000 HandLeft:-0.172273,0.735489,0.203612,-0.622832 HandRight:-0.115042,0.868801,-0.147061,0.458610 HandTipLeft:0.000000,0.000000,0.000000,0.000000 HandTipRight:0.000000,0.000000,0.000000,0.000000 Head:0.000000,0.000000,0.000000,0.000000 HipLeft:0.148133,-0.672620,0.710764,-0.143014 HipRight:-0.145924,0.692769,0.693796,-0.132000 KneeLeft:-0.056211,0.710812,-0.041043,-0.699930 KneeRight:-0.044301,0.699205,-0.006195,0.713520 Neck:-0.002953,0.014826,0.999335,-0.033172 ShoulderLeft:-0.014684,0.771721,-0.635213,0.027126 ShoulderRight:-0.018778,0.795292,0.605183,-0.030204 SpineBase:0.008175,0.014623,0.999851,0.004140 SpineMid:0.002920,0.014601,0.999880,0.004216 SpineShoulder:-0.002658,0.014875,0.999801,-0.013004 ThumbLeft:0.000000,0.000000,0.000000,0.000000 ThumbRight:0.000000,0.000000,0.000000,0.000000 WristLeft:-0.157584,0.745914,0.088161,-0.641098 WristRight:-0.138150,0.867135,-0.116121,0.464227 END:
KINECT_DATA POSITION:22.975796,37.035923,-47.244095 HEAD_JOINT1:0.984831,0.159462,-0.000000,0.068410 LARM_JOINT2:0.831900,0.000000,-0.004819,-0.554904 LARM_JOINT3:0.961103,0.000000,-0.218449,-0.169002 LLEG_JOINT2:0.998445,-0.006979,0.000000,0.055315 LLEG_JOINT4:0.997282,0.056480,0.000000,-0.047310 RARM_JOINT2:0.809740,0.000000,-0.042319,0.585261 RARM_JOINT3:0.953389,0.000000,0.221551,0.204854 RLEG_JOINT2:0.998586,-0.034649,-0.000000,-0.040320 RLEG_JOINT4:0.987176,0.142220,0.000000,0.072507 WAIST:0.999712,0.000000,-0.018597,0.015174 WAIST_JOINT0:0.999714,0.000000,-0.009434,0.021952 WAIST_JOINT1:0.999858,0.016678,0.000000,-0.002436 END:
KINECT_DATA_Sensor  AnkleLeft:0.017586,0.713187,-0.051867,-0.698831 AnkleRight:0.096308,0.474887,0.068480,0.872076 ElbowLeft:-0.080202,0.895177,-0.192649,-0.393844 ElbowRight:-0.014685,0.881071,0.153291,0.447213 FootLeft:0.000000,0.000000,0.000000,0.000000 FootRight:0.000000,0.000000,0.000000,0.000000 HandLeft:-0.188574,0.737834,0.196057,-0.617740 HandRight:-0.121375,0.835873,-0.169446,0.507811 HandTipLeft:0.000000,0.000000,0.000000,0.000000 HandTipRight:0.000000,0.000000,0.000000,0.000000 Head:0.000000,0.000000,0.000000,0.000000 HipLeft:0.156126,-0.670686,0.710065,-0.147012 HipRight:-0.140995,0.694986,0.693937,-0.124768 KneeLeft:-0.055402,0.718145,-0.044041,-0.692285 KneeRight:-0.042199,0.691869,-0.005776,0.720766 Neck:0.009548,0.012219,0.999386,-0.031420 ShoulderLeft:-0.023776,0.771195,-0.635121,0.036248 ShoulderRight:-0.011840,0.795146,0.605981,-0.019736 SpineBase:0.018703,0.013925,0.999707,0.006506 SpineMid:0.014440,0.013897,0.999778,0.006565 SpineShoulder:0.009856,0.013503,0.999791,-0.011807 ThumbLeft:0.000000,0.000000,0.000000,0.000000 ThumbRight:0.000000,0.000000,0.000000,0.000000 WristLeft:-0.154543,0.749547,0.088688,-0.637518 WristRight:-0.131807,0.837589,-0.124614,0.515308 END:
KINECT_DATA POSITION:23.052183,37.076210,-46.835400 HEAD_JOINT1:0.985168,0.150161,-0.000000,0.083038 LARM_JOINT2:0.838395,0.000000,-0.011377,-0.544944 LARM_JOINT3:0.960245,0.000000,-0.214398,-0.178780 LLEG_JOINT2:0.998465,-0.004200,0.000000,0.055223 LLEG_JOINT4:0.996909,0.059580,0.000000,-0.051211 RARM_JOINT2:0.803687,0.000000,-0.048984,0.593033 RARM_JOINT3:0.955703,0.000000,0.212575,0.203576 RLEG_JOINT2:0.998655,-0.032021,-0.000000,-0.040770 RLEG_JOINT4:0.987294,0.139795,0.000000,0.075553 WAIST:0.999510,0.000000,-0.027022,0.015809 WAIST_JOINT0:0.999387,0.000000,-0.027788,0.021295 WAIST_JOINT1:0.999839,0.016792,0.000000,-0.006341 END:
KINECT_DATA_Sensor  AnkleLeft:0.024120,0.723673,-0.053904,-0.687612 AnkleRight:0.088183,0.324367,0.081095,0.938314 ElbowLeft:-0.087818,0.901963,-0.198177,-0.373466 ElbowRight:-0.008199,0.869856,0.149270,0.470107 FootLeft:0.000000,0.000000,0.000000,0.000000 FootRight:0.000000,0.000000,0.000000,0.000000 HandLeft:-0.172983,0.762690,0.187339,-0.594377 HandRight:-0.061972,0.796924,-0.162568,0.578484 HandTipLeft:0.000000,0.000000,0.000000,0.000000 HandTipRight:0.000000,0.000000,0.000000,0.000000 Head:0.000000,0.000000,0.000000,0.000000 HipLeft:0.160594,-0.669651,0.709208,-0.150998 HipRight:-0.133918,0.696351,0.694743,-0.120393 KneeLeft:-0.054145,0.724032,-0.046075,-0.686093 KneeRight:-0.040111,0.686034,-0.003633,0.726454 Neck:0.027799,0.008584,0.999061,-0.032114 ShoulderLeft:-0.032737,0.770399,-0.634872,0.048485 ShoulderRight:0.002707,0.793441,0.608630,-0.003631 SpineBase:0.027136,0.011503,0.999550,0.005659 SpineMid:0.027713,0.011507,0.999534,0.005652 SpineShoulder:0.028081,0.010327,0.999479,-0.012063 ThumbLeft:0.000000,0.000000,0.000000,0.000000 ThumbRight:0.000000,0.000000,0.000000,0.000000 WristLeft:-0.159037,0.770332,0.091061,-0.610741 WristRight:-0.124617,0.790079,-0.132910,0.585304 END:
