EastLYD/RoboCupatHomeSim/InteractiveCleanUp/Current_motion2.dat
KINECT_DATA POSITION:24.327433,29.152685,-54.576015 HEAD_JOINT1:0.981745,0.156507,-0.000000,0.108080 LARM_JOINT2:0.816273,0.000000,-0.038211,-0.576401 LARM_JOINT3:0.933009,0.000000,-0.324618,-0.155297 LLEG_JOINT2:0.999028,-0.003447,0.000000,0.043937 LLEG_JOINT4:0.995148,0.040522,0.000000,0.089654 RARM_JOINT2:0.768805,0.000000,0.010066,0.639404 RARM_JOINT3:0.949970,0.000000,0.262273,0.169618 RLEG_JOINT2:0.999600,-0.001869,-0.000000,-0.028220 RLEG_JOINT4:0.976043,0.166613,0.000000,0.139932 WAIST:0.997836,0.000000,-0.053788,0.037830 WAIST_JOINT0:0.997338,0.000000,-0.071775,0.012846 WAIST_JOINT1:0.999511,0.025339,0.000000,-0.018344 END:
KINECT_DATA_Sensor  AnkleLeft:-0.056156,0.887939,-0.165750,-0.425367 AnkleRight:0.223756,0.637557,0.004828,0.737178 ElbowLeft:-0.098996,0.897361,-0.159753,-0.399276 ElbowRight:-0.016608,0.827704,0.072734,0.556183 FootLeft:0.000000,0.000000,0.000000,0.000000 FootRight:0.000000,0.000000,0.000000,0.000000 HandLeft:-0.233040,0.295500,-0.411075,0.830295 HandRight:-0.162513,0.887731,-0.242058,0.356275 HandTipLeft:0.000000,0.000000,0.000000,0.000000 HandTipRight:0.000000,0.000000,0.000000,0.000000 Head:0.000000,0.000000,0.000000,0.000000 HipLeft:0.181714,-0.654011,0.710100,-0.187105 HipRight:-0.120560,0.718279,0.674183,-0.122549 KneeLeft:-0.061719,0.741530,-0.053466,-0.665932 KneeRight:0.006510,0.668094,-0.007003,0.744016 Neck:0.071338,0.019717,0.996404,-0.041242 ShoulderLeft:-0.086432,0.790451,-0.595821,0.112755 ShoulderRight:0.003205,0.808321,0.588728,0.002341 SpineBase:0.053557,0.021330,0.998326,-0.004699 SpineMid:0.062753,0.021285,0.997790,-0.004896 SpineShoulder:0.071827,0.020577,0.996963,-0.021981 ThumbLeft:0.000000,0.000000,0.000000,0.000000 ThumbRight:0.000000,0.000000,0.000000,0.000000 WristLeft:-0.124369,0.344553,-0.218205,0.904545 WristRight:-0.210470,0.889979,-0.144376,0.377883 END:
KINECT_DATA POSITION:24.254473,29.159153,-54.515110 HEAD_JOINT1:0.981236,0.160376,-0.000000,0.107032 LARM_JOINT2:0.816089,0.000000,-0.037473,-0.576710 LARM_JOINT3:0.934744,0.000000,-0.319467,-0.155548 LLEG_JOINT2:0.999115,-0.003007,0.000000,0.041955 LLEG_JOINT4:0.993842,0.045815,0.000000,0.100896 RARM_JOINT2:0.768448,0.000000,0.009374,0.639843 RARM_JOINT3:0.949738,0.000000,0.262681,0.170286 RLEG_JOINT2:0.999615,-0.000813,-0.000000,-0.027728 RLEG_JOINT4:0.976368,0.163873,0.000000,0.140897 WAIST:0.997873,0.000000,-0.052949,0.038023 WAIST_JOINT0:0.997400,0.000000,-0.070803,0.013431 WAIST_JOINT1:0.999530,0.025098,0.000000,-0.017597 END:
KINECT_DATA_Sensor  AnkleLeft:-0.055982,0.885858,-0.176757,-0.425299 AnkleRight:0.223605,0.638322,0.002605,0.736572 ElbowLeft:-0.101204,0.890933,-0.159075,-0.413148 ElbowRight:-0.016127,0.825066,0.071440,0.560270 FootLeft:0.000000,0.000000,0.000000,0.000000 FootRight:0.000000,0.000000,0.000000,0.000000 HandLeft:-0.208076,0.288769,-0.373664,0.856558 HandRight:0.251160,-0.356659,-0.156487,0.886129 HandTipLeft:0.000000,0.000000,0.000000,0.000000 HandTipRight:0.000000,0.000000,0.000000,0.000000 Head:0.000000,0.000000,0.000000,0.000000 HipLeft:0.180967,-0.654016,0.710402,-0.186663 HipRight:-0.121218,0.718396,0.673912,-0.122700 KneeLeft:-0.060065,0.741099,-0.052638,-0.666629 KneeRight:0.007744,0.668731,-0.006817,0.743432 Neck:0.070313,0.020632,0.996473,-0.040885 ShoulderLeft:-0.086159,0.791381,-0.594793,0.111867 ShoulderRight:0.002031,0.809775,0.586734,0.001832 SpineBase:0.052726,0.022113,0.998354,-0.004582 SpineMid:0.061833,0.022070,0.997831,-0.004784 SpineShoulder:0.070815,0.021491,0.997021,-0.021724 ThumbLeft:0.000000,0.000000,0.000000,0.000000 ThumbRight:0.000000,0.000000,0.000000,0.000000 WristLeft:-0.120247,0.323466,-0.231246,0.909635 WristRight:0.143984,-0.379660,-0.211694,0.888995 END:
KINECT_DATA POSITION:24.247971,29.167343,-54.515671 HEAD_JOINT1:0.981405,0.160303,-0.000000,0.105583 LARM_JOINT2:0.815674,0.000000,-0.037619,-0.577287 LARM_JOINT3:0.933398,0.000000,-0.322386,-0.157592 LLEG_JOINT2:0.999146,-0.003210,0.000000,0.041198 LLEG_JOINT4:0.993600,0.046504,0.000000,0.102934 RARM_JOINT2:0.768484,0.000000,0.010293,0.639786 RARM_JOINT3:0.949401,0.000000,0.262862,0.171875 RLEG_JOINT2:0.999594,-0.000629,-0.000000,-0.028493 RLEG_JOINT4:0.976193,0.163707,0.000000,0.142295 WAIST:0.997844,0.000000,-0.053185,0.038460 WAIST_JOINT0:0.997431,0.000000,-0.070326,0.013592 WAIST_JOINT1:0.999528,0.025350,0.000000,-0.017381 END:
KINECT_DATA_Sensor  AnkleLeft:-0.055752,0.887337,-0.178688,-0.421421 AnkleRight:0.224375,0.637993,0.001794,0.736626 ElbowLeft:-0.099609,0.894747,-0.159997,-0.404854 ElbowRight:-0.016162,0.825332,0.070726,0.559967 FootLeft:0.000000,0.000000,0.000000,0.000000 FootRight:0.000000,0.000000,0.000000,0.000000 HandLeft:-0.225302,0.295613,-0.387679,0.843538 HandRight:-0.293005,0.866027,-0.063971,-0.400067 HandTipLeft:0.000000,0.000000,0.000000,0.000000 HandTipRight:0.000000,0.000000,0.000000,0.000000 Head:0.000000,0.000000,0.000000,0.000000 HipLeft:0.180939,-0.653632,0.710696,-0.186915 HipRight:-0.121059,0.718682,0.673658,-0.122577 KneeLeft:-0.059954,0.741270,-0.052283,-0.666476 KneeRight:0.007684,0.668566,-0.006430,0.743585 Neck:0.069816,0.021411,0.996478,-0.041205 ShoulderLeft:-0.085780,0.791049,-0.595315,0.111728 ShoulderRight:0.001791,0.809727,0.586803,0.001174 SpineBase:0.052953,0.022542,0.998331,-0.004721 SpineMid:0.061711,0.022500,0.997828,-0.004919 SpineShoulder:0.070328,0.022148,0.997037,-0.021939 ThumbLeft:0.000000,0.000000,0.000000,0.000000 ThumbRight:0.000000,0.000000,0.000000,0.000000 WristLeft:-0.123383,0.338027,-0.223125,0.905941 WristRight:-0.252105,0.894800,0.048765,-0.365237 END:
KINECT_DATA POSITION:24.283331,29.174614,-54.567753 HEAD_JOINT1:0.982082,0.156475,-0.000000,0.105026 LARM_JOINT2:0.815965,0.000000,-0.037436,-0.576888 LARM_JOINT3:0.933597,0.000000,-0.320496,-0.160250 LLEG_JOINT2:0.999133,-0.003342,0.000000,0.041486 LLEG_JOINT4:0.994392,0.043979,0.000000,0.096179 RARM_JOINT2:0.768775,0.000000,0.010613,0.639432 RARM_JOINT3:0.950373,0.000000,0.258745,0.172752 RLEG_JOINT2:0.999571,-0.000495,-0.000000,-0.029269 RLEG_JOINT4:0.976321,0.163927,0.000000,0.141157 WAIST:0.997834,0.000000,-0.053196,0.038691 WAIST_JOINT0:0.997432,0.000000,-0.070334,0.013483 WAIST_JOINT1:0.999517,0.025641,0.000000,-0.017557 END:
KINECT_DATA_Sensor  AnkleLeft:-0.055265,0.887414,-0.171906,-0.424135 AnkleRight:0.223500,0.638386,0.003154,0.736546 ElbowLeft:-0.100325,0.892617,-0.160182,-0.409283 ElbowRight:-0.016062,0.827257,0.071156,0.557068 FootLeft:0.000000,0.000000,0.000000,0.000000 FootRight:0.000000,0.000000,0.000000,0.000000 HandLeft:-0.228951,0.288690,-0.370202,0.852754 HandRight:-0.279397,0.882160,-0.078358,-0.370933 HandTipLeft:0.000000,0.000000,0.000000,0.000000 HandTipRight:0.000000,0.000000,0.000000,0.000000 Head:0.000000,0.000000,0.000000,0.000000 HipLeft:0.180568,-0.653405,0.710927,-0.187193 HipRight:-0.120786,0.718809,0.673538,-0.122760 KneeLeft:-0.060420,0.741236,-0.052537,-0.666452 KneeRight:0.007427,0.668576,-0.005926,0.743583 Neck:0.069846,0.021411,0.996461,-0.041569 ShoulderLeft:-0.085666,0.790620,-0.595846,0.112025 ShoulderRight:0.002004,0.809235,0.587481,0.000850 SpineBase:0.052939,0.022842,0.998323,-0.005158 SpineMid:0.061726,0.022796,0.997818,-0.005359 SpineShoulder:0.070366,0.022232,0.997026,-0.022224 ThumbLeft:0.000000,0.000000,0.000000,0.000000 ThumbRight:0.000000,0.000000,0.000000,0.000000 WristLeft:-0.118393,0.332060,-0.225898,0.908124 WristRight:-0.253092,0.906474,0.038733,-0.335781 END:
KINECT_DATA POSITION:24.412437,29.201082,-54.766953 HEAD_JOINT1:0.981625,0.159639,-0.000000,0.104532 LARM_JOINT2:0.818413,0.000000,-0.034673,-0.573583 LARM_JOINT3:0.933612,0.000000,-0.322742,-0.155583 LLEG_JOINT2:0.999108,-0.005130,0.000000,0.041904 LLEG_JOINT4:0.994909,0.044205,0.000000,0.090568 RARM_JOINT2:0.769712,0.000000,0.007907,0.638343 RARM_JOINT3:0.951075,0.000000,0.258922,0.168572 RLEG_JOINT2:0.999538,-0.002776,-0.000000,-0.030278 RLEG_JOINT4:0.918263,0.288029,0.000000,0.271720 WAIST:0.997721,0.000000,-0.055092,0.038950 WAIST_JOINT0:0.997397,0.000000,-0.070780,0.013776 WAIST_JOINT1:0.999523,0.024382,0.000000,-0.018940 END:
KINECT_DATA_Sensor  AnkleLeft:-0.056465,0.883402,-0.166143,-0.434522 AnkleRight:0.400693,0.555599,0.016044,0.728353 ElbowLeft:-0.099230,0.897994,-0.164425,-0.395884 ElbowRight:-0.016200,0.827010,0.073931,0.557069 FootLeft:0.000000,0.000000,0.000000,0.000000 FootRight:0.000000,0.000000,0.000000,0.000000 HandLeft:-0.204480,0.271005,-0.414364,0.844421 HandRight:-0.150578,0.887771,-0.230228,0.369032 HandTipLeft:0.000000,0.000000,0.000000,0.000000 HandTipRight:0.000000,0.000000,0.000000,0.000000 Head:0.000000,0.000000,0.000000,0.000000 HipLeft:0.182572,-0.653205,0.710479,-0.187644 HipRight:-0.120101,0.719296,0.673390,-0.121384 KneeLeft:-0.062160,0.742427,-0.051597,-0.665039 KneeRight:0.007433,0.344818,-0.004406,0.938630 Neck:0.070387,0.020146,0.996507,-0.040178 ShoulderLeft:-0.090083,0.792307,-0.592642,0.113622 ShoulderRight:-0.001841,0.811035,0.584995,0.000363 SpineBase:0.054879,0.022169,0.998238,-0.004299 SpineMid:0.062955,0.022134,0.997761,-0.004478 SpineShoulder:0.070887,0.021210,0.997036,-0.021082 ThumbLeft:0.000000,0.000000,0.000000,0.000000 ThumbRight:0.000000,0.000000,0.000000,0.000000 WristLeft:-0.113885,0.312452,-0.221297,0.916751 WristRight:-0.209589,0.885415,-0.146430,0.388163 END:
KINECT_DATA POSITION:25.103210,29.259998,-55.336155 HEAD_JOINT1:0.980962,0.165297,-0.000000,0.101932 LARM_JOINT2:0.838304,0.000000,-0.031595,-0.544287 LARM_JOINT3:0.937024,0.000000,-0.314401,-0.152113 LLEG_JOINT2:0.999037,-0.009387,0.000000,0.042859 LLEG_JOINT4:0.997067,0.035012,0.000000,0.068053 RARM_JOINT2:0.793495,0.000000,0.008146,0.608523 RARM_JOINT3:0.950723,0.000000,0.277360,0.138552 RLEG_JOINT2:0.999245,-0.012507,-0.000000,-0.036782 RLEG_JOINT4:0.598235,0.500582,0.000000,0.625726 WAIST:0.997733,0.000000,-0.055542,0.037997 WAIST_JOINT0:0.996968,0.000000,-0.076692,0.013164 WAIST_JOINT1:0.999574,0.023167,0.000000,-0.017748 END:
KINECT_DATA_Sensor  AnkleLeft:-0.057058,0.884226,-0.139682,-0.442016 AnkleRight:0.729842,0.091066,0.322586,0.595799 ElbowLeft:-0.125358,0.873007,-0.189252,-0.431658 ElbowRight:-0.038068,0.809824,0.105536,0.575845 FootLeft:0.000000,0.000000,0.000000,0.000000 FootRight:0.000000,0.000000,0.000000,0.000000 HandLeft:-0.123908,0.130175,-0.383500,0.905886 HandRight:-0.200237,0.806778,-0.193948,0.520959 HandTipLeft:0.000000,0.000000,0.000000,0.000000 HandTipRight:0.000000,0.000000,0.000000,0.000000 Head:0.000000,0.000000,0.000000,0.000000 HipLeft:0.183917,-0.653758,0.709523,-0.188018 HipRight:-0.120775,0.718877,0.673925,-0.120226 KneeLeft:-0.065055,0.742638,-0.048354,-0.664770 KneeRight:-0.002911,0.277651,-0.010038,0.960625 Neck:0.075613,0.020164,0.996172,-0.038950 ShoulderLeft:-0.098766,0.788655,-0.594806,0.120310 ShoulderRight:-0.003585,0.809381,0.587270,0.001780 SpineBase:0.055399,0.022408,0.998208,-0.003145 SpineMid:0.065797,0.022374,0.997576,-0.003379 SpineShoulder:0.076118,0.021319,0.996672,-0.019935 ThumbLeft:0.000000,0.000000,0.000000,0.000000 ThumbRight:0.000000,0.000000,0.000000,0.000000 WristLeft:-0.035946,0.168840,-0.268349,0.947729 WristRight:-0.208963,0.807419,-0.139773,0.533735 END:
KINECT_DATA POSITION:26.007950,29.548401,-55.734051 HEAD_JOINT1:0.984068,0.155985,-0.000000,0.085316 LARM_JOINT2:0.872013,0.000000,-0.060351,-0.485748 LARM_JOINT3:0.938636,0.000000,-0.328530,-0.105021 LLEG_JOINT2:0.998753,-0.008671,0.000000,0.049155 LLEG_JOINT4:0.998544,0.033666,0.000000,0.042147 RARM_JOINT2:0.846910,0.000000,0.000904,0.531736 RARM_JOINT3:0.929302,0.000000,0.366040,0.049116 RLEG_JOINT2:0.999017,-0.019264,-0.000000,-0.039926 RLEG_JOINT4:0.612462,0.452097,0.000000,0.648458 WAIST:0.997920,0.000000,-0.055608,0.032613 WAIST_JOINT0:0.996671,0.000000,-0.081162,0.007701 WAIST_JOINT1:0.999615,0.023331,0.000000,-0.015025 END:
KINECT_DATA_Sensor  AnkleLeft:-0.049535,0.867281,-0.116290,-0.481504 AnkleRight:0.728134,0.082647,0.281272,0.619578 ElbowLeft:-0.190128,0.843154,-0.218090,-0.453189 ElbowRight:-0.105878,0.712030,0.177881,0.670941 FootLeft:0.000000,0.000000,0.000000,0.000000 FootRight:0.000000,0.000000,0.000000,0.000000 HandLeft:-0.009992,0.075608,-0.440161,0.894674 HandRight:-0.035475,-0.203331,-0.445498,0.871166 HandTipLeft:0.000000,0.000000,0.000000,0.000000 HandTipRight:0.000000,0.000000,0.000000,0.000000 Head:0.000000,0.000000,0.000000,0.000000 HipLeft:0.183888,-0.657406,0.705986,-0.188643 HipRight:-0.120576,0.715755,0.677421,-0.119406 KneeLeft:-0.065462,0.742631,-0.049280,-0.664669 KneeRight:-0.013047,0.245613,-0.013724,0.969183 Neck:0.079413,0.016949,0.995930,-0.039105 ShoulderLeft:-0.095793,0.784867,-0.600321,0.120090 ShoulderRight:0.005010,0.801488,0.597952,0.006718 SpineBase:0.055495,0.020976,0.998234,-0.002921 SpineMid:0.067734,0.020939,0.997479,-0.003178 SpineShoulder:0.079902,0.018725,0.996428,-0.019919 ThumbLeft:0.000000,0.000000,0.000000,0.000000 ThumbRight:0.000000,0.000000,0.000000,0.000000 WristLeft:0.041335,0.111041,-0.321674,0.939408 WristRight:-0.074022,-0.244578,-0.315600,0.913837 END:
KINECT_DATA POSITION:26.846664,29.755043,-55.946159 HEAD_JOINT1:0.985723,0.149571,-0.000000,0.077320 LARM_JOINT2:0.897858,0.000000,-0.074879,-0.433871 LARM_JOINT3:0.930753,0.000000,-0.349479,-0.107537 LLEG_JOINT2:0.998926,-0.010388,0.000000,0.045166 LLEG_JOINT4:0.998965,0.041445,0.000000,0.018760 RARM_JOINT2:0.882150,0.000000,0.028949,0.470077 RARM_JOINT3:0.924510,0.000000,0.381040,0.009441 RLEG_JOINT2:0.998758,-0.018889,-0.000000,-0.046102 RLEG_JOINT4:0.608925,0.438112,0.000000,0.661263 WAIST:0.997872,0.000000,-0.056818,0.031993 WAIST_JOINT0:0.996522,0.000000,-0.083095,0.006305 WAIST_JOINT1:0.999595,0.023783,0.000000,-0.015641 END:
KINECT_DATA_Sensor  AnkleLeft:-0.033132,0.846723,-0.095561,-0.522331 AnkleRight:0.730224,0.071112,0.274489,0.621588 ElbowLeft:-0.241083,0.815562,-0.244111,-0.465991 ElbowRight:-0.180914,0.659875,0.207305,0.699185 FootLeft:0.000000,0.000000,0.000000,0.000000 FootRight:0.000000,0.000000,0.000000,0.000000 HandLeft:-0.101956,0.201868,-0.432154,0.872982 HandRight:-0.260857,0.161036,-0.382852,0.871462 HandTipLeft:0.000000,0.000000,0.000000,0.000000 HandTipRight:0.000000,0.000000,0.000000,0.000000 Head:0.000000,0.000000,0.000000,0.000000 HipLeft:0.183712,-0.657732,0.705496,-0.189512 HipRight:-0.118778,0.715853,0.677952,-0.117592 KneeLeft:-0.063228,0.743690,-0.044858,-0.664014 KneeRight:-0.019161,0.232953,-0.011178,0.972235 Neck:0.081474,0.015391,0.995784,-0.039224 ShoulderLeft:-0.090083,0.785206,-0.601239,0.117676 ShoulderRight:0.013324,0.799596,0.600267,0.012169 SpineBase:0.056696,0.021660,0.998151,-0.003231 SpineMid:0.069388,0.021617,0.997349,-0.003506 SpineShoulder:0.081952,0.017623,0.996269,-0.020525 ThumbLeft:0.000000,0.000000,0.000000,0.000000 ThumbRight:0.000000,0.000000,0.000000,0.000000 WristLeft:0.016045,0.261097,-0.377963,0.888096 WristRight:-0.286690,0.127574,-0.300504,0.900683 END:
KINECT_DATA POSITION:27.320042,29.910976,-56.151020 HEAD_JOINT1:0.986078,0.135540,-0.000000,0.096328 LARM_JOINT2:0.908184,0.000000,-0.084695,-0.409913 LARM_JOINT3:0.936382,0.000000,-0.326667,-0.128366 LLEG_JOINT2:0.998917,-0.013863,0.000000,0.044425 LLEG_JOINT4:0.998862,0.047683,0.000000,0.000719 RARM_JOINT2:0.907376,0.000000,0.076001,0.413391 RARM_JOINT3:0.937576,0.000000,0.338210,0.081032 RLEG_JOINT2:0.998723,-0.019843,-0.000000,-0.046462 RLEG_JOINT4:0.611883,0.425351,0.000000,0.666840 WAIST:0.998018,0.000000,-0.054857,0.030839 WAIST_JOINT0:0.996263,0.000000,-0.086114,0.006707 WAIST_JOINT1:0.999484,0.025946,0.000000,-0.018953 END:
KINECT_DATA_Sensor  AnkleLeft:-0.020561,0.834459,-0.081106,-0.544680 AnkleRight:0.726528,0.062146,0.274548,0.626832 ElbowLeft:-0.251152,0.823000,-0.262242,-0.436833 ElbowRight:-0.224657,0.729260,0.252260,0.595041 FootLeft:0.000000,0.000000,0.000000,0.000000 FootRight:0.000000,0.000000,0.000000,0.000000 HandLeft:-0.086012,0.205655,-0.387689,0.894430 HandRight:-0.182288,0.166839,-0.382623,0.890245 HandTipLeft:0.000000,0.000000,0.000000,0.000000 HandTipRight:0.000000,0.000000,0.000000,0.000000 Head:0.000000,0.000000,0.000000,0.000000 HipLeft:0.183493,-0.659141,0.704732,-0.187658 HipRight:-0.116876,0.714648,0.678937,-0.121088 KneeLeft:-0.064152,0.742217,-0.041013,-0.665820 KneeRight:-0.020825,0.226406,-0.011899,0.973738 Neck:0.086314,0.011491,0.995308,-0.042193 ShoulderLeft:-0.086686,0.782333,-0.605170,0.119201 ShoulderRight:0.023445,0.793100,0.608397,0.017202 SpineBase:0.054649,0.015065,0.998380,-0.004839 SpineMid:0.070657,0.014985,0.997375,-0.005080 SpineShoulder:0.086697,0.012751,0.995897,-0.022590 ThumbLeft:0.000000,0.000000,0.000000,0.000000 ThumbRight:0.000000,0.000000,0.000000,0.000000 WristLeft:0.025298,0.249783,-0.375629,0.892116 WristRight:-0.263947,0.107188,-0.297638,0.911183 END:
KINECT_DATA POSITION:27.629221,29.887894,-56.152309 HEAD_JOINT1:0.985593,0.142117,-0.000000,0.091699 LARM_JOINT2:0.889525,0.000000,-0.063724,-0.452422 LARM_JOINT3:0.934177,0.000000,-0.292613,-0.204183 LLEG_JOINT2:0.998837,-0.012770,0.000000,0.046488 LLEG_JOINT4:0.998824,0.045758,0.000000,-0.015996 RARM_JOINT2:0.844344,0.000000,0.015377,0.535580 RARM_JOINT3:0.933145,0.000000,0.345541,0.099211 RLEG_JOINT2:0.998791,-0.023842,-0.000000,-0.042996 RLEG_JOINT4:0.610279,0.432213,0.000000,0.663891 WAIST:0.997723,0.000000,-0.060743,0.029294 WAIST_JOINT0:0.996161,0.000000,-0.087096,0.008824 WAIST_JOINT1:0.999561,0.024192,0.000000,-0.017128 END:
KINECT_DATA_Sensor  AnkleLeft:-0.014227,0.814703,-0.067511,-0.575760 AnkleRight:0.727335,0.061559,0.274939,0.625782 ElbowLeft:-0.183555,0.882572,-0.262006,-0.344569 ElbowRight:-0.111891,0.719232,0.173705,0.663335 FootLeft:0.000000,0.000000,0.000000,0.000000 FootRight:0.000000,0.000000,0.000000,0.000000 HandLeft:-0.160677,0.153824,-0.315464,0.922498 HandRight:0.141460,-0.310042,-0.361492,0.867863 HandTipLeft:0.000000,0.000000,0.000000,0.000000 HandTipRight:0.000000,0.000000,0.000000,0.000000 Head:0.000000,0.000000,0.000000,0.000000 HipLeft:0.187573,-0.659473,0.702515,-0.190750 HipRight:-0.114078,0.714368,0.680319,-0.117605 KneeLeft:-0.063991,0.746145,-0.041862,-0.661377 KneeRight:-0.020489,0.225099,-0.016007,0.973989 Neck:0.086463,0.012365,0.995373,-0.040038 ShoulderLeft:-0.093302,0.784042,-0.601473,0.121668 ShoulderRight:0.016438,0.799256,0.600553,0.015990 SpineBase:0.060575,0.014062,0.998056,-0.004188 SpineMid:0.073667,0.014006,0.997175,-0.004372 SpineShoulder:0.086823,0.013180,0.995918,-0.020875 ThumbLeft:0.000000,0.000000,0.000000,0.000000 ThumbRight:0.000000,0.000000,0.000000,0.000000 WristLeft:-0.012183,0.202032,-0.285256,0.936837 WristRight:-0.028047,-0.369759,-0.318660,0.872323 END:
KINECT_DATA POSITION:28.637564,29.627047,-56.008793 HEAD_JOINT1:0.984998,0.138481,-0.000000,0.102965 LARM_JOINT2:0.858668,0.000000,-0.041661,-0.510836 LARM_JOINT3:0.940597,0.000000,-0.267373,-0.209258 LLEG_JOINT2:0.998859,-0.015164,0.000000,0.045292 LLEG_JOINT4:0.996811,0.040763,0.000000,-0.068597 RARM_JOINT2:0.795075,0.000000,-0.006496,0.606476 RARM_JOINT3:0.940197,0.000000,0.304305,0.153061 RLEG_JOINT2:0.998375,-0.030940,-0.000000,-0.047856 RLEG_JOINT4:0.594545,0.459412,0.000000,0.659892 WAIST:0.997150,0.000000,-0.069482,0.029390 WAIST_JOINT0:0.995629,0.000000,-0.093088,0.007636 WAIST_JOINT1:0.999376,0.028747,0.000000,-0.020537 END:
KINECT_DATA_Sensor  AnkleLeft:0.013322,0.744883,-0.024900,-0.666597 AnkleRight:0.729089,0.059134,0.290313,0.616969 ElbowLeft:-0.129490,0.904394,-0.217868,-0.343273 ElbowRight:-0.031558,0.784304,0.125661,0.606697 FootLeft:0.000000,0.000000,0.000000,0.000000 FootRight:0.000000,0.000000,0.000000,0.000000 HandLeft:-0.277810,0.503513,-0.158696,0.802566 HandRight:0.219355,-0.361587,-0.265628,0.866360 HandTipLeft:0.000000,0.000000,0.000000,0.000000 HandTipRight:0.000000,0.000000,0.000000,0.000000 Head:0.000000,0.000000,0.000000,0.000000 HipLeft:0.192960,-0.657275,0.701277,-0.197400 HipRight:-0.107375,0.714571,0.681604,-0.115216 KneeLeft:-0.064924,0.751776,-0.038936,-0.655059 KneeRight:-0.027827,0.231447,-0.020118,0.972241 Neck:0.092258,0.009924,0.994615,-0.046163 ShoulderLeft:-0.091537,0.784589,-0.599883,0.127205 ShoulderRight:0.025493,0.799051,0.600402,0.019646 SpineBase:0.069186,0.011753,0.997512,-0.006737 SpineMid:0.080881,0.011673,0.996632,-0.006874 SpineShoulder:0.092591,0.010243,0.995331,-0.025268 ThumbLeft:0.000000,0.000000,0.000000,0.000000 ThumbRight:0.000000,0.000000,0.000000,0.000000 WristLeft:-0.120108,0.528844,-0.200916,0.815801 WristRight:0.075605,-0.398824,-0.236425,0.882795 END:
KINECT_DATA POSITION:29.971943,29.364256,-56.068958 HEAD_JOINT1:0.976818,0.173288,-0.000000,0.125688 LARM_JOINT2:0.830154,0.000000,-0.060483,-0.554243 LARM_JOINT3:0.955601,0.000000,-0.232530,-0.180986 LLEG_JOINT2:0.998274,-0.008409,0.000000,0.058118 LLEG_JOINT4:0.996720,0.074186,0.000000,-0.032341 RARM_JOINT2:0.766864,0.000000,-0.015931,0.641612 RARM_JOINT3:0.941234,0.000000,0.291919,0.169885 RLEG_JOINT2:0.993056,-0.111063,-0.000000,-0.038794 RLEG_JOINT4:0.428135,0.324599,0.000000,0.843407 WAIST:0.995829,0.000000,-0.089851,0.015874 WAIST_JOINT0:0.993021,0.000000,-0.117932,0.000635 WAIST_JOINT1:0.998889,0.040527,0.000000,-0.024046 END:
KINECT_DATA_Sensor  AnkleLeft:0.018401,0.818976,-0.076611,-0.568392 AnkleRight:0.745161,-0.113496,0.454708,0.474442 ElbowLeft:-0.098175,0.933408,-0.156905,-0.307395 ElbowRight:0.004758,0.795821,0.110536,0.595339 FootLeft:0.000000,0.000000,0.000000,0.000000 FootRight:0.000000,0.000000,0.000000,0.000000 HandLeft:-0.271577,0.628475,-0.087110,0.723655 HandRight:0.199863,-0.286891,-0.256304,0.901142 HandTipLeft:0.000000,0.000000,0.000000,0.000000 HandTipRight:0.000000,0.000000,0.000000,0.000000 Head:0.000000,0.000000,0.000000,0.000000 HipLeft:0.199737,-0.661434,0.690790,-0.213118 HipRight:-0.084933,0.706106,0.693905,-0.112677 KneeLeft:-0.061274,0.764812,-0.041886,-0.639964 KneeRight:-0.051861,0.091293,-0.099311,0.989502 Neck:0.117058,-0.006698,0.991416,-0.057848 ShoulderLeft:-0.094156,0.788231,-0.589348,0.149987 ShoulderRight:0.054412,0.795428,0.602522,0.036074 SpineBase:0.089181,-0.002747,0.995840,-0.018484 SpineMid:0.103056,-0.003004,0.994500,-0.018444 SpineShoulder:0.117197,-0.005308,0.992390,-0.037401 ThumbLeft:0.000000,0.000000,0.000000,0.000000 ThumbRight:0.000000,0.000000,0.000000,0.000000 WristLeft:-0.163231,0.645299,-0.118249,0.736859 WristRight:0.087470,-0.315966,-0.217568,0.919336 END:
KINECT_DATA POSITION:28.942657,29.260418,-54.541039 HEAD_JOINT1:0.977489,0.165454,-0.000000,0.130924 LARM_JOINT2:0.815323,0.000000,-0.069492,-0.574822 LARM_JOINT3:0.949196,0.000000,-0.251040,-0.189750 LLEG_JOINT2:0.998634,0.005018,0.000000,0.052007 LLEG_JOINT4:0.998735,0.016579,0.000000,-0.047471 RARM_JOINT2:0.767347,0.000000,-0.011101,0.641136 RARM_JOINT3:0.946254,0.000000,0.281166,0.159838 RLEG_JOINT2:0.998171,-0.060402,0.000000,0.002583 RLEG_JOINT4:0.559780,0.396718,0.000000,0.727503 WAIST:0.996751,0.000000,-0.078685,0.017238 WAIST_JOINT0:0.994364,0.000000,-0.105947,0.004018 WAIST_JOINT1:0.998752,0.049914,0.000000,-0.001799 END:
KINECT_DATA_Sensor  AnkleLeft:-0.000447,0.783389,-0.031558,-0.620729 AnkleRight:0.744254,-0.028773,0.348161,0.569247 ElbowLeft:-0.091184,0.933536,-0.158036,-0.308577 ElbowRight:0.018306,0.800518,0.092993,0.591767 FootLeft:0.000000,0.000000,0.000000,0.000000 FootRight:0.000000,0.000000,0.000000,0.000000 HandLeft:-0.336074,0.801398,0.008474,0.494717 HandRight:0.203044,-0.342477,-0.213200,0.892204 HandTipLeft:0.000000,0.000000,0.000000,0.000000 HandTipRight:0.000000,0.000000,0.000000,0.000000 Head:0.000000,0.000000,0.000000,0.000000 HipLeft:0.181625,-0.659222,0.696876,-0.216338 HipRight:-0.089409,0.705774,0.692609,-0.119087 KneeLeft:-0.048459,0.758771,-0.049754,-0.647644 KneeRight:-0.000361,0.168656,-0.062249,0.983707 Neck:0.105762,0.018295,0.992049,-0.065711 ShoulderLeft:-0.074327,0.780852,-0.603304,0.144117 ShoulderRight:0.060043,0.791976,0.607179,0.022429 SpineBase:0.078090,0.015384,0.996465,-0.026884 SpineMid:0.092115,0.015004,0.995266,-0.027098 SpineShoulder:0.106245,0.017795,0.993138,-0.045514 ThumbLeft:0.000000,0.000000,0.000000,0.000000 ThumbRight:0.000000,0.000000,0.000000,0.000000 WristLeft:-0.197182,0.849280,-0.050049,0.487173 WristRight:0.108871,-0.363317,-0.192052,0.905132 END:
KINECT_DATA POSITION:28.728230,29.653460,-53.931831 HEAD_JOINT1:0.969235,0.192970,-0.000000,0.152796 LARM_JOINT2:0.813158,0.000000,-0.052206,-0.579696 LARM_JOINT3:0.941636,0.000000,-0.283963,-0.180793 LLEG_JOINT2:0.990372,-0.015092,0.000000,0.137608 LLEG_JOINT4:0.985126,0.171792,0.000000,-0.003701 RARM_JOINT2:0.782772,0.000000,0.022629,0.621897 RARM_JOINT3:0.948616,0.000000,0.277075,0.152833 RLEG_JOINT2:0.999206,-0.036872,-0.000000,-0.015099 RLEG_JOINT4:0.543397,0.366478,0.000000,0.755257 WAIST:0.997526,0.000000,-0.061261,0.034480 WAIST_JOINT0:0.996723,0.000000,-0.077874,0.021886 WAIST_JOINT1:0.998741,0.050123,-0.000000,0.002228 END:
KINECT_DATA_Sensor  AnkleLeft:0.039388,0.859126,-0.224338,-0.458283 AnkleRight:0.751031,-0.055582,0.376925,0.539250 ElbowLeft:-0.090739,0.908320,-0.177769,-0.367585 ElbowRight:-0.005546,0.824234,0.083813,0.559985 FootLeft:0.000000,0.000000,0.000000,0.000000 FootRight:0.000000,0.000000,0.000000,0.000000 HandLeft:-0.299621,0.801894,-0.079535,0.510753 HandRight:-0.328795,0.819688,0.032325,-0.467933 HandTipLeft:0.000000,0.000000,0.000000,0.000000 HandTipRight:0.000000,0.000000,0.000000,0.000000 Head:0.000000,0.000000,0.000000,0.000000 HipLeft:0.166232,-0.649756,0.711550,-0.209478 HipRight:-0.103497,0.716245,0.678890,-0.124052 KneeLeft:-0.137365,0.737198,-0.103679,-0.653391 KneeRight:0.008667,0.162456,-0.038782,0.985915 Neck:0.078024,0.038867,0.994033,-0.065573 ShoulderLeft:-0.068513,0.777579,-0.611003,0.131730 ShoulderRight:0.029413,0.806825,0.590020,-0.006639 SpineBase:0.060380,0.038320,0.997090,-0.026406 SpineMid:0.069866,0.038067,0.996470,-0.026769 SpineShoulder:0.078880,0.038723,0.995078,-0.045813 ThumbLeft:0.000000,0.000000,0.000000,0.000000 ThumbRight:0.000000,0.000000,0.000000,0.000000 WristLeft:-0.220041,0.824100,-0.083165,0.515292 WristRight:-0.213122,0.857744,0.071641,-0.462301 END:
KINECT_DATA POSITION:32.595528,29.842604,-53.652023 HEAD_JOINT1:0.975268,0.164641,-0.000000,0.147467 LARM_JOINT2:0.820365,0.000000,-0.050205,-0.569632 LARM_JOINT3:0.947159,0.000000,-0.272506,-0.169204 LLEG_JOINT2:0.990245,-0.000035,0.000000,0.139340 LLEG_JOINT4:0.994168,0.103699,0.000000,-0.029624 RARM_JOINT2:0.786500,0.000000,0.025879,0.617048 RARM_JOINT3:0.948144,0.000000,0.275368,0.158731 RLEG_JOINT2:0.997083,-0.044823,-0.000000,-0.061783 RLEG_JOINT4:0.492852,0.397462,0.000000,0.774029 WAIST:0.996866,0.000000,-0.066563,0.042749 WAIST_JOINT0:0.996443,0.000000,-0.081947,0.019644 WAIST_JOINT1:0.998773,0.049510,-0.000000,0.001058 END:
KINECT_DATA_Sensor  AnkleLeft:-0.042538,0.736152,-0.179044,-0.651317 AnkleRight:0.758222,-0.054385,0.387426,0.521577 ElbowLeft:-0.099231,0.908249,-0.194944,-0.356699 ElbowRight:-0.007570,0.817480,0.081630,0.570093 FootLeft:0.000000,0.000000,0.000000,0.000000 FootRight:0.000000,0.000000,0.000000,0.000000 HandLeft:-0.135436,0.380154,-0.248476,0.880568 HandRight:0.260232,-0.357477,-0.204883,0.873219 HandTipLeft:0.000000,0.000000,0.000000,0.000000 HandTipRight:0.000000,0.000000,0.000000,0.000000 Head:0.000000,0.000000,0.000000,0.000000 HipLeft:0.169331,-0.642236,0.715845,-0.215466 HipRight:-0.100344,0.722624,0.673603,-0.118345 KneeLeft:-0.134715,0.740509,-0.121589,-0.647081 KneeRight:-0.030868,0.167804,-0.034276,0.984741 Neck:0.082663,0.045731,0.993377,-0.065407 ShoulderLeft:-0.070999,0.778824,-0.608373,0.135185 ShoulderRight:0.032832,0.805031,0.592313,-0.003501 SpineBase:0.065469,0.047324,0.996379,-0.026502 SpineMid:0.074927,0.047071,0.995713,-0.026950 SpineShoulder:0.083726,0.046205,0.994386,-0.045283 ThumbLeft:0.000000,0.000000,0.000000,0.000000 ThumbRight:0.000000,0.000000,0.000000,0.000000 WristLeft:-0.114987,0.384986,-0.196482,0.894404 WristRight:0.121442,-0.386716,-0.195778,0.892958 END:
KINECT_DATA POSITION:43.390446,29.528189,-53.074600 HEAD_JOINT1:0.974488,0.158744,-0.000000,0.158663 LARM_JOINT2:0.832775,0.000000,-0.048197,-0.551510 LARM_JOINT3:0.942325,0.000000,-0.272767,-0.193964 LLEG_JOINT2:0.995616,0.029288,0.000000,0.088832 LLEG_JOINT4:0.994696,0.084335,0.000000,-0.058879 RARM_JOINT2:0.777333,0.000000,0.002171,0.629086 RARM_JOINT3:0.946333,0.000000,0.268487,0.179912 RLEG_JOINT2:0.995831,-0.057969,-0.000000,-0.070430 RLEG_JOINT4:0.390852,0.504527,0.000000,0.769861 WAIST:0.992373,0.000000,-0.121591,0.020301 WAIST_JOINT0:0.989943,0.000000,-0.141363,-0.005421 WAIST_JOINT1:0.999031,0.042314,0.000000,-0.012116 END:
KINECT_DATA_Sensor  AnkleLeft:0.034307,0.787063,-0.120845,-0.603947 AnkleRight:0.771000,-0.071936,0.443696,0.451131 ElbowLeft:-0.100973,0.941409,-0.178736,-0.267595 ElbowRight:-0.001278,0.781689,0.105752,0.614635 FootLeft:0.000000,0.000000,0.000000,0.000000 FootRight:0.000000,0.000000,0.000000,0.000000 HandLeft:-0.153310,0.130221,-0.292529,0.934861 HandRight:0.259559,-0.516456,-0.140954,0.803762 HandTipLeft:0.000000,0.000000,0.000000,0.000000 HandTipRight:0.000000,0.000000,0.000000,0.000000 Head:0.000000,0.000000,0.000000,0.000000 HipLeft:0.216721,-0.648846,0.688731,-0.240166 HipRight:-0.060811,0.712603,0.693736,-0.085022 KneeLeft:-0.065971,0.784269,-0.092246,-0.609968 KneeRight:-0.068360,0.165903,-0.030694,0.983291 Neck:0.140450,0.012521,0.988258,-0.058842 ShoulderLeft:-0.112244,0.793904,-0.571347,0.175161 ShoulderRight:0.064748,0.797780,0.597548,0.047865 SpineBase:0.120952,0.013006,0.992352,-0.020959 SpineMid:0.130916,0.012795,0.991087,-0.021089 SpineShoulder:0.140886,0.012513,0.989183,-0.038870 ThumbLeft:0.000000,0.000000,0.000000,0.000000 ThumbRight:0.000000,0.000000,0.000000,0.000000 WristLeft:-0.111172,0.135809,-0.191108,0.965751 WristRight:0.121897,-0.537228,-0.193360,0.811874 END:
KINECT_DATA POSITION:51.559139,29.852728,-53.112518 HEAD_JOINT1:0.976776,0.127665,-0.000000,0.172074 LARM_JOINT2:0.842716,0.000000,-0.052009,-0.535841 LARM_JOINT3:0.943281,0.000000,-0.255766,-0.211671 LLEG_JOINT2:0.997836,0.035919,0.000000,0.055068 LLEG_JOINT4:0.995371,0.072062,0.000000,-0.063586 RARM_JOINT2:0.759444,0.000000,-0.008702,0.650515 RARM_JOINT3:0.940499,0.000000,0.274747,0.199941 RLEG_JOINT2:0.994464,-0.054328,-0.000000,-0.089946 RLEG_JOINT4:0.994149,0.105126,0.000000,0.024816 WAIST:0.987342,0.000000,-0.158383,0.008399 WAIST_JOINT0:0.982697,0.000000,-0.184762,-0.013048 WAIST_JOINT1:0.998569,0.050554,0.000000,-0.017439 END:
KINECT_DATA_Sensor  AnkleLeft:0.066608,0.817351,-0.086188,-0.565749 AnkleRight:0.009780,0.587010,0.076100,0.805936 ElbowLeft:-0.101800,0.955829,-0.179459,-0.209335 ElbowRight:0.025343,0.783809,0.100776,0.612246 FootLeft:0.000000,0.000000,0.000000,0.000000 FootRight:0.000000,0.000000,0.000000,0.000000 HandLeft:-0.188645,0.128947,-0.218288,0.948755 HandRight:0.205411,-0.270192,-0.214207,0.915925 HandTipLeft:0.000000,0.000000,0.000000,0.000000 HandTipRight:0.000000,0.000000,0.000000,0.000000 Head:0.000000,0.000000,0.000000,0.000000 HipLeft:0.237227,-0.647830,0.673872,-0.264454 HipRight:-0.025899,0.707055,0.703487,-0.067145 KneeLeft:-0.029336,0.809141,-0.067369,-0.583002 KneeRight:-0.090918,0.581104,0.034891,0.807982 Neck:0.183566,-0.002055,0.980650,-0.068004 ShoulderLeft:-0.124018,0.786417,-0.568316,0.207812 ShoulderRight:0.108128,0.785043,0.604296,0.082719 SpineBase:0.157640,-0.001553,0.987048,-0.029735 SpineMid:0.170589,-0.001944,0.984892,-0.029712 SpineShoulder:0.183802,-0.002269,0.981803,-0.047691 ThumbLeft:0.000000,0.000000,0.000000,0.000000 ThumbRight:0.000000,0.000000,0.000000,0.000000 WristLeft:-0.123233,0.139249,-0.165690,0.968489 WristRight:0.093506,-0.295089,-0.220581,0.924945 END:
KINECT_DATA POSITION:53.830303,29.970459,-53.038906 HEAD_JOINT1:0.976110,0.137311,-0.000000,0.168391 LARM_JOINT2:0.848597,0.000000,-0.052444,-0.526433 LARM_JOINT3:0.946116,0.000000,-0.246093,-0.210483 LLEG_JOINT2:0.998124,0.034084,0.000000,0.050862 LLEG_JOINT4:0.994105,0.071855,0.000000,-0.081189 RARM_JOINT2:0.740194,0.000000,-0.025042,0.671927 RARM_JOINT3:0.944288,0.000000,0.277165,0.177481 RLEG_JOINT2:0.995997,-0.034556,-0.000000,-0.082438 RLEG_JOINT4:0.997509,0.051988,0.000000,-0.047672 WAIST:0.985142,0.000000,-0.171637,0.005978 WAIST_JOINT0:0.981263,0.000000,-0.192231,-0.013070 WAIST_JOINT1:0.998643,0.043939,0.000000,-0.027968 END:
KINECT_DATA_Sensor  AnkleLeft:0.083329,0.823829,-0.070866,-0.556184 AnkleRight:-0.003084,0.859744,0.125195,0.495133 ElbowLeft:-0.107714,0.960956,-0.173802,-0.186427 ElbowRight:0.032526,0.743305,0.088647,0.662255 FootLeft:0.000000,0.000000,0.000000,0.000000 FootRight:0.000000,0.000000,0.000000,0.000000 HandLeft:-0.182378,0.085342,-0.224736,0.953388 HandRight:-0.293845,0.849163,-0.008349,-0.438757 HandTipLeft:0.000000,0.000000,0.000000,0.000000 HandTipRight:0.000000,0.000000,0.000000,0.000000 Head:0.000000,0.000000,0.000000,0.000000 HipLeft:0.251236,-0.648398,0.667069,-0.267356 HipRight:-0.017178,0.706328,0.705253,-0.058516 KneeLeft:-0.026083,0.817325,-0.061414,-0.572301 KneeRight:-0.071480,0.573077,0.043338,0.815227 Neck:0.193144,-0.014804,0.979063,-0.062543 ShoulderLeft:-0.143213,0.791548,-0.553023,0.217041 ShoulderRight:0.101217,0.784495,0.605354,0.088715 SpineBase:0.170786,-0.013185,0.984862,-0.026547 SpineMid:0.181762,-0.013480,0.982896,-0.026398 SpineShoulder:0.193110,-0.015212,0.980116,-0.043003 ThumbLeft:0.000000,0.000000,0.000000,0.000000 ThumbRight:0.000000,0.000000,0.000000,0.000000 WristLeft:-0.117755,0.094909,-0.165503,0.974543 WristRight:-0.215815,0.884486,0.100938,-0.401148 END:
KINECT_DATA POSITION:53.713577,29.961637,-53.293800 HEAD_JOINT1:0.979093,0.136413,-0.000000,0.150895 LARM_JOINT2:0.840988,0.000000,-0.056907,-0.538052 LARM_JOINT3:0.947954,0.000000,-0.231662,-0.218440 LLEG_JOINT2:0.997942,0.032836,0.000000,0.055078 LLEG_JOINT4:0.994096,0.073765,0.000000,-0.079578 RARM_JOINT2:0.748245,0.000000,-0.019076,0.663148 RARM_JOINT3:0.944421,0.000000,0.291563,0.151853 RLEG_JOINT2:0.994547,-0.033621,-0.000000,-0.098726 RLEG_JOINT4:0.996490,0.082387,0.000000,-0.014859 WAIST:0.985569,0.000000,-0.169226,0.003938 WAIST_JOINT0:0.981848,0.000000,-0.188887,-0.017236 WAIST_JOINT1:0.998631,0.045946,0.000000,-0.025004 END:
KINECT_DATA_Sensor  AnkleLeft:0.080541,0.821809,-0.073290,-0.559260 AnkleRight:0.021254,0.823503,0.117944,0.554508 ElbowLeft:-0.101221,0.963830,-0.162573,-0.185353 ElbowRight:0.024963,0.739894,0.098149,0.665057 FootLeft:0.000000,0.000000,0.000000,0.000000 FootRight:0.000000,0.000000,0.000000,0.000000 HandLeft:-0.233665,0.115251,-0.164087,0.951416 HandRight:0.129212,-0.435777,-0.233393,0.859611 HandTipLeft:0.000000,0.000000,0.000000,0.000000 HandTipRight:0.000000,0.000000,0.000000,0.000000 Head:0.000000,0.000000,0.000000,0.000000 HipLeft:0.249594,-0.650296,0.666380,-0.266001 HipRight:-0.017569,0.704804,0.706595,-0.060556 KneeLeft:-0.028666,0.815887,-0.061447,-0.574222 KneeRight:-0.081705,0.573834,0.058394,0.812791 Neck:0.189054,-0.012781,0.979761,-0.064525 ShoulderLeft:-0.136116,0.790852,-0.557541,0.212539 ShoulderRight:0.103401,0.781782,0.608893,0.085873 SpineBase:0.168397,-0.015292,0.985224,-0.027252 SpineMid:0.178434,-0.015569,0.983456,-0.027095 SpineShoulder:0.188966,-0.014325,0.980878,-0.044321 ThumbLeft:0.000000,0.000000,0.000000,0.000000 ThumbRight:0.000000,0.000000,0.000000,0.000000 WristLeft:-0.120364,0.133986,-0.152203,0.971800 WristRight:0.096496,-0.444258,-0.220904,0.862858 END:
KINECT_DATA POSITION:47.866989,29.639688,-54.045856 HEAD_JOINT1:0.972983,0.145785,-0.000000,0.179025 LARM_JOINT2:0.841371,0.000000,-0.051481,-0.538000 LARM_JOINT3:0.945502,0.000000,-0.247337,-0.211781 LLEG_JOINT2:0.995073,0.033216,0.000000,0.093416 LLEG_JOINT4:0.992788,0.075436,0.000000,-0.093177 RARM_JOINT2:0.766275,0.000000,-0.006992,0.642474 RARM_JOINT3:0.939825,0.000000,0.299125,0.165085 RLEG_JOINT2:0.992543,-0.044327,-0.000000,-0.113546 RLEG_JOINT4:0.996481,0.067027,0.000000,-0.050336 WAIST:0.988793,0.000000,-0.148860,0.011369 WAIST_JOINT0:0.986305,0.000000,-0.164361,-0.013690 WAIST_JOINT1:0.998699,0.046141,0.000000,-0.021693 END:
KINECT_DATA_Sensor  AnkleLeft:0.058137,0.805730,-0.093587,-0.581946 AnkleRight:0.000106,0.883154,0.153929,0.443109 ElbowLeft:-0.102780,0.952096,-0.174571,-0.229072 ElbowRight:0.008137,0.749007,0.110957,0.653155 FootLeft:0.000000,0.000000,0.000000,0.000000 FootRight:0.000000,0.000000,0.000000,0.000000 HandLeft:-0.158951,-0.234732,-0.279920,0.917213 HandRight:0.172364,-0.380991,-0.223310,0.880494 HandTipLeft:0.000000,0.000000,0.000000,0.000000 HandTipRight:0.000000,0.000000,0.000000,0.000000 Head:0.000000,0.000000,0.000000,0.000000 HipLeft:0.234095,-0.649717,0.677030,-0.254360 HipRight:-0.034819,0.708338,0.701283,-0.072437 KneeLeft:-0.063102,0.801528,-0.090423,-0.587703 KneeRight:-0.095254,0.588128,0.056807,0.801128 Neck:0.165696,-0.003733,0.984081,-0.064146 ShoulderLeft:-0.126177,0.796327,-0.557464,0.197931 ShoulderRight:0.083516,0.788160,0.606465,0.063476 SpineBase:0.148020,-0.004373,0.988632,-0.026018 SpineMid:0.156795,-0.004604,0.987279,-0.025978 SpineShoulder:0.165836,-0.004220,0.985169,-0.043847 ThumbLeft:0.000000,0.000000,0.000000,0.000000 ThumbRight:0.000000,0.000000,0.000000,0.000000 WristLeft:-0.034137,-0.205190,-0.193720,0.958751 WristRight:0.083072,-0.400821,-0.238887,0.880554 END:
KINECT_DATA POSITION:35.899269,29.117085,-53.805374 HEAD_JOINT1:0.974566,0.164156,-0.000000,0.152558 LARM_JOINT2:0.835959,0.000000,-0.050638,-0.546450 LARM_JOINT3:0.946655,0.000000,-0.252190,-0.200612 LLEG_JOINT2:0.992796,0.016668,0.000000,0.118655 LLEG_JOINT4:0.995036,0.095134,0.000000,-0.029213 RARM_JOINT2:0.767811,0.000000,-0.003298,0.640668 RARM_JOINT3:0.945491,0.000000,0.290411,0.147339 RLEG_JOINT2:0.995033,-0.049356,-0.000000,-0.086443 RLEG_JOINT4:0.997289,0.052230,0.000000,-0.051836 WAIST:0.993594,0.000000,-0.108085,0.033007 WAIST_JOINT0:0.991092,0.000000,-0.133141,0.003274 WAIST_JOINT1:0.999177,0.037964,0.000000,-0.014294 END:
KINECT_DATA_Sensor  AnkleLeft:-0.021064,0.767171,-0.165380,-0.619399 AnkleRight:-0.016208,0.899965,0.104186,0.423019 ElbowLeft:-0.114181,0.929696,-0.189477,-0.294492 ElbowRight:0.008626,0.788185,0.083285,0.609717 FootLeft:0.000000,0.000000,0.000000,0.000000 FootRight:0.000000,0.000000,0.000000,0.000000 HandLeft:-0.221208,0.095681,-0.236552,0.941252 HandRight:0.138988,-0.366001,-0.237538,0.888989 HandTipLeft:0.000000,0.000000,0.000000,0.000000 HandTipRight:0.000000,0.000000,0.000000,0.000000 Head:0.000000,0.000000,0.000000,0.000000 HipLeft:0.207039,-0.644431,0.699834,-0.228202 HipRight:-0.075530,0.719915,0.683822,-0.091679 KneeLeft:-0.104941,0.771500,-0.110667,-0.617679 KneeRight:-0.069387,0.621772,0.013021,0.780010 Neck:0.132416,0.021334,0.989444,-0.054874 ShoulderLeft:-0.111875,0.789379,-0.579664,0.168386 ShoulderRight:0.055067,0.801590,0.593813,0.042507 SpineBase:0.107337,0.022901,0.993813,-0.017063 SpineMid:0.120224,0.022678,0.992336,-0.017359 SpineShoulder:0.133044,0.021999,0.990247,-0.035030 ThumbLeft:0.000000,0.000000,0.000000,0.000000 ThumbRight:0.000000,0.000000,0.000000,0.000000 WristLeft:-0.057563,0.133489,-0.201388,0.968664 WristRight:0.121910,-0.370335,-0.224569,0.893061 END:
KINECT_DATA POSITION:25.179403,29.625570,-53.800617 HEAD_JOINT1:0.974697,0.178845,-0.000000,0.134090 LARM_JOINT2:0.813195,0.000000,-0.045551,-0.580205 LARM_JOINT3:0.929258,0.000000,-0.305032,-0.208411 LLEG_JOINT2:0.994349,-0.026404,0.000000,0.102823 LLEG_JOINT4:0.993063,0.115446,0.000000,-0.022325 RARM_JOINT2:0.809622,0.000000,0.024630,0.586435 RARM_JOINT3:0.954850,0.000000,0.251078,0.158809 RLEG_JOINT2:0.996486,-0.057438,-0.000000,-0.060965 RLEG_JOINT4:0.988290,0.115479,0.000000,-0.099736 WAIST:0.996787,0.000000,-0.057152,0.056127 WAIST_JOINT0:0.997190,0.000000,-0.069264,0.028537 WAIST_JOINT1:0.999075,0.042976,-0.000000,0.001150 END:
KINECT_DATA_Sensor  AnkleLeft:-0.037685,0.737673,-0.158765,-0.655142 AnkleRight:0.004494,0.805605,0.121227,0.579900 ElbowLeft:-0.104245,0.894551,-0.193436,-0.389223 ElbowRight:-0.019954,0.851351,0.101728,0.514252 FootLeft:0.000000,0.000000,0.000000,0.000000 FootRight:0.000000,0.000000,0.000000,0.000000 HandLeft:-0.010467,-0.494267,-0.356480,0.792788 HandRight:0.176553,-0.380644,-0.196172,0.886259 HandTipLeft:0.000000,0.000000,0.000000,0.000000 HandTipRight:0.000000,0.000000,0.000000,0.000000 Head:0.000000,0.000000,0.000000,0.000000 HipLeft:0.160924,-0.636968,0.725826,-0.203841 HipRight:-0.112534,0.731354,0.662042,-0.118985 KneeLeft:-0.133854,0.736368,-0.087771,-0.657374 KneeRight:-0.043635,0.659241,-0.032451,0.749963 Neck:0.068270,0.058324,0.994233,-0.058637 ShoulderLeft:-0.071744,0.777463,-0.612473,0.123617 ShoulderRight:0.012932,0.815679,0.578230,-0.012262 SpineBase:0.056027,0.060224,0.996397,-0.020665 SpineMid:0.063226,0.060073,0.995966,-0.021099 SpineShoulder:0.069559,0.059275,0.995058,-0.038824 ThumbLeft:0.000000,0.000000,0.000000,0.000000 ThumbRight:0.000000,0.000000,0.000000,0.000000 WristLeft:0.094489,-0.458127,-0.235773,0.851823 WristRight:0.123687,-0.391837,-0.178914,0.893955 END:
KINECT_DATA POSITION:20.573536,29.190182,-52.666664 HEAD_JOINT1:0.972138,0.182186,-0.000000,0.147498 LARM_JOINT2:0.818907,0.000000,-0.031406,-0.573066 LARM_JOINT3:0.932131,0.000000,-0.294362,-0.210909 LLEG_JOINT2:0.999715,-0.016220,0.000000,0.017526 LLEG_JOINT4:0.982678,0.012792,0.000000,0.184880 RARM_JOINT2:0.801821,0.000000,0.021098,0.597191 RARM_JOINT3:0.947247,0.000000,0.276458,0.162154 RLEG_JOINT2:0.998222,-0.053614,-0.000000,-0.026045 RLEG_JOINT4:0.991605,0.125400,0.000000,0.031530 WAIST:0.996151,0.000000,-0.052553,0.070158 WAIST_JOINT0:0.997834,0.000000,-0.049271,0.043580 WAIST_JOINT1:0.999279,0.036654,0.000000,-0.009918 END:
KINECT_DATA_Sensor  AnkleLeft:-0.094055,0.932060,-0.253278,-0.241389 AnkleRight:0.104928,0.470905,0.020279,0.875687 ElbowLeft:-0.104666,0.889742,-0.207624,-0.392806 ElbowRight:-0.018925,0.835944,0.085398,0.541799 FootLeft:0.000000,0.000000,0.000000,0.000000 FootRight:0.000000,0.000000,0.000000,0.000000 HandLeft:-0.060959,-0.271793,-0.304702,0.910807 HandRight:0.239745,-0.322891,-0.238446,0.883972 HandTipLeft:0.000000,0.000000,0.000000,0.000000 HandTipRight:0.000000,0.000000,0.000000,0.000000 Head:0.000000,0.000000,0.000000,0.000000 HipLeft:0.161671,-0.629901,0.734101,-0.195405 HipRight:-0.120687,0.739842,0.650698,-0.121078 KneeLeft:-0.073451,0.740767,-0.049205,-0.665919 KneeRight:-0.007590,0.664397,-0.065982,0.744422 Neck:0.047442,0.061331,0.995648,-0.051705 ShoulderLeft:-0.065820,0.778151,-0.615939,0.103769 ShoulderRight:-0.008657,0.831021,0.555741,-0.021933 SpineBase:0.051396,0.063422,0.996548,-0.015098 SpineMid:0.050632,0.063433,0.996587,-0.015049 SpineShoulder:0.048739,0.062488,0.996335,-0.032199 ThumbLeft:0.000000,0.000000,0.000000,0.000000 ThumbRight:0.000000,0.000000,0.000000,0.000000 WristLeft:0.047017,-0.236586,-0.245873,0.938809 WristRight:0.123789,-0.351086,-0.200638,0.906178 END:
KINECT_DATA POSITION:18.885563,28.718794,-51.853405 HEAD_JOINT1:0.974217,0.172479,-0.000000,0.145441 LARM_JOINT2:0.818560,0.000000,-0.034861,-0.573363 LARM_JOINT3:0.941277,0.000000,-0.277543,-0.192271 LLEG_JOINT2:0.999877,-0.014454,0.000000,0.006112 LLEG_JOINT4:0.983666,0.022187,0.000000,0.178632 RARM_JOINT2:0.792785,0.000000,0.006630,0.609466 RARM_JOINT3:0.944500,0.000000,0.269451,0.187928 RLEG_JOINT2:0.998655,-0.047886,-0.000000,-0.019899 RLEG_JOINT4:0.987711,0.151837,0.000000,0.037056 WAIST:0.996512,0.000000,-0.042476,0.071832 WAIST_JOINT0:0.997998,0.000000,-0.044286,0.045160 WAIST_JOINT1:0.999438,0.031306,0.000000,-0.011985 END:
KINECT_DATA_Sensor  AnkleLeft:-0.083716,0.925350,-0.240772,-0.280622 AnkleRight:0.133943,0.498243,0.037583,0.855804 ElbowLeft:-0.107163,0.890832,-0.204946,-0.391065 ElbowRight:-0.007270,0.844511,0.075208,0.530181 FootLeft:0.000000,0.000000,0.000000,0.000000 FootRight:0.000000,0.000000,0.000000,0.000000 HandLeft:-0.118797,0.061578,-0.292487,0.946862 HandRight:0.275683,-0.317348,-0.162232,0.892732 HandTipLeft:0.000000,0.000000,0.000000,0.000000 HandTipRight:0.000000,0.000000,0.000000,0.000000 Head:0.000000,0.000000,0.000000,0.000000 HipLeft:0.159571,-0.631128,0.736116,-0.185333 HipRight:-0.129973,0.739765,0.648343,-0.124524 KneeLeft:-0.065053,0.734615,-0.044253,-0.673907 KneeRight:0.002104,0.672447,-0.068409,0.736974 Neck:0.042845,0.060380,0.996169,-0.046535 ShoulderLeft:-0.068637,0.779642,-0.614669,0.098128 ShoulderRight:-0.017370,0.832969,0.552563,-0.023135 SpineBase:0.041704,0.061919,0.997162,-0.009700 SpineMid:0.043398,0.061903,0.997090,-0.009805 SpineShoulder:0.044078,0.061281,0.996775,-0.027237 ThumbLeft:0.000000,0.000000,0.000000,0.000000 ThumbRight:0.000000,0.000000,0.000000,0.000000 WristLeft:-0.021716,0.091123,-0.237220,0.966929 WristRight:0.156145,-0.343513,-0.203041,0.903544 END:
KINECT_DATA POSITION:18.951111,28.686752,-51.594437 HEAD_JOINT1:0.973480,0.170859,-0.000000,0.152133 LARM_JOINT2:0.818613,0.000000,-0.033426,-0.573372 LARM_JOINT3:0.939503,0.000000,-0.297903,-0.169079 LLEG_JOINT2:0.999766,-0.017854,0.000000,0.012226 LLEG_JOINT4:0.982141,0.036208,0.000000,0.184630 RARM_JOINT2:0.796071,0.000000,0.000177,0.605204 RARM_JOINT3:0.952520,0.000000,0.250378,0.173250 RLEG_JOINT2:0.998917,-0.042614,-0.000000,-0.018669 RLEG_JOINT4:0.987349,0.151751,0.000000,0.045970 WAIST:0.996146,0.000000,-0.047659,0.073633 WAIST_JOINT0:0.997811,0.000000,-0.047592,0.045920 WAIST_JOINT1:0.999533,0.028132,0.000000,-0.011929 END:
KINECT_DATA_Sensor  AnkleLeft:-0.078639,0.923828,-0.257309,-0.272306 AnkleRight:0.145236,0.453115,0.041502,0.878562 ElbowLeft:-0.113088,0.887299,-0.203870,-0.397930 ElbowRight:-0.006167,0.842596,0.079554,0.532602 FootLeft:0.000000,0.000000,0.000000,0.000000 FootRight:0.000000,0.000000,0.000000,0.000000 HandLeft:0.031477,-0.180633,-0.383800,0.905029 HandRight:0.230040,-0.366531,-0.151750,0.888655 HandTipLeft:0.000000,0.000000,0.000000,0.000000 HandTipRight:0.000000,0.000000,0.000000,0.000000 Head:0.000000,0.000000,0.000000,0.000000 HipLeft:0.164933,-0.629460,0.735900,-0.187157 HipRight:-0.130104,0.741679,0.647025,-0.119765 KneeLeft:-0.073085,0.737726,-0.047025,-0.669483 KneeRight:0.008023,0.668857,-0.066813,0.740339 Neck:0.045798,0.062614,0.996094,-0.042180 ShoulderLeft:-0.072734,0.780953,-0.612446,0.098654 ShoulderRight:-0.018055,0.835816,0.548397,-0.018597 SpineBase:0.047145,0.063756,0.996830,-0.006493 SpineMid:0.047603,0.063753,0.996808,-0.006522 SpineShoulder:0.046954,0.063154,0.996602,-0.024324 ThumbLeft:0.000000,0.000000,0.000000,0.000000 ThumbRight:0.000000,0.000000,0.000000,0.000000 WristLeft:0.047429,-0.175906,-0.242754,0.952827 WristRight:0.143775,-0.384425,-0.182825,0.893376 END:
KINECT_DATA POSITION:22.058037,29.042643,-51.574181 HEAD_JOINT1:0.974585,0.154781,-0.000000,0.161950 LARM_JOINT2:0.820895,0.000000,-0.042957,-0.569462 LARM_JOINT3:0.945623,0.000000,-0.286314,-0.154344 LLEG_JOINT2:0.997015,-0.033192,0.000000,0.069714 LLEG_JOINT4:0.995248,0.084582,0.000000,0.048253 RARM_JOINT2:0.785470,0.000000,0.005274,0.618877 RARM_JOINT3:0.947822,0.000000,0.261610,0.182190 RLEG_JOINT2:0.998469,-0.032581,-0.000000,-0.044707 RLEG_JOINT4:0.972811,0.194810,0.000000,0.125254 WAIST:0.995836,0.000000,-0.062654,0.066217 WAIST_JOINT0:0.996671,0.000000,-0.074506,0.033099 WAIST_JOINT1:0.999341,0.026998,0.000000,-0.024243 END:
KINECT_DATA_Sensor  AnkleLeft:-0.033725,0.920802,-0.187840,-0.340150 AnkleRight:0.214921,0.449216,0.055393,0.865417 ElbowLeft:-0.118209,0.891050,-0.182949,-0.398228 ElbowRight:-0.011725,0.821781,0.079678,0.564083 FootLeft:0.000000,0.000000,0.000000,0.000000 FootRight:0.000000,0.000000,0.000000,0.000000 HandLeft:-0.145527,0.365552,-0.287805,0.873133 HandRight:0.298758,-0.415175,-0.143110,0.847286 HandTipLeft:0.000000,0.000000,0.000000,0.000000 HandTipRight:0.000000,0.000000,0.000000,0.000000 Head:0.000000,0.000000,0.000000,0.000000 HipLeft:0.177751,-0.633570,0.728033,-0.192254 HipRight:-0.114684,0.738589,0.654626,-0.113127 KneeLeft:-0.121035,0.741896,-0.067356,-0.656052 KneeRight:-0.006446,0.644435,-0.034923,0.763834 Neck:0.074067,0.041894,0.995427,-0.043399 ShoulderLeft:-0.084106,0.786159,-0.601102,0.116435 ShoulderRight:0.007351,0.824231,0.566171,0.006333 SpineBase:0.062093,0.046097,0.996979,-0.007258 SpineMid:0.068853,0.046046,0.996535,-0.007570 SpineShoulder:0.075021,0.043776,0.995922,-0.024401 ThumbLeft:0.000000,0.000000,0.000000,0.000000 ThumbRight:0.000000,0.000000,0.000000,0.000000 WristLeft:-0.113563,0.375568,-0.232553,0.889928 WristRight:0.140438,-0.442341,-0.191085,0.864926 END:
KINECT_DATA POSITION:27.898069,29.076077,-50.328098 HEAD_JOINT1:0.976103,0.151022,-0.000000,0.156255 LARM_JOINT2:0.826876,0.000000,-0.043785,-0.560678 LARM_JOINT3:0.952809,0.000000,-0.257167,-0.161311 LLEG_JOINT2:0.996699,0.006530,0.000000,0.080925 LLEG_JOINT4:0.978725,0.199487,0.000000,0.047988 RARM_JOINT2:0.755341,0.000000,-0.008226,0.655281 RARM_JOINT3:0.948320,0.000000,0.271670,0.163963 RLEG_JOINT2:0.998871,-0.018163,-0.000000,-0.043887 RLEG_JOINT4:0.969678,0.189267,0.000000,0.154605 WAIST:0.995385,0.000000,-0.090593,0.031657 WAIST_JOINT0:0.993031,0.000000,-0.117782,0.004104 WAIST_JOINT1:0.999544,0.021069,0.000000,-0.021612 END:
KINECT_DATA_Sensor  AnkleLeft:0.060216,0.833555,-0.253435,-0.487166 AnkleRight:0.225170,0.607748,0.006638,0.761509 ElbowLeft:-0.111271,0.922159,-0.162927,-0.332711 ElbowRight:-0.001668,0.786661,0.067808,0.613648 FootLeft:0.000000,0.000000,0.000000,0.000000 FootRight:0.000000,0.000000,0.000000,0.000000 HandLeft:-0.095240,0.248972,-0.281622,0.921754 HandRight:0.282336,-0.480179,-0.154476,0.815998 HandTipLeft:0.000000,0.000000,0.000000,0.000000 HandTipRight:0.000000,0.000000,0.000000,0.000000 Head:0.000000,0.000000,0.000000,0.000000 HipLeft:0.205528,-0.653436,0.699510,-0.203633 HipRight:-0.096101,0.718358,0.682170,-0.096801 KneeLeft:-0.080217,0.763882,-0.079159,-0.635439 KneeRight:-0.019609,0.589072,-0.001539,0.807841 Neck:0.116959,0.010239,0.992374,-0.037538 ShoulderLeft:-0.115259,0.799716,-0.571017,0.145290 ShoulderRight:0.031162,0.807819,0.587042,0.042879 SpineBase:0.090535,0.013336,0.995802,-0.001896 SpineMid:0.103843,0.013310,0.994503,-0.002074 SpineShoulder:0.117332,0.011775,0.992847,-0.018673 ThumbLeft:0.000000,0.000000,0.000000,0.000000 ThumbRight:0.000000,0.000000,0.000000,0.000000 WristLeft:-0.112764,0.240200,-0.211828,0.940594 WristRight:0.149985,-0.505147,-0.200184,0.825989 END:
KINECT_DATA POSITION:34.964394,29.222134,-50.357864 HEAD_JOINT1:0.975687,0.142441,-0.000000,0.166569 LARM_JOINT2:0.831349,0.000000,-0.062867,-0.552183 LARM_JOINT3:0.953802,0.000000,-0.243667,-0.175749 LLEG_JOINT2:0.997679,0.007679,0.000000,0.067658 LLEG_JOINT4:0.978134,0.206638,0.000000,0.023553 RARM_JOINT2:0.753786,0.000000,0.003955,0.657108 RARM_JOINT3:0.945409,0.000000,0.274752,0.175255 RLEG_JOINT2:0.997090,-0.029967,-0.000000,-0.070096 RLEG_JOINT4:0.463538,0.500591,0.000000,0.731123 WAIST:0.992524,0.000000,-0.120448,0.019699 WAIST_JOINT0:0.988866,0.000000,-0.148492,-0.009666 WAIST_JOINT1:0.999038,0.035581,0.000000,-0.025621 END:
KINECT_DATA_Sensor  AnkleLeft:0.083130,0.837618,-0.226760,-0.489965 AnkleRight:0.759275,-0.068292,0.399654,0.509032 ElbowLeft:-0.110947,0.940314,-0.153996,-0.282465 ElbowRight:-0.001092,0.769062,0.082106,0.633878 FootLeft:0.000000,0.000000,0.000000,0.000000 FootRight:0.000000,0.000000,0.000000,0.000000 HandLeft:-0.141083,0.128490,-0.233290,0.953500 HandRight:0.296557,-0.593894,-0.092357,0.742169 HandTipLeft:0.000000,0.000000,0.000000,0.000000 HandTipRight:0.000000,0.000000,0.000000,0.000000 Head:0.000000,0.000000,0.000000,0.000000 HipLeft:0.220792,-0.652842,0.687148,-0.229947 HipRight:-0.066191,0.711426,0.693872,-0.089633 KneeLeft:-0.062394,0.784246,-0.061675,-0.614216 KneeRight:-0.057444,0.177752,-0.004516,0.982387 Neck:0.147345,-0.003548,0.987642,-0.053297 ShoulderLeft:-0.118460,0.796008,-0.567357,0.174485 ShoulderRight:0.067453,0.793839,0.601427,0.059620 SpineBase:0.119797,-0.000325,0.992671,-0.015925 SpineMid:0.133526,-0.000546,0.990917,-0.015919 SpineShoulder:0.147557,-0.002222,0.988482,-0.033546 ThumbLeft:0.000000,0.000000,0.000000,0.000000 ThumbRight:0.000000,0.000000,0.000000,0.000000 WristLeft:-0.102328,0.135710,-0.199703,0.965003 WristRight:0.163138,-0.615065,-0.194432,0.746510 END:
KINECT_DATA POSITION:38.200645,29.421272,-50.570225 HEAD_JOINT1:0.974310,0.138664,-0.000000,0.177461 LARM_JOINT2:0.843632,0.000000,-0.076384,-0.531460 LARM_JOINT3:0.959960,0.000000,-0.209357,-0.186134 LLEG_JOINT2:0.998287,0.003528,0.000000,0.058397 LLEG_JOINT4:0.977127,0.211140,0.000000,0.025374 RARM_JOINT2:0.753023,0.000000,-0.005226,0.657973 RARM_JOINT3:0.944267,0.000000,0.278074,0.176165 RLEG_JOINT2:0.996676,-0.038754,-0.000000,-0.071660 RLEG_JOINT4:0.448173,0.446373,0.000000,0.774527 WAIST:0.991132,0.000000,-0.132392,0.011391 WAIST_JOINT0:0.986104,0.000000,-0.165489,-0.014575 WAIST_JOINT1:0.998596,0.044337,0.000000,-0.028984 END:
KINECT_DATA_Sensor  AnkleLeft:0.065682,0.786618,-0.225535,-0.571010 AnkleRight:0.758578,-0.116942,0.404963,0.496880 ElbowLeft:-0.110794,0.959408,-0.167789,-0.197758 ElbowRight:0.008269,0.756368,0.097898,0.646727 FootLeft:0.000000,0.000000,0.000000,0.000000 FootRight:0.000000,0.000000,0.000000,0.000000 HandLeft:-0.005003,-0.325377,-0.240588,0.914452 HandRight:0.245376,-0.464774,-0.134381,0.840070 HandTipLeft:0.000000,0.000000,0.000000,0.000000 HandTipRight:0.000000,0.000000,0.000000,0.000000 Head:0.000000,0.000000,0.000000,0.000000 HipLeft:0.225565,-0.654588,0.680206,-0.240739 HipRight:-0.050092,0.706181,0.700695,-0.088463 KneeLeft:-0.052329,0.792118,-0.046262,-0.606359 KneeRight:-0.070075,0.127617,-0.011193,0.989282 Neck:0.164442,-0.014000,0.984297,-0.062624 ShoulderLeft:-0.123999,0.794566,-0.562177,0.192993 ShoulderRight:0.084084,0.789234,0.604526,0.067733 SpineBase:0.131463,-0.010483,0.990961,-0.024562 SpineMid:0.147733,-0.010885,0.988667,-0.024386 SpineShoulder:0.164516,-0.012760,0.985377,-0.042474 ThumbLeft:0.000000,0.000000,0.000000,0.000000 ThumbRight:0.000000,0.000000,0.000000,0.000000 WristLeft:-0.009329,-0.330641,-0.188758,0.924640 WristRight:0.114149,-0.484383,-0.220423,0.838902 END:
KINECT_DATA POSITION:38.294659,29.391253,-50.318039 HEAD_JOINT1:0.976409,0.141838,-0.000000,0.162811 LARM_JOINT2:0.836931,0.000000,-0.076206,-0.541977 LARM_JOINT3:0.953715,0.000000,-0.225694,-0.198722 LLEG_JOINT2:0.998112,0.004424,0.000000,0.061264 LLEG_JOINT4:0.977615,0.208760,0.000000,0.026221 RARM_JOINT2:0.759386,0.000000,-0.005437,0.650618 RARM_JOINT3:0.940922,0.000000,0.298237,0.160377 RLEG_JOINT2:0.996804,-0.041051,-0.000000,-0.068526 RLEG_JOINT4:0.446986,0.439446,0.000000,0.779161 WAIST:0.991896,0.000000,-0.126753,0.008703 WAIST_JOINT0:0.986857,0.000000,-0.160871,-0.015320 WAIST_JOINT1:0.998702,0.044430,0.000000,-0.024894 END:
KINECT_DATA_Sensor  AnkleLeft:0.092524,0.849627,-0.214500,-0.472825 AnkleRight:0.756330,-0.116754,0.409604,0.496547 ElbowLeft:-0.107676,0.955815,-0.156907,-0.224063 ElbowRight:0.004145,0.760598,0.105297,0.640614 FootLeft:0.000000,0.000000,0.000000,0.000000 FootRight:0.000000,0.000000,0.000000,0.000000 HandLeft:-0.213398,0.081802,-0.214987,0.949500 HandRight:0.173578,-0.354500,-0.234970,0.888251 HandTipLeft:0.000000,0.000000,0.000000,0.000000 HandTipRight:0.000000,0.000000,0.000000,0.000000 Head:0.000000,0.000000,0.000000,0.000000 HipLeft:0.222217,-0.657187,0.679692,-0.238209 HipRight:-0.053783,0.703955,0.702288,-0.091363 KneeLeft:-0.051923,0.788766,-0.047091,-0.610683 KneeRight:-0.070519,0.128688,-0.014603,0.989067 Neck:0.159899,-0.012479,0.985108,-0.061964 ShoulderLeft:-0.121189,0.793641,-0.565453,0.188970 ShoulderRight:0.081526,0.787778,0.607193,0.063848 SpineBase:0.125970,-0.010414,0.991683,-0.024245 SpineMid:0.142682,-0.010822,0.989417,-0.024065 SpineShoulder:0.159945,-0.011811,0.986162,-0.041990 ThumbLeft:0.000000,0.000000,0.000000,0.000000 ThumbRight:0.000000,0.000000,0.000000,0.000000 WristLeft:-0.090537,0.106283,-0.171828,0.975183 WristRight:0.084489,-0.375827,-0.235686,0.892226 END:
KINECT_DATA POSITION:33.177536,28.920588,-48.675610 HEAD_JOINT1:0.978340,0.148405,-0.000000,0.144313 LARM_JOINT2:0.834610,0.000000,-0.062312,-0.547306 LARM_JOINT3:0.951452,0.000000,-0.231697,-0.202623 LLEG_JOINT2:0.997645,0.011056,0.000000,0.067697 LLEG_JOINT4:0.979367,0.199341,0.000000,0.033216 RARM_JOINT2:0.760075,0.000000,-0.007239,0.649795 RARM_JOINT3:0.946690,0.000000,0.284815,0.150525 RLEG_JOINT2:0.997540,-0.024846,-0.000000,-0.065556 RLEG_JOINT4:0.512025,0.424832,0.000000,0.746558 WAIST:0.995071,0.000000,-0.096533,0.022705 WAIST_JOINT0:0.990886,0.000000,-0.134519,-0.007043 WAIST_JOINT1:0.999555,0.023397,0.000000,-0.018507 END:
KINECT_DATA_Sensor  AnkleLeft:0.077373,0.826020,-0.231259,-0.508158 AnkleRight:0.748656,-0.073058,0.365440,0.548298 ElbowLeft:-0.120188,0.938663,-0.168325,-0.275922 ElbowRight:-0.006398,0.782577,0.079833,0.617380 FootLeft:0.000000,0.000000,0.000000,0.000000 FootRight:0.000000,0.000000,0.000000,0.000000 HandLeft:-0.220949,0.092183,-0.236089,0.941778 HandRight:0.135187,-0.203333,-0.245532,0.938133 HandTipLeft:0.000000,0.000000,0.000000,0.000000 HandTipRight:0.000000,0.000000,0.000000,0.000000 Head:0.000000,0.000000,0.000000,0.000000 HipLeft:0.212006,-0.656755,0.692294,-0.210846 HipRight:-0.089305,0.712375,0.689621,-0.094703 KneeLeft:-0.061177,0.769445,-0.067626,-0.632170 KneeRight:-0.048191,0.160658,-0.006276,0.985813 Neck:0.133468,0.005030,0.990255,-0.039440 ShoulderLeft:-0.121611,0.800209,-0.565549,0.158213 ShoulderRight:0.046401,0.798154,0.598194,0.054411 SpineBase:0.096393,0.006152,0.995316,-0.004116 SpineMid:0.114827,0.006075,0.993358,-0.004229 SpineShoulder:0.133722,0.005758,0.990785,-0.020766 ThumbLeft:0.000000,0.000000,0.000000,0.000000 ThumbRight:0.000000,0.000000,0.000000,0.000000 WristLeft:-0.072661,0.126167,-0.200233,0.968870 WristRight:0.074248,-0.219168,-0.253428,0.939269 END:
KINECT_DATA POSITION:26.121717,28.624552,-47.776188 HEAD_JOINT1:0.976157,0.161523,-0.000000,0.145007 LARM_JOINT2:0.823494,0.000000,-0.050421,-0.565080 LARM_JOINT3:0.948383,0.000000,-0.249347,-0.195949 LLEG_JOINT2:0.997206,0.002721,0.000000,0.074645 LLEG_JOINT4:0.977623,0.200369,0.000000,0.064080 RARM_JOINT2:0.767791,0.000000,-0.014220,0.640542 RARM_JOINT3:0.947789,0.000000,0.288717,0.135418 RLEG_JOINT2:0.999178,-0.009937,-0.000000,-0.039292 RLEG_JOINT4:0.587656,0.367952,0.000000,0.720605 WAIST:0.997354,0.000000,-0.064920,0.032707 WAIST_JOINT0:0.994456,0.000000,-0.105072,0.004015 WAIST_JOINT1:0.999863,0.013042,0.000000,-0.010158 END:
KINECT_DATA_Sensor  AnkleLeft:0.020432,0.740767,-0.263739,-0.617486 AnkleRight:0.743090,-0.027466,0.305660,0.594672 ElbowLeft:-0.121039,0.914479,-0.165665,-0.348759 ElbowRight:-0.010981,0.794899,0.071461,0.602419 FootLeft:0.000000,0.000000,0.000000,0.000000 FootRight:0.000000,0.000000,0.000000,0.000000 HandLeft:-0.208862,0.121295,-0.251871,0.937137 HandRight:0.140543,-0.297139,-0.251397,0.910360 HandTipLeft:0.000000,0.000000,0.000000,0.000000 HandTipRight:0.000000,0.000000,0.000000,0.000000 Head:0.000000,0.000000,0.000000,0.000000 HipLeft:0.193969,-0.656628,0.704266,-0.187683 HipRight:-0.120809,0.717095,0.678329,-0.105117 KneeLeft:-0.077310,0.747503,-0.074352,-0.655541 KneeRight:-0.008676,0.169972,-0.005483,0.985395 Neck:0.104846,0.021947,0.993833,-0.028657 ShoulderLeft:-0.111982,0.797555,-0.578228,0.130453 ShoulderRight:0.020200,0.803491,0.593789,0.037536 SpineBase:0.065222,0.023627,0.997567,0.006940 SpineMid:0.085172,0.023761,0.996062,0.006466 SpineShoulder:0.105365,0.023125,0.994113,-0.010117 ThumbLeft:0.000000,0.000000,0.000000,0.000000 ThumbRight:0.000000,0.000000,0.000000,0.000000 WristLeft:-0.067254,0.156842,-0.227920,0.958608 WristRight:0.111386,-0.305088,-0.244136,0.913735 END:
KINECT_DATA POSITION:20.273933,28.761816,-48.542656 HEAD_JOINT1:0.974652,0.167577,-0.000000,0.148224 LARM_JOINT2:0.816759,0.000000,-0.042423,-0.575417 LARM_JOINT3:0.945675,0.000000,-0.252953,-0.204237 LLEG_JOINT2:0.997596,-0.038585,0.000000,0.057564 LLEG_JOINT4:0.973015,0.215731,0.000000,0.081860 RARM_JOINT2:0.784276,0.000000,-0.018029,0.620150 RARM_JOINT3:0.953187,0.000000,0.252098,0.166978 RLEG_JOINT2:0.999838,-0.007945,-0.000000,-0.016146 RLEG_JOINT4:0.612055,0.362535,0.000000,0.702821 WAIST:0.996920,0.000000,-0.050817,0.059731 WAIST_JOINT0:0.997353,0.000000,-0.068552,0.024249 WAIST_JOINT1:0.999545,0.024467,0.000000,-0.017631 END:
KINECT_DATA_Sensor  AnkleLeft:-0.012497,0.728566,-0.265104,-0.631470 AnkleRight:0.750155,-0.003573,0.312136,0.582946 ElbowLeft:-0.107594,0.903611,-0.181549,-0.372760 ElbowRight:0.000852,0.824807,0.084766,0.559023 FootLeft:0.000000,0.000000,0.000000,0.000000 FootRight:0.000000,0.000000,0.000000,0.000000 HandLeft:-0.026917,-0.473152,-0.279494,0.835037 HandRight:0.210047,-0.397969,-0.134127,0.882899 HandTipLeft:0.000000,0.000000,0.000000,0.000000 HandTipRight:0.000000,0.000000,0.000000,0.000000 Head:0.000000,0.000000,0.000000,0.000000 HipLeft:0.172149,-0.640204,0.726039,-0.182680 HipRight:-0.124111,0.733349,0.658085,-0.117133 KneeLeft:-0.110158,0.743772,-0.052977,-0.657162 KneeRight:0.040327,0.185498,-0.017094,0.981668 Neck:0.067563,0.041847,0.996001,-0.040815 ShoulderLeft:-0.073973,0.785052,-0.606134,0.104035 ShoulderRight:0.010244,0.814992,0.579345,0.006540 SpineBase:0.050613,0.044113,0.997738,-0.003241 SpineMid:0.059819,0.044081,0.997229,-0.003648 SpineShoulder:0.068498,0.043211,0.996485,-0.021395 ThumbLeft:0.000000,0.000000,0.000000,0.000000 ThumbRight:0.000000,0.000000,0.000000,0.000000 WristLeft:0.086526,-0.437486,-0.220092,0.867570 WristRight:0.137637,-0.413095,-0.185837,0.880836 END:
KINECT_DATA POSITION:19.692371,28.602800,-48.655224 HEAD_JOINT1:0.971403,0.177652,-0.000000,0.157531 LARM_JOINT2:0.817696,0.000000,-0.024325,-0.575135 LARM_JOINT3:0.949609,0.000000,-0.226540,-0.216616 LLEG_JOINT2:0.998573,-0.024745,0.000000,0.047335 LLEG_JOINT4:0.975379,0.206050,0.000000,0.078602 RARM_JOINT2:0.779502,0.000000,-0.031583,0.625603 RARM_JOINT3:0.952320,0.000000,0.239026,0.189613 RLEG_JOINT2:0.999856,-0.003581,-0.000000,-0.016600 RLEG_JOINT4:0.599237,0.347073,0.000000,0.721426 WAIST:0.996795,0.000000,-0.050267,0.062240 WAIST_JOINT0:0.997291,0.000000,-0.067589,0.029037 WAIST_JOINT1:0.999536,0.023714,0.000000,-0.019118 END:
KINECT_DATA_Sensor  AnkleLeft:-0.003352,0.727816,-0.260678,-0.634287 AnkleRight:0.750992,-0.036132,0.339900,0.564955 ElbowLeft:-0.090807,0.912611,-0.193233,-0.348650 ElbowRight:0.015445,0.837654,0.081621,0.539847 FootLeft:0.000000,0.000000,0.000000,0.000000 FootRight:0.000000,0.000000,0.000000,0.000000 HandLeft:-0.042478,-0.407270,-0.219911,0.885419 HandRight:0.272665,-0.439350,-0.088799,0.851317 HandTipLeft:0.000000,0.000000,0.000000,0.000000 HandTipRight:0.000000,0.000000,0.000000,0.000000 Head:0.000000,0.000000,0.000000,0.000000 HipLeft:0.171640,-0.638619,0.727783,-0.181761 HipRight:-0.124752,0.734798,0.656297,-0.117405 KneeLeft:-0.095676,0.736919,-0.057104,-0.666735 KneeRight:0.043756,0.172597,-0.012784,0.983937 Neck:0.066607,0.042813,0.996062,-0.039897 ShoulderLeft:-0.074533,0.785238,-0.605954,0.103280 ShoulderRight:0.008039,0.819766,0.572603,0.006646 SpineBase:0.050073,0.045254,0.997715,-0.003014 SpineMid:0.059070,0.045225,0.997223,-0.003422 SpineShoulder:0.067544,0.044220,0.996519,-0.020780 ThumbLeft:0.000000,0.000000,0.000000,0.000000 ThumbRight:0.000000,0.000000,0.000000,0.000000 WristLeft:0.060695,-0.381387,-0.199295,0.900634 WristRight:0.151769,-0.459061,-0.152003,0.862047 END:
KINECT_DATA POSITION:19.941633,28.547806,-49.174438 HEAD_JOINT1:0.972700,0.158893,-0.000000,0.169136 LARM_JOINT2:0.826993,0.000000,-0.040330,-0.560763 LARM_JOINT3:0.949338,0.000000,-0.248576,-0.192272 LLEG_JOINT2:0.998759,-0.005445,0.000000,0.049504 LLEG_JOINT4:0.977741,0.201181,0.000000,0.059570 RARM_JOINT2:0.762696,0.000000,-0.030053,0.646059 RARM_JOINT3:0.945537,0.000000,0.277639,0.169932 RLEG_JOINT2:0.999870,-0.006708,-0.000000,-0.014676 RLEG_JOINT4:0.609080,0.377707,0.000000,0.697394 WAIST:0.995826,0.000000,-0.071711,0.056464 WAIST_JOINT0:0.996137,0.000000,-0.084962,0.022171 WAIST_JOINT1:0.999245,0.025292,0.000000,-0.029482 END:
KINECT_DATA_Sensor  AnkleLeft:0.017502,0.742733,-0.256165,-0.618402 AnkleRight:0.751420,-0.016995,0.313193,0.580507 ElbowLeft:-0.100767,0.927478,-0.188400,-0.306817 ElbowRight:0.019100,0.799398,0.073454,0.595988 FootLeft:0.000000,0.000000,0.000000,0.000000 FootRight:0.000000,0.000000,0.000000,0.000000 HandLeft:-0.340300,0.918559,0.026113,0.199408 HandRight:0.245141,-0.354214,-0.200483,0.879912 HandTipLeft:0.000000,0.000000,0.000000,0.000000 HandTipRight:0.000000,0.000000,0.000000,0.000000 Head:0.000000,0.000000,0.000000,0.000000 HipLeft:0.185089,-0.639388,0.721238,-0.191677 HipRight:-0.108799,0.732213,0.663655,-0.107654 KneeLeft:-0.080851,0.751710,-0.068057,-0.650972 KneeRight:0.038712,0.174919,-0.015615,0.983698 Neck:0.086020,0.026051,0.995031,-0.042838 ShoulderLeft:-0.089201,0.787852,-0.596999,0.122165 ShoulderRight:0.018665,0.811043,0.584436,0.017204 SpineBase:0.071402,0.034243,0.996848,-0.004816 SpineMid:0.079341,0.034204,0.996248,-0.005088 SpineShoulder:0.086799,0.029183,0.995534,-0.022941 ThumbLeft:0.000000,0.000000,0.000000,0.000000 ThumbRight:0.000000,0.000000,0.000000,0.000000 WristLeft:-0.202980,0.959804,-0.008255,0.193668 WristRight:0.129447,-0.379252,-0.196288,0.894920 END:
KINECT_DATA POSITION:20.754705,28.569239,-49.774433 HEAD_JOINT1:0.971719,0.152211,-0.000000,0.180538 LARM_JOINT2:0.841840,0.000000,-0.100055,-0.530373 LARM_JOINT3:0.946364,0.000000,-0.264556,-0.185486 LLEG_JOINT2:0.997982,0.000601,0.000000,0.063488 LLEG_JOINT4:0.977533,0.205172,0.000000,0.048313 RARM_JOINT2:0.770245,0.000000,-0.010702,0.637658 RARM_JOINT3:0.945425,0.000000,0.281023,0.164917 RLEG_JOINT2:0.999991,-0.004235,-0.000000,-0.000580 RLEG_JOINT4:0.624683,0.393809,0.000000,0.674304 WAIST:0.994727,0.000000,-0.094125,0.040739 WAIST_JOINT0:0.990263,0.000000,-0.139103,0.005501 WAIST_JOINT1:0.999262,0.024219,0.000000,-0.029821 END:
KINECT_DATA_Sensor  AnkleLeft:0.029166,0.759431,-0.254899,-0.597863 AnkleRight:0.747284,-0.012250,0.290601,0.597468 ElbowLeft:-0.152860,0.938417,-0.175275,-0.255512 ElbowRight:-0.004202,0.797910,0.090384,0.595947 FootLeft:0.000000,0.000000,0.000000,0.000000 FootRight:0.000000,0.000000,0.000000,0.000000 HandLeft:-0.374984,0.900316,0.023902,0.219652 HandRight:0.199052,-0.371063,-0.234594,0.876160 HandTipLeft:0.000000,0.000000,0.000000,0.000000 HandTipRight:0.000000,0.000000,0.000000,0.000000 Head:0.000000,0.000000,0.000000,0.000000 HipLeft:0.202857,-0.646133,0.707138,-0.203267 HipRight:-0.095909,0.722530,0.677481,-0.098849 KneeLeft:-0.077254,0.766474,-0.069635,-0.633798 KneeRight:0.037295,0.168832,-0.014402,0.984834 Neck:0.136626,0.009507,0.989685,-0.042034 ShoulderLeft:-0.118115,0.790990,-0.578691,0.159690 ShoulderRight:0.053165,0.805373,0.587307,0.060143 SpineBase:0.093898,0.018019,0.995408,-0.004526 SpineMid:0.115402,0.017917,0.993145,-0.004914 SpineShoulder:0.137139,0.012960,0.990205,-0.022786 ThumbLeft:0.000000,0.000000,0.000000,0.000000 ThumbRight:0.000000,0.000000,0.000000,0.000000 WristLeft:-0.249457,0.942073,0.008110,0.224062 WristRight:0.115327,-0.391864,-0.213879,0.887355 END:
KINECT_DATA POSITION:22.369059,28.702524,-50.264000 HEAD_JOINT1:0.972740,0.132049,-0.000000,0.190632 LARM_JOINT2:0.860101,0.000000,-0.168754,-0.481403 LARM_JOINT3:0.941298,0.000000,-0.296252,-0.161840 LLEG_JOINT2:0.996968,0.008682,0.000000,0.077332 LLEG_JOINT4:0.978025,0.205627,0.000000,0.034416 RARM_JOINT2:0.761108,0.000000,-0.023148,0.648212 RARM_JOINT3:0.948280,0.000000,0.271492,0.164489 RLEG_JOINT2:0.999889,-0.009685,0.000000,0.011326 RLEG_JOINT4:0.600983,0.408671,0.000000,0.686882 WAIST:0.992083,0.000000,-0.122870,0.025950 WAIST_JOINT0:0.984285,0.000000,-0.176543,-0.004064 WAIST_JOINT1:0.999323,0.024614,0.000000,-0.027345 END:
KINECT_DATA_Sensor  AnkleLeft:0.043997,0.790345,-0.250964,-0.557168 AnkleRight:0.753391,-0.051202,0.313421,0.575801 ElbowLeft:-0.228518,0.932135,-0.159824,-0.231000 ElbowRight:0.005715,0.767040,0.092748,0.634835 FootLeft:0.000000,0.000000,0.000000,0.000000 FootRight:0.000000,0.000000,0.000000,0.000000 HandLeft:-0.088124,-0.163099,-0.440315,0.878496 HandRight:0.205085,-0.414471,-0.202509,0.863218 HandTipLeft:0.000000,0.000000,0.000000,0.000000 HandTipRight:0.000000,0.000000,0.000000,0.000000 Head:0.000000,0.000000,0.000000,0.000000 HipLeft:0.222534,-0.651366,0.690967,-0.220830 HipRight:-0.078191,0.715214,0.689107,-0.086526 KneeLeft:-0.073862,0.784953,-0.072733,-0.610822 KneeRight:0.031788,0.144238,-0.020149,0.988827 Neck:0.174658,-0.002256,0.983717,-0.042312 ShoulderLeft:-0.143783,0.790022,-0.564546,0.190998 ShoulderRight:0.076235,0.794287,0.596315,0.087781 SpineBase:0.122634,0.004860,0.992423,-0.005781 SpineMid:0.148492,0.004708,0.988885,-0.005906 SpineShoulder:0.174994,0.001177,0.984295,-0.023195 ThumbLeft:0.000000,0.000000,0.000000,0.000000 ThumbRight:0.000000,0.000000,0.000000,0.000000 WristLeft:-0.039002,-0.152564,-0.317107,0.935225 WristRight:0.099206,-0.436299,-0.209354,0.869466 END:
KINECT_DATA POSITION:23.182917,28.793400,-50.196243 HEAD_JOINT1:0.973754,0.128975,-0.000000,0.187534 LARM_JOINT2:0.865638,0.000000,-0.193852,-0.461620 LARM_JOINT3:0.939769,0.000000,-0.302533,-0.159087 LLEG_JOINT2:0.997115,0.007905,0.000000,0.075487 LLEG_JOINT4:0.977728,0.206467,0.000000,0.037671 RARM_JOINT2:0.755009,0.000000,-0.019737,0.655418 RARM_JOINT3:0.942638,0.000000,0.290235,0.164913 RLEG_JOINT2:0.999907,-0.008263,0.000000,0.010839 RLEG_JOINT4:0.602780,0.410873,0.000000,0.683988 WAIST:0.992083,0.000000,-0.123251,0.024085 WAIST_JOINT0:0.983452,0.000000,-0.181101,-0.005049 WAIST_JOINT1:0.999342,0.023153,0.000000,-0.027928 END:
KINECT_DATA_Sensor  AnkleLeft:0.045013,0.792935,-0.250528,-0.553591 AnkleRight:0.751716,-0.049792,0.311853,0.578957 ElbowLeft:-0.254621,0.929058,-0.159269,-0.215992 ElbowRight:0.004750,0.766750,0.084634,0.636324 FootLeft:0.000000,0.000000,0.000000,0.000000 FootRight:0.000000,0.000000,0.000000,0.000000 HandLeft:-0.088111,-0.148624,-0.452498,0.874867 HandRight:0.216209,-0.335379,-0.290269,0.869781 HandTipLeft:0.000000,0.000000,0.000000,0.000000 HandTipRight:0.000000,0.000000,0.000000,0.000000 Head:0.000000,0.000000,0.000000,0.000000 HipLeft:0.224248,-0.653076,0.688830,-0.220720 HipRight:-0.077723,0.714505,0.689934,-0.086210 KneeLeft:-0.071603,0.785455,-0.069649,-0.610805 KneeRight:0.030041,0.146022,-0.018221,0.988657 Neck:0.179067,-0.004891,0.982987,-0.040585 ShoulderLeft:-0.148515,0.788211,-0.564941,0.193674 ShoulderRight:0.077472,0.792223,0.598321,0.091614 SpineBase:0.123053,0.002073,0.992385,-0.005007 SpineMid:0.150822,0.001932,0.988546,-0.005063 SpineShoulder:0.179347,-0.001464,0.983544,-0.021750 ThumbLeft:0.000000,0.000000,0.000000,0.000000 ThumbRight:0.000000,0.000000,0.000000,0.000000 WristLeft:-0.051419,-0.144163,-0.338400,0.928471 WristRight:0.087349,-0.373681,-0.215056,0.898044 END:
KINECT_DATA POSITION:24.334202,28.774435,-49.883747 HEAD_JOINT1:0.974686,0.138739,-0.000000,0.175327 LARM_JOINT2:0.857515,0.000000,-0.187452,-0.479092 LARM_JOINT3:0.947140,0.000000,-0.278060,-0.160027 LLEG_JOINT2:0.997583,0.009525,0.000000,0.068834 LLEG_JOINT4:0.977946,0.203862,0.000000,0.045405 RARM_JOINT2:0.757695,0.000000,-0.008764,0.652550 RARM_JOINT3:0.943225,0.000000,0.292457,0.157469 RLEG_JOINT2:0.999923,-0.011932,0.000000,0.003374 RLEG_JOINT4:0.603515,0.415776,0.000000,0.680367 WAIST:0.992597,0.000000,-0.119065,0.023991 WAIST_JOINT0:0.984811,0.000000,-0.173558,-0.005081 WAIST_JOINT1:0.999499,0.021446,0.000000,-0.023258 END:
KINECT_DATA_Sensor  AnkleLeft:0.045861,0.794524,-0.250153,-0.551409 AnkleRight:0.750632,-0.033818,0.299792,0.587821 ElbowLeft:-0.244612,0.928843,-0.149269,-0.234809 ElbowRight:-0.003852,0.774618,0.079834,0.627358 FootLeft:0.000000,0.000000,0.000000,0.000000 FootRight:0.000000,0.000000,0.000000,0.000000 HandLeft:-0.063721,-0.201218,-0.387492,0.897385 HandRight:0.206701,-0.372550,-0.287263,0.857882 HandTipLeft:0.000000,0.000000,0.000000,0.000000 HandTipRight:0.000000,0.000000,0.000000,0.000000 Head:0.000000,0.000000,0.000000,0.000000 HipLeft:0.222894,-0.653683,0.689166,-0.219243 HipRight:-0.082727,0.714514,0.689342,-0.086222 KneeLeft:-0.065083,0.783423,-0.066989,-0.614430 KneeRight:0.021632,0.153918,-0.018805,0.987668 Neck:0.170932,-0.000263,0.984530,-0.038503 ShoulderLeft:-0.147624,0.790131,-0.564320,0.188265 ShoulderRight:0.067906,0.795506,0.596177,0.084449 SpineBase:0.118986,0.006019,0.992874,-0.002623 SpineMid:0.144785,0.005948,0.989441,-0.002779 SpineShoulder:0.171259,0.002937,0.985026,-0.019623 ThumbLeft:0.000000,0.000000,0.000000,0.000000 ThumbRight:0.000000,0.000000,0.000000,0.000000 WristLeft:-0.022817,-0.189840,-0.334103,0.922938 WristRight:0.105471,-0.403280,-0.220909,0.881726 END:
KINECT_DATA POSITION:24.885561,28.720587,-49.636818 HEAD_JOINT1:0.976703,0.133620,-0.000000,0.167920 LARM_JOINT2:0.851955,0.000000,-0.137269,-0.505301 LARM_JOINT3:0.950991,0.000000,-0.244445,-0.189374 LLEG_JOINT2:0.997825,0.008819,0.000000,0.065320 LLEG_JOINT4:0.978183,0.202261,0.000000,0.047415 RARM_JOINT2:0.771468,0.000000,0.017988,0.636014 RARM_JOINT3:0.940966,0.000000,0.307714,0.141051 RLEG_JOINT2:0.999920,-0.012501,-0.000000,-0.002082 RLEG_JOINT4:0.585135,0.412121,0.000000,0.698408 WAIST:0.993475,0.000000,-0.111588,0.023582 WAIST_JOINT0:0.986510,0.000000,-0.163665,-0.003422 WAIST_JOINT1:0.999507,0.023611,0.000000,-0.020698 END:
KINECT_DATA_Sensor  AnkleLeft:0.049124,0.795451,-0.246481,-0.551445 AnkleRight:0.752093,-0.047975,0.323254,0.572330 ElbowLeft:-0.192067,0.939780,-0.168290,-0.227160 ElbowRight:-0.030307,0.774167,0.088597,0.626017 FootLeft:0.000000,0.000000,0.000000,0.000000 FootRight:0.000000,0.000000,0.000000,0.000000 HandLeft:-0.050803,-0.250661,-0.306809,0.916764 HandRight:0.176488,-0.347009,-0.313265,0.866200 HandTipLeft:0.000000,0.000000,0.000000,0.000000 HandTipRight:0.000000,0.000000,0.000000,0.000000 Head:0.000000,0.000000,0.000000,0.000000 HipLeft:0.217558,-0.654477,0.690765,-0.217190 HipRight:-0.086813,0.713499,0.689250,-0.091199 KneeLeft:-0.062131,0.778936,-0.064310,-0.620696 KneeRight:0.016196,0.153753,-0.017056,0.987829 Neck:0.161700,0.002089,0.986005,-0.040534 ShoulderLeft:-0.138299,0.790562,-0.568533,0.180710 ShoulderRight:0.065620,0.795875,0.596925,0.077180 SpineBase:0.111454,0.008090,0.993728,-0.004075 SpineMid:0.136469,0.007985,0.990603,-0.004278 SpineShoulder:0.162062,0.005019,0.986536,-0.021372 ThumbLeft:0.000000,0.000000,0.000000,0.000000 ThumbRight:0.000000,0.000000,0.000000,0.000000 WristLeft:-0.003804,-0.238186,-0.275683,0.931264 WristRight:0.095418,-0.374867,-0.255748,0.885981 END:
KINECT_DATA POSITION:25.907352,28.794422,-48.902344 HEAD_JOINT1:0.979573,0.152507,-0.000000,0.131069 LARM_JOINT2:0.838765,0.000000,0.003548,-0.544482 LARM_JOINT3:0.952862,0.000000,-0.211097,-0.217926 LLEG_JOINT2:0.998828,-0.000286,0.000000,0.048390 LLEG_JOINT4:0.979148,0.195536,0.000000,0.055095 RARM_JOINT2:0.835742,0.000000,0.127363,0.534149 RARM_JOINT3:0.936125,0.000000,0.331216,0.118177 RLEG_JOINT2:0.999693,-0.008554,-0.000000,-0.023253 RLEG_JOINT4:0.886028,0.302215,0.000000,0.351597 WAIST:0.997600,0.000000,-0.064595,0.024928 WAIST_JOINT0:0.996408,0.000000,-0.084623,0.003154 WAIST_JOINT1:0.999700,0.020483,0.000000,-0.013410 END:
KINECT_DATA_Sensor  AnkleLeft:0.042044,0.742376,-0.229803,-0.627934 AnkleRight:0.460563,0.500357,-0.012643,0.733052 ElbowLeft:-0.077374,0.920396,-0.206609,-0.322795 ElbowRight:-0.165913,0.808399,0.131769,0.549183 FootLeft:0.000000,0.000000,0.000000,0.000000 FootRight:0.000000,0.000000,0.000000,0.000000 HandLeft:-0.135871,0.379818,-0.122766,0.906756 HandRight:0.156212,-0.241852,-0.397073,0.871458 HandTipLeft:0.000000,0.000000,0.000000,0.000000 HandTipRight:0.000000,0.000000,0.000000,0.000000 Head:0.000000,0.000000,0.000000,0.000000 HipLeft:0.193776,-0.660863,0.699275,-0.191636 HipRight:-0.121334,0.710621,0.683557,-0.114215 KneeLeft:-0.054139,0.749370,-0.049317,-0.658089 KneeRight:-0.001348,0.286109,-0.007000,0.958171 Neck:0.083808,0.010135,0.995754,-0.036717 ShoulderLeft:-0.100564,0.793610,-0.587822,0.120562 ShoulderRight:0.005675,0.802011,0.597138,0.013159 SpineBase:0.064671,0.016319,0.997771,0.001957 SpineMid:0.074494,0.016337,0.997086,0.001796 SpineShoulder:0.084248,0.013172,0.996218,-0.016691 ThumbLeft:0.000000,0.000000,0.000000,0.000000 ThumbRight:0.000000,0.000000,0.000000,0.000000 WristLeft:-0.091880,0.387121,-0.159940,0.903391 WristRight:0.062429,-0.283364,-0.356098,0.888258 END:
KINECT_DATA POSITION:26.414452,28.896215,-48.796177 HEAD_JOINT1:0.981975,0.153227,-0.000000,0.110661 LARM_JOINT2:0.830816,0.000000,0.042429,-0.554927 LARM_JOINT3:0.949476,0.000000,-0.237568,-0.205077 LLEG_JOINT2:0.999238,-0.003823,0.000000,0.038852 LLEG_JOINT4:0.978431,0.193738,0.000000,0.071687 RARM_JOINT2:0.867289,0.000000,0.305220,0.393257 RARM_JOINT3:0.944407,0.000000,0.327864,0.024501 RLEG_JOINT2:0.999316,-0.011171,-0.000000,-0.035239 RLEG_JOINT4:0.882709,0.290257,0.000000,0.369561 WAIST:0.998721,0.000000,-0.043318,0.026094 WAIST_JOINT0:0.998537,0.000000,-0.053708,0.006188 WAIST_JOINT1:0.999740,0.020822,0.000000,-0.009250 END:
KINECT_DATA_Sensor  AnkleLeft:0.036573,0.728627,-0.230787,-0.643818 AnkleRight:0.457487,0.519814,-0.022489,0.721106 ElbowLeft:-0.053653,0.888867,-0.211496,-0.402873 ElbowRight:-0.357223,0.786940,0.108405,0.491290 FootLeft:0.000000,0.000000,0.000000,0.000000 FootRight:0.000000,0.000000,0.000000,0.000000 HandLeft:-0.154859,0.431879,-0.156406,0.874664 HandRight:-0.162845,0.286011,-0.555439,0.763654 HandTipLeft:0.000000,0.000000,0.000000,0.000000 HandTipRight:0.000000,0.000000,0.000000,0.000000 Head:0.000000,0.000000,0.000000,0.000000 HipLeft:0.178192,-0.663040,0.704600,-0.179346 HipRight:-0.131178,0.709600,0.681191,-0.123444 KneeLeft:-0.049655,0.735503,-0.041859,-0.674401 KneeRight:-0.012221,0.285249,-0.005964,0.958357 Neck:0.053585,0.015826,0.997772,-0.036463 ShoulderLeft:-0.073899,0.795152,-0.594915,0.091372 ShoulderRight:-0.006225,0.803304,0.595513,-0.005348 SpineBase:0.043358,0.020303,0.998853,0.001075 SpineMid:0.048831,0.020309,0.998600,0.000964 SpineShoulder:0.054062,0.018053,0.998237,-0.016563 ThumbLeft:0.000000,0.000000,0.000000,0.000000 ThumbRight:0.000000,0.000000,0.000000,0.000000 WristLeft:-0.076585,0.444263,-0.165153,0.877205 WristRight:-0.225980,0.228499,-0.437323,0.839922 END:
KINECT_DATA POSITION:26.473272,28.918034,-48.790314 HEAD_JOINT1:0.982501,0.155170,-0.000000,0.103028 LARM_JOINT2:0.828894,0.000000,0.033653,-0.558392 LARM_JOINT3:0.936680,0.000000,-0.276646,-0.214702 LLEG_JOINT2:0.999252,-0.003065,0.000000,0.038541 LLEG_JOINT4:0.978534,0.192694,0.000000,0.073082 RARM_JOINT2:0.867264,0.000000,0.302510,0.395399 RARM_JOINT3:0.945782,0.000000,0.323752,0.026090 RLEG_JOINT2:0.999292,-0.011351,-0.000000,-0.035862 RLEG_JOINT4:0.879826,0.292845,0.000000,0.374363 WAIST:0.998934,0.000000,-0.038605,0.025312 WAIST_JOINT0:0.998971,0.000000,-0.044929,0.006120 WAIST_JOINT1:0.999753,0.021013,0.000000,-0.007302 END:
KINECT_DATA_Sensor  AnkleLeft:0.037046,0.725603,-0.230549,-0.647283 AnkleRight:0.461876,0.519837,-0.019693,0.718368 ElbowLeft:-0.060634,0.882636,-0.205376,-0.418447 ElbowRight:-0.361203,0.753031,0.081063,0.543971 FootLeft:0.000000,0.000000,0.000000,0.000000 FootRight:0.000000,0.000000,0.000000,0.000000 HandLeft:-0.239037,0.345777,-0.235898,0.876157 HandRight:-0.135956,0.387443,-0.501777,0.761330 HandTipLeft:0.000000,0.000000,0.000000,0.000000 HandTipRight:0.000000,0.000000,0.000000,0.000000 Head:0.000000,0.000000,0.000000,0.000000 HipLeft:0.175126,-0.663927,0.705130,-0.176985 HipRight:-0.133294,0.708477,0.681531,-0.125731 KneeLeft:-0.048247,0.732372,-0.041800,-0.677906 KneeRight:-0.013613,0.288826,-0.005837,0.957267 Neck:0.045219,0.017743,0.998164,-0.036176 ShoulderLeft:-0.068811,0.797372,-0.593538,0.084707 ShoulderRight:-0.011802,0.804141,0.594199,-0.012054 SpineBase:0.038631,0.020420,0.999045,0.000720 SpineMid:0.042283,0.020423,0.998897,0.000646 SpineShoulder:0.045662,0.018957,0.998638,-0.016678 ThumbLeft:0.000000,0.000000,0.000000,0.000000 ThumbRight:0.000000,0.000000,0.000000,0.000000 WristLeft:-0.080871,0.380251,-0.188125,0.901930 WristRight:-0.279466,0.270165,-0.437149,0.811055 END:
KINECT_DATA POSITION:26.465992,28.894531,-48.773491 HEAD_JOINT1:0.983304,0.150584,-0.000000,0.102162 LARM_JOINT2:0.833402,0.000000,-0.027557,-0.551980 LARM_JOINT3:0.929546,0.000000,-0.306435,-0.205041 LLEG_JOINT2:0.999290,-0.002917,0.000000,0.037576 LLEG_JOINT4:0.979300,0.189815,0.000000,0.070293 RARM_JOINT2:0.833187,0.000000,0.073136,0.548133 RARM_JOINT3:0.924365,0.000000,0.374246,0.074090 RLEG_JOINT2:0.999255,-0.011440,-0.000000,-0.036850 RLEG_JOINT4:0.874958,0.303293,0.000000,0.377441 WAIST:0.998973,0.000000,-0.037501,0.025430 WAIST_JOINT0:0.998650,0.000000,-0.051697,0.005087 WAIST_JOINT1:0.999734,0.022359,0.000000,-0.005640 END:
KINECT_DATA_Sensor  AnkleLeft:0.037553,0.724874,-0.226115,-0.649630 AnkleRight:0.470473,0.514318,-0.010474,0.716953 ElbowLeft:-0.106876,0.886780,-0.189841,-0.407626 ElbowRight:-0.139617,0.739914,0.118936,0.647216 FootLeft:0.000000,0.000000,0.000000,0.000000 FootRight:0.000000,0.000000,0.000000,0.000000 HandLeft:-0.309785,0.377172,-0.263433,0.832092 HandRight:-0.360262,0.786948,0.182374,-0.466545 HandTipLeft:0.000000,0.000000,0.000000,0.000000 HandTipRight:0.000000,0.000000,0.000000,0.000000 Head:0.000000,0.000000,0.000000,0.000000 HipLeft:0.173811,-0.663928,0.705396,-0.177218 HipRight:-0.133146,0.708565,0.681315,-0.126560 KneeLeft:-0.047496,0.731661,-0.041371,-0.678752 KneeRight:-0.014495,0.296128,-0.005549,0.955022 Neck:0.052105,0.019937,0.997733,-0.037640 ShoulderLeft:-0.075901,0.796826,-0.592034,0.093822 ShoulderRight:-0.010067,0.803096,0.595672,-0.010522 SpineBase:0.037499,0.021000,0.999076,-0.000213 SpineMid:0.045112,0.020997,0.998761,-0.000373 SpineShoulder:0.052557,0.020381,0.998245,-0.018130 ThumbLeft:0.000000,0.000000,0.000000,0.000000 ThumbRight:0.000000,0.000000,0.000000,0.000000 WristLeft:-0.127075,0.422759,-0.223899,0.868905 WristRight:-0.301005,0.814910,0.260812,-0.421063 END:
KINECT_DATA POSITION:26.126751,28.884024,-48.922230 HEAD_JOINT1:0.982096,0.153169,-0.000000,0.109667 LARM_JOINT2:0.854414,0.000000,-0.120887,-0.505335 LARM_JOINT3:0.918422,0.000000,-0.363715,-0.155606 LLEG_JOINT2:0.999030,-0.002281,0.000000,0.043974 LLEG_JOINT4:0.979044,0.192582,0.000000,0.066228 RARM_JOINT2:0.802758,0.000000,0.004946,0.596285 RARM_JOINT3:0.947267,0.000000,0.280459,0.155008 RLEG_JOINT2:0.999449,-0.014161,-0.000000,-0.030026 RLEG_JOINT4:0.878655,0.311076,0.000000,0.362211 WAIST:0.998604,0.000000,-0.046127,0.025719 WAIST_JOINT0:0.997322,0.000000,-0.072948,0.005172 WAIST_JOINT1:0.999727,0.022003,0.000000,-0.007850 END:
KINECT_DATA_Sensor  AnkleLeft:0.037033,0.730791,-0.230538,-0.641425 AnkleRight:0.467124,0.509980,-0.003536,0.722290 ElbowLeft:-0.204790,0.868770,-0.174525,-0.415741 ElbowRight:-0.049440,0.803856,0.119853,0.580523 FootLeft:0.000000,0.000000,0.000000,0.000000 FootRight:0.000000,0.000000,0.000000,0.000000 HandLeft:-0.101677,-0.094711,-0.444613,0.884879 HandRight:0.164441,-0.197286,-0.229498,0.938812 HandTipLeft:0.000000,0.000000,0.000000,0.000000 HandTipRight:0.000000,0.000000,0.000000,0.000000 Head:0.000000,0.000000,0.000000,0.000000 HipLeft:0.178242,-0.663129,0.704187,-0.180584 HipRight:-0.125423,0.710075,0.682252,-0.120809 KneeLeft:-0.052196,0.737168,-0.046093,-0.672112 KneeRight:-0.009056,0.303421,-0.010248,0.952758 Neck:0.073258,0.017842,0.996454,-0.037345 ShoulderLeft:-0.089385,0.797200,-0.586658,0.110973 ShoulderRight:0.003019,0.804288,0.594200,0.006156 SpineBase:0.046114,0.018650,0.998762,-0.000606 SpineMid:0.059862,0.018640,0.998032,-0.000863 SpineShoulder:0.073685,0.018385,0.996946,-0.018213 ThumbLeft:0.000000,0.000000,0.000000,0.000000 ThumbRight:0.000000,0.000000,0.000000,0.000000 WristLeft:-0.007846,-0.049956,-0.373895,0.926091 WristRight:0.044462,-0.224143,-0.255601,0.939389 END:
KINECT_DATA POSITION:25.736523,28.893999,-49.125935 HEAD_JOINT1:0.981731,0.146041,-0.000000,0.121965 LARM_JOINT2:0.877408,0.000000,-0.253417,-0.407351 LARM_JOINT3:0.926723,0.000000,-0.349999,-0.136690 LLEG_JOINT2:0.998655,-0.000130,0.000000,0.051853 LLEG_JOINT4:0.980409,0.192330,0.000000,0.042517 RARM_JOINT2:0.771865,0.000000,-0.046410,0.634090 RARM_JOINT3:0.950788,0.000000,0.264695,0.161057 RLEG_JOINT2:0.999718,-0.013831,-0.000000,-0.019320 RLEG_JOINT4:0.882968,0.319435,0.000000,0.343990 WAIST:0.997665,0.000000,-0.062369,0.027821 WAIST_JOINT0:0.994328,0.000000,-0.106296,0.003592 WAIST_JOINT1:0.999668,0.021952,0.000000,-0.013518 END:
KINECT_DATA_Sensor  AnkleLeft:0.045057,0.741472,-0.223221,-0.631159 AnkleRight:0.467753,0.495876,0.003449,0.731644 ElbowLeft:-0.332043,0.876163,-0.173353,-0.303373 ElbowRight:0.009495,0.789149,0.100945,0.605775 FootLeft:0.000000,0.000000,0.000000,0.000000 FootRight:0.000000,0.000000,0.000000,0.000000 HandLeft:-0.103592,-0.124042,-0.477862,0.863441 HandRight:0.207708,-0.421067,-0.149532,0.870172 HandTipLeft:0.000000,0.000000,0.000000,0.000000 HandTipRight:0.000000,0.000000,0.000000,0.000000 Head:0.000000,0.000000,0.000000,0.000000 HipLeft:0.187634,-0.659993,0.702763,-0.187952 HipRight:-0.112805,0.713131,0.682740,-0.112186 KneeLeft:-0.058601,0.747502,-0.053839,-0.659476 KneeRight:0.002541,0.306374,-0.014528,0.951797 Neck:0.105826,0.013683,0.993581,-0.037559 ShoulderLeft:-0.107443,0.794692,-0.581648,0.136404 ShoulderRight:0.025994,0.802682,0.594946,0.032643 SpineBase:0.062317,0.014553,0.997949,-0.001703 SpineMid:0.084071,0.014512,0.996352,-0.002020 SpineShoulder:0.106235,0.014979,0.994049,-0.018897 ThumbLeft:0.000000,0.000000,0.000000,0.000000 ThumbRight:0.000000,0.000000,0.000000,0.000000 WristLeft:-0.008336,-0.073805,-0.432841,0.898405 WristRight:0.106731,-0.438177,-0.192103,0.871611 END:
KINECT_DATA POSITION:25.675196,28.959707,-49.202454 HEAD_JOINT1:0.979695,0.149503,-0.000000,0.133589 LARM_JOINT2:0.875557,0.000000,-0.260443,-0.406902 LARM_JOINT3:0.936066,0.000000,-0.321401,-0.143112 LLEG_JOINT2:0.998527,0.001116,0.000000,0.054244 LLEG_JOINT4:0.980127,0.193271,0.000000,0.044684 RARM_JOINT2:0.766225,0.000000,-0.046761,0.640869 RARM_JOINT3:0.944155,0.000000,0.288363,0.159431 RLEG_JOINT2:0.999757,-0.014792,-0.000000,-0.016315 RLEG_JOINT4:0.883844,0.322028,0.000000,0.339291 WAIST:0.997093,0.000000,-0.070756,0.028263 WAIST_JOINT0:0.993341,0.000000,-0.115179,0.002853 WAIST_JOINT1:0.999644,0.020266,0.000000,-0.017342 END:
KINECT_DATA_Sensor  AnkleLeft:0.041763,0.747043,-0.228550,-0.622855 AnkleRight:0.467794,0.489017,0.003179,0.736221 ElbowLeft:-0.335525,0.881782,-0.165039,-0.287483 ElbowRight:0.010896,0.778049,0.095584,0.620793 FootLeft:0.000000,0.000000,0.000000,0.000000 FootRight:0.000000,0.000000,0.000000,0.000000 HandLeft:0.007992,-0.313480,-0.437334,0.842856 HandRight:0.209863,-0.330254,-0.236922,0.889246 HandTipLeft:0.000000,0.000000,0.000000,0.000000 HandTipRight:0.000000,0.000000,0.000000,0.000000 Head:0.000000,0.000000,0.000000,0.000000 HipLeft:0.192862,-0.658717,0.701672,-0.191188 HipRight:-0.107620,0.714144,0.683366,-0.106895 KneeLeft:-0.060179,0.752916,-0.056334,-0.652934 KneeRight:0.005124,0.303510,-0.016682,0.952668 Neck:0.114292,0.009615,0.992747,-0.036036 ShoulderLeft:-0.112520,0.792930,-0.581930,0.141275 ShoulderRight:0.031729,0.801059,0.596323,0.041197 SpineBase:0.070730,0.013121,0.997409,-0.001090 SpineMid:0.092505,0.013094,0.995625,-0.001376 SpineShoulder:0.114685,0.012006,0.993176,-0.017464 ThumbLeft:0.000000,0.000000,0.000000,0.000000 ThumbRight:0.000000,0.000000,0.000000,0.000000 WristLeft:0.077033,-0.279186,-0.425901,0.857163 WristRight:0.088511,-0.359066,-0.208896,0.905317 END:
KINECT_DATA POSITION:25.687281,28.951920,-49.282433 HEAD_JOINT1:0.977643,0.156650,-0.000000,0.140266 LARM_JOINT2:0.868055,0.000000,-0.160235,-0.469899 LARM_JOINT3:0.947139,0.000000,-0.246301,-0.205580 LLEG_JOINT2:0.998536,0.001544,0.000000,0.054065 LLEG_JOINT4:0.980161,0.193211,0.000000,0.044205 RARM_JOINT2:0.767954,0.000000,-0.043664,0.639015 RARM_JOINT3:0.953481,0.000000,0.267808,0.138391 RLEG_JOINT2:0.999763,-0.014852,-0.000000,-0.015927 RLEG_JOINT4:0.884248,0.323398,0.000000,0.336926 WAIST:0.996750,0.000000,-0.075108,0.029122 WAIST_JOINT0:0.994093,0.000000,-0.108504,0.002648 WAIST_JOINT1:0.999569,0.021815,0.000000,-0.019659 END:
KINECT_DATA_Sensor  AnkleLeft:0.041085,0.749824,-0.229224,-0.619300 AnkleRight:0.467826,0.485613,0.003363,0.738449 ElbowLeft:-0.222784,0.922869,-0.202735,-0.239957 ElbowRight:0.010003,0.783326,0.098689,0.613645 FootLeft:0.000000,0.000000,0.000000,0.000000 FootRight:0.000000,0.000000,0.000000,0.000000 HandLeft:-0.243249,0.382338,-0.197639,0.869245 HandRight:0.153310,-0.509767,-0.174034,0.828460 HandTipLeft:0.000000,0.000000,0.000000,0.000000 HandTipRight:0.000000,0.000000,0.000000,0.000000 Head:0.000000,0.000000,0.000000,0.000000 HipLeft:0.194766,-0.657645,0.701404,-0.193914 HipRight:-0.104318,0.715187,0.683011,-0.105463 KneeLeft:-0.060528,0.755717,-0.056971,-0.649602 KneeRight:0.006171,0.302008,-0.017149,0.953131 Neck:0.107794,0.008531,0.993395,-0.038393 ShoulderLeft:-0.110088,0.792939,-0.583065,0.138432 ShoulderRight:0.026216,0.800952,0.597218,0.033459 SpineBase:0.075033,0.012660,0.997098,-0.002203 SpineMid:0.091497,0.012622,0.995722,-0.002412 SpineShoulder:0.108192,0.010949,0.993891,-0.018843 ThumbLeft:0.000000,0.000000,0.000000,0.000000 ThumbRight:0.000000,0.000000,0.000000,0.000000 WristLeft:-0.152366,0.405753,-0.252701,0.865038 WristRight:0.122101,-0.516364,-0.184357,0.827328 END:
KINECT_DATA POSITION:25.775110,28.969372,-49.338783 HEAD_JOINT1:0.973462,0.170994,-0.000000,0.152097 LARM_JOINT2:0.866406,0.000000,-0.008291,-0.499271 LARM_JOINT3:0.959220,0.000000,-0.115403,-0.258031 LLEG_JOINT2:0.998516,0.000140,0.000000,0.054454 LLEG_JOINT4:0.979890,0.195268,0.000000,0.041071 RARM_JOINT2:0.779600,0.000000,-0.065325,0.622862 RARM_JOINT3:0.979480,0.000000,0.145182,0.139786 RLEG_JOINT2:0.999711,-0.015589,-0.000000,-0.018291 RLEG_JOINT4:0.881453,0.324102,0.000000,0.343509 WAIST:0.996679,0.000000,-0.075995,0.029238 WAIST_JOINT0:0.993884,0.000000,-0.110289,0.005535 WAIST_JOINT1:0.999185,0.035034,0.000000,-0.020029 END:
KINECT_DATA_Sensor  AnkleLeft:0.043236,0.750169,-0.227990,-0.619191 AnkleRight:0.471331,0.481782,0.001171,0.738736 ElbowLeft:-0.051956,0.953570,-0.264668,-0.133995 ElbowRight:0.032807,0.805512,0.128790,0.577484 FootLeft:0.000000,0.000000,0.000000,0.000000 FootRight:0.000000,0.000000,0.000000,0.000000 HandLeft:-0.057958,0.378825,-0.026781,0.923263 HandRight:-0.086232,0.832749,-0.074021,-0.541862 HandTipLeft:0.000000,0.000000,0.000000,0.000000 HandTipRight:0.000000,0.000000,0.000000,0.000000 Head:0.000000,0.000000,0.000000,0.000000 HipLeft:0.192582,-0.656195,0.701972,-0.198886 HipRight:-0.101553,0.714579,0.683304,-0.110269 KneeLeft:-0.061870,0.756084,-0.056185,-0.649117 KneeRight:0.003898,0.297055,-0.016771,0.954705 Neck:0.109940,0.009580,0.992468,-0.053184 ShoulderLeft:-0.089987,0.785672,-0.595833,0.140017 ShoulderRight:0.049363,0.796030,0.602246,0.034629 SpineBase:0.075647,0.012809,0.997020,-0.008065 SpineMid:0.093000,0.012666,0.995551,-0.008287 SpineShoulder:0.110392,0.010941,0.993325,-0.031604 ThumbLeft:0.000000,0.000000,0.000000,0.000000 ThumbRight:0.000000,0.000000,0.000000,0.000000 WristLeft:-0.030951,0.380102,-0.081424,0.920834 WristRight:-0.065070,0.848367,0.062707,-0.521639 END:
KINECT_DATA POSITION:25.835600,29.290346,-49.217857 HEAD_JOINT1:0.974741,0.159059,-0.000000,0.156779 LARM_JOINT2:0.857427,0.000000,0.077040,-0.508806 LARM_JOINT3:0.964782,0.000000,-0.054652,-0.257312 LLEG_JOINT2:0.998428,-0.003429,0.000000,0.055953 LLEG_JOINT4:0.979513,0.197870,0.000000,0.037446 RARM_JOINT2:0.778886,0.000000,-0.129985,0.613548 RARM_JOINT3:0.982615,0.000000,0.107680,0.151237 RLEG_JOINT2:0.999622,-0.017124,-0.000000,-0.021499 RLEG_JOINT4:0.879491,0.315816,0.000000,0.356027 WAIST:0.997145,0.000000,-0.069998,0.028305 WAIST_JOINT0:0.994615,0.000000,-0.103177,0.009768 WAIST_JOINT1:0.998823,0.044738,0.000000,-0.018719 END:
KINECT_DATA_Sensor  AnkleLeft:0.045914,0.746255,-0.224827,-0.624858 AnkleRight:0.471572,0.485171,-0.008954,0.736308 ElbowLeft:0.040038,0.953120,-0.273428,-0.123271 ElbowRight:0.097435,0.844911,0.149000,0.504411 FootLeft:0.000000,0.000000,0.000000,0.000000 FootRight:0.000000,0.000000,0.000000,0.000000 HandLeft:0.013829,0.413345,0.120470,0.902464 HandRight:-0.037503,0.949816,-0.108293,-0.291058 HandTipLeft:0.000000,0.000000,0.000000,0.000000 HandTipRight:0.000000,0.000000,0.000000,0.000000 Head:0.000000,0.000000,0.000000,0.000000 HipLeft:0.182734,-0.655549,0.704075,-0.202835 HipRight:-0.099224,0.712093,0.684348,-0.121435 KneeLeft:-0.064501,0.751755,-0.054019,-0.654054 KneeRight:-0.000238,0.288101,-0.016565,0.957457 Neck:0.102194,0.010119,0.992774,-0.062074 ShoulderLeft:-0.061180,0.774676,-0.616325,0.127582 ShoulderRight:0.069335,0.789228,0.609238,0.033772 SpineBase:0.069171,0.013356,0.997338,-0.018800 SpineMid:0.085967,0.013037,0.996031,-0.019022 SpineShoulder:0.102667,0.011501,0.993792,-0.041280 ThumbLeft:0.000000,0.000000,0.000000,0.000000 ThumbRight:0.000000,0.000000,0.000000,0.000000 WristLeft:0.020708,0.413351,0.001037,0.910336 WristRight:0.015976,0.958026,-0.004049,-0.286206 END:
KINECT_DATA POSITION:25.984514,29.655951,-49.162949 HEAD_JOINT1:0.974356,0.155977,-0.000000,0.162179 LARM_JOINT2:0.847644,0.000000,0.121007,-0.516581 LARM_JOINT3:0.963625,0.000000,-0.064647,-0.259321 LLEG_JOINT2:0.998741,-0.004863,0.000000,0.049919 LLEG_JOINT4:0.979534,0.197191,0.000000,0.040364 RARM_JOINT2:0.778752,0.000000,-0.171335,0.603482 RARM_JOINT3:0.981556,0.000000,0.116037,0.151932 RLEG_JOINT2:0.999274,-0.021840,-0.000000,-0.031223 RLEG_JOINT4:0.885535,0.305488,0.000000,0.350006 WAIST:0.997130,0.000000,-0.069171,0.030785 WAIST_JOINT0:0.994674,0.000000,-0.102127,0.013896 WAIST_JOINT1:0.998624,0.048342,0.000000,-0.020319 END:
KINECT_DATA_Sensor  AnkleLeft:0.044858,0.745555,-0.223113,-0.626384 AnkleRight:0.452482,0.501653,-0.018357,0.737067 ElbowLeft:0.076201,0.947111,-0.271155,-0.153782 ElbowRight:0.121039,0.809107,0.170589,0.549176 FootLeft:0.000000,0.000000,0.000000,0.000000 FootRight:0.000000,0.000000,0.000000,0.000000 HandLeft:-0.007304,0.883825,0.133406,0.448334 HandRight:-0.004143,0.964791,-0.118083,-0.234984 HandTipLeft:0.000000,0.000000,0.000000,0.000000 HandTipRight:0.000000,0.000000,0.000000,0.000000 Head:0.000000,0.000000,0.000000,0.000000 HipLeft:0.178714,-0.653774,0.706164,-0.204872 HipRight:-0.096099,0.713729,0.682519,-0.124594 KneeLeft:-0.062633,0.751243,-0.050751,-0.655085 KneeRight:-0.008649,0.284871,-0.017707,0.958363 Neck:0.100564,0.011182,0.992682,-0.065905 ShoulderLeft:-0.053696,0.770478,-0.622671,0.125548 ShoulderRight:0.075011,0.790225,0.607288,0.033449 SpineBase:0.068033,0.014561,0.997298,-0.023578 SpineMid:0.084619,0.014167,0.996028,-0.023817 SpineShoulder:0.101065,0.012467,0.993785,-0.044955 ThumbLeft:0.000000,0.000000,0.000000,0.000000 ThumbRight:0.000000,0.000000,0.000000,0.000000 WristLeft:0.056031,0.895975,-0.012303,0.440385 WristRight:0.037407,0.971854,0.001042,-0.232591 END:
KINECT_DATA POSITION:25.977480,29.686169,-49.146187 HEAD_JOINT1:0.975768,0.148544,-0.000000,0.160658 LARM_JOINT2:0.843248,0.000000,0.081590,-0.531296 LARM_JOINT3:0.955911,0.000000,-0.181043,-0.231210 LLEG_JOINT2:0.998756,-0.004253,0.000000,0.049687 LLEG_JOINT4:0.979586,0.197029,0.000000,0.039880 RARM_JOINT2:0.780572,0.000000,-0.118217,0.613785 RARM_JOINT3:0.960863,0.000000,0.230093,0.154273 RLEG_JOINT2:0.999378,-0.018725,-0.000000,-0.029884 RLEG_JOINT4:0.880799,0.307737,0.000000,0.359848 WAIST:0.996971,0.000000,-0.071438,0.030762 WAIST_JOINT0:0.994383,0.000000,-0.104938,0.013774 WAIST_JOINT1:0.998772,0.045145,0.000000,-0.020416 END:
KINECT_DATA_Sensor  AnkleLeft:0.045195,0.746910,-0.223095,-0.624749 AnkleRight:0.464256,0.490282,-0.019121,0.737377 ElbowLeft:0.010513,0.928222,-0.254603,-0.271055 ElbowRight:0.068450,0.769281,0.157884,0.615300 FootLeft:0.000000,0.000000,0.000000,0.000000 FootRight:0.000000,0.000000,0.000000,0.000000 HandLeft:-0.183967,0.593531,-0.112890,0.775327 HandRight:-0.177499,0.818324,0.038185,-0.545328 HandTipLeft:0.000000,0.000000,0.000000,0.000000 HandTipRight:0.000000,0.000000,0.000000,0.000000 Head:0.000000,0.000000,0.000000,0.000000 HipLeft:0.179746,-0.653369,0.705624,-0.207110 HipRight:-0.094425,0.714033,0.682501,-0.124232 KneeLeft:-0.062109,0.752745,-0.050953,-0.653392 KneeRight:-0.006091,0.277957,-0.015375,0.960451 Neck:0.103450,0.010745,0.992695,-0.061155 ShoulderLeft:-0.058453,0.770513,-0.621929,0.126873 ShoulderRight:0.073860,0.790284,0.607169,0.036627 SpineBase:0.070249,0.014560,0.997121,-0.024549 SpineMid:0.087117,0.014142,0.995789,-0.024792 SpineShoulder:0.103916,0.012412,0.993608,-0.042325 ThumbLeft:0.000000,0.000000,0.000000,0.000000 ThumbRight:0.000000,0.000000,0.000000,0.000000 WristLeft:-0.022201,0.603822,-0.057213,0.794753 WristRight:-0.065489,0.836096,0.069626,-0.540192 END:
KINECT_DATA POSITION:26.086119,29.276775,-49.211823 HEAD_JOINT1:0.977789,0.146444,-0.000000,0.149945 LARM_JOINT2:0.836497,0.000000,-0.071031,-0.543349 LARM_JOINT3:0.946460,0.000000,-0.265212,-0.184056 LLEG_JOINT2:0.998962,-0.002885,0.000000,0.045452 LLEG_JOINT4:0.979302,0.197512,0.000000,0.044235 RARM_JOINT2:0.799354,0.000000,0.010574,0.600768 RARM_JOINT3:0.927658,0.000000,0.356291,0.111839 RLEG_JOINT2:0.999368,-0.018716,-0.000000,-0.030231 RLEG_JOINT4:0.878475,0.317702,0.000000,0.356858 WAIST:0.996727,0.000000,-0.074788,0.030691 WAIST_JOINT0:0.994621,0.000000,-0.103183,0.009052 WAIST_JOINT1:0.999416,0.028141,0.000000,-0.019367 END:
KINECT_DATA_Sensor  AnkleLeft:0.045606,0.748922,-0.224801,-0.621691 AnkleRight:0.468406,0.485217,-0.010075,0.738281 ElbowLeft:-0.126602,0.925653,-0.176920,-0.309577 ElbowRight:-0.050945,0.752500,0.120614,0.645446 FootLeft:0.000000,0.000000,0.000000,0.000000 FootRight:0.000000,0.000000,0.000000,0.000000 HandLeft:-0.327513,0.909422,0.195507,-0.165721 HandRight:0.143285,-0.289445,-0.377843,0.867713 HandTipLeft:0.000000,0.000000,0.000000,0.000000 HandTipRight:0.000000,0.000000,0.000000,0.000000 Head:0.000000,0.000000,0.000000,0.000000 HipLeft:0.189553,-0.654828,0.703187,-0.201985 HipRight:-0.100515,0.715382,0.681915,-0.114529 KneeLeft:-0.058030,0.755549,-0.049087,-0.650667 KneeRight:-0.006636,0.284296,-0.015015,0.958596 Neck:0.102861,0.011588,0.993666,-0.043741 ShoulderLeft:-0.089706,0.784499,-0.599600,0.130358 ShoulderRight:0.040493,0.797881,0.600529,0.033346 SpineBase:0.074216,0.014460,0.997060,-0.012449 SpineMid:0.088677,0.014278,0.995878,-0.012657 SpineShoulder:0.103248,0.012927,0.994247,-0.025429 ThumbLeft:0.000000,0.000000,0.000000,0.000000 ThumbRight:0.000000,0.000000,0.000000,0.000000 WristLeft:-0.216451,0.951630,0.085034,-0.200794 WristRight:0.053402,-0.329586,-0.298965,0.893947 END:
KINECT_DATA POSITION:25.852438,28.970177,-49.337494 HEAD_JOINT1:0.981322,0.132918,-0.000000,0.139064 LARM_JOINT2:0.830066,0.000000,-0.169396,-0.531316 LARM_JOINT3:0.938451,0.000000,-0.318788,-0.132985 LLEG_JOINT2:0.998931,-0.000329,0.000000,0.046217 LLEG_JOINT4:0.978327,0.198387,0.000000,0.059320 RARM_JOINT2:0.811121,0.000000,0.112012,0.574052 RARM_JOINT3:0.922419,0.000000,0.383322,0.046976 RLEG_JOINT2:0.999511,-0.019158,-0.000000,-0.024729 RLEG_JOINT4:0.876322,0.318265,0.000000,0.361619 WAIST:0.996752,0.000000,-0.075878,0.026982 WAIST_JOINT0:0.993911,0.000000,-0.110026,0.005895 WAIST_JOINT1:0.999576,0.023486,0.000000,-0.017221 END:
KINECT_DATA_Sensor  AnkleLeft:0.039364,0.750260,-0.235241,-0.616621 AnkleRight:0.473208,0.478958,-0.011678,0.739282 ElbowLeft:-0.205038,0.910238,-0.118660,-0.339626 ElbowRight:-0.138720,0.739757,0.090159,0.652217 FootLeft:0.000000,0.000000,0.000000,0.000000 FootRight:0.000000,0.000000,0.000000,0.000000 HandLeft:-0.463380,0.873128,0.136939,0.064608 HandRight:0.047755,-0.135692,-0.486897,0.861533 HandTipLeft:0.000000,0.000000,0.000000,0.000000 HandTipRight:0.000000,0.000000,0.000000,0.000000 Head:0.000000,0.000000,0.000000,0.000000 HipLeft:0.193794,-0.657908,0.700104,-0.198631 HipRight:-0.103393,0.713284,0.684462,-0.109761 KneeLeft:-0.054337,0.756646,-0.048893,-0.649726 KneeRight:-0.005269,0.280554,-0.016417,0.959683 Neck:0.109717,0.009399,0.993158,-0.038859 ShoulderLeft:-0.110559,0.789172,-0.587346,0.141457 ShoulderRight:0.028297,0.800714,0.597448,0.033350 SpineBase:0.075629,0.012380,0.997039,-0.006413 SpineMid:0.092714,0.012269,0.995595,-0.006625 SpineShoulder:0.110074,0.011141,0.993646,-0.020693 ThumbLeft:0.000000,0.000000,0.000000,0.000000 ThumbRight:0.000000,0.000000,0.000000,0.000000 WristLeft:-0.339414,0.937393,0.067496,0.039211 WristRight:-0.007756,-0.174919,-0.395433,0.901652 END:
