EastLYD/RoboCupatHomeSim/InteractiveCleanUp/JapanOpen2016/Motion_Data/File74.dat
KINECT_DATA POSITION:6.034904,-1.469310,-4.527664 HEAD_JOINT1:0.979803,0.164679,-0.000000,0.113431 LARM_JOINT2:0.834252,0.000000,-0.026134,-0.550764 LARM_JOINT3:0.974206,0.000000,-0.165324,-0.153592 LLEG_JOINT2:0.995915,0.023235,0.000000,0.087255 LLEG_JOINT4:0.994524,0.098342,0.000000,-0.035362 RARM_JOINT2:0.798081,0.000000,-0.044946,0.600872 RARM_JOINT3:0.964228,0.000000,0.225071,0.140025 RLEG_JOINT2:0.998090,0.020053,0.000000,-0.058438 RLEG_JOINT4:0.994108,0.104540,0.000000,0.028660 WAIST:0.999947,0.000000,-0.010255,-0.000896 WAIST_JOINT0:0.999357,0.000000,-0.033984,0.011392 WAIST_JOINT1:0.996952,0.076516,0.000000,-0.015228 END:
KINECT_DATA_Sensor  AnkleLeft:0.052829,0.726117,-0.120122,-0.674932 AnkleRight:0.069251,0.700633,0.107554,0.701962 ElbowLeft:-0.033488,0.896280,-0.188131,-0.400210 ElbowRight:0.014088,0.829250,0.189723,0.525501 FootLeft:0.000000,0.000000,0.000000,0.000000 FootRight:0.000000,0.000000,0.000000,0.000000 HandLeft:-0.062634,0.792861,-0.002196,0.606171 HandRight:0.088819,-0.626673,-0.075535,0.770511 HandTipLeft:0.000000,0.000000,0.000000,0.000000 HandTipRight:0.000000,0.000000,0.000000,0.000000 Head:0.000000,0.000000,0.000000,0.000000 HipLeft:0.115195,-0.679800,0.703336,-0.172976 HipRight:-0.104493,0.677473,0.706618,-0.175506 KneeLeft:-0.045336,0.712385,-0.077088,-0.696068 KneeRight:-0.027090,0.699858,0.056463,0.711531 Neck:0.031848,-0.018496,0.995059,-0.092202 ShoulderLeft:0.015672,0.779324,-0.620911,0.082931 ShoulderRight:0.058132,0.788825,0.611114,-0.030257 SpineBase:0.009619,-0.013142,0.998498,-0.052319 SpineMid:0.020565,-0.013715,0.998332,-0.052172 SpineShoulder:0.031758,-0.016496,0.996821,-0.071189 ThumbLeft:0.000000,0.000000,0.000000,0.000000 ThumbRight:0.000000,0.000000,0.000000,0.000000 WristLeft:-0.078318,0.795049,-0.096260,0.593715 WristRight:0.049949,-0.628770,-0.117069,0.767104 END:
KINECT_DATA POSITION:6.020983,-1.475666,-4.486692 HEAD_JOINT1:0.979433,0.166875,-0.000000,0.113418 LARM_JOINT2:0.834337,0.000000,-0.025785,-0.550651 LARM_JOINT3:0.974286,0.000000,-0.165306,-0.153106 LLEG_JOINT2:0.995916,0.023411,0.000000,0.087194 LLEG_JOINT4:0.994854,0.095573,0.000000,-0.033646 RARM_JOINT2:0.797952,0.000000,-0.045650,0.600990 RARM_JOINT3:0.964947,0.000000,0.224198,0.136430 RLEG_JOINT2:0.998073,0.020289,0.000000,-0.058641 RLEG_JOINT4:0.993685,0.107426,0.000000,0.032400 WAIST:0.999949,0.000000,-0.010097,-0.000829 WAIST_JOINT0:0.999371,0.000000,-0.033667,0.011154 WAIST_JOINT1:0.996965,0.076326,0.000000,-0.015324 END:
KINECT_DATA_Sensor  AnkleLeft:0.049795,0.726441,-0.119597,-0.674908 AnkleRight:0.072106,0.688039,0.108344,0.713908 ElbowLeft:-0.033584,0.895823,-0.188266,-0.401159 ElbowRight:0.014619,0.829708,0.189760,0.524750 FootLeft:0.000000,0.000000,0.000000,0.000000 FootRight:0.000000,0.000000,0.000000,0.000000 HandLeft:-0.062263,0.770599,-0.006319,0.634240 HandRight:0.067922,-0.632346,-0.079951,0.767550 HandTipLeft:0.000000,0.000000,0.000000,0.000000 HandTipRight:0.000000,0.000000,0.000000,0.000000 Head:0.000000,0.000000,0.000000,0.000000 HipLeft:0.115263,-0.679854,0.703350,-0.172662 HipRight:-0.104666,0.677547,0.706527,-0.175484 KneeLeft:-0.045204,0.712277,-0.077226,-0.696171 KneeRight:-0.027024,0.699979,0.056722,0.711395 Neck:0.031586,-0.018569,0.995084,-0.092009 ShoulderLeft:0.015581,0.779463,-0.620770,0.082704 ShoulderRight:0.057692,0.788633,0.611392,-0.030481 SpineBase:0.009446,-0.013301,0.998510,-0.052083 SpineMid:0.020343,-0.013868,0.998347,-0.051935 SpineShoulder:0.031500,-0.016514,0.996842,-0.071000 ThumbLeft:0.000000,0.000000,0.000000,0.000000 ThumbRight:0.000000,0.000000,0.000000,0.000000 WristLeft:-0.074405,0.773590,-0.099454,0.621394 WristRight:0.052769,-0.632899,-0.116888,0.763538 END:
KINECT_DATA POSITION:6.024971,-1.477816,-4.477692 HEAD_JOINT1:0.979433,0.167012,-0.000000,0.113216 LARM_JOINT2:0.834058,0.000000,-0.025480,-0.551088 LARM_JOINT3:0.974341,0.000000,-0.163264,-0.154936 LLEG_JOINT2:0.995961,0.023415,0.000000,0.086686 LLEG_JOINT4:0.994484,0.098798,0.000000,-0.035233 RARM_JOINT2:0.797986,0.000000,-0.045773,0.600935 RARM_JOINT3:0.964667,0.000000,0.223352,0.139756 RLEG_JOINT2:0.998028,0.019763,0.000000,-0.059582 RLEG_JOINT4:0.994093,0.103924,0.000000,0.031296 WAIST:0.999946,0.000000,-0.010407,-0.000714 WAIST_JOINT0:0.999375,0.000000,-0.033508,0.011303 WAIST_JOINT1:0.996964,0.076320,0.000000,-0.015406 END:
KINECT_DATA_Sensor  AnkleLeft:0.053382,0.725765,-0.120410,-0.675216 AnkleRight:0.071098,0.709442,0.104809,0.693291 ElbowLeft:-0.033136,0.896110,-0.187968,-0.400695 ElbowRight:0.015135,0.830621,0.189796,0.523276 FootLeft:0.000000,0.000000,0.000000,0.000000 FootRight:0.000000,0.000000,0.000000,0.000000 HandLeft:-0.058521,0.860659,0.014340,0.505604 HandRight:0.078667,-0.698124,-0.064860,0.708680 HandTipLeft:0.000000,0.000000,0.000000,0.000000 HandTipRight:0.000000,0.000000,0.000000,0.000000 Head:0.000000,0.000000,0.000000,0.000000 HipLeft:0.115523,-0.679745,0.703368,-0.172845 HipRight:-0.104565,0.677675,0.706456,-0.175337 KneeLeft:-0.044943,0.712504,-0.076939,-0.695987 KneeRight:-0.027959,0.699737,0.056956,0.711577 Neck:0.031419,-0.018429,0.995094,-0.091982 ShoulderLeft:0.015637,0.779386,-0.620874,0.082642 ShoulderRight:0.057533,0.788745,0.611253,-0.030671 SpineBase:0.009746,-0.013250,0.998510,-0.052037 SpineMid:0.020410,-0.013805,0.998349,-0.051893 SpineShoulder:0.031329,-0.016439,0.996847,-0.071021 ThumbLeft:0.000000,0.000000,0.000000,0.000000 ThumbRight:0.000000,0.000000,0.000000,0.000000 WristLeft:-0.088576,0.860261,-0.086176,0.494651 WristRight:-0.064377,0.701262,0.110691,-0.701309 END:
KINECT_DATA POSITION:6.021880,-1.486450,-4.453206 HEAD_JOINT1:0.979160,0.167911,-0.000000,0.114240 LARM_JOINT2:0.833985,0.000000,-0.025094,-0.551217 LARM_JOINT3:0.972839,0.000000,-0.167471,-0.159804 LLEG_JOINT2:0.995949,0.023967,0.000000,0.086667 LLEG_JOINT4:0.994653,0.097216,0.000000,-0.034843 RARM_JOINT2:0.797731,0.000000,-0.046238,0.601238 RARM_JOINT3:0.965755,0.000000,0.218356,0.140137 RLEG_JOINT2:0.998000,0.019859,0.000000,-0.060015 RLEG_JOINT4:0.993911,0.105904,0.000000,0.030419 WAIST:0.999949,0.000000,-0.010125,-0.000544 WAIST_JOINT0:0.999375,0.000000,-0.033498,0.011271 WAIST_JOINT1:0.996976,0.076142,0.000000,-0.015545 END:
KINECT_DATA_Sensor  AnkleLeft:0.052333,0.725947,-0.120072,-0.675163 AnkleRight:0.070489,0.700690,0.107943,0.701721 ElbowLeft:-0.032101,0.897670,-0.188097,-0.397213 ElbowRight:0.015722,0.831465,0.189501,0.522024 FootLeft:0.000000,0.000000,0.000000,0.000000 FootRight:0.000000,0.000000,0.000000,0.000000 HandLeft:-0.080484,0.804882,0.010436,0.587859 HandRight:0.058205,-0.598170,-0.059955,0.797001 HandTipLeft:0.000000,0.000000,0.000000,0.000000 HandTipRight:0.000000,0.000000,0.000000,0.000000 Head:0.000000,0.000000,0.000000,0.000000 HipLeft:0.115539,-0.679726,0.703462,-0.172523 HipRight:-0.104882,0.677791,0.706281,-0.175402 KneeLeft:-0.044637,0.712330,-0.077455,-0.696128 KneeRight:-0.028088,0.699937,0.057205,0.711356 Neck:0.031427,-0.018464,0.995109,-0.091808 ShoulderLeft:0.015503,0.779419,-0.620851,0.082520 ShoulderRight:0.057403,0.788680,0.611355,-0.030552 SpineBase:0.009453,-0.013269,0.998524,-0.051801 SpineMid:0.020266,-0.013829,0.998364,-0.051654 SpineShoulder:0.031340,-0.016443,0.996860,-0.070831 ThumbLeft:0.000000,0.000000,0.000000,0.000000 ThumbRight:0.000000,0.000000,0.000000,0.000000 WristLeft:-0.081482,0.810713,-0.091799,0.572431 WristRight:0.048722,-0.598037,-0.117340,0.791334 END:
KINECT_DATA POSITION:6.027683,-1.502902,-4.423821 HEAD_JOINT1:0.978985,0.168671,-0.000000,0.114625 LARM_JOINT2:0.833166,0.000000,-0.023537,-0.552521 LARM_JOINT3:0.971687,0.000000,-0.169587,-0.164513 LLEG_JOINT2:0.995991,0.024390,0.000000,0.086065 LLEG_JOINT4:0.994782,0.095614,0.000000,-0.035602 RARM_JOINT2:0.797381,0.000000,-0.045591,0.601751 RARM_JOINT3:0.964486,0.000000,0.219325,0.147185 RLEG_JOINT2:0.997963,0.020657,0.000000,-0.060365 RLEG_JOINT4:0.993991,0.105242,0.000000,0.030103 WAIST:0.999950,0.000000,-0.009959,0.000169 WAIST_JOINT0:0.999386,0.000000,-0.033087,0.011536 WAIST_JOINT1:0.996987,0.075859,0.000000,-0.016208 END:
KINECT_DATA_Sensor  AnkleLeft:0.051909,0.725808,-0.118813,-0.675568 AnkleRight:0.074255,0.724441,0.105547,0.677149 ElbowLeft:-0.031096,0.896339,-0.187217,-0.400698 ElbowRight:0.016498,0.834944,0.188453,0.516800 FootLeft:0.000000,0.000000,0.000000,0.000000 FootRight:0.000000,0.000000,0.000000,0.000000 HandLeft:-0.082534,0.851819,0.030903,0.516369 HandRight:0.086190,-0.617686,-0.055731,0.779699 HandTipLeft:0.000000,0.000000,0.000000,0.000000 HandTipRight:0.000000,0.000000,0.000000,0.000000 Head:0.000000,0.000000,0.000000,0.000000 HipLeft:0.115730,-0.679397,0.703841,-0.172144 HipRight:-0.105181,0.678338,0.705712,-0.175398 KneeLeft:-0.044399,0.712195,-0.077846,-0.696238 KneeRight:-0.027265,0.700115,0.057507,0.711188 Neck:0.031021,-0.018468,0.995155,-0.091448 ShoulderLeft:0.015454,0.779482,-0.620823,0.082146 ShoulderRight:0.056833,0.788896,0.611118,-0.030794 SpineBase:0.009222,-0.013195,0.998546,-0.051444 SpineMid:0.019952,-0.013748,0.998389,-0.051299 SpineShoulder:0.030941,-0.016373,0.996891,-0.070585 ThumbLeft:0.000000,0.000000,0.000000,0.000000 ThumbRight:0.000000,0.000000,0.000000,0.000000 WristLeft:-0.093097,0.856902,-0.083232,0.500125 WristRight:0.052960,-0.619245,-0.112848,0.775239 END:
KINECT_DATA POSITION:6.032711,-1.556610,-4.328871 HEAD_JOINT1:0.980733,0.162937,-0.000000,0.107773 LARM_JOINT2:0.829522,0.000000,-0.022171,-0.558033 LARM_JOINT3:0.972348,0.000000,-0.170715,-0.159361 LLEG_JOINT2:0.996034,0.025324,0.000000,0.085293 LLEG_JOINT4:0.994680,0.096164,0.000000,-0.036946 RARM_JOINT2:0.796255,0.000000,0.048048,0.603050 RARM_JOINT3:0.964642,0.000000,0.239006,0.111096 RLEG_JOINT2:0.997938,0.020233,0.000000,-0.060921 RLEG_JOINT4:0.993940,0.105665,0.000000,0.030293 WAIST:0.999961,0.000000,-0.008773,0.000192 WAIST_JOINT0:0.999652,0.000000,-0.022771,0.013352 WAIST_JOINT1:0.997359,0.070816,0.000000,-0.016130 END:
KINECT_DATA_Sensor  AnkleLeft:0.053691,0.719910,-0.118650,-0.681739 AnkleRight:0.070981,0.706434,0.107865,0.695901 ElbowLeft:-0.033921,0.890624,-0.179579,-0.416400 ElbowRight:-0.049788,0.846116,0.145794,0.510248 FootLeft:0.000000,0.000000,0.000000,0.000000 FootRight:0.000000,0.000000,0.000000,0.000000 HandLeft:-0.080872,0.828102,0.026927,0.554059 HandRight:-0.171736,0.796157,0.107689,-0.570126 HandTipLeft:0.000000,0.000000,0.000000,0.000000 HandTipRight:0.000000,0.000000,0.000000,0.000000 Head:0.000000,0.000000,0.000000,0.000000 HipLeft:0.116417,-0.679763,0.703844,-0.170212 HipRight:-0.107343,0.678417,0.705468,-0.174764 KneeLeft:-0.043105,0.711504,-0.078044,-0.697003 KneeRight:-0.028014,0.700893,0.057557,0.710388 Neck:0.020776,-0.017525,0.996024,-0.084842 ShoulderLeft:0.019495,0.780044,-0.621380,0.070980 ShoulderRight:0.047651,0.791071,0.608819,-0.035712 SpineBase:0.008073,-0.013081,0.998663,-0.049355 SpineMid:0.014287,-0.013388,0.998593,-0.049273 SpineShoulder:0.020676,-0.015727,0.997467,-0.066220 ThumbLeft:0.000000,0.000000,0.000000,0.000000 ThumbRight:0.000000,0.000000,0.000000,0.000000 WristLeft:-0.096921,0.833324,-0.090536,0.536638 WristRight:-0.147547,0.801487,0.128900,-0.565007 END:
KINECT_DATA POSITION:6.170107,-1.602264,-4.134881 HEAD_JOINT1:0.985055,0.147217,-0.000000,0.089410 LARM_JOINT2:0.822947,0.000000,-0.017843,-0.567838 LARM_JOINT3:0.973593,0.000000,-0.169283,-0.153165 LLEG_JOINT2:0.996166,0.025843,0.000000,0.083582 LLEG_JOINT4:0.994887,0.095777,0.000000,-0.032043 RARM_JOINT2:0.808669,0.000000,0.199912,0.553254 RARM_JOINT3:0.964922,0.000000,0.256939,0.053929 RLEG_JOINT2:0.997676,0.019158,0.000000,-0.065393 RLEG_JOINT4:0.993040,0.111170,0.000000,0.038888 WAIST:0.999995,0.000000,-0.002980,-0.000622 WAIST_JOINT0:0.999858,-0.000000,0.000843,0.016803 WAIST_JOINT1:0.998168,0.059359,0.000000,-0.011752 END:
KINECT_DATA_Sensor  AnkleLeft:0.051309,0.707355,-0.120833,-0.694562 AnkleRight:0.077223,0.718099,0.107862,0.683181 ElbowLeft:-0.037180,0.885443,-0.169216,-0.431248 ElbowRight:-0.179910,0.843475,0.090387,0.498009 FootLeft:0.000000,0.000000,0.000000,0.000000 FootRight:0.000000,0.000000,0.000000,0.000000 HandLeft:-0.079751,0.829967,0.016047,0.551848 HandRight:-0.265174,0.834714,0.166854,-0.452874 HandTipLeft:0.000000,0.000000,0.000000,0.000000 HandTipRight:0.000000,0.000000,0.000000,0.000000 Head:0.000000,0.000000,0.000000,0.000000 HipLeft:0.117170,-0.681638,0.703356,-0.164106 HipRight:-0.116300,0.677972,0.704697,-0.173870 KneeLeft:-0.040479,0.707828,-0.076889,-0.701020 KneeRight:-0.032848,0.704562,0.060380,0.706305 Neck:-0.002183,-0.012130,0.997249,-0.073089 ShoulderLeft:0.020303,0.781139,-0.621980,0.050507 ShoulderRight:0.018565,0.796867,0.601665,-0.051551 SpineBase:0.002559,-0.010916,0.999016,-0.042909 SpineMid:0.000080,-0.010809,0.999019,-0.042936 SpineShoulder:-0.002372,-0.011798,0.998411,-0.055061 ThumbLeft:0.000000,0.000000,0.000000,0.000000 ThumbRight:0.000000,0.000000,0.000000,0.000000 WristLeft:-0.104789,0.832374,-0.093076,0.536199 WristRight:-0.286752,0.827068,0.175956,-0.450301 END:
KINECT_DATA POSITION:6.285821,-1.611409,-4.049253 HEAD_JOINT1:0.987593,0.139234,-0.000000,0.072621 LARM_JOINT2:0.818785,0.000000,-0.012200,-0.573970 LARM_JOINT3:0.976114,0.000000,-0.161205,-0.145651 LLEG_JOINT2:0.996386,0.024765,0.000000,0.081247 LLEG_JOINT4:0.994919,0.097195,0.000000,-0.026273 RARM_JOINT2:0.810342,0.000000,0.287872,0.510368 RARM_JOINT3:0.967619,0.000000,0.252297,-0.007656 RLEG_JOINT2:0.997448,0.021297,0.000000,-0.068149 RLEG_JOINT4:0.992804,0.111225,0.000000,0.044367 WAIST:0.999995,0.000000,0.002885,-0.000972 WAIST_JOINT0:0.999508,-0.000000,0.023353,0.020920 WAIST_JOINT1:0.998638,0.051570,0.000000,-0.007861 END:
KINECT_DATA_Sensor  AnkleLeft:-0.048724,-0.695239,0.123570,0.706399 AnkleRight:0.081032,0.729333,0.107111,0.670846 ElbowLeft:-0.038852,0.878060,-0.164529,-0.447696 ElbowRight:-0.257451,0.809271,0.033863,0.526928 FootLeft:0.000000,0.000000,0.000000,0.000000 FootRight:0.000000,0.000000,0.000000,0.000000 HandLeft:-0.052442,0.769864,0.007040,0.636011 HandRight:-0.320919,0.815132,0.221922,-0.428162 HandTipLeft:0.000000,0.000000,0.000000,0.000000 HandTipRight:0.000000,0.000000,0.000000,0.000000 Head:0.000000,0.000000,0.000000,0.000000 HipLeft:0.117878,-0.683644,0.703052,-0.156378 HipRight:-0.125191,0.678230,0.703393,-0.171957 KneeLeft:-0.038899,0.703907,-0.074464,-0.705306 KneeRight:-0.033890,0.708461,0.063895,0.702034 Neck:-0.024319,-0.007881,0.997483,-0.066135 ShoulderLeft:0.017852,0.781864,-0.622128,0.036441 ShoulderRight:-0.012585,0.802449,0.592219,-0.072073 SpineBase:-0.003135,-0.009101,0.999328,-0.035381 SpineMid:-0.013776,-0.008724,0.999237,-0.035476 SpineShoulder:-0.024499,-0.007855,0.998559,-0.047086 ThumbLeft:0.000000,0.000000,0.000000,0.000000 ThumbRight:0.000000,0.000000,0.000000,0.000000 WristLeft:-0.093962,0.770974,-0.108906,0.620411 WristRight:-0.360391,0.797203,0.228566,-0.427016 END:
KINECT_DATA POSITION:6.528420,-1.588646,-4.128301 HEAD_JOINT1:0.988721,0.135002,-0.000000,0.064850 LARM_JOINT2:0.817442,0.000000,-0.011920,-0.575887 LARM_JOINT3:0.976091,0.000000,-0.162401,-0.144473 LLEG_JOINT2:0.996719,0.021587,0.000000,0.078008 LLEG_JOINT4:0.994380,0.103367,0.000000,-0.022885 RARM_JOINT2:0.821056,0.000000,0.384462,0.421967 RARM_JOINT3:0.983144,0.000000,0.182619,0.008849 RLEG_JOINT2:0.997126,0.021385,0.000000,-0.072677 RLEG_JOINT4:0.992299,0.111978,0.000000,0.052956 WAIST:0.999943,0.000000,0.010487,-0.001995 WAIST_JOINT0:0.999085,-0.000000,0.036788,0.021802 WAIST_JOINT1:0.998754,0.049705,0.000000,-0.004449 END:
KINECT_DATA_Sensor  AnkleLeft:-0.052018,-0.687107,0.124852,0.713856 AnkleRight:0.083249,0.736020,0.105734,0.663449 ElbowLeft:-0.039170,0.874097,-0.164148,-0.455495 ElbowRight:-0.352538,0.851581,0.043465,0.385536 FootLeft:0.000000,0.000000,0.000000,0.000000 FootRight:0.000000,0.000000,0.000000,0.000000 HandLeft:-0.053500,0.806722,0.003926,0.588491 HandRight:-0.322601,0.759111,0.288855,-0.486047 HandTipLeft:0.000000,0.000000,0.000000,0.000000 HandTipRight:0.000000,0.000000,0.000000,0.000000 Head:0.000000,0.000000,0.000000,0.000000 HipLeft:0.114798,-0.686312,0.702774,-0.148003 HipRight:-0.132393,0.678012,0.702545,-0.170890 KneeLeft:0.037636,-0.698652,0.069494,0.711083 KneeRight:-0.038260,0.713448,0.067597,0.696390 Neck:-0.037674,-0.005681,0.997184,-0.064593 ShoulderLeft:0.020436,0.782348,-0.621870,0.028143 ShoulderRight:-0.027205,0.803717,0.588317,-0.084745 SpineBase:-0.010566,-0.007104,0.999470,-0.029967 SpineMid:-0.024126,-0.006697,0.999234,-0.030061 SpineShoulder:-0.037828,-0.005569,0.998252,-0.045070 ThumbLeft:0.000000,0.000000,0.000000,0.000000 ThumbRight:0.000000,0.000000,0.000000,0.000000 WristLeft:-0.099952,0.805003,-0.106254,0.575056 WristRight:-0.345846,0.750170,0.267010,-0.496328 END:
KINECT_DATA POSITION:6.681776,-1.524886,-4.337049 HEAD_JOINT1:0.988593,0.137161,-0.000000,0.062209 LARM_JOINT2:0.817162,0.000000,-0.012812,-0.576265 LARM_JOINT3:0.976389,0.000000,-0.162611,-0.142203 LLEG_JOINT2:0.996945,0.018961,0.000000,0.075770 LLEG_JOINT4:0.994866,0.099734,0.000000,-0.017177 RARM_JOINT2:0.826267,0.000000,0.393138,0.403393 RARM_JOINT3:0.982844,0.000000,0.183623,-0.017322 RLEG_JOINT2:0.996904,0.021199,0.000000,-0.075714 RLEG_JOINT4:0.992273,0.111122,0.000000,0.055190 WAIST:0.999900,0.000000,0.014059,-0.001431 WAIST_JOINT0:0.998672,-0.000000,0.046123,0.022955 WAIST_JOINT1:0.998750,0.049889,0.000000,-0.003085 END:
KINECT_DATA_Sensor  AnkleLeft:-0.044791,-0.683057,0.123389,0.718472 AnkleRight:0.082359,0.740995,0.105152,0.658093 ElbowLeft:-0.039605,0.872558,-0.165339,-0.457970 ElbowRight:-0.369475,0.835513,0.033414,0.405327 FootLeft:0.000000,0.000000,0.000000,0.000000 FootRight:0.000000,0.000000,0.000000,0.000000 HandLeft:-0.051350,0.811164,-0.006346,0.582525 HandRight:-0.066695,-0.074797,-0.477389,0.872959 HandTipLeft:0.000000,0.000000,0.000000,0.000000 HandTipRight:0.000000,0.000000,0.000000,0.000000 Head:0.000000,0.000000,0.000000,0.000000 HipLeft:0.113425,-0.686441,0.703334,-0.145793 HipRight:-0.135969,0.678329,0.701408,-0.171488 KneeLeft:0.038123,-0.696057,0.066587,0.713874 KneeRight:-0.040401,0.715818,0.069055,0.693689 Neck:-0.046942,-0.003683,0.996782,-0.064871 ShoulderLeft:0.022451,0.781575,-0.622937,0.024210 ShoulderRight:-0.037228,0.803477,0.586500,-0.095164 SpineBase:-0.014100,-0.004926,0.999482,-0.028495 SpineMid:-0.030464,-0.004459,0.999117,-0.028572 SpineShoulder:-0.047070,-0.003522,0.997863,-0.045189 ThumbLeft:0.000000,0.000000,0.000000,0.000000 ThumbRight:0.000000,0.000000,0.000000,0.000000 WristLeft:-0.098611,0.807905,-0.107630,0.570948 WristRight:-0.017691,-0.049043,-0.458422,0.887204 END:
KINECT_DATA POSITION:6.798973,-1.448199,-4.581726 HEAD_JOINT1:0.988423,0.137960,-0.000000,0.063150 LARM_JOINT2:0.818267,0.000000,-0.009511,-0.574760 LARM_JOINT3:0.974925,0.000000,-0.168981,-0.144800 LLEG_JOINT2:0.997239,0.017457,0.000000,0.072185 LLEG_JOINT4:0.994610,0.101885,0.000000,-0.019270 RARM_JOINT2:0.829987,0.000000,0.403618,0.384985 RARM_JOINT3:0.981603,0.000000,0.182186,-0.057123 RLEG_JOINT2:0.996727,0.022076,0.000000,-0.077763 RLEG_JOINT4:0.992563,0.107560,0.000000,0.057000 WAIST:0.999880,-0.000000,0.015461,0.000463 WAIST_JOINT0:0.998460,-0.000000,0.049865,0.024309 WAIST_JOINT1:0.998754,0.049855,0.000000,-0.002376 END:
KINECT_DATA_Sensor  AnkleLeft:-0.047793,-0.680462,0.121159,0.721116 AnkleRight:0.081427,0.743012,0.102163,0.656403 ElbowLeft:-0.038770,0.871718,-0.170612,-0.457707 ElbowRight:-0.386551,0.793906,-0.000876,0.469352 FootLeft:0.000000,0.000000,0.000000,0.000000 FootRight:0.000000,0.000000,0.000000,0.000000 HandLeft:-0.070181,0.779717,-0.022268,0.621788 HandRight:-0.366322,0.410570,-0.379593,0.743740 HandTipLeft:0.000000,0.000000,0.000000,0.000000 HandTipRight:0.000000,0.000000,0.000000,0.000000 Head:0.000000,0.000000,0.000000,0.000000 HipLeft:0.111987,-0.685288,0.704800,-0.145245 HipRight:-0.137085,0.679634,0.699928,-0.171481 KneeLeft:0.037962,-0.695014,0.064350,0.715103 KneeRight:-0.040014,0.716861,0.069723,0.692566 Neck:-0.050822,-0.000803,0.996611,-0.064675 ShoulderLeft:0.020227,0.780497,-0.624340,0.024789 ShoulderRight:-0.044758,0.803922,0.584306,-0.101452 SpineBase:-0.015531,-0.002201,0.999473,-0.028407 SpineMid:-0.033061,-0.001702,0.999047,-0.028441 SpineShoulder:-0.050924,-0.000949,0.997683,-0.045106 ThumbLeft:0.000000,0.000000,0.000000,0.000000 ThumbRight:0.000000,0.000000,0.000000,0.000000 WristLeft:-0.089503,0.780416,-0.113644,0.608297 WristRight:-0.309013,0.441202,-0.387049,0.748361 END:
KINECT_DATA POSITION:6.829050,-1.362038,-4.930401 HEAD_JOINT1:0.988284,0.137403,-0.000000,0.066445 LARM_JOINT2:0.819261,0.000000,-0.009045,-0.573349 LARM_JOINT3:0.974989,0.000000,-0.169042,-0.144298 LLEG_JOINT2:0.997347,0.015734,0.000000,0.071073 LLEG_JOINT4:0.994919,0.098961,0.000000,-0.018541 RARM_JOINT2:0.835591,0.000000,0.410837,0.364692 RARM_JOINT3:0.980776,0.000000,0.173251,-0.089786 RLEG_JOINT2:0.996740,0.022343,0.000000,-0.077524 RLEG_JOINT4:0.993045,0.104925,0.000000,0.053409 WAIST:0.999860,-0.000000,0.016583,0.002008 WAIST_JOINT0:0.998200,-0.000000,0.054042,0.025995 WAIST_JOINT1:0.998654,0.051823,0.000000,-0.002182 END:
KINECT_DATA_Sensor  AnkleLeft:0.051491,0.726120,-0.115555,-0.675829 AnkleRight:0.078531,0.745604,0.101849,0.653861 ElbowLeft:-0.038895,0.868499,-0.174525,-0.462318 ElbowRight:-0.400871,0.753405,-0.027586,0.520501 FootLeft:0.000000,0.000000,0.000000,0.000000 FootRight:0.000000,0.000000,0.000000,0.000000 HandLeft:-0.074583,0.817459,-0.015460,0.570929 HandRight:-0.398708,0.380392,-0.377386,0.744254 HandTipLeft:0.000000,0.000000,0.000000,0.000000 HandTipRight:0.000000,0.000000,0.000000,0.000000 Head:0.000000,0.000000,0.000000,0.000000 HipLeft:0.109484,-0.684128,0.706118,-0.146218 HipRight:-0.136668,0.680412,0.698895,-0.172938 KneeLeft:0.039454,-0.694090,0.063481,0.715998 KneeRight:-0.038647,0.717765,0.068613,0.691818 Neck:-0.055358,0.001156,0.996252,-0.066457 ShoulderLeft:0.023019,0.778112,-0.627237,0.024204 ShoulderRight:-0.047997,0.803521,0.583521,-0.107485 SpineBase:-0.016685,-0.000077,0.999396,-0.030478 SpineMid:-0.035852,0.000508,0.998892,-0.030474 SpineShoulder:-0.055439,0.000917,0.997353,-0.047049 ThumbLeft:0.000000,0.000000,0.000000,0.000000 ThumbRight:0.000000,0.000000,0.000000,0.000000 WristLeft:-0.090040,0.818178,-0.111512,0.556815 WristRight:-0.339417,0.416310,-0.407960,0.738275 END:
KINECT_DATA POSITION:6.856889,-1.310045,-5.142772 HEAD_JOINT1:0.987829,0.139435,-0.000000,0.068935 LARM_JOINT2:0.819658,0.000000,-0.005828,-0.572823 LARM_JOINT3:0.973967,0.000000,-0.170856,-0.148985 LLEG_JOINT2:0.997372,0.015908,0.000000,0.070689 LLEG_JOINT4:0.995138,0.096641,0.000000,-0.019004 RARM_JOINT2:0.843988,0.000000,0.410575,0.345127 RARM_JOINT3:0.979929,0.000000,0.173679,-0.097848 RLEG_JOINT2:0.996790,0.020975,0.000000,-0.077266 RLEG_JOINT4:0.993035,0.106322,0.000000,0.050763 WAIST:0.999876,-0.000000,0.015572,0.002271 WAIST_JOINT0:0.998070,-0.000000,0.056161,0.026506 WAIST_JOINT1:0.998587,0.053123,0.000000,-0.001291 END:
KINECT_DATA_Sensor  AnkleLeft:-0.042011,-0.677929,0.117021,0.724537 AnkleRight:0.077532,0.746854,0.103131,0.652352 ElbowLeft:-0.036976,0.867031,-0.177741,-0.464002 ElbowRight:-0.414693,0.725630,-0.035107,0.547959 FootLeft:0.000000,0.000000,0.000000,0.000000 FootRight:0.000000,0.000000,0.000000,0.000000 HandLeft:-0.086932,0.793818,-0.007749,0.601861 HandRight:-0.453938,0.501179,-0.296027,0.674631 HandTipLeft:0.000000,0.000000,0.000000,0.000000 HandTipRight:0.000000,0.000000,0.000000,0.000000 Head:0.000000,0.000000,0.000000,0.000000 HipLeft:0.109048,-0.683725,0.706221,-0.147921 HipRight:-0.135695,0.680783,0.698777,-0.172720 KneeLeft:0.039307,-0.694844,0.063475,0.715274 KneeRight:-0.039169,0.717025,0.067302,0.692684 Neck:-0.057705,0.002589,0.996029,-0.067750 ShoulderLeft:0.024284,0.777456,-0.628004,0.024160 ShoulderRight:-0.049849,0.803573,0.582651,-0.110921 SpineBase:-0.015648,0.001380,0.999377,-0.031595 SpineMid:-0.036461,0.002038,0.998835,-0.031559 SpineShoulder:-0.057767,0.002323,0.997158,-0.048301 ThumbLeft:0.000000,0.000000,0.000000,0.000000 ThumbRight:0.000000,0.000000,0.000000,0.000000 WristLeft:-0.082401,0.800038,-0.114804,0.583069 WristRight:-0.434738,0.521016,-0.350253,0.645653 END:
KINECT_DATA POSITION:6.865693,-1.300681,-5.190182 HEAD_JOINT1:0.987376,0.141829,-0.000000,0.070527 LARM_JOINT2:0.819432,0.000000,-0.006063,-0.573144 LARM_JOINT3:0.973076,0.000000,-0.177180,-0.147411 LLEG_JOINT2:0.997412,0.015828,0.000000,0.070133 LLEG_JOINT4:0.995459,0.093356,0.000000,-0.018613 RARM_JOINT2:0.846405,0.000000,0.410242,0.339558 RARM_JOINT3:0.979737,0.000000,0.173850,-0.099453 RLEG_JOINT2:0.996691,0.020342,0.000000,-0.078698 RLEG_JOINT4:0.993081,0.105580,0.000000,0.051401 WAIST:0.999879,-0.000000,0.015252,0.002896 WAIST_JOINT0:0.997996,-0.000000,0.057209,0.027046 WAIST_JOINT1:0.998570,0.053437,0.000000,-0.001361 END:
KINECT_DATA_Sensor  AnkleLeft:-0.039130,-0.677827,0.115052,0.725108 AnkleRight:0.076549,0.747553,0.102212,0.651811 ElbowLeft:-0.037127,0.866819,-0.177895,-0.464327 ElbowRight:-0.418264,0.714053,-0.039992,0.559986 FootLeft:0.000000,0.000000,0.000000,0.000000 FootRight:0.000000,0.000000,0.000000,0.000000 HandLeft:-0.102496,0.824433,-0.018254,0.556301 HandRight:-0.475447,0.576669,-0.239423,0.619741 HandTipLeft:0.000000,0.000000,0.000000,0.000000 HandTipRight:0.000000,0.000000,0.000000,0.000000 Head:0.000000,0.000000,0.000000,0.000000 HipLeft:0.109110,-0.683279,0.706609,-0.148085 HipRight:-0.135486,0.681275,0.698399,-0.172473 KneeLeft:0.039441,-0.695047,0.063448,0.715072 KneeRight:-0.040176,0.716767,0.067418,0.692882 Neck:-0.058788,0.003349,0.995935,-0.068159 ShoulderLeft:0.024537,0.777266,-0.628237,0.023960 ShoulderRight:-0.051043,0.803895,0.581831,-0.112337 SpineBase:-0.015355,0.001821,0.999381,-0.031611 SpineMid:-0.036846,0.002500,0.998819,-0.031565 SpineShoulder:-0.058850,0.002942,0.997081,-0.048547 ThumbLeft:0.000000,0.000000,0.000000,0.000000 ThumbRight:0.000000,0.000000,0.000000,0.000000 WristLeft:-0.089310,0.829845,-0.110501,0.539602 WristRight:-0.483089,0.583586,-0.300922,0.579223 END:
KINECT_DATA POSITION:6.891022,-1.294345,-5.177629 HEAD_JOINT1:0.987083,0.143895,-0.000000,0.070439 LARM_JOINT2:0.819181,0.000000,-0.006535,-0.573498 LARM_JOINT3:0.973671,0.000000,-0.174561,-0.146602 LLEG_JOINT2:0.997461,0.015283,0.000000,0.069556 LLEG_JOINT4:0.995274,0.095629,0.000000,-0.016855 RARM_JOINT2:0.849995,0.000000,0.408354,0.332799 RARM_JOINT3:0.979746,0.000000,0.168565,-0.108095 RLEG_JOINT2:0.996632,0.021234,0.000000,-0.079210 RLEG_JOINT4:0.993190,0.104057,0.000000,0.052395 WAIST:0.999870,-0.000000,0.015814,0.003298 WAIST_JOINT0:0.997841,-0.000000,0.059261,0.028305 WAIST_JOINT1:0.998558,0.053669,0.000000,-0.001477 END:
KINECT_DATA_Sensor  AnkleLeft:-0.039233,-0.676653,0.117375,0.725827 AnkleRight:0.076687,0.748562,0.101120,0.650806 ElbowLeft:-0.037458,0.865657,-0.177631,-0.466564 ElbowRight:-0.422916,0.701459,-0.043759,0.571998 FootLeft:0.000000,0.000000,0.000000,0.000000 FootRight:0.000000,0.000000,0.000000,0.000000 HandLeft:-0.090298,0.805422,-0.016482,0.585550 HandRight:-0.538195,0.717836,-0.087189,0.432961 HandTipLeft:0.000000,0.000000,0.000000,0.000000 HandTipRight:0.000000,0.000000,0.000000,0.000000 Head:0.000000,0.000000,0.000000,0.000000 HipLeft:0.108888,-0.683077,0.706909,-0.147747 HipRight:-0.136036,0.681488,0.698027,-0.172705 KneeLeft:0.039683,-0.694622,0.062957,0.715515 KneeRight:-0.039672,0.717201,0.068111,0.692394 Neck:-0.060866,0.003717,0.995781,-0.068572 ShoulderLeft:0.025020,0.776684,-0.628962,0.023326 ShoulderRight:-0.053307,0.804370,0.580503,-0.114735 SpineBase:-0.015930,0.002174,0.999376,-0.031445 SpineMid:-0.038156,0.002873,0.998775,-0.031389 SpineShoulder:-0.060928,0.003275,0.996948,-0.048695 ThumbLeft:0.000000,0.000000,0.000000,0.000000 ThumbRight:0.000000,0.000000,0.000000,0.000000 WristLeft:-0.085743,0.810140,-0.114516,0.568514 WristRight:-0.556299,0.718270,-0.141772,0.393090 END:
KINECT_DATA POSITION:6.927030,-1.293167,-5.172634 HEAD_JOINT1:0.986549,0.149493,-0.000000,0.066124 LARM_JOINT2:0.818439,0.000000,-0.006455,-0.574556 LARM_JOINT3:0.974670,0.000000,-0.168196,-0.147404 LLEG_JOINT2:0.997495,0.015194,0.000000,0.069083 LLEG_JOINT4:0.994667,0.101394,0.000000,-0.018867 RARM_JOINT2:0.855680,0.000000,0.412329,0.312724 RARM_JOINT3:0.985658,0.000000,0.140489,-0.093491 RLEG_JOINT2:0.996575,0.021239,0.000000,-0.079922 RLEG_JOINT4:0.993140,0.104370,0.000000,0.052724 WAIST:0.999845,-0.000000,0.017219,0.003590 WAIST_JOINT0:0.997603,-0.000000,0.062568,0.029553 WAIST_JOINT1:0.998540,0.054001,0.000000,-0.001368 END:
KINECT_DATA_Sensor  AnkleLeft:-0.044799,-0.673854,0.119770,0.727715 AnkleRight:0.072646,0.723190,0.104443,0.678830 ElbowLeft:-0.036266,0.865588,-0.177122,-0.466980 ElbowRight:-0.439445,0.695329,-0.042628,0.567087 FootLeft:0.000000,0.000000,0.000000,0.000000 FootRight:0.000000,0.000000,0.000000,0.000000 HandLeft:-0.073689,0.838560,0.003450,0.539792 HandRight:-0.532656,0.794420,0.044403,0.288447 HandTipLeft:0.000000,0.000000,0.000000,0.000000 HandTipRight:0.000000,0.000000,0.000000,0.000000 Head:0.000000,0.000000,0.000000,0.000000 HipLeft:0.108008,-0.683036,0.707217,-0.147109 HipRight:-0.137074,0.681508,0.697603,-0.173516 KneeLeft:0.039540,-0.693619,0.062814,0.716508 KneeRight:-0.040073,0.718161,0.068345,0.691352 Neck:-0.064228,0.004149,0.995536,-0.069040 ShoulderLeft:0.025804,0.776067,-0.629729,0.022257 ShoulderRight:-0.056962,0.804693,0.578919,-0.118651 SpineBase:-0.017334,0.002680,0.999351,-0.031453 SpineMid:-0.040515,0.003409,0.998680,-0.031382 SpineShoulder:-0.064288,0.003716,0.996723,-0.048955 ThumbLeft:0.000000,0.000000,0.000000,0.000000 ThumbRight:0.000000,0.000000,0.000000,0.000000 WristLeft:-0.090674,0.840199,-0.108643,0.523488 WristRight:-0.567039,0.784583,-0.006022,0.250718 END:
KINECT_DATA POSITION:6.925702,-1.285200,-5.168569 HEAD_JOINT1:0.986526,0.150455,-0.000000,0.064258 LARM_JOINT2:0.818217,0.000000,-0.006805,-0.574869 LARM_JOINT3:0.974074,0.000000,-0.175066,-0.143287 LLEG_JOINT2:0.997510,0.015312,0.000000,0.068836 LLEG_JOINT4:0.995087,0.097678,0.000000,-0.016144 RARM_JOINT2:0.862903,0.000000,0.405072,0.302182 RARM_JOINT3:0.985762,0.000000,0.134876,-0.100413 RLEG_JOINT2:0.996575,0.021074,0.000000,-0.079966 RLEG_JOINT4:0.993052,0.104068,0.000000,0.054923 WAIST:0.999838,-0.000000,0.017687,0.003387 WAIST_JOINT0:0.998118,-0.000000,0.054459,0.028191 WAIST_JOINT1:0.998510,0.054558,0.000000,-0.000825 END:
KINECT_DATA_Sensor  AnkleLeft:-0.041523,-0.679017,0.118576,0.723292 AnkleRight:0.077065,0.746042,0.100216,0.653788 ElbowLeft:-0.036033,0.865123,-0.177191,-0.467832 ElbowRight:-0.447370,0.684659,-0.036930,0.574229 FootLeft:0.000000,0.000000,0.000000,0.000000 FootRight:0.000000,0.000000,0.000000,0.000000 HandLeft:-0.088890,0.819476,-0.024084,0.565665 HandRight:-0.390868,0.251080,-0.384396,0.797760 HandTipLeft:0.000000,0.000000,0.000000,0.000000 HandTipRight:0.000000,0.000000,0.000000,0.000000 Head:0.000000,0.000000,0.000000,0.000000 HipLeft:0.107506,-0.683168,0.707189,-0.146995 HipRight:-0.137154,0.681289,0.697742,-0.173752 KneeLeft:0.039111,-0.693317,0.062592,0.716844 KneeRight:-0.040396,0.718458,0.068380,0.691021 Neck:-0.056632,0.003875,0.995947,-0.069763 ShoulderLeft:0.027828,0.775381,-0.630440,0.023569 ShoulderRight:-0.044803,0.805034,0.581516,-0.108403 SpineBase:-0.017788,0.002780,0.999336,-0.031674 SpineMid:-0.036994,0.003389,0.998810,-0.031615 SpineShoulder:-0.056667,0.003659,0.997159,-0.049491 ThumbLeft:0.000000,0.000000,0.000000,0.000000 ThumbRight:0.000000,0.000000,0.000000,0.000000 WristLeft:-0.086479,0.822318,-0.111754,0.551203 WristRight:-0.360762,0.282477,-0.446056,0.768824 END:
KINECT_DATA POSITION:6.911273,-1.281837,-5.167913 HEAD_JOINT1:0.986611,0.149921,-0.000000,0.064214 LARM_JOINT2:0.818412,0.000000,-0.007291,-0.574585 LARM_JOINT3:0.973618,0.000000,-0.174639,-0.146862 LLEG_JOINT2:0.997518,0.013558,0.000000,0.069099 LLEG_JOINT4:0.995214,0.096398,0.000000,-0.016034 RARM_JOINT2:0.871806,0.000000,0.390488,0.295759 RARM_JOINT3:0.984688,0.000000,0.145049,-0.096694 RLEG_JOINT2:0.996567,0.020935,0.000000,-0.080104 RLEG_JOINT4:0.993229,0.103754,0.000000,0.052268 WAIST:0.999837,-0.000000,0.017736,0.003408 WAIST_JOINT0:0.997878,-0.000000,0.058290,0.029002 WAIST_JOINT1:0.998493,0.054872,0.000000,-0.000798 END:
KINECT_DATA_Sensor  AnkleLeft:-0.038768,-0.677294,0.116858,0.725338 AnkleRight:0.075193,0.748333,0.101701,0.651154 ElbowLeft:-0.036252,0.865163,-0.177493,-0.467628 ElbowRight:-0.452605,0.685777,-0.015393,0.569756 FootLeft:0.000000,0.000000,0.000000,0.000000 FootRight:0.000000,0.000000,0.000000,0.000000 HandLeft:-0.094855,0.826501,-0.011582,0.554765 HandRight:-0.439721,0.353614,-0.326239,0.758400 HandTipLeft:0.000000,0.000000,0.000000,0.000000 HandTipRight:0.000000,0.000000,0.000000,0.000000 Head:0.000000,0.000000,0.000000,0.000000 HipLeft:0.107369,-0.683158,0.707214,-0.147018 HipRight:-0.137044,0.681295,0.697739,-0.173829 KneeLeft:0.040576,-0.693203,0.061578,0.716960 KneeRight:-0.040581,0.718482,0.068360,0.690988 Neck:-0.060209,0.004064,0.995712,-0.070111 ShoulderLeft:0.027957,0.775024,-0.630895,0.022944 ShoulderRight:-0.049442,0.804233,0.581339,-0.113180 SpineBase:-0.017838,0.002760,0.999331,-0.031804 SpineMid:-0.038787,0.003427,0.998737,-0.031739 SpineShoulder:-0.060240,0.003923,0.996934,-0.049774 ThumbLeft:0.000000,0.000000,0.000000,0.000000 ThumbRight:0.000000,0.000000,0.000000,0.000000 WristLeft:-0.088212,0.831248,-0.110580,0.537603 WristRight:-0.424677,0.378490,-0.389599,0.724298 END:
KINECT_DATA POSITION:6.894678,-1.282714,-5.181885 HEAD_JOINT1:0.986295,0.151242,-0.000000,0.065937 LARM_JOINT2:0.818678,0.000000,-0.006977,-0.574210 LARM_JOINT3:0.972916,0.000000,-0.177335,-0.148278 LLEG_JOINT2:0.997488,0.014814,0.000000,0.069266 LLEG_JOINT4:0.995225,0.096081,0.000000,-0.017215 RARM_JOINT2:0.873439,0.000000,0.386396,0.296314 RARM_JOINT3:0.982521,0.000000,0.162779,-0.090306 RLEG_JOINT2:0.996714,0.022519,0.000000,-0.077809 RLEG_JOINT4:0.993255,0.104974,0.000000,0.049247 WAIST:0.999851,-0.000000,0.016935,0.003308 WAIST_JOINT0:0.997878,-0.000000,0.058221,0.029142 WAIST_JOINT1:0.998502,0.054702,0.000000,-0.000948 END:
KINECT_DATA_Sensor  AnkleLeft:-0.040005,-0.677117,0.116794,0.725445 AnkleRight:0.076848,0.748000,0.104100,0.650964 ElbowLeft:-0.036284,0.865832,-0.177718,-0.466298 ElbowRight:-0.452352,0.690221,-0.006581,0.564738 FootLeft:0.000000,0.000000,0.000000,0.000000 FootRight:0.000000,0.000000,0.000000,0.000000 HandLeft:-0.102605,0.816736,-0.015788,0.567596 HandRight:-0.255621,0.052516,-0.471144,0.842570 HandTipLeft:0.000000,0.000000,0.000000,0.000000 HandTipRight:0.000000,0.000000,0.000000,0.000000 Head:0.000000,0.000000,0.000000,0.000000 HipLeft:0.107775,-0.683188,0.707060,-0.147323 HipRight:-0.136374,0.681390,0.697913,-0.173283 KneeLeft:0.039760,-0.693821,0.062471,0.716330 KneeRight:-0.037839,0.718079,0.068006,0.691597 Neck:-0.060046,0.003812,0.995742,-0.069835 ShoulderLeft:0.027089,0.775209,-0.630687,0.023466 ShoulderRight:-0.050124,0.804264,0.581193,-0.113410 SpineBase:-0.017038,0.002548,0.999346,-0.031795 SpineMid:-0.038301,0.003224,0.998757,-0.031734 SpineShoulder:-0.060072,0.003772,0.996952,-0.049644 ThumbLeft:0.000000,0.000000,0.000000,0.000000 ThumbRight:0.000000,0.000000,0.000000,0.000000 WristLeft:-0.087923,0.823023,-0.111486,0.549976 WristRight:-0.240223,0.074782,-0.527688,0.811324 END:
KINECT_DATA POSITION:6.874868,-1.287917,-5.212295 HEAD_JOINT1:0.986054,0.152235,-0.000000,0.067238 LARM_JOINT2:0.819294,0.000000,-0.006530,-0.573336 LARM_JOINT3:0.973436,0.000000,-0.175675,-0.146838 LLEG_JOINT2:0.997448,0.015538,0.000000,0.069691 LLEG_JOINT4:0.995508,0.093351,0.000000,-0.015769 RARM_JOINT2:0.871374,0.000000,0.391884,0.295186 RARM_JOINT3:0.983321,0.000000,0.160483,-0.085587 RLEG_JOINT2:0.996703,0.022017,0.000000,-0.078089 RLEG_JOINT4:0.993570,0.102332,0.000000,0.048451 WAIST:0.999870,-0.000000,0.015820,0.003236 WAIST_JOINT0:0.998192,-0.000000,0.052974,0.028394 WAIST_JOINT1:0.998513,0.054498,0.000000,-0.001260 END:
KINECT_DATA_Sensor  AnkleLeft:-0.037569,-0.680545,0.116601,0.722393 AnkleRight:0.073581,0.745835,0.102979,0.653996 ElbowLeft:-0.036565,0.866466,-0.178370,-0.464848 ElbowRight:-0.453989,0.695184,-0.007040,0.557282 FootLeft:0.000000,0.000000,0.000000,0.000000 FootRight:0.000000,0.000000,0.000000,0.000000 HandLeft:-0.092397,0.801223,-0.020578,0.590830 HandRight:-0.414349,0.378940,-0.343602,0.752766 HandTipLeft:0.000000,0.000000,0.000000,0.000000 HandTipRight:0.000000,0.000000,0.000000,0.000000 Head:0.000000,0.000000,0.000000,0.000000 HipLeft:0.108251,-0.683160,0.706944,-0.147663 HipRight:-0.135351,0.681552,0.698171,-0.172409 KneeLeft:0.039548,-0.694630,0.063189,0.715495 KneeRight:-0.038364,0.717275,0.067936,0.692409 Neck:-0.054957,0.003101,0.996058,-0.069559 ShoulderLeft:0.026304,0.775559,-0.630224,0.025194 ShoulderRight:-0.044168,0.804862,0.581999,-0.107351 SpineBase:-0.015929,0.002308,0.999365,-0.031783 SpineMid:-0.035220,0.002922,0.998871,-0.031732 SpineShoulder:-0.054969,0.003279,0.997255,-0.049495 ThumbLeft:0.000000,0.000000,0.000000,0.000000 ThumbRight:0.000000,0.000000,0.000000,0.000000 WristLeft:-0.084487,0.806188,-0.114103,0.574372 WristRight:-0.422379,0.385935,-0.391266,0.720806 END:
KINECT_DATA POSITION:6.862610,-1.291000,-5.239677 HEAD_JOINT1:0.986195,0.151449,-0.000000,0.066947 LARM_JOINT2:0.820138,0.000000,-0.007386,-0.572118 LARM_JOINT3:0.973029,0.000000,-0.177974,-0.146762 LLEG_JOINT2:0.997437,0.015886,0.000000,0.069765 LLEG_JOINT4:0.995594,0.092262,0.000000,-0.016734 RARM_JOINT2:0.870059,0.000000,0.394779,0.295207 RARM_JOINT3:0.982806,0.000000,0.164235,-0.084371 RLEG_JOINT2:0.996763,0.021306,0.000000,-0.077522 RLEG_JOINT4:0.993402,0.103385,0.000000,0.049640 WAIST:0.999887,-0.000000,0.014714,0.003029 WAIST_JOINT0:0.998356,-0.000000,0.050150,0.027750 WAIST_JOINT1:0.998495,0.054828,0.000000,-0.001131 END:
KINECT_DATA_Sensor  AnkleLeft:-0.037777,-0.682092,0.115323,0.721127 AnkleRight:0.074865,0.744169,0.102090,0.655886 ElbowLeft:-0.036961,0.868865,-0.179529,-0.459866 ElbowRight:-0.453987,0.698983,-0.006180,0.552522 FootLeft:0.000000,0.000000,0.000000,0.000000 FootRight:0.000000,0.000000,0.000000,0.000000 HandLeft:-0.100930,0.818617,-0.027762,0.564719 HandRight:-0.241134,0.055103,-0.478406,0.842583 HandTipLeft:0.000000,0.000000,0.000000,0.000000 HandTipRight:0.000000,0.000000,0.000000,0.000000 Head:0.000000,0.000000,0.000000,0.000000 HipLeft:0.108523,-0.683124,0.706804,-0.148295 HipRight:-0.134268,0.681535,0.698562,-0.171736 KneeLeft:0.039269,-0.695447,0.063299,0.714706 KneeRight:-0.038526,0.716485,0.067219,0.693287 Neck:-0.052263,0.003016,0.996177,-0.069936 ShoulderLeft:0.026303,0.775374,-0.630404,0.026366 ShoulderRight:-0.040649,0.804659,0.583074,-0.104384 SpineBase:-0.014814,0.002214,0.999373,-0.032085 SpineMid:-0.033329,0.002808,0.998927,-0.032039 SpineShoulder:-0.052274,0.003180,0.997384,-0.049823 ThumbLeft:0.000000,0.000000,0.000000,0.000000 ThumbRight:0.000000,0.000000,0.000000,0.000000 WristLeft:-0.087484,0.823196,-0.110680,0.549951 WristRight:-0.229553,0.073303,-0.529355,0.813459 END:
KINECT_DATA POSITION:6.879260,-1.295632,-5.238402 HEAD_JOINT1:0.986254,0.152460,-0.000000,0.063710 LARM_JOINT2:0.820867,0.000000,-0.010511,-0.571023 LARM_JOINT3:0.972134,0.000000,-0.181446,-0.148431 LLEG_JOINT2:0.997462,0.015646,0.000000,0.069466 LLEG_JOINT4:0.995409,0.094475,0.000000,-0.015349 RARM_JOINT2:0.870199,0.000000,0.392126,0.298315 RARM_JOINT3:0.981634,0.000000,0.171779,-0.082986 RLEG_JOINT2:0.996782,0.021078,0.000000,-0.077344 RLEG_JOINT4:0.993440,0.103356,0.000000,0.048937 WAIST:0.999894,-0.000000,0.014263,0.003052 WAIST_JOINT0:0.998261,-0.000000,0.051815,0.028124 WAIST_JOINT1:0.998478,0.055142,0.000000,-0.001283 END:
KINECT_DATA_Sensor  AnkleLeft:-0.038191,-0.681094,0.117554,0.721688 AnkleRight:0.074564,0.745071,0.102125,0.654889 ElbowLeft:-0.038920,0.870818,-0.179629,-0.455955 ElbowRight:-0.451132,0.700814,-0.002985,0.552568 FootLeft:0.000000,0.000000,0.000000,0.000000 FootRight:0.000000,0.000000,0.000000,0.000000 HandLeft:-0.118933,0.813586,-0.034184,0.568123 HandRight:-0.390810,0.366526,-0.354056,0.766532 HandTipLeft:0.000000,0.000000,0.000000,0.000000 HandTipRight:0.000000,0.000000,0.000000,0.000000 Head:0.000000,0.000000,0.000000,0.000000 HipLeft:0.108688,-0.683055,0.706770,-0.148658 HipRight:-0.133940,0.681596,0.698591,-0.171633 KneeLeft:0.039279,-0.695768,0.062915,0.714427 KneeRight:-0.038512,0.716173,0.066933,0.693637 Neck:-0.053771,0.002972,0.996068,-0.070346 ShoulderLeft:0.025535,0.775453,-0.630316,0.026876 ShoulderRight:-0.043456,0.804333,0.582823,-0.107131 SpineBase:-0.014367,0.002214,0.999374,-0.032246 SpineMid:-0.033844,0.002842,0.998904,-0.032196 SpineShoulder:-0.053780,0.003209,0.997290,-0.050100 ThumbLeft:0.000000,0.000000,0.000000,0.000000 ThumbRight:0.000000,0.000000,0.000000,0.000000 WristLeft:-0.087647,0.821272,-0.111342,0.552661 WristRight:-0.407384,0.370220,-0.411020,0.726662 END:
KINECT_DATA POSITION:6.860948,-1.317880,-5.221057 HEAD_JOINT1:0.986122,0.156048,-0.000000,0.056674 LARM_JOINT2:0.821948,0.000000,-0.014446,-0.569379 LARM_JOINT3:0.971792,0.000000,-0.177610,-0.155162 LLEG_JOINT2:0.997412,0.015376,0.000000,0.070240 LLEG_JOINT4:0.995377,0.094633,0.000000,-0.016419 RARM_JOINT2:0.868111,0.000000,0.393543,0.302502 RARM_JOINT3:0.983542,0.000000,0.161834,-0.080346 RLEG_JOINT2:0.996764,0.020548,0.000000,-0.077710 RLEG_JOINT4:0.993273,0.103846,0.000000,0.051236 WAIST:0.999916,-0.000000,0.012665,0.002658 WAIST_JOINT0:0.998624,-0.000000,0.045422,0.026225 WAIST_JOINT1:0.998325,0.057825,0.000000,-0.001780 END:
KINECT_DATA_Sensor  AnkleLeft:0.048981,0.745435,-0.113038,-0.655096 AnkleRight:0.075399,0.741707,0.101094,0.658761 ElbowLeft:-0.038700,0.875532,-0.180467,-0.446518 ElbowRight:-0.446385,0.700749,-0.004695,0.556479 FootLeft:0.000000,0.000000,0.000000,0.000000 FootRight:0.000000,0.000000,0.000000,0.000000 HandLeft:-0.114883,0.792796,-0.016322,0.598340 HandRight:-0.381511,0.343995,-0.342884,0.786478 HandTipLeft:0.000000,0.000000,0.000000,0.000000 HandTipRight:0.000000,0.000000,0.000000,0.000000 Head:0.000000,0.000000,0.000000,0.000000 HipLeft:0.108974,-0.682950,0.706399,-0.150678 HipRight:-0.132186,0.681334,0.699125,-0.171859 KneeLeft:0.039832,-0.696894,0.062944,0.713296 KneeRight:-0.039313,0.715001,0.067151,0.694780 Neck:-0.047625,0.001732,0.996159,-0.073452 ShoulderLeft:0.027572,0.775215,-0.630371,0.030214 ShoulderRight:-0.033263,0.803134,0.586226,-0.101041 SpineBase:-0.012759,0.001845,0.999349,-0.033689 SpineMid:-0.029985,0.002425,0.998981,-0.033652 SpineShoulder:-0.047621,0.002296,0.997472,-0.052696 ThumbLeft:0.000000,0.000000,0.000000,0.000000 ThumbRight:0.000000,0.000000,0.000000,0.000000 WristLeft:-0.085699,0.802864,-0.111020,0.579430 WristRight:-0.395620,0.353587,-0.415238,0.738944 END:
KINECT_DATA POSITION:6.773159,-1.385663,-4.998147 HEAD_JOINT1:0.983859,0.162182,-0.000000,0.075627 LARM_JOINT2:0.823447,0.000000,-0.023693,-0.566899 LARM_JOINT3:0.969913,0.000000,-0.179761,-0.164181 LLEG_JOINT2:0.997326,0.019252,0.000000,0.070501 LLEG_JOINT4:0.995251,0.095841,0.000000,-0.017006 RARM_JOINT2:0.858549,0.000000,0.406462,0.312542 RARM_JOINT3:0.985899,0.000000,0.143031,-0.086859 RLEG_JOINT2:0.996877,0.020769,0.000000,-0.076191 RLEG_JOINT4:0.993331,0.103563,0.000000,0.050680 WAIST:0.999998,-0.000000,0.000796,0.001982 WAIST_JOINT0:0.999348,-0.000000,0.026708,0.024312 WAIST_JOINT1:0.998268,0.058757,0.000000,-0.002864 END:
KINECT_DATA_Sensor  AnkleLeft:-0.042034,-0.694564,0.120166,0.708078 AnkleRight:0.076442,0.731749,0.100212,0.669819 ElbowLeft:-0.040457,0.897194,-0.179374,-0.401537 ElbowRight:-0.438713,0.688966,-0.023036,0.576477 FootLeft:0.000000,0.000000,0.000000,0.000000 FootRight:0.000000,0.000000,0.000000,0.000000 HandLeft:-0.133523,0.825892,-0.020412,0.547410 HandRight:-0.394662,0.334394,-0.334586,0.787702 HandTipLeft:0.000000,0.000000,0.000000,0.000000 HandTipRight:0.000000,0.000000,0.000000,0.000000 Head:0.000000,0.000000,0.000000,0.000000 HipLeft:0.116611,-0.681307,0.704876,-0.159285 HipRight:-0.125510,0.681714,0.701070,-0.167374 KneeLeft:-0.037498,0.705473,-0.064941,-0.704758 KneeRight:-0.037737,0.706739,0.067194,0.703264 Neck:-0.028965,0.000023,0.996816,-0.074296 ShoulderLeft:0.013370,0.776108,-0.628684,0.047264 ShoulderRight:-0.023624,0.803048,0.588805,-0.088685 SpineBase:-0.000898,0.000938,0.999384,-0.035066 SpineMid:-0.014741,0.001424,0.999276,-0.035050 SpineShoulder:-0.028930,0.000942,0.998135,-0.053746 ThumbLeft:0.000000,0.000000,0.000000,0.000000 ThumbRight:0.000000,0.000000,0.000000,0.000000 WristLeft:-0.103497,0.834033,-0.089666,0.534450 WristRight:-0.396258,0.350196,-0.401402,0.747810 END:
KINECT_DATA POSITION:6.561267,-1.489836,-4.751933 HEAD_JOINT1:0.981656,0.160673,-0.000000,0.102645 LARM_JOINT2:0.827390,0.000000,-0.036900,-0.560415 LARM_JOINT3:0.968776,0.000000,-0.176265,-0.174366 LLEG_JOINT2:0.997101,0.022170,0.000000,0.072791 LLEG_JOINT4:0.994857,0.098591,0.000000,-0.023224 RARM_JOINT2:0.854454,0.000000,0.401890,0.329231 RARM_JOINT3:0.979999,0.000000,0.168835,-0.105345 RLEG_JOINT2:0.997104,0.022426,0.000000,-0.072673 RLEG_JOINT4:0.993953,0.099767,0.000000,0.045878 WAIST:0.999941,0.000000,-0.010826,0.000985 WAIST_JOINT0:0.999728,-0.000000,0.007434,0.022114 WAIST_JOINT1:0.998183,0.060048,0.000000,-0.005083 END:
KINECT_DATA_Sensor  AnkleLeft:0.048449,0.704116,-0.121094,-0.698003 AnkleRight:0.074125,0.721909,0.099942,0.680709 ElbowLeft:-0.047129,0.914512,-0.179689,-0.359387 ElbowRight:-0.425461,0.681797,-0.020423,0.594743 FootLeft:0.000000,0.000000,0.000000,0.000000 FootRight:0.000000,0.000000,0.000000,0.000000 HandLeft:-0.139617,0.778730,-0.025786,0.611082 HandRight:-0.418478,0.372917,-0.326375,0.761110 HandTipLeft:0.000000,0.000000,0.000000,0.000000 HandTipRight:0.000000,0.000000,0.000000,0.000000 Head:0.000000,0.000000,0.000000,0.000000 HipLeft:0.123749,-0.680075,0.703150,-0.166628 HipRight:-0.117926,0.681932,0.703301,-0.162575 KneeLeft:-0.037109,0.713665,-0.067508,-0.696239 KneeRight:-0.033991,0.698677,0.066990,0.711483 Neck:-0.009693,-0.003289,0.997077,-0.075712 ShoulderLeft:0.000075,0.777325,-0.625828,0.064069 ShoulderRight:-0.012092,0.802964,0.591140,-0.075208 SpineBase:0.010684,-0.001336,0.999282,-0.036327 SpineMid:0.000649,-0.000971,0.999339,-0.036339 SpineShoulder:-0.009643,-0.001875,0.998430,-0.055140 ThumbLeft:0.000000,0.000000,0.000000,0.000000 ThumbRight:0.000000,0.000000,0.000000,0.000000 WristLeft:-0.105365,0.788366,-0.087502,0.599767 WristRight:-0.420490,0.387820,-0.390636,0.721240 END:
KINECT_DATA POSITION:6.500345,-1.565243,-4.584396 HEAD_JOINT1:0.980718,0.158879,-0.000000,0.113799 LARM_JOINT2:0.829565,0.000000,-0.038671,-0.557069 LARM_JOINT3:0.969144,0.000000,-0.169377,-0.179084 LLEG_JOINT2:0.997071,0.024007,0.000000,0.072621 LLEG_JOINT4:0.994823,0.099148,0.000000,-0.022290 RARM_JOINT2:0.851274,0.000000,0.400856,0.338595 RARM_JOINT3:0.976878,0.000000,0.183861,-0.109109 RLEG_JOINT2:0.997098,0.023797,0.000000,-0.072314 RLEG_JOINT4:0.994094,0.098988,0.000000,0.044473 WAIST:0.999818,0.000000,-0.019064,0.001088 WAIST_JOINT0:0.999779,0.000000,-0.003430,0.020759 WAIST_JOINT1:0.998188,0.059737,0.000000,-0.007291 END:
KINECT_DATA_Sensor  AnkleLeft:0.048564,0.709986,-0.123776,-0.691550 AnkleRight:0.074727,0.715962,0.100472,0.686818 ElbowLeft:-0.048969,0.921298,-0.180710,-0.340815 ElbowRight:-0.419038,0.679859,-0.017944,0.601562 FootLeft:0.000000,0.000000,0.000000,0.000000 FootRight:0.000000,0.000000,0.000000,0.000000 HandLeft:-0.118838,0.782836,-0.012412,0.610648 HandRight:-0.336799,0.761617,0.409563,-0.372510 HandTipLeft:0.000000,0.000000,0.000000,0.000000 HandTipRight:0.000000,0.000000,0.000000,0.000000 Head:0.000000,0.000000,0.000000,0.000000 HipLeft:0.129486,-0.678805,0.702366,-0.170703 HipRight:-0.113109,0.682733,0.704309,-0.158211 KneeLeft:-0.036326,0.719415,-0.068485,-0.690241 KneeRight:-0.032112,0.692887,0.067895,0.717124 Neck:0.001265,-0.005318,0.997131,-0.075495 ShoulderLeft:-0.008554,0.778780,-0.622972,0.073036 ShoulderRight:-0.006624,0.803452,0.591550,-0.067008 SpineBase:0.018847,-0.002816,0.999172,-0.035946 SpineMid:0.010195,-0.002505,0.999298,-0.035969 SpineShoulder:0.001324,-0.003581,0.998483,-0.054927 ThumbLeft:0.000000,0.000000,0.000000,0.000000 ThumbRight:0.000000,0.000000,0.000000,0.000000 WristLeft:-0.109541,0.788949,-0.081864,0.599048 WristRight:-0.398246,0.721027,0.418655,-0.382423 END:
KINECT_DATA POSITION:6.464051,-1.667955,-4.375672 HEAD_JOINT1:0.979834,0.155412,-0.000000,0.125587 LARM_JOINT2:0.832053,0.000000,-0.046496,-0.552744 LARM_JOINT3:0.968362,0.000000,-0.168331,-0.184228 LLEG_JOINT2:0.997023,0.025971,0.000000,0.072603 LLEG_JOINT4:0.994615,0.101007,0.000000,-0.023201 RARM_JOINT2:0.847275,0.000000,0.401793,0.347402 RARM_JOINT3:0.975592,0.000000,0.187600,-0.114130 RLEG_JOINT2:0.997152,0.025369,0.000000,-0.071022 RLEG_JOINT4:0.994523,0.096000,0.000000,0.041334 WAIST:0.999619,0.000000,-0.027574,0.000905 WAIST_JOINT0:0.999703,0.000000,-0.014209,0.019775 WAIST_JOINT1:0.998240,0.058312,0.000000,-0.010785 END:
KINECT_DATA_Sensor  AnkleLeft:0.050939,0.715394,-0.126171,-0.685345 AnkleRight:0.073166,0.710306,0.100490,0.692831 ElbowLeft:-0.053981,0.932067,-0.179151,-0.310228 ElbowRight:-0.414886,0.679878,-0.015256,0.604485 FootLeft:0.000000,0.000000,0.000000,0.000000 FootRight:0.000000,0.000000,0.000000,0.000000 HandLeft:-0.141001,0.745477,-0.022678,0.651052 HandRight:-0.426147,0.377020,-0.325904,0.755011 HandTipLeft:0.000000,0.000000,0.000000,0.000000 HandTipRight:0.000000,0.000000,0.000000,0.000000 Head:0.000000,0.000000,0.000000,0.000000 HipLeft:0.135442,-0.678118,0.701177,-0.173671 HipRight:-0.107784,0.683722,0.705414,-0.152637 KneeLeft:-0.035397,0.725334,-0.069468,-0.683968 KneeRight:-0.029619,0.686852,0.068442,0.722961 Neck:0.011976,-0.009296,0.997149,-0.073915 ShoulderLeft:-0.015829,0.780305,-0.620080,0.079839 ShoulderRight:-0.000024,0.804533,0.591178,-0.056880 SpineBase:0.027286,-0.005023,0.999012,-0.034703 SpineMid:0.019772,-0.004762,0.999189,-0.034740 SpineShoulder:0.012050,-0.006738,0.998456,-0.053800 ThumbLeft:0.000000,0.000000,0.000000,0.000000 ThumbRight:0.000000,0.000000,0.000000,0.000000 WristLeft:-0.108801,0.755309,-0.080252,0.641272 WristRight:-0.424959,0.394435,-0.393779,0.713280 END:
KINECT_DATA POSITION:6.486290,-1.700326,-4.332745 HEAD_JOINT1:0.979406,0.151753,-0.000000,0.133171 LARM_JOINT2:0.833420,0.000000,-0.050319,-0.550345 LARM_JOINT3:0.970881,0.000000,-0.158647,-0.179500 LLEG_JOINT2:0.996965,0.026598,0.000000,0.073161 LLEG_JOINT4:0.994418,0.103249,0.000000,-0.021754 RARM_JOINT2:0.846497,0.000000,0.402010,0.349043 RARM_JOINT3:0.975520,0.000000,0.188034,-0.114037 RLEG_JOINT2:0.997173,0.026466,0.000000,-0.070323 RLEG_JOINT4:0.994855,0.093240,0.000000,0.039631 WAIST:0.999530,0.000000,-0.030639,0.000583 WAIST_JOINT0:0.999618,0.000000,-0.021174,0.017748 WAIST_JOINT1:0.998227,0.058080,0.000000,-0.013032 END:
KINECT_DATA_Sensor  AnkleLeft:0.051650,0.718936,-0.129394,-0.680970 AnkleRight:0.071106,0.706838,0.100374,0.696598 ElbowLeft:-0.056347,0.935632,-0.178031,-0.299536 ElbowRight:-0.415017,0.672893,-0.017135,0.612113 FootLeft:0.000000,0.000000,0.000000,0.000000 FootRight:0.000000,0.000000,0.000000,0.000000 HandLeft:-0.105447,0.826343,-0.013587,0.553041 HandRight:-0.420105,0.382933,-0.323542,0.756435 HandTipLeft:0.000000,0.000000,0.000000,0.000000 HandTipRight:0.000000,0.000000,0.000000,0.000000 Head:0.000000,0.000000,0.000000,0.000000 HipLeft:0.137205,-0.678204,0.700472,-0.174795 HipRight:-0.104927,0.683993,0.705920,-0.151065 KneeLeft:-0.035354,0.727436,-0.069974,-0.681682 KneeRight:-0.028350,0.684678,0.069004,0.725018 Neck:0.018939,-0.011864,0.997031,-0.073682 ShoulderLeft:-0.018606,0.780918,-0.618725,0.083662 ShoulderRight:0.006228,0.803401,0.593305,-0.049969 SpineBase:0.030303,-0.006821,0.998908,-0.034904 SpineMid:0.024721,-0.006626,0.999062,-0.034942 SpineShoulder:0.018967,-0.009377,0.998333,-0.053694 ThumbLeft:0.000000,0.000000,0.000000,0.000000 ThumbRight:0.000000,0.000000,0.000000,0.000000 WristLeft:-0.118839,0.826886,-0.064204,0.545907 WristRight:-0.431869,0.393528,-0.391335,0.710972 END:
KINECT_DATA POSITION:6.538983,-1.747162,-4.320061 HEAD_JOINT1:0.979080,0.149226,-0.000000,0.138324 LARM_JOINT2:0.834521,0.000000,-0.048380,-0.548848 LARM_JOINT3:0.970076,0.000000,-0.157895,-0.184450 LLEG_JOINT2:0.996997,0.026745,0.000000,0.072671 LLEG_JOINT4:0.994188,0.104738,0.000000,-0.024899 RARM_JOINT2:0.844730,0.000000,0.404048,0.350966 RARM_JOINT3:0.973508,0.000000,0.200257,-0.110362 RLEG_JOINT2:0.997075,0.027111,0.000000,-0.071459 RLEG_JOINT4:0.994962,0.091703,0.000000,0.040507 WAIST:0.999440,0.000000,-0.033431,0.001054 WAIST_JOINT0:0.999551,0.000000,-0.024241,0.017598 WAIST_JOINT1:0.998217,0.057774,0.000000,-0.014975 END:
KINECT_DATA_Sensor  AnkleLeft:0.054627,0.720150,-0.128594,-0.679605 AnkleRight:0.073620,0.724359,0.097422,0.678523 ElbowLeft:-0.055333,0.937196,-0.178979,-0.294226 ElbowRight:-0.414788,0.682548,-0.010867,0.601632 FootLeft:0.000000,0.000000,0.000000,0.000000 FootRight:0.000000,0.000000,0.000000,0.000000 HandLeft:-0.108087,0.757397,-0.012621,0.643822 HandRight:-0.409084,0.377795,-0.347950,0.754222 HandTipLeft:0.000000,0.000000,0.000000,0.000000 HandTipRight:0.000000,0.000000,0.000000,0.000000 Head:0.000000,0.000000,0.000000,0.000000 HipLeft:0.138758,-0.677858,0.700308,-0.175567 HipRight:-0.102188,0.684807,0.705860,-0.149527 KneeLeft:-0.035425,0.729304,-0.069980,-0.679679 KneeRight:-0.028120,0.682689,0.070025,0.726803 Neck:0.022233,-0.013035,0.996966,-0.073451 ShoulderLeft:-0.021200,0.782136,-0.616770,0.086074 ShoulderRight:0.007835,0.803921,0.592807,-0.047221 SpineBase:0.033002,-0.008338,0.998807,-0.035020 SpineMid:0.027681,-0.008151,0.998968,-0.035064 SpineShoulder:0.022222,-0.010786,0.998262,-0.053506 ThumbLeft:0.000000,0.000000,0.000000,0.000000 ThumbRight:0.000000,0.000000,0.000000,0.000000 WristLeft:-0.110866,0.761430,-0.074447,0.634342 WristRight:-0.418775,0.385184,-0.403091,0.716783 END:
KINECT_DATA POSITION:6.556120,-1.765152,-4.330087 HEAD_JOINT1:0.979245,0.148206,-0.000000,0.138255 LARM_JOINT2:0.834606,0.000000,-0.047990,-0.548752 LARM_JOINT3:0.970833,0.000000,-0.154734,-0.183144 LLEG_JOINT2:0.997028,0.027522,0.000000,0.071958 LLEG_JOINT4:0.994493,0.102604,0.000000,-0.021373 RARM_JOINT2:0.842697,0.000000,0.407762,0.351557 RARM_JOINT3:0.969188,0.000000,0.219401,-0.111972 RLEG_JOINT2:0.996970,0.027040,0.000000,-0.072932 RLEG_JOINT4:0.995126,0.088423,0.000000,0.043645 WAIST:0.999401,0.000000,-0.034585,0.001266 WAIST_JOINT0:0.999528,0.000000,-0.025266,0.017481 WAIST_JOINT1:0.998206,0.057832,0.000000,-0.015498 END:
KINECT_DATA_Sensor  AnkleLeft:0.051361,0.721198,-0.129760,-0.678526 AnkleRight:0.069635,0.704571,0.095792,0.699682 ElbowLeft:-0.055440,0.937024,-0.178816,-0.294850 ElbowRight:-0.414772,0.690328,-0.008877,0.592733 FootLeft:0.000000,0.000000,0.000000,0.000000 FootRight:0.000000,0.000000,0.000000,0.000000 HandLeft:-0.091221,0.720319,-0.014555,0.687464 HandRight:-0.395855,0.372882,-0.393294,0.741335 HandTipLeft:0.000000,0.000000,0.000000,0.000000 HandTipRight:0.000000,0.000000,0.000000,0.000000 Head:0.000000,0.000000,0.000000,0.000000 HipLeft:0.139190,-0.677693,0.700304,-0.175879 HipRight:-0.100979,0.685173,0.705845,-0.148743 KneeLeft:-0.034599,0.730125,-0.070170,-0.678820 KneeRight:-0.028940,0.681828,0.070941,0.727489 Neck:0.023283,-0.013238,0.996929,-0.073587 ShoulderLeft:-0.021506,0.782296,-0.616473,0.086672 ShoulderRight:0.008878,0.803905,0.592895,-0.046186 SpineBase:0.034125,-0.008708,0.998762,-0.035117 SpineMid:0.028760,-0.008519,0.998931,-0.035163 SpineShoulder:0.023266,-0.011032,0.998231,-0.053587 ThumbLeft:0.000000,0.000000,0.000000,0.000000 ThumbRight:0.000000,0.000000,0.000000,0.000000 WristLeft:-0.106696,0.723146,-0.080953,0.677586 WristRight:-0.404232,0.373457,-0.421413,0.720789 END:
KINECT_DATA POSITION:6.560399,-1.788669,-4.344821 HEAD_JOINT1:0.979214,0.148413,-0.000000,0.138252 LARM_JOINT2:0.834336,0.000000,-0.048373,-0.549129 LARM_JOINT3:0.970355,0.000000,-0.153787,-0.186444 LLEG_JOINT2:0.997089,0.026685,0.000000,0.071418 LLEG_JOINT4:0.994401,0.103802,0.000000,-0.019818 RARM_JOINT2:0.832052,0.000000,0.440265,0.337427 RARM_JOINT3:0.978045,0.000000,0.187083,-0.091803 RLEG_JOINT2:0.996947,0.026653,0.000000,-0.073385 RLEG_JOINT4:0.994957,0.090068,0.000000,0.044149 WAIST:0.999386,0.000000,-0.035021,0.001380 WAIST_JOINT0:0.999519,0.000000,-0.025309,0.017897 WAIST_JOINT1:0.998212,0.057719,0.000000,-0.015525 END:
KINECT_DATA_Sensor  AnkleLeft:0.050716,0.721285,-0.130828,-0.678277 AnkleRight:0.070805,0.704501,0.096395,0.699552 ElbowLeft:-0.055725,0.937254,-0.178282,-0.294388 ElbowRight:-0.427827,0.690446,-0.037088,0.582128 FootLeft:0.000000,0.000000,0.000000,0.000000 FootRight:0.000000,0.000000,0.000000,0.000000 HandLeft:-0.098784,0.769133,0.007958,0.631358 HandRight:-0.380890,0.433055,-0.373629,0.726490 HandTipLeft:0.000000,0.000000,0.000000,0.000000 HandTipRight:0.000000,0.000000,0.000000,0.000000 Head:0.000000,0.000000,0.000000,0.000000 HipLeft:0.139267,-0.677607,0.700340,-0.176004 HipRight:-0.100424,0.685360,0.705826,-0.148344 KneeLeft:-0.034894,0.730392,-0.069253,-0.678611 KneeRight:-0.029421,0.681501,0.070942,0.727776 Neck:0.023287,-0.013000,0.996943,-0.073444 ShoulderLeft:-0.021808,0.782158,-0.616620,0.086788 ShoulderRight:0.008554,0.804310,0.592347,-0.046230 SpineBase:0.034550,-0.008738,0.998745,-0.035183 SpineMid:0.028970,-0.008541,0.998923,-0.035232 SpineShoulder:0.023262,-0.010935,0.998237,-0.053499 ThumbLeft:0.000000,0.000000,0.000000,0.000000 ThumbRight:0.000000,0.000000,0.000000,0.000000 WristLeft:-0.112316,0.773803,-0.072483,0.619161 WristRight:-0.419668,0.411772,-0.394405,0.706234 END:
KINECT_DATA POSITION:6.567212,-1.811654,-4.362261 HEAD_JOINT1:0.979308,0.148980,-0.000000,0.136967 LARM_JOINT2:0.833971,0.000000,-0.049041,-0.549625 LARM_JOINT3:0.970850,0.000000,-0.150733,-0.186362 LLEG_JOINT2:0.997163,0.026140,0.000000,0.070584 LLEG_JOINT4:0.994316,0.104030,0.000000,-0.022673 RARM_JOINT2:0.823968,0.000000,0.458814,0.332516 RARM_JOINT3:0.980951,0.000000,0.181254,-0.069878 RLEG_JOINT2:0.996894,0.027024,0.000000,-0.073975 RLEG_JOINT4:0.994944,0.089778,0.000000,0.045008 WAIST:0.999401,0.000000,-0.034569,0.001773 WAIST_JOINT0:0.999525,0.000000,-0.024734,0.018361 WAIST_JOINT1:0.998217,0.057695,0.000000,-0.015301 END:
KINECT_DATA_Sensor  AnkleLeft:0.056758,0.740943,-0.126701,-0.657061 AnkleRight:0.069694,0.693392,0.097126,0.710575 ElbowLeft:-0.055791,0.937691,-0.178175,-0.293048 ElbowRight:-0.433793,0.722619,-0.031745,0.537250 FootLeft:0.000000,0.000000,0.000000,0.000000 FootRight:0.000000,0.000000,0.000000,0.000000 HandLeft:-0.091360,0.744951,0.009668,0.660763 HandRight:-0.369946,0.698129,0.381323,-0.479946 HandTipLeft:0.000000,0.000000,0.000000,0.000000 HandTipRight:0.000000,0.000000,0.000000,0.000000 Head:0.000000,0.000000,0.000000,0.000000 HipLeft:0.138720,-0.677488,0.700668,-0.175590 HipRight:-0.100392,0.685667,0.705525,-0.148380 KneeLeft:-0.034908,0.730060,-0.068575,-0.679037 KneeRight:-0.029303,0.681851,0.071336,0.727414 Neck:0.022576,-0.012174,0.996972,-0.073406 ShoulderLeft:-0.021939,0.781997,-0.616844,0.086621 ShoulderRight:0.007451,0.805031,0.591314,-0.047090 SpineBase:0.034078,-0.008526,0.998761,-0.035237 SpineMid:0.028368,-0.008324,0.998940,-0.035285 SpineShoulder:0.022539,-0.010403,0.998262,-0.053456 ThumbLeft:0.000000,0.000000,0.000000,0.000000 ThumbRight:0.000000,0.000000,0.000000,0.000000 WristLeft:-0.108687,0.750202,-0.076468,0.647717 WristRight:-0.376731,0.689565,0.413594,-0.459906 END:
KINECT_DATA POSITION:6.577119,-1.832557,-4.395759 HEAD_JOINT1:0.979302,0.148628,-0.000000,0.137395 LARM_JOINT2:0.833934,0.000000,-0.050036,-0.549592 LARM_JOINT3:0.971048,0.000000,-0.149272,-0.186505 LLEG_JOINT2:0.997195,0.025155,0.000000,0.070490 LLEG_JOINT4:0.993856,0.108547,0.000000,-0.021649 RARM_JOINT2:0.811109,0.000000,0.478479,0.336393 RARM_JOINT3:0.983035,0.000000,0.174914,-0.055210 RLEG_JOINT2:0.996817,0.028495,0.000000,-0.074455 RLEG_JOINT4:0.994997,0.089091,0.000000,0.045219 WAIST:0.999464,0.000000,-0.032692,0.001874 WAIST_JOINT0:0.999547,0.000000,-0.024037,0.018093 WAIST_JOINT1:0.998224,0.057688,0.000000,-0.014834 END:
KINECT_DATA_Sensor  AnkleLeft:0.055023,0.719885,-0.131418,-0.679314 AnkleRight:0.071430,0.705124,0.096845,0.698798 ElbowLeft:-0.055777,0.938141,-0.178633,-0.291326 ElbowRight:-0.432731,0.753519,-0.033792,0.493773 FootLeft:0.000000,0.000000,0.000000,0.000000 FootRight:0.000000,0.000000,0.000000,0.000000 HandLeft:-0.087584,0.781230,0.013512,0.617921 HandRight:-0.371975,0.674711,0.379107,-0.512520 HandTipLeft:0.000000,0.000000,0.000000,0.000000 HandTipRight:0.000000,0.000000,0.000000,0.000000 Head:0.000000,0.000000,0.000000,0.000000 HipLeft:0.137151,-0.677739,0.701053,-0.174311 HipRight:-0.101151,0.685591,0.705342,-0.149084 KneeLeft:-0.035466,0.728737,-0.067924,-0.680493 KneeRight:-0.028614,0.683237,0.072565,0.726019 Neck:0.021725,-0.011695,0.997001,-0.073349 ShoulderLeft:-0.021486,0.781806,-0.617189,0.085999 ShoulderRight:0.006794,0.805034,0.591259,-0.047816 SpineBase:0.032205,-0.008270,0.998824,-0.035295 SpineMid:0.026998,-0.008086,0.998978,-0.035338 SpineShoulder:0.021686,-0.010032,0.998288,-0.053391 ThumbLeft:0.000000,0.000000,0.000000,0.000000 ThumbRight:0.000000,0.000000,0.000000,0.000000 WristLeft:-0.112096,0.784338,-0.070187,0.606071 WristRight:-0.369368,0.674418,0.398384,-0.500018 END:
KINECT_DATA POSITION:6.585895,-1.851964,-4.446471 HEAD_JOINT1:0.979216,0.149512,-0.000000,0.137046 LARM_JOINT2:0.833734,0.000000,-0.051434,-0.549765 LARM_JOINT3:0.971907,0.000000,-0.146693,-0.184059 LLEG_JOINT2:0.997243,0.023374,0.000000,0.070428 LLEG_JOINT4:0.993939,0.107745,0.000000,-0.021809 RARM_JOINT2:0.802630,0.000000,0.484781,0.347524 RARM_JOINT3:0.983223,0.000000,0.170914,-0.063723 RLEG_JOINT2:0.996759,0.029540,0.000000,-0.074822 RLEG_JOINT4:0.994917,0.089018,0.000000,0.047081 WAIST:0.999556,0.000000,-0.029751,0.001603 WAIST_JOINT0:0.999616,0.000000,-0.020646,0.018465 WAIST_JOINT1:0.998239,0.057673,0.000000,-0.013915 END:
KINECT_DATA_Sensor  AnkleLeft:0.058002,0.739237,-0.127303,-0.658756 AnkleRight:0.071252,0.696856,0.097783,0.706932 ElbowLeft:-0.055652,0.938598,-0.178887,-0.289719 ElbowRight:-0.422974,0.752705,-0.052980,0.501718 FootLeft:0.000000,0.000000,0.000000,0.000000 FootRight:0.000000,0.000000,0.000000,0.000000 HandLeft:-0.078792,0.774809,0.002608,0.627261 HandRight:-0.372634,0.681391,0.377910,-0.504018 HandTipLeft:0.000000,0.000000,0.000000,0.000000 HandTipRight:0.000000,0.000000,0.000000,0.000000 Head:0.000000,0.000000,0.000000,0.000000 HipLeft:0.134930,-0.678345,0.701379,-0.172365 HipRight:-0.102594,0.685112,0.705360,-0.150212 KneeLeft:-0.036266,0.726683,-0.066490,-0.682786 KneeRight:-0.028507,0.685354,0.073652,0.723915 Neck:0.018206,-0.011135,0.997084,-0.073266 ShoulderLeft:-0.020204,0.781615,-0.617753,0.083972 ShoulderRight:0.003543,0.805433,0.590456,-0.051243 SpineBase:0.029299,-0.008017,0.998917,-0.035247 SpineMid:0.023784,-0.007822,0.999063,-0.035291 SpineShoulder:0.018165,-0.009538,0.998367,-0.053313 ThumbLeft:0.000000,0.000000,0.000000,0.000000 ThumbRight:0.000000,0.000000,0.000000,0.000000 WristLeft:-0.109723,0.775623,-0.071690,0.617439 WristRight:-0.382613,0.674160,0.387378,-0.499053 END:
KINECT_DATA POSITION:6.584737,-1.874047,-4.531777 HEAD_JOINT1:0.979536,0.149823,-0.000000,0.134392 LARM_JOINT2:0.833376,0.000000,-0.053130,-0.550147 LARM_JOINT3:0.971679,0.000000,-0.146936,-0.185065 LLEG_JOINT2:0.997243,0.021615,0.000000,0.070993 LLEG_JOINT4:0.994099,0.106922,0.000000,-0.018306 RARM_JOINT2:0.803601,0.000000,0.484101,0.346225 RARM_JOINT3:0.983875,0.000000,0.167765,-0.062005 RLEG_JOINT2:0.996735,0.030237,0.000000,-0.074866 RLEG_JOINT4:0.995153,0.084853,0.000000,0.049702 WAIST:0.999648,0.000000,-0.026511,0.001372 WAIST_JOINT0:0.999673,0.000000,-0.016818,0.019255 WAIST_JOINT1:0.998227,0.058042,0.000000,-0.013195 END:
KINECT_DATA_Sensor  AnkleLeft:0.049969,0.716848,-0.129632,-0.683248 AnkleRight:0.068644,0.690195,0.094890,0.714083 ElbowLeft:-0.055817,0.938035,-0.178610,-0.291672 ElbowRight:-0.424117,0.761504,-0.046729,0.487907 FootLeft:0.000000,0.000000,0.000000,0.000000 FootRight:0.000000,0.000000,0.000000,0.000000 HandLeft:-0.082564,0.701165,-0.004439,0.708189 HandRight:-0.351188,0.669936,0.395306,-0.521139 HandTipLeft:0.000000,0.000000,0.000000,0.000000 HandTipRight:0.000000,0.000000,0.000000,0.000000 Head:0.000000,0.000000,0.000000,0.000000 HipLeft:0.132797,-0.678741,0.701770,-0.170866 HipRight:-0.104452,0.684391,0.705351,-0.152244 KneeLeft:-0.037523,0.724383,-0.065550,-0.685248 KneeRight:-0.028431,0.687694,0.074230,0.721636 Neck:0.014213,-0.010747,0.997130,-0.073580 ShoulderLeft:-0.017902,0.780769,-0.619206,0.081629 ShoulderRight:0.000746,0.805572,0.589936,-0.055033 SpineBase:0.026083,-0.007852,0.998995,-0.035580 SpineMid:0.020179,-0.007641,0.999132,-0.035626 SpineShoulder:0.014171,-0.009187,0.998418,-0.053627 ThumbLeft:0.000000,0.000000,0.000000,0.000000 ThumbRight:0.000000,0.000000,0.000000,0.000000 WristLeft:-0.102125,0.708336,-0.083196,0.693476 WristRight:-0.372274,0.657222,0.393724,-0.523882 END:
KINECT_DATA POSITION:6.580764,-1.872125,-4.602361 HEAD_JOINT1:0.979724,0.149925,-0.000000,0.132904 LARM_JOINT2:0.833354,0.000000,-0.053998,-0.550096 LARM_JOINT3:0.971351,0.000000,-0.150421,-0.183984 LLEG_JOINT2:0.997214,0.021132,0.000000,0.071542 LLEG_JOINT4:0.994340,0.104204,0.000000,-0.020723 RARM_JOINT2:0.804670,0.000000,0.483391,0.344731 RARM_JOINT3:0.985057,0.000000,0.154739,-0.075624 RLEG_JOINT2:0.996749,0.030508,0.000000,-0.074567 RLEG_JOINT4:0.995210,0.084255,0.000000,0.049584 WAIST:0.999688,0.000000,-0.024961,0.001122 WAIST_JOINT0:0.999696,0.000000,-0.015538,0.019151 WAIST_JOINT1:0.998223,0.058220,0.000000,-0.012731 END:
KINECT_DATA_Sensor  AnkleLeft:0.049478,0.716334,-0.125794,-0.684538 AnkleRight:0.070670,0.709844,0.092999,0.694607 ElbowLeft:-0.056265,0.937366,-0.178618,-0.293726 ElbowRight:-0.424747,0.759079,-0.048333,0.490970 FootLeft:0.000000,0.000000,0.000000,0.000000 FootRight:0.000000,0.000000,0.000000,0.000000 HandLeft:-0.092193,0.728964,-0.010524,0.678234 HandRight:-0.339084,0.679993,0.429364,-0.488137 HandTipLeft:0.000000,0.000000,0.000000,0.000000 HandTipRight:0.000000,0.000000,0.000000,0.000000 Head:0.000000,0.000000,0.000000,0.000000 HipLeft:0.131846,-0.679082,0.701771,-0.170238 HipRight:-0.105430,0.684019,0.705338,-0.153302 KneeLeft:-0.037980,0.723296,-0.065459,-0.686378 KneeRight:-0.028321,0.688808,0.074330,0.720567 Neck:0.012872,-0.010620,0.997138,-0.073738 ShoulderLeft:-0.016518,0.780287,-0.620001,0.080490 ShoulderRight:0.000434,0.805090,0.590501,-0.056028 SpineBase:0.024552,-0.007814,0.999029,-0.035726 SpineMid:0.018738,-0.007606,0.999155,-0.035771 SpineShoulder:0.012829,-0.009070,0.998430,-0.053767 ThumbLeft:0.000000,0.000000,0.000000,0.000000 ThumbRight:0.000000,0.000000,0.000000,0.000000 WristLeft:-0.105298,0.732476,-0.080562,0.667758 WristRight:-0.373787,0.666188,0.390458,-0.513827 END:
KINECT_DATA POSITION:6.602952,-1.866527,-4.749656 HEAD_JOINT1:0.979737,0.150474,-0.000000,0.132186 LARM_JOINT2:0.833470,0.000000,-0.053708,-0.549949 LARM_JOINT3:0.971823,0.000000,-0.147626,-0.183757 LLEG_JOINT2:0.997278,0.020835,0.000000,0.070722 LLEG_JOINT4:0.994055,0.106960,0.000000,-0.020335 RARM_JOINT2:0.812440,0.000000,0.478927,0.332521 RARM_JOINT3:0.986467,0.000000,0.135601,-0.092164 RLEG_JOINT2:0.996784,0.029597,0.000000,-0.074473 RLEG_JOINT4:0.995337,0.084654,0.000000,0.046237 WAIST:0.999670,0.000000,-0.025604,0.001970 WAIST_JOINT0:0.999699,0.000000,-0.014887,0.019512 WAIST_JOINT1:0.998243,0.057885,0.000000,-0.012636 END:
KINECT_DATA_Sensor  AnkleLeft:0.050710,0.715768,-0.127921,-0.684647 AnkleRight:0.068922,0.710510,0.094364,0.693917 ElbowLeft:-0.057129,0.936864,-0.179526,-0.294607 ElbowRight:-0.428913,0.705711,-0.078457,0.558436 FootLeft:0.000000,0.000000,0.000000,0.000000 FootRight:0.000000,0.000000,0.000000,0.000000 HandLeft:-0.078052,0.722487,-0.005209,0.686945 HandRight:-0.426413,0.443730,-0.352906,0.704793 HandTipLeft:0.000000,0.000000,0.000000,0.000000 HandTipRight:0.000000,0.000000,0.000000,0.000000 Head:0.000000,0.000000,0.000000,0.000000 HipLeft:0.132385,-0.678435,0.702200,-0.170630 HipRight:-0.105309,0.684738,0.704777,-0.152753 KneeLeft:-0.038233,0.723699,-0.065251,-0.685959 KneeRight:-0.028277,0.688388,0.073054,0.721100 Neck:0.012114,-0.009499,0.997184,-0.073393 ShoulderLeft:-0.017375,0.779634,-0.620784,0.080607 ShoulderRight:-0.001475,0.805187,0.590247,-0.057278 SpineBase:0.025162,-0.007107,0.999027,-0.035513 SpineMid:0.018677,-0.006876,0.999169,-0.035558 SpineShoulder:0.012082,-0.008050,0.998466,-0.053441 ThumbLeft:0.000000,0.000000,0.000000,0.000000 ThumbRight:0.000000,0.000000,0.000000,0.000000 WristLeft:-0.104589,0.724874,-0.083061,0.675811 WristRight:-0.408349,0.457992,-0.374130,0.695357 END:
KINECT_DATA POSITION:6.573728,-1.863921,-4.865098 HEAD_JOINT1:0.979491,0.150239,-0.000000,0.134260 LARM_JOINT2:0.833890,0.000000,-0.054343,-0.549249 LARM_JOINT3:0.970228,0.000000,-0.152188,-0.188403 LLEG_JOINT2:0.997301,0.020175,0.000000,0.070598 LLEG_JOINT4:0.994203,0.105113,0.000000,-0.022632 RARM_JOINT2:0.827296,0.000000,0.448892,0.337752 RARM_JOINT3:0.980765,0.000000,0.171525,-0.093166 RLEG_JOINT2:0.996783,0.028045,0.000000,-0.075080 RLEG_JOINT4:0.995158,0.085947,0.000000,0.047687 WAIST:0.999669,0.000000,-0.025619,0.002433 WAIST_JOINT0:0.999682,0.000000,-0.015692,0.019716 WAIST_JOINT1:0.998268,0.057568,0.000000,-0.012119 END:
KINECT_DATA_Sensor  AnkleLeft:0.050423,0.716292,-0.124772,-0.684701 AnkleRight:0.069522,0.709928,0.093267,0.694601 ElbowLeft:-0.058194,0.937167,-0.180934,-0.292564 ElbowRight:-0.426058,0.711703,-0.042378,0.556918 FootLeft:0.000000,0.000000,0.000000,0.000000 FootRight:0.000000,0.000000,0.000000,0.000000 HandLeft:-0.103791,0.734803,-0.002354,0.670288 HandRight:-0.421443,0.457730,-0.323291,0.712988 HandTipLeft:0.000000,0.000000,0.000000,0.000000 HandTipRight:0.000000,0.000000,0.000000,0.000000 Head:0.000000,0.000000,0.000000,0.000000 HipLeft:0.132460,-0.678144,0.702487,-0.170552 HipRight:-0.105676,0.685146,0.704416,-0.152336 KneeLeft:-0.038929,0.723665,-0.065012,-0.685978 KneeRight:-0.029502,0.688351,0.072100,0.721182 Neck:0.012833,-0.008579,0.997206,-0.073090 ShoulderLeft:-0.018598,0.778970,-0.621480,0.081379 ShoulderRight:-0.001837,0.805130,0.590360,-0.056895 SpineBase:0.025179,-0.006294,0.999045,-0.035149 SpineMid:0.019053,-0.006078,0.999181,-0.035187 SpineShoulder:0.012820,-0.007125,0.998483,-0.053078 ThumbLeft:0.000000,0.000000,0.000000,0.000000 ThumbRight:0.000000,0.000000,0.000000,0.000000 WristLeft:-0.106699,0.741339,-0.081145,0.657607 WristRight:-0.424672,0.466864,-0.383576,0.674212 END:
KINECT_DATA POSITION:6.547558,-1.870010,-4.958367 HEAD_JOINT1:0.979369,0.150224,-0.000000,0.135166 LARM_JOINT2:0.834477,0.000000,-0.055078,-0.548284 LARM_JOINT3:0.971478,0.000000,-0.145381,-0.187338 LLEG_JOINT2:0.997297,0.019876,0.000000,0.070742 LLEG_JOINT4:0.994233,0.104807,0.000000,-0.022742 RARM_JOINT2:0.824737,0.000000,0.463007,0.324704 RARM_JOINT3:0.986048,0.000000,0.149438,-0.073329 RLEG_JOINT2:0.996812,0.026524,0.000000,-0.075250 RLEG_JOINT4:0.995024,0.087396,0.000000,0.047850 WAIST:0.999654,0.000000,-0.026158,0.002647 WAIST_JOINT0:0.999667,0.000000,-0.016014,0.020242 WAIST_JOINT1:0.998265,0.057697,0.000000,-0.011765 END:
KINECT_DATA_Sensor  AnkleLeft:0.049744,0.716589,-0.124546,-0.684481 AnkleRight:0.069695,0.709741,0.093005,0.694810 ElbowLeft:-0.058925,0.937783,-0.182354,-0.289547 ElbowRight:-0.437066,0.715626,-0.047396,0.542776 FootLeft:0.000000,0.000000,0.000000,0.000000 FootRight:0.000000,0.000000,0.000000,0.000000 HandLeft:-0.074311,0.758163,0.005596,0.647793 HandRight:-0.397957,0.457724,-0.332951,0.721985 HandTipLeft:0.000000,0.000000,0.000000,0.000000 HandTipRight:0.000000,0.000000,0.000000,0.000000 Head:0.000000,0.000000,0.000000,0.000000 HipLeft:0.132661,-0.677853,0.702598,-0.171089 HipRight:-0.105523,0.685341,0.704315,-0.152030 KneeLeft:-0.039423,0.724008,-0.065025,-0.685587 KneeRight:-0.030540,0.687933,0.071042,0.721643 Neck:0.013121,-0.007970,0.997197,-0.073234 ShoulderLeft:-0.018662,0.778777,-0.621683,0.081657 ShoulderRight:-0.001558,0.805573,0.589780,-0.056649 SpineBase:0.025722,-0.005699,0.999032,-0.035233 SpineMid:0.019481,-0.005479,0.999173,-0.035268 SpineShoulder:0.013120,-0.006506,0.998477,-0.053188 ThumbLeft:0.000000,0.000000,0.000000,0.000000 ThumbRight:0.000000,0.000000,0.000000,0.000000 WristLeft:-0.108798,0.759609,-0.078222,0.636426 WristRight:-0.414037,0.455745,-0.374345,0.693351 END:
KINECT_DATA POSITION:6.542302,-1.868229,-5.023909 HEAD_JOINT1:0.979097,0.152256,-0.000000,0.134862 LARM_JOINT2:0.834613,0.000000,-0.054235,-0.548160 LARM_JOINT3:0.971658,0.000000,-0.147297,-0.184888 LLEG_JOINT2:0.997321,0.018912,0.000000,0.070669 LLEG_JOINT4:0.994138,0.106258,0.000000,-0.019956 RARM_JOINT2:0.822785,0.000000,0.468433,0.321863 RARM_JOINT3:0.986769,0.000000,0.146393,-0.069680 RLEG_JOINT2:0.996858,0.026034,0.000000,-0.074812 RLEG_JOINT4:0.995136,0.087194,0.000000,0.045839 WAIST:0.999663,0.000000,-0.025815,0.002773 WAIST_JOINT0:0.999670,0.000000,-0.015758,0.020282 WAIST_JOINT1:0.998277,0.057547,0.000000,-0.011430 END:
KINECT_DATA_Sensor  AnkleLeft:0.048177,0.716655,-0.126804,-0.684110 AnkleRight:0.068205,0.710140,0.093674,0.694460 ElbowLeft:-0.058761,0.937264,-0.183162,-0.290750 ElbowRight:-0.439191,0.715250,-0.052943,0.541041 FootLeft:0.000000,0.000000,0.000000,0.000000 FootRight:0.000000,0.000000,0.000000,0.000000 HandLeft:-0.074571,0.779511,-0.003949,0.621921 HandRight:-0.413095,0.507820,-0.325934,0.682084 HandTipLeft:0.000000,0.000000,0.000000,0.000000 HandTipRight:0.000000,0.000000,0.000000,0.000000 Head:0.000000,0.000000,0.000000,0.000000 HipLeft:0.132411,-0.677801,0.702757,-0.170837 HipRight:-0.105876,0.685414,0.704207,-0.151958 KneeLeft:-0.040108,0.723733,-0.064376,-0.685900 KneeRight:-0.030534,0.688184,0.070285,0.721478 Neck:0.012839,-0.007551,0.997216,-0.073067 ShoulderLeft:-0.018981,0.778553,-0.621954,0.081651 ShoulderRight:-0.002267,0.805495,0.589843,-0.057084 SpineBase:0.025388,-0.005259,0.999048,-0.035070 SpineMid:0.019181,-0.005041,0.999187,-0.035102 SpineShoulder:0.012848,-0.006070,0.998492,-0.053021 ThumbLeft:0.000000,0.000000,0.000000,0.000000 ThumbRight:0.000000,0.000000,0.000000,0.000000 WristLeft:-0.110577,0.778834,-0.075547,0.612766 WristRight:-0.434007,0.497643,-0.342437,0.668376 END:
KINECT_DATA POSITION:6.545743,-1.865592,-5.092132 HEAD_JOINT1:0.979011,0.152676,-0.000000,0.135006 LARM_JOINT2:0.834428,0.000000,-0.053207,-0.548543 LARM_JOINT3:0.971441,0.000000,-0.144578,-0.188148 LLEG_JOINT2:0.997330,0.018577,0.000000,0.070619 LLEG_JOINT4:0.993866,0.108402,0.000000,-0.021911 RARM_JOINT2:0.822161,0.000000,0.469692,0.321621 RARM_JOINT3:0.987247,0.000000,0.143963,-0.067950 RLEG_JOINT2:0.996848,0.026089,0.000000,-0.074928 RLEG_JOINT4:0.994977,0.088835,0.000000,0.046145 WAIST:0.999683,0.000000,-0.025002,0.002828 WAIST_JOINT0:0.999682,0.000000,-0.014268,0.020814 WAIST_JOINT1:0.998328,0.056693,0.000000,-0.011235 END:
KINECT_DATA_Sensor  AnkleLeft:0.050863,0.715444,-0.126731,-0.685195 AnkleRight:0.070199,0.715095,0.094177,0.689088 ElbowLeft:-0.058948,0.936319,-0.183015,-0.293833 ElbowRight:-0.439793,0.714970,-0.055524,0.540663 FootLeft:0.000000,0.000000,0.000000,0.000000 FootRight:0.000000,0.000000,0.000000,0.000000 HandLeft:-0.071544,0.803762,0.017055,0.590388 HandRight:-0.383099,0.453916,-0.357848,0.720513 HandTipLeft:0.000000,0.000000,0.000000,0.000000 HandTipRight:0.000000,0.000000,0.000000,0.000000 Head:0.000000,0.000000,0.000000,0.000000 HipLeft:0.132344,-0.677979,0.702814,-0.169946 HipRight:-0.106875,0.685466,0.704020,-0.151889 KneeLeft:-0.040292,0.723171,-0.064168,-0.686501 KneeRight:-0.030594,0.688761,0.070342,0.720919 Neck:0.011382,-0.007357,0.997302,-0.072143 ShoulderLeft:-0.019035,0.778414,-0.622304,0.080298 ShoulderRight:-0.004235,0.805786,0.589347,-0.057980 SpineBase:0.024590,-0.005054,0.999095,-0.034329 SpineMid:0.018059,-0.004830,0.999235,-0.034361 SpineShoulder:0.011392,-0.005860,0.998556,-0.052175 ThumbLeft:0.000000,0.000000,0.000000,0.000000 ThumbRight:0.000000,0.000000,0.000000,0.000000 WristLeft:-0.113573,0.804032,-0.072081,0.579170 WristRight:-0.404996,0.443345,-0.375053,0.706228 END:
KINECT_DATA POSITION:6.575059,-1.860423,-5.184972 HEAD_JOINT1:0.979263,0.152343,-0.000000,0.133552 LARM_JOINT2:0.834205,0.000000,-0.052743,-0.548927 LARM_JOINT3:0.971675,0.000000,-0.146169,-0.185693 LLEG_JOINT2:0.997403,0.017296,0.000000,0.069916 LLEG_JOINT4:0.993748,0.109762,0.000000,-0.020451 RARM_JOINT2:0.821699,0.000000,0.470642,0.321413 RARM_JOINT3:0.987761,0.000000,0.140432,-0.067877 RLEG_JOINT2:0.996843,0.026113,0.000000,-0.074975 RLEG_JOINT4:0.995039,0.087988,0.000000,0.046426 WAIST:0.999687,0.000000,-0.024815,0.003165 WAIST_JOINT0:0.999696,0.000000,-0.013342,0.020735 WAIST_JOINT1:0.998363,0.056053,0.000000,-0.011383 END:
KINECT_DATA_Sensor  AnkleLeft:0.050129,0.715028,-0.127556,-0.685531 AnkleRight:0.067241,0.695384,0.095196,0.709125 ElbowLeft:-0.059061,0.936201,-0.182750,-0.294350 ElbowRight:-0.440392,0.715640,-0.056374,0.539200 FootLeft:0.000000,0.000000,0.000000,0.000000 FootRight:0.000000,0.000000,0.000000,0.000000 HandLeft:-0.075721,0.716864,-0.005848,0.693064 HandRight:-0.385051,0.447306,-0.357118,0.723961 HandTipLeft:0.000000,0.000000,0.000000,0.000000 HandTipRight:0.000000,0.000000,0.000000,0.000000 Head:0.000000,0.000000,0.000000,0.000000 HipLeft:0.132498,-0.677902,0.703011,-0.169317 HipRight:-0.107249,0.685794,0.703745,-0.151418 KneeLeft:-0.040900,0.722996,-0.062995,-0.686758 KneeRight:-0.030387,0.688911,0.070148,0.720803 Neck:0.010501,-0.007175,0.997360,-0.071495 ShoulderLeft:-0.019668,0.778354,-0.622426,0.079782 ShoulderRight:-0.006039,0.805567,0.589540,-0.058883 SpineBase:0.024396,-0.004856,0.999123,-0.033689 SpineMid:0.017528,-0.004625,0.999267,-0.033722 SpineShoulder:0.010513,-0.005664,0.998599,-0.051542 ThumbLeft:0.000000,0.000000,0.000000,0.000000 ThumbRight:0.000000,0.000000,0.000000,0.000000 WristLeft:-0.102645,0.719484,-0.086890,0.681364 WristRight:-0.402319,0.440066,-0.376196,0.709195 END:
KINECT_DATA POSITION:6.596960,-1.847163,-5.246329 HEAD_JOINT1:0.979103,0.153481,-0.000000,0.133422 LARM_JOINT2:0.834033,0.000000,-0.053274,-0.549137 LARM_JOINT3:0.971778,0.000000,-0.146523,-0.184877 LLEG_JOINT2:0.997404,0.017235,0.000000,0.069914 LLEG_JOINT4:0.993723,0.109671,0.000000,-0.022071 RARM_JOINT2:0.821164,0.000000,0.470331,0.323232 RARM_JOINT3:0.985154,0.000000,0.151686,-0.080397 RLEG_JOINT2:0.996889,0.025903,0.000000,-0.074435 RLEG_JOINT4:0.995010,0.088877,0.000000,0.045348 WAIST:0.999680,0.000000,-0.025115,0.003170 WAIST_JOINT0:0.999702,0.000000,-0.012755,0.020834 WAIST_JOINT1:0.998382,0.055740,0.000000,-0.011284 END:
KINECT_DATA_Sensor  AnkleLeft:0.051024,0.714597,-0.126397,-0.686128 AnkleRight:0.069637,0.711461,0.094428,0.692861 ElbowLeft:-0.059871,0.936099,-0.182239,-0.294827 ElbowRight:-0.438731,0.712468,-0.059590,0.544384 FootLeft:0.000000,0.000000,0.000000,0.000000 FootRight:0.000000,0.000000,0.000000,0.000000 HandLeft:-0.078274,0.735923,-0.004571,0.672509 HandRight:-0.426509,0.489779,-0.359388,0.670110 HandTipLeft:0.000000,0.000000,0.000000,0.000000 HandTipRight:0.000000,0.000000,0.000000,0.000000 Head:0.000000,0.000000,0.000000,0.000000 HipLeft:0.132841,-0.677893,0.702937,-0.169393 HipRight:-0.107305,0.685879,0.703723,-0.151091 KneeLeft:-0.040962,0.723204,-0.062942,-0.686539 KneeRight:-0.030145,0.688702,0.069617,0.721065 Neck:0.009906,-0.007009,0.997391,-0.071162 ShoulderLeft:-0.019425,0.778137,-0.622788,0.079123 ShoulderRight:-0.006573,0.805479,0.589626,-0.059164 SpineBase:0.024702,-0.004730,0.999124,-0.033436 SpineMid:0.017390,-0.004485,0.999278,-0.033469 SpineShoulder:0.009920,-0.005509,0.998622,-0.051243 ThumbLeft:0.000000,0.000000,0.000000,0.000000 ThumbRight:0.000000,0.000000,0.000000,0.000000 WristLeft:-0.104936,0.738143,-0.084823,0.661013 WristRight:-0.428696,0.486951,-0.350747,0.675333 END:
KINECT_DATA POSITION:6.609579,-1.844782,-5.278945 HEAD_JOINT1:0.979123,0.153666,-0.000000,0.133056 LARM_JOINT2:0.833978,0.000000,-0.052662,-0.549279 LARM_JOINT3:0.971424,0.000000,-0.146223,-0.186963 LLEG_JOINT2:0.997437,0.016744,0.000000,0.069559 LLEG_JOINT4:0.994116,0.106379,0.000000,-0.020396 RARM_JOINT2:0.820774,0.000000,0.469526,0.325383 RARM_JOINT3:0.985784,0.000000,0.150009,-0.075682 RLEG_JOINT2:0.996834,0.024812,0.000000,-0.075536 RLEG_JOINT4:0.995002,0.088498,0.000000,0.046250 WAIST:0.999669,0.000000,-0.025507,0.003321 WAIST_JOINT0:0.999695,0.000000,-0.012867,0.021062 WAIST_JOINT1:0.998389,0.055580,0.000000,-0.011417 END:
KINECT_DATA_Sensor  AnkleLeft:0.047282,0.715281,-0.124742,-0.685986 AnkleRight:0.068101,0.708040,0.093800,0.696594 ElbowLeft:-0.059694,0.935998,-0.182229,-0.295188 ElbowRight:-0.436898,0.710918,-0.060940,0.547725 FootLeft:0.000000,0.000000,0.000000,0.000000 FootRight:0.000000,0.000000,0.000000,0.000000 HandLeft:-0.080861,0.740065,0.004996,0.667638 HandRight:-0.391192,0.453872,-0.370712,0.709607 HandTipLeft:0.000000,0.000000,0.000000,0.000000 HandTipRight:0.000000,0.000000,0.000000,0.000000 Head:0.000000,0.000000,0.000000,0.000000 HipLeft:0.133158,-0.677777,0.702954,-0.169538 HipRight:-0.107155,0.686074,0.703627,-0.150762 KneeLeft:-0.041177,0.723456,-0.062431,-0.686308 KneeRight:-0.031563,0.688366,0.069573,0.721329 Neck:0.009997,-0.006979,0.997401,-0.071008 ShoulderLeft:-0.019730,0.778126,-0.622784,0.079186 ShoulderRight:-0.006773,0.805755,0.589260,-0.059041 SpineBase:0.025088,-0.004633,0.999120,-0.033296 SpineMid:0.017634,-0.004384,0.999279,-0.033330 SpineShoulder:0.010014,-0.005453,0.998629,-0.051092 ThumbLeft:0.000000,0.000000,0.000000,0.000000 ThumbRight:0.000000,0.000000,0.000000,0.000000 WristLeft:-0.105762,0.743903,-0.083823,0.654520 WristRight:-0.406984,0.444916,-0.377504,0.702784 END:
KINECT_DATA POSITION:6.607650,-1.839910,-5.291390 HEAD_JOINT1:0.979119,0.153848,-0.000000,0.132880 LARM_JOINT2:0.833939,0.000000,-0.052196,-0.549383 LARM_JOINT3:0.971382,0.000000,-0.145346,-0.187862 LLEG_JOINT2:0.997394,0.017000,0.000000,0.070118 LLEG_JOINT4:0.994192,0.105854,0.000000,-0.019417 RARM_JOINT2:0.820328,0.000000,0.469126,0.327081 RARM_JOINT3:0.986910,0.000000,0.144062,-0.072488 RLEG_JOINT2:0.996839,0.024251,0.000000,-0.075657 RLEG_JOINT4:0.994922,0.088917,0.000000,0.047160 WAIST:0.999666,0.000000,-0.025646,0.003133 WAIST_JOINT0:0.999704,0.000000,-0.012814,0.020697 WAIST_JOINT1:0.998397,0.055470,0.000000,-0.011289 END:
KINECT_DATA_Sensor  AnkleLeft:0.046113,0.715446,-0.125479,-0.685759 AnkleRight:0.068884,0.711524,0.092879,0.693082 ElbowLeft:-0.059367,0.936115,-0.182213,-0.294895 ElbowRight:-0.435495,0.710111,-0.062030,0.549763 FootLeft:0.000000,0.000000,0.000000,0.000000 FootRight:0.000000,0.000000,0.000000,0.000000 HandLeft:-0.079692,0.769942,0.011663,0.633011 HandRight:-0.397771,0.477768,-0.338408,0.706396 HandTipLeft:0.000000,0.000000,0.000000,0.000000 HandTipRight:0.000000,0.000000,0.000000,0.000000 Head:0.000000,0.000000,0.000000,0.000000 HipLeft:0.133308,-0.677865,0.702831,-0.169577 HipRight:-0.107145,0.685954,0.703782,-0.150589 KneeLeft:-0.041279,0.723557,-0.062866,-0.686156 KneeRight:-0.032178,0.688230,0.069410,0.721447 Neck:0.009964,-0.007041,0.997410,-0.070881 ShoulderLeft:-0.019973,0.778186,-0.622696,0.079232 ShoulderRight:-0.007059,0.805423,0.589694,-0.059195 SpineBase:0.025240,-0.004663,0.999119,-0.033197 SpineMid:0.017694,-0.004413,0.999281,-0.033231 SpineShoulder:0.009980,-0.005494,0.998634,-0.050987 ThumbLeft:0.000000,0.000000,0.000000,0.000000 ThumbRight:0.000000,0.000000,0.000000,0.000000 WristLeft:-0.109298,0.772754,-0.078583,0.620266 WristRight:-0.419482,0.468830,-0.363370,0.687165 END:
KINECT_DATA POSITION:6.616174,-1.841057,-5.292809 HEAD_JOINT1:0.979200,0.153578,-0.000000,0.132598 LARM_JOINT2:0.833733,0.000000,-0.051789,-0.549733 LARM_JOINT3:0.971234,0.000000,-0.146884,-0.187430 LLEG_JOINT2:0.997386,0.017449,0.000000,0.070124 LLEG_JOINT4:0.994088,0.106442,0.000000,-0.021439 RARM_JOINT2:0.820250,0.000000,0.468082,0.328769 RARM_JOINT3:0.986912,0.000000,0.144977,-0.070621 RLEG_JOINT2:0.996876,0.024009,0.000000,-0.075251 RLEG_JOINT4:0.994839,0.089780,0.000000,0.047267 WAIST:0.999659,0.000000,-0.025894,0.003226 WAIST_JOINT0:0.999714,0.000000,-0.012600,0.020344 WAIST_JOINT1:0.998388,0.055605,0.000000,-0.011359 END:
KINECT_DATA_Sensor  AnkleLeft:0.048094,0.715017,-0.124941,-0.686168 AnkleRight:0.070876,0.719488,0.091975,0.684730 ElbowLeft:-0.058933,0.936065,-0.182019,-0.295260 ElbowRight:-0.435392,0.723644,-0.050780,0.533099 FootLeft:0.000000,0.000000,0.000000,0.000000 FootRight:0.000000,0.000000,0.000000,0.000000 HandLeft:-0.084698,0.731149,0.003518,0.676930 HandRight:-0.419204,0.494120,-0.333827,0.684597 HandTipLeft:0.000000,0.000000,0.000000,0.000000 HandTipRight:0.000000,0.000000,0.000000,0.000000 Head:0.000000,0.000000,0.000000,0.000000 HipLeft:0.133445,-0.677782,0.702858,-0.169691 HipRight:-0.107007,0.686065,0.703736,-0.150399 KneeLeft:-0.041052,0.723742,-0.063253,-0.685939 KneeRight:-0.031993,0.688063,0.068891,0.721664 Neck:0.009749,-0.006953,0.997398,-0.071092 ShoulderLeft:-0.019644,0.778142,-0.622779,0.079092 ShoulderRight:-0.006999,0.805031,0.590205,-0.059453 SpineBase:0.025485,-0.004581,0.999114,-0.033167 SpineMid:0.017712,-0.004322,0.999282,-0.033201 SpineShoulder:0.009764,-0.005431,0.998631,-0.051106 ThumbLeft:0.000000,0.000000,0.000000,0.000000 ThumbRight:0.000000,0.000000,0.000000,0.000000 WristLeft:-0.104484,0.735947,-0.084409,0.663582 WristRight:-0.421709,0.494459,-0.345111,0.677178 END:
KINECT_DATA POSITION:6.628463,-1.843748,-5.267370 HEAD_JOINT1:0.979205,0.153331,-0.000000,0.132840 LARM_JOINT2:0.833739,0.000000,-0.051446,-0.549757 LARM_JOINT3:0.970610,0.000000,-0.152630,-0.186063 LLEG_JOINT2:0.997436,0.017102,0.000000,0.069497 LLEG_JOINT4:0.993970,0.107700,0.000000,-0.020626 RARM_JOINT2:0.819739,0.000000,0.468589,0.329320 RARM_JOINT3:0.986761,0.000000,0.145935,-0.070756 RLEG_JOINT2:0.996827,0.023886,0.000000,-0.075936 RLEG_JOINT4:0.995035,0.088531,0.000000,0.045467 WAIST:0.999649,0.000000,-0.026233,0.003644 WAIST_JOINT0:0.999704,0.000000,-0.012785,0.020680 WAIST_JOINT1:0.998366,0.055911,0.000000,-0.011805 END:
KINECT_DATA_Sensor  AnkleLeft:0.048257,0.715091,-0.126034,-0.685880 AnkleRight:0.069868,0.729256,0.091664,0.674464 ElbowLeft:-0.058603,0.935874,-0.182136,-0.295857 ElbowRight:-0.434948,0.726160,-0.049350,0.530166 FootLeft:0.000000,0.000000,0.000000,0.000000 FootRight:0.000000,0.000000,0.000000,0.000000 HandLeft:-0.100874,0.754280,-0.008703,0.648699 HandRight:-0.392396,0.437282,-0.368431,0.720464 HandTipLeft:0.000000,0.000000,0.000000,0.000000 HandTipRight:0.000000,0.000000,0.000000,0.000000 Head:0.000000,0.000000,0.000000,0.000000 HipLeft:0.133589,-0.677472,0.703100,-0.169811 HipRight:-0.106725,0.686383,0.703505,-0.150230 KneeLeft:-0.041156,0.723949,-0.062849,-0.685750 KneeRight:-0.032233,0.687826,0.069022,0.721867 Neck:0.009983,-0.007009,0.997364,-0.071532 ShoulderLeft:-0.019618,0.778146,-0.622728,0.079464 ShoulderRight:-0.006660,0.805213,0.589964,-0.059409 SpineBase:0.025798,-0.004501,0.999105,-0.033205 SpineMid:0.017992,-0.004242,0.999277,-0.033239 SpineShoulder:0.010006,-0.005403,0.998614,-0.051388 ThumbLeft:0.000000,0.000000,0.000000,0.000000 ThumbRight:0.000000,0.000000,0.000000,0.000000 WristLeft:-0.107408,0.758624,-0.080619,0.637538 WristRight:-0.390935,0.439694,-0.377955,0.714835 END:
KINECT_DATA POSITION:6.631060,-1.849493,-5.240893 HEAD_JOINT1:0.979194,0.153023,-0.000000,0.133279 LARM_JOINT2:0.833884,0.000000,-0.050915,-0.549586 LARM_JOINT3:0.970618,0.000000,-0.151665,-0.186812 LLEG_JOINT2:0.997438,0.016805,0.000000,0.069530 LLEG_JOINT4:0.993935,0.108220,0.000000,-0.019559 RARM_JOINT2:0.818973,0.000000,0.470559,0.328415 RARM_JOINT3:0.986968,0.000000,0.144801,-0.070186 RLEG_JOINT2:0.996855,0.023503,0.000000,-0.075675 RLEG_JOINT4:0.994733,0.091250,0.000000,0.046685 WAIST:0.999643,0.000000,-0.026449,0.003689 WAIST_JOINT0:0.999703,0.000000,-0.013096,0.020550 WAIST_JOINT1:0.998337,0.056435,0.000000,-0.011777 END:
KINECT_DATA_Sensor  AnkleLeft:0.047593,0.715339,-0.126980,-0.685493 AnkleRight:0.067232,0.688625,0.095977,0.715586 ElbowLeft:-0.057966,0.935742,-0.182735,-0.296032 ElbowRight:-0.435352,0.727060,-0.050126,0.528526 FootLeft:0.000000,0.000000,0.000000,0.000000 FootRight:0.000000,0.000000,0.000000,0.000000 HandLeft:-0.095290,0.737496,-0.006387,0.668565 HandRight:-0.413272,0.479417,-0.348213,0.691457 HandTipLeft:0.000000,0.000000,0.000000,0.000000 HandTipRight:0.000000,0.000000,0.000000,0.000000 Head:0.000000,0.000000,0.000000,0.000000 HipLeft:0.133526,-0.677359,0.703120,-0.170227 HipRight:-0.106421,0.686401,0.703501,-0.150382 KneeLeft:-0.041430,0.724075,-0.062679,-0.685616 KneeRight:-0.032287,0.687676,0.068544,0.722054 Neck:0.010282,-0.006899,0.997321,-0.072099 ShoulderLeft:-0.019521,0.778277,-0.622491,0.080054 ShoulderRight:-0.006169,0.805223,0.589944,-0.059527 SpineBase:0.026008,-0.004440,0.999088,-0.033568 SpineMid:0.018247,-0.004180,0.999260,-0.033602 SpineShoulder:0.010307,-0.005304,0.998585,-0.051896 ThumbLeft:0.000000,0.000000,0.000000,0.000000 ThumbRight:0.000000,0.000000,0.000000,0.000000 WristLeft:-0.105267,0.742143,-0.082962,0.656704 WristRight:-0.411365,0.481345,-0.353072,0.688786 END:
KINECT_DATA POSITION:6.624738,-1.852879,-5.216062 HEAD_JOINT1:0.979271,0.152529,-0.000000,0.133275 LARM_JOINT2:0.833774,0.000000,-0.052227,-0.549630 LARM_JOINT3:0.970457,0.000000,-0.153130,-0.186451 LLEG_JOINT2:0.997445,0.016960,0.000000,0.069394 LLEG_JOINT4:0.994186,0.105319,0.000000,-0.022397 RARM_JOINT2:0.819108,0.000000,0.467418,0.332539 RARM_JOINT3:0.979141,0.000000,0.190127,-0.071655 RLEG_JOINT2:0.996790,0.023171,0.000000,-0.076640 RLEG_JOINT4:0.994747,0.090471,0.000000,0.047885 WAIST:0.999650,0.000000,-0.026230,0.003575 WAIST_JOINT0:0.999690,0.000000,-0.013721,0.020791 WAIST_JOINT1:0.998297,0.057183,0.000000,-0.011571 END:
KINECT_DATA_Sensor  AnkleLeft:0.047944,0.715683,-0.122877,-0.685857 AnkleRight:0.069429,0.710986,0.093011,0.693562 ElbowLeft:-0.058127,0.935931,-0.182551,-0.295515 ElbowRight:-0.432441,0.741856,-0.037053,0.511147 FootLeft:0.000000,0.000000,0.000000,0.000000 FootRight:0.000000,0.000000,0.000000,0.000000 HandLeft:-0.101314,0.742403,-0.010239,0.662170 HandRight:-0.365325,0.453144,-0.439044,0.684426 HandTipLeft:0.000000,0.000000,0.000000,0.000000 HandTipRight:0.000000,0.000000,0.000000,0.000000 Head:0.000000,0.000000,0.000000,0.000000 HipLeft:0.133080,-0.677344,0.703141,-0.170550 HipRight:-0.106311,0.686208,0.703603,-0.150866 KneeLeft:-0.041131,0.723944,-0.062625,-0.685778 KneeRight:-0.033287,0.687788,0.069091,0.721849 Neck:0.010852,-0.006850,0.997258,-0.072887 ShoulderLeft:-0.018877,0.778283,-0.622437,0.080577 ShoulderRight:-0.004763,0.805552,0.589552,-0.059091 SpineBase:0.025794,-0.004329,0.999076,-0.034104 SpineMid:0.018425,-0.004077,0.999239,-0.034135 SpineShoulder:0.010882,-0.005233,0.998542,-0.052612 ThumbLeft:0.000000,0.000000,0.000000,0.000000 ThumbRight:0.000000,0.000000,0.000000,0.000000 WristLeft:-0.105722,0.747272,-0.082122,0.650894 WristRight:-0.377650,0.440281,-0.399223,0.710038 END:
KINECT_DATA POSITION:6.610178,-1.855484,-5.184555 HEAD_JOINT1:0.979350,0.151788,-0.000000,0.133542 LARM_JOINT2:0.833736,0.000000,-0.053631,-0.549553 LARM_JOINT3:0.970083,0.000000,-0.157004,-0.185174 LLEG_JOINT2:0.997426,0.017996,0.000000,0.069411 LLEG_JOINT4:0.994076,0.106183,0.000000,-0.023178 RARM_JOINT2:0.817040,0.000000,0.472305,0.330719 RARM_JOINT3:0.970632,0.000000,0.232472,-0.061894 RLEG_JOINT2:0.996771,0.023471,0.000000,-0.076796 RLEG_JOINT4:0.994768,0.090441,0.000000,0.047510 WAIST:0.999656,0.000000,-0.025965,0.003678 WAIST_JOINT0:0.999692,0.000000,-0.014117,0.020421 WAIST_JOINT1:0.998287,0.057318,0.000000,-0.011757 END:
KINECT_DATA_Sensor  AnkleLeft:0.049822,0.715597,-0.123745,-0.685657 AnkleRight:0.069286,0.710827,0.093561,0.693665 ElbowLeft:-0.059273,0.935475,-0.181972,-0.297084 ElbowRight:-0.435678,0.770677,-0.015973,0.464744 FootLeft:0.000000,0.000000,0.000000,0.000000 FootRight:0.000000,0.000000,0.000000,0.000000 HandLeft:-0.109637,0.729931,-0.020610,0.674356 HandRight:-0.424369,0.709831,0.340620,-0.447246 HandTipLeft:0.000000,0.000000,0.000000,0.000000 HandTipRight:0.000000,0.000000,0.000000,0.000000 Head:0.000000,0.000000,0.000000,0.000000 HipLeft:0.132810,-0.677297,0.703249,-0.170500 HipRight:-0.106297,0.686220,0.703523,-0.151190 KneeLeft:-0.040481,0.723795,-0.063474,-0.685896 KneeRight:-0.033121,0.687996,0.069329,0.721636 Neck:0.011229,-0.006998,0.997245,-0.072990 ShoulderLeft:-0.018608,0.778368,-0.622327,0.080656 ShoulderRight:-0.003988,0.805329,0.589909,-0.058627 SpineBase:0.025516,-0.004405,0.999075,-0.034318 SpineMid:0.018471,-0.004163,0.999231,-0.034348 SpineShoulder:0.011259,-0.005358,0.998529,-0.052758 ThumbLeft:0.000000,0.000000,0.000000,0.000000 ThumbRight:0.000000,0.000000,0.000000,0.000000 WristLeft:-0.105981,0.735346,-0.084961,0.663939 WristRight:-0.470298,0.678518,0.343565,-0.447656 END:
KINECT_DATA POSITION:6.596934,-1.864058,-5.148673 HEAD_JOINT1:0.979677,0.151154,-0.000000,0.131852 LARM_JOINT2:0.833723,0.000000,-0.054513,-0.549485 LARM_JOINT3:0.970582,0.000000,-0.151241,-0.187339 LLEG_JOINT2:0.997408,0.017792,0.000000,0.069719 LLEG_JOINT4:0.993907,0.108008,0.000000,-0.021971 RARM_JOINT2:0.804537,0.000000,0.504839,0.312822 RARM_JOINT3:0.967599,0.000000,0.249071,-0.041426 RLEG_JOINT2:0.996817,0.024633,0.000000,-0.075827 RLEG_JOINT4:0.994789,0.090202,0.000000,0.047520 WAIST:0.999696,0.000000,-0.024379,0.003607 WAIST_JOINT0:0.999735,0.000000,-0.012301,0.019480 WAIST_JOINT1:0.998292,0.057257,0.000000,-0.011572 END:
KINECT_DATA_Sensor  AnkleLeft:0.050153,0.714509,-0.125792,-0.686395 AnkleRight:0.070383,0.711626,0.093616,0.692728 ElbowLeft:-0.059459,0.935525,-0.181968,-0.296893 ElbowRight:-0.452193,0.775840,-0.036978,0.438437 FootLeft:0.000000,0.000000,0.000000,0.000000 FootRight:0.000000,0.000000,0.000000,0.000000 HandLeft:-0.094165,0.751794,-0.001853,0.652637 HandRight:-0.424050,0.660519,0.302222,-0.540887 HandTipLeft:0.000000,0.000000,0.000000,0.000000 HandTipRight:0.000000,0.000000,0.000000,0.000000 Head:0.000000,0.000000,0.000000,0.000000 HipLeft:0.132230,-0.677509,0.703355,-0.169673 HipRight:-0.107618,0.685910,0.703401,-0.152229 KneeLeft:-0.040698,0.722691,-0.063549,-0.687039 KneeRight:-0.031772,0.689196,0.069420,0.720541 Neck:0.009418,-0.006937,0.997267,-0.072954 ShoulderLeft:-0.018781,0.778679,-0.622002,0.080123 ShoulderRight:-0.006508,0.804620,0.590608,-0.061052 SpineBase:0.023937,-0.004484,0.999121,-0.034128 SpineMid:0.016771,-0.004239,0.999267,-0.034159 SpineShoulder:0.009443,-0.005333,0.998554,-0.052661 ThumbLeft:0.000000,0.000000,0.000000,0.000000 ThumbRight:0.000000,0.000000,0.000000,0.000000 WristLeft:-0.108950,0.755892,-0.081577,0.640392 WristRight:-0.487390,0.618355,0.363786,-0.497743 END:
KINECT_DATA POSITION:6.604484,-1.861730,-5.101466 HEAD_JOINT1:0.980904,0.149419,-0.000000,0.124505 LARM_JOINT2:0.832495,0.000000,-0.052630,-0.551527 LARM_JOINT3:0.972056,0.000000,-0.147657,-0.182493 LLEG_JOINT2:0.997378,0.016537,0.000000,0.070459 LLEG_JOINT4:0.993712,0.110088,0.000000,-0.020435 RARM_JOINT2:0.787279,0.000000,0.581454,0.205188 RARM_JOINT3:0.974784,0.000000,0.210394,0.074368 RLEG_JOINT2:0.996728,0.026647,0.000000,-0.076311 RLEG_JOINT4:0.994944,0.087840,0.000000,0.048687 WAIST:0.999819,0.000000,-0.018753,0.003259 WAIST_JOINT0:0.999816,0.000000,-0.005079,0.018499 WAIST_JOINT1:0.998331,0.056771,0.000000,-0.010598 END:
KINECT_DATA_Sensor  AnkleLeft:0.050080,0.710579,-0.127396,-0.690174 AnkleRight:0.069799,0.715672,0.093500,0.688621 ElbowLeft:-0.058111,0.931752,-0.180820,-0.309460 ElbowRight:-0.537055,0.815753,0.029990,0.212649 FootLeft:0.000000,0.000000,0.000000,0.000000 FootRight:0.000000,0.000000,0.000000,0.000000 HandLeft:-0.065181,0.796855,0.003165,0.600636 HandRight:-0.399415,0.694356,0.171465,-0.573530 HandTipLeft:0.000000,0.000000,0.000000,0.000000 HandTipRight:0.000000,0.000000,0.000000,0.000000 Head:0.000000,0.000000,0.000000,0.000000 HipLeft:0.130448,-0.678130,0.703602,-0.167532 HipRight:-0.112978,0.684589,0.702896,-0.156561 KneeLeft:-0.041517,0.718770,-0.063125,-0.691130 KneeRight:-0.031295,0.693240,0.071218,0.716496 Neck:0.002199,-0.006450,0.997375,-0.072090 ShoulderLeft:-0.015077,0.779584,-0.621643,0.074700 ShoulderRight:-0.012100,0.804094,0.590573,-0.067155 SpineBase:0.018358,-0.004284,0.999255,-0.033680 SpineMid:0.010371,-0.004014,0.999370,-0.033714 SpineShoulder:0.002209,-0.004988,0.998622,-0.052202 ThumbLeft:0.000000,0.000000,0.000000,0.000000 ThumbRight:0.000000,0.000000,0.000000,0.000000 WristLeft:-0.114823,0.794632,-0.076966,0.591144 WristRight:0.512292,-0.640111,-0.290931,0.493127 END:
KINECT_DATA POSITION:6.640810,-1.869384,-5.022478 HEAD_JOINT1:0.982936,0.148670,-0.000000,0.108328 LARM_JOINT2:0.827686,0.000000,-0.044737,-0.559406 LARM_JOINT3:0.972524,0.000000,-0.154043,-0.174548 LLEG_JOINT2:0.997363,0.015371,0.000000,0.070935 LLEG_JOINT4:0.993939,0.108243,0.000000,-0.019179 RARM_JOINT2:0.803773,0.000000,0.581492,0.125762 RARM_JOINT3:0.955510,0.000000,0.255760,0.146927 RLEG_JOINT2:0.996503,0.031570,0.000000,-0.077364 RLEG_JOINT4:0.994876,0.087044,0.000000,0.051437 WAIST:0.999987,0.000000,-0.004088,0.003006 WAIST_JOINT0:0.999583,-0.000000,0.019015,0.021716 WAIST_JOINT1:0.998465,0.054910,0.000000,-0.007253 END:
KINECT_DATA_Sensor  AnkleLeft:0.048195,0.697687,-0.125760,-0.703630 AnkleRight:0.072806,0.728158,0.095830,0.674761 ElbowLeft:-0.054957,0.915719,-0.176490,-0.356778 ElbowRight:-0.563976,0.806418,0.177301,0.013643 FootLeft:0.000000,0.000000,0.000000,0.000000 FootRight:0.000000,0.000000,0.000000,0.000000 HandLeft:-0.053063,0.807399,0.006343,0.587580 HandRight:0.436290,-0.676417,-0.165674,0.569792 HandTipLeft:0.000000,0.000000,0.000000,0.000000 HandTipRight:0.000000,0.000000,0.000000,0.000000 Head:0.000000,0.000000,0.000000,0.000000 HipLeft:0.124892,-0.679751,0.704510,-0.161263 HipRight:-0.126417,0.681982,0.700730,-0.167024 KneeLeft:-0.041602,0.708558,-0.063023,-0.701600 KneeRight:-0.029762,0.703727,0.075115,0.705861 Neck:-0.022212,-0.002811,0.997347,-0.069262 ShoulderLeft:-0.003456,0.779880,-0.623321,0.056973 ShoulderRight:-0.032086,0.806745,0.583515,-0.087423 SpineBase:0.003789,-0.003036,0.999464,-0.032371 SpineMid:-0.009108,-0.002618,0.999430,-0.032408 SpineShoulder:-0.022271,-0.002512,0.998476,-0.050433 ThumbLeft:0.000000,0.000000,0.000000,0.000000 ThumbRight:0.000000,0.000000,0.000000,0.000000 WristLeft:-0.119607,0.802874,-0.086686,0.577558 WristRight:0.502929,-0.646044,-0.217481,0.531406 END:
KINECT_DATA POSITION:6.731988,-1.814387,-4.963374 HEAD_JOINT1:0.984662,0.153548,-0.000000,0.082851 LARM_JOINT2:0.819064,0.000000,-0.022916,-0.573245 LARM_JOINT3:0.975764,0.000000,-0.153002,-0.156444 LLEG_JOINT2:0.997395,0.013066,0.000000,0.070942 LLEG_JOINT4:0.994266,0.105790,0.000000,-0.015588 RARM_JOINT2:0.798789,0.000000,0.587930,0.127570 RARM_JOINT3:0.962097,0.000000,0.236206,0.136295 RLEG_JOINT2:0.996440,0.032731,0.000000,-0.077697 RLEG_JOINT4:0.994356,0.089734,0.000000,0.056598 WAIST:0.999885,-0.000000,0.014952,0.002521 WAIST_JOINT0:0.998966,-0.000000,0.039897,0.021811 WAIST_JOINT1:0.998690,0.051166,0.000000,-0.000323 END:
KINECT_DATA_Sensor  AnkleLeft:-0.045289,-0.686511,0.123627,0.715100 AnkleRight:0.076445,0.738545,0.096767,0.662830 ElbowLeft:-0.044228,0.886705,-0.172665,-0.426596 ElbowRight:-0.555628,0.803027,0.203332,-0.071287 FootLeft:0.000000,0.000000,0.000000,0.000000 FootRight:0.000000,0.000000,0.000000,0.000000 HandLeft:-0.030924,0.841545,0.014063,0.539118 HandRight:0.542828,-0.642239,-0.240371,0.484859 HandTipLeft:0.000000,0.000000,0.000000,0.000000 HandTipRight:0.000000,0.000000,0.000000,0.000000 Head:0.000000,0.000000,0.000000,0.000000 HipLeft:0.112775,-0.681737,0.707369,-0.148814 HipRight:-0.139476,0.678569,0.699594,-0.175096 KneeLeft:0.041756,-0.695104,0.061821,0.715028 KneeRight:-0.030989,0.717018,0.075904,0.692216 Neck:-0.043070,0.003420,0.996940,-0.065152 ShoulderLeft:0.016160,0.778100,-0.627112,0.032091 ShoulderRight:-0.039148,0.805602,0.583294,-0.096127 SpineBase:-0.015088,-0.000049,0.999419,-0.030566 SpineMid:-0.029005,0.000377,0.999112,-0.030564 SpineShoulder:-0.043128,0.002688,0.997980,-0.046568 ThumbLeft:0.000000,0.000000,0.000000,0.000000 ThumbRight:0.000000,0.000000,0.000000,0.000000 WristLeft:-0.108774,0.835031,-0.097871,0.530390 WristRight:0.465424,-0.619951,-0.218400,0.592742 END:
