EastLYD/RoboCupatHomeSim/InteractiveCleanUp/JapanOpen2016/Motion_Data/File40.dat
KINECT_DATA POSITION:9.695858,-2.852823,13.546920 HEAD_JOINT1:0.978339,0.164657,-0.000000,0.125466 LARM_JOINT2:0.829471,0.000000,-0.031986,-0.557633 LARM_JOINT3:0.971788,0.000000,-0.172212,-0.161156 LLEG_JOINT2:0.999124,0.019953,0.000000,0.036783 LLEG_JOINT4:0.995252,0.090509,0.000000,-0.035809 RARM_JOINT2:0.794740,0.000000,-0.045112,0.605271 RARM_JOINT3:0.970877,0.000000,0.199495,0.132664 RLEG_JOINT2:0.999705,0.015367,0.000000,-0.018822 RLEG_JOINT4:0.995838,0.083925,0.000000,0.035535 WAIST:0.999962,0.000000,-0.008641,0.001459 WAIST_JOINT0:0.999749,0.000000,-0.021464,0.006406 WAIST_JOINT1:0.997637,0.065573,0.000000,-0.020497 END:
KINECT_DATA_Sensor  AnkleLeft:0.076808,0.715665,-0.079186,-0.689677 AnkleRight:0.083732,0.698365,0.056266,0.708597 ElbowLeft:-0.040807,0.899854,-0.171743,-0.398877 ElbowRight:0.007410,0.834762,0.181906,0.519641 FootLeft:0.000000,0.000000,0.000000,0.000000 FootRight:0.000000,0.000000,0.000000,0.000000 HandLeft:-0.105890,0.863253,0.014123,0.493338 HandRight:0.068031,-0.396160,-0.074674,0.912608 HandTipLeft:0.000000,0.000000,0.000000,0.000000 HandTipRight:0.000000,0.000000,0.000000,0.000000 Head:0.000000,0.000000,0.000000,0.000000 HipLeft:0.123674,-0.677211,0.706547,-0.163955 HipRight:-0.111070,0.677187,0.707304,-0.169711 KneeLeft:-0.013281,0.712457,-0.041043,-0.700389 KneeRight:-0.001173,0.701698,0.023166,0.712097 Neck:0.021254,-0.020657,0.996276,-0.080962 ShoulderLeft:-0.003437,0.784622,-0.614625,0.081195 ShoulderRight:0.024977,0.788686,0.612563,-0.046015 SpineBase:0.007797,-0.016851,0.998963,-0.041562 SpineMid:0.014262,-0.017120,0.998892,-0.041452 SpineShoulder:0.021058,-0.018864,0.997766,-0.060534 ThumbLeft:0.000000,0.000000,0.000000,0.000000 ThumbRight:0.000000,0.000000,0.000000,0.000000 WristLeft:-0.113035,0.866933,-0.077937,0.479141 WristRight:0.004261,-0.398415,-0.115752,0.909862 END:
KINECT_DATA POSITION:9.697106,-2.857191,13.547098 HEAD_JOINT1:0.978264,0.164331,-0.000000,0.126468 LARM_JOINT2:0.829431,0.000000,-0.032146,-0.557683 LARM_JOINT3:0.971431,0.000000,-0.174555,-0.160784 LLEG_JOINT2:0.999112,0.020030,0.000000,0.037057 LLEG_JOINT4:0.995223,0.091107,0.000000,-0.035073 RARM_JOINT2:0.794245,0.000000,-0.044866,0.605939 RARM_JOINT3:0.970304,0.000000,0.202609,0.132137 RLEG_JOINT2:0.999714,0.014554,0.000000,-0.018955 RLEG_JOINT4:0.995719,0.085495,0.000000,0.035143 WAIST:0.999957,0.000000,-0.009130,0.001414 WAIST_JOINT0:0.999744,0.000000,-0.021784,0.006180 WAIST_JOINT1:0.997602,0.065921,0.000000,-0.021091 END:
KINECT_DATA_Sensor  AnkleLeft:0.081466,0.757786,-0.075415,-0.642990 AnkleRight:0.085182,0.713865,0.055243,0.692884 ElbowLeft:-0.040449,0.900054,-0.171167,-0.398709 ElbowRight:0.007721,0.834564,0.181816,0.519987 FootLeft:0.000000,0.000000,0.000000,0.000000 FootRight:0.000000,0.000000,0.000000,0.000000 HandLeft:-0.113482,0.696066,-0.020527,0.708655 HandRight:0.073606,-0.412685,-0.088393,0.903582 HandTipLeft:0.000000,0.000000,0.000000,0.000000 HandTipRight:0.000000,0.000000,0.000000,0.000000 Head:0.000000,0.000000,0.000000,0.000000 HipLeft:0.123913,-0.677166,0.706473,-0.164277 HipRight:-0.110558,0.677170,0.707419,-0.169635 KneeLeft:-0.013410,0.712785,-0.041253,-0.700040 KneeRight:-0.001866,0.701385,0.022726,0.712417 Neck:0.021590,-0.021345,0.996222,-0.081366 ShoulderLeft:-0.003198,0.784700,-0.614484,0.081515 ShoulderRight:0.025691,0.788362,0.612966,-0.045805 SpineBase:0.008268,-0.017174,0.998946,-0.041766 SpineMid:0.014669,-0.017442,0.998872,-0.041656 SpineShoulder:0.021393,-0.019433,0.997727,-0.060878 ThumbLeft:0.000000,0.000000,0.000000,0.000000 ThumbRight:0.000000,0.000000,0.000000,0.000000 WristLeft:-0.088441,0.709529,-0.104445,0.691259 WristRight:0.006352,-0.416341,-0.115281,0.901848 END:
KINECT_DATA POSITION:9.695328,-2.882572,13.596809 HEAD_JOINT1:0.978118,0.165290,-0.000000,0.126351 LARM_JOINT2:0.829213,0.000000,-0.032142,-0.558008 LARM_JOINT3:0.971636,0.000000,-0.176510,-0.157376 LLEG_JOINT2:0.999090,0.020009,0.000000,0.037657 LLEG_JOINT4:0.995229,0.090734,0.000000,-0.035863 RARM_JOINT2:0.793267,0.000000,-0.042478,0.607390 RARM_JOINT3:0.967264,0.000000,0.213726,0.136826 RLEG_JOINT2:0.999730,0.014196,0.000000,-0.018387 RLEG_JOINT4:0.995457,0.088551,0.000000,0.034990 WAIST:0.999957,0.000000,-0.009261,0.001052 WAIST_JOINT0:0.999747,0.000000,-0.021667,0.006049 WAIST_JOINT1:0.997615,0.065743,0.000000,-0.021009 END:
KINECT_DATA_Sensor  AnkleLeft:0.080263,0.747083,-0.076097,-0.655465 AnkleRight:0.085920,0.698104,0.058934,0.708375 ElbowLeft:-0.040497,0.899821,-0.170458,-0.399533 ElbowRight:0.006398,0.834139,0.179595,0.521457 FootLeft:0.000000,0.000000,0.000000,0.000000 FootRight:0.000000,0.000000,0.000000,0.000000 HandLeft:-0.117815,0.863765,0.000556,0.489929 HandRight:0.105252,-0.342591,-0.127326,0.924847 HandTipLeft:0.000000,0.000000,0.000000,0.000000 HandTipRight:0.000000,0.000000,0.000000,0.000000 Head:0.000000,0.000000,0.000000,0.000000 HipLeft:0.124370,-0.677406,0.706174,-0.164228 HipRight:-0.110773,0.676935,0.707640,-0.169513 KneeLeft:-0.013602,0.712892,-0.041401,-0.699919 KneeRight:-0.001978,0.701283,0.022325,0.712530 Neck:0.021515,-0.021597,0.996232,-0.081190 ShoulderLeft:-0.003233,0.784886,-0.614276,0.081295 ShoulderRight:0.025559,0.788265,0.613102,-0.045728 SpineBase:0.008422,-0.017478,0.998952,-0.041453 SpineMid:0.014702,-0.017738,0.998879,-0.041342 SpineShoulder:0.021312,-0.019689,0.997734,-0.060704 ThumbLeft:0.000000,0.000000,0.000000,0.000000 ThumbRight:0.000000,0.000000,0.000000,0.000000 WristLeft:-0.113357,0.867972,-0.077090,0.477318 WristRight:0.001626,-0.353533,-0.118758,0.927852 END:
KINECT_DATA POSITION:9.752254,-2.921891,13.736010 HEAD_JOINT1:0.978722,0.163961,-0.000000,0.123371 LARM_JOINT2:0.828492,0.000000,-0.032448,-0.559061 LARM_JOINT3:0.971897,0.000000,-0.173750,-0.158829 LLEG_JOINT2:0.999159,0.019857,0.000000,0.035869 LLEG_JOINT4:0.995362,0.090138,0.000000,-0.033625 RARM_JOINT2:0.790583,0.000000,-0.018373,0.612080 RARM_JOINT3:0.959017,0.000000,0.246484,0.139761 RLEG_JOINT2:0.999704,0.013781,0.000000,-0.020043 RLEG_JOINT4:0.995441,0.088690,0.000000,0.035095 WAIST:0.999969,0.000000,-0.007685,0.001909 WAIST_JOINT0:0.999778,0.000000,-0.020125,0.006306 WAIST_JOINT1:0.997657,0.064948,0.000000,-0.021509 END:
KINECT_DATA_Sensor  AnkleLeft:0.079370,0.749730,-0.076026,-0.652553 AnkleRight:0.088650,0.741498,0.054012,0.662876 ElbowLeft:-0.040870,0.898890,-0.169247,-0.402097 ElbowRight:-0.007936,0.838869,0.165122,0.518623 FootLeft:0.000000,0.000000,0.000000,0.000000 FootRight:0.000000,0.000000,0.000000,0.000000 HandLeft:-0.111111,0.710034,-0.019951,0.695060 HandRight:0.137286,-0.332668,-0.192025,0.913023 HandTipLeft:0.000000,0.000000,0.000000,0.000000 HandTipRight:0.000000,0.000000,0.000000,0.000000 Head:0.000000,0.000000,0.000000,0.000000 HipLeft:0.124568,-0.677213,0.706725,-0.162496 HipRight:-0.112990,0.677503,0.706740,-0.169532 KneeLeft:-0.012975,0.711808,-0.040664,-0.701075 KneeRight:-0.002865,0.702393,0.022604,0.711424 Neck:0.019974,-0.021435,0.996352,-0.080156 ShoulderLeft:-0.002784,0.785279,-0.613998,0.079592 ShoulderRight:0.024006,0.788814,0.612407,-0.046420 SpineBase:0.006839,-0.016903,0.999040,-0.039844 SpineMid:0.013153,-0.017155,0.998976,-0.039736 SpineShoulder:0.019786,-0.019412,0.997816,-0.059951 ThumbLeft:0.000000,0.000000,0.000000,0.000000 ThumbRight:0.000000,0.000000,0.000000,0.000000 WristLeft:-0.090794,0.720667,-0.103766,0.679432 WristRight:0.034848,-0.352008,-0.150491,0.923162 END:
KINECT_DATA POSITION:9.827173,-2.939627,13.832164 HEAD_JOINT1:0.980128,0.160157,-0.000000,0.117047 LARM_JOINT2:0.827777,0.000000,-0.031833,-0.560153 LARM_JOINT3:0.972907,0.000000,-0.172450,-0.153991 LLEG_JOINT2:0.999190,0.020381,0.000000,0.034711 LLEG_JOINT4:0.995492,0.089625,0.000000,-0.031039 RARM_JOINT2:0.790313,0.000000,0.017026,0.612467 RARM_JOINT3:0.953787,0.000000,0.261964,0.147194 RLEG_JOINT2:0.999657,0.014390,0.000000,-0.021869 RLEG_JOINT4:0.995075,0.091467,0.000000,0.038210 WAIST:0.999980,0.000000,-0.005965,0.002058 WAIST_JOINT0:0.999849,0.000000,-0.015541,0.007745 WAIST_JOINT1:0.997812,0.062538,0.000000,-0.021470 END:
KINECT_DATA_Sensor  AnkleLeft:0.074256,0.712930,-0.081138,-0.692555 AnkleRight:0.088581,0.701248,0.060686,0.704785 ElbowLeft:-0.042124,0.897324,-0.167505,-0.406175 ElbowRight:-0.029942,0.855292,0.149538,0.495194 FootLeft:0.000000,0.000000,0.000000,0.000000 FootRight:0.000000,0.000000,0.000000,0.000000 HandLeft:-0.100574,0.794455,-0.017427,0.598684 HandRight:0.162537,-0.265674,-0.235164,0.920705 HandTipLeft:0.000000,0.000000,0.000000,0.000000 HandTipRight:0.000000,0.000000,0.000000,0.000000 Head:0.000000,0.000000,0.000000,0.000000 HipLeft:0.124587,-0.677414,0.706885,-0.160939 HipRight:-0.115372,0.677539,0.706303,-0.169607 KneeLeft:-0.011817,0.710684,-0.040350,-0.702254 KneeRight:-0.003651,0.703540,0.024219,0.710234 Neck:0.015390,-0.020962,0.996702,-0.076870 ShoulderLeft:-0.001751,0.785390,-0.614439,0.074995 ShoulderRight:0.019107,0.790195,0.610602,-0.048911 SpineBase:0.005170,-0.016219,0.999119,-0.038348 SpineMid:0.010058,-0.016407,0.999082,-0.038269 SpineShoulder:0.015189,-0.019205,0.998025,-0.057852 ThumbLeft:0.000000,0.000000,0.000000,0.000000 ThumbRight:0.000000,0.000000,0.000000,0.000000 WristLeft:-0.104718,0.797727,-0.093523,0.586446 WristRight:0.056628,-0.290761,-0.178881,0.938218 END:
KINECT_DATA POSITION:10.066351,-2.963321,13.934302 HEAD_JOINT1:0.983841,0.149085,-0.000000,0.099152 LARM_JOINT2:0.826040,0.000000,-0.028802,-0.562875 LARM_JOINT3:0.973683,0.000000,-0.170695,-0.151012 LLEG_JOINT2:0.999265,0.021540,0.000000,0.031709 LLEG_JOINT4:0.995462,0.089652,0.000000,-0.031901 RARM_JOINT2:0.792826,0.000000,0.138707,0.593454 RARM_JOINT3:0.955964,0.000000,0.264500,0.127173 RLEG_JOINT2:0.999602,0.014318,0.000000,-0.024294 RLEG_JOINT4:0.994788,0.094089,0.000000,0.039294 WAIST:0.999986,0.000000,-0.005069,0.001776 WAIST_JOINT0:0.999926,0.000000,-0.004230,0.011442 WAIST_JOINT1:0.998233,0.056095,0.000000,-0.019612 END:
KINECT_DATA_Sensor  AnkleLeft:0.077367,0.706183,-0.079651,-0.699268 AnkleRight:0.089759,0.707486,0.062919,0.698175 ElbowLeft:-0.045470,0.894801,-0.164441,-0.412582 ElbowRight:-0.114836,0.889083,0.108755,0.429555 FootLeft:0.000000,0.000000,0.000000,0.000000 FootRight:0.000000,0.000000,0.000000,0.000000 HandLeft:-0.090472,0.838959,-0.016086,0.536381 HandRight:0.140400,-0.133019,-0.324709,0.925828 HandTipLeft:0.000000,0.000000,0.000000,0.000000 HandTipRight:0.000000,0.000000,0.000000,0.000000 Head:0.000000,0.000000,0.000000,0.000000 HipLeft:0.126075,-0.678153,0.706495,-0.158363 HipRight:-0.118566,0.677936,0.705993,-0.167091 KneeLeft:-0.008627,0.710265,-0.038873,-0.702807 KneeRight:-0.005633,0.704010,0.026088,0.709688 Neck:0.004195,-0.017874,0.997379,-0.069993 ShoulderLeft:-0.002070,0.784026,-0.617318,0.064946 ShoulderRight:0.004140,0.792868,0.606772,-0.056310 SpineBase:0.004423,-0.014813,0.999284,-0.034543 SpineMid:0.004118,-0.014802,0.999285,-0.034547 SpineShoulder:0.003923,-0.017379,0.998500,-0.051778 ThumbLeft:0.000000,0.000000,0.000000,0.000000 ThumbRight:0.000000,0.000000,0.000000,0.000000 WristLeft:-0.116574,0.837539,-0.088629,0.526388 WristRight:0.077097,-0.152876,-0.254084,0.951907 END:
KINECT_DATA POSITION:10.399855,-2.934229,13.881135 HEAD_JOINT1:0.985836,0.143378,-0.000000,0.087003 LARM_JOINT2:0.825033,0.000000,-0.026660,-0.564456 LARM_JOINT3:0.973207,0.000000,-0.169108,-0.155787 LLEG_JOINT2:0.999440,0.019835,0.000000,0.026944 LLEG_JOINT4:0.995682,0.089493,0.000000,-0.024658 RARM_JOINT2:0.795726,0.000000,0.265921,0.544156 RARM_JOINT3:0.968397,0.000000,0.230671,0.094855 RLEG_JOINT2:0.999499,0.015764,0.000000,-0.027460 RLEG_JOINT4:0.994767,0.092641,0.000000,0.043080 WAIST:0.999998,0.000000,-0.001114,0.001712 WAIST_JOINT0:0.999844,-0.000000,0.010758,0.013990 WAIST_JOINT1:0.998544,0.051414,0.000000,-0.016315 END:
KINECT_DATA_Sensor  AnkleLeft:0.082240,0.770455,-0.071929,-0.628062 AnkleRight:0.092281,0.736697,0.059277,0.667269 ElbowLeft:-0.047762,0.893110,-0.164796,-0.415830 ElbowRight:-0.215783,0.895307,0.071187,0.383139 FootLeft:0.000000,0.000000,0.000000,0.000000 FootRight:0.000000,0.000000,0.000000,0.000000 HandLeft:-0.090873,0.763540,-0.017099,0.639106 HandRight:0.095750,-0.011401,-0.327421,0.939946 HandTipLeft:0.000000,0.000000,0.000000,0.000000 HandTipRight:0.000000,0.000000,0.000000,0.000000 Head:0.000000,0.000000,0.000000,0.000000 HipLeft:0.125596,-0.679272,0.706540,-0.153675 HipRight:-0.123719,0.678319,0.705076,-0.165664 KneeLeft:-0.006266,0.707605,-0.034283,-0.705748 KneeRight:-0.007002,0.706619,0.029369,0.706950 Neck:-0.010383,-0.014069,0.997681,-0.065775 ShoulderLeft:-0.005381,0.783654,-0.618495,0.057623 ShoulderRight:-0.018263,0.794848,0.602280,-0.071711 SpineBase:0.000624,-0.012806,0.999459,-0.030280 SpineMid:-0.005025,-0.012635,0.999447,-0.030352 SpineShoulder:-0.010644,-0.013911,0.998739,-0.047040 ThumbLeft:0.000000,0.000000,0.000000,0.000000 ThumbRight:0.000000,0.000000,0.000000,0.000000 WristLeft:-0.106527,0.766476,-0.105424,0.624542 WristRight:0.044185,-0.029469,-0.331164,0.942077 END:
KINECT_DATA POSITION:10.671528,-2.877967,13.762415 HEAD_JOINT1:0.986144,0.143604,-0.000000,0.083050 LARM_JOINT2:0.824645,0.000000,-0.023652,-0.565157 LARM_JOINT3:0.973386,0.000000,-0.166327,-0.157652 LLEG_JOINT2:0.999577,0.018293,0.000000,0.022616 LLEG_JOINT4:0.995772,0.089269,0.000000,-0.021653 RARM_JOINT2:0.801649,0.000000,0.385823,0.456618 RARM_JOINT3:0.973715,0.000000,0.208279,0.092195 RLEG_JOINT2:0.999426,0.017949,0.000000,-0.028730 RLEG_JOINT4:0.995560,0.085350,0.000000,0.039692 WAIST:0.999994,-0.000000,0.002775,0.002040 WAIST_JOINT0:0.999464,-0.000000,0.028160,0.016684 WAIST_JOINT1:0.998626,0.050418,0.000000,-0.014282 END:
KINECT_DATA_Sensor  AnkleLeft:-0.072986,-0.688782,0.078892,0.716958 AnkleRight:0.084081,0.725759,0.061205,0.680043 ElbowLeft:-0.046547,0.890805,-0.167103,-0.419973 ElbowRight:-0.321275,0.905566,0.071059,0.267737 FootLeft:0.000000,0.000000,0.000000,0.000000 FootRight:0.000000,0.000000,0.000000,0.000000 HandLeft:-0.085034,0.848247,0.002359,0.522724 HandRight:0.092696,0.006320,-0.367893,0.925215 HandTipLeft:0.000000,0.000000,0.000000,0.000000 HandTipRight:0.000000,0.000000,0.000000,0.000000 Head:0.000000,0.000000,0.000000,0.000000 HipLeft:0.123454,-0.679917,0.707074,-0.150061 HipRight:-0.126911,0.678732,0.704172,-0.165400 KneeLeft:0.004413,-0.704894,0.030376,0.708648 KneeRight:-0.006249,0.709276,0.031549,0.704197 Neck:-0.027602,-0.011211,0.997428,-0.065194 ShoulderLeft:-0.006724,0.783777,-0.618802,0.052274 ShoulderRight:-0.042137,0.796795,0.595594,-0.092788 SpineBase:-0.003195,-0.011002,0.999535,-0.028275 SpineMid:-0.015458,-0.010654,0.999420,-0.028408 SpineShoulder:-0.027844,-0.011096,0.998492,-0.046002 ThumbLeft:0.000000,0.000000,0.000000,0.000000 ThumbRight:0.000000,0.000000,0.000000,0.000000 WristLeft:-0.117476,0.847291,-0.091286,0.509866 WristRight:0.054331,-0.010152,-0.390609,0.918896 END:
KINECT_DATA POSITION:10.754310,-2.834409,13.641989 HEAD_JOINT1:0.985859,0.146775,-0.000000,0.080867 LARM_JOINT2:0.824019,0.000000,-0.021266,-0.566163 LARM_JOINT3:0.972099,0.000000,-0.167111,-0.164614 LLEG_JOINT2:0.999596,0.016927,0.000000,0.022821 LLEG_JOINT4:0.995576,0.091526,0.000000,-0.021245 RARM_JOINT2:0.795908,0.000000,0.453064,0.401577 RARM_JOINT3:0.979448,0.000000,0.182740,0.085370 RLEG_JOINT2:0.999371,0.019958,0.000000,-0.029310 RLEG_JOINT4:0.995512,0.085288,0.000000,0.041019 WAIST:0.999969,-0.000000,0.007674,0.001982 WAIST_JOINT0:0.998814,-0.000000,0.044829,0.018992 WAIST_JOINT1:0.998645,0.050473,0.000000,-0.012684 END:
KINECT_DATA_Sensor  AnkleLeft:-0.072960,-0.679364,0.080138,0.725754 AnkleRight:0.086159,0.734337,0.061737,0.670458 ElbowLeft:-0.044207,0.888170,-0.168544,-0.425197 ElbowRight:-0.376406,0.908844,0.083140,0.159406 FootLeft:0.000000,0.000000,0.000000,0.000000 FootRight:0.000000,0.000000,0.000000,0.000000 HandLeft:-0.095792,0.674657,-0.007238,0.731853 HandRight:0.042315,0.097718,-0.433336,0.894919 HandTipLeft:0.000000,0.000000,0.000000,0.000000 HandTipRight:0.000000,0.000000,0.000000,0.000000 Head:0.000000,0.000000,0.000000,0.000000 HipLeft:0.119950,-0.680736,0.707575,-0.146790 HipRight:-0.129714,0.678449,0.703551,-0.167027 KneeLeft:0.005349,-0.701412,0.029538,0.712124 KneeRight:-0.005454,0.712672,0.033390,0.700681 Neck:-0.044083,-0.009161,0.996840,-0.065436 ShoulderLeft:-0.005176,0.783104,-0.620129,0.046485 ShoulderRight:-0.062320,0.796764,0.590516,-0.112136 SpineBase:-0.008052,-0.009979,0.999531,-0.027822 SpineMid:-0.026049,-0.009476,0.999224,-0.027997 SpineShoulder:-0.044331,-0.009269,0.997913,-0.046022 ThumbLeft:0.000000,0.000000,0.000000,0.000000 ThumbRight:0.000000,0.000000,0.000000,0.000000 WristLeft:-0.087256,0.677460,-0.120035,0.720435 WristRight:0.017388,0.087344,-0.410573,0.907468 END:
KINECT_DATA POSITION:10.818844,-2.773362,13.556135 HEAD_JOINT1:0.985667,0.153200,-0.000000,0.070645 LARM_JOINT2:0.821790,0.000000,-0.018799,-0.569481 LARM_JOINT3:0.972672,0.000000,-0.167694,-0.160584 LLEG_JOINT2:0.999629,0.015533,0.000000,0.022350 LLEG_JOINT4:0.995505,0.092631,0.000000,-0.019743 RARM_JOINT2:0.788848,0.000000,0.509496,0.343705 RARM_JOINT3:0.980340,0.000000,0.158883,0.117003 RLEG_JOINT2:0.999330,0.020561,0.000000,-0.030273 RLEG_JOINT4:0.995878,0.079854,0.000000,0.043010 WAIST:0.999905,-0.000000,0.013662,0.001914 WAIST_JOINT0:0.998429,-0.000000,0.051814,0.021320 WAIST_JOINT1:0.998628,0.051797,0.000000,-0.007702 END:
KINECT_DATA_Sensor  AnkleLeft:-0.072581,-0.675394,0.080135,0.729488 AnkleRight:0.082296,0.731461,0.059128,0.674312 ElbowLeft:-0.040122,0.886293,-0.171211,-0.428440 ElbowRight:-0.414808,0.899783,0.134647,-0.013949 FootLeft:0.000000,0.000000,0.000000,0.000000 FootRight:0.000000,0.000000,0.000000,0.000000 HandLeft:-0.085558,0.780439,-0.009543,0.619276 HandRight:0.041137,0.143194,-0.451534,0.879727 HandTipLeft:0.000000,0.000000,0.000000,0.000000 HandTipRight:0.000000,0.000000,0.000000,0.000000 Head:0.000000,0.000000,0.000000,0.000000 HipLeft:0.115722,-0.680997,0.708506,-0.144471 HipRight:-0.133970,0.677337,0.702998,-0.170470 KneeLeft:0.005804,-0.697146,0.028204,0.716351 KneeRight:-0.005979,0.716825,0.034499,0.696373 Neck:-0.052970,-0.003490,0.996339,-0.067016 ShoulderLeft:-0.001448,0.780375,-0.623838,0.042891 ShoulderRight:-0.070650,0.799081,0.584561,-0.121516 SpineBase:-0.013975,-0.007791,0.999470,-0.028341 SpineMid:-0.033465,-0.007236,0.999008,-0.028487 SpineShoulder:-0.053228,-0.004760,0.997462,-0.047047 ThumbLeft:0.000000,0.000000,0.000000,0.000000 ThumbRight:0.000000,0.000000,0.000000,0.000000 WristLeft:-0.100759,0.783526,-0.103707,0.604300 WristRight:0.020385,0.137089,-0.405936,0.903331 END:
KINECT_DATA POSITION:10.840110,-2.728452,13.616884 HEAD_JOINT1:0.985960,0.156802,-0.000000,0.057405 LARM_JOINT2:0.820168,0.000000,-0.019914,-0.571775 LARM_JOINT3:0.972041,0.000000,-0.172024,-0.159827 LLEG_JOINT2:0.999618,0.014948,0.000000,0.023245 LLEG_JOINT4:0.995381,0.094466,0.000000,-0.017101 RARM_JOINT2:0.785357,0.000000,0.538369,0.305570 RARM_JOINT3:0.981068,0.000000,0.142920,0.130687 RLEG_JOINT2:0.999284,0.023731,0.000000,-0.029477 RLEG_JOINT4:0.995373,0.084109,0.000000,0.046461 WAIST:0.999773,-0.000000,0.021289,0.000744 WAIST_JOINT0:0.997478,-0.000000,0.066852,0.023825 WAIST_JOINT1:0.998552,0.053765,0.000000,-0.001700 END:
KINECT_DATA_Sensor  AnkleLeft:0.081730,0.752936,-0.072875,-0.648920 AnkleRight:0.088430,0.726608,0.063937,0.678331 ElbowLeft:-0.038285,0.883691,-0.173811,-0.432914 ElbowRight:-0.437363,0.880845,0.157973,-0.088714 FootLeft:0.000000,0.000000,0.000000,0.000000 FootRight:0.000000,0.000000,0.000000,0.000000 HandLeft:-0.084579,0.622386,-0.041482,0.777021 HandRight:-0.009879,0.188076,-0.448613,0.873657 HandTipLeft:0.000000,0.000000,0.000000,0.000000 HandTipRight:0.000000,0.000000,0.000000,0.000000 Head:0.000000,0.000000,0.000000,0.000000 HipLeft:0.111043,-0.681719,0.708794,-0.143317 HipRight:-0.140629,0.674888,0.702668,-0.176092 KneeLeft:0.005811,-0.691762,0.027652,0.721573 KneeRight:-0.004309,0.722032,0.037007,0.690856 Neck:-0.069417,0.001392,0.995203,-0.068919 ShoulderLeft:0.005681,0.776438,-0.629129,0.036175 ShoulderRight:-0.085698,0.797662,0.580537,-0.139167 SpineBase:-0.021437,-0.004494,0.999323,-0.029555 SpineMid:-0.045322,-0.003786,0.998525,-0.029654 SpineShoulder:-0.069603,0.000213,0.996376,-0.048883 ThumbLeft:0.000000,0.000000,0.000000,0.000000 ThumbRight:0.000000,0.000000,0.000000,0.000000 WristLeft:-0.071515,0.623613,-0.124745,0.768395 WristRight:0.009831,0.201851,-0.411095,0.888910 END:
KINECT_DATA POSITION:10.825248,-2.693066,13.676655 HEAD_JOINT1:0.985937,0.159109,-0.000000,0.051104 LARM_JOINT2:0.819059,0.000000,-0.020449,-0.573345 LARM_JOINT3:0.972775,0.000000,-0.166272,-0.161437 LLEG_JOINT2:0.999661,0.013554,0.000000,0.022234 LLEG_JOINT4:0.995658,0.091924,0.000000,-0.014641 RARM_JOINT2:0.788634,0.000000,0.547528,0.279767 RARM_JOINT3:0.980562,0.000000,0.144838,0.132367 RLEG_JOINT2:0.999218,0.026704,0.000000,-0.029155 RLEG_JOINT4:0.995801,0.079603,0.000000,0.045218 WAIST:0.999549,-0.000000,0.029993,0.001175 WAIST_JOINT0:0.996737,-0.000000,0.076268,0.026446 WAIST_JOINT1:0.998535,0.054110,-0.000000,0.000570 END:
KINECT_DATA_Sensor  AnkleLeft:-0.068767,-0.661685,0.080279,0.742293 AnkleRight:0.087684,0.746001,0.062201,0.657210 ElbowLeft:-0.037349,0.879230,-0.174751,-0.441612 ElbowRight:-0.453463,0.868803,0.167253,-0.107609 FootLeft:0.000000,0.000000,0.000000,0.000000 FootRight:0.000000,0.000000,0.000000,0.000000 HandLeft:-0.083211,0.882608,0.010874,0.462559 HandRight:-0.035659,0.209971,-0.467229,0.858101 HandTipLeft:0.000000,0.000000,0.000000,0.000000 HandTipRight:0.000000,0.000000,0.000000,0.000000 Head:0.000000,0.000000,0.000000,0.000000 HipLeft:0.105838,-0.681708,0.710188,-0.140373 HipRight:-0.146920,0.673579,0.701275,-0.181439 KneeLeft:0.006201,-0.685486,0.026310,0.727584 KneeRight:-0.002056,0.728018,0.038599,0.684467 Neck:-0.079763,0.003542,0.994411,-0.069087 ShoulderLeft:0.011691,0.773533,-0.632932,0.030123 ShoulderRight:-0.093604,0.797529,0.577232,-0.148287 SpineBase:-0.030078,-0.001808,0.999088,-0.030244 SpineMid:-0.054746,-0.001061,0.998040,-0.030280 SpineShoulder:-0.079904,0.002594,0.995585,-0.049189 ThumbLeft:0.000000,0.000000,0.000000,0.000000 ThumbRight:0.000000,0.000000,0.000000,0.000000 WristLeft:-0.111683,0.881721,-0.088861,0.449665 WristRight:0.000239,0.233622,-0.421597,0.876171 END:
KINECT_DATA POSITION:10.789517,-2.675442,13.702881 HEAD_JOINT1:0.986336,0.158704,-0.000000,0.044197 LARM_JOINT2:0.818457,0.000000,-0.020859,-0.574190 LARM_JOINT3:0.972588,0.000000,-0.168214,-0.160549 LLEG_JOINT2:0.999687,0.012691,0.000000,0.021582 LLEG_JOINT4:0.995657,0.092049,0.000000,-0.013965 RARM_JOINT2:0.790961,0.000000,0.548011,0.272150 RARM_JOINT3:0.981425,0.000000,0.137497,0.133791 RLEG_JOINT2:0.999118,0.029392,0.000000,-0.029974 RLEG_JOINT4:0.995756,0.078561,0.000000,0.047950 WAIST:0.999351,-0.000000,0.035948,0.002228 WAIST_JOINT0:0.996303,-0.000000,0.081148,0.028197 WAIST_JOINT1:0.998493,0.054841,-0.000000,0.002193 END:
KINECT_DATA_Sensor  AnkleLeft:-0.068106,-0.658840,0.079948,0.744916 AnkleRight:0.090800,0.752577,0.061343,0.649323 ElbowLeft:-0.036716,0.876053,-0.176559,-0.447224 ElbowRight:-0.456432,0.865140,0.170877,-0.118335 FootLeft:0.000000,0.000000,0.000000,0.000000 FootRight:0.000000,0.000000,0.000000,0.000000 HandLeft:-0.085275,0.702919,-0.022143,0.705793 HandRight:-0.046026,0.189773,-0.460207,0.866070 HandTipLeft:0.000000,0.000000,0.000000,0.000000 HandTipRight:0.000000,0.000000,0.000000,0.000000 Head:0.000000,0.000000,0.000000,0.000000 HipLeft:0.101317,-0.681411,0.711609,-0.137941 HipRight:-0.150373,0.673546,0.699823,-0.184314 KneeLeft:0.006980,-0.681155,0.026022,0.731644 KneeRight:-0.000310,0.732116,0.040362,0.679983 Neck:-0.085739,0.005899,0.993850,-0.069836 ShoulderLeft:0.016711,0.771252,-0.635773,0.026142 ShoulderRight:-0.096610,0.798115,0.574693,-0.152993 SpineBase:-0.036008,0.000826,0.998874,-0.030869 SpineMid:-0.060656,0.001587,0.997681,-0.030839 SpineShoulder:-0.085846,0.004954,0.995049,-0.049826 ThumbLeft:0.000000,0.000000,0.000000,0.000000 ThumbRight:0.000000,0.000000,0.000000,0.000000 WristLeft:-0.077677,0.711939,-0.119600,0.687608 WristRight:0.005978,0.219825,-0.422407,0.879326 END:
KINECT_DATA POSITION:10.734853,-2.647528,13.656569 HEAD_JOINT1:0.986474,0.157654,-0.000000,0.044877 LARM_JOINT2:0.818997,0.000000,-0.022699,-0.573349 LARM_JOINT3:0.971736,0.000000,-0.171748,-0.161965 LLEG_JOINT2:0.999671,0.012731,0.000000,0.022254 LLEG_JOINT4:0.995959,0.088779,0.000000,-0.013583 RARM_JOINT2:0.794274,0.000000,0.543411,0.271723 RARM_JOINT3:0.982583,0.000000,0.132339,0.130449 RLEG_JOINT2:0.999078,0.030522,0.000000,-0.030185 RLEG_JOINT4:0.995747,0.077158,0.000000,0.050337 WAIST:0.999252,-0.000000,0.038599,0.002398 WAIST_JOINT0:0.996195,-0.000000,0.082415,0.028332 WAIST_JOINT1:0.998457,0.055434,-0.000000,0.003235 END:
KINECT_DATA_Sensor  AnkleLeft:0.076017,0.760325,-0.067897,-0.641496 AnkleRight:0.090079,0.732647,0.062698,0.671702 ElbowLeft:-0.037102,0.876848,-0.178397,-0.444899 ElbowRight:-0.455163,0.866502,0.170789,-0.113280 FootLeft:0.000000,0.000000,0.000000,0.000000 FootRight:0.000000,0.000000,0.000000,0.000000 HandLeft:-0.099604,0.663967,-0.040456,0.739993 HandRight:-0.040841,0.123338,-0.455565,0.880670 HandTipLeft:0.000000,0.000000,0.000000,0.000000 HandTipRight:0.000000,0.000000,0.000000,0.000000 Head:0.000000,0.000000,0.000000,0.000000 HipLeft:0.098137,-0.681780,0.712013,-0.136316 HipRight:-0.151237,0.673676,0.699336,-0.184980 KneeLeft:0.007460,-0.679243,0.026677,0.733391 KneeRight:0.000313,0.733922,0.041209,0.677982 Neck:-0.087695,0.006892,0.993623,-0.070537 ShoulderLeft:0.018161,0.770499,-0.636677,0.025361 ShoulderRight:-0.097833,0.798233,0.573784,-0.155001 SpineBase:-0.038617,0.002392,0.998760,-0.031334 SpineMid:-0.062907,0.003154,0.997524,-0.031266 SpineShoulder:-0.087783,0.006000,0.994847,-0.050372 ThumbLeft:0.000000,0.000000,0.000000,0.000000 ThumbRight:0.000000,0.000000,0.000000,0.000000 WristLeft:-0.066991,0.665551,-0.124348,0.732866 WristRight:0.029379,0.161273,-0.421635,0.891825 END:
KINECT_DATA POSITION:10.671297,-2.614178,13.576627 HEAD_JOINT1:0.986235,0.158771,-0.000000,0.046180 LARM_JOINT2:0.819867,0.000000,-0.024607,-0.572025 LARM_JOINT3:0.970721,0.000000,-0.172689,-0.166973 LLEG_JOINT2:0.999658,0.012606,0.000000,0.022894 LLEG_JOINT4:0.995979,0.088621,0.000000,-0.013118 RARM_JOINT2:0.795576,0.000000,0.539736,0.275217 RARM_JOINT3:0.982562,0.000000,0.133895,0.129010 RLEG_JOINT2:0.999110,0.030306,0.000000,-0.029347 RLEG_JOINT4:0.995895,0.076609,0.000000,0.048203 WAIST:0.999267,-0.000000,0.038224,0.002041 WAIST_JOINT0:0.996127,-0.000000,0.083124,0.028641 WAIST_JOINT1:0.998451,0.055488,-0.000000,0.004098 END:
KINECT_DATA_Sensor  AnkleLeft:-0.064479,-0.658165,0.078699,0.745968 AnkleRight:0.089209,0.741296,0.062095,0.662319 ElbowLeft:-0.038310,0.879454,-0.179839,-0.439034 ElbowRight:-0.452692,0.869302,0.168325,-0.105123 FootLeft:0.000000,0.000000,0.000000,0.000000 FootRight:0.000000,0.000000,0.000000,0.000000 HandLeft:-0.114981,0.674072,-0.036260,0.728760 HandRight:-0.039682,0.143611,-0.452199,0.879385 HandTipLeft:0.000000,0.000000,0.000000,0.000000 HandTipRight:0.000000,0.000000,0.000000,0.000000 Head:0.000000,0.000000,0.000000,0.000000 HipLeft:0.097505,-0.682215,0.711652,-0.136478 HipRight:-0.150841,0.673846,0.699447,-0.184260 KneeLeft:0.007742,-0.679557,0.026808,0.733092 KneeRight:0.000543,0.733651,0.040734,0.678304 Neck:-0.088757,0.007475,0.993521,-0.070589 ShoulderLeft:0.017986,0.770340,-0.636879,0.025261 ShoulderRight:-0.099504,0.798693,0.572488,-0.156353 SpineBase:-0.038191,0.003313,0.998769,-0.031467 SpineMid:-0.063187,0.004100,0.997500,-0.031374 SpineShoulder:-0.088833,0.006616,0.994748,-0.050421 ThumbLeft:0.000000,0.000000,0.000000,0.000000 ThumbRight:0.000000,0.000000,0.000000,0.000000 WristLeft:-0.068851,0.676361,-0.122964,0.722963 WristRight:0.018701,0.174991,-0.422051,0.889326 END:
KINECT_DATA POSITION:10.617001,-2.596140,13.496315 HEAD_JOINT1:0.985990,0.159867,-0.000000,0.047615 LARM_JOINT2:0.820526,0.000000,-0.026711,-0.570985 LARM_JOINT3:0.971479,0.000000,-0.164455,-0.170829 LLEG_JOINT2:0.999660,0.011883,0.000000,0.023223 LLEG_JOINT4:0.995810,0.090286,0.000000,-0.014515 RARM_JOINT2:0.796883,0.000000,0.535845,0.279012 RARM_JOINT3:0.982567,0.000000,0.136547,0.126161 RLEG_JOINT2:0.999099,0.030193,0.000000,-0.029819 RLEG_JOINT4:0.995740,0.077668,0.000000,0.049693 WAIST:0.999246,-0.000000,0.038780,0.002122 WAIST_JOINT0:0.996039,-0.000000,0.084023,0.029097 WAIST_JOINT1:0.998443,0.055636,-0.000000,0.003901 END:
KINECT_DATA_Sensor  AnkleLeft:-0.065860,-0.657375,0.078625,0.746551 AnkleRight:0.089944,0.734334,0.063024,0.669845 ElbowLeft:-0.038936,0.882003,-0.180430,-0.433590 ElbowRight:-0.450958,0.872517,0.163377,-0.093052 FootLeft:0.000000,0.000000,0.000000,0.000000 FootRight:0.000000,0.000000,0.000000,0.000000 HandLeft:-0.102650,0.672068,-0.013451,0.733217 HandRight:-0.056388,0.181031,-0.449392,0.872980 HandTipLeft:0.000000,0.000000,0.000000,0.000000 HandTipRight:0.000000,0.000000,0.000000,0.000000 Head:0.000000,0.000000,0.000000,0.000000 HipLeft:0.096689,-0.682369,0.711685,-0.136121 HipRight:-0.150867,0.673957,0.699254,-0.184566 KneeLeft:0.008540,-0.679146,0.026620,0.733471 KneeRight:0.000154,0.734030,0.040914,0.677883 Neck:-0.089648,0.007318,0.993432,-0.070725 ShoulderLeft:0.018686,0.769943,-0.637355,0.024853 ShoulderRight:-0.100010,0.798581,0.572325,-0.157199 SpineBase:-0.038745,0.003485,0.998740,-0.031706 SpineMid:-0.063899,0.004283,0.997446,-0.031608 SpineShoulder:-0.089725,0.006501,0.994661,-0.050571 ThumbLeft:0.000000,0.000000,0.000000,0.000000 ThumbRight:0.000000,0.000000,0.000000,0.000000 WristLeft:-0.068743,0.674021,-0.122134,0.725296 WristRight:0.000401,0.210886,-0.423467,0.881023 END:
KINECT_DATA POSITION:10.564888,-2.568353,13.370932 HEAD_JOINT1:0.985491,0.162915,-0.000000,0.047613 LARM_JOINT2:0.820784,0.000000,-0.025178,-0.570684 LARM_JOINT3:0.971190,0.000000,-0.166591,-0.170405 LLEG_JOINT2:0.999674,0.011084,0.000000,0.022979 LLEG_JOINT4:0.995540,0.093341,0.000000,-0.013705 RARM_JOINT2:0.799525,0.000000,0.533261,0.276392 RARM_JOINT3:0.979994,0.000000,0.146859,0.134326 RLEG_JOINT2:0.999110,0.029402,0.000000,-0.030243 RLEG_JOINT4:0.995748,0.077482,0.000000,0.049825 WAIST:0.999296,-0.000000,0.037448,0.002298 WAIST_JOINT0:0.995917,-0.000000,0.085327,0.029468 WAIST_JOINT1:0.998450,0.055541,-0.000000,0.003704 END:
KINECT_DATA_Sensor  AnkleLeft:-0.066688,-0.656580,0.080950,0.746929 AnkleRight:0.088577,0.726050,0.063263,0.678972 ElbowLeft:-0.037792,0.883569,-0.181307,-0.430121 ElbowRight:-0.450651,0.871887,0.168596,-0.091119 FootLeft:0.000000,0.000000,0.000000,0.000000 FootRight:0.000000,0.000000,0.000000,0.000000 HandLeft:-0.100671,0.652465,-0.026517,0.750634 HandRight:-0.001821,0.141777,-0.451912,0.880722 HandTipLeft:0.000000,0.000000,0.000000,0.000000 HandTipRight:0.000000,0.000000,0.000000,0.000000 Head:0.000000,0.000000,0.000000,0.000000 HipLeft:0.097169,-0.682294,0.711543,-0.136893 HipRight:-0.150010,0.674456,0.699159,-0.183800 KneeLeft:0.009118,-0.680122,0.026012,0.732580 KneeRight:-0.000515,0.733129,0.040502,0.678882 Neck:-0.091048,0.007498,0.993316,-0.070557 ShoulderLeft:0.018719,0.769613,-0.637768,0.024443 ShoulderRight:-0.101944,0.798452,0.571729,-0.158769 SpineBase:-0.037415,0.003842,0.998786,-0.031800 SpineMid:-0.063900,0.004684,0.997442,-0.031687 SpineShoulder:-0.091121,0.006710,0.994538,-0.050457 ThumbLeft:0.000000,0.000000,0.000000,0.000000 ThumbRight:0.000000,0.000000,0.000000,0.000000 WristLeft:-0.066543,0.654327,-0.122231,0.743295 WristRight:0.026763,0.159158,-0.421438,0.892380 END:
KINECT_DATA POSITION:10.525316,-2.565331,13.280094 HEAD_JOINT1:0.985242,0.164370,-0.000000,0.047748 LARM_JOINT2:0.821159,0.000000,-0.025410,-0.570133 LARM_JOINT3:0.971300,0.000000,-0.167599,-0.168779 LLEG_JOINT2:0.999673,0.010780,0.000000,0.023192 LLEG_JOINT4:0.995847,0.090541,0.000000,-0.009535 RARM_JOINT2:0.799031,0.000000,0.532648,0.278991 RARM_JOINT3:0.980224,0.000000,0.146169,0.133400 RLEG_JOINT2:0.999133,0.028971,0.000000,-0.029903 RLEG_JOINT4:0.995988,0.074681,0.000000,0.049311 WAIST:0.999307,-0.000000,0.037125,0.002555 WAIST_JOINT0:0.995880,-0.000000,0.085763,0.029456 WAIST_JOINT1:0.998449,0.055565,-0.000000,0.003424 END:
KINECT_DATA_Sensor  AnkleLeft:-0.061222,-0.657290,0.082109,0.746646 AnkleRight:0.086335,0.724811,0.060992,0.680791 ElbowLeft:-0.038185,0.883816,-0.181816,-0.429365 ElbowRight:-0.449453,0.873212,0.166318,-0.088487 FootLeft:0.000000,0.000000,0.000000,0.000000 FootRight:0.000000,0.000000,0.000000,0.000000 HandLeft:-0.098280,0.714573,-0.025817,0.692141 HandRight:-0.011286,0.154487,-0.449399,0.879799 HandTipLeft:0.000000,0.000000,0.000000,0.000000 HandTipRight:0.000000,0.000000,0.000000,0.000000 Head:0.000000,0.000000,0.000000,0.000000 HipLeft:0.097192,-0.682163,0.711624,-0.137110 HipRight:-0.149755,0.674739,0.698971,-0.183687 KneeLeft:0.009676,-0.680348,0.026141,0.732359 KneeRight:-0.000365,0.732918,0.039772,0.679153 Neck:-0.091545,0.007510,0.993270,-0.070552 ShoulderLeft:0.018651,0.769052,-0.638440,0.024614 ShoulderRight:-0.102805,0.797737,0.572353,-0.159561 SpineBase:-0.037102,0.004027,0.998794,-0.031903 SpineMid:-0.063980,0.004884,0.997433,-0.031783 SpineShoulder:-0.091615,0.006759,0.994492,-0.050470 ThumbLeft:0.000000,0.000000,0.000000,0.000000 ThumbRight:0.000000,0.000000,0.000000,0.000000 WristLeft:-0.078970,0.724389,-0.115379,0.675064 WristRight:0.020921,0.173193,-0.421289,0.889990 END:
KINECT_DATA POSITION:10.510085,-2.559253,13.194906 HEAD_JOINT1:0.985041,0.165347,-0.000000,0.048528 LARM_JOINT2:0.821125,0.000000,-0.024896,-0.570206 LARM_JOINT3:0.971292,0.000000,-0.167982,-0.168447 LLEG_JOINT2:0.999677,0.010782,0.000000,0.023010 LLEG_JOINT4:0.996063,0.087630,0.000000,-0.013366 RARM_JOINT2:0.798744,0.000000,0.532531,0.280034 RARM_JOINT3:0.979509,0.000000,0.147548,0.137086 RLEG_JOINT2:0.999137,0.029609,0.000000,-0.029120 RLEG_JOINT4:0.996097,0.072852,0.000000,0.049832 WAIST:0.999350,-0.000000,0.035972,0.002543 WAIST_JOINT0:0.995793,-0.000000,0.086616,0.029917 WAIST_JOINT1:0.998460,0.055380,-0.000000,0.003308 END:
KINECT_DATA_Sensor  AnkleLeft:-0.061650,-0.656430,0.077442,0.747865 AnkleRight:0.087683,0.737323,0.057446,0.667358 ElbowLeft:-0.038327,0.883761,-0.181645,-0.429539 ElbowRight:-0.448148,0.873239,0.168217,-0.091216 FootLeft:0.000000,0.000000,0.000000,0.000000 FootRight:0.000000,0.000000,0.000000,0.000000 HandLeft:-0.102429,0.850943,-0.002151,0.515169 HandRight:0.010422,0.129723,-0.446167,0.885437 HandTipLeft:0.000000,0.000000,0.000000,0.000000 HandTipRight:0.000000,0.000000,0.000000,0.000000 Head:0.000000,0.000000,0.000000,0.000000 HipLeft:0.097865,-0.682155,0.711430,-0.137678 HipRight:-0.149152,0.675007,0.699033,-0.182955 KneeLeft:0.009570,-0.681196,0.025991,0.731577 KneeRight:0.000682,0.732136,0.039716,0.679999 Neck:-0.092349,0.007536,0.993211,-0.070335 ShoulderLeft:0.018562,0.768554,-0.639048,0.024443 ShoulderRight:-0.104082,0.797431,0.572297,-0.160459 SpineBase:-0.035948,0.004121,0.998839,-0.031786 SpineMid:-0.063785,0.005005,0.997449,-0.031659 SpineShoulder:-0.092418,0.006802,0.994427,-0.050273 ThumbLeft:0.000000,0.000000,0.000000,0.000000 ThumbRight:0.000000,0.000000,0.000000,0.000000 WristLeft:-0.102388,0.854677,-0.095379,0.499947 WristRight:0.035843,0.145138,-0.418020,0.896052 END:
KINECT_DATA POSITION:10.516644,-2.554158,13.131189 HEAD_JOINT1:0.984886,0.166145,-0.000000,0.048935 LARM_JOINT2:0.821102,0.000000,-0.025386,-0.570217 LARM_JOINT3:0.972617,0.000000,-0.164930,-0.163749 LLEG_JOINT2:0.999687,0.010183,0.000000,0.022853 LLEG_JOINT4:0.995659,0.091962,0.000000,-0.014384 RARM_JOINT2:0.796920,0.000000,0.533865,0.282679 RARM_JOINT3:0.979760,0.000000,0.144162,0.138881 RLEG_JOINT2:0.999132,0.029344,0.000000,-0.029579 RLEG_JOINT4:0.996159,0.073081,0.000000,0.048229 WAIST:0.999344,-0.000000,0.036094,0.002979 WAIST_JOINT0:0.995719,-0.000000,0.087377,0.030161 WAIST_JOINT1:0.998466,0.055286,-0.000000,0.002927 END:
KINECT_DATA_Sensor  AnkleLeft:0.074599,0.747427,-0.070420,-0.656376 AnkleRight:0.086376,0.736396,0.058690,0.668442 ElbowLeft:-0.038713,0.883872,-0.181487,-0.429342 ElbowRight:-0.447600,0.873948,0.165218,-0.092588 FootLeft:0.000000,0.000000,0.000000,0.000000 FootRight:0.000000,0.000000,0.000000,0.000000 HandLeft:-0.084348,0.826367,-0.017416,0.556506 HandRight:-0.001036,0.165596,-0.431505,0.886781 HandTipLeft:0.000000,0.000000,0.000000,0.000000 HandTipRight:0.000000,0.000000,0.000000,0.000000 Head:0.000000,0.000000,0.000000,0.000000 HipLeft:0.097745,-0.681901,0.711722,-0.137512 HipRight:-0.149172,0.675291,0.698736,-0.183026 KneeLeft:0.010207,-0.681084,0.025777,0.731680 KneeRight:0.000469,0.732237,0.039526,0.679902 Neck:-0.093067,0.007616,0.993153,-0.070195 ShoulderLeft:0.018995,0.768207,-0.639471,0.023943 ShoulderRight:-0.104645,0.797167,0.572410,-0.161001 SpineBase:-0.036094,0.004226,0.998834,-0.031772 SpineMid:-0.064212,0.005119,0.997421,-0.031641 SpineShoulder:-0.093135,0.006879,0.994365,-0.050168 ThumbLeft:0.000000,0.000000,0.000000,0.000000 ThumbRight:0.000000,0.000000,0.000000,0.000000 WristLeft:-0.097028,0.827122,-0.100881,0.544314 WristRight:0.021693,0.177423,-0.418662,0.890378 END:
KINECT_DATA POSITION:10.551063,-2.554736,13.065088 HEAD_JOINT1:0.984922,0.166040,-0.000000,0.048581 LARM_JOINT2:0.820962,0.000000,-0.024453,-0.570459 LARM_JOINT3:0.972430,0.000000,-0.167249,-0.162506 LLEG_JOINT2:0.999701,0.009641,0.000000,0.022452 LLEG_JOINT4:0.995649,0.092127,0.000000,-0.013969 RARM_JOINT2:0.796318,0.000000,0.535131,0.281979 RARM_JOINT3:0.979872,0.000000,0.141315,0.140998 RLEG_JOINT2:0.999120,0.029214,0.000000,-0.030098 RLEG_JOINT4:0.996049,0.074336,0.000000,0.048585 WAIST:0.999365,-0.000000,0.035514,0.002979 WAIST_JOINT0:0.995785,-0.000000,0.086750,0.029767 WAIST_JOINT1:0.998449,0.055592,-0.000000,0.003002 END:
KINECT_DATA_Sensor  AnkleLeft:0.075888,0.763128,-0.068481,-0.638112 AnkleRight:0.085945,0.723265,0.061174,0.682465 ElbowLeft:-0.038554,0.882214,-0.181549,-0.432725 ElbowRight:-0.447208,0.873134,0.167453,-0.097983 FootLeft:0.000000,0.000000,0.000000,0.000000 FootRight:0.000000,0.000000,0.000000,0.000000 HandLeft:-0.092581,0.823540,-0.019475,0.559314 HandRight:-0.011412,0.166022,-0.426910,0.888850 HandTipLeft:0.000000,0.000000,0.000000,0.000000 HandTipRight:0.000000,0.000000,0.000000,0.000000 Head:0.000000,0.000000,0.000000,0.000000 HipLeft:0.097782,-0.681791,0.711683,-0.138229 HipRight:-0.148620,0.675336,0.698827,-0.182956 KneeLeft:0.010345,-0.681519,0.025111,0.731297 KneeRight:0.000025,0.731840,0.039787,0.680314 Neck:-0.092548,0.007694,0.993182,-0.070461 ShoulderLeft:0.018332,0.768277,-0.639370,0.024915 ShoulderRight:-0.104687,0.796887,0.572753,-0.161141 SpineBase:-0.035508,0.004427,0.998840,-0.032226 SpineMid:-0.063651,0.005334,0.997442,-0.032088 SpineShoulder:-0.092611,0.007008,0.994397,-0.050482 ThumbLeft:0.000000,0.000000,0.000000,0.000000 ThumbRight:0.000000,0.000000,0.000000,0.000000 WristLeft:-0.094739,0.825980,-0.102450,0.546156 WristRight:0.021977,0.182047,-0.416715,0.890351 END:
KINECT_DATA POSITION:10.585077,-2.551740,13.044989 HEAD_JOINT1:0.984887,0.166143,-0.000000,0.048936 LARM_JOINT2:0.820723,0.000000,-0.023784,-0.570831 LARM_JOINT3:0.972400,0.000000,-0.176347,-0.152775 LLEG_JOINT2:0.999695,0.009777,0.000000,0.022670 LLEG_JOINT4:0.995684,0.091714,0.000000,-0.014198 RARM_JOINT2:0.795936,0.000000,0.533775,0.285605 RARM_JOINT3:0.977315,0.000000,0.150562,0.148949 RLEG_JOINT2:0.999145,0.028296,0.000000,-0.030142 RLEG_JOINT4:0.996009,0.075202,0.000000,0.048061 WAIST:0.999379,-0.000000,0.035088,0.003178 WAIST_JOINT0:0.995629,-0.000000,0.088682,0.029301 WAIST_JOINT1:0.998431,0.055937,-0.000000,0.002658 END:
KINECT_DATA_Sensor  AnkleLeft:0.075388,0.762168,-0.068644,-0.639300 AnkleRight:0.087250,0.740739,0.059072,0.663478 ElbowLeft:-0.038921,0.879248,-0.181082,-0.438883 ElbowRight:-0.445384,0.875382,0.163788,-0.092263 FootLeft:0.000000,0.000000,0.000000,0.000000 FootRight:0.000000,0.000000,0.000000,0.000000 HandLeft:-0.104905,0.849718,-0.052236,0.514048 HandRight:0.047578,0.148956,-0.413173,0.897126 HandTipLeft:0.000000,0.000000,0.000000,0.000000 HandTipRight:0.000000,0.000000,0.000000,0.000000 Head:0.000000,0.000000,0.000000,0.000000 HipLeft:0.097878,-0.681595,0.711771,-0.138673 HipRight:-0.148201,0.675497,0.698765,-0.182941 KneeLeft:0.010544,-0.681819,0.025500,0.731000 KneeRight:-0.000477,0.731553,0.039006,0.680668 Neck:-0.094143,0.007672,0.993003,-0.070877 ShoulderLeft:0.016886,0.768388,-0.639235,0.025944 ShoulderRight:-0.108575,0.795143,0.573510,-0.164454 SpineBase:-0.035093,0.004481,0.998845,-0.032509 SpineMid:-0.064217,0.005427,0.997396,-0.032365 SpineShoulder:-0.094207,0.007012,0.994232,-0.050776 ThumbLeft:0.000000,0.000000,0.000000,0.000000 ThumbRight:0.000000,0.000000,0.000000,0.000000 WristLeft:-0.099259,0.850683,-0.100180,0.506408 WristRight:0.041307,0.146047,-0.414688,0.897217 END:
KINECT_DATA POSITION:10.604915,-2.562081,13.052106 HEAD_JOINT1:0.984871,0.166397,-0.000000,0.048377 LARM_JOINT2:0.821759,0.000000,-0.025136,-0.569281 LARM_JOINT3:0.971654,0.000000,-0.173172,-0.160935 LLEG_JOINT2:0.999695,0.009836,0.000000,0.022647 LLEG_JOINT4:0.995726,0.090989,0.000000,-0.015810 RARM_JOINT2:0.796558,0.000000,0.532004,0.287169 RARM_JOINT3:0.976687,0.000000,0.150873,0.152710 RLEG_JOINT2:0.999117,0.028215,0.000000,-0.031126 RLEG_JOINT4:0.996144,0.073487,0.000000,0.047917 WAIST:0.999370,-0.000000,0.035284,0.003707 WAIST_JOINT0:0.995474,-0.000000,0.089806,0.031081 WAIST_JOINT1:0.998417,0.056208,-0.000000,0.002222 END:
KINECT_DATA_Sensor  AnkleLeft:-0.064196,-0.654245,0.078173,0.749487 AnkleRight:0.084892,0.733630,0.059161,0.671625 ElbowLeft:-0.040619,0.878582,-0.182420,-0.439508 ElbowRight:-0.444657,0.876918,0.161071,-0.085737 FootLeft:0.000000,0.000000,0.000000,0.000000 FootRight:0.000000,0.000000,0.000000,0.000000 HandLeft:-0.104760,0.816155,-0.025532,0.567684 HandRight:0.046651,0.141721,-0.396004,0.906046 HandTipLeft:0.000000,0.000000,0.000000,0.000000 HandTipRight:0.000000,0.000000,0.000000,0.000000 Head:0.000000,0.000000,0.000000,0.000000 HipLeft:0.097815,-0.681295,0.712058,-0.138718 HipRight:-0.148359,0.675818,0.698320,-0.183326 KneeLeft:0.010855,-0.681650,0.025899,0.731140 KneeRight:-0.000885,0.731708,0.039244,0.680487 Neck:-0.095017,0.007858,0.992894,-0.071214 ShoulderLeft:0.016931,0.768134,-0.639536,0.026020 ShoulderRight:-0.109761,0.796217,0.571466,-0.165579 SpineBase:-0.035320,0.004598,0.998833,-0.032617 SpineMid:-0.064756,0.005558,0.997357,-0.032468 SpineShoulder:-0.095087,0.007116,0.994137,-0.050993 ThumbLeft:0.000000,0.000000,0.000000,0.000000 ThumbRight:0.000000,0.000000,0.000000,0.000000 WristLeft:-0.094120,0.820767,-0.107785,0.553051 WristRight:0.048169,0.140142,-0.414336,0.897979 END:
KINECT_DATA POSITION:10.632881,-2.579379,13.065743 HEAD_JOINT1:0.984733,0.167335,-0.000000,0.047964 LARM_JOINT2:0.821637,0.000000,-0.024683,-0.569476 LARM_JOINT3:0.971962,0.000000,-0.168139,-0.164373 LLEG_JOINT2:0.999691,0.011014,0.000000,0.022267 LLEG_JOINT4:0.995932,0.088576,0.000000,-0.016522 RARM_JOINT2:0.797766,0.000000,0.529869,0.287764 RARM_JOINT3:0.976999,0.000000,0.147741,0.153770 RLEG_JOINT2:0.999098,0.028756,0.000000,-0.031231 RLEG_JOINT4:0.996225,0.072522,0.000000,0.047701 WAIST:0.999360,-0.000000,0.035556,0.004022 WAIST_JOINT0:0.995519,-0.000000,0.089343,0.030992 WAIST_JOINT1:0.998415,0.056237,-0.000000,0.002226 END:
KINECT_DATA_Sensor  AnkleLeft:-0.063904,-0.654470,0.076701,0.749468 AnkleRight:0.083689,0.723862,0.060119,0.682207 ElbowLeft:-0.040120,0.878708,-0.182710,-0.439181 ElbowRight:-0.443370,0.877498,0.162073,-0.084576 FootLeft:0.000000,0.000000,0.000000,0.000000 FootRight:0.000000,0.000000,0.000000,0.000000 HandLeft:-0.095062,0.830866,-0.002878,0.548285 HandRight:0.011885,0.166714,-0.391205,0.905000 HandTipLeft:0.000000,0.000000,0.000000,0.000000 HandTipRight:0.000000,0.000000,0.000000,0.000000 Head:0.000000,0.000000,0.000000,0.000000 HipLeft:0.097744,-0.681108,0.712257,-0.138663 HipRight:-0.148721,0.676006,0.698019,-0.183485 KneeLeft:0.009950,-0.681452,0.026647,0.731310 KneeRight:-0.000380,0.731908,0.039486,0.680258 Neck:-0.094409,0.008141,0.992946,-0.071266 ShoulderLeft:0.016416,0.768264,-0.639375,0.026487 ShoulderRight:-0.109488,0.796130,0.571759,-0.165167 SpineBase:-0.035600,0.004938,0.998824,-0.032546 SpineMid:-0.064593,0.005882,0.997369,-0.032389 SpineShoulder:-0.094477,0.007360,0.994193,-0.051000 ThumbLeft:0.000000,0.000000,0.000000,0.000000 ThumbRight:0.000000,0.000000,0.000000,0.000000 WristLeft:-0.096528,0.835139,-0.104890,0.531247 WristRight:0.035868,0.173510,-0.414029,0.892854 END:
KINECT_DATA POSITION:10.627873,-2.587366,13.079453 HEAD_JOINT1:0.984696,0.167579,-0.000000,0.047860 LARM_JOINT2:0.821529,0.000000,-0.025324,-0.569604 LARM_JOINT3:0.971224,0.000000,-0.172131,-0.164607 LLEG_JOINT2:0.999695,0.011188,0.000000,0.022009 LLEG_JOINT4:0.995961,0.088416,0.000000,-0.015621 RARM_JOINT2:0.797949,0.000000,0.529655,0.287650 RARM_JOINT3:0.977309,0.000000,0.149820,0.149740 RLEG_JOINT2:0.999110,0.028506,0.000000,-0.031095 RLEG_JOINT4:0.996289,0.073231,0.000000,0.045222 WAIST:0.999372,-0.000000,0.035207,0.004092 WAIST_JOINT0:0.995650,-0.000000,0.087913,0.030846 WAIST_JOINT1:0.998409,0.056339,-0.000000,0.002292 END:
KINECT_DATA_Sensor  AnkleLeft:-0.063454,-0.655419,0.077183,0.748627 AnkleRight:0.083872,0.740434,0.059905,0.664180 ElbowLeft:-0.040191,0.879769,-0.182561,-0.437108 ElbowRight:-0.443000,0.877494,0.162858,-0.085050 FootLeft:0.000000,0.000000,0.000000,0.000000 FootRight:0.000000,0.000000,0.000000,0.000000 HandLeft:-0.111624,0.836447,-0.009682,0.536472 HandRight:0.010427,0.159902,-0.408649,0.898515 HandTipLeft:0.000000,0.000000,0.000000,0.000000 HandTipRight:0.000000,0.000000,0.000000,0.000000 Head:0.000000,0.000000,0.000000,0.000000 HipLeft:0.098017,-0.681037,0.712244,-0.138890 HipRight:-0.148545,0.676118,0.697994,-0.183311 KneeLeft:0.009703,-0.681706,0.026623,0.731077 KneeRight:-0.000388,0.731673,0.039162,0.680530 Neck:-0.093196,0.008265,0.993053,-0.071364 ShoulderLeft:0.016931,0.768211,-0.639423,0.026528 ShoulderRight:-0.107231,0.796634,0.571978,-0.163455 SpineBase:-0.035256,0.004949,0.998837,-0.032523 SpineMid:-0.063828,0.005878,0.997419,-0.032368 SpineShoulder:-0.093262,0.007463,0.994301,-0.051103 ThumbLeft:0.000000,0.000000,0.000000,0.000000 ThumbRight:0.000000,0.000000,0.000000,0.000000 WristLeft:-0.097700,0.842612,-0.102843,0.519503 WristRight:0.036983,0.170563,-0.413370,0.893681 END:
KINECT_DATA POSITION:10.614660,-2.598381,13.127875 HEAD_JOINT1:0.984757,0.167281,-0.000000,0.047653 LARM_JOINT2:0.821664,0.000000,-0.024918,-0.569427 LARM_JOINT3:0.970664,0.000000,-0.172167,-0.167840 LLEG_JOINT2:0.999705,0.011390,0.000000,0.021434 LLEG_JOINT4:0.996088,0.086911,0.000000,-0.015967 RARM_JOINT2:0.797838,0.000000,0.530300,0.286770 RARM_JOINT3:0.977571,0.000000,0.152297,0.145468 RLEG_JOINT2:0.999110,0.028604,0.000000,-0.031010 RLEG_JOINT4:0.996277,0.073979,0.000000,0.044268 WAIST:0.999385,-0.000000,0.034804,0.004316 WAIST_JOINT0:0.995741,-0.000000,0.086968,0.030595 WAIST_JOINT1:0.998415,0.056246,-0.000000,0.002173 END:
KINECT_DATA_Sensor  AnkleLeft:0.072774,0.752246,-0.066450,-0.651470 AnkleRight:0.084902,0.749774,0.059687,0.653505 ElbowLeft:-0.039779,0.880823,-0.183034,-0.434818 ElbowRight:-0.443587,0.876993,0.163503,-0.085911 FootLeft:0.000000,0.000000,0.000000,0.000000 FootRight:0.000000,0.000000,0.000000,0.000000 HandLeft:-0.109884,0.676188,-0.032498,0.727763 HandRight:0.015156,0.142052,-0.428036,0.892400 HandTipLeft:0.000000,0.000000,0.000000,0.000000 HandTipRight:0.000000,0.000000,0.000000,0.000000 Head:0.000000,0.000000,0.000000,0.000000 HipLeft:0.098487,-0.680815,0.712374,-0.138974 HipRight:-0.148496,0.676305,0.697913,-0.182967 KneeLeft:0.009332,-0.681994,0.026497,0.730818 KneeRight:-0.000084,0.731409,0.039019,0.680822 Neck:-0.092343,0.008398,0.993138,-0.071269 ShoulderLeft:0.017098,0.768454,-0.639132,0.026377 ShoulderRight:-0.105813,0.797070,0.572007,-0.162145 SpineBase:-0.034867,0.004998,0.998858,-0.032269 SpineMid:-0.063213,0.005912,0.997466,-0.032115 SpineShoulder:-0.092408,0.007551,0.994386,-0.051000 ThumbLeft:0.000000,0.000000,0.000000,0.000000 ThumbRight:0.000000,0.000000,0.000000,0.000000 WristLeft:-0.068647,0.678161,-0.123902,0.721133 WristRight:0.043385,0.156634,-0.413049,0.896088 END:
KINECT_DATA POSITION:10.624599,-2.623522,13.183916 HEAD_JOINT1:0.984695,0.167797,-0.000000,0.047125 LARM_JOINT2:0.821486,0.000000,-0.025053,-0.569678 LARM_JOINT3:0.971298,0.000000,-0.170459,-0.165900 LLEG_JOINT2:0.999713,0.011592,0.000000,0.020943 LLEG_JOINT4:0.996144,0.086331,0.000000,-0.015601 RARM_JOINT2:0.798321,0.000000,0.530418,0.285201 RARM_JOINT3:0.975808,0.000000,0.158377,0.150716 RLEG_JOINT2:0.999094,0.028889,0.000000,-0.031261 RLEG_JOINT4:0.996366,0.072976,0.000000,0.043924 WAIST:0.999327,-0.000000,0.036378,0.004722 WAIST_JOINT0:0.995275,-0.000000,0.091623,0.032139 WAIST_JOINT1:0.998433,0.055926,-0.000000,0.001983 END:
KINECT_DATA_Sensor  AnkleLeft:-0.062472,-0.653271,0.075740,0.750731 AnkleRight:0.082782,0.735927,0.061327,0.669177 ElbowLeft:-0.039696,0.880507,-0.182877,-0.435531 ElbowRight:-0.445170,0.876261,0.163084,-0.085993 FootLeft:0.000000,0.000000,0.000000,0.000000 FootRight:0.000000,0.000000,0.000000,0.000000 HandLeft:-0.101266,0.736659,-0.026260,0.668124 HandRight:0.031361,0.167726,-0.423689,0.889591 HandTipLeft:0.000000,0.000000,0.000000,0.000000 HandTipRight:0.000000,0.000000,0.000000,0.000000 Head:0.000000,0.000000,0.000000,0.000000 HipLeft:0.098105,-0.680727,0.712728,-0.137857 HipRight:-0.150057,0.676374,0.697334,-0.183647 KneeLeft:0.009100,-0.680831,0.026572,0.731902 KneeRight:0.000147,0.732501,0.039108,0.679642 Neck:-0.096226,0.008720,0.992793,-0.070893 ShoulderLeft:0.016934,0.768400,-0.639252,0.025106 ShoulderRight:-0.111393,0.796629,0.570294,-0.166548 SpineBase:-0.036456,0.005252,0.998820,-0.031653 SpineMid:-0.065919,0.006184,0.997309,-0.031484 SpineShoulder:-0.096299,0.007775,0.994032,-0.050656 ThumbLeft:0.000000,0.000000,0.000000,0.000000 ThumbRight:0.000000,0.000000,0.000000,0.000000 WristLeft:-0.080964,0.745992,-0.116631,0.650644 WristRight:0.039435,0.172506,-0.414697,0.892588 END:
KINECT_DATA POSITION:10.675267,-2.670255,13.369560 HEAD_JOINT1:0.984696,0.168231,-0.000000,0.045531 LARM_JOINT2:0.820799,0.000000,-0.022588,-0.570771 LARM_JOINT3:0.971704,0.000000,-0.167867,-0.166172 LLEG_JOINT2:0.999723,0.013169,0.000000,0.019514 LLEG_JOINT4:0.996026,0.087847,0.000000,-0.014669 RARM_JOINT2:0.798870,0.000000,0.530746,0.283046 RARM_JOINT3:0.975512,0.000000,0.156310,0.154734 RLEG_JOINT2:0.998977,0.031083,0.000000,-0.032855 RLEG_JOINT4:0.996326,0.071965,0.000000,0.046424 WAIST:0.999211,-0.000000,0.039329,0.005613 WAIST_JOINT0:0.995295,-0.000000,0.091436,0.032054 WAIST_JOINT1:0.998505,0.054630,-0.000000,0.001817 END:
KINECT_DATA_Sensor  AnkleLeft:-0.064826,-0.653145,0.077759,0.750435 AnkleRight:0.083897,0.729251,0.062210,0.676228 ElbowLeft:-0.038804,0.877821,-0.182746,-0.441053 ElbowRight:-0.447152,0.874216,0.164875,-0.092835 FootLeft:0.000000,0.000000,0.000000,0.000000 FootRight:0.000000,0.000000,0.000000,0.000000 HandLeft:-0.089576,0.686950,-0.025242,0.720721 HandRight:0.038107,0.153583,-0.415563,0.895694 HandTipLeft:0.000000,0.000000,0.000000,0.000000 HandTipRight:0.000000,0.000000,0.000000,0.000000 Head:0.000000,0.000000,0.000000,0.000000 HipLeft:0.097542,-0.680593,0.713451,-0.135154 HipRight:-0.153123,0.676811,0.696112,-0.184144 KneeLeft:0.007534,-0.678647,0.027238,0.733920 KneeRight:0.000977,0.734557,0.041160,0.677297 Neck:-0.096245,0.009088,0.992874,-0.069682 ShoulderLeft:0.017862,0.768462,-0.639243,0.022712 ShoulderRight:-0.110253,0.797504,0.569900,-0.164458 SpineBase:-0.039433,0.005993,0.998759,-0.029822 SpineMid:-0.067427,0.006827,0.997260,-0.029642 SpineShoulder:-0.096307,0.008143,0.994096,-0.049313 ThumbLeft:0.000000,0.000000,0.000000,0.000000 ThumbRight:0.000000,0.000000,0.000000,0.000000 WristLeft:-0.070700,0.687980,-0.124172,0.711524 WristRight:0.048744,0.158456,-0.413763,0.895163 END:
KINECT_DATA POSITION:10.798882,-2.738549,13.708651 HEAD_JOINT1:0.984843,0.168137,-0.000000,0.042582 LARM_JOINT2:0.819737,0.000000,-0.022838,-0.572285 LARM_JOINT3:0.970751,0.000000,-0.170216,-0.169320 LLEG_JOINT2:0.999751,0.015620,0.000000,0.015940 LLEG_JOINT4:0.996383,0.084289,0.000000,-0.010741 RARM_JOINT2:0.803811,0.000000,0.527314,0.275369 RARM_JOINT3:0.964743,0.000000,0.197712,0.173723 RLEG_JOINT2:0.998613,0.037203,0.000000,-0.037262 RLEG_JOINT4:0.996361,0.067985,0.000000,0.051404 WAIST:0.998831,-0.000000,0.047626,0.008237 WAIST_JOINT0:0.995212,-0.000000,0.092400,0.031872 WAIST_JOINT1:0.998617,0.052564,-0.000000,0.000800 END:
KINECT_DATA_Sensor  AnkleLeft:-0.063093,-0.652940,0.077990,0.750737 AnkleRight:0.085795,0.721201,0.063888,0.684417 ElbowLeft:-0.038632,0.875775,-0.182122,-0.445373 ElbowRight:-0.456272,0.872382,0.157840,-0.076501 FootLeft:0.000000,0.000000,0.000000,0.000000 FootRight:0.000000,0.000000,0.000000,0.000000 HandLeft:-0.109865,0.844750,-0.004596,0.523742 HandRight:0.145962,0.215654,-0.412518,0.872936 HandTipLeft:0.000000,0.000000,0.000000,0.000000 HandTipRight:0.000000,0.000000,0.000000,0.000000 Head:0.000000,0.000000,0.000000,0.000000 HipLeft:0.095187,-0.679873,0.715526,-0.129361 HipRight:-0.160925,0.677678,0.692587,-0.187561 KneeLeft:0.004979,-0.672451,0.028126,0.739591 KneeRight:0.003332,0.740309,0.046770,0.670630 Neck:-0.097255,0.009621,0.992863,-0.068347 ShoulderLeft:0.019029,0.768337,-0.639490,0.018684 ShoulderRight:-0.110175,0.797939,0.569912,-0.162344 SpineBase:-0.047807,0.007805,0.998468,-0.026763 SpineMid:-0.072130,0.008455,0.997006,-0.026565 SpineShoulder:-0.097281,0.008949,0.994109,-0.046949 ThumbLeft:0.000000,0.000000,0.000000,0.000000 ThumbRight:0.000000,0.000000,0.000000,0.000000 WristLeft:-0.100902,0.850321,-0.102399,0.506249 WristRight:0.060800,0.175973,-0.423878,0.886377 END:
KINECT_DATA POSITION:11.080979,-2.736183,14.021659 HEAD_JOINT1:0.985060,0.168019,-0.000000,0.037761 LARM_JOINT2:0.812110,0.000000,-0.009025,-0.583435 LARM_JOINT3:0.972329,0.000000,-0.172849,-0.157158 LLEG_JOINT2:0.999792,0.017108,0.000000,0.011061 LLEG_JOINT4:0.996314,0.085721,0.000000,-0.003314 RARM_JOINT2:0.828191,0.000000,0.484275,0.282096 RARM_JOINT3:0.923389,0.000000,0.314751,0.219736 RLEG_JOINT2:0.998079,0.042046,0.000000,-0.045493 RLEG_JOINT4:0.995891,0.069143,0.000000,0.058491 WAIST:0.997874,-0.000000,0.064264,0.010882 WAIST_JOINT0:0.993900,-0.000000,0.106085,0.030146 WAIST_JOINT1:0.998747,0.050013,-0.000000,0.001627 END:
KINECT_DATA_Sensor  AnkleLeft:-0.063323,-0.644946,0.082121,0.757160 AnkleRight:0.092896,0.764982,0.063980,0.634097 ElbowLeft:-0.032774,0.844396,-0.175571,-0.505071 ElbowRight:-0.451243,0.881147,0.140786,0.011818 FootLeft:0.000000,0.000000,0.000000,0.000000 FootRight:0.000000,0.000000,0.000000,0.000000 HandLeft:-0.078941,0.879028,0.014426,0.469968 HandRight:0.297615,0.114397,-0.356775,0.878095 HandTipLeft:0.000000,0.000000,0.000000,0.000000 HandTipRight:0.000000,0.000000,0.000000,0.000000 Head:0.000000,0.000000,0.000000,0.000000 HipLeft:0.089850,-0.679375,0.718130,-0.121105 HipRight:-0.176145,0.676727,0.687166,-0.197019 KneeLeft:0.002140,-0.659965,0.027295,0.750797 KneeRight:0.001376,0.751579,0.053929,0.657434 Neck:-0.109489,0.011720,0.991689,-0.066540 ShoulderLeft:0.025388,0.768741,-0.639020,0.006778 ShoulderRight:-0.119856,0.793173,0.572340,-0.170111 SpineBase:-0.064464,0.010936,0.997583,-0.023525 SpineMid:-0.086546,0.011455,0.995910,-0.023277 SpineShoulder:-0.109451,0.011450,0.992948,-0.044081 ThumbLeft:0.000000,0.000000,0.000000,0.000000 ThumbRight:0.000000,0.000000,0.000000,0.000000 WristLeft:-0.107486,0.878352,-0.110159,0.452559 WristRight:0.213721,0.068573,-0.409474,0.884280 END:
KINECT_DATA POSITION:11.072452,-2.643720,14.040065 HEAD_JOINT1:0.985610,0.166677,-0.000000,0.028132 LARM_JOINT2:0.808143,0.000000,0.004153,-0.588972 LARM_JOINT3:0.973888,0.000000,-0.175887,-0.143547 LLEG_JOINT2:0.999779,0.015603,0.000000,0.014119 LLEG_JOINT4:0.996217,0.086902,0.000000,-0.000625 RARM_JOINT2:0.848194,0.000000,0.428543,0.311317 RARM_JOINT3:0.881870,0.000000,0.395237,0.257084 RLEG_JOINT2:0.998198,0.039841,0.000000,-0.044869 RLEG_JOINT4:0.995538,0.072881,0.000000,0.059930 WAIST:0.996916,-0.000000,0.077940,0.009109 WAIST_JOINT0:0.992280,-0.000000,0.119582,0.032881 WAIST_JOINT1:0.998760,0.049055,-0.000000,0.008548 END:
KINECT_DATA_Sensor  AnkleLeft:-0.061873,-0.637121,0.083789,0.763694 AnkleRight:0.088850,0.731954,0.071967,0.671692 ElbowLeft:-0.025882,0.821389,-0.177749,-0.541347 ElbowRight:-0.417876,0.894973,0.141055,0.067131 FootLeft:0.000000,0.000000,0.000000,0.000000 FootRight:0.000000,0.000000,0.000000,0.000000 HandLeft:-0.069601,0.784848,-0.024305,0.615287 HandRight:0.382378,0.102219,-0.322189,0.859961 HandTipLeft:0.000000,0.000000,0.000000,0.000000 HandTipRight:0.000000,0.000000,0.000000,0.000000 Head:0.000000,0.000000,0.000000,0.000000 HipLeft:0.081854,-0.679465,0.720101,-0.114375 HipRight:-0.185314,0.671658,0.687801,-0.203628 KneeLeft:0.003747,-0.649711,0.027311,0.759681 KneeRight:-0.001679,0.760490,0.053011,0.647180 Neck:-0.122439,0.017668,0.990197,-0.064862 ShoulderLeft:0.043171,0.766162,-0.641109,-0.010499 ShoulderRight:-0.118207,0.793274,0.571394,-0.173931 SpineBase:-0.078005,0.012568,0.996589,-0.023815 SpineMid:-0.099894,0.013089,0.994634,-0.023533 SpineShoulder:-0.122464,0.015444,0.991386,-0.043787 ThumbLeft:0.000000,0.000000,0.000000,0.000000 ThumbRight:0.000000,0.000000,0.000000,0.000000 WristLeft:-0.069202,0.788567,-0.133980,0.596173 WristRight:0.299897,0.052939,-0.381518,0.872756 END:
KINECT_DATA POSITION:11.100471,-2.498252,14.092278 HEAD_JOINT1:0.986075,0.165065,-0.000000,0.020238 LARM_JOINT2:0.801595,0.000000,0.029898,-0.597120 LARM_JOINT3:0.971657,0.000000,-0.188615,-0.142504 LLEG_JOINT2:0.999702,0.016994,0.000000,0.017530 LLEG_JOINT4:0.996630,0.082027,0.000000,0.000757 RARM_JOINT2:0.862010,0.000000,0.342607,0.373576 RARM_JOINT3:0.823329,0.000000,0.486870,0.291697 RLEG_JOINT2:0.998321,0.038431,0.000000,-0.043335 RLEG_JOINT4:0.994836,0.080678,0.000000,0.061582 WAIST:0.995676,-0.000000,0.092614,0.007215 WAIST_JOINT0:0.991488,-0.000000,0.125107,0.036062 WAIST_JOINT1:0.998545,0.050101,-0.000000,0.019921 END:
KINECT_DATA_Sensor  AnkleLeft:-0.059462,-0.634065,0.082241,0.766592 AnkleRight:0.096655,0.774241,0.072578,0.621241 ElbowLeft:-0.009670,0.790320,-0.185428,-0.583882 ElbowRight:-0.348706,0.914567,0.126964,0.160782 FootLeft:0.000000,0.000000,0.000000,0.000000 FootRight:0.000000,0.000000,0.000000,0.000000 HandLeft:-0.074574,0.884551,-0.010720,0.460318 HandRight:0.474987,0.126517,-0.304373,0.815928 HandTipLeft:0.000000,0.000000,0.000000,0.000000 HandTipRight:0.000000,0.000000,0.000000,0.000000 Head:0.000000,0.000000,0.000000,0.000000 HipLeft:0.071135,-0.680713,0.720840,-0.109356 HipRight:-0.195693,0.667295,0.686728,-0.211724 KneeLeft:0.003202,-0.638591,0.029443,0.768976 KneeRight:-0.003609,0.769946,0.052160,0.635964 Neck:-0.129011,0.026221,0.989074,-0.066345 ShoulderLeft:0.049754,0.762714,-0.644652,-0.014716 ShoulderRight:-0.120611,0.794391,0.567649,-0.179362 SpineBase:-0.092421,0.017823,0.995224,-0.025867 SpineMid:-0.110415,0.018288,0.993389,-0.025541 SpineShoulder:-0.128921,0.023638,0.990309,-0.045917 ThumbLeft:0.000000,0.000000,0.000000,0.000000 ThumbRight:0.000000,0.000000,0.000000,0.000000 WristLeft:-0.078808,0.884071,-0.126568,0.442932 WristRight:0.378955,0.059048,-0.384240,0.839801 END:
KINECT_DATA POSITION:11.053922,-2.342831,14.259827 HEAD_JOINT1:0.986261,0.164478,-0.000000,0.015350 LARM_JOINT2:0.799396,0.000000,0.038365,-0.599578 LARM_JOINT3:0.967814,0.000000,-0.197696,-0.155735 LLEG_JOINT2:0.999638,0.018632,0.000000,0.019407 LLEG_JOINT4:0.996862,0.079136,0.000000,0.001856 RARM_JOINT2:0.862494,0.000000,0.304513,0.404199 RARM_JOINT3:0.803724,0.000000,0.499587,0.323173 RLEG_JOINT2:0.998211,0.040351,0.000000,-0.044113 RLEG_JOINT4:0.994444,0.082598,0.000000,0.065252 WAIST:0.993874,-0.000000,0.110173,0.008791 WAIST_JOINT0:0.987179,-0.000000,0.153603,0.043404 WAIST_JOINT1:0.998396,0.050497,-0.000000,0.025593 END:
KINECT_DATA_Sensor  AnkleLeft:-0.056515,-0.617051,0.083967,0.780387 AnkleRight:0.094817,0.733853,0.081906,0.667653 ElbowLeft:-0.001271,0.779833,-0.191679,-0.595917 ElbowRight:-0.310044,0.929265,0.122904,0.158851 FootLeft:0.000000,0.000000,0.000000,0.000000 FootRight:0.000000,0.000000,0.000000,0.000000 HandLeft:-0.100214,0.668742,-0.047727,0.735163 HandRight:0.536651,0.058131,-0.243788,0.805725 HandTipLeft:0.000000,0.000000,0.000000,0.000000 HandTipRight:0.000000,0.000000,0.000000,0.000000 Head:0.000000,0.000000,0.000000,0.000000 HipLeft:0.059552,-0.681017,0.722374,-0.104139 HipRight:-0.207799,0.665574,0.681359,-0.222665 KneeLeft:0.003773,-0.624941,0.033010,0.779965 KneeRight:-0.002899,0.781225,0.052867,0.622000 Neck:-0.154408,0.033005,0.985183,-0.066958 ShoulderLeft:0.058816,0.758533,-0.648435,-0.026472 ShoulderRight:-0.146993,0.787994,0.561686,-0.204858 SpineBase:-0.109827,0.024228,0.993255,-0.028197 SpineMid:-0.131666,0.024843,0.990597,-0.027657 SpineShoulder:-0.154248,0.030316,0.986458,-0.046779 ThumbLeft:0.000000,0.000000,0.000000,0.000000 ThumbRight:0.000000,0.000000,0.000000,0.000000 WristLeft:-0.020873,0.665685,-0.145025,0.731707 WristRight:0.443339,-0.006386,-0.319500,0.837454 END:
KINECT_DATA POSITION:11.032928,-2.260798,14.546943 HEAD_JOINT1:0.986929,0.161021,-0.000000,0.006612 LARM_JOINT2:0.798518,0.000000,0.034204,-0.600998 LARM_JOINT3:0.969765,0.000000,-0.192218,-0.150357 LLEG_JOINT2:0.999555,0.020937,0.000000,0.021269 LLEG_JOINT4:0.997090,0.075944,0.000000,0.006613 RARM_JOINT2:0.849451,0.000000,0.324114,0.416393 RARM_JOINT3:0.804361,0.000000,0.489681,0.336476 RLEG_JOINT2:0.998020,0.046431,0.000000,-0.042425 RLEG_JOINT4:0.994813,0.078936,0.000000,0.064160 WAIST:0.991784,-0.000000,0.127561,0.009642 WAIST_JOINT0:0.984213,-0.000000,0.169615,0.050560 WAIST_JOINT1:0.998321,0.049209,-0.000000,0.030544 END:
KINECT_DATA_Sensor  AnkleLeft:-0.053034,-0.607944,0.087803,0.787326 AnkleRight:0.095339,0.742357,0.084964,0.657722 ElbowLeft:-0.003227,0.771590,-0.193568,-0.605946 ElbowRight:-0.310378,0.938433,0.092889,0.119923 FootLeft:0.000000,0.000000,0.000000,0.000000 FootRight:0.000000,0.000000,0.000000,0.000000 HandLeft:-0.077863,0.841718,-0.029887,0.533437 HandRight:0.548603,0.092052,-0.226940,0.799412 HandTipLeft:0.000000,0.000000,0.000000,0.000000 HandTipRight:0.000000,0.000000,0.000000,0.000000 Head:0.000000,0.000000,0.000000,0.000000 HipLeft:0.047779,-0.682827,0.722687,-0.095854 HipRight:-0.219373,0.664396,0.675899,-0.231549 KneeLeft:0.003213,-0.611128,0.036446,0.790686 KneeRight:0.001761,0.792292,0.055867,0.607577 Neck:-0.171544,0.038094,0.982203,-0.066329 ShoulderLeft:0.077943,0.752219,-0.652709,-0.045412 ShoulderRight:-0.149314,0.790973,0.553997,-0.212494 SpineBase:-0.127061,0.029590,0.991040,-0.028618 SpineMid:-0.148796,0.030211,0.988011,-0.027961 SpineShoulder:-0.171329,0.035239,0.983495,-0.046292 ThumbLeft:0.000000,0.000000,0.000000,0.000000 ThumbRight:0.000000,0.000000,0.000000,0.000000 WristLeft:-0.058008,0.845062,-0.139483,0.512883 WristRight:0.472130,0.033406,-0.299080,0.828570 END:
KINECT_DATA POSITION:11.044014,-2.227041,14.820457 HEAD_JOINT1:0.987617,0.156886,0.000000,-0.000314 LARM_JOINT2:0.798434,0.000000,0.047994,-0.600166 LARM_JOINT3:0.968809,0.000000,-0.194696,-0.153308 LLEG_JOINT2:0.999434,0.025781,0.000000,0.021625 LLEG_JOINT4:0.997672,0.068197,0.000000,-0.000258 RARM_JOINT2:0.798710,0.000000,0.370039,0.474483 RARM_JOINT3:0.842611,0.000000,0.445810,0.302092 RLEG_JOINT2:0.997706,0.050454,0.000000,-0.045135 RLEG_JOINT4:0.994946,0.078487,0.000000,0.062622 WAIST:0.989210,-0.000000,0.145767,0.014674 WAIST_JOINT0:0.979078,-0.000000,0.194633,0.059368 WAIST_JOINT1:0.998350,0.048394,-0.000000,0.030899 END:
KINECT_DATA_Sensor  AnkleLeft:0.067698,0.737397,-0.071471,-0.668248 AnkleRight:0.102992,0.806531,0.080062,0.576620 ElbowLeft:0.006544,0.756725,-0.201963,-0.621720 ElbowRight:-0.290582,0.954190,0.001748,0.071274 FootLeft:0.000000,0.000000,0.000000,0.000000 FootRight:0.000000,0.000000,0.000000,0.000000 HandLeft:-0.071700,0.851877,-0.042377,0.517076 HandRight:0.589505,0.100804,-0.222208,0.770030 HandTipLeft:0.000000,0.000000,0.000000,0.000000 HandTipRight:0.000000,0.000000,0.000000,0.000000 Head:0.000000,0.000000,0.000000,0.000000 HipLeft:0.037509,-0.680640,0.726538,-0.086397 HipRight:-0.231893,0.664232,0.668239,-0.241824 KneeLeft:0.002551,-0.596055,0.043103,0.801782 KneeRight:0.004414,0.803716,0.057044,0.592256 Neck:-0.194865,0.043434,0.977668,-0.065630 ShoulderLeft:0.085276,0.748848,-0.654746,-0.057113 ShoulderRight:-0.174257,0.789921,0.539034,-0.234735 SpineBase:-0.145407,0.033690,0.988400,-0.028073 SpineMid:-0.169528,0.034366,0.984549,-0.027241 SpineShoulder:-0.194657,0.039815,0.979004,-0.045547 ThumbLeft:0.000000,0.000000,0.000000,0.000000 ThumbRight:0.000000,0.000000,0.000000,0.000000 WristLeft:-0.046970,0.853890,-0.139720,0.499144 WristRight:0.496755,0.053563,-0.266288,0.824291 END:
KINECT_DATA POSITION:11.350705,-2.028380,14.730859 HEAD_JOINT1:0.988067,0.153516,0.000000,-0.012511 LARM_JOINT2:0.795162,0.000000,0.076417,-0.601563 LARM_JOINT3:0.967600,0.000000,-0.199331,-0.154976 LLEG_JOINT2:0.999605,0.025384,0.000000,0.012054 LLEG_JOINT4:0.997977,0.063550,0.000000,0.002023 RARM_JOINT2:0.789806,0.000000,0.381944,0.479921 RARM_JOINT3:0.843697,0.000000,0.440798,0.306385 RLEG_JOINT2:0.996928,0.052986,0.000000,-0.057683 RLEG_JOINT4:0.994158,0.079543,0.000000,0.072952 WAIST:0.986039,-0.000000,0.165009,0.022357 WAIST_JOINT0:0.974944,-0.000000,0.211651,0.068467 WAIST_JOINT1:0.998263,0.049235,-0.000000,0.032358 END:
KINECT_DATA_Sensor  AnkleLeft:-0.048870,-0.580752,0.078471,0.808814 AnkleRight:0.106410,0.813869,0.081058,0.565441 ElbowLeft:0.027361,0.734184,-0.213530,-0.643918 ElbowRight:-0.288673,0.956045,-0.025107,0.044892 FootLeft:0.000000,0.000000,0.000000,0.000000 FootRight:0.000000,0.000000,0.000000,0.000000 HandLeft:-0.032191,0.849863,-0.044116,0.524167 HandRight:0.594881,0.159999,-0.227890,0.754044 HandTipLeft:0.000000,0.000000,0.000000,0.000000 HandTipRight:0.000000,0.000000,0.000000,0.000000 Head:0.000000,0.000000,0.000000,0.000000 HipLeft:0.021692,-0.675074,0.733776,-0.073331 HipRight:-0.242663,0.665418,0.660597,-0.248888 KneeLeft:0.002125,-0.580047,0.040350,0.813580 KneeRight:-0.000168,0.815620,0.060855,0.575378 Neck:-0.212257,0.053176,0.973437,-0.067382 ShoulderLeft:0.091147,0.743131,-0.659910,-0.062986 ShoulderRight:-0.193931,0.790443,0.523245,-0.252596 SpineBase:-0.164841,0.040193,0.985085,-0.028617 SpineMid:-0.187923,0.040854,0.980944,-0.027665 SpineShoulder:-0.212127,0.047124,0.974993,-0.046594 ThumbLeft:0.000000,0.000000,0.000000,0.000000 ThumbRight:0.000000,0.000000,0.000000,0.000000 WristLeft:-0.031740,0.847055,-0.137854,0.512335 WristRight:0.502901,0.112694,-0.275241,0.811562 END:
KINECT_DATA POSITION:11.603027,-1.910675,14.542664 HEAD_JOINT1:0.988356,0.150552,0.000000,-0.022079 LARM_JOINT2:0.797768,0.000000,0.053748,-0.600564 LARM_JOINT3:0.971710,0.000000,-0.179225,-0.153810 LLEG_JOINT2:0.999729,0.022656,0.000000,0.005304 LLEG_JOINT4:0.997886,0.064615,0.000000,0.006998 RARM_JOINT2:0.796440,0.000000,0.373485,0.475597 RARM_JOINT3:0.837607,0.000000,0.449607,0.310271 RLEG_JOINT2:0.996084,0.056024,0.000000,-0.068398 RLEG_JOINT4:0.993778,0.077744,0.000000,0.079756 WAIST:0.982798,-0.000000,0.182612,0.027571 WAIST_JOINT0:0.966336,-0.000000,0.242824,0.085033 WAIST_JOINT1:0.998211,0.049699,-0.000000,0.033245 END:
KINECT_DATA_Sensor  AnkleLeft:0.061209,0.723455,-0.067419,-0.684340 AnkleRight:0.106445,0.827998,0.081320,0.544495 ElbowLeft:0.018104,0.747118,-0.214916,-0.628727 ElbowRight:-0.286667,0.956930,-0.026422,0.037548 FootLeft:0.000000,0.000000,0.000000,0.000000 FootRight:0.000000,0.000000,0.000000,0.000000 HandLeft:-0.026452,0.828800,-0.040534,0.557448 HandRight:0.609032,0.131021,-0.191765,0.758380 HandTipLeft:0.000000,0.000000,0.000000,0.000000 HandTipRight:0.000000,0.000000,0.000000,0.000000 Head:0.000000,0.000000,0.000000,0.000000 HipLeft:0.008579,-0.671396,0.738231,-0.064563 HipRight:-0.252530,0.664800,0.653969,-0.258058 KneeLeft:0.003806,-0.565448,0.036682,0.823959 KneeRight:-0.004907,0.826181,0.065475,0.559566 Neck:-0.243284,0.059598,0.965752,-0.067709 ShoulderLeft:0.119626,0.727402,-0.670076,-0.087031 ShoulderRight:-0.207422,0.788436,0.510407,-0.273550 SpineBase:-0.182522,0.045632,0.981675,-0.030298 SpineMid:-0.212145,0.046528,0.975702,-0.028904 SpineShoulder:-0.243176,0.052700,0.967430,-0.046545 ThumbLeft:0.000000,0.000000,0.000000,0.000000 ThumbRight:0.000000,0.000000,0.000000,0.000000 WristLeft:-0.014076,0.827773,-0.135779,0.544204 WristRight:0.526019,0.083539,-0.244340,0.810323 END:
KINECT_DATA POSITION:11.800674,-1.741931,14.281869 HEAD_JOINT1:0.988212,0.150431,0.000000,-0.028433 LARM_JOINT2:0.799501,0.000000,0.041151,-0.599253 LARM_JOINT3:0.972115,0.000000,-0.173497,-0.157768 LLEG_JOINT2:0.999815,0.019222,0.000000,0.000226 LLEG_JOINT4:0.997774,0.066065,0.000000,0.009134 RARM_JOINT2:0.791842,0.000000,0.376217,0.481089 RARM_JOINT3:0.838668,0.000000,0.450121,0.306638 RLEG_JOINT2:0.995443,0.058369,0.000000,-0.075401 RLEG_JOINT4:0.993579,0.076166,0.000000,0.083657 WAIST:0.979941,-0.000000,0.196772,0.031574 WAIST_JOINT0:0.961282,-0.000000,0.259380,0.093051 WAIST_JOINT1:0.998228,0.049964,-0.000000,0.032311 END:
KINECT_DATA_Sensor  AnkleLeft:-0.043430,-0.549068,0.077270,0.831064 AnkleRight:0.092503,0.749020,0.096613,0.648905 ElbowLeft:0.014225,0.753015,-0.216284,-0.621279 ElbowRight:-0.282359,0.957730,-0.043445,0.033749 FootLeft:0.000000,0.000000,0.000000,0.000000 FootRight:0.000000,0.000000,0.000000,0.000000 HandLeft:-0.048782,0.847312,-0.043848,0.527029 HandRight:0.601246,0.193439,-0.210197,0.746258 HandTipLeft:0.000000,0.000000,0.000000,0.000000 HandTipRight:0.000000,0.000000,0.000000,0.000000 Head:0.000000,0.000000,0.000000,0.000000 HipLeft:-0.002087,-0.668765,0.741122,-0.059059 HipRight:-0.259233,0.664410,0.648656,-0.265713 KneeLeft:0.006435,-0.553732,0.033158,0.832010 KneeRight:-0.007791,0.834472,0.068145,0.546765 Neck:-0.260699,0.062295,0.961018,-0.067820 ShoulderLeft:0.139123,0.716130,-0.676269,-0.102291 ShoulderRight:-0.211278,0.785536,0.507721,-0.283750 SpineBase:-0.196725,0.050052,0.978632,-0.032761 SpineMid:-0.227912,0.051074,0.971842,-0.031144 SpineShoulder:-0.260614,0.055043,0.962745,-0.046607 ThumbLeft:0.000000,0.000000,0.000000,0.000000 ThumbRight:0.000000,0.000000,0.000000,0.000000 WristLeft:-0.013420,0.848877,-0.134329,0.511062 WristRight:0.522682,0.139625,-0.274719,0.794882 END:
KINECT_DATA POSITION:11.870334,-1.669513,14.119232 HEAD_JOINT1:0.988179,0.149828,0.000000,-0.032475 LARM_JOINT2:0.800496,0.000000,0.050579,-0.597200 LARM_JOINT3:0.970564,0.000000,-0.179474,-0.160605 LLEG_JOINT2:0.999854,0.017021,0.000000,-0.001352 LLEG_JOINT4:0.997770,0.065841,0.000000,0.010952 RARM_JOINT2:0.792379,0.000000,0.372802,0.482860 RARM_JOINT3:0.832923,0.000000,0.457607,0.311183 RLEG_JOINT2:0.995391,0.058301,0.000000,-0.076139 RLEG_JOINT4:0.993398,0.076285,0.000000,0.085684 WAIST:0.979227,-0.000000,0.200236,0.031942 WAIST_JOINT0:0.962017,-0.000000,0.257333,0.091116 WAIST_JOINT1:0.998161,0.050687,-0.000000,0.033249 END:
KINECT_DATA_Sensor  AnkleLeft:-0.041610,-0.550684,0.075958,0.830208 AnkleRight:0.106136,0.834591,0.081981,0.534296 ElbowLeft:0.020894,0.746431,-0.221451,-0.627187 ElbowRight:-0.278703,0.958832,-0.043954,0.032145 FootLeft:0.000000,0.000000,0.000000,0.000000 FootRight:0.000000,0.000000,0.000000,0.000000 HandLeft:-0.048668,0.833890,-0.052746,0.547244 HandRight:0.595070,0.215928,-0.230043,0.739153 HandTipLeft:0.000000,0.000000,0.000000,0.000000 HandTipRight:0.000000,0.000000,0.000000,0.000000 Head:0.000000,0.000000,0.000000,0.000000 HipLeft:-0.004429,-0.669172,0.740821,-0.058075 HipRight:-0.260699,0.664459,0.647264,-0.267543 KneeLeft:0.007619,-0.550991,0.030837,0.833906 KneeRight:-0.008501,0.836431,0.068132,0.543754 Neck:-0.259110,0.062197,0.961410,-0.068444 ShoulderLeft:0.134266,0.718848,-0.675118,-0.097189 ShoulderRight:-0.214879,0.785339,0.505474,-0.285596 SpineBase:-0.200157,0.051125,0.977860,-0.033359 SpineMid:-0.228807,0.052083,0.971556,-0.031842 SpineShoulder:-0.258947,0.056030,0.963069,-0.048004 ThumbLeft:0.000000,0.000000,0.000000,0.000000 ThumbRight:0.000000,0.000000,0.000000,0.000000 WristLeft:-0.006299,0.836133,-0.133820,0.531915 WristRight:0.527451,0.167872,-0.286250,0.782097 END:
KINECT_DATA POSITION:11.982221,-1.598045,13.966417 HEAD_JOINT1:0.988131,0.149809,0.000000,-0.033977 LARM_JOINT2:0.800290,0.000000,0.039831,-0.598289 LARM_JOINT3:0.972122,0.000000,-0.172148,-0.159200 LLEG_JOINT2:0.999877,0.015349,0.000000,-0.003277 LLEG_JOINT4:0.997619,0.067652,0.000000,0.013417 RARM_JOINT2:0.792162,0.000000,0.368236,0.486704 RARM_JOINT3:0.831156,0.000000,0.456574,0.317366 RLEG_JOINT2:0.995118,0.059518,0.000000,-0.078721 RLEG_JOINT4:0.993374,0.074958,0.000000,0.087117 WAIST:0.978425,-0.000000,0.203956,0.032954 WAIST_JOINT0:0.960411,-0.000000,0.262041,0.094583 WAIST_JOINT1:0.998119,0.051166,-0.000000,0.033780 END:
KINECT_DATA_Sensor  AnkleLeft:-0.040929,-0.547567,0.076964,0.832209 AnkleRight:0.091642,0.745699,0.097259,0.652745 ElbowLeft:0.015911,0.752216,-0.219795,-0.620973 ElbowRight:-0.273205,0.960291,-0.046170,0.032697 FootLeft:0.000000,0.000000,0.000000,0.000000 FootRight:0.000000,0.000000,0.000000,0.000000 HandLeft:-0.051354,0.836590,-0.046093,0.543466 HandRight:0.522044,0.388631,-0.347613,0.674983 HandTipLeft:0.000000,0.000000,0.000000,0.000000 HandTipRight:0.000000,0.000000,0.000000,0.000000 Head:0.000000,0.000000,0.000000,0.000000 HipLeft:-0.006360,-0.668496,0.741506,-0.056935 HipRight:-0.263282,0.664211,0.645562,-0.269732 KneeLeft:0.008649,-0.547944,0.028972,0.835969 KneeRight:-0.009598,0.838602,0.069744,0.540177 Neck:-0.264379,0.062943,0.959912,-0.068641 ShoulderLeft:0.141114,0.714725,-0.677417,-0.101793 ShoulderRight:-0.214883,0.785190,0.503998,-0.288597 SpineBase:-0.203889,0.052292,0.977020,-0.033555 SpineMid:-0.233264,0.053280,0.970426,-0.031963 SpineShoulder:-0.264151,0.057556,0.961536,-0.048591 ThumbLeft:0.000000,0.000000,0.000000,0.000000 ThumbRight:0.000000,0.000000,0.000000,0.000000 WristLeft:-0.005164,0.839543,-0.133608,0.526584 WristRight:0.457181,0.342718,-0.398743,0.717310 END:
KINECT_DATA POSITION:12.014448,-1.569188,13.909054 HEAD_JOINT1:0.988138,0.149738,0.000000,-0.034080 LARM_JOINT2:0.800484,0.000000,0.038492,-0.598117 LARM_JOINT3:0.971317,0.000000,-0.174461,-0.161577 LLEG_JOINT2:0.999877,0.015184,0.000000,-0.003873 LLEG_JOINT4:0.997788,0.065651,0.000000,0.010482 RARM_JOINT2:0.784016,0.000000,0.375821,0.494042 RARM_JOINT3:0.837020,0.000000,0.450366,0.310754 RLEG_JOINT2:0.995075,0.059730,0.000000,-0.079110 RLEG_JOINT4:0.993271,0.074468,0.000000,0.088694 WAIST:0.978221,-0.000000,0.204868,0.033359 WAIST_JOINT0:0.961700,-0.000000,0.257287,0.094534 WAIST_JOINT1:0.998111,0.051350,-0.000000,0.033718 END:
KINECT_DATA_Sensor  AnkleLeft:-0.041084,-0.550316,0.072894,0.830753 AnkleRight:0.092281,0.742739,0.096809,0.656088 ElbowLeft:0.015798,0.753929,-0.220054,-0.618803 ElbowRight:-0.269909,0.960630,-0.059263,0.028776 FootLeft:0.000000,0.000000,0.000000,0.000000 FootRight:0.000000,0.000000,0.000000,0.000000 HandLeft:-0.071809,0.858476,-0.051248,0.505208 HandRight:0.537789,0.367685,-0.331007,0.682660 HandTipLeft:0.000000,0.000000,0.000000,0.000000 HandTipRight:0.000000,0.000000,0.000000,0.000000 Head:0.000000,0.000000,0.000000,0.000000 HipLeft:-0.007104,-0.668376,0.741660,-0.056250 HipRight:-0.263621,0.664388,0.645054,-0.270183 KneeLeft:0.008742,-0.547165,0.028655,0.836489 KneeRight:-0.009607,0.839134,0.069819,0.539339 Neck:-0.259898,0.062585,0.961122,-0.069137 ShoulderLeft:0.141580,0.714235,-0.677973,-0.100879 ShoulderRight:-0.207525,0.786633,0.507735,-0.283456 SpineBase:-0.204819,0.052484,0.976816,-0.033544 SpineMid:-0.231536,0.053384,0.970830,-0.032092 SpineShoulder:-0.259629,0.057615,0.962737,-0.049098 ThumbLeft:0.000000,0.000000,0.000000,0.000000 ThumbRight:0.000000,0.000000,0.000000,0.000000 WristLeft:-0.010716,0.863130,-0.132527,0.487164 WristRight:0.470767,0.321226,-0.382978,0.726994 END:
KINECT_DATA POSITION:12.039669,-1.545931,13.885450 HEAD_JOINT1:0.987935,0.151003,0.000000,-0.034402 LARM_JOINT2:0.800182,0.000000,0.040342,-0.598398 LARM_JOINT3:0.971367,0.000000,-0.174642,-0.161080 LLEG_JOINT2:0.999887,0.014436,0.000000,-0.004275 LLEG_JOINT4:0.997667,0.067201,0.000000,0.012054 RARM_JOINT2:0.784360,0.000000,0.371888,0.496467 RARM_JOINT3:0.833647,0.000000,0.453408,0.315364 RLEG_JOINT2:0.995061,0.059299,0.000000,-0.079607 RLEG_JOINT4:0.993416,0.074266,0.000000,0.087236 WAIST:0.978193,-0.000000,0.204999,0.033388 WAIST_JOINT0:0.961481,-0.000000,0.257834,0.095273 WAIST_JOINT1:0.998099,0.051463,-0.000000,0.033898 END:
KINECT_DATA_Sensor  AnkleLeft:0.058612,0.742766,-0.061475,-0.664142 AnkleRight:0.092933,0.761037,0.094509,0.635024 ElbowLeft:0.017005,0.752538,-0.220240,-0.620397 ElbowRight:-0.266671,0.961650,-0.057591,0.028284 FootLeft:0.000000,0.000000,0.000000,0.000000 FootRight:0.000000,0.000000,0.000000,0.000000 HandLeft:-0.073028,0.859515,-0.051584,0.503229 HandRight:0.552290,0.331471,-0.306386,0.700878 HandTipLeft:0.000000,0.000000,0.000000,0.000000 HandTipRight:0.000000,0.000000,0.000000,0.000000 Head:0.000000,0.000000,0.000000,0.000000 HipLeft:-0.006767,-0.668464,0.741547,-0.056735 HipRight:-0.264023,0.664343,0.644771,-0.270573 KneeLeft:0.009168,-0.547118,0.027930,0.836539 KneeRight:-0.010253,0.839186,0.069709,0.539261 Neck:-0.260247,0.062605,0.961014,-0.069318 ShoulderLeft:0.138655,0.715295,-0.677838,-0.098302 ShoulderRight:-0.211668,0.786986,0.504204,-0.285705 SpineBase:-0.204947,0.052585,0.976782,-0.033593 SpineMid:-0.231745,0.053489,0.970773,-0.032133 SpineShoulder:-0.259956,0.057865,0.962628,-0.049207 ThumbLeft:0.000000,0.000000,0.000000,0.000000 ThumbRight:0.000000,0.000000,0.000000,0.000000 WristLeft:-0.009295,0.864398,-0.131799,0.485138 WristRight:0.495170,0.286993,-0.357908,0.737797 END:
KINECT_DATA POSITION:12.042851,-1.537527,13.872612 HEAD_JOINT1:0.987833,0.151768,0.000000,-0.033951 LARM_JOINT2:0.800152,0.000000,0.036303,-0.598698 LARM_JOINT3:0.971805,0.000000,-0.172754,-0.160473 LLEG_JOINT2:0.999881,0.014680,0.000000,-0.004802 LLEG_JOINT4:0.997568,0.068497,0.000000,0.012887 RARM_JOINT2:0.781851,0.000000,0.375532,0.497680 RARM_JOINT3:0.835821,0.000000,0.448987,0.315933 RLEG_JOINT2:0.995043,0.058584,0.000000,-0.080360 RLEG_JOINT4:0.993240,0.076102,0.000000,0.087649 WAIST:0.978386,-0.000000,0.203963,0.034048 WAIST_JOINT0:0.962168,-0.000000,0.255379,0.094942 WAIST_JOINT1:0.998085,0.052129,-0.000000,0.033304 END:
KINECT_DATA_Sensor  AnkleLeft:-0.041816,-0.551847,0.075900,0.829431 AnkleRight:0.093119,0.755828,0.095815,0.640993 ElbowLeft:0.015183,0.756306,-0.219447,-0.616127 ElbowRight:-0.266664,0.961553,-0.060584,0.025231 FootLeft:0.000000,0.000000,0.000000,0.000000 FootRight:0.000000,0.000000,0.000000,0.000000 HandLeft:-0.076458,0.858450,-0.050775,0.504618 HandRight:0.525849,0.387648,-0.342928,0.674990 HandTipLeft:0.000000,0.000000,0.000000,0.000000 HandTipRight:0.000000,0.000000,0.000000,0.000000 Head:0.000000,0.000000,0.000000,0.000000 HipLeft:-0.006259,-0.667824,0.742060,-0.057604 HipRight:-0.263058,0.664809,0.644808,-0.270284 KneeLeft:0.009147,-0.547967,0.028104,0.835978 KneeRight:-0.010722,0.838593,0.069095,0.540252 Neck:-0.257712,0.062432,0.961648,-0.070139 ShoulderLeft:0.139930,0.714854,-0.678020,-0.098452 ShoulderRight:-0.206338,0.787165,0.507996,-0.282378 SpineBase:-0.203960,0.052571,0.976978,-0.033905 SpineMid:-0.230005,0.053458,0.971177,-0.032487 SpineShoulder:-0.257402,0.057839,0.963289,-0.049736 ThumbLeft:0.000000,0.000000,0.000000,0.000000 ThumbRight:0.000000,0.000000,0.000000,0.000000 WristLeft:-0.009151,0.864038,-0.131192,0.485945 WristRight:0.467442,0.343690,-0.393132,0.713318 END:
KINECT_DATA POSITION:12.018749,-1.539911,13.861680 HEAD_JOINT1:0.987729,0.153347,0.000000,-0.029614 LARM_JOINT2:0.800422,0.000000,0.029985,-0.598687 LARM_JOINT3:0.971364,0.000000,-0.172322,-0.163576 LLEG_JOINT2:0.999875,0.014585,0.000000,-0.006034 LLEG_JOINT4:0.997700,0.067082,0.000000,0.009728 RARM_JOINT2:0.783461,0.000000,0.367110,0.501417 RARM_JOINT3:0.826860,0.000000,0.453823,0.332187 RLEG_JOINT2:0.994968,0.057803,0.000000,-0.081842 RLEG_JOINT4:0.992997,0.078263,0.000000,0.088500 WAIST:0.978731,-0.000000,0.202110,0.035175 WAIST_JOINT0:0.962751,-0.000000,0.252954,0.095527 WAIST_JOINT1:0.998070,0.053034,-0.000000,0.032313 END:
KINECT_DATA_Sensor  AnkleLeft:0.055772,0.709454,-0.062349,-0.699770 AnkleRight:0.106208,0.832715,0.083191,0.537015 ElbowLeft:0.012580,0.763822,-0.218707,-0.607111 ElbowRight:-0.260538,0.963508,-0.055141,0.027068 FootLeft:0.000000,0.000000,0.000000,0.000000 FootRight:0.000000,0.000000,0.000000,0.000000 HandLeft:-0.091268,0.842109,-0.054890,0.528687 HandRight:0.606538,0.203718,-0.180725,0.746960 HandTipLeft:0.000000,0.000000,0.000000,0.000000 HandTipRight:0.000000,0.000000,0.000000,0.000000 Head:0.000000,0.000000,0.000000,0.000000 HipLeft:-0.005387,-0.666914,0.742780,-0.058947 HipRight:-0.261117,0.665795,0.644833,-0.269676 KneeLeft:0.009356,-0.549520,0.027847,0.834964 KneeRight:-0.011432,0.837548,0.068531,0.541928 Neck:-0.255210,0.062442,0.962253,-0.070982 ShoulderLeft:0.135814,0.717266,-0.676868,-0.094512 ShoulderRight:-0.207158,0.789447,0.504112,-0.282364 SpineBase:-0.202201,0.052412,0.977336,-0.034371 SpineMid:-0.227863,0.053298,0.971674,-0.032979 SpineShoulder:-0.254889,0.057928,0.963919,-0.050368 ThumbLeft:0.000000,0.000000,0.000000,0.000000 ThumbRight:0.000000,0.000000,0.000000,0.000000 WristLeft:-0.007832,0.850846,-0.130404,0.508915 WristRight:0.561262,0.147036,-0.253876,0.773894 END:
KINECT_DATA POSITION:11.964868,-1.561391,13.854122 HEAD_JOINT1:0.987744,0.153690,0.000000,-0.027212 LARM_JOINT2:0.799717,0.000000,0.035476,-0.599328 LARM_JOINT3:0.971012,0.000000,-0.174674,-0.163170 LLEG_JOINT2:0.999866,0.015208,0.000000,-0.006110 LLEG_JOINT4:0.997440,0.071037,0.000000,0.008147 RARM_JOINT2:0.779972,0.000000,0.365059,0.508307 RARM_JOINT3:0.825293,0.000000,0.445554,0.346950 RLEG_JOINT2:0.995066,0.056725,0.000000,-0.081400 RLEG_JOINT4:0.993178,0.078619,0.000000,0.086118 WAIST:0.979477,-0.000000,0.198399,0.035547 WAIST_JOINT0:0.964335,-0.000000,0.247495,0.093832 WAIST_JOINT1:0.998068,0.053592,-0.000000,0.031447 END:
KINECT_DATA_Sensor  AnkleLeft:-0.046322,-0.556229,0.073942,0.826436 AnkleRight:0.104821,0.830549,0.083205,0.540628 ElbowLeft:0.014850,0.759904,-0.218692,-0.611964 ElbowRight:-0.255009,0.965115,-0.055248,0.021715 FootLeft:0.000000,0.000000,0.000000,0.000000 FootRight:0.000000,0.000000,0.000000,0.000000 HandLeft:-0.081191,0.821141,-0.051786,0.562542 HandRight:0.572307,0.324312,-0.256263,0.708249 HandTipLeft:0.000000,0.000000,0.000000,0.000000 HandTipRight:0.000000,0.000000,0.000000,0.000000 Head:0.000000,0.000000,0.000000,0.000000 HipLeft:-0.003888,-0.666671,0.742878,-0.060549 HipRight:-0.257781,0.667040,0.645776,-0.267545 KneeLeft:0.009070,-0.552611,0.028449,0.832904 KneeRight:-0.011064,0.835436,0.067257,0.545344 Neck:-0.249784,0.061846,0.963684,-0.071391 ShoulderLeft:0.130021,0.721138,-0.674535,-0.089760 ShoulderRight:-0.205293,0.791898,0.502681,-0.279399 SpineBase:-0.198544,0.052019,0.978097,-0.034660 SpineMid:-0.223320,0.052883,0.972739,-0.033328 SpineShoulder:-0.249448,0.057518,0.965343,-0.050796 ThumbLeft:0.000000,0.000000,0.000000,0.000000 ThumbRight:0.000000,0.000000,0.000000,0.000000 WristLeft:-0.004413,0.829452,-0.131078,0.542962 WristRight:0.521412,0.266908,-0.330338,0.740113 END:
KINECT_DATA POSITION:11.928267,-1.602428,13.836014 HEAD_JOINT1:0.987742,0.154106,0.000000,-0.024845 LARM_JOINT2:0.799396,0.000000,0.038532,-0.599568 LARM_JOINT3:0.970821,0.000000,-0.175259,-0.163678 LLEG_JOINT2:0.999852,0.015847,0.000000,-0.006642 LLEG_JOINT4:0.997562,0.069328,0.000000,0.008006 RARM_JOINT2:0.776412,0.000000,0.363746,0.514659 RARM_JOINT3:0.828498,0.000000,0.440407,0.345879 RLEG_JOINT2:0.995106,0.056250,0.000000,-0.081241 RLEG_JOINT4:0.993106,0.080100,0.000000,0.085585 WAIST:0.979969,-0.000000,0.195853,0.036081 WAIST_JOINT0:0.965043,-0.000000,0.244698,0.093889 WAIST_JOINT1:0.998075,0.053931,-0.000000,0.030620 END:
KINECT_DATA_Sensor  AnkleLeft:-0.045268,-0.558177,0.073376,0.825230 AnkleRight:0.092549,0.742007,0.098046,0.656694 ElbowLeft:0.016148,0.758485,-0.218810,-0.613646 ElbowRight:-0.250134,0.966366,-0.057019,0.017869 FootLeft:0.000000,0.000000,0.000000,0.000000 FootRight:0.000000,0.000000,0.000000,0.000000 HandLeft:-0.074346,0.840330,-0.042154,0.535296 HandRight:0.606981,0.169085,-0.149839,0.761927 HandTipLeft:0.000000,0.000000,0.000000,0.000000 HandTipRight:0.000000,0.000000,0.000000,0.000000 Head:0.000000,0.000000,0.000000,0.000000 HipLeft:-0.002857,-0.666342,0.743095,-0.061568 HipRight:-0.255673,0.668009,0.646155,-0.266231 KneeLeft:0.008632,-0.554697,0.028779,0.831510 KneeRight:-0.010591,0.834008,0.066485,0.547629 Neck:-0.247090,0.061574,0.964387,-0.071511 ShoulderLeft:0.127871,0.722289,-0.673986,-0.087694 ShoulderRight:-0.203571,0.793574,0.501754,-0.277565 SpineBase:-0.196053,0.051824,0.978605,-0.034788 SpineMid:-0.220722,0.052687,0.973337,-0.033468 SpineShoulder:-0.246747,0.057342,0.966040,-0.050944 ThumbLeft:0.000000,0.000000,0.000000,0.000000 ThumbRight:0.000000,0.000000,0.000000,0.000000 WristLeft:-0.010850,0.846695,-0.131120,0.515556 WristRight:0.576140,0.117891,-0.216675,0.779241 END:
KINECT_DATA POSITION:11.892397,-1.618458,13.779032 HEAD_JOINT1:0.987566,0.155415,0.000000,-0.023660 LARM_JOINT2:0.798983,0.000000,0.040697,-0.599975 LARM_JOINT3:0.971027,0.000000,-0.174852,-0.162890 LLEG_JOINT2:0.999843,0.016206,0.000000,-0.007106 LLEG_JOINT4:0.997665,0.067410,0.000000,0.011000 RARM_JOINT2:0.777896,0.000000,0.360148,0.514948 RARM_JOINT3:0.823610,0.000000,0.446583,0.349614 RLEG_JOINT2:0.995016,0.058025,0.000000,-0.081092 RLEG_JOINT4:0.993387,0.075985,0.000000,0.086075 WAIST:0.980338,-0.000000,0.193922,0.036494 WAIST_JOINT0:0.965724,-0.000000,0.241807,0.094376 WAIST_JOINT1:0.998106,0.053718,-0.000000,0.029967 END:
KINECT_DATA_Sensor  AnkleLeft:0.060084,0.752979,-0.061693,-0.652385 AnkleRight:0.093496,0.747001,0.094462,0.651403 ElbowLeft:0.016647,0.757468,-0.218470,-0.615008 ElbowRight:-0.249003,0.966789,-0.053654,0.020943 FootLeft:0.000000,0.000000,0.000000,0.000000 FootRight:0.000000,0.000000,0.000000,0.000000 HandLeft:-0.074460,0.989963,-0.004872,0.120022 HandRight:0.595210,0.248508,-0.221762,0.731293 HandTipLeft:0.000000,0.000000,0.000000,0.000000 HandTipRight:0.000000,0.000000,0.000000,0.000000 Head:0.000000,0.000000,0.000000,0.000000 HipLeft:-0.001556,-0.665957,0.743371,-0.062432 HipRight:-0.254726,0.668638,0.646299,-0.265209 KneeLeft:0.008373,-0.556273,0.028918,0.830454 KneeRight:-0.008990,0.833036,0.067652,0.548993 Neck:-0.244383,0.061317,0.965122,-0.071105 ShoulderLeft:0.125593,0.722741,-0.674198,-0.085614 ShoulderRight:-0.202147,0.795256,0.500831,-0.275450 SpineBase:-0.194158,0.051837,0.978991,-0.034521 SpineMid:-0.218414,0.052679,0.973867,-0.033223 SpineShoulder:-0.244023,0.057244,0.966753,-0.050651 ThumbLeft:0.000000,0.000000,0.000000,0.000000 ThumbRight:0.000000,0.000000,0.000000,0.000000 WristLeft:-0.066814,0.985243,-0.113860,0.108938 WristRight:0.550479,0.202021,-0.279785,0.760185 END:
KINECT_DATA POSITION:11.862087,-1.650556,13.683950 HEAD_JOINT1:0.987448,0.156443,0.000000,-0.021720 LARM_JOINT2:0.798848,0.000000,0.033151,-0.600619 LARM_JOINT3:0.971499,0.000000,-0.172552,-0.162530 LLEG_JOINT2:0.999848,0.015571,0.000000,-0.007854 LLEG_JOINT4:0.997755,0.066362,0.000000,0.008983 RARM_JOINT2:0.777674,0.000000,0.361239,0.514518 RARM_JOINT3:0.824246,0.000000,0.446821,0.347806 RLEG_JOINT2:0.995040,0.059265,0.000000,-0.079888 RLEG_JOINT4:0.994109,0.071710,0.000000,0.081276 WAIST:0.980581,-0.000000,0.192568,0.037118 WAIST_JOINT0:0.965220,-0.000000,0.243024,0.096384 WAIST_JOINT1:0.998143,0.053511,-0.000000,0.029105 END:
KINECT_DATA_Sensor  AnkleLeft:-0.041694,-0.559891,0.072445,0.824339 AnkleRight:0.085782,0.720266,0.096458,0.681582 ElbowLeft:0.012280,0.764273,-0.216115,-0.607479 ElbowRight:-0.250115,0.966461,-0.053850,0.022272 FootLeft:0.000000,0.000000,0.000000,0.000000 FootRight:0.000000,0.000000,0.000000,0.000000 HandLeft:-0.076666,0.844617,-0.038816,0.528430 HandRight:0.592266,0.245357,-0.224270,0.733978 HandTipLeft:0.000000,0.000000,0.000000,0.000000 HandTipRight:0.000000,0.000000,0.000000,0.000000 Head:0.000000,0.000000,0.000000,0.000000 HipLeft:-0.000551,-0.665524,0.743729,-0.062804 HipRight:-0.254033,0.669354,0.646144,-0.264443 KneeLeft:0.008932,-0.557420,0.028409,0.829696 KneeRight:-0.006728,0.832374,0.067603,0.550035 Neck:-0.245732,0.061311,0.964823,-0.070520 ShoulderLeft:0.128987,0.720635,-0.675424,-0.088605 ShoulderRight:-0.199979,0.796081,0.500741,-0.274814 SpineBase:-0.192854,0.051823,0.979264,-0.034113 SpineMid:-0.218415,0.052698,0.973882,-0.032746 SpineShoulder:-0.245365,0.057287,0.966438,-0.050112 ThumbLeft:0.000000,0.000000,0.000000,0.000000 ThumbRight:0.000000,0.000000,0.000000,0.000000 WristLeft:-0.014915,0.851121,-0.130877,0.508174 WristRight:0.550963,0.200186,-0.280456,0.760072 END:
KINECT_DATA POSITION:11.815446,-1.676302,13.577127 HEAD_JOINT1:0.987468,0.156574,0.000000,-0.019767 LARM_JOINT2:0.799021,0.000000,0.036757,-0.600179 LARM_JOINT3:0.971034,0.000000,-0.174539,-0.163188 LLEG_JOINT2:0.999854,0.014987,0.000000,-0.008230 LLEG_JOINT4:0.997533,0.069740,0.000000,0.008059 RARM_JOINT2:0.776231,0.000000,0.364489,0.514406 RARM_JOINT3:0.826366,0.000000,0.445364,0.344630 RLEG_JOINT2:0.995087,0.057629,0.000000,-0.080501 RLEG_JOINT4:0.993973,0.073626,0.000000,0.081218 WAIST:0.981200,-0.000000,0.189390,0.037116 WAIST_JOINT0:0.966559,-0.000000,0.238078,0.095302 WAIST_JOINT1:0.998128,0.054073,-0.000000,0.028562 END:
KINECT_DATA_Sensor  AnkleLeft:-0.044626,-0.562781,0.073104,0.822157 AnkleRight:0.088977,0.741190,0.093787,0.658730 ElbowLeft:0.014569,0.764589,-0.216987,-0.606719 ElbowRight:-0.251216,0.966106,-0.054725,0.023147 FootLeft:0.000000,0.000000,0.000000,0.000000 FootRight:0.000000,0.000000,0.000000,0.000000 HandLeft:-0.072605,0.841696,-0.041482,0.533437 HandRight:0.608242,0.167938,-0.168872,0.757180 HandTipLeft:0.000000,0.000000,0.000000,0.000000 HandTipRight:0.000000,0.000000,0.000000,0.000000 Head:0.000000,0.000000,0.000000,0.000000 HipLeft:0.001069,-0.665384,0.743685,-0.064769 HipRight:-0.251935,0.669865,0.646973,-0.263125 KneeLeft:0.009212,-0.560158,0.027826,0.827867 KneeRight:-0.007867,0.830490,0.066704,0.552970 Neck:-0.241012,0.060657,0.966019,-0.071006 ShoulderLeft:0.125140,0.722624,-0.674550,-0.084476 ShoulderRight:-0.197410,0.797623,0.500911,-0.271874 SpineBase:-0.189698,0.051514,0.979882,-0.034523 SpineMid:-0.214481,0.052372,0.974758,-0.033206 SpineShoulder:-0.240636,0.056804,0.967628,-0.050629 ThumbLeft:0.000000,0.000000,0.000000,0.000000 ThumbRight:0.000000,0.000000,0.000000,0.000000 WristLeft:-0.015079,0.847417,-0.129739,0.514612 WristRight:0.574684,0.122766,-0.225864,0.776950 END:
KINECT_DATA POSITION:11.788850,-1.691312,13.531995 HEAD_JOINT1:0.987304,0.157805,0.000000,-0.018141 LARM_JOINT2:0.799467,0.000000,0.040095,-0.599371 LARM_JOINT3:0.969556,0.000000,-0.179318,-0.166751 LLEG_JOINT2:0.999858,0.014797,0.000000,-0.008093 LLEG_JOINT4:0.997576,0.069144,0.000000,0.007822 RARM_JOINT2:0.776047,0.000000,0.365999,0.513611 RARM_JOINT3:0.832698,0.000000,0.444871,0.329704 RLEG_JOINT2:0.995102,0.058209,0.000000,-0.079902 RLEG_JOINT4:0.993918,0.073454,0.000000,0.082042 WAIST:0.981614,-0.000000,0.187285,0.036845 WAIST_JOINT0:0.967572,-0.000000,0.234334,0.094298 WAIST_JOINT1:0.998146,0.053970,-0.000000,0.028133 END:
KINECT_DATA_Sensor  AnkleLeft:-0.044181,-0.565330,0.072505,0.820484 AnkleRight:0.089081,0.729914,0.094854,0.671039 ElbowLeft:0.016502,0.765116,-0.217880,-0.605685 ElbowRight:-0.252679,0.965700,-0.054281,0.025111 FootLeft:0.000000,0.000000,0.000000,0.000000 FootRight:0.000000,0.000000,0.000000,0.000000 HandLeft:-0.083798,0.857450,-0.044008,0.505788 HandRight:0.584538,0.177099,-0.219203,0.760856 HandTipLeft:0.000000,0.000000,0.000000,0.000000 HandTipRight:0.000000,0.000000,0.000000,0.000000 Head:0.000000,0.000000,0.000000,0.000000 HipLeft:0.002459,-0.665653,0.743342,-0.065891 HipRight:-0.250686,0.670195,0.647518,-0.262136 KneeLeft:0.009254,-0.561945,0.027677,0.826659 KneeRight:-0.007034,0.829309,0.067107,0.554702 Neck:-0.237341,0.059874,0.966988,-0.070838 ShoulderLeft:0.122386,0.723971,-0.673919,-0.081983 ShoulderRight:-0.195070,0.798626,0.501777,-0.269006 SpineBase:-0.187596,0.051103,0.980310,-0.034464 SpineMid:-0.211604,0.051934,0.975410,-0.033199 SpineShoulder:-0.236955,0.056198,0.968576,-0.050553 ThumbLeft:0.000000,0.000000,0.000000,0.000000 ThumbRight:0.000000,0.000000,0.000000,0.000000 WristLeft:-0.022129,0.863605,-0.128487,0.487019 WristRight:0.561059,0.150843,-0.250542,0.774395 END:
KINECT_DATA POSITION:11.772420,-1.700079,13.550234 HEAD_JOINT1:0.987311,0.157882,0.000000,-0.017059 LARM_JOINT2:0.799211,0.000000,0.039897,-0.599725 LARM_JOINT3:0.968347,0.000000,-0.183255,-0.169475 LLEG_JOINT2:0.999869,0.014353,0.000000,-0.007425 LLEG_JOINT4:0.997604,0.068882,0.000000,0.006446 RARM_JOINT2:0.775598,0.000000,0.369547,0.511745 RARM_JOINT3:0.853416,0.000000,0.434331,0.288161 RLEG_JOINT2:0.995135,0.057781,0.000000,-0.079803 RLEG_JOINT4:0.994301,0.071093,0.000000,0.079447 WAIST:0.981929,-0.000000,0.185709,0.036448 WAIST_JOINT0:0.968164,-0.000000,0.232183,0.093544 WAIST_JOINT1:0.998145,0.053895,-0.000000,0.028313 END:
KINECT_DATA_Sensor  AnkleLeft:-0.044194,-0.566717,0.071354,0.819626 AnkleRight:0.088832,0.753241,0.090450,0.645411 ElbowLeft:0.016578,0.767214,-0.217262,-0.603246 ElbowRight:-0.254660,0.964460,-0.058613,0.039121 FootLeft:0.000000,0.000000,0.000000,0.000000 FootRight:0.000000,0.000000,0.000000,0.000000 HandLeft:-0.089781,0.842282,-0.052047,0.528953 HandRight:0.523300,0.184045,-0.290364,0.779727 HandTipLeft:0.000000,0.000000,0.000000,0.000000 HandTipRight:0.000000,0.000000,0.000000,0.000000 Head:0.000000,0.000000,0.000000,0.000000 HipLeft:0.004147,-0.665972,0.742929,-0.067231 HipRight:-0.250297,0.670284,0.647835,-0.261497 KneeLeft:0.009720,-0.563305,0.027726,0.825726 KneeRight:-0.007326,0.828380,0.067032,0.556094 Neck:-0.235208,0.059736,0.967521,-0.070800 ShoulderLeft:0.120951,0.724831,-0.673394,-0.080819 ShoulderRight:-0.193470,0.799180,0.502479,-0.267198 SpineBase:-0.186002,0.050920,0.980631,-0.034243 SpineMid:-0.209746,0.051737,0.975829,-0.032997 SpineShoulder:-0.234821,0.056049,0.969105,-0.050527 ThumbLeft:0.000000,0.000000,0.000000,0.000000 ThumbRight:0.000000,0.000000,0.000000,0.000000 WristLeft:-0.023585,0.849603,-0.128929,0.510878 WristRight:0.525559,0.181766,-0.294156,0.777316 END:
KINECT_DATA POSITION:11.734812,-1.752582,13.655508 HEAD_JOINT1:0.987097,0.159357,0.000000,-0.015645 LARM_JOINT2:0.798739,0.000000,0.031793,-0.600836 LARM_JOINT3:0.969730,0.000000,-0.179442,-0.165603 LLEG_JOINT2:0.999851,0.016677,0.000000,-0.004409 LLEG_JOINT4:0.997694,0.067454,0.000000,0.007546 RARM_JOINT2:0.772544,0.000000,0.376773,0.511095 RARM_JOINT3:0.867977,0.000000,0.426529,0.254342 RLEG_JOINT2:0.995327,0.055279,0.000000,-0.079168 RLEG_JOINT4:0.993900,0.075061,0.000000,0.080799 WAIST:0.982743,-0.000000,0.181636,0.034982 WAIST_JOINT0:0.968040,-0.000000,0.232650,0.093668 WAIST_JOINT1:0.998150,0.053477,-0.000000,0.028942 END:
KINECT_DATA_Sensor  AnkleLeft:0.058327,0.730744,-0.063541,-0.677181 AnkleRight:0.090507,0.749290,0.091550,0.649609 ElbowLeft:0.011395,0.774927,-0.213860,-0.594661 ElbowRight:-0.256920,0.962204,-0.067614,0.059869 FootLeft:0.000000,0.000000,0.000000,0.000000 FootRight:0.000000,0.000000,0.000000,0.000000 HandLeft:-0.083978,0.838872,-0.059367,0.534524 HandRight:0.526001,0.135084,-0.288206,0.788678 HandTipLeft:0.000000,0.000000,0.000000,0.000000 HandTipRight:0.000000,0.000000,0.000000,0.000000 Head:0.000000,0.000000,0.000000,0.000000 HipLeft:0.008724,-0.666991,0.741675,-0.070470 HipRight:-0.249534,0.670223,0.648952,-0.259606 KneeLeft:0.008486,-0.566554,0.030554,0.823414 KneeRight:-0.008889,0.825888,0.065788,0.559912 Neck:-0.235461,0.059563,0.967506,-0.070298 ShoulderLeft:0.122514,0.724536,-0.673155,-0.083064 ShoulderRight:-0.191653,0.799427,0.503419,-0.265999 SpineBase:-0.181858,0.050276,0.981471,-0.033377 SpineMid:-0.207771,0.051142,0.976314,-0.032034 SpineShoulder:-0.235085,0.055714,0.969093,-0.049901 ThumbLeft:0.000000,0.000000,0.000000,0.000000 ThumbRight:0.000000,0.000000,0.000000,0.000000 WristLeft:-0.024763,0.844832,-0.128493,0.518783 WristRight:0.513360,0.130750,-0.289943,0.797056 END:
KINECT_DATA POSITION:11.714025,-1.793527,13.754951 HEAD_JOINT1:0.986489,0.163207,0.000000,-0.014216 LARM_JOINT2:0.798599,0.000000,0.029946,-0.601119 LARM_JOINT3:0.969067,0.000000,-0.181730,-0.166983 LLEG_JOINT2:0.999834,0.017933,0.000000,-0.003139 LLEG_JOINT4:0.997997,0.063016,0.000000,0.005611 RARM_JOINT2:0.769649,0.000000,0.382187,0.511443 RARM_JOINT3:0.872452,0.000000,0.419799,0.250192 RLEG_JOINT2:0.995396,0.054421,0.000000,-0.078900 RLEG_JOINT4:0.993661,0.076338,0.000000,0.082524 WAIST:0.983360,-0.000000,0.178410,0.034251 WAIST_JOINT0:0.968813,-0.000000,0.229855,0.092562 WAIST_JOINT1:0.998167,0.053129,-0.000000,0.028974 END:
KINECT_DATA_Sensor  AnkleLeft:-0.041225,-0.569027,0.072055,0.818117 AnkleRight:0.090919,0.737273,0.092543,0.663022 ElbowLeft:0.010164,0.779271,-0.212557,-0.589451 ElbowRight:-0.258311,0.960677,-0.073714,0.070295 FootLeft:0.000000,0.000000,0.000000,0.000000 FootRight:0.000000,0.000000,0.000000,0.000000 HandLeft:-0.091683,0.817401,-0.071846,0.564171 HandRight:0.518099,0.186253,-0.297368,0.780036 HandTipLeft:0.000000,0.000000,0.000000,0.000000 HandTipRight:0.000000,0.000000,0.000000,0.000000 Head:0.000000,0.000000,0.000000,0.000000 HipLeft:0.011385,-0.667356,0.741129,-0.072342 HipRight:-0.248377,0.670398,0.649905,-0.257874 KneeLeft:0.007679,-0.569163,0.031848,0.821572 KneeRight:-0.009381,0.823975,0.065560,0.562743 Neck:-0.232708,0.059114,0.968221,-0.069998 ShoulderLeft:0.120132,0.725547,-0.672700,-0.081391 ShoulderRight:-0.190290,0.799938,0.504360,-0.263645 SpineBase:-0.178603,0.049917,0.982103,-0.032907 SpineMid:-0.204757,0.050778,0.976985,-0.031563 SpineShoulder:-0.232327,0.055279,0.969805,-0.049470 ThumbLeft:0.000000,0.000000,0.000000,0.000000 ThumbRight:0.000000,0.000000,0.000000,0.000000 WristLeft:-0.022892,0.825148,-0.128323,0.549673 WristRight:0.488225,0.161956,-0.323649,0.794140 END:
KINECT_DATA POSITION:11.706882,-1.806489,13.818491 HEAD_JOINT1:0.986123,0.165505,0.000000,-0.012989 LARM_JOINT2:0.798223,0.000000,0.024863,-0.601849 LARM_JOINT3:0.970405,0.000000,-0.178480,-0.162664 LLEG_JOINT2:0.999831,0.018139,0.000000,-0.002840 LLEG_JOINT4:0.997720,0.066901,0.000000,0.008867 RARM_JOINT2:0.773239,0.000000,0.378690,0.508621 RARM_JOINT3:0.866578,0.000000,0.426660,0.258852 RLEG_JOINT2:0.995439,0.054679,0.000000,-0.078174 RLEG_JOINT4:0.993943,0.075247,0.000000,0.080093 WAIST:0.983600,-0.000000,0.177130,0.033994 WAIST_JOINT0:0.969069,-0.000000,0.228933,0.092172 WAIST_JOINT1:0.998165,0.053127,-0.000000,0.029039 END:
KINECT_DATA_Sensor  AnkleLeft:-0.042719,-0.569945,0.077184,0.816933 AnkleRight:0.101121,0.822722,0.079256,0.553733 ElbowLeft:0.006854,0.782158,-0.210641,-0.586355 ElbowRight:-0.259438,0.960603,-0.067792,0.073058 FootLeft:0.000000,0.000000,0.000000,0.000000 FootRight:0.000000,0.000000,0.000000,0.000000 HandLeft:-0.082395,0.844230,-0.068846,0.525116 HandRight:0.529799,0.187273,-0.288455,0.775265 HandTipLeft:0.000000,0.000000,0.000000,0.000000 HandTipRight:0.000000,0.000000,0.000000,0.000000 Head:0.000000,0.000000,0.000000,0.000000 HipLeft:0.012142,-0.667442,0.740957,-0.073191 HipRight:-0.247798,0.670432,0.650325,-0.257283 KneeLeft:0.007509,-0.570230,0.032050,0.820825 KneeRight:-0.008702,0.823247,0.065577,0.563816 Neck:-0.231828,0.058965,0.968445,-0.069955 ShoulderLeft:0.120397,0.725679,-0.672476,-0.081671 ShoulderRight:-0.188543,0.800169,0.505315,-0.262369 SpineBase:-0.177309,0.049895,0.982336,-0.032991 SpineMid:-0.203667,0.050765,0.977211,-0.031637 SpineShoulder:-0.231441,0.055201,0.970022,-0.049442 ThumbLeft:0.000000,0.000000,0.000000,0.000000 ThumbRight:0.000000,0.000000,0.000000,0.000000 WristLeft:-0.030259,0.848988,-0.127840,0.511822 WristRight:0.491822,0.156458,-0.322156,0.793629 END:
