EastLYD/RoboCupatHomeSim/InteractiveCleanUp/JapanOpen2016/Motion_Data/File41.dat
KINECT_DATA POSITION:0.084001,-0.333932,-3.104913 HEAD_JOINT1:0.978289,0.165387,-0.000000,0.124889 LARM_JOINT2:0.840138,0.000000,-0.034698,-0.541262 LARM_JOINT3:0.966618,0.000000,-0.178324,-0.183982 LLEG_JOINT2:0.998637,0.020366,0.000000,0.048051 LLEG_JOINT4:0.996059,0.083664,0.000000,-0.029449 RARM_JOINT2:0.807887,0.000000,-0.050432,0.587175 RARM_JOINT3:0.968925,0.000000,0.213642,0.124664 RLEG_JOINT2:0.999491,0.025417,0.000000,-0.019278 RLEG_JOINT4:0.995637,0.085904,0.000000,0.036438 WAIST:0.999995,-0.000000,0.003014,0.000868 WAIST_JOINT0:0.999426,0.000000,-0.033059,0.007463 WAIST_JOINT1:0.997172,0.072977,0.000000,-0.017940 END:
KINECT_DATA_Sensor  AnkleLeft:0.068335,0.764445,-0.080523,-0.635980 AnkleRight:0.090335,0.693821,0.067266,0.711286 ElbowLeft:-0.037004,0.906321,-0.194305,-0.373441 ElbowRight:0.008858,0.847249,0.204955,0.489984 FootLeft:0.000000,0.000000,0.000000,0.000000 FootRight:0.000000,0.000000,0.000000,0.000000 HandLeft:-0.108034,0.786083,-0.000499,0.608607 HandRight:-0.014539,-0.251880,-0.175535,0.951595 HandTipLeft:0.000000,0.000000,0.000000,0.000000 HandTipRight:0.000000,0.000000,0.000000,0.000000 Head:0.000000,0.000000,0.000000,0.000000 HipLeft:0.110568,-0.679374,0.706870,-0.162974 HipRight:-0.118559,0.674150,0.705050,-0.185392 KneeLeft:0.020039,-0.704033,0.049052,0.708188 KneeRight:0.004897,0.709762,0.030998,0.703743 Neck:0.030699,-0.021820,0.995422,-0.087848 ShoulderLeft:0.021904,0.781417,-0.619332,0.073044 ShoulderRight:0.062848,0.787410,0.612809,-0.022392 SpineBase:-0.003810,-0.014726,0.998677,-0.049115 SpineMid:0.013226,-0.015561,0.998597,-0.048857 SpineShoulder:0.030614,-0.019079,0.997082,-0.067276 ThumbLeft:0.000000,0.000000,0.000000,0.000000 ThumbRight:0.000000,0.000000,0.000000,0.000000 WristLeft:-0.101019,0.793452,-0.088663,0.593606 WristRight:-0.024290,-0.257765,-0.104468,0.960236 END:
KINECT_DATA POSITION:0.087710,-0.336081,-3.116941 HEAD_JOINT1:0.978133,0.166035,-0.000000,0.125249 LARM_JOINT2:0.840113,0.000000,-0.034566,-0.541310 LARM_JOINT3:0.966533,0.000000,-0.179517,-0.183270 LLEG_JOINT2:0.998637,0.020114,0.000000,0.048156 LLEG_JOINT4:0.996065,0.083672,0.000000,-0.029213 RARM_JOINT2:0.808605,0.000000,-0.048991,0.586309 RARM_JOINT3:0.969461,0.000000,0.211160,0.124730 RLEG_JOINT2:0.999528,0.024287,0.000000,-0.018830 RLEG_JOINT4:0.995505,0.087791,0.000000,0.035528 WAIST:0.999995,-0.000000,0.003183,0.000711 WAIST_JOINT0:0.999401,0.000000,-0.033884,0.007102 WAIST_JOINT1:0.997179,0.072931,0.000000,-0.017725 END:
KINECT_DATA_Sensor  AnkleLeft:0.062770,0.722223,-0.084679,-0.683581 AnkleRight:0.090361,0.693419,0.068320,0.711574 ElbowLeft:-0.036955,0.906172,-0.194341,-0.373788 ElbowRight:0.007903,0.848948,0.205291,0.486909 FootLeft:0.000000,0.000000,0.000000,0.000000 FootRight:0.000000,0.000000,0.000000,0.000000 HandLeft:-0.107380,0.683995,-0.021823,0.721210 HandRight:-0.021544,-0.248658,-0.166407,0.953946 HandTipLeft:0.000000,0.000000,0.000000,0.000000 HandTipRight:0.000000,0.000000,0.000000,0.000000 Head:0.000000,0.000000,0.000000,0.000000 HipLeft:0.110412,-0.679537,0.706781,-0.162786 HipRight:-0.118659,0.674070,0.705119,-0.185356 KneeLeft:0.020173,-0.703913,0.048841,0.708318 KneeRight:0.004301,0.709899,0.029992,0.703651 Neck:0.031497,-0.021840,0.995403,-0.087776 ShoulderLeft:0.021932,0.781503,-0.619210,0.073156 ShoulderRight:0.063887,0.787410,0.612741,-0.021254 SpineBase:-0.003968,-0.014717,0.998681,-0.049040 SpineMid:0.013542,-0.015575,0.998597,-0.048774 SpineShoulder:0.031413,-0.019101,0.997061,-0.067213 ThumbLeft:0.000000,0.000000,0.000000,0.000000 ThumbRight:0.000000,0.000000,0.000000,0.000000 WristLeft:-0.085673,0.686956,-0.103913,0.714110 WristRight:-0.024462,-0.252734,-0.104610,0.961553 END:
KINECT_DATA POSITION:0.090501,-0.345675,-3.083372 HEAD_JOINT1:0.978062,0.166860,-0.000000,0.124709 LARM_JOINT2:0.840037,0.000000,-0.034426,-0.541436 LARM_JOINT3:0.966556,0.000000,-0.180855,-0.181826 LLEG_JOINT2:0.998667,0.019083,0.000000,0.047950 LLEG_JOINT4:0.995645,0.088655,0.000000,-0.028839 RARM_JOINT2:0.806460,0.000000,-0.050724,0.589109 RARM_JOINT3:0.967832,0.000000,0.218147,0.125351 RLEG_JOINT2:0.999535,0.023814,0.000000,-0.019061 RLEG_JOINT4:0.995487,0.087971,0.000000,0.035596 WAIST:0.999994,-0.000000,0.003445,0.001033 WAIST_JOINT0:0.999456,0.000000,-0.032128,0.007449 WAIST_JOINT1:0.997174,0.072952,0.000000,-0.017923 END:
KINECT_DATA_Sensor  AnkleLeft:0.074192,0.789216,-0.080352,-0.604298 AnkleRight:0.090325,0.694374,0.067931,0.710683 ElbowLeft:-0.036848,0.905892,-0.194376,-0.374460 ElbowRight:0.009482,0.845970,0.202882,0.493035 FootLeft:0.000000,0.000000,0.000000,0.000000 FootRight:0.000000,0.000000,0.000000,0.000000 HandLeft:-0.109937,0.789664,-0.011731,0.603496 HandRight:-0.001556,-0.226466,-0.190397,0.955228 HandTipLeft:0.000000,0.000000,0.000000,0.000000 HandTipRight:0.000000,0.000000,0.000000,0.000000 Head:0.000000,0.000000,0.000000,0.000000 HipLeft:0.110424,-0.679374,0.706986,-0.162572 HipRight:-0.118957,0.674257,0.704854,-0.185493 KneeLeft:0.020979,-0.703668,0.048199,0.708582 KneeRight:0.004023,0.710109,0.029594,0.703458 Neck:0.029857,-0.021571,0.995455,-0.087819 ShoulderLeft:0.022071,0.781304,-0.619510,0.072686 ShoulderRight:0.061912,0.786946,0.613460,-0.023439 SpineBase:-0.004252,-0.014637,0.998688,-0.048886 SpineMid:0.012581,-0.015459,0.998618,-0.048633 SpineShoulder:0.029765,-0.018921,0.997112,-0.067258 ThumbLeft:0.000000,0.000000,0.000000,0.000000 ThumbRight:0.000000,0.000000,0.000000,0.000000 WristLeft:-0.101915,0.795571,-0.088421,0.590646 WristRight:-0.025853,-0.236058,-0.103911,0.965821 END:
KINECT_DATA POSITION:0.122467,-0.384098,-2.922130 HEAD_JOINT1:0.978490,0.165099,-0.000000,0.123696 LARM_JOINT2:0.840045,0.000000,-0.035867,-0.541330 LARM_JOINT3:0.966946,0.000000,-0.182067,-0.178516 LLEG_JOINT2:0.998714,0.020144,0.000000,0.046535 LLEG_JOINT4:0.995613,0.087632,0.000000,-0.032781 RARM_JOINT2:0.803931,0.000000,-0.044815,0.593032 RARM_JOINT3:0.943734,0.000000,0.291622,0.155959 RLEG_JOINT2:0.999470,0.025319,0.000000,-0.020485 RLEG_JOINT4:0.995312,0.089017,0.000000,0.037813 WAIST:0.999978,-0.000000,0.006269,0.002214 WAIST_JOINT0:0.999622,0.000000,-0.024804,0.011886 WAIST_JOINT1:0.997222,0.072181,0.000000,-0.018417 END:
KINECT_DATA_Sensor  AnkleLeft:0.068060,0.716425,-0.084760,-0.689144 AnkleRight:0.095136,0.715049,0.066080,0.689411 ElbowLeft:-0.037939,0.905589,-0.194456,-0.375041 ElbowRight:0.003005,0.839315,0.195866,0.507126 FootLeft:0.000000,0.000000,0.000000,0.000000 FootRight:0.000000,0.000000,0.000000,0.000000 HandLeft:-0.109286,0.809114,-0.025727,0.576827 HandRight:0.086378,-0.179116,-0.284254,0.937900 HandTipLeft:0.000000,0.000000,0.000000,0.000000 HandTipRight:0.000000,0.000000,0.000000,0.000000 Head:0.000000,0.000000,0.000000,0.000000 HipLeft:0.110379,-0.679260,0.707690,-0.159992 HipRight:-0.122385,0.674980,0.703392,-0.186181 KneeLeft:0.019925,-0.701710,0.048830,0.710508 KneeRight:0.004817,0.712065,0.030839,0.701420 Neck:0.022511,-0.020441,0.995759,-0.086824 ShoulderLeft:0.023122,0.780834,-0.620475,0.069096 ShoulderRight:0.053626,0.790069,0.609876,-0.031099 SpineBase:-0.007112,-0.014001,0.998781,-0.046796 SpineMid:0.007475,-0.014683,0.998778,-0.046587 SpineShoulder:0.022387,-0.018186,0.997361,-0.066622 ThumbLeft:0.000000,0.000000,0.000000,0.000000 ThumbRight:0.000000,0.000000,0.000000,0.000000 WristLeft:-0.104989,0.812318,-0.086528,0.567125 WristRight:0.016907,-0.202714,-0.161947,0.965606 END:
KINECT_DATA POSITION:0.200431,-0.416943,-2.746987 HEAD_JOINT1:0.979485,0.161106,-0.000000,0.121055 LARM_JOINT2:0.839667,0.000000,-0.034787,-0.541986 LARM_JOINT3:0.967136,0.000000,-0.180139,-0.179440 LLEG_JOINT2:0.998799,0.021305,0.000000,0.044121 LLEG_JOINT4:0.995918,0.085030,0.000000,-0.030296 RARM_JOINT2:0.803896,0.000000,-0.020789,0.594406 RARM_JOINT3:0.930697,0.000000,0.328082,0.161754 RLEG_JOINT2:0.999409,0.025651,0.000000,-0.022904 RLEG_JOINT4:0.995212,0.089410,0.000000,0.039493 WAIST:0.999945,-0.000000,0.009887,0.003516 WAIST_JOINT0:0.999721,0.000000,-0.017599,0.015761 WAIST_JOINT1:0.997467,0.069044,0.000000,-0.017131 END:
KINECT_DATA_Sensor  AnkleLeft:0.071930,0.759352,-0.079859,-0.641742 AnkleRight:0.094892,0.708144,0.067789,0.696371 ElbowLeft:-0.040344,0.902857,-0.195448,-0.380818 ElbowRight:-0.016832,0.839069,0.181317,0.512645 FootLeft:0.000000,0.000000,0.000000,0.000000 FootRight:0.000000,0.000000,0.000000,0.000000 HandLeft:-0.098438,0.805844,-0.023067,0.583433 HandRight:0.122947,-0.135928,-0.321474,0.929011 HandTipLeft:0.000000,0.000000,0.000000,0.000000 HandTipRight:0.000000,0.000000,0.000000,0.000000 Head:0.000000,0.000000,0.000000,0.000000 HipLeft:0.110084,-0.679114,0.708591,-0.156794 HipRight:-0.126884,0.675754,0.701718,-0.186678 KneeLeft:0.018147,-0.699235,0.048907,0.712986 KneeRight:0.004124,0.714572,0.031861,0.698824 Neck:0.015354,-0.016627,0.996383,-0.081912 ShoulderLeft:0.025483,0.780873,-0.621051,0.062311 ShoulderRight:0.046661,0.793647,0.605543,-0.035564 SpineBase:-0.010719,-0.012500,0.998892,-0.044098 SpineMid:0.002060,-0.013064,0.998947,-0.043934 SpineShoulder:0.015164,-0.015862,0.997699,-0.064150 ThumbLeft:0.000000,0.000000,0.000000,0.000000 ThumbRight:0.000000,0.000000,0.000000,0.000000 WristLeft:-0.106477,0.807498,-0.091521,0.572917 WristRight:0.041545,-0.163719,-0.214496,0.962009 END:
KINECT_DATA POSITION:0.312994,-0.424200,-2.551425 HEAD_JOINT1:0.980855,0.158387,-0.000000,0.113301 LARM_JOINT2:0.838749,0.000000,-0.026113,-0.543892 LARM_JOINT3:0.967728,0.000000,-0.179248,-0.177121 LLEG_JOINT2:0.998896,0.023295,0.000000,0.040790 LLEG_JOINT4:0.995876,0.084668,0.000000,-0.032608 RARM_JOINT2:0.806309,0.000000,-0.009925,0.591411 RARM_JOINT3:0.915105,0.000000,0.363933,0.173594 RLEG_JOINT2:0.999379,0.024192,0.000000,-0.025636 RLEG_JOINT4:0.994913,0.093253,0.000000,0.038094 WAIST:0.999932,-0.000000,0.010427,0.005316 WAIST_JOINT0:0.999769,0.000000,-0.004041,0.021088 WAIST_JOINT1:0.997912,0.062932,0.000000,-0.014525 END:
KINECT_DATA_Sensor  AnkleLeft:0.071563,0.725210,-0.081576,-0.679923 AnkleRight:0.097009,0.729532,0.068184,0.673590 ElbowLeft:-0.042138,0.897161,-0.198077,-0.392547 ElbowRight:-0.028808,0.841415,0.172982,0.511143 FootLeft:0.000000,0.000000,0.000000,0.000000 FootRight:0.000000,0.000000,0.000000,0.000000 HandLeft:-0.087105,0.816162,-0.025801,0.570637 HandRight:0.180129,-0.162982,-0.370544,0.896486 HandTipLeft:0.000000,0.000000,0.000000,0.000000 HandTipRight:0.000000,0.000000,0.000000,0.000000 Head:0.000000,0.000000,0.000000,0.000000 HipLeft:0.111666,-0.678361,0.709528,-0.154687 HipRight:-0.129838,0.677545,0.700017,-0.184528 KneeLeft:0.015631,-0.698974,0.049202,0.713281 KneeRight:0.002403,0.714959,0.031461,0.698454 Neck:0.002121,-0.010946,0.997088,-0.075444 ShoulderLeft:0.027684,0.780417,-0.622625,0.050200 ShoulderRight:0.031715,0.798396,0.599660,-0.044336 SpineBase:-0.011250,-0.010261,0.999057,-0.040670 SpineMid:-0.004793,-0.010524,0.999108,-0.040603 SpineShoulder:0.001974,-0.010590,0.998228,-0.058519 ThumbLeft:0.000000,0.000000,0.000000,0.000000 ThumbRight:0.000000,0.000000,0.000000,0.000000 WristLeft:-0.106333,0.815546,-0.097253,0.560464 WristRight:0.080348,-0.201051,-0.248487,0.944128 END:
KINECT_DATA POSITION:0.373898,-0.436348,-2.466822 HEAD_JOINT1:0.982080,0.155892,-0.000000,0.105909 LARM_JOINT2:0.838419,0.000000,-0.015950,-0.544793 LARM_JOINT3:0.965992,0.000000,-0.183762,-0.181908 LLEG_JOINT2:0.998915,0.024629,0.000000,0.039526 LLEG_JOINT4:0.996357,0.080401,0.000000,-0.028418 RARM_JOINT2:0.810345,0.000000,-0.011871,0.585833 RARM_JOINT3:0.895799,0.000000,0.397520,0.198799 RLEG_JOINT2:0.999353,0.023217,0.000000,-0.027470 RLEG_JOINT4:0.994380,0.097983,0.000000,0.040092 WAIST:0.999910,-0.000000,0.012137,0.005728 WAIST_JOINT0:0.999725,-0.000000,0.005354,0.022853 WAIST_JOINT1:0.998181,0.059187,0.000000,-0.011468 END:
KINECT_DATA_Sensor  AnkleLeft:0.069579,0.743480,-0.080075,-0.660291 AnkleRight:0.099460,0.725102,0.071258,0.677685 ElbowLeft:-0.040765,0.890537,-0.202228,-0.405445 ElbowRight:-0.032255,0.843257,0.174671,0.507313 FootLeft:0.000000,0.000000,0.000000,0.000000 FootRight:0.000000,0.000000,0.000000,0.000000 HandLeft:-0.095762,0.793270,-0.022346,0.600877 HandRight:0.199145,-0.112942,-0.390233,0.891798 HandTipLeft:0.000000,0.000000,0.000000,0.000000 HandTipRight:0.000000,0.000000,0.000000,0.000000 Head:0.000000,0.000000,0.000000,0.000000 HipLeft:0.111703,-0.678506,0.709827,-0.152637 HipRight:-0.133056,0.678160,0.699160,-0.183221 KneeLeft:0.013998,-0.697886,0.049543,0.714357 KneeRight:0.000639,0.716088,0.031753,0.697287 Neck:-0.006983,-0.007750,0.997277,-0.073007 ShoulderLeft:0.028501,0.780504,-0.623076,0.042160 ShoulderRight:0.020775,0.800833,0.596377,-0.050698 SpineBase:-0.012847,-0.007833,0.999160,-0.038121 SpineMid:-0.010068,-0.007939,0.999192,-0.038099 SpineShoulder:-0.007020,-0.006479,0.998468,-0.054494 ThumbLeft:0.000000,0.000000,0.000000,0.000000 ThumbRight:0.000000,0.000000,0.000000,0.000000 WristLeft:-0.101532,0.796193,-0.106148,0.586942 WristRight:0.099747,-0.150663,-0.286184,0.940983 END:
KINECT_DATA POSITION:0.411420,-0.429392,-2.458477 HEAD_JOINT1:0.982392,0.156252,-0.000000,0.102430 LARM_JOINT2:0.837234,0.000000,-0.013597,-0.546676 LARM_JOINT3:0.965423,0.000000,-0.188834,-0.179719 LLEG_JOINT2:0.998889,0.025559,0.000000,0.039594 LLEG_JOINT4:0.996126,0.083018,0.000000,-0.028983 RARM_JOINT2:0.817029,0.000000,-0.001704,0.576594 RARM_JOINT3:0.879454,0.000000,0.428261,0.207733 RLEG_JOINT2:0.999359,0.023472,0.000000,-0.027046 RLEG_JOINT4:0.994184,0.100122,0.000000,0.039672 WAIST:0.999913,-0.000000,0.012053,0.005404 WAIST_JOINT0:0.999785,-0.000000,0.004192,0.020299 WAIST_JOINT1:0.998272,0.057832,0.000000,-0.010464 END:
KINECT_DATA_Sensor  AnkleLeft:-0.067596,-0.700709,0.086086,0.705001 AnkleRight:0.099735,0.713509,0.074804,0.689465 ElbowLeft:-0.040882,0.887905,-0.200926,-0.411802 ElbowRight:-0.045943,0.843204,0.178363,0.505057 FootLeft:0.000000,0.000000,0.000000,0.000000 FootRight:0.000000,0.000000,0.000000,0.000000 HandLeft:-0.104795,0.767516,-0.036518,0.631350 HandRight:0.241801,-0.192741,-0.385001,0.869573 HandTipLeft:0.000000,0.000000,0.000000,0.000000 HandTipRight:0.000000,0.000000,0.000000,0.000000 Head:0.000000,0.000000,0.000000,0.000000 HipLeft:0.112060,-0.678872,0.709588,-0.151855 HipRight:-0.134020,0.678341,0.699216,-0.181629 KneeLeft:0.013148,-0.698036,0.050013,0.714193 KneeRight:0.000891,0.715961,0.031868,0.697412 Neck:-0.006065,-0.007314,0.997347,-0.072173 ShoulderLeft:0.031620,0.779715,-0.624165,0.038246 ShoulderRight:0.025112,0.799915,0.597853,-0.045574 SpineBase:-0.012669,-0.006637,0.999224,-0.036697 SpineMid:-0.009484,-0.006754,0.999259,-0.036675 SpineShoulder:-0.006071,-0.005745,0.998560,-0.052986 ThumbLeft:0.000000,0.000000,0.000000,0.000000 ThumbRight:0.000000,0.000000,0.000000,0.000000 WristLeft:-0.098387,0.772161,-0.111936,0.617704 WristRight:0.150342,-0.227754,-0.309882,0.910768 END:
KINECT_DATA POSITION:0.513798,-0.423423,-2.475786 HEAD_JOINT1:0.982878,0.156924,-0.000000,0.096565 LARM_JOINT2:0.835483,0.000000,-0.013428,-0.549353 LARM_JOINT3:0.965513,0.000000,-0.188451,-0.179642 LLEG_JOINT2:0.998956,0.025992,0.000000,0.037557 LLEG_JOINT4:0.996496,0.079607,0.000000,-0.025651 RARM_JOINT2:0.817631,0.000000,0.017443,0.575479 RARM_JOINT3:0.878027,0.000000,0.432972,0.203969 RLEG_JOINT2:0.999304,0.023717,0.000000,-0.028800 RLEG_JOINT4:0.994342,0.098274,0.000000,0.040336 WAIST:0.999910,-0.000000,0.012034,0.005915 WAIST_JOINT0:0.999689,-0.000000,0.011900,0.021913 WAIST_JOINT1:0.998435,0.054947,0.000000,-0.010370 END:
KINECT_DATA_Sensor  AnkleLeft:-0.063694,-0.697064,0.085734,0.709010 AnkleRight:0.098610,0.717458,0.073513,0.685657 ElbowLeft:-0.042931,0.886723,-0.197425,-0.415816 ElbowRight:-0.062294,0.842631,0.168454,0.507657 FootLeft:0.000000,0.000000,0.000000,0.000000 FootRight:0.000000,0.000000,0.000000,0.000000 HandLeft:-0.112499,0.823639,-0.020303,0.555473 HandRight:0.173127,-0.023820,-0.395141,0.901844 HandTipLeft:0.000000,0.000000,0.000000,0.000000 HandTipRight:0.000000,0.000000,0.000000,0.000000 Head:0.000000,0.000000,0.000000,0.000000 HipLeft:0.113206,-0.678825,0.709746,-0.150472 HipRight:-0.135593,0.679217,0.698584,-0.179610 KneeLeft:0.011775,-0.698109,0.049218,0.714201 KneeRight:0.000169,0.715912,0.032910,0.697414 Neck:-0.013432,-0.006150,0.997471,-0.069521 ShoulderLeft:0.031626,0.779680,-0.624524,0.032700 ShoulderRight:0.015599,0.800657,0.596685,-0.051691 SpineBase:-0.012601,-0.005327,0.999318,-0.034306 SpineMid:-0.013079,-0.005311,0.999312,-0.034309 SpineShoulder:-0.013445,-0.004714,0.998643,-0.050086 ThumbLeft:0.000000,0.000000,0.000000,0.000000 ThumbRight:0.000000,0.000000,0.000000,0.000000 WristLeft:-0.111303,0.827361,-0.103465,0.540723 WristRight:0.101252,-0.052088,-0.360835,0.925653 END:
KINECT_DATA POSITION:0.764301,-0.404489,-2.656043 HEAD_JOINT1:0.983894,0.155966,-0.000000,0.087331 LARM_JOINT2:0.832309,0.000000,-0.014192,-0.554130 LARM_JOINT3:0.967455,0.000000,-0.184704,-0.172961 LLEG_JOINT2:0.999163,0.024385,0.000000,0.032843 LLEG_JOINT4:0.996435,0.080295,0.000000,-0.025892 RARM_JOINT2:0.816537,0.000000,0.074059,0.572523 RARM_JOINT3:0.894903,0.000000,0.410174,0.175799 RLEG_JOINT2:0.999133,0.026056,0.000000,-0.032473 RLEG_JOINT4:0.994918,0.091816,0.000000,0.041329 WAIST:0.999868,-0.000000,0.014526,0.007312 WAIST_JOINT0:0.999500,-0.000000,0.022207,0.022506 WAIST_JOINT1:0.998457,0.054534,0.000000,-0.010476 END:
KINECT_DATA_Sensor  AnkleLeft:-0.065148,-0.690922,0.082784,0.715212 AnkleRight:0.094988,0.723434,0.071180,0.680113 ElbowLeft:-0.042092,0.885067,-0.193041,-0.421449 ElbowRight:-0.095656,0.863144,0.143597,0.474566 FootLeft:0.000000,0.000000,0.000000,0.000000 FootRight:0.000000,0.000000,0.000000,0.000000 HandLeft:-0.096788,0.804909,-0.029717,0.584697 HandRight:0.142768,0.034948,-0.443236,0.884272 HandTipLeft:0.000000,0.000000,0.000000,0.000000 HandTipRight:0.000000,0.000000,0.000000,0.000000 Head:0.000000,0.000000,0.000000,0.000000 HipLeft:0.112266,-0.678339,0.710819,-0.148285 HipRight:-0.138273,0.680260,0.697123,-0.179295 KneeLeft:0.010529,-0.696319,0.045721,0.716197 KneeRight:0.000063,0.717647,0.036149,0.695468 Neck:-0.023473,-0.004510,0.997306,-0.069355 ShoulderLeft:0.035245,0.779728,-0.624564,0.026498 ShoulderRight:0.006350,0.800994,0.595488,-0.061343 SpineBase:-0.015082,-0.003124,0.999348,-0.032640 SpineMid:-0.019269,-0.002988,0.999277,-0.032653 SpineShoulder:-0.023480,-0.003173,0.998489,-0.049589 ThumbLeft:0.000000,0.000000,0.000000,0.000000 ThumbRight:0.000000,0.000000,0.000000,0.000000 WristLeft:-0.106913,0.806094,-0.107360,0.572063 WristRight:0.085792,0.014889,-0.359677,0.929005 END:
KINECT_DATA POSITION:1.046088,-0.402851,-2.845311 HEAD_JOINT1:0.983960,0.159185,-0.000000,0.080520 LARM_JOINT2:0.830650,0.000000,-0.011914,-0.556667 LARM_JOINT3:0.967882,0.000000,-0.183744,-0.171591 LLEG_JOINT2:0.999320,0.023212,0.000000,0.028646 LLEG_JOINT4:0.996599,0.079093,0.000000,-0.023123 RARM_JOINT2:0.813975,0.000000,0.107029,0.570956 RARM_JOINT3:0.900834,0.000000,0.400114,0.168542 RLEG_JOINT2:0.998991,0.026358,0.000000,-0.036368 RLEG_JOINT4:0.994958,0.090288,0.000000,0.043667 WAIST:0.999806,-0.000000,0.017882,0.008201 WAIST_JOINT0:0.999285,-0.000000,0.030106,0.022866 WAIST_JOINT1:0.998451,0.054786,0.000000,-0.009755 END:
KINECT_DATA_Sensor  AnkleLeft:0.068129,0.725011,-0.077119,-0.681007 AnkleRight:0.094316,0.734593,0.069821,0.668284 ElbowLeft:-0.039796,0.881703,-0.192662,-0.428834 ElbowRight:-0.115736,0.867324,0.125036,0.467675 FootLeft:0.000000,0.000000,0.000000,0.000000 FootRight:0.000000,0.000000,0.000000,0.000000 HandLeft:-0.087097,0.737855,-0.037476,0.668266 HandRight:0.121233,0.180849,-0.444882,0.868721 HandTipLeft:0.000000,0.000000,0.000000,0.000000 HandTipRight:0.000000,0.000000,0.000000,0.000000 Head:0.000000,0.000000,0.000000,0.000000 HipLeft:0.109802,-0.678100,0.711790,-0.146555 HipRight:-0.140560,0.680668,0.696038,-0.180180 KneeLeft:0.008959,-0.693919,0.042530,0.718740 KneeRight:-0.002036,0.719989,0.038428,0.692918 Neck:-0.031199,-0.002908,0.997081,-0.069629 ShoulderLeft:0.037347,0.779265,-0.625158,0.022999 ShoulderRight:-0.001494,0.800790,0.594845,-0.069943 SpineBase:-0.018413,-0.000888,0.999306,-0.032377 SpineMid:-0.024731,-0.000684,0.999169,-0.032382 SpineShoulder:-0.031181,-0.001495,0.998272,-0.049793 ThumbLeft:0.000000,0.000000,0.000000,0.000000 ThumbRight:0.000000,0.000000,0.000000,0.000000 WristLeft:-0.092950,0.741079,-0.118758,0.654262 WristRight:0.037615,0.146609,-0.380254,0.912413 END:
KINECT_DATA POSITION:1.562683,-0.420669,-3.018057 HEAD_JOINT1:0.984546,0.159781,-0.000000,0.071693 LARM_JOINT2:0.826822,0.000000,-0.009866,-0.562378 LARM_JOINT3:0.968465,0.000000,-0.187534,-0.164034 LLEG_JOINT2:0.999514,0.022725,0.000000,0.021361 LLEG_JOINT4:0.996849,0.077359,0.000000,-0.017515 RARM_JOINT2:0.809516,0.000000,0.166659,0.562947 RARM_JOINT3:0.911308,0.000000,0.379350,0.160038 RLEG_JOINT2:0.998591,0.027504,0.000000,-0.045388 RLEG_JOINT4:0.994603,0.090475,0.000000,0.050792 WAIST:0.999674,-0.000000,0.023149,0.010748 WAIST_JOINT0:0.998728,-0.000000,0.043214,0.025965 WAIST_JOINT1:0.998477,0.054418,0.000000,-0.009070 END:
KINECT_DATA_Sensor  AnkleLeft:-0.061532,-0.679473,0.079771,0.726750 AnkleRight:0.095120,0.736066,0.070883,0.666434 ElbowLeft:-0.038303,0.874510,-0.189778,-0.444691 ElbowRight:-0.149495,0.889536,0.097444,0.420572 FootLeft:0.000000,0.000000,0.000000,0.000000 FootRight:0.000000,0.000000,0.000000,0.000000 HandLeft:-0.095896,0.841854,-0.037414,0.529798 HandRight:0.148813,0.152983,-0.435928,0.874310 HandTipLeft:0.000000,0.000000,0.000000,0.000000 HandTipRight:0.000000,0.000000,0.000000,0.000000 Head:0.000000,0.000000,0.000000,0.000000 HipLeft:0.107202,-0.676862,0.713839,-0.144221 HipRight:-0.145389,0.681859,0.693313,-0.182338 KneeLeft:0.005897,-0.690095,0.038740,0.722657 KneeRight:-0.006188,0.723684,0.043652,0.688722 Neck:-0.044263,0.000423,0.996620,-0.069200 ShoulderLeft:0.041084,0.778425,-0.626191,0.015874 ShoulderRight:-0.014475,0.803230,0.589661,-0.083137 SpineBase:-0.023705,0.002799,0.999220,-0.031471 SpineMid:-0.033804,0.003117,0.998929,-0.031441 SpineShoulder:-0.044198,0.001872,0.997803,-0.049326 ThumbLeft:0.000000,0.000000,0.000000,0.000000 ThumbRight:0.000000,0.000000,0.000000,0.000000 WristLeft:-0.109732,0.840751,-0.105271,0.519629 WristRight:0.079420,0.126787,-0.388768,0.909108 END:
KINECT_DATA POSITION:1.934744,-0.458153,-3.062856 HEAD_JOINT1:0.985504,0.157050,-0.000000,0.064166 LARM_JOINT2:0.823387,0.000000,-0.011121,-0.567372 LARM_JOINT3:0.969846,0.000000,-0.183306,-0.160618 LLEG_JOINT2:0.999627,0.023069,0.000000,0.014594 LLEG_JOINT4:0.997000,0.076417,0.000000,-0.012340 RARM_JOINT2:0.805498,0.000000,0.201453,0.557306 RARM_JOINT3:0.919023,0.000000,0.361710,0.156725 RLEG_JOINT2:0.998188,0.029040,0.000000,-0.052709 RLEG_JOINT4:0.994503,0.089345,0.000000,0.054593 WAIST:0.999533,-0.000000,0.027183,0.013976 WAIST_JOINT0:0.998096,-0.000000,0.054272,0.029313 WAIST_JOINT1:0.998523,0.053403,0.000000,-0.010000 END:
KINECT_DATA_Sensor  AnkleLeft:-0.059833,-0.673464,0.080481,0.732386 AnkleRight:0.092976,0.721578,0.074013,0.682058 ElbowLeft:-0.038620,0.871256,-0.185559,-0.452757 ElbowRight:-0.169762,0.901356,0.080264,0.390251 FootLeft:0.000000,0.000000,0.000000,0.000000 FootRight:0.000000,0.000000,0.000000,0.000000 HandLeft:-0.095860,0.859606,-0.028202,0.501091 HandRight:0.160002,0.170408,-0.431587,0.871260 HandTipLeft:0.000000,0.000000,0.000000,0.000000 HandTipRight:0.000000,0.000000,0.000000,0.000000 Head:0.000000,0.000000,0.000000,0.000000 HipLeft:0.105977,-0.675185,0.716098,-0.141770 HipRight:-0.149326,0.683600,0.690307,-0.184034 KneeLeft:0.003157,-0.687088,0.036336,0.725658 KneeRight:-0.008361,0.726557,0.047471,0.685413 Neck:-0.055412,0.002969,0.996139,-0.068028 ShoulderLeft:0.045015,0.777298,-0.627464,0.008375 ShoulderRight:-0.024748,0.805920,0.584156,-0.092962 SpineBase:-0.027835,0.005110,0.999147,-0.030085 SpineMid:-0.041374,0.005517,0.998678,-0.030013 SpineShoulder:-0.055326,0.004292,0.997296,-0.048178 ThumbLeft:0.000000,0.000000,0.000000,0.000000 ThumbRight:0.000000,0.000000,0.000000,0.000000 WristLeft:-0.110313,0.858532,-0.103447,0.489952 WristRight:0.088616,0.143751,-0.390731,0.904883 END:
KINECT_DATA POSITION:2.705650,-0.507349,-3.100681 HEAD_JOINT1:0.988668,0.137085,-0.000000,0.061175 LARM_JOINT2:0.820015,0.000000,-0.019792,-0.571999 LARM_JOINT3:0.969641,0.000000,-0.188634,-0.155609 LLEG_JOINT2:0.999727,0.023277,0.000000,-0.002150 LLEG_JOINT4:0.997317,0.073035,0.000000,-0.004968 RARM_JOINT2:0.799200,0.000000,0.251787,0.545786 RARM_JOINT3:0.931367,0.000000,0.330888,0.151885 RLEG_JOINT2:0.997127,0.035726,0.000000,-0.066800 RLEG_JOINT4:0.995248,0.080851,0.000000,0.054269 WAIST:0.999001,-0.000000,0.038138,0.023286 WAIST_JOINT0:0.997159,-0.000000,0.067560,0.033315 WAIST_JOINT1:0.998216,0.058054,0.000000,-0.013951 END:
KINECT_DATA_Sensor  AnkleLeft:-0.058077,-0.665852,0.077270,0.739796 AnkleRight:0.087435,0.735100,0.076127,0.667973 ElbowLeft:-0.038607,0.867471,-0.184325,-0.460464 ElbowRight:-0.194874,0.918641,0.056635,0.338992 FootLeft:0.000000,0.000000,0.000000,0.000000 FootRight:0.000000,0.000000,0.000000,0.000000 HandLeft:-0.116755,0.866121,-0.044599,0.483956 HandRight:0.163770,0.226438,-0.416523,0.865109 HandTipLeft:0.000000,0.000000,0.000000,0.000000 HandTipRight:0.000000,0.000000,0.000000,0.000000 Head:0.000000,0.000000,0.000000,0.000000 HipLeft:0.099488,-0.669734,0.722963,-0.137415 HipRight:-0.156485,0.687827,0.682441,-0.191525 KneeLeft:-0.002063,-0.678727,0.030699,0.733746 KneeRight:-0.008170,0.734503,0.055187,0.676308 Neck:-0.068876,0.008342,0.994930,-0.072810 ShoulderLeft:0.060948,0.775326,-0.628606,-0.003018 ShoulderRight:-0.025608,0.807718,0.579929,-0.103046 SpineBase:-0.039209,0.010404,0.998699,-0.030907 SpineMid:-0.053694,0.010851,0.998025,-0.030752 SpineShoulder:-0.068772,0.008925,0.996225,-0.052206 ThumbLeft:0.000000,0.000000,0.000000,0.000000 ThumbRight:0.000000,0.000000,0.000000,0.000000 WristLeft:-0.108574,0.867792,-0.104340,0.473563 WristRight:0.088220,0.198577,-0.388157,0.895611 END:
KINECT_DATA POSITION:3.259516,-0.487873,-2.970505 HEAD_JOINT1:0.989972,0.128331,-0.000000,0.059056 LARM_JOINT2:0.818455,0.000000,-0.019358,-0.574245 LARM_JOINT3:0.969767,0.000000,-0.185714,-0.158313 LLEG_JOINT2:0.999569,0.024865,0.000000,-0.015607 LLEG_JOINT4:0.997431,0.071640,0.000000,0.000414 RARM_JOINT2:0.784949,0.000000,0.281619,0.551857 RARM_JOINT3:0.946722,0.000000,0.291207,0.137534 RLEG_JOINT2:0.996213,0.041211,0.000000,-0.076560 RLEG_JOINT4:0.995856,0.074360,0.000000,0.052362 WAIST:0.998486,-0.000000,0.046047,0.030098 WAIST_JOINT0:0.996621,-0.000000,0.074414,0.034786 WAIST_JOINT1:0.998333,0.055694,0.000000,-0.015119 END:
KINECT_DATA_Sensor  AnkleLeft:0.066484,0.730301,-0.069478,-0.676323 AnkleRight:0.083389,0.750731,0.077839,0.650684 ElbowLeft:-0.039615,0.865075,-0.186508,-0.463993 ElbowRight:-0.204148,0.923759,0.021470,0.323312 FootLeft:0.000000,0.000000,0.000000,0.000000 FootRight:0.000000,0.000000,0.000000,0.000000 HandLeft:-0.111226,0.847296,-0.046873,0.517225 HandRight:0.170452,0.275628,-0.391404,0.861265 HandTipLeft:0.000000,0.000000,0.000000,0.000000 HandTipRight:0.000000,0.000000,0.000000,0.000000 Head:0.000000,0.000000,0.000000,0.000000 HipLeft:0.094430,-0.665712,0.728045,-0.133643 HipRight:-0.161346,0.691097,0.676763,-0.195816 KneeLeft:-0.007589,-0.672570,0.026497,0.739520 KneeRight:-0.007414,0.740257,0.060819,0.669527 Neck:-0.075530,0.015541,0.994686,-0.068216 ShoulderLeft:0.068068,0.772617,-0.631079,-0.012992 ShoulderRight:-0.027139,0.807802,0.579542,-0.104168 SpineBase:-0.047399,0.014921,0.998284,-0.030987 SpineMid:-0.061158,0.015346,0.997535,-0.030779 SpineShoulder:-0.075545,0.013397,0.995791,-0.050141 ThumbLeft:0.000000,0.000000,0.000000,0.000000 ThumbRight:0.000000,0.000000,0.000000,0.000000 WristLeft:-0.102759,0.849256,-0.111734,0.505689 WristRight:0.073289,0.237710,-0.381922,0.890089 END:
KINECT_DATA POSITION:3.456612,-0.511767,-2.932656 HEAD_JOINT1:0.989682,0.132441,-0.000000,0.054671 LARM_JOINT2:0.818260,0.000000,-0.012632,-0.574710 LARM_JOINT3:0.969120,0.000000,-0.184826,-0.163237 LLEG_JOINT2:0.999400,0.025564,0.000000,-0.023388 LLEG_JOINT4:0.997602,0.069007,0.000000,0.005254 RARM_JOINT2:0.777074,0.000000,0.287865,0.559723 RARM_JOINT3:0.951872,0.000000,0.272275,0.140731 RLEG_JOINT2:0.995602,0.041890,0.000000,-0.083797 RLEG_JOINT4:0.995634,0.077826,0.000000,0.051528 WAIST:0.998074,-0.000000,0.050986,0.035333 WAIST_JOINT0:0.995614,-0.000000,0.084924,0.039256 WAIST_JOINT1:0.998533,0.052077,0.000000,-0.014842 END:
KINECT_DATA_Sensor  AnkleLeft:-0.056346,-0.655926,0.075532,0.748920 AnkleRight:0.083025,0.749927,0.083386,0.650971 ElbowLeft:-0.038705,0.862580,-0.192117,-0.466422 ElbowRight:-0.202307,0.926675,0.002239,0.316766 FootLeft:0.000000,0.000000,0.000000,0.000000 FootRight:0.000000,0.000000,0.000000,0.000000 HandLeft:-0.107447,0.865723,-0.042145,0.487035 HandRight:0.206642,0.263978,-0.359138,0.870996 HandTipLeft:0.000000,0.000000,0.000000,0.000000 HandTipRight:0.000000,0.000000,0.000000,0.000000 Head:0.000000,0.000000,0.000000,0.000000 HipLeft:0.092429,-0.662889,0.731503,-0.130144 HipRight:-0.165228,0.693940,0.672182,-0.198287 KneeLeft:-0.009639,-0.668681,0.024748,0.743075 KneeRight:-0.009037,0.743775,0.062346,0.665455 Neck:-0.085837,0.021296,0.993942,-0.065254 ShoulderLeft:0.062722,0.770952,-0.633573,-0.016870 ShoulderRight:-0.046160,0.810176,0.572760,-0.115887 SpineBase:-0.052524,0.017191,0.998034,-0.029568 SpineMid:-0.068870,0.017673,0.997039,-0.029283 SpineShoulder:-0.085760,0.018922,0.995079,-0.045877 ThumbLeft:0.000000,0.000000,0.000000,0.000000 ThumbRight:0.000000,0.000000,0.000000,0.000000 WristLeft:-0.104615,0.866436,-0.111009,0.475417 WristRight:0.089614,0.217404,-0.374782,0.896796 END:
KINECT_DATA POSITION:3.487017,-0.510339,-2.877653 HEAD_JOINT1:0.990274,0.130273,-0.000000,0.048858 LARM_JOINT2:0.817508,0.000000,-0.013378,-0.575762 LARM_JOINT3:0.969903,0.000000,-0.181767,-0.162017 LLEG_JOINT2:0.999348,0.026839,0.000000,-0.024158 LLEG_JOINT4:0.997705,0.067321,0.000000,0.007271 RARM_JOINT2:0.774402,0.000000,0.300666,0.556688 RARM_JOINT3:0.949108,0.000000,0.273564,0.156070 RLEG_JOINT2:0.995431,0.044096,0.000000,-0.084688 RLEG_JOINT4:0.995638,0.077057,0.000000,0.052595 WAIST:0.997762,-0.000000,0.055957,0.036602 WAIST_JOINT0:0.994538,-0.000000,0.095139,0.042921 WAIST_JOINT1:0.998560,0.052183,0.000000,-0.012476 END:
KINECT_DATA_Sensor  AnkleLeft:0.063836,0.742404,-0.069098,-0.663315 AnkleRight:0.082806,0.740360,0.085320,0.661613 ElbowLeft:-0.039687,0.858873,-0.194049,-0.472342 ElbowRight:-0.208525,0.938024,-0.001869,0.276813 FootLeft:0.000000,0.000000,0.000000,0.000000 FootRight:0.000000,0.000000,0.000000,0.000000 HandLeft:-0.102490,0.855214,-0.042524,0.506258 HandRight:0.223654,0.297880,-0.380139,0.846605 HandTipLeft:0.000000,0.000000,0.000000,0.000000 HandTipRight:0.000000,0.000000,0.000000,0.000000 Head:0.000000,0.000000,0.000000,0.000000 HipLeft:0.089735,-0.662156,0.732823,-0.128321 HipRight:-0.169132,0.693916,0.670523,-0.200681 KneeLeft:-0.010202,-0.664900,0.025746,0.746419 KneeRight:-0.007759,0.747232,0.063517,0.661476 Neck:-0.096584,0.024029,0.992890,-0.065298 ShoulderLeft:0.068993,0.766813,-0.637686,-0.024380 ShoulderRight:-0.053599,0.811374,0.568556,-0.124676 SpineBase:-0.057482,0.019683,0.997720,-0.029378 SpineMid:-0.076630,0.020244,0.996432,-0.028995 SpineShoulder:-0.096366,0.022877,0.994031,-0.045740 ThumbLeft:0.000000,0.000000,0.000000,0.000000 ThumbRight:0.000000,0.000000,0.000000,0.000000 WristLeft:-0.096820,0.856449,-0.117750,0.493210 WristRight:0.101684,0.251332,-0.373539,0.887109 END:
KINECT_DATA POSITION:3.205576,-0.544532,-2.774823 HEAD_JOINT1:0.989423,0.137850,-0.000000,0.045167 LARM_JOINT2:0.818073,0.000000,-0.008938,-0.575046 LARM_JOINT3:0.968451,0.000000,-0.186394,-0.165410 LLEG_JOINT2:0.999533,0.027109,0.000000,-0.014136 LLEG_JOINT4:0.997770,0.066675,0.000000,-0.003154 RARM_JOINT2:0.774010,0.000000,0.305564,0.554562 RARM_JOINT3:0.944291,0.000000,0.285935,0.162959 RLEG_JOINT2:0.995900,0.045117,0.000000,-0.078410 RLEG_JOINT4:0.995778,0.075655,0.000000,0.051985 WAIST:0.997621,-0.000000,0.060225,0.033542 WAIST_JOINT0:0.993931,-0.000000,0.101049,0.043484 WAIST_JOINT1:0.998693,0.050045,0.000000,-0.010411 END:
KINECT_DATA_Sensor  AnkleLeft:0.065327,0.734107,-0.066271,-0.672627 AnkleRight:0.082862,0.733087,0.084963,0.669701 ElbowLeft:-0.038448,0.854169,-0.194604,-0.480672 ElbowRight:-0.214397,0.945647,0.001733,0.244504 FootLeft:0.000000,0.000000,0.000000,0.000000 FootRight:0.000000,0.000000,0.000000,0.000000 HandLeft:-0.127732,0.848503,-0.040821,0.511918 HandRight:0.238752,0.254754,-0.407806,0.843678 HandTipLeft:0.000000,0.000000,0.000000,0.000000 HandTipRight:0.000000,0.000000,0.000000,0.000000 Head:0.000000,0.000000,0.000000,0.000000 HipLeft:0.090690,-0.664558,0.730881,-0.126300 HipRight:-0.174780,0.691384,0.671248,-0.202153 KneeLeft:-0.005930,-0.661932,0.031104,0.748895 KneeRight:-0.004932,0.749929,0.062117,0.658577 Neck:-0.102712,0.022800,0.992433,-0.063301 ShoulderLeft:0.066099,0.765152,-0.639940,-0.025503 ShoulderRight:-0.064915,0.810287,0.567203,-0.132292 SpineBase:-0.061461,0.019293,0.997564,-0.026767 SpineMid:-0.081654,0.019831,0.996114,-0.026371 SpineShoulder:-0.102500,0.021870,0.993534,-0.043645 ThumbLeft:0.000000,0.000000,0.000000,0.000000 ThumbRight:0.000000,0.000000,0.000000,0.000000 WristLeft:-0.092649,0.855706,-0.120562,0.494619 WristRight:0.138122,0.222354,-0.368477,0.892023 END:
KINECT_DATA POSITION:2.903597,-0.604367,-2.539504 HEAD_JOINT1:0.989016,0.141031,-0.000000,0.044243 LARM_JOINT2:0.818271,0.000000,-0.008333,-0.574772 LARM_JOINT3:0.966686,0.000000,-0.193614,-0.167425 LLEG_JOINT2:0.999619,0.027200,0.000000,-0.004761 LLEG_JOINT4:0.997771,0.066482,0.000000,-0.005736 RARM_JOINT2:0.774813,0.000000,0.311965,0.549857 RARM_JOINT3:0.943555,0.000000,0.286921,0.165467 RLEG_JOINT2:0.996368,0.045882,0.000000,-0.071731 RLEG_JOINT4:0.995663,0.074875,0.000000,0.055224 WAIST:0.997456,-0.000000,0.064972,0.029321 WAIST_JOINT0:0.993539,-0.000000,0.104746,0.043680 WAIST_JOINT1:0.998796,0.048385,0.000000,-0.008033 END:
KINECT_DATA_Sensor  AnkleLeft:0.064411,0.733085,-0.067832,-0.673674 AnkleRight:0.085357,0.723883,0.083272,0.679539 ElbowLeft:-0.037943,0.852158,-0.193034,-0.484897 ElbowRight:-0.222486,0.946940,0.002877,0.231940 FootLeft:0.000000,0.000000,0.000000,0.000000 FootRight:0.000000,0.000000,0.000000,0.000000 HandLeft:-0.150926,0.855719,-0.048839,0.492525 HandRight:0.223144,0.272256,-0.404827,0.843919 HandTipLeft:0.000000,0.000000,0.000000,0.000000 HandTipRight:0.000000,0.000000,0.000000,0.000000 Head:0.000000,0.000000,0.000000,0.000000 HipLeft:0.090816,-0.667763,0.728559,-0.122666 HipRight:-0.180178,0.687716,0.673022,-0.204019 KneeLeft:-0.002846,-0.658595,0.035084,0.751674 KneeRight:-0.002803,0.752835,0.061116,0.655360 Neck:-0.106409,0.021278,0.992141,-0.062290 ShoulderLeft:0.065246,0.764881,-0.640276,-0.027321 ShoulderRight:-0.070726,0.810029,0.565992,-0.136029 SpineBase:-0.065937,0.016985,0.997388,-0.024119 SpineMid:-0.085797,0.017462,0.995876,-0.023776 SpineShoulder:-0.106282,0.019633,0.993253,-0.042038 ThumbLeft:0.000000,0.000000,0.000000,0.000000 ThumbRight:0.000000,0.000000,0.000000,0.000000 WristLeft:-0.097794,0.866182,-0.118597,0.475499 WristRight:0.138292,0.245291,-0.377146,0.882309 END:
KINECT_DATA POSITION:2.804859,-0.633902,-2.357638 HEAD_JOINT1:0.988693,0.143485,-0.000000,0.043565 LARM_JOINT2:0.819284,0.000000,-0.003499,-0.573377 LARM_JOINT3:0.966015,0.000000,-0.195576,-0.169009 LLEG_JOINT2:0.999628,0.027243,0.000000,-0.001478 LLEG_JOINT4:0.997431,0.071564,0.000000,-0.003218 RARM_JOINT2:0.775676,0.000000,0.315147,0.546817 RARM_JOINT3:0.943472,0.000000,0.287265,0.165344 RLEG_JOINT2:0.996525,0.047353,0.000000,-0.068529 RLEG_JOINT4:0.995550,0.077332,0.000000,0.053858 WAIST:0.997328,-0.000000,0.067652,0.027552 WAIST_JOINT0:0.993623,-0.000000,0.104373,0.042657 WAIST_JOINT1:0.998865,0.047116,0.000000,-0.006993 END:
KINECT_DATA_Sensor  AnkleLeft:0.068105,0.745130,-0.072450,-0.659465 AnkleRight:0.089339,0.738150,0.084810,0.663295 ElbowLeft:-0.035562,0.849758,-0.195075,-0.488459 ElbowRight:-0.227327,0.947680,0.004020,0.224071 FootLeft:0.000000,0.000000,0.000000,0.000000 FootRight:0.000000,0.000000,0.000000,0.000000 HandLeft:-0.146897,0.854168,-0.053676,0.495920 HandRight:0.215140,0.280632,-0.409927,0.840786 HandTipLeft:0.000000,0.000000,0.000000,0.000000 HandTipRight:0.000000,0.000000,0.000000,0.000000 Head:0.000000,0.000000,0.000000,0.000000 HipLeft:0.090702,-0.669188,0.727715,-0.119963 HipRight:-0.183249,0.686158,0.673633,-0.204512 KneeLeft:-0.002013,-0.656673,0.036271,0.753300 KneeRight:-0.000893,0.754512,0.061297,0.653417 Neck:-0.105800,0.020563,0.992276,-0.061410 ShoulderLeft:0.060699,0.766615,-0.638731,-0.025299 ShoulderRight:-0.074712,0.809830,0.565514,-0.137065 SpineBase:-0.068483,0.016121,0.997275,-0.022193 SpineMid:-0.086796,0.016526,0.995848,-0.021893 SpineShoulder:-0.105707,0.018589,0.993385,-0.040827 ThumbLeft:0.000000,0.000000,0.000000,0.000000 ThumbRight:0.000000,0.000000,0.000000,0.000000 WristLeft:-0.097840,0.863507,-0.119328,0.480150 WristRight:0.136829,0.256712,-0.380136,0.877994 END:
KINECT_DATA POSITION:2.697210,-0.631638,-2.392054 HEAD_JOINT1:0.988204,0.146895,-0.000000,0.043301 LARM_JOINT2:0.819495,0.000000,-0.003372,-0.573076 LARM_JOINT3:0.966655,0.000000,-0.194628,-0.166427 LLEG_JOINT2:0.999647,0.026468,0.000000,0.002386 LLEG_JOINT4:0.997487,0.070472,0.000000,-0.007310 RARM_JOINT2:0.799844,0.000000,0.271911,0.535084 RARM_JOINT3:0.908295,0.000000,0.362883,0.208125 RLEG_JOINT2:0.996752,0.046608,0.000000,-0.065677 RLEG_JOINT4:0.995734,0.076309,0.000000,0.051865 WAIST:0.997468,-0.000000,0.066260,0.025826 WAIST_JOINT0:0.993586,-0.000000,0.104717,0.042684 WAIST_JOINT1:0.998871,0.047076,0.000000,-0.006319 END:
KINECT_DATA_Sensor  AnkleLeft:-0.056968,-0.644383,0.078921,0.758483 AnkleRight:0.086698,0.729010,0.085130,0.673632 ElbowLeft:-0.035763,0.849676,-0.194420,-0.488848 ElbowRight:-0.216540,0.942046,0.045621,0.252146 FootLeft:0.000000,0.000000,0.000000,0.000000 FootRight:0.000000,0.000000,0.000000,0.000000 HandLeft:-0.139845,0.856173,-0.056142,0.494225 HandRight:0.260735,0.252477,-0.442716,0.819924 HandTipLeft:0.000000,0.000000,0.000000,0.000000 HandTipRight:0.000000,0.000000,0.000000,0.000000 Head:0.000000,0.000000,0.000000,0.000000 HipLeft:0.091123,-0.670103,0.726645,-0.121023 HipRight:-0.181854,0.685022,0.675248,-0.204237 KneeLeft:-0.000086,-0.657796,0.037477,0.752263 KneeRight:-0.000350,0.753508,0.060102,0.654686 Neck:-0.106214,0.019071,0.992257,-0.061490 ShoulderLeft:0.061151,0.766416,-0.638914,-0.025590 ShoulderRight:-0.074726,0.809662,0.565695,-0.137307 SpineBase:-0.067066,0.014842,0.997374,-0.022975 SpineMid:-0.086294,0.015283,0.995894,-0.022684 SpineShoulder:-0.106087,0.017882,0.993357,-0.040835 ThumbLeft:0.000000,0.000000,0.000000,0.000000 ThumbRight:0.000000,0.000000,0.000000,0.000000 WristLeft:-0.098194,0.863729,-0.119258,0.479696 WristRight:0.175303,0.225751,-0.404150,0.868889 END:
KINECT_DATA POSITION:2.571645,-0.565585,-2.619064 HEAD_JOINT1:0.987027,0.154619,-0.000000,0.043264 LARM_JOINT2:0.820724,0.000000,-0.002061,-0.571322 LARM_JOINT3:0.967455,0.000000,-0.194123,-0.162317 LLEG_JOINT2:0.999663,0.024855,0.000000,0.007509 LLEG_JOINT4:0.997314,0.072773,0.000000,-0.008294 RARM_JOINT2:0.857597,0.000000,0.253588,0.447461 RARM_JOINT3:0.841949,0.000000,0.444943,0.305201 RLEG_JOINT2:0.997282,0.039519,0.000000,-0.062184 RLEG_JOINT4:0.994991,0.083933,0.000000,0.054300 WAIST:0.998058,-0.000000,0.058563,0.021229 WAIST_JOINT0:0.994053,-0.000000,0.100878,0.041011 WAIST_JOINT1:0.998803,0.048657,0.000000,-0.004910 END:
KINECT_DATA_Sensor  AnkleLeft:0.067673,0.745180,-0.071402,-0.659567 AnkleRight:0.089183,0.724110,0.084193,0.678692 ElbowLeft:-0.035894,0.849158,-0.194072,-0.489877 ElbowRight:-0.252116,0.935025,0.162385,0.189200 FootLeft:0.000000,0.000000,0.000000,0.000000 FootRight:0.000000,0.000000,0.000000,0.000000 HandLeft:-0.131691,0.864868,-0.050736,0.481755 HandRight:0.233896,0.251259,-0.503536,0.792851 HandTipLeft:0.000000,0.000000,0.000000,0.000000 HandTipRight:0.000000,0.000000,0.000000,0.000000 Head:0.000000,0.000000,0.000000,0.000000 HipLeft:0.092365,-0.671989,0.723838,-0.126328 HipRight:-0.174343,0.682780,0.680578,-0.200575 KneeLeft:0.001419,-0.663735,0.037128,0.747045 KneeRight:-0.005108,0.748161,0.055878,0.661141 Neck:-0.102494,0.014784,0.992556,-0.064095 ShoulderLeft:0.062039,0.766605,-0.638692,-0.023233 ShoulderRight:-0.068800,0.808054,0.569585,-0.133744 SpineBase:-0.059290,0.012863,0.997808,-0.026411 SpineMid:-0.080501,0.013422,0.996321,-0.026131 SpineShoulder:-0.102267,0.015752,0.993730,-0.042360 ThumbLeft:0.000000,0.000000,0.000000,0.000000 ThumbRight:0.000000,0.000000,0.000000,0.000000 WristLeft:-0.099111,0.870594,-0.118249,0.467183 WristRight:0.224234,0.281006,-0.418467,0.834050 END:
KINECT_DATA POSITION:2.886107,-0.536660,-2.641666 HEAD_JOINT1:0.986571,0.156813,-0.000000,0.045679 LARM_JOINT2:0.820164,0.000000,-0.003505,-0.572118 LARM_JOINT3:0.965166,0.000000,-0.200783,-0.167753 LLEG_JOINT2:0.999642,0.026714,0.000000,0.001660 LLEG_JOINT4:0.997552,0.069565,0.000000,-0.007118 RARM_JOINT2:0.851163,0.000000,0.294715,0.434355 RARM_JOINT3:0.881662,0.000000,0.390855,0.264394 RLEG_JOINT2:0.996925,0.040476,0.000000,-0.067099 RLEG_JOINT4:0.994985,0.082157,0.000000,0.057056 WAIST:0.998221,-0.000000,0.055530,0.021726 WAIST_JOINT0:0.994531,-0.000000,0.096791,0.039244 WAIST_JOINT1:0.998785,0.049016,0.000000,-0.005027 END:
KINECT_DATA_Sensor  AnkleLeft:0.067007,0.730520,-0.069193,-0.676064 AnkleRight:0.090236,0.742666,0.081631,0.658514 ElbowLeft:-0.036512,0.851947,-0.193191,-0.485315 ElbowRight:-0.278700,0.935047,0.151948,0.157879 FootLeft:0.000000,0.000000,0.000000,0.000000 FootRight:0.000000,0.000000,0.000000,0.000000 HandLeft:-0.163449,0.852272,-0.047669,0.494616 HandRight:0.170391,0.274272,-0.483550,0.813585 HandTipLeft:0.000000,0.000000,0.000000,0.000000 HandTipRight:0.000000,0.000000,0.000000,0.000000 Head:0.000000,0.000000,0.000000,0.000000 HipLeft:0.093106,-0.671604,0.723771,-0.128198 HipRight:-0.173251,0.684200,0.680263,-0.197729 KneeLeft:-0.003444,-0.665944,0.034401,0.745201 KneeRight:-0.007545,0.746211,0.059591,0.662994 Neck:-0.098266,0.014883,0.992978,-0.064167 ShoulderLeft:0.060604,0.767585,-0.637737,-0.020785 ShoulderRight:-0.064756,0.807066,0.572367,-0.129799 SpineBase:-0.056201,0.015867,0.997949,-0.026215 SpineMid:-0.076750,0.016404,0.996579,-0.025882 SpineShoulder:-0.097991,0.016327,0.994131,-0.042828 ThumbLeft:0.000000,0.000000,0.000000,0.000000 ThumbRight:0.000000,0.000000,0.000000,0.000000 WristLeft:-0.099833,0.865464,-0.117503,0.476653 WristRight:0.167588,0.300385,-0.402933,0.848133 END:
KINECT_DATA POSITION:3.137954,-0.579397,-2.573597 HEAD_JOINT1:0.986255,0.158354,-0.000000,0.047164 LARM_JOINT2:0.819457,0.000000,-0.002051,-0.573137 LARM_JOINT3:0.965986,0.000000,-0.192539,-0.172626 LLEG_JOINT2:0.999552,0.028932,0.000000,-0.007666 LLEG_JOINT4:0.997833,0.065772,0.000000,-0.001746 RARM_JOINT2:0.827896,0.000000,0.357545,0.432146 RARM_JOINT3:0.921357,0.000000,0.306884,0.238586 RLEG_JOINT2:0.996215,0.043277,0.000000,-0.075379 RLEG_JOINT4:0.995010,0.079481,0.000000,0.060317 WAIST:0.998209,-0.000000,0.053475,0.026825 WAIST_JOINT0:0.994662,-0.000000,0.094903,0.040518 WAIST_JOINT1:0.998841,0.047548,0.000000,-0.007519 END:
KINECT_DATA_Sensor  AnkleLeft:-0.056389,-0.650165,0.076142,0.753862 AnkleRight:0.092816,0.761276,0.078508,0.636930 ElbowLeft:-0.036192,0.856512,-0.194496,-0.476705 ElbowRight:-0.306683,0.940346,0.124780,0.078256 FootLeft:0.000000,0.000000,0.000000,0.000000 FootRight:0.000000,0.000000,0.000000,0.000000 HandLeft:-0.123888,0.655225,-0.076120,0.741308 HandRight:0.134211,0.305650,-0.452889,0.826715 HandTipLeft:0.000000,0.000000,0.000000,0.000000 HandTipRight:0.000000,0.000000,0.000000,0.000000 Head:0.000000,0.000000,0.000000,0.000000 HipLeft:0.095010,-0.668362,0.726428,-0.128714 HipRight:-0.173311,0.688388,0.676560,-0.195837 KneeLeft:-0.007671,-0.667199,0.032587,0.744127 KneeRight:-0.008055,0.745121,0.063666,0.663835 Neck:-0.096137,0.019179,0.993310,-0.061029 ShoulderLeft:0.055363,0.768406,-0.637308,-0.018030 ShoulderRight:-0.067611,0.809004,0.569403,-0.129309 SpineBase:-0.054288,0.019069,0.998038,-0.024680 SpineMid:-0.074719,0.019570,0.996717,-0.024285 SpineShoulder:-0.095959,0.018522,0.994343,-0.041591 ThumbLeft:0.000000,0.000000,0.000000,0.000000 ThumbRight:0.000000,0.000000,0.000000,0.000000 WristLeft:-0.057933,0.658106,-0.141645,0.737209 WristRight:0.132326,0.328404,-0.373375,0.857457 END:
KINECT_DATA POSITION:3.198859,-0.566078,-2.568018 HEAD_JOINT1:0.985798,0.160161,-0.000000,0.050515 LARM_JOINT2:0.819820,0.000000,0.002664,-0.572616 LARM_JOINT3:0.965069,0.000000,-0.193061,-0.177112 LLEG_JOINT2:0.999516,0.029421,0.000000,-0.010126 LLEG_JOINT4:0.997749,0.067048,0.000000,-0.001413 RARM_JOINT2:0.849209,0.000000,0.317581,0.421884 RARM_JOINT3:0.887017,0.000000,0.373769,0.271104 RLEG_JOINT2:0.996015,0.043968,0.000000,-0.077589 RLEG_JOINT4:0.995108,0.079232,0.000000,0.059020 WAIST:0.998233,-0.000000,0.052415,0.027976 WAIST_JOINT0:0.995137,-0.000000,0.089694,0.040721 WAIST_JOINT1:0.998854,0.047406,0.000000,-0.006544 END:
KINECT_DATA_Sensor  AnkleLeft:0.067769,0.743796,-0.068389,-0.661437 AnkleRight:0.091278,0.758917,0.080595,0.639701 ElbowLeft:-0.033494,0.857617,-0.198520,-0.473246 ElbowRight:-0.293678,0.935576,0.152107,0.123749 FootLeft:0.000000,0.000000,0.000000,0.000000 FootRight:0.000000,0.000000,0.000000,0.000000 HandLeft:-0.139386,0.856246,-0.030687,0.496460 HandRight:0.188604,0.311364,-0.493189,0.790092 HandTipLeft:0.000000,0.000000,0.000000,0.000000 HandTipRight:0.000000,0.000000,0.000000,0.000000 Head:0.000000,0.000000,0.000000,0.000000 HipLeft:0.095414,-0.667471,0.727102,-0.129239 HipRight:-0.172720,0.689426,0.675943,-0.194835 KneeLeft:-0.008850,-0.667913,0.031928,0.743502 KneeRight:-0.008326,0.744492,0.064880,0.664420 Neck:-0.090756,0.021804,0.993763,-0.061010 ShoulderLeft:0.049850,0.769382,-0.636713,-0.012774 ShoulderRight:-0.066460,0.809967,0.568883,-0.126129 SpineBase:-0.053255,0.020164,0.998075,-0.024556 SpineMid:-0.071546,0.020610,0.996931,-0.024182 SpineShoulder:-0.090589,0.020285,0.994817,-0.041492 ThumbLeft:0.000000,0.000000,0.000000,0.000000 ThumbRight:0.000000,0.000000,0.000000,0.000000 WristLeft:-0.100700,0.865029,-0.112854,0.478380 WristRight:0.147238,0.324406,-0.391562,0.848387 END:
KINECT_DATA POSITION:3.102319,-0.546440,-2.585173 HEAD_JOINT1:0.987084,0.149921,-0.000000,0.056469 LARM_JOINT2:0.820752,0.000000,-0.005487,-0.571259 LARM_JOINT3:0.963394,0.000000,-0.200234,-0.178265 LLEG_JOINT2:0.999557,0.028682,0.000000,-0.007943 LLEG_JOINT4:0.997895,0.064785,0.000000,-0.002788 RARM_JOINT2:0.861165,0.000000,0.296452,0.412931 RARM_JOINT3:0.866260,0.000000,0.408262,0.287951 RLEG_JOINT2:0.996310,0.041801,0.000000,-0.074962 RLEG_JOINT4:0.995008,0.079708,0.000000,0.060045 WAIST:0.998420,-0.000000,0.049828,0.025982 WAIST_JOINT0:0.995473,-0.000000,0.086015,0.040442 WAIST_JOINT1:0.998653,0.051602,0.000000,-0.005432 END:
KINECT_DATA_Sensor  AnkleLeft:0.066148,0.747449,-0.065800,-0.657735 AnkleRight:0.091605,0.757063,0.078140,0.642151 ElbowLeft:-0.034379,0.864443,-0.198485,-0.460610 ElbowRight:-0.285821,0.930430,0.171056,0.152798 FootLeft:0.000000,0.000000,0.000000,0.000000 FootRight:0.000000,0.000000,0.000000,0.000000 HandLeft:-0.158013,0.869745,-0.039025,0.465889 HandRight:0.207958,0.300044,-0.487932,0.792874 HandTipLeft:0.000000,0.000000,0.000000,0.000000 HandTipRight:0.000000,0.000000,0.000000,0.000000 Head:0.000000,0.000000,0.000000,0.000000 HipLeft:0.094451,-0.668329,0.726116,-0.131037 HipRight:-0.168577,0.688446,0.678427,-0.193289 KneeLeft:-0.008217,-0.669922,0.031717,0.741708 KneeRight:-0.009031,0.742641,0.062989,0.666659 Neck:-0.087307,0.020003,0.993828,-0.065452 ShoulderLeft:0.056200,0.769733,-0.635779,-0.011780 ShoulderRight:-0.055049,0.810186,0.570669,-0.122086 SpineBase:-0.050652,0.019381,0.998170,-0.026746 SpineMid:-0.068492,0.019856,0.997105,-0.026395 SpineShoulder:-0.087076,0.019726,0.994954,-0.045771 ThumbLeft:0.000000,0.000000,0.000000,0.000000 ThumbRight:0.000000,0.000000,0.000000,0.000000 WristLeft:-0.109557,0.879710,-0.104528,0.450758 WristRight:0.163658,0.307376,-0.403861,0.845951 END:
KINECT_DATA POSITION:3.083024,-0.548884,-2.573097 HEAD_JOINT1:0.986100,0.156071,-0.000000,0.056990 LARM_JOINT2:0.820513,0.000000,-0.003021,-0.571620 LARM_JOINT3:0.964847,0.000000,-0.196945,-0.174021 LLEG_JOINT2:0.999556,0.028814,0.000000,-0.007641 LLEG_JOINT4:0.997791,0.066406,0.000000,-0.002014 RARM_JOINT2:0.857188,0.000000,0.303324,0.416202 RARM_JOINT3:0.877543,0.000000,0.388386,0.281203 RLEG_JOINT2:0.996337,0.042279,0.000000,-0.074333 RLEG_JOINT4:0.995047,0.078624,0.000000,0.060826 WAIST:0.998510,-0.000000,0.048161,0.025649 WAIST_JOINT0:0.995593,-0.000000,0.084659,0.040340 WAIST_JOINT1:0.998750,0.049817,0.000000,-0.004005 END:
KINECT_DATA_Sensor  AnkleLeft:0.065990,0.737838,-0.068630,-0.668230 AnkleRight:0.089608,0.734999,0.079763,0.667372 ElbowLeft:-0.034714,0.864789,-0.199177,-0.459633 ElbowRight:-0.286773,0.932950,0.166311,0.140377 FootLeft:0.000000,0.000000,0.000000,0.000000 FootRight:0.000000,0.000000,0.000000,0.000000 HandLeft:-0.139778,0.902973,-0.040777,0.404275 HandRight:0.181173,0.288756,-0.482678,0.806733 HandTipLeft:0.000000,0.000000,0.000000,0.000000 HandTipRight:0.000000,0.000000,0.000000,0.000000 Head:0.000000,0.000000,0.000000,0.000000 HipLeft:0.095718,-0.668512,0.725647,-0.131782 HipRight:-0.168132,0.688699,0.678682,-0.191874 KneeLeft:-0.008325,-0.671170,0.031837,0.740573 KneeRight:-0.008342,0.741537,0.063199,0.667877 Neck:-0.085974,0.021401,0.994052,-0.063341 ShoulderLeft:0.051139,0.770280,-0.635579,-0.009624 ShoulderRight:-0.058661,0.811065,0.569079,-0.121991 SpineBase:-0.048943,0.019758,0.998263,-0.026180 SpineMid:-0.066983,0.020228,0.997215,-0.025819 SpineShoulder:-0.085735,0.020891,0.995121,-0.044134 ThumbLeft:0.000000,0.000000,0.000000,0.000000 ThumbRight:0.000000,0.000000,0.000000,0.000000 WristLeft:-0.116927,0.906788,-0.097261,0.393196 WristRight:0.162736,0.309332,-0.396048,0.849103 END:
KINECT_DATA POSITION:3.129272,-0.567015,-2.537560 HEAD_JOINT1:0.985774,0.158949,-0.000000,0.054636 LARM_JOINT2:0.819702,0.000000,-0.000427,-0.572790 LARM_JOINT3:0.966607,0.000000,-0.186380,-0.175879 LLEG_JOINT2:0.999505,0.029493,0.000000,-0.010979 LLEG_JOINT4:0.997705,0.067687,0.000000,-0.001606 RARM_JOINT2:0.827001,0.000000,0.355465,0.435561 RARM_JOINT3:0.923307,0.000000,0.296169,0.244515 RLEG_JOINT2:0.996049,0.043138,0.000000,-0.077622 RLEG_JOINT4:0.995001,0.080074,0.000000,0.059683 WAIST:0.998348,-0.000000,0.049797,0.028671 WAIST_JOINT0:0.995136,-0.000000,0.088824,0.042605 WAIST_JOINT1:0.998813,0.048433,0.000000,-0.005105 END:
KINECT_DATA_Sensor  AnkleLeft:0.067094,0.732910,-0.069993,-0.673381 AnkleRight:0.089324,0.731775,0.082993,0.670551 ElbowLeft:-0.034448,0.862646,-0.199865,-0.463367 ElbowRight:-0.300817,0.942621,0.122735,0.076882 FootLeft:0.000000,0.000000,0.000000,0.000000 FootRight:0.000000,0.000000,0.000000,0.000000 HandLeft:-0.095948,0.699917,-0.058227,0.705351 HandRight:0.125664,0.317758,-0.433443,0.833886 HandTipLeft:0.000000,0.000000,0.000000,0.000000 HandTipRight:0.000000,0.000000,0.000000,0.000000 Head:0.000000,0.000000,0.000000,0.000000 HipLeft:0.095830,-0.667184,0.726992,-0.131012 HipRight:-0.170253,0.690744,0.675587,-0.193569 KneeLeft:-0.008951,-0.669817,0.031910,0.741786 KneeRight:-0.008201,0.742774,0.063868,0.666439 Neck:-0.090006,0.023654,0.993753,-0.061592 ShoulderLeft:0.051705,0.768458,-0.637681,-0.012722 ShoulderRight:-0.063499,0.811234,0.567671,-0.124964 SpineBase:-0.050686,0.020809,0.998175,-0.025404 SpineMid:-0.069869,0.021293,0.997016,-0.024999 SpineShoulder:-0.089762,0.022764,0.994791,-0.042618 ThumbLeft:0.000000,0.000000,0.000000,0.000000 ThumbRight:0.000000,0.000000,0.000000,0.000000 WristLeft:-0.071794,0.708439,-0.133592,0.689284 WristRight:0.131183,0.338608,-0.370033,0.855109 END:
KINECT_DATA POSITION:3.184904,-0.604873,-2.507019 HEAD_JOINT1:0.985735,0.159812,-0.000000,0.052783 LARM_JOINT2:0.817897,0.000000,0.000987,-0.575363 LARM_JOINT3:0.966967,0.000000,-0.184945,-0.175415 LLEG_JOINT2:0.999423,0.029677,0.000000,-0.016507 LLEG_JOINT4:0.997773,0.066696,0.000000,0.001076 RARM_JOINT2:0.786972,0.000000,0.326773,0.523350 RARM_JOINT3:0.954494,0.000000,0.266435,0.133991 RLEG_JOINT2:0.995557,0.044789,0.000000,-0.082827 RLEG_JOINT4:0.995053,0.080330,0.000000,0.058454 WAIST:0.997940,-0.000000,0.054706,0.033519 WAIST_JOINT0:0.994158,-0.000000,0.097611,0.046056 WAIST_JOINT1:0.998816,0.047959,0.000000,-0.008102 END:
KINECT_DATA_Sensor  AnkleLeft:0.065158,0.728411,-0.070654,-0.678366 AnkleRight:0.089119,0.738400,0.085195,0.662997 ElbowLeft:-0.033034,0.859385,-0.198926,-0.469888 ElbowRight:-0.246259,0.932413,0.007975,0.264384 FootLeft:0.000000,0.000000,0.000000,0.000000 FootRight:0.000000,0.000000,0.000000,0.000000 HandLeft:-0.095392,0.621678,-0.067115,0.774540 HandRight:0.131419,0.338962,-0.414721,0.834170 HandTipLeft:0.000000,0.000000,0.000000,0.000000 HandTipRight:0.000000,0.000000,0.000000,0.000000 Head:0.000000,0.000000,0.000000,0.000000 HipLeft:0.094104,-0.665162,0.729488,-0.128650 HipRight:-0.173963,0.693578,0.670563,-0.197566 KneeLeft:-0.009398,-0.665972,0.031198,0.745265 KneeRight:-0.007964,0.746279,0.065012,0.662403 Neck:-0.098772,0.025666,0.992920,-0.060785 ShoulderLeft:0.053442,0.766702,-0.639545,-0.017153 ShoulderRight:-0.073292,0.812296,0.562956,-0.133731 SpineBase:-0.055783,0.022221,0.997888,-0.024794 SpineMid:-0.076763,0.022738,0.996493,-0.024321 SpineShoulder:-0.098525,0.024474,0.993956,-0.041772 ThumbLeft:0.000000,0.000000,0.000000,0.000000 ThumbRight:0.000000,0.000000,0.000000,0.000000 WristLeft:-0.050792,0.622883,-0.140775,0.767867 WristRight:0.050301,0.308333,-0.392770,0.864946 END:
KINECT_DATA POSITION:3.398493,-0.586681,-2.492416 HEAD_JOINT1:0.985678,0.160429,-0.000000,0.051978 LARM_JOINT2:0.816298,0.000000,-0.000863,-0.577630 LARM_JOINT3:0.968298,0.000000,-0.181963,-0.171142 LLEG_JOINT2:0.999248,0.029552,0.000000,-0.025118 LLEG_JOINT4:0.997675,0.068042,0.000000,0.003871 RARM_JOINT2:0.782259,0.000000,0.324256,0.531910 RARM_JOINT3:0.955335,0.000000,0.265775,0.129221 RLEG_JOINT2:0.995018,0.048435,0.000000,-0.087141 RLEG_JOINT4:0.995427,0.076648,0.000000,0.057004 WAIST:0.997388,-0.000000,0.061423,0.037999 WAIST_JOINT0:0.993440,-0.000000,0.103909,0.047740 WAIST_JOINT1:0.998797,0.047790,0.000000,-0.010997 END:
KINECT_DATA_Sensor  AnkleLeft:-0.058965,-0.644437,0.076491,0.758534 AnkleRight:0.086014,0.734351,0.087461,0.667594 ElbowLeft:-0.033871,0.854742,-0.197128,-0.478967 ElbowRight:-0.239155,0.932660,-0.003928,0.270065 FootLeft:0.000000,0.000000,0.000000,0.000000 FootRight:0.000000,0.000000,0.000000,0.000000 HandLeft:-0.094427,0.688017,-0.058196,0.717168 HandRight:0.162813,0.312896,-0.414163,0.839081 HandTipLeft:0.000000,0.000000,0.000000,0.000000 HandTipRight:0.000000,0.000000,0.000000,0.000000 Head:0.000000,0.000000,0.000000,0.000000 HipLeft:0.088969,-0.662136,0.733750,-0.123575 HipRight:-0.177768,0.695105,0.667313,-0.199802 KneeLeft:-0.011884,-0.660735,0.027609,0.750017 KneeRight:-0.006200,0.751067,0.067224,0.656765 Neck:-0.105018,0.027120,0.992268,-0.060334 ShoulderLeft:0.058501,0.765117,-0.640810,-0.023175 ShoulderRight:-0.076164,0.812300,0.561646,-0.137555 SpineBase:-0.062616,0.025439,0.997420,-0.024211 SpineMid:-0.083238,0.025935,0.995911,-0.023679 SpineShoulder:-0.104775,0.025632,0.993307,-0.041307 ThumbLeft:0.000000,0.000000,0.000000,0.000000 ThumbRight:0.000000,0.000000,0.000000,0.000000 WristLeft:-0.061320,0.699389,-0.137447,0.698715 WristRight:0.068513,0.277269,-0.388488,0.876074 END:
KINECT_DATA POSITION:3.442509,-0.560154,-2.526498 HEAD_JOINT1:0.985585,0.161679,-0.000000,0.049822 LARM_JOINT2:0.815065,0.000000,-0.000323,-0.579369 LARM_JOINT3:0.968264,0.000000,-0.181911,-0.171387 LLEG_JOINT2:0.999250,0.029430,0.000000,-0.025168 LLEG_JOINT4:0.997733,0.066718,0.000000,0.008794 RARM_JOINT2:0.805915,0.000000,0.292708,0.514610 RARM_JOINT3:0.930816,0.000000,0.326693,0.163872 RLEG_JOINT2:0.995012,0.047905,0.000000,-0.087495 RLEG_JOINT4:0.995307,0.076427,0.000000,0.059355 WAIST:0.997382,-0.000000,0.061948,0.037308 WAIST_JOINT0:0.993441,-0.000000,0.104024,0.047479 WAIST_JOINT1:0.998810,0.047783,0.000000,-0.009761 END:
KINECT_DATA_Sensor  AnkleLeft:0.064866,0.737236,-0.070776,-0.668780 AnkleRight:0.086670,0.736069,0.085904,0.665816 ElbowLeft:-0.033080,0.853860,-0.195832,-0.481121 ElbowRight:-0.237329,0.935354,0.040976,0.259052 FootLeft:0.000000,0.000000,0.000000,0.000000 FootRight:0.000000,0.000000,0.000000,0.000000 HandLeft:-0.115171,0.883014,-0.019713,0.454570 HandRight:0.164874,0.303772,-0.466473,0.814213 HandTipLeft:0.000000,0.000000,0.000000,0.000000 HandTipRight:0.000000,0.000000,0.000000,0.000000 Head:0.000000,0.000000,0.000000,0.000000 HipLeft:0.088320,-0.662201,0.733769,-0.123584 HipRight:-0.178218,0.694294,0.668048,-0.199765 KneeLeft:-0.012314,-0.660354,0.026983,0.750368 KneeRight:-0.007348,0.751388,0.067537,0.656354 Neck:-0.105371,0.027568,0.992208,-0.060497 ShoulderLeft:0.060548,0.763813,-0.642119,-0.024616 ShoulderRight:-0.074551,0.811690,0.562962,-0.136659 SpineBase:-0.063103,0.026010,0.997368,-0.024470 SpineMid:-0.083654,0.026509,0.995855,-0.023929 SpineShoulder:-0.105111,0.026167,0.993257,-0.041316 ThumbLeft:0.000000,0.000000,0.000000,0.000000 ThumbRight:0.000000,0.000000,0.000000,0.000000 WristLeft:-0.100153,0.886613,-0.110383,0.437838 WristRight:0.094711,0.284764,-0.405904,0.863239 END:
KINECT_DATA POSITION:3.394382,-0.538325,-2.598298 HEAD_JOINT1:0.985395,0.163320,-0.000000,0.048192 LARM_JOINT2:0.814730,0.000000,0.001286,-0.579839 LARM_JOINT3:0.965679,0.000000,-0.192778,-0.174070 LLEG_JOINT2:0.999351,0.029202,0.000000,-0.021078 LLEG_JOINT4:0.997812,0.065587,0.000000,0.008287 RARM_JOINT2:0.840066,0.000000,0.233779,0.489526 RARM_JOINT3:0.887176,0.000000,0.405067,0.220996 RLEG_JOINT2:0.995342,0.045298,0.000000,-0.085102 RLEG_JOINT4:0.995312,0.075627,0.000000,0.060281 WAIST:0.997781,-0.000000,0.057523,0.033537 WAIST_JOINT0:0.994021,-0.000000,0.099534,0.044893 WAIST_JOINT1:0.998826,0.047985,0.000000,-0.006667 END:
KINECT_DATA_Sensor  AnkleLeft:0.063552,0.737491,-0.070640,-0.668639 AnkleRight:0.086752,0.749176,0.081444,0.651595 ElbowLeft:-0.032269,0.854918,-0.195206,-0.479550 ElbowRight:-0.225008,0.925499,0.106773,0.285345 FootLeft:0.000000,0.000000,0.000000,0.000000 FootRight:0.000000,0.000000,0.000000,0.000000 HandLeft:-0.150280,0.846896,-0.035422,0.508850 HandRight:0.164298,0.309417,-0.480973,0.803699 HandTipLeft:0.000000,0.000000,0.000000,0.000000 HandTipRight:0.000000,0.000000,0.000000,0.000000 Head:0.000000,0.000000,0.000000,0.000000 HipLeft:0.089981,-0.663812,0.731642,-0.126319 HipRight:-0.174736,0.692364,0.671952,-0.196419 KneeLeft:-0.012091,-0.663816,0.027392,0.747296 KneeRight:-0.009541,0.748229,0.066815,0.659998 Neck:-0.100962,0.026801,0.992662,-0.060922 ShoulderLeft:0.060220,0.764448,-0.641462,-0.022804 ShoulderRight:-0.069092,0.810421,0.566618,-0.131865 SpineBase:-0.058541,0.025168,0.997647,-0.025301 SpineMid:-0.079183,0.025686,0.996221,-0.024774 SpineShoulder:-0.100678,0.025810,0.993706,-0.041783 ThumbLeft:0.000000,0.000000,0.000000,0.000000 ThumbRight:0.000000,0.000000,0.000000,0.000000 WristLeft:-0.094600,0.858976,-0.114471,0.490008 WristRight:0.110209,0.295140,-0.438651,0.841624 END:
KINECT_DATA POSITION:3.308500,-0.524717,-2.634060 HEAD_JOINT1:0.985075,0.164795,-0.000000,0.049695 LARM_JOINT2:0.814981,0.000000,-0.001749,-0.579485 LARM_JOINT3:0.965300,0.000000,-0.193606,-0.175248 LLEG_JOINT2:0.999434,0.028805,0.000000,-0.017402 LLEG_JOINT4:0.997729,0.066813,0.000000,0.008483 RARM_JOINT2:0.853847,0.000000,0.282191,0.437394 RARM_JOINT3:0.884770,0.000000,0.377996,0.272582 RLEG_JOINT2:0.995626,0.043679,0.000000,-0.082595 RLEG_JOINT4:0.995227,0.076424,0.000000,0.060690 WAIST:0.998036,-0.000000,0.054435,0.030988 WAIST_JOINT0:0.994548,-0.000000,0.094586,0.043898 WAIST_JOINT1:0.998832,0.048082,0.000000,-0.004820 END:
KINECT_DATA_Sensor  AnkleLeft:0.063049,0.736013,-0.072869,-0.670074 AnkleRight:0.086938,0.747365,0.080443,0.653771 ElbowLeft:-0.032907,0.861226,-0.194338,-0.468443 ElbowRight:-0.268662,0.936878,0.149015,0.166960 FootLeft:0.000000,0.000000,0.000000,0.000000 FootRight:0.000000,0.000000,0.000000,0.000000 HandLeft:-0.152059,0.871624,-0.034412,0.464720 HandRight:0.174523,0.298444,-0.461438,0.817036 HandTipLeft:0.000000,0.000000,0.000000,0.000000 HandTipRight:0.000000,0.000000,0.000000,0.000000 Head:0.000000,0.000000,0.000000,0.000000 HipLeft:0.091802,-0.665196,0.729797,-0.128385 HipRight:-0.172650,0.691228,0.674196,-0.194564 KneeLeft:-0.011135,-0.666250,0.028173,0.745113 KneeRight:-0.010281,0.746014,0.065836,0.662588 Neck:-0.096043,0.026103,0.993148,-0.061247 ShoulderLeft:0.057983,0.765118,-0.640979,-0.019455 ShoulderRight:-0.064976,0.810406,0.568101,-0.127600 SpineBase:-0.055360,0.024110,0.997847,-0.025610 SpineMid:-0.075165,0.024614,0.996551,-0.025126 SpineShoulder:-0.095759,0.025199,0.994196,-0.042072 ThumbLeft:0.000000,0.000000,0.000000,0.000000 ThumbRight:0.000000,0.000000,0.000000,0.000000 WristLeft:-0.105031,0.881218,-0.104992,0.448776 WristRight:0.152514,0.308535,-0.399945,0.849464 END:
KINECT_DATA POSITION:3.326629,-0.532570,-2.613461 HEAD_JOINT1:0.984830,0.165533,-0.000000,0.052048 LARM_JOINT2:0.815216,0.000000,0.001833,-0.579154 LARM_JOINT3:0.967306,0.000000,-0.183569,-0.174988 LLEG_JOINT2:0.999404,0.028897,0.000000,-0.018909 LLEG_JOINT4:0.997719,0.067135,0.000000,0.006997 RARM_JOINT2:0.805054,0.000000,0.308440,0.506708 RARM_JOINT3:0.936169,0.000000,0.307354,0.170648 RLEG_JOINT2:0.995552,0.044583,0.000000,-0.082997 RLEG_JOINT4:0.995234,0.076658,0.000000,0.060270 WAIST:0.997980,-0.000000,0.054828,0.032093 WAIST_JOINT0:0.994771,-0.000000,0.092262,0.043787 WAIST_JOINT1:0.998848,0.047790,0.000000,-0.004373 END:
KINECT_DATA_Sensor  AnkleLeft:-0.055630,-0.652004,0.078580,0.752078 AnkleRight:0.088771,0.755201,0.080036,0.644504 ElbowLeft:-0.030779,0.861449,-0.197182,-0.466987 ElbowRight:-0.248299,0.936276,0.042200,0.244854 FootLeft:0.000000,0.000000,0.000000,0.000000 FootRight:0.000000,0.000000,0.000000,0.000000 HandLeft:-0.112184,0.891885,-0.021734,0.437589 HandRight:0.148978,0.329486,-0.434146,0.825083 HandTipLeft:0.000000,0.000000,0.000000,0.000000 HandTipRight:0.000000,0.000000,0.000000,0.000000 Head:0.000000,0.000000,0.000000,0.000000 HipLeft:0.092029,-0.664729,0.730201,-0.128347 HipRight:-0.173543,0.692095,0.672966,-0.194946 KneeLeft:-0.011430,-0.665907,0.027880,0.745426 KneeRight:-0.009230,0.746368,0.065982,0.662190 Neck:-0.093670,0.027515,0.993347,-0.061087 ShoulderLeft:0.053760,0.765852,-0.640563,-0.016100 ShoulderRight:-0.066376,0.810821,0.567461,-0.127088 SpineBase:-0.055777,0.024889,0.997815,-0.025211 SpineMid:-0.074191,0.025351,0.996615,-0.024748 SpineShoulder:-0.093354,0.026599,0.994400,-0.041783 ThumbLeft:0.000000,0.000000,0.000000,0.000000 ThumbRight:0.000000,0.000000,0.000000,0.000000 WristLeft:-0.106591,0.893530,-0.101202,0.424264 WristRight:0.079547,0.305732,-0.404424,0.858278 END:
KINECT_DATA POSITION:3.361147,-0.558581,-2.542245 HEAD_JOINT1:0.984944,0.164938,-0.000000,0.051767 LARM_JOINT2:0.814970,0.000000,0.001513,-0.579501 LARM_JOINT3:0.968180,0.000000,-0.181187,-0.172624 LLEG_JOINT2:0.999314,0.029482,0.000000,-0.022411 LLEG_JOINT4:0.997755,0.066567,0.000000,0.007342 RARM_JOINT2:0.790251,0.000000,0.317308,0.524232 RARM_JOINT3:0.950132,0.000000,0.277142,0.142971 RLEG_JOINT2:0.995249,0.046165,0.000000,-0.085720 RLEG_JOINT4:0.995332,0.076998,0.000000,0.058181 WAIST:0.997590,-0.000000,0.059622,0.035484 WAIST_JOINT0:0.993896,-0.000000,0.099620,0.047389 WAIST_JOINT1:0.998851,0.047479,0.000000,-0.006525 END:
KINECT_DATA_Sensor  AnkleLeft:-0.055541,-0.647653,0.078289,0.755865 AnkleRight:0.087574,0.751976,0.083472,0.647994 ElbowLeft:-0.030627,0.859761,-0.197769,-0.469852 ElbowRight:-0.241062,0.935561,0.011588,0.257837 FootLeft:0.000000,0.000000,0.000000,0.000000 FootRight:0.000000,0.000000,0.000000,0.000000 HandLeft:-0.108146,0.857511,-0.035523,0.501715 HandRight:0.132531,0.340277,-0.417450,0.832095 HandTipLeft:0.000000,0.000000,0.000000,0.000000 HandTipRight:0.000000,0.000000,0.000000,0.000000 Head:0.000000,0.000000,0.000000,0.000000 HipLeft:0.090528,-0.663491,0.731943,-0.125872 HipRight:-0.177305,0.693922,0.669092,-0.198369 KneeLeft:-0.011814,-0.662176,0.027881,0.748737 KneeRight:-0.008248,0.749729,0.066423,0.658351 Neck:-0.100899,0.028716,0.992636,-0.060577 ShoulderLeft:0.055346,0.764588,-0.641834,-0.019766 ShoulderRight:-0.074229,0.812161,0.562893,-0.134295 SpineBase:-0.060683,0.025860,0.997525,-0.024332 SpineMid:-0.080224,0.026332,0.996144,-0.023821 SpineShoulder:-0.100577,0.027693,0.993691,-0.041180 ThumbLeft:0.000000,0.000000,0.000000,0.000000 ThumbRight:0.000000,0.000000,0.000000,0.000000 WristLeft:-0.094280,0.860489,-0.110502,0.488324 WristRight:0.063537,0.315638,-0.396044,0.859933 END:
KINECT_DATA POSITION:3.423147,-0.558669,-2.504313 HEAD_JOINT1:0.984927,0.165315,-0.000000,0.050896 LARM_JOINT2:0.814388,0.000000,0.000406,-0.580321 LARM_JOINT3:0.967978,0.000000,-0.181875,-0.173034 LLEG_JOINT2:0.999210,0.029620,0.000000,-0.026477 LLEG_JOINT4:0.997798,0.065568,0.000000,0.010007 RARM_JOINT2:0.785884,0.000000,0.319624,0.529365 RARM_JOINT3:0.953242,0.000000,0.268890,0.137940 RLEG_JOINT2:0.995072,0.047166,0.000000,-0.087223 RLEG_JOINT4:0.995209,0.079043,0.000000,0.057539 WAIST:0.997331,-0.000000,0.062274,0.038107 WAIST_JOINT0:0.993370,-0.000000,0.103948,0.049097 WAIST_JOINT1:0.998838,0.047526,0.000000,-0.007961 END:
KINECT_DATA_Sensor  AnkleLeft:0.068178,0.779621,-0.066395,-0.618979 AnkleRight:0.086136,0.727574,0.088901,0.674770 ElbowLeft:-0.030980,0.858925,-0.197629,-0.471414 ElbowRight:-0.238193,0.936908,0.003017,0.255848 FootLeft:0.000000,0.000000,0.000000,0.000000 FootRight:0.000000,0.000000,0.000000,0.000000 HandLeft:-0.091504,0.569184,-0.082766,0.812900 HandRight:0.146126,0.327347,-0.414463,0.836488 HandTipLeft:0.000000,0.000000,0.000000,0.000000 HandTipRight:0.000000,0.000000,0.000000,0.000000 Head:0.000000,0.000000,0.000000,0.000000 HipLeft:0.089156,-0.661912,0.733867,-0.123949 HipRight:-0.179236,0.695102,0.666923,-0.199802 KneeLeft:-0.012757,-0.660069,0.026679,0.750623 KneeRight:-0.007108,0.751627,0.066224,0.656217 Neck:-0.105168,0.030091,0.992159,-0.060463 ShoulderLeft:0.057206,0.763347,-0.643062,-0.022356 ShoulderRight:-0.078005,0.812227,0.561349,-0.138168 SpineBase:-0.063415,0.026948,0.997339,-0.023817 SpineMid:-0.083702,0.027427,0.995842,-0.023264 SpineShoulder:-0.104851,0.028738,0.993226,-0.041008 ThumbLeft:0.000000,0.000000,0.000000,0.000000 ThumbRight:0.000000,0.000000,0.000000,0.000000 WristLeft:-0.035929,0.571194,-0.140164,0.807961 WristRight:0.070775,0.300888,-0.389308,0.867696 END:
KINECT_DATA POSITION:3.433621,-0.568136,-2.453816 HEAD_JOINT1:0.985146,0.164217,-0.000000,0.050207 LARM_JOINT2:0.814648,0.000000,-0.001205,-0.579954 LARM_JOINT3:0.966056,0.000000,-0.189080,-0.176026 LLEG_JOINT2:0.999137,0.028994,0.000000,-0.029734 LLEG_JOINT4:0.997633,0.067669,0.000000,0.012240 RARM_JOINT2:0.784833,0.000000,0.318937,0.531335 RARM_JOINT3:0.954208,0.000000,0.269339,0.130167 RLEG_JOINT2:0.994890,0.048432,0.000000,-0.088586 RLEG_JOINT4:0.995429,0.077621,0.000000,0.055643 WAIST:0.997155,-0.000000,0.064000,0.039815 WAIST_JOINT0:0.993299,-0.000000,0.104515,0.049332 WAIST_JOINT1:0.998809,0.047979,0.000000,-0.008892 END:
KINECT_DATA_Sensor  AnkleLeft:-0.054798,-0.644865,0.079536,0.758169 AnkleRight:0.086193,0.741153,0.088259,0.659904 ElbowLeft:-0.031274,0.859791,-0.198524,-0.469436 ElbowRight:-0.235978,0.936206,-0.000755,0.260446 FootLeft:0.000000,0.000000,0.000000,0.000000 FootRight:0.000000,0.000000,0.000000,0.000000 HandLeft:-0.149045,0.877957,-0.038417,0.453322 HandRight:0.141417,0.310921,-0.419747,0.840917 HandTipLeft:0.000000,0.000000,0.000000,0.000000 HandTipRight:0.000000,0.000000,0.000000,0.000000 Head:0.000000,0.000000,0.000000,0.000000 HipLeft:0.087619,-0.660784,0.735262,-0.122792 HipRight:-0.179724,0.695843,0.665754,-0.200683 KneeLeft:-0.013226,-0.658715,0.024960,0.751862 KneeRight:-0.006248,0.752888,0.066808,0.654719 Neck:-0.105777,0.030523,0.992047,-0.061018 ShoulderLeft:0.057324,0.763413,-0.642975,-0.022320 ShoulderRight:-0.078663,0.812467,0.560679,-0.139100 SpineBase:-0.065220,0.027651,0.997198,-0.024052 SpineMid:-0.084893,0.028120,0.995716,-0.023501 SpineShoulder:-0.105430,0.029425,0.993132,-0.041329 ThumbLeft:0.000000,0.000000,0.000000,0.000000 ThumbRight:0.000000,0.000000,0.000000,0.000000 WristLeft:-0.098056,0.887406,-0.106075,0.437772 WristRight:0.075672,0.289594,-0.388807,0.871343 END:
KINECT_DATA POSITION:3.409571,-0.580473,-2.377486 HEAD_JOINT1:0.985177,0.163792,-0.000000,0.050973 LARM_JOINT2:0.814685,0.000000,-0.003571,-0.579892 LARM_JOINT3:0.966007,0.000000,-0.189315,-0.176039 LLEG_JOINT2:0.999087,0.030015,0.000000,-0.030390 LLEG_JOINT4:0.997567,0.068719,0.000000,0.011754 RARM_JOINT2:0.788174,0.000000,0.319190,0.526212 RARM_JOINT3:0.951906,0.000000,0.277975,0.128859 RLEG_JOINT2:0.994781,0.049983,0.000000,-0.088949 RLEG_JOINT4:0.995494,0.076423,0.000000,0.056134 WAIST:0.997238,-0.000000,0.062587,0.039987 WAIST_JOINT0:0.993602,-0.000000,0.101865,0.048771 WAIST_JOINT1:0.998814,0.047765,0.000000,-0.009457 END:
KINECT_DATA_Sensor  AnkleLeft:0.065946,0.730330,-0.073066,-0.675967 AnkleRight:0.087969,0.748978,0.087072,0.650931 ElbowLeft:-0.032431,0.862913,-0.197568,-0.464001 ElbowRight:-0.239982,0.937790,0.007097,0.250816 FootLeft:0.000000,0.000000,0.000000,0.000000 FootRight:0.000000,0.000000,0.000000,0.000000 HandLeft:-0.128877,0.659103,-0.094251,0.734909 HandRight:0.127953,0.294504,-0.445000,0.835985 HandTipLeft:0.000000,0.000000,0.000000,0.000000 HandTipRight:0.000000,0.000000,0.000000,0.000000 Head:0.000000,0.000000,0.000000,0.000000 HipLeft:0.088703,-0.660449,0.735347,-0.123303 HipRight:-0.178941,0.696112,0.665974,-0.199717 KneeLeft:-0.014309,-0.659717,0.025322,0.750951 KneeRight:-0.005231,0.752008,0.068138,0.655602 Neck:-0.103190,0.030012,0.992336,-0.060997 ShoulderLeft:0.054278,0.764135,-0.642470,-0.019605 ShoulderRight:-0.078458,0.812810,0.560565,-0.137659 SpineBase:-0.063808,0.027452,0.997301,-0.023784 SpineMid:-0.082891,0.027903,0.995896,-0.023254 SpineShoulder:-0.102829,0.029093,0.993424,-0.041092 ThumbLeft:0.000000,0.000000,0.000000,0.000000 ThumbRight:0.000000,0.000000,0.000000,0.000000 WristLeft:-0.053688,0.663702,-0.133632,0.734003 WristRight:0.080780,0.285838,-0.389138,0.871977 END:
KINECT_DATA POSITION:3.363805,-0.599910,-2.256095 HEAD_JOINT1:0.985057,0.164463,-0.000000,0.051125 LARM_JOINT2:0.815329,0.000000,-0.003998,-0.578985 LARM_JOINT3:0.964234,0.000000,-0.196142,-0.178270 LLEG_JOINT2:0.999130,0.031199,0.000000,-0.027688 LLEG_JOINT4:0.997686,0.066910,0.000000,0.012051 RARM_JOINT2:0.801454,0.000000,0.294179,0.520702 RARM_JOINT3:0.938737,0.000000,0.313214,0.143767 RLEG_JOINT2:0.994941,0.047772,0.000000,-0.088381 RLEG_JOINT4:0.995328,0.077388,0.000000,0.057739 WAIST:0.997509,-0.000000,0.059131,0.038475 WAIST_JOINT0:0.994146,-0.000000,0.097161,0.047258 WAIST_JOINT1:0.998855,0.047041,0.000000,-0.008732 END:
KINECT_DATA_Sensor  AnkleLeft:-0.055416,-0.649306,0.081275,0.754139 AnkleRight:0.086979,0.738061,0.086686,0.663466 ElbowLeft:-0.033806,0.865074,-0.197486,-0.459895 ElbowRight:-0.233835,0.933095,0.030350,0.271541 FootLeft:0.000000,0.000000,0.000000,0.000000 FootRight:0.000000,0.000000,0.000000,0.000000 HandLeft:-0.138098,0.640725,-0.109665,0.747244 HandRight:0.118346,0.286308,-0.454381,0.835200 HandTipLeft:0.000000,0.000000,0.000000,0.000000 HandTipRight:0.000000,0.000000,0.000000,0.000000 Head:0.000000,0.000000,0.000000,0.000000 HipLeft:0.091657,-0.661303,0.733950,-0.124879 HipRight:-0.177723,0.695857,0.667272,-0.197347 KneeLeft:-0.014482,-0.662336,0.027207,0.748573 KneeRight:-0.007015,0.749565,0.067296,0.658464 Neck:-0.098466,0.029356,0.992854,-0.060693 ShoulderLeft:0.049466,0.765454,-0.641397,-0.015574 ShoulderRight:-0.077303,0.812818,0.561529,-0.134300 SpineBase:-0.060254,0.026761,0.997562,-0.022878 SpineMid:-0.078761,0.027181,0.996272,-0.022377 SpineShoulder:-0.098104,0.028434,0.993948,-0.040428 ThumbLeft:0.000000,0.000000,0.000000,0.000000 ThumbRight:0.000000,0.000000,0.000000,0.000000 WristLeft:-0.056534,0.647317,-0.135576,0.747933 WristRight:0.088062,0.284097,-0.406573,0.863847 END:
KINECT_DATA POSITION:3.308907,-0.597972,-2.167094 HEAD_JOINT1:0.984655,0.164559,-0.000000,0.058092 LARM_JOINT2:0.817666,0.000000,-0.004278,-0.575677 LARM_JOINT3:0.963618,0.000000,-0.198032,-0.179508 LLEG_JOINT2:0.999212,0.032200,0.000000,-0.023222 LLEG_JOINT4:0.997907,0.064126,0.000000,0.008322 RARM_JOINT2:0.845457,0.000000,0.292469,0.446839 RARM_JOINT3:0.900651,0.000000,0.368099,0.230935 RLEG_JOINT2:0.995204,0.047666,0.000000,-0.085427 RLEG_JOINT4:0.995007,0.078488,0.000000,0.061647 WAIST:0.998000,-0.000000,0.052588,0.035078 WAIST_JOINT0:0.995150,-0.000000,0.087980,0.043996 WAIST_JOINT1:0.998874,0.046603,0.000000,-0.008916 END:
KINECT_DATA_Sensor  AnkleLeft:-0.055705,-0.654579,0.078765,0.749813 AnkleRight:0.094175,0.757495,0.081383,0.640866 ElbowLeft:-0.035548,0.868178,-0.197591,-0.453830 ElbowRight:-0.271435,0.937698,0.131435,0.172542 FootLeft:0.000000,0.000000,0.000000,0.000000 FootRight:0.000000,0.000000,0.000000,0.000000 HandLeft:-0.134256,0.644772,-0.107525,0.744770 HandRight:0.154071,0.248710,-0.517663,0.804009 HandTipLeft:0.000000,0.000000,0.000000,0.000000 HandTipRight:0.000000,0.000000,0.000000,0.000000 Head:0.000000,0.000000,0.000000,0.000000 HipLeft:0.097096,-0.663245,0.730730,-0.129278 HipRight:-0.175028,0.694905,0.669953,-0.193999 KneeLeft:-0.014644,-0.667326,0.029068,0.744054 KneeRight:-0.006662,0.745062,0.067859,0.663500 Neck:-0.089432,0.024469,0.993877,-0.060104 ShoulderLeft:0.044566,0.768608,-0.638090,-0.009870 ShoulderRight:-0.070152,0.813384,0.563524,-0.126197 SpineBase:-0.053569,0.025147,0.997998,-0.022338 SpineMid:-0.070862,0.025530,0.996919,-0.021899 SpineShoulder:-0.088998,0.025554,0.994885,-0.040372 ThumbLeft:0.000000,0.000000,0.000000,0.000000 ThumbRight:0.000000,0.000000,0.000000,0.000000 WristLeft:-0.063942,0.650867,-0.135778,0.744209 WristRight:0.140334,0.278794,-0.393371,0.864777 END:
KINECT_DATA POSITION:2.412756,-0.523029,-2.010429 HEAD_JOINT1:0.984521,0.161662,-0.000000,0.067704 LARM_JOINT2:0.820716,0.000000,-0.012262,-0.571205 LARM_JOINT3:0.961996,0.000000,-0.206360,-0.178828 LLEG_JOINT2:0.999516,0.030704,0.000000,0.004904 LLEG_JOINT4:0.997757,0.066874,0.000000,-0.003005 RARM_JOINT2:0.870066,0.000000,0.307828,0.385004 RARM_JOINT3:0.858070,0.000000,0.460601,0.227075 RLEG_JOINT2:0.997545,0.038547,0.000000,-0.058461 RLEG_JOINT4:0.994733,0.086418,0.000000,0.055116 WAIST:0.999090,-0.000000,0.038587,0.018185 WAIST_JOINT0:0.996796,-0.000000,0.070463,0.037864 WAIST_JOINT1:0.999002,0.044649,0.000000,-0.001331 END:
KINECT_DATA_Sensor  AnkleLeft:0.064464,0.737699,-0.074865,-0.667862 AnkleRight:0.095407,0.727236,0.080531,0.674937 ElbowLeft:-0.044441,0.874491,-0.190437,-0.443875 ElbowRight:-0.325325,0.902672,0.168845,0.225475 FootLeft:0.000000,0.000000,0.000000,0.000000 FootRight:0.000000,0.000000,0.000000,0.000000 HandLeft:-0.166236,0.712066,-0.097795,0.675102 HandRight:0.188386,0.266861,-0.565010,0.757667 HandTipLeft:0.000000,0.000000,0.000000,0.000000 HandTipRight:0.000000,0.000000,0.000000,0.000000 Head:0.000000,0.000000,0.000000,0.000000 HipLeft:0.105381,-0.673688,0.719508,-0.131708 HipRight:-0.163281,0.686070,0.684838,-0.183420 KneeLeft:-0.006356,-0.678585,0.037302,0.733547 KneeRight:-0.003775,0.734591,0.055170,0.676253 Neck:-0.071773,0.012788,0.995664,-0.057783 ShoulderLeft:0.035493,0.772685,-0.633796,0.000984 ShoulderRight:-0.056060,0.811227,0.571599,-0.109739 SpineBase:-0.039083,0.011583,0.998950,-0.020891 SpineMid:-0.055009,0.011915,0.998200,-0.020703 SpineShoulder:-0.071259,0.017746,0.996513,-0.039615 ThumbLeft:0.000000,0.000000,0.000000,0.000000 ThumbRight:0.000000,0.000000,0.000000,0.000000 WristLeft:-0.094004,0.727151,-0.129526,0.667561 WristRight:0.139163,0.267524,-0.471936,0.828457 END:
KINECT_DATA POSITION:1.890665,-0.501798,-2.088058 HEAD_JOINT1:0.986732,0.148042,-0.000000,0.066662 LARM_JOINT2:0.823476,0.000000,-0.018266,-0.567056 LARM_JOINT3:0.964128,0.000000,-0.193518,-0.181680 LLEG_JOINT2:0.999538,0.024298,0.000000,0.018285 LLEG_JOINT4:0.996614,0.081971,0.000000,-0.006499 RARM_JOINT2:0.844034,0.000000,0.422713,0.330029 RARM_JOINT3:0.903431,0.000000,0.410765,0.122821 RLEG_JOINT2:0.998278,0.036688,0.000000,-0.045768 RLEG_JOINT4:0.994939,0.085424,0.000000,0.052899 WAIST:0.999157,-0.000000,0.039604,0.010845 WAIST_JOINT0:0.996985,-0.000000,0.070072,0.033322 WAIST_JOINT1:0.999125,0.041760,0.000000,-0.002203 END:
KINECT_DATA_Sensor  AnkleLeft:0.071702,0.748963,-0.080851,-0.653740 AnkleRight:0.094571,0.716672,0.078240,0.686524 ElbowLeft:-0.048998,0.877509,-0.184770,-0.439816 ElbowRight:-0.419396,0.880974,0.115821,0.185949 FootLeft:0.000000,0.000000,0.000000,0.000000 FootRight:0.000000,0.000000,0.000000,0.000000 HandLeft:-0.147636,0.697767,-0.067065,0.697731 HandRight:0.104799,0.257171,-0.636652,0.719412 HandTipLeft:0.000000,0.000000,0.000000,0.000000 HandTipRight:0.000000,0.000000,0.000000,0.000000 Head:0.000000,0.000000,0.000000,0.000000 HipLeft:0.105676,-0.679428,0.714476,-0.129360 HipRight:-0.163357,0.681215,0.689381,-0.184430 KneeLeft:0.002206,-0.678222,0.037583,0.733892 KneeRight:-0.000993,0.734911,0.050349,0.676291 Neck:-0.070670,0.004392,0.995954,-0.055346 ShoulderLeft:0.027207,0.776922,-0.628995,0.004177 ShoulderRight:-0.063077,0.808679,0.574155,-0.111383 SpineBase:-0.039916,0.005038,0.998988,-0.020088 SpineMid:-0.054975,0.005340,0.998273,-0.020010 SpineShoulder:-0.070306,0.009486,0.996797,-0.036910 ThumbLeft:0.000000,0.000000,0.000000,0.000000 ThumbRight:0.000000,0.000000,0.000000,0.000000 WristLeft:-0.097730,0.713300,-0.131665,0.681408 WristRight:0.091785,0.287514,-0.519028,0.799701 END:
KINECT_DATA POSITION:1.753049,-0.456873,-2.392900 HEAD_JOINT1:0.987905,0.144437,-0.000000,0.056399 LARM_JOINT2:0.822339,0.000000,-0.020880,-0.568614 LARM_JOINT3:0.969111,0.000000,-0.175345,-0.173430 LLEG_JOINT2:0.999618,0.015140,0.000000,0.023124 LLEG_JOINT4:0.995738,0.091746,0.000000,-0.009392 RARM_JOINT2:0.817068,0.000000,0.498401,0.289821 RARM_JOINT3:0.926124,0.000000,0.368095,0.082469 RLEG_JOINT2:0.998323,0.038122,0.000000,-0.043568 RLEG_JOINT4:0.994828,0.083190,0.000000,0.058281 WAIST:0.998296,-0.000000,0.057739,0.008441 WAIST_JOINT0:0.995451,-0.000000,0.090270,0.030467 WAIST_JOINT1:0.999087,0.042721,0.000000,-0.000419 END:
KINECT_DATA_Sensor  AnkleLeft:0.073467,0.732935,-0.079890,-0.671585 AnkleRight:0.095399,0.719264,0.077243,0.683807 ElbowLeft:-0.044136,0.874220,-0.183194,-0.447473 ElbowRight:-0.472572,0.868418,0.060830,0.137206 FootLeft:0.000000,0.000000,0.000000,0.000000 FootRight:0.000000,0.000000,0.000000,0.000000 HandLeft:-0.099891,0.821178,-0.038677,0.560528 HandRight:-0.120686,-0.306800,0.672814,-0.662292 HandTipLeft:0.000000,0.000000,0.000000,0.000000 HandTipRight:0.000000,0.000000,0.000000,0.000000 Head:0.000000,0.000000,0.000000,0.000000 HipLeft:0.092664,-0.683573,0.714249,-0.118280 HipRight:-0.172498,0.677727,0.688019,-0.193805 KneeLeft:0.010030,-0.664832,0.033307,0.746182 KneeRight:-0.001139,0.747014,0.051485,0.662811 Neck:-0.090808,0.005161,0.994238,-0.056721 ShoulderLeft:0.033342,0.775673,-0.630238,-0.004434 ShoulderRight:-0.083656,0.802403,0.575498,-0.133985 SpineBase:-0.057954,0.004779,0.998093,-0.020719 SpineMid:-0.074123,0.005115,0.997022,-0.020639 SpineShoulder:-0.090652,0.007516,0.995136,-0.037809 ThumbLeft:0.000000,0.000000,0.000000,0.000000 ThumbRight:0.000000,0.000000,0.000000,0.000000 WristLeft:-0.111719,0.821001,-0.111802,0.548614 WristRight:0.085830,0.306063,-0.546408,0.774853 END:
KINECT_DATA POSITION:1.726797,-0.382064,-2.603197 HEAD_JOINT1:0.988082,0.145649,-0.000000,0.049801 LARM_JOINT2:0.822890,0.000000,-0.016676,-0.567957 LARM_JOINT3:0.967517,0.000000,-0.185251,-0.172026 LLEG_JOINT2:0.999641,0.010002,0.000000,0.024843 LLEG_JOINT4:0.995415,0.095172,0.000000,-0.009536 RARM_JOINT2:0.809393,0.000000,0.535494,0.241099 RARM_JOINT3:0.941780,0.000000,0.329292,0.067950 RLEG_JOINT2:0.998402,0.038352,0.000000,-0.041506 RLEG_JOINT4:0.994800,0.085266,0.000000,0.055695 WAIST:0.997471,-0.000000,0.070728,0.006968 WAIST_JOINT0:0.993979,-0.000000,0.105392,0.029971 WAIST_JOINT1:0.999035,0.043857,-0.000000,0.002489 END:
KINECT_DATA_Sensor  AnkleLeft:-0.063803,-0.642890,0.085766,0.758463 AnkleRight:0.098880,0.765904,0.075894,0.630756 ElbowLeft:-0.040004,0.863589,-0.187162,-0.466459 ElbowRight:-0.512014,0.852893,0.054669,0.086177 FootLeft:0.000000,0.000000,0.000000,0.000000 FootRight:0.000000,0.000000,0.000000,0.000000 HandLeft:-0.122975,0.824796,-0.057951,0.548844 HandRight:-0.078165,-0.320733,0.668016,-0.666915 HandTipLeft:0.000000,0.000000,0.000000,0.000000 HandTipRight:0.000000,0.000000,0.000000,0.000000 Head:0.000000,0.000000,0.000000,0.000000 HipLeft:0.082472,-0.685909,0.714416,-0.111073 HipRight:-0.179034,0.675050,0.687044,-0.200563 KneeLeft:0.013642,-0.655099,0.030248,0.754814 KneeRight:-0.001216,0.755575,0.051250,0.653053 Neck:-0.106478,0.007152,0.992602,-0.057896 ShoulderLeft:0.046340,0.771868,-0.633887,-0.016111 ShoulderRight:-0.091190,0.798085,0.577292,-0.146555 SpineBase:-0.070850,0.006047,0.997226,-0.021999 SpineMid:-0.088422,0.006434,0.995822,-0.021889 SpineShoulder:-0.106408,0.008145,0.993521,-0.039082 ThumbLeft:0.000000,0.000000,0.000000,0.000000 ThumbRight:0.000000,0.000000,0.000000,0.000000 WristLeft:-0.104777,0.828717,-0.116619,0.537261 WristRight:0.053910,0.337079,-0.556810,0.757254 END:
KINECT_DATA POSITION:1.655401,-0.284205,-2.709246 HEAD_JOINT1:0.988740,0.144195,-0.000000,0.040024 LARM_JOINT2:0.821986,0.000000,-0.015751,-0.569290 LARM_JOINT3:0.968486,0.000000,-0.181786,-0.170260 LLEG_JOINT2:0.999543,0.009742,0.000000,0.028632 LLEG_JOINT4:0.995469,0.094421,0.000000,-0.011242 RARM_JOINT2:0.802385,0.000000,0.557905,0.211942 RARM_JOINT3:0.970418,0.000000,0.233228,0.062398 RLEG_JOINT2:0.998586,0.037424,0.000000,-0.037753 RLEG_JOINT4:0.994754,0.086239,0.000000,0.055012 WAIST:0.996925,-0.000000,0.078238,0.004424 WAIST_JOINT0:0.992619,-0.000000,0.118158,0.027332 WAIST_JOINT1:0.998962,0.044860,-0.000000,0.007911 END:
KINECT_DATA_Sensor  AnkleLeft:0.074469,0.730576,-0.075370,-0.674561 AnkleRight:0.094607,0.736084,0.081596,0.665261 ElbowLeft:-0.038753,0.856091,-0.188999,-0.479465 ElbowRight:-0.531313,0.843987,0.070866,0.019263 FootLeft:0.000000,0.000000,0.000000,0.000000 FootRight:0.000000,0.000000,0.000000,0.000000 HandLeft:-0.108941,0.708446,-0.069953,0.693789 HandRight:-0.085687,-0.367583,0.620606,-0.687305 HandTipLeft:0.000000,0.000000,0.000000,0.000000 HandTipRight:0.000000,0.000000,0.000000,0.000000 Head:0.000000,0.000000,0.000000,0.000000 HipLeft:0.077437,-0.687586,0.713784,-0.108359 HipRight:-0.184403,0.671809,0.687662,-0.204427 KneeLeft:0.014307,-0.649508,0.031230,0.759578 KneeRight:-0.001188,0.760436,0.049855,0.647496 Neck:-0.119518,0.011121,0.990968,-0.059779 ShoulderLeft:0.055341,0.770432,-0.634612,-0.025282 ShoulderRight:-0.099439,0.793347,0.579474,-0.157871 SpineBase:-0.078196,0.007934,0.996647,-0.022737 SpineMid:-0.098614,0.008398,0.994834,-0.022570 SpineShoulder:-0.119518,0.010519,0.991964,-0.040155 ThumbLeft:0.000000,0.000000,0.000000,0.000000 ThumbRight:0.000000,0.000000,0.000000,0.000000 WristLeft:-0.071400,0.717808,-0.137177,0.678849 WristRight:-0.031501,0.282104,-0.532524,0.797398 END:
KINECT_DATA POSITION:1.557650,-0.230882,-2.799189 HEAD_JOINT1:0.989039,0.144193,-0.000000,0.031770 LARM_JOINT2:0.820607,0.000000,-0.018094,-0.571206 LARM_JOINT3:0.967372,0.000000,-0.184466,-0.173678 LLEG_JOINT2:0.999534,0.008544,0.000000,0.029288 LLEG_JOINT4:0.995403,0.095143,0.000000,-0.010966 RARM_JOINT2:0.814981,0.000000,0.546981,0.191359 RARM_JOINT3:0.960224,0.000000,0.265165,0.087503 RLEG_JOINT2:0.998631,0.036721,0.000000,-0.037244 RLEG_JOINT4:0.994657,0.086619,0.000000,0.056167 WAIST:0.996590,-0.000000,0.082383,0.004653 WAIST_JOINT0:0.992065,-0.000000,0.122462,0.028452 WAIST_JOINT1:0.998875,0.046035,-0.000000,0.011373 END:
KINECT_DATA_Sensor  AnkleLeft:0.073774,0.728191,-0.075690,-0.677175 AnkleRight:0.094126,0.727485,0.082140,0.674655 ElbowLeft:-0.038914,0.854541,-0.190097,-0.481776 ElbowRight:-0.539182,0.837128,0.090308,0.018548 FootLeft:0.000000,0.000000,0.000000,0.000000 FootRight:0.000000,0.000000,0.000000,0.000000 HandLeft:-0.123576,0.654782,-0.080656,0.741272 HandRight:-0.021648,0.339894,-0.587325,0.734202 HandTipLeft:0.000000,0.000000,0.000000,0.000000 HandTipRight:0.000000,0.000000,0.000000,0.000000 Head:0.000000,0.000000,0.000000,0.000000 HipLeft:0.074363,-0.687505,0.714274,-0.107795 HipRight:-0.187915,0.671157,0.686540,-0.207122 KneeLeft:0.015688,-0.646390,0.031165,0.762209 KneeRight:-0.001314,0.763174,0.048809,0.644346 Neck:-0.124820,0.014956,0.990162,-0.061446 ShoulderLeft:0.059453,0.768763,-0.636129,-0.028415 ShoulderRight:-0.102282,0.794651,0.575831,-0.162751 SpineBase:-0.082274,0.010816,0.996271,-0.023604 SpineMid:-0.103267,0.011312,0.994315,-0.023370 SpineShoulder:-0.124793,0.013917,0.991223,-0.041358 ThumbLeft:0.000000,0.000000,0.000000,0.000000 ThumbRight:0.000000,0.000000,0.000000,0.000000 WristLeft:-0.055382,0.657773,-0.143347,0.737373 WristRight:-0.004811,0.363437,-0.543443,0.756677 END:
KINECT_DATA POSITION:1.296663,-0.182991,-2.940917 HEAD_JOINT1:0.988791,0.145395,-0.000000,0.033960 LARM_JOINT2:0.821394,0.000000,-0.009732,-0.570278 LARM_JOINT3:0.965116,0.000000,-0.191090,-0.178983 LLEG_JOINT2:0.999515,0.006634,0.000000,0.030423 LLEG_JOINT4:0.995603,0.093355,0.000000,-0.007716 RARM_JOINT2:0.819386,0.000000,0.546927,0.171689 RARM_JOINT3:0.965305,0.000000,0.241927,0.098270 RLEG_JOINT2:0.998715,0.036569,0.000000,-0.035074 RLEG_JOINT4:0.994722,0.085467,0.000000,0.056779 WAIST:0.996346,-0.000000,0.085300,0.004367 WAIST_JOINT0:0.992225,-0.000000,0.121067,0.028853 WAIST_JOINT1:0.998812,0.047095,-0.000000,0.012489 END:
KINECT_DATA_Sensor  AnkleLeft:0.069804,0.736385,-0.075879,-0.668661 AnkleRight:0.095340,0.731969,0.079546,0.669928 ElbowLeft:-0.033438,0.847983,-0.194684,-0.491838 ElbowRight:-0.546166,0.829043,0.118862,-0.016211 FootLeft:0.000000,0.000000,0.000000,0.000000 FootRight:0.000000,0.000000,0.000000,0.000000 HandLeft:-0.128679,0.644734,-0.079037,0.749342 HandRight:-0.035447,0.343485,-0.567563,0.747418 HandTipLeft:0.000000,0.000000,0.000000,0.000000 HandTipRight:0.000000,0.000000,0.000000,0.000000 Head:0.000000,0.000000,0.000000,0.000000 HipLeft:0.071650,-0.687585,0.714492,-0.107677 HipRight:-0.189850,0.670130,0.686299,-0.209468 KneeLeft:0.017594,-0.644213,0.030640,0.764030 KneeRight:-0.000111,0.765061,0.047481,0.642205 Neck:-0.124344,0.015221,0.990146,-0.062593 ShoulderLeft:0.055227,0.769732,-0.635530,-0.023753 ShoulderRight:-0.106129,0.796780,0.571194,-0.166181 SpineBase:-0.085124,0.012367,0.995981,-0.024973 SpineMid:-0.104416,0.012849,0.994143,-0.024728 SpineShoulder:-0.124292,0.014476,0.991226,-0.042571 ThumbLeft:0.000000,0.000000,0.000000,0.000000 ThumbRight:0.000000,0.000000,0.000000,0.000000 WristLeft:-0.052600,0.647756,-0.145194,0.746032 WristRight:-0.027705,0.357167,-0.532075,0.767177 END:
KINECT_DATA POSITION:1.200987,-0.165407,-3.054285 HEAD_JOINT1:0.988208,0.149332,-0.000000,0.033837 LARM_JOINT2:0.820412,0.000000,-0.017634,-0.571501 LARM_JOINT3:0.967391,0.000000,-0.182236,-0.175912 LLEG_JOINT2:0.999501,0.005619,0.000000,0.031071 LLEG_JOINT4:0.995753,0.091494,0.000000,-0.010191 RARM_JOINT2:0.813164,0.000000,0.556999,0.168871 RARM_JOINT3:0.962434,0.000000,0.252195,0.100592 RLEG_JOINT2:0.998726,0.036410,0.000000,-0.034948 RLEG_JOINT4:0.994824,0.083842,0.000000,0.057408 WAIST:0.996100,-0.000000,0.088134,0.004243 WAIST_JOINT0:0.991171,-0.000000,0.128948,0.030846 WAIST_JOINT1:0.998759,0.047797,-0.000000,0.013989 END:
KINECT_DATA_Sensor  AnkleLeft:0.066944,0.719200,-0.074056,-0.687594 AnkleRight:0.095059,0.738674,0.077367,0.662826 ElbowLeft:-0.036596,0.851138,-0.192725,-0.486910 ElbowRight:-0.550315,0.827491,0.108511,-0.025230 FootLeft:0.000000,0.000000,0.000000,0.000000 FootRight:0.000000,0.000000,0.000000,0.000000 HandLeft:-0.123249,0.714650,-0.058268,0.686068 HandRight:0.021223,0.385023,-0.575639,0.721074 HandTipLeft:0.000000,0.000000,0.000000,0.000000 HandTipRight:0.000000,0.000000,0.000000,0.000000 Head:0.000000,0.000000,0.000000,0.000000 HipLeft:0.069424,-0.687723,0.714662,-0.107122 HipRight:-0.191677,0.669425,0.685874,-0.211440 KneeLeft:0.018621,-0.642080,0.030440,0.765806 KneeRight:-0.000349,0.766887,0.047357,0.640032 Neck:-0.132337,0.016809,0.989034,-0.063375 ShoulderLeft:0.062706,0.767413,-0.637357,-0.030358 ShoulderRight:-0.108987,0.796333,0.569599,-0.171852 SpineBase:-0.087910,0.013480,0.995703,-0.025801 SpineMid:-0.109770,0.014044,0.993531,-0.025499 SpineShoulder:-0.132283,0.015889,0.990139,-0.043277 ThumbLeft:0.000000,0.000000,0.000000,0.000000 ThumbRight:0.000000,0.000000,0.000000,0.000000 WristLeft:-0.067047,0.729351,-0.137803,0.666755 WristRight:-0.025763,0.364309,-0.535670,0.761362 END:
KINECT_DATA POSITION:1.128912,-0.150137,-3.195286 HEAD_JOINT1:0.988164,0.149895,-0.000000,0.032620 LARM_JOINT2:0.819669,0.000000,-0.018322,-0.572544 LARM_JOINT3:0.969109,0.000000,-0.177206,-0.171540 LLEG_JOINT2:0.999489,0.002421,0.000000,0.031879 LLEG_JOINT4:0.995522,0.094112,0.000000,-0.008842 RARM_JOINT2:0.802349,0.000000,0.566485,0.187966 RARM_JOINT3:0.954091,0.000000,0.287639,0.083508 RLEG_JOINT2:0.998730,0.036857,0.000000,-0.034363 RLEG_JOINT4:0.994711,0.084610,0.000000,0.058240 WAIST:0.995507,-0.000000,0.094609,0.003985 WAIST_JOINT0:0.990527,-0.000000,0.134424,0.028057 WAIST_JOINT1:0.998723,0.048287,-0.000000,0.014862 END:
KINECT_DATA_Sensor  AnkleLeft:0.067155,0.726100,-0.073779,-0.680313 AnkleRight:0.095275,0.734956,0.079356,0.666682 ElbowLeft:-0.034615,0.849534,-0.192405,-0.489973 ElbowRight:-0.546590,0.835733,0.048227,0.021533 FootLeft:0.000000,0.000000,0.000000,0.000000 FootRight:0.000000,0.000000,0.000000,0.000000 HandLeft:-0.109267,0.729269,-0.058181,0.672936 HandRight:0.069965,0.393578,-0.582483,0.707753 HandTipLeft:0.000000,0.000000,0.000000,0.000000 HandTipRight:0.000000,0.000000,0.000000,0.000000 Head:0.000000,0.000000,0.000000,0.000000 HipLeft:0.064797,-0.688389,0.714896,-0.104146 HipRight:-0.194951,0.668058,0.685011,-0.215526 KneeLeft:0.021239,-0.637120,0.028946,0.769928 KneeRight:-0.000122,0.771022,0.047487,0.635036 Neck:-0.137656,0.017129,0.988270,-0.063878 ShoulderLeft:0.064463,0.766850,-0.637774,-0.032090 ShoulderRight:-0.114834,0.790811,0.574197,-0.178128 SpineBase:-0.094344,0.013750,0.995083,-0.026827 SpineMid:-0.115667,0.014322,0.992830,-0.026526 SpineShoulder:-0.137617,0.016078,0.989379,-0.043959 ThumbLeft:0.000000,0.000000,0.000000,0.000000 ThumbRight:0.000000,0.000000,0.000000,0.000000 WristLeft:-0.064538,0.740266,-0.135416,0.655365 WristRight:0.027627,0.373297,-0.563523,0.736429 END:
KINECT_DATA POSITION:1.114435,-0.095151,-3.324449 HEAD_JOINT1:0.991902,0.115428,-0.000000,0.052988 LARM_JOINT2:0.822675,0.000000,-0.036142,-0.567362 LARM_JOINT3:0.969414,0.000000,-0.180849,-0.165925 LLEG_JOINT2:0.999478,0.000266,0.000000,0.032306 LLEG_JOINT4:0.995576,0.093439,0.000000,-0.009860 RARM_JOINT2:0.820299,0.000000,0.552162,0.149087 RARM_JOINT3:0.932996,0.000000,0.342893,0.109286 RLEG_JOINT2:0.998731,0.036955,0.000000,-0.034219 RLEG_JOINT4:0.994726,0.082877,0.000000,0.060432 WAIST:0.995022,-0.000000,0.099586,0.003663 WAIST_JOINT0:0.989747,-0.000000,0.140433,0.026061 WAIST_JOINT1:0.997944,0.063342,-0.000000,0.009775 END:
KINECT_DATA_Sensor  AnkleLeft:-0.055212,-0.622051,0.079533,0.776968 AnkleRight:0.094154,0.726701,0.078974,0.675873 ElbowLeft:-0.033526,0.849214,-0.192335,-0.490631 ElbowRight:-0.555404,0.826333,0.093179,0.004100 FootLeft:0.000000,0.000000,0.000000,0.000000 FootRight:0.000000,0.000000,0.000000,0.000000 HandLeft:-0.096712,0.637496,-0.074643,0.760707 HandRight:0.090051,0.409104,-0.559134,0.715468 HandTipLeft:0.000000,0.000000,0.000000,0.000000 HandTipRight:0.000000,0.000000,0.000000,0.000000 Head:0.000000,0.000000,0.000000,0.000000 HipLeft:0.059075,-0.688741,0.715097,-0.103835 HipRight:-0.194372,0.666016,0.685245,-0.221543 KneeLeft:0.022819,-0.633294,0.027779,0.773076 KneeRight:-0.000433,0.774092,0.047683,0.631274 Neck:-0.142478,0.008696,0.986241,-0.083383 ShoulderLeft:0.095122,0.765019,-0.635643,-0.040700 ShoulderRight:-0.088666,0.785059,0.586553,-0.178259 SpineBase:-0.099293,0.011755,0.994491,-0.031457 SpineMid:-0.120494,0.012423,0.992146,-0.031199 SpineShoulder:-0.142456,0.010202,0.988091,-0.057265 ThumbLeft:0.000000,0.000000,0.000000,0.000000 ThumbRight:0.000000,0.000000,0.000000,0.000000 WristLeft:-0.043416,0.638613,-0.142248,0.755019 WristRight:0.061086,0.394094,-0.556278,0.729049 END:
KINECT_DATA POSITION:1.153661,-0.038421,-3.439713 HEAD_JOINT1:0.989452,0.141107,-0.000000,0.032756 LARM_JOINT2:0.820453,0.000000,-0.024874,-0.571173 LARM_JOINT3:0.969065,0.000000,-0.180364,-0.168466 LLEG_JOINT2:0.999451,-0.000482,0.000000,0.033121 LLEG_JOINT4:0.995251,0.097107,0.000000,-0.006795 RARM_JOINT2:0.824287,0.000000,0.543825,0.157495 RARM_JOINT3:0.933191,0.000000,0.338094,0.121850 RLEG_JOINT2:0.998756,0.037225,0.000000,-0.033181 RLEG_JOINT4:0.994858,0.081577,0.000000,0.060029 WAIST:0.994723,-0.000000,0.102571,0.002462 WAIST_JOINT0:0.989324,-0.000000,0.143655,0.024533 WAIST_JOINT1:0.998447,0.053890,-0.000000,0.014091 END:
KINECT_DATA_Sensor  AnkleLeft:0.068041,0.729953,-0.073929,-0.676073 AnkleRight:0.094376,0.741210,0.077097,0.660118 ElbowLeft:-0.031385,0.849550,-0.192046,-0.490304 ElbowRight:-0.554774,0.826388,0.096355,0.005054 FootLeft:0.000000,0.000000,0.000000,0.000000 FootRight:0.000000,0.000000,0.000000,0.000000 HandLeft:-0.106341,0.710042,-0.077113,0.691799 HandRight:0.058251,0.412549,-0.543752,0.728522 HandTipLeft:0.000000,0.000000,0.000000,0.000000 HandTipRight:0.000000,0.000000,0.000000,0.000000 Head:0.000000,0.000000,0.000000,0.000000 HipLeft:0.057860,-0.689796,0.714436,-0.102056 HipRight:-0.197126,0.664907,0.685225,-0.222503 KneeLeft:0.022987,-0.631045,0.027153,0.774930 KneeRight:-0.000455,0.775956,0.048077,0.628952 Neck:-0.145840,0.014352,0.986768,-0.069383 ShoulderLeft:0.082750,0.765342,-0.636954,-0.041147 ShoulderRight:-0.106795,0.783237,0.584634,-0.182588 SpineBase:-0.102194,0.012276,0.994215,-0.030688 SpineMid:-0.123741,0.012939,0.991764,-0.030414 SpineShoulder:-0.145913,0.013021,0.987961,-0.049731 ThumbLeft:0.000000,0.000000,0.000000,0.000000 ThumbRight:0.000000,0.000000,0.000000,0.000000 WristLeft:-0.059146,0.719478,-0.134387,0.678818 WristRight:0.057210,0.407189,-0.556317,0.722105 END:
KINECT_DATA POSITION:1.190226,-0.001229,-3.556287 HEAD_JOINT1:0.991359,0.124557,-0.000000,0.041149 LARM_JOINT2:0.820566,0.000000,-0.035414,-0.570454 LARM_JOINT3:0.969065,0.000000,-0.184803,-0.163586 LLEG_JOINT2:0.999434,-0.001861,0.000000,0.033603 LLEG_JOINT4:0.995453,0.094842,0.000000,-0.008846 RARM_JOINT2:0.825494,0.000000,0.543985,0.150464 RARM_JOINT3:0.929996,0.000000,0.349659,0.113337 RLEG_JOINT2:0.998769,0.037690,0.000000,-0.032249 RLEG_JOINT4:0.994975,0.080053,0.000000,0.060141 WAIST:0.994535,-0.000000,0.104396,0.001573 WAIST_JOINT0:0.989134,-0.000000,0.145066,0.023885 WAIST_JOINT1:0.998021,0.061488,-0.000000,0.013178 END:
KINECT_DATA_Sensor  AnkleLeft:0.065829,0.723816,-0.070405,-0.683227 AnkleRight:0.091135,0.719711,0.079535,0.683656 ElbowLeft:-0.031592,0.849938,-0.190199,-0.490338 ElbowRight:-0.554229,0.826725,0.096469,0.006989 FootLeft:0.000000,0.000000,0.000000,0.000000 FootRight:0.000000,0.000000,0.000000,0.000000 HandLeft:-0.105954,0.660350,-0.095852,0.737241 HandRight:0.075899,0.419518,-0.557853,0.712070 HandTipLeft:0.000000,0.000000,0.000000,0.000000 HandTipRight:0.000000,0.000000,0.000000,0.000000 Head:0.000000,0.000000,0.000000,0.000000 HipLeft:0.054981,-0.690267,0.714051,-0.103152 HipRight:-0.196096,0.663264,0.686043,-0.225771 KneeLeft:0.023686,-0.629696,0.026072,0.776043 KneeRight:-0.000161,0.777018,0.048475,0.627609 Neck:-0.146782,0.011550,0.985995,-0.078336 ShoulderLeft:0.097651,0.764630,-0.635479,-0.044411 ShoulderRight:-0.092262,0.781671,0.589519,-0.181510 SpineBase:-0.103941,0.011073,0.993942,-0.033956 SpineMid:-0.125103,0.011794,0.991501,-0.033712 SpineShoulder:-0.146904,0.010741,0.987455,-0.056882 ThumbLeft:0.000000,0.000000,0.000000,0.000000 ThumbRight:0.000000,0.000000,0.000000,0.000000 WristLeft:-0.048040,0.663419,-0.137881,0.733864 WristRight:0.057552,0.409702,-0.556848,0.720244 END:
KINECT_DATA POSITION:1.207319,-0.000620,-3.616130 HEAD_JOINT1:0.989087,0.144224,-0.000000,0.030110 LARM_JOINT2:0.819767,0.000000,-0.025247,-0.572140 LARM_JOINT3:0.969036,0.000000,-0.181498,-0.167416 LLEG_JOINT2:0.999400,-0.001218,0.000000,0.034627 LLEG_JOINT4:0.995385,0.095542,0.000000,-0.008971 RARM_JOINT2:0.851936,0.000000,0.488328,0.189053 RARM_JOINT3:0.882784,0.000000,0.462146,0.084336 RLEG_JOINT2:0.998860,0.035757,0.000000,-0.031622 RLEG_JOINT4:0.994739,0.084042,0.000000,0.058582 WAIST:0.994869,-0.000000,0.101174,0.000269 WAIST_JOINT0:0.989309,-0.000000,0.144132,0.022205 WAIST_JOINT1:0.998378,0.054664,-0.000000,0.015897 END:
KINECT_DATA_Sensor  AnkleLeft:0.065984,0.715516,-0.072055,-0.691730 AnkleRight:0.092241,0.729033,0.080721,0.673414 ElbowLeft:-0.030790,0.849858,-0.190708,-0.490330 ElbowRight:-0.528877,0.835834,0.087175,0.118620 FootLeft:0.000000,0.000000,0.000000,0.000000 FootRight:0.000000,0.000000,0.000000,0.000000 HandLeft:-0.098598,0.612722,-0.091732,0.778740 HandRight:-0.146439,-0.396599,0.618949,-0.661942 HandTipLeft:0.000000,0.000000,0.000000,0.000000 HandTipRight:0.000000,0.000000,0.000000,0.000000 Head:0.000000,0.000000,0.000000,0.000000 HipLeft:0.057015,-0.691087,0.713025,-0.103646 HipRight:-0.194793,0.663493,0.687287,-0.222419 KneeLeft:0.022992,-0.632255,0.026278,0.773973 KneeRight:-0.001662,0.774932,0.047509,0.630255 Neck:-0.146085,0.014308,0.986678,-0.070150 ShoulderLeft:0.084588,0.765074,-0.637020,-0.041383 ShoulderRight:-0.105594,0.779850,0.589300,-0.182784 SpineBase:-0.100657,0.011318,0.994323,-0.032602 SpineMid:-0.123135,0.012053,0.991790,-0.032337 SpineShoulder:-0.146187,0.012700,0.987875,-0.050715 ThumbLeft:0.000000,0.000000,0.000000,0.000000 ThumbRight:0.000000,0.000000,0.000000,0.000000 WristLeft:-0.040033,0.615333,-0.140474,0.774616 WristRight:-0.116857,-0.390580,0.596613,-0.691263 END:
KINECT_DATA POSITION:1.185825,0.009993,-3.620589 HEAD_JOINT1:0.988031,0.152067,-0.000000,0.025898 LARM_JOINT2:0.819908,0.000000,-0.021214,-0.572102 LARM_JOINT3:0.965073,0.000000,-0.195125,-0.174813 LLEG_JOINT2:0.999306,0.001234,0.000000,0.037239 LLEG_JOINT4:0.995620,0.093094,0.000000,-0.008659 RARM_JOINT2:0.855499,0.000000,0.468875,0.219724 RARM_JOINT3:0.861857,0.000000,0.501563,0.075073 RLEG_JOINT2:0.999019,0.032742,0.000000,-0.029831 RLEG_JOINT4:0.994520,0.087001,0.000000,0.057971 WAIST:0.995860,0.000000,0.090881,-0.001690 WAIST_JOINT0:0.989762,-0.000000,0.142569,0.006649 WAIST_JOINT1:0.998413,0.053765,-0.000000,0.016733 END:
KINECT_DATA_Sensor  AnkleLeft:0.066154,0.734716,-0.072482,-0.671240 AnkleRight:0.092059,0.717893,0.080878,0.685284 ElbowLeft:-0.030875,0.852688,-0.190311,-0.485542 ElbowRight:-0.506223,0.842274,0.082379,0.165910 FootLeft:0.000000,0.000000,0.000000,0.000000 FootRight:0.000000,0.000000,0.000000,0.000000 HandLeft:-0.148921,0.671281,-0.095304,0.719806 HandRight:-0.116697,-0.377176,0.627548,-0.671046 HandTipLeft:0.000000,0.000000,0.000000,0.000000 HandTipRight:0.000000,0.000000,0.000000,0.000000 Head:0.000000,0.000000,0.000000,0.000000 HipLeft:0.064050,-0.691396,0.711184,-0.109940 HipRight:-0.189389,0.663980,0.690203,-0.216525 KneeLeft:0.021660,-0.640268,0.028233,0.767327 KneeRight:-0.003119,0.768261,0.045447,0.638513 Neck:-0.143273,0.013968,0.987156,-0.069285 ShoulderLeft:0.077311,0.765555,-0.637690,-0.036057 ShoulderRight:-0.112026,0.758695,0.615018,-0.183260 SpineBase:-0.090283,0.010727,0.995338,-0.032176 SpineMid:-0.116534,0.011573,0.992607,-0.031882 SpineShoulder:-0.143343,0.012688,0.988345,-0.049668 ThumbLeft:0.000000,0.000000,0.000000,0.000000 ThumbRight:0.000000,0.000000,0.000000,0.000000 WristLeft:-0.057637,0.676745,-0.136163,0.721217 WristRight:-0.138037,-0.396723,0.617344,-0.665164 END:
