EastLYD/RoboCupatHomeSim/InteractiveCleanUp/JapanOpen2016/Motion_Data/File50.dat
KINECT_DATA POSITION:11.919033,-0.799938,8.463502 HEAD_JOINT1:0.977633,0.153529,-0.000000,0.143748 LARM_JOINT2:0.854831,0.000000,-0.028544,-0.518121 LARM_JOINT3:0.967550,0.000000,-0.171530,-0.185540 LLEG_JOINT2:0.997913,0.020198,0.000000,0.061327 LLEG_JOINT4:0.994393,0.095806,0.000000,-0.044754 RARM_JOINT2:0.796245,0.000000,-0.081717,0.599430 RARM_JOINT3:0.969446,0.000000,0.228945,0.088085 RLEG_JOINT2:0.999264,0.025300,0.000000,-0.028827 RLEG_JOINT4:0.996064,0.081234,0.000000,0.035468 WAIST:0.999479,0.000000,-0.032052,-0.003877 WAIST_JOINT0:0.997660,0.000000,-0.068143,-0.005580 WAIST_JOINT1:0.997091,0.072647,0.000000,-0.023045 END:
KINECT_DATA_Sensor  AnkleLeft:0.073382,0.745065,-0.090179,-0.656780 AnkleRight:0.079112,0.673977,0.070964,0.731068 ElbowLeft:-0.045805,0.919126,-0.210662,-0.329744 ElbowRight:0.012935,0.747911,0.211791,0.628972 FootLeft:0.000000,0.000000,0.000000,0.000000 FootRight:0.000000,0.000000,0.000000,0.000000 HandLeft:-0.095972,0.612691,-0.030198,0.783892 HandRight:-0.010815,-0.335591,-0.154169,0.929244 HandTipLeft:0.000000,0.000000,0.000000,0.000000 HandTipRight:0.000000,0.000000,0.000000,0.000000 Head:0.000000,0.000000,0.000000,0.000000 HipLeft:0.140211,-0.677176,0.698048,-0.185752 HipRight:-0.095511,0.676376,0.711179,-0.166184 KneeLeft:-0.028176,0.728152,-0.053951,-0.682708 KneeRight:-0.003936,0.684648,0.041079,0.727705 Neck:0.067510,-0.028795,0.993374,-0.088443 ShoulderLeft:-0.021111,0.790931,-0.600595,0.115190 ShoulderRight:0.066320,0.784569,0.616439,-0.007521 SpineBase:0.031181,-0.023212,0.998070,-0.048417 SpineMid:0.048927,-0.024069,0.997358,-0.047997 SpineShoulder:0.067294,-0.026605,0.995107,-0.067274 ThumbLeft:0.000000,0.000000,0.000000,0.000000 ThumbRight:0.000000,0.000000,0.000000,0.000000 WristLeft:-0.059916,0.614754,-0.110417,0.778650 WristRight:-0.073187,-0.347027,-0.114941,0.927903 END:
KINECT_DATA POSITION:11.917878,-0.801792,8.473682 HEAD_JOINT1:0.977356,0.154988,-0.000000,0.144060 LARM_JOINT2:0.853674,0.000000,-0.026903,-0.520112 LARM_JOINT3:0.967242,0.000000,-0.175502,-0.183416 LLEG_JOINT2:0.997931,0.019824,0.000000,0.061154 LLEG_JOINT4:0.994145,0.097763,0.000000,-0.046012 RARM_JOINT2:0.794900,0.000000,-0.078984,0.601578 RARM_JOINT3:0.970447,0.000000,0.225463,0.086017 RLEG_JOINT2:0.999261,0.025272,0.000000,-0.028959 RLEG_JOINT4:0.996006,0.081575,0.000000,0.036286 WAIST:0.999480,0.000000,-0.032023,-0.003798 WAIST_JOINT0:0.997517,0.000000,-0.070204,-0.005577 WAIST_JOINT1:0.997132,0.072092,0.000000,-0.023054 END:
KINECT_DATA_Sensor  AnkleLeft:0.073504,0.730512,-0.091925,-0.672681 AnkleRight:0.079745,0.672700,0.070763,0.732194 ElbowLeft:-0.045239,0.917479,-0.208898,-0.335480 ElbowRight:0.011605,0.747170,0.208294,0.631043 FootLeft:0.000000,0.000000,0.000000,0.000000 FootRight:0.000000,0.000000,0.000000,0.000000 HandLeft:-0.106675,0.656460,-0.031750,0.746105 HandRight:-0.010743,-0.362840,-0.141897,0.920922 HandTipLeft:0.000000,0.000000,0.000000,0.000000 HandTipRight:0.000000,0.000000,0.000000,0.000000 Head:0.000000,0.000000,0.000000,0.000000 HipLeft:0.140298,-0.677175,0.698096,-0.185506 HipRight:-0.095666,0.676466,0.711124,-0.165965 KneeLeft:-0.028361,0.728118,-0.053615,-0.682763 KneeRight:-0.003993,0.684665,0.041101,0.727688 Neck:0.069534,-0.028885,0.993303,-0.087635 ShoulderLeft:-0.020947,0.790961,-0.600580,0.115087 ShoulderRight:0.068994,0.784118,0.616750,-0.004225 SpineBase:0.031153,-0.023154,0.998086,-0.048140 SpineMid:0.049924,-0.024055,0.997323,-0.047695 SpineShoulder:0.069324,-0.026683,0.995002,-0.066730 ThumbLeft:0.000000,0.000000,0.000000,0.000000 ThumbRight:0.000000,0.000000,0.000000,0.000000 WristLeft:-0.066709,0.658913,-0.107440,0.741512 WristRight:-0.068321,-0.371040,-0.118587,0.918476 END:
KINECT_DATA POSITION:11.932797,-0.806344,8.437610 HEAD_JOINT1:0.977060,0.155964,-0.000000,0.145017 LARM_JOINT2:0.853203,0.000000,-0.026716,-0.520895 LARM_JOINT3:0.968049,0.000000,-0.173315,-0.181225 LLEG_JOINT2:0.997928,0.019822,0.000000,0.061214 LLEG_JOINT4:0.994302,0.096212,0.000000,-0.045891 RARM_JOINT2:0.795963,0.000000,-0.081734,0.599802 RARM_JOINT3:0.971102,0.000000,0.221412,0.089097 RLEG_JOINT2:0.999237,0.026227,0.000000,-0.028950 RLEG_JOINT4:0.996017,0.080934,0.000000,0.037425 WAIST:0.999484,0.000000,-0.031908,-0.003741 WAIST_JOINT0:0.997616,0.000000,-0.068776,-0.005714 WAIST_JOINT1:0.997151,0.071764,0.000000,-0.023216 END:
KINECT_DATA_Sensor  AnkleLeft:0.073244,0.737869,-0.090190,-0.664869 AnkleRight:0.080842,0.673265,0.070055,0.731623 ElbowLeft:-0.044767,0.917826,-0.207995,-0.335155 ElbowRight:0.013240,0.750396,0.210887,0.626304 FootLeft:0.000000,0.000000,0.000000,0.000000 FootRight:0.000000,0.000000,0.000000,0.000000 HandLeft:-0.102222,0.840693,-0.005722,0.531745 HandRight:0.005792,-0.531511,-0.125750,0.837645 HandTipLeft:0.000000,0.000000,0.000000,0.000000 HandTipRight:0.000000,0.000000,0.000000,0.000000 Head:0.000000,0.000000,0.000000,0.000000 HipLeft:0.140145,-0.677229,0.698162,-0.185178 HipRight:-0.095669,0.676558,0.711084,-0.165757 KneeLeft:-0.028440,0.728039,-0.053700,-0.682837 KneeRight:-0.003254,0.684718,0.041706,0.727607 Neck:0.068060,-0.028909,0.993431,-0.087335 ShoulderLeft:-0.020861,0.791080,-0.600594,0.114212 ShoulderRight:0.067209,0.784555,0.616380,-0.005643 SpineBase:0.031039,-0.023129,0.998098,-0.047971 SpineMid:0.049138,-0.023995,0.997371,-0.047544 SpineShoulder:0.067848,-0.026692,0.995123,-0.066440 ThumbLeft:0.000000,0.000000,0.000000,0.000000 ThumbRight:0.000000,0.000000,0.000000,0.000000 WristLeft:-0.094878,0.844947,-0.082731,0.519825 WristRight:-0.044944,-0.534788,-0.127572,0.834091 END:
KINECT_DATA POSITION:11.979275,-0.801566,8.391619 HEAD_JOINT1:0.976906,0.156561,-0.000000,0.145407 LARM_JOINT2:0.852818,0.000000,-0.027404,-0.521489 LARM_JOINT3:0.968040,0.000000,-0.174803,-0.179843 LLEG_JOINT2:0.997966,0.019415,0.000000,0.060727 LLEG_JOINT4:0.994318,0.096246,0.000000,-0.045470 RARM_JOINT2:0.795471,0.000000,-0.081130,0.600537 RARM_JOINT3:0.971250,0.000000,0.221518,0.087195 RLEG_JOINT2:0.999241,0.025780,0.000000,-0.029214 RLEG_JOINT4:0.996176,0.078775,0.000000,0.037780 WAIST:0.999479,0.000000,-0.032065,-0.003568 WAIST_JOINT0:0.997576,0.000000,-0.069328,-0.005949 WAIST_JOINT1:0.997145,0.071828,0.000000,-0.023307 END:
KINECT_DATA_Sensor  AnkleLeft:0.073581,0.743073,-0.089460,-0.659109 AnkleRight:0.079122,0.673088,0.068103,0.732158 ElbowLeft:-0.044877,0.918192,-0.207223,-0.334616 ElbowRight:0.013857,0.751707,0.209874,0.625058 FootLeft:0.000000,0.000000,0.000000,0.000000 FootRight:0.000000,0.000000,0.000000,0.000000 HandLeft:-0.100992,0.679956,-0.038215,0.725259 HandRight:0.001326,-0.530789,-0.133514,0.836920 HandTipLeft:0.000000,0.000000,0.000000,0.000000 HandTipRight:0.000000,0.000000,0.000000,0.000000 Head:0.000000,0.000000,0.000000,0.000000 HipLeft:0.139989,-0.677041,0.698326,-0.185361 HipRight:-0.095457,0.676679,0.711026,-0.165638 KneeLeft:-0.028497,0.728126,-0.053185,-0.682783 KneeRight:-0.003631,0.684625,0.041470,0.727706 Neck:0.068566,-0.028891,0.993392,-0.087382 ShoulderLeft:-0.019928,0.791161,-0.600595,0.113806 ShoulderRight:0.068749,0.784278,0.616573,-0.004433 SpineBase:0.031189,-0.022819,0.998093,-0.048144 SpineMid:0.049481,-0.023698,0.997353,-0.047717 SpineShoulder:0.068362,-0.026611,0.995085,-0.066510 ThumbLeft:0.000000,0.000000,0.000000,0.000000 ThumbRight:0.000000,0.000000,0.000000,0.000000 WristLeft:-0.070696,0.682113,-0.104055,0.720345 WristRight:-0.044247,-0.535098,-0.126054,0.834160 END:
KINECT_DATA POSITION:11.988627,-0.814427,8.418667 HEAD_JOINT1:0.976999,0.157066,-0.000000,0.144233 LARM_JOINT2:0.852159,0.000000,-0.027191,-0.522575 LARM_JOINT3:0.968811,0.000000,-0.174297,-0.176139 LLEG_JOINT2:0.997948,0.020233,0.000000,0.060752 LLEG_JOINT4:0.994745,0.092728,0.000000,-0.043407 RARM_JOINT2:0.794927,0.000000,-0.075428,0.601998 RARM_JOINT3:0.965855,0.000000,0.240431,0.096524 RLEG_JOINT2:0.999248,0.026042,0.000000,-0.028738 RLEG_JOINT4:0.996374,0.077290,0.000000,0.035560 WAIST:0.999515,0.000000,-0.030952,-0.003363 WAIST_JOINT0:0.997723,0.000000,-0.067248,-0.005178 WAIST_JOINT1:0.997177,0.071365,0.000000,-0.023337 END:
KINECT_DATA_Sensor  AnkleLeft:0.070131,0.742540,-0.089140,-0.660129 AnkleRight:0.077153,0.674607,0.068429,0.730938 ElbowLeft:-0.044504,0.917787,-0.206206,-0.336401 ElbowRight:0.012271,0.759308,0.205893,0.617178 FootLeft:0.000000,0.000000,0.000000,0.000000 FootRight:0.000000,0.000000,0.000000,0.000000 HandLeft:-0.092741,0.657317,-0.050282,0.746194 HandRight:0.020537,-0.304992,-0.198219,0.931272 HandTipLeft:0.000000,0.000000,0.000000,0.000000 HandTipRight:0.000000,0.000000,0.000000,0.000000 Head:0.000000,0.000000,0.000000,0.000000 HipLeft:0.139679,-0.677126,0.698506,-0.184607 HipRight:-0.096537,0.676727,0.710718,-0.166136 KneeLeft:-0.028031,0.727414,-0.053980,-0.683498 KneeRight:-0.003015,0.685424,0.041158,0.726974 Neck:0.066418,-0.028684,0.993590,-0.086864 ShoulderLeft:-0.018379,0.790872,-0.601454,0.111518 ShoulderRight:0.067564,0.784699,0.616159,-0.005459 SpineBase:0.030077,-0.022667,0.998150,-0.047734 SpineMid:0.047856,-0.023514,0.997455,-0.047323 SpineShoulder:0.066208,-0.026453,0.995264,-0.066076 ThumbLeft:0.000000,0.000000,0.000000,0.000000 ThumbRight:0.000000,0.000000,0.000000,0.000000 WristLeft:-0.067026,0.659108,-0.106161,0.741494 WristRight:-0.062751,-0.326939,-0.118861,0.935439 END:
KINECT_DATA POSITION:12.030602,-0.858187,8.534646 HEAD_JOINT1:0.977927,0.155045,-0.000000,0.140069 LARM_JOINT2:0.851947,0.000000,-0.025400,-0.523012 LARM_JOINT3:0.968839,0.000000,-0.174848,-0.175439 LLEG_JOINT2:0.998000,0.020104,0.000000,0.059930 LLEG_JOINT4:0.994266,0.096619,0.000000,-0.045825 RARM_JOINT2:0.796621,0.000000,-0.024640,0.603977 RARM_JOINT3:0.951146,0.000000,0.284942,0.118863 RLEG_JOINT2:0.999250,0.024589,0.000000,-0.029898 RLEG_JOINT4:0.995850,0.082853,0.000000,0.037657 WAIST:0.999592,0.000000,-0.028348,-0.003360 WAIST_JOINT0:0.998029,0.000000,-0.062671,-0.003360 WAIST_JOINT1:0.997261,0.070402,0.000000,-0.022696 END:
KINECT_DATA_Sensor  AnkleLeft:0.073792,0.729000,-0.090558,-0.674472 AnkleRight:0.083817,0.709244,0.066939,0.696755 ElbowLeft:-0.044629,0.914848,-0.206562,-0.344082 ElbowRight:-0.013816,0.794759,0.183919,0.578222 FootLeft:0.000000,0.000000,0.000000,0.000000 FootRight:0.000000,0.000000,0.000000,0.000000 HandLeft:-0.085961,0.633825,-0.052206,0.766910 HandRight:0.079447,-0.230791,-0.284322,0.927138 HandTipLeft:0.000000,0.000000,0.000000,0.000000 HandTipRight:0.000000,0.000000,0.000000,0.000000 Head:0.000000,0.000000,0.000000,0.000000 HipLeft:0.139344,-0.677596,0.698659,-0.182546 HipRight:-0.099695,0.676556,0.710335,-0.166606 KneeLeft:-0.027373,0.725726,-0.053405,-0.685362 KneeRight:-0.004969,0.687275,0.041000,0.725222 Neck:0.061811,-0.027909,0.994034,-0.085422 ShoulderLeft:-0.015846,0.791098,-0.601995,0.107310 ShoulderRight:0.064157,0.786248,0.614515,-0.008349 SpineBase:0.027550,-0.021940,0.998320,-0.046017 SpineMid:0.044298,-0.022710,0.997717,-0.045642 SpineShoulder:0.061590,-0.025901,0.995629,-0.065266 ThumbLeft:0.000000,0.000000,0.000000,0.000000 ThumbRight:0.000000,0.000000,0.000000,0.000000 WristLeft:-0.063847,0.635277,-0.110879,0.761612 WristRight:-0.013487,-0.263767,-0.178942,0.947747 END:
KINECT_DATA POSITION:12.177619,-0.957382,8.785272 HEAD_JOINT1:0.979702,0.149861,-0.000000,0.133137 LARM_JOINT2:0.851311,0.000000,-0.022582,-0.524176 LARM_JOINT3:0.967339,0.000000,-0.181443,-0.177014 LLEG_JOINT2:0.998195,0.021003,0.000000,0.056264 LLEG_JOINT4:0.994499,0.094452,0.000000,-0.045289 RARM_JOINT2:0.793227,0.000000,0.094710,0.601516 RARM_JOINT3:0.956212,0.000000,0.273402,0.104446 RLEG_JOINT2:0.999127,0.026045,0.000000,-0.032657 RLEG_JOINT4:0.995672,0.083509,0.000000,0.040788 WAIST:0.999696,0.000000,-0.024555,-0.002330 WAIST_JOINT0:0.998649,0.000000,-0.051956,0.001242 WAIST_JOINT1:0.997402,0.068611,0.000000,-0.021965 END:
KINECT_DATA_Sensor  AnkleLeft:0.074915,0.727909,-0.087823,-0.675887 AnkleRight:0.083245,0.682445,0.071080,0.722694 ElbowLeft:-0.045038,0.910331,-0.207206,-0.355435 ElbowRight:-0.082381,0.843055,0.130816,0.515131 FootLeft:0.000000,0.000000,0.000000,0.000000 FootRight:0.000000,0.000000,0.000000,0.000000 HandLeft:-0.093501,0.601436,-0.061200,0.791067 HandRight:0.125416,-0.211093,-0.320038,0.915033 HandTipLeft:0.000000,0.000000,0.000000,0.000000 HandTipRight:0.000000,0.000000,0.000000,0.000000 Head:0.000000,0.000000,0.000000,0.000000 HipLeft:0.139071,-0.677773,0.699449,-0.179038 HipRight:-0.104859,0.677298,0.708943,-0.166348 KneeLeft:-0.024602,0.723346,-0.052371,-0.688057 KneeRight:-0.005238,0.689883,0.043265,0.722608 Neck:0.051125,-0.025352,0.994917,-0.082972 ShoulderLeft:-0.012938,0.790626,-0.603899,0.100244 ShoulderRight:0.053404,0.790137,0.610340,-0.017814 SpineBase:0.023841,-0.019707,0.998613,-0.042617 SpineMid:0.037137,-0.020273,0.998207,-0.042351 SpineShoulder:0.050866,-0.024110,0.996370,-0.063856 ThumbLeft:0.000000,0.000000,0.000000,0.000000 ThumbRight:0.000000,0.000000,0.000000,0.000000 WristLeft:-0.061733,0.603561,-0.117682,0.786164 WristRight:0.037939,-0.242574,-0.232794,0.941024 END:
KINECT_DATA POSITION:12.312314,-0.979842,9.006273 HEAD_JOINT1:0.981097,0.149007,-0.000000,0.123470 LARM_JOINT2:0.849910,0.000000,-0.018594,-0.526600 LARM_JOINT3:0.968534,0.000000,-0.176756,-0.175213 LLEG_JOINT2:0.998367,0.020915,0.000000,0.053165 LLEG_JOINT4:0.994689,0.094651,0.000000,-0.040443 RARM_JOINT2:0.797580,0.000000,0.164321,0.580400 RARM_JOINT3:0.960891,0.000000,0.262313,0.088768 RLEG_JOINT2:0.998953,0.029597,0.000000,-0.034872 RLEG_JOINT4:0.995916,0.080275,0.000000,0.041308 WAIST:0.999836,0.000000,-0.018061,-0.001292 WAIST_JOINT0:0.999433,0.000000,-0.033158,0.005803 WAIST_JOINT1:0.997635,0.065791,0.000000,-0.019873 END:
KINECT_DATA_Sensor  AnkleLeft:0.074462,0.730019,-0.088724,-0.673539 AnkleRight:0.083161,0.692992,0.071642,0.712540 ElbowLeft:-0.044596,0.904976,-0.207984,-0.368474 ElbowRight:-0.133952,0.864434,0.110055,0.471909 FootLeft:0.000000,0.000000,0.000000,0.000000 FootRight:0.000000,0.000000,0.000000,0.000000 HandLeft:-0.077839,0.562429,-0.055274,0.821316 HandRight:0.100227,-0.143541,-0.353711,0.918825 HandTipLeft:0.000000,0.000000,0.000000,0.000000 HandTipRight:0.000000,0.000000,0.000000,0.000000 Head:0.000000,0.000000,0.000000,0.000000 HipLeft:0.137115,-0.678271,0.700518,-0.174421 HipRight:-0.111529,0.677705,0.707172,-0.167882 KneeLeft:-0.022809,0.718997,-0.051061,-0.692759 KneeRight:-0.003755,0.694413,0.046564,0.718059 Neck:0.032543,-0.020505,0.996137,-0.078936 ShoulderLeft:-0.007469,0.788292,-0.608899,0.088216 ShoulderRight:0.035134,0.792663,0.607636,-0.035059 SpineBase:0.017432,-0.017332,0.998916,-0.039519 SpineMid:0.024661,-0.017617,0.998764,-0.039393 SpineShoulder:0.032194,-0.021036,0.997357,-0.061639 ThumbLeft:0.000000,0.000000,0.000000,0.000000 ThumbRight:0.000000,0.000000,0.000000,0.000000 WristLeft:-0.050459,0.563587,-0.124326,0.815087 WristRight:0.037569,-0.168549,-0.268770,0.947598 END:
KINECT_DATA POSITION:12.431109,-0.979511,9.230590 HEAD_JOINT1:0.982254,0.149762,-0.000000,0.112907 LARM_JOINT2:0.846804,0.000000,-0.014335,-0.531711 LARM_JOINT3:0.968974,0.000000,-0.176675,-0.172843 LLEG_JOINT2:0.998453,0.020514,0.000000,0.051680 LLEG_JOINT4:0.994380,0.098398,0.000000,-0.039064 RARM_JOINT2:0.800672,0.000000,0.210193,0.561019 RARM_JOINT3:0.962973,0.000000,0.261691,0.064808 RLEG_JOINT2:0.998899,0.031081,0.000000,-0.035150 RLEG_JOINT4:0.995595,0.083046,0.000000,0.043520 WAIST:0.999940,0.000000,-0.010822,-0.001621 WAIST_JOINT0:0.999840,0.000000,-0.015485,0.008939 WAIST_JOINT1:0.997837,0.063774,0.000000,-0.015951 END:
KINECT_DATA_Sensor  AnkleLeft:0.077319,0.721082,-0.090622,-0.682532 AnkleRight:0.087288,0.702132,0.073453,0.702848 ElbowLeft:-0.042130,0.899277,-0.206762,-0.383112 ElbowRight:-0.173639,0.859339,0.090118,0.472508 FootLeft:0.000000,0.000000,0.000000,0.000000 FootRight:0.000000,0.000000,0.000000,0.000000 HandLeft:-0.089815,0.613358,-0.050224,0.783072 HandRight:0.108688,-0.158443,-0.377878,0.905699 HandTipLeft:0.000000,0.000000,0.000000,0.000000 HandTipRight:0.000000,0.000000,0.000000,0.000000 Head:0.000000,0.000000,0.000000,0.000000 HipLeft:0.133761,-0.679623,0.701041,-0.169594 HipRight:-0.117921,0.677065,0.706343,-0.169582 KneeLeft:-0.021414,0.714121,-0.049675,-0.697929 KneeRight:-0.003454,0.699462,0.048010,0.713047 Neck:0.015018,-0.015970,0.996785,-0.077062 ShoulderLeft:-0.001597,0.785670,-0.613869,0.076711 ShoulderRight:0.018473,0.793385,0.606285,-0.051160 SpineBase:0.010364,-0.014970,0.999147,-0.037056 SpineMid:0.012385,-0.015045,0.999124,-0.037025 SpineShoulder:0.014625,-0.017491,0.997960,-0.059638 ThumbLeft:0.000000,0.000000,0.000000,0.000000 ThumbRight:0.000000,0.000000,0.000000,0.000000 WristLeft:-0.051360,0.614676,-0.122576,0.777503 WristRight:0.049044,-0.184005,-0.307863,0.932179 END:
KINECT_DATA POSITION:12.508594,-1.000291,9.354771 HEAD_JOINT1:0.982921,0.151863,-0.000000,0.103943 LARM_JOINT2:0.844724,0.000000,-0.010645,-0.535097 LARM_JOINT3:0.968428,0.000000,-0.177531,-0.175016 LLEG_JOINT2:0.998563,0.020838,0.000000,0.049373 LLEG_JOINT4:0.994700,0.096282,0.000000,-0.036085 RARM_JOINT2:0.800880,0.000000,0.260179,0.539350 RARM_JOINT3:0.965601,0.000000,0.256766,0.041060 RLEG_JOINT2:0.998788,0.031233,0.000000,-0.038051 RLEG_JOINT4:0.995299,0.085276,0.000000,0.045909 WAIST:0.999976,0.000000,-0.006921,-0.000642 WAIST_JOINT0:0.999911,0.000000,-0.002809,0.013062 WAIST_JOINT1:0.997984,0.062069,0.000000,-0.013226 END:
KINECT_DATA_Sensor  AnkleLeft:0.073834,0.707988,-0.091444,-0.696376 AnkleRight:0.089501,0.708708,0.074550,0.695819 ElbowLeft:-0.040393,0.896304,-0.207339,-0.389894 ElbowRight:-0.213445,0.851289,0.063901,0.475042 FootLeft:0.000000,0.000000,0.000000,0.000000 FootRight:0.000000,0.000000,0.000000,0.000000 HandLeft:-0.095502,0.600103,-0.049498,0.792657 HandRight:0.135981,-0.206902,-0.389597,0.887082 HandTipLeft:0.000000,0.000000,0.000000,0.000000 HandTipRight:0.000000,0.000000,0.000000,0.000000 Head:0.000000,0.000000,0.000000,0.000000 HipLeft:0.131556,-0.679665,0.702059,-0.166919 HipRight:-0.121157,0.677616,0.705075,-0.170372 KneeLeft:-0.020035,0.711452,-0.049066,-0.700734 KneeRight:-0.004871,0.702242,0.049484,0.710200 Neck:0.002323,-0.011839,0.997067,-0.075576 ShoulderLeft:0.000684,0.784364,-0.616401,0.069445 ShoulderRight:0.004303,0.796331,0.601504,-0.063488 SpineBase:0.006487,-0.012946,0.999252,-0.035858 SpineMid:0.004134,-0.012862,0.999264,-0.035888 SpineShoulder:0.001964,-0.013548,0.998227,-0.057928 ThumbLeft:0.000000,0.000000,0.000000,0.000000 ThumbRight:0.000000,0.000000,0.000000,0.000000 WristLeft:-0.047309,0.601549,-0.124082,0.787721 WristRight:0.076213,-0.233050,-0.343939,0.906413 END:
KINECT_DATA POSITION:12.550513,-1.026946,9.398055 HEAD_JOINT1:0.983325,0.154551,-0.000000,0.095842 LARM_JOINT2:0.842626,0.000000,-0.008222,-0.538437 LARM_JOINT3:0.967543,0.000000,-0.178969,-0.178414 LLEG_JOINT2:0.998687,0.020680,0.000000,0.046862 LLEG_JOINT4:0.994860,0.095946,0.000000,-0.032364 RARM_JOINT2:0.792989,0.000000,0.310397,0.524234 RARM_JOINT3:0.968493,0.000000,0.247817,0.024653 RLEG_JOINT2:0.998726,0.031993,0.000000,-0.039024 RLEG_JOINT4:0.995250,0.085578,0.000000,0.046409 WAIST:0.999989,0.000000,-0.004625,0.000055 WAIST_JOINT0:0.999769,-0.000000,0.009340,0.019340 WAIST_JOINT1:0.998098,0.060821,0.000000,-0.010082 END:
KINECT_DATA_Sensor  AnkleLeft:0.071715,0.701746,-0.092792,-0.702708 AnkleRight:0.090465,0.712131,0.075068,0.692135 ElbowLeft:-0.039350,0.894551,-0.207735,-0.393797 ElbowRight:-0.243906,0.840692,0.025524,0.482799 FootLeft:0.000000,0.000000,0.000000,0.000000 FootRight:0.000000,0.000000,0.000000,0.000000 HandLeft:-0.112750,0.842919,-0.005664,0.526064 HandRight:0.177757,-0.246315,-0.371520,0.877328 HandTipLeft:0.000000,0.000000,0.000000,0.000000 HandTipRight:0.000000,0.000000,0.000000,0.000000 Head:0.000000,0.000000,0.000000,0.000000 HipLeft:0.129694,-0.679568,0.702774,-0.165761 HipRight:-0.122949,0.678055,0.704200,-0.170962 KneeLeft:-0.018742,0.709885,-0.047724,-0.702449 KneeRight:-0.004633,0.703877,0.050207,0.708531 Neck:-0.009958,-0.007936,0.997111,-0.074881 ShoulderLeft:0.001331,0.782948,-0.618802,0.063838 ShoulderRight:-0.011010,0.801177,0.593437,-0.076331 SpineBase:0.004223,-0.011030,0.999296,-0.035616 SpineMid:-0.003073,-0.010770,0.999300,-0.035695 SpineShoulder:-0.010226,-0.009136,0.998306,-0.056536 ThumbLeft:0.000000,0.000000,0.000000,0.000000 ThumbRight:0.000000,0.000000,0.000000,0.000000 WristLeft:-0.090426,0.850243,-0.098122,0.509197 WristRight:0.112758,-0.272980,-0.373433,0.879384 END:
KINECT_DATA POSITION:12.588114,-1.034703,9.418928 HEAD_JOINT1:0.983341,0.156969,-0.000000,0.091663 LARM_JOINT2:0.840956,0.000000,-0.006770,-0.541061 LARM_JOINT3:0.967061,0.000000,-0.180171,-0.179810 LLEG_JOINT2:0.998812,0.020059,0.000000,0.044402 LLEG_JOINT4:0.994986,0.095158,0.000000,-0.030784 RARM_JOINT2:0.782620,0.000000,0.366879,0.502898 RARM_JOINT3:0.975041,0.000000,0.221987,0.004201 RLEG_JOINT2:0.998642,0.033429,0.000000,-0.039969 RLEG_JOINT4:0.995352,0.083674,0.000000,0.047676 WAIST:0.999999,0.000000,-0.001531,0.000739 WAIST_JOINT0:0.999642,-0.000000,0.017310,0.020410 WAIST_JOINT1:0.998141,0.060489,0.000000,-0.007452 END:
KINECT_DATA_Sensor  AnkleLeft:-0.070839,-0.697452,0.091694,0.707202 AnkleRight:0.091102,0.719165,0.073655,0.684892 ElbowLeft:-0.038495,0.891997,-0.208366,-0.399302 ElbowRight:-0.275406,0.829681,-0.018009,0.485239 FootLeft:0.000000,0.000000,0.000000,0.000000 FootRight:0.000000,0.000000,0.000000,0.000000 HandLeft:-0.101441,0.595177,-0.043141,0.795998 HandRight:0.059172,0.027041,-0.414162,0.907875 HandTipLeft:0.000000,0.000000,0.000000,0.000000 HandTipRight:0.000000,0.000000,0.000000,0.000000 Head:0.000000,0.000000,0.000000,0.000000 HipLeft:0.126767,-0.679441,0.703791,-0.164217 HipRight:-0.124973,0.678250,0.703412,-0.171962 KneeLeft:-0.017778,0.707733,-0.046087,-0.704751 KneeRight:-0.003952,0.706079,0.051391,0.706254 Neck:-0.018279,-0.004853,0.996989,-0.075198 ShoulderLeft:0.002406,0.780827,-0.621828,0.060277 ShoulderRight:-0.020869,0.800925,0.592259,-0.085514 SpineBase:0.001163,-0.008734,0.999322,-0.035736 SpineMid:-0.008700,-0.008381,0.999285,-0.035820 SpineShoulder:-0.018470,-0.005594,0.998248,-0.055927 ThumbLeft:0.000000,0.000000,0.000000,0.000000 ThumbRight:0.000000,0.000000,0.000000,0.000000 WristLeft:-0.048056,0.596640,-0.126347,0.791042 WristRight:0.000807,0.000412,-0.418622,0.908160 END:
KINECT_DATA POSITION:12.602644,-1.041509,9.431803 HEAD_JOINT1:0.982827,0.160796,-0.000000,0.090529 LARM_JOINT2:0.840067,0.000000,-0.006238,-0.542447 LARM_JOINT3:0.968057,0.000000,-0.174350,-0.180185 LLEG_JOINT2:0.998894,0.019561,0.000000,0.042759 LLEG_JOINT4:0.994869,0.097168,0.000000,-0.028182 RARM_JOINT2:0.785232,0.000000,0.387157,0.483239 RARM_JOINT3:0.976384,0.000000,0.215902,0.007793 RLEG_JOINT2:0.998541,0.034487,0.000000,-0.041559 RLEG_JOINT4:0.995324,0.083346,0.000000,0.048814 WAIST:0.999999,-0.000000,0.000776,0.001493 WAIST_JOINT0:0.999346,-0.000000,0.027881,0.023037 WAIST_JOINT1:0.998166,0.060159,0.000000,-0.006807 END:
KINECT_DATA_Sensor  AnkleLeft:0.074458,0.722409,-0.091012,-0.681394 AnkleRight:0.091498,0.719108,0.074339,0.684825 ElbowLeft:-0.036233,0.893949,-0.208588,-0.395010 ElbowRight:-0.296149,0.837885,-0.018292,0.458159 FootLeft:0.000000,0.000000,0.000000,0.000000 FootRight:0.000000,0.000000,0.000000,0.000000 HandLeft:-0.090441,0.565694,-0.041378,0.818595 HandRight:0.044684,0.047815,-0.412074,0.908797 HandTipLeft:0.000000,0.000000,0.000000,0.000000 HandTipRight:0.000000,0.000000,0.000000,0.000000 Head:0.000000,0.000000,0.000000,0.000000 HipLeft:0.124706,-0.679304,0.704627,-0.162772 HipRight:-0.126353,0.678635,0.702633,-0.172617 KneeLeft:-0.017398,0.706103,-0.045144,-0.706454 KneeRight:-0.003912,0.707729,0.052720,0.704503 Neck:-0.028846,-0.003275,0.996746,-0.075191 ShoulderLeft:0.003183,0.779756,-0.623537,0.056321 ShoulderRight:-0.033952,0.801720,0.588707,-0.097554 SpineBase:-0.001141,-0.007315,0.999337,-0.035653 SpineMid:-0.015056,-0.006817,0.999224,-0.035752 SpineShoulder:-0.029006,-0.003794,0.998031,-0.055479 ThumbLeft:0.000000,0.000000,0.000000,0.000000 ThumbRight:0.000000,0.000000,0.000000,0.000000 WristLeft:-0.041091,0.566692,-0.124317,0.813460 WristRight:-0.001607,0.026611,-0.432651,0.901167 END:
KINECT_DATA POSITION:12.637154,-1.051903,9.444773 HEAD_JOINT1:0.982539,0.163505,-0.000000,0.088787 LARM_JOINT2:0.838901,0.000000,-0.005879,-0.544252 LARM_JOINT3:0.967961,0.000000,-0.177445,-0.177663 LLEG_JOINT2:0.998972,0.018910,0.000000,0.041188 LLEG_JOINT4:0.995040,0.096051,0.000000,-0.025878 RARM_JOINT2:0.783120,0.000000,0.421049,0.457647 RARM_JOINT3:0.981090,0.000000,0.192705,0.018089 RLEG_JOINT2:0.998451,0.036363,0.000000,-0.042103 RLEG_JOINT4:0.995480,0.081850,0.000000,0.048167 WAIST:0.999988,-0.000000,0.004382,0.002112 WAIST_JOINT0:0.998899,-0.000000,0.039135,0.025856 WAIST_JOINT1:0.998169,0.060255,0.000000,-0.005252 END:
KINECT_DATA_Sensor  AnkleLeft:0.073383,0.726359,-0.089885,-0.677449 AnkleRight:0.092083,0.730546,0.074129,0.672553 ElbowLeft:-0.034311,0.893922,-0.209054,-0.394996 ElbowRight:-0.323821,0.855961,-0.020195,0.402571 FootLeft:0.000000,0.000000,0.000000,0.000000 FootRight:0.000000,0.000000,0.000000,0.000000 HandLeft:-0.108778,0.857976,-0.017857,0.501722 HandRight:0.025934,0.102900,-0.413228,0.904424 HandTipLeft:0.000000,0.000000,0.000000,0.000000 HandTipRight:0.000000,0.000000,0.000000,0.000000 Head:0.000000,0.000000,0.000000,0.000000 HipLeft:0.121704,-0.679557,0.705351,-0.160843 HipRight:-0.128642,0.678885,0.701573,-0.174246 KneeLeft:0.017035,-0.703559,0.044065,0.709065 KneeRight:-0.002728,0.710286,0.053978,0.701836 Neck:-0.040367,-0.000679,0.996327,-0.075521 ShoulderLeft:0.003368,0.778459,-0.625444,0.053018 ShoulderRight:-0.049106,0.802743,0.583750,-0.111480 SpineBase:-0.004727,-0.005670,0.999334,-0.035723 SpineMid:-0.022542,-0.005033,0.999091,-0.035819 SpineShoulder:-0.040520,-0.001413,0.997640,-0.055417 ThumbLeft:0.000000,0.000000,0.000000,0.000000 ThumbRight:0.000000,0.000000,0.000000,0.000000 WristLeft:-0.088625,0.862831,-0.093380,0.488823 WristRight:-0.017915,0.082434,-0.432907,0.897483 END:
KINECT_DATA POSITION:12.676993,-1.054266,9.451699 HEAD_JOINT1:0.982297,0.165801,-0.000000,0.087191 LARM_JOINT2:0.838668,0.000000,-0.006789,-0.544600 LARM_JOINT3:0.967903,0.000000,-0.177377,-0.178048 LLEG_JOINT2:0.999025,0.017954,0.000000,0.040321 LLEG_JOINT4:0.994740,0.098940,0.000000,-0.026531 RARM_JOINT2:0.783101,0.000000,0.423442,0.455466 RARM_JOINT3:0.982000,0.000000,0.187722,0.020871 RLEG_JOINT2:0.998375,0.037688,0.000000,-0.042734 RLEG_JOINT4:0.995589,0.079778,0.000000,0.049384 WAIST:0.999963,-0.000000,0.008277,0.002487 WAIST_JOINT0:0.998376,-0.000000,0.049162,0.028768 WAIST_JOINT1:0.998149,0.060662,0.000000,-0.004392 END:
KINECT_DATA_Sensor  AnkleLeft:0.074544,0.712998,-0.091179,-0.691205 AnkleRight:0.092160,0.735698,0.072929,0.667036 ElbowLeft:-0.034096,0.892388,-0.209762,-0.398098 ElbowRight:-0.325251,0.859537,-0.021169,0.393650 FootLeft:0.000000,0.000000,0.000000,0.000000 FootRight:0.000000,0.000000,0.000000,0.000000 HandLeft:-0.095343,0.643371,-0.052072,0.757807 HandRight:0.010318,0.129811,-0.398993,0.907660 HandTipLeft:0.000000,0.000000,0.000000,0.000000 HandTipRight:0.000000,0.000000,0.000000,0.000000 Head:0.000000,0.000000,0.000000,0.000000 HipLeft:0.118574,-0.679648,0.706268,-0.158759 HipRight:-0.130919,0.678517,0.701019,-0.176200 KneeLeft:0.017210,-0.700786,0.043100,0.711860 KneeRight:-0.002196,0.713030,0.055083,0.698963 Neck:-0.050526,0.000854,0.995821,-0.076071 ShoulderLeft:0.004574,0.777582,-0.626794,0.049745 ShoulderRight:-0.061449,0.803783,0.578756,-0.123280 SpineBase:-0.008602,-0.004503,0.999304,-0.036023 SpineMid:-0.029495,-0.003749,0.998905,-0.036110 SpineShoulder:-0.050686,-0.000069,0.997160,-0.055711 ThumbLeft:0.000000,0.000000,0.000000,0.000000 ThumbRight:0.000000,0.000000,0.000000,0.000000 WristLeft:-0.050876,0.644819,-0.119023,0.753295 WristRight:-0.025749,0.113031,-0.433654,0.893591 END:
KINECT_DATA POSITION:12.736845,-1.046438,9.438360 HEAD_JOINT1:0.982042,0.169691,-0.000000,0.082457 LARM_JOINT2:0.838336,0.000000,-0.008031,-0.545095 LARM_JOINT3:0.968754,0.000000,-0.174359,-0.176391 LLEG_JOINT2:0.999098,0.016662,0.000000,0.039047 LLEG_JOINT4:0.994928,0.097945,0.000000,-0.022919 RARM_JOINT2:0.783551,0.000000,0.416296,0.461243 RARM_JOINT3:0.981514,0.000000,0.189707,0.025348 RLEG_JOINT2:0.998248,0.040107,0.000000,-0.043503 RLEG_JOINT4:0.995517,0.079794,0.000000,0.050772 WAIST:0.999901,-0.000000,0.013741,0.002989 WAIST_JOINT0:0.997993,-0.000000,0.055359,0.030757 WAIST_JOINT1:0.998093,0.061670,0.000000,-0.002830 END:
KINECT_DATA_Sensor  AnkleLeft:-0.067161,-0.676849,0.094499,0.726936 AnkleRight:0.093963,0.736254,0.074645,0.665980 ElbowLeft:-0.032459,0.892127,-0.211385,-0.397961 ElbowRight:-0.317134,0.859309,-0.024453,0.400521 FootLeft:0.000000,0.000000,0.000000,0.000000 FootRight:0.000000,0.000000,0.000000,0.000000 HandLeft:-0.084071,0.639863,-0.057378,0.761718 HandRight:0.021137,0.138164,-0.378450,0.915008 HandTipLeft:0.000000,0.000000,0.000000,0.000000 HandTipRight:0.000000,0.000000,0.000000,0.000000 Head:0.000000,0.000000,0.000000,0.000000 HipLeft:0.113698,-0.679806,0.707636,-0.155522 HipRight:-0.133630,0.678024,0.700376,-0.178604 KneeLeft:0.017380,-0.696889,0.041725,0.715753 KneeRight:-0.001006,0.716864,0.056974,0.694881 Neck:-0.057173,0.002904,0.995361,-0.077322 ShoulderLeft:0.007476,0.775452,-0.629590,0.047272 ShoulderRight:-0.067535,0.803609,0.576726,-0.130531 SpineBase:-0.014035,-0.002867,0.999229,-0.036558 SpineMid:-0.035515,-0.002080,0.998696,-0.036611 SpineShoulder:-0.057336,0.001692,0.996752,-0.056533 ThumbLeft:0.000000,0.000000,0.000000,0.000000 ThumbRight:0.000000,0.000000,0.000000,0.000000 WristLeft:-0.046478,0.640891,-0.118143,0.757061 WristRight:-0.021865,0.118537,-0.433288,0.893159 END:
KINECT_DATA POSITION:12.780941,-1.044402,9.425247 HEAD_JOINT1:0.981829,0.154360,-0.000000,0.110382 LARM_JOINT2:0.844176,0.000000,-0.015837,-0.535832 LARM_JOINT3:0.968316,0.000000,-0.180060,-0.173037 LLEG_JOINT2:0.999190,0.015422,0.000000,0.037160 LLEG_JOINT4:0.994974,0.098162,0.000000,-0.019784 RARM_JOINT2:0.768973,0.000000,0.434575,0.468855 RARM_JOINT3:0.983843,0.000000,0.177622,0.022431 RLEG_JOINT2:0.998069,0.042408,0.000000,-0.045396 RLEG_JOINT4:0.995644,0.076902,0.000000,0.052719 WAIST:0.999838,-0.000000,0.017516,0.004181 WAIST_JOINT0:0.997730,-0.000000,0.058737,0.032929 WAIST_JOINT1:0.997555,0.068840,0.000000,-0.012083 END:
KINECT_DATA_Sensor  AnkleLeft:-0.065177,-0.675168,0.095149,0.728592 AnkleRight:0.094264,0.740492,0.073430,0.661358 ElbowLeft:-0.032953,0.890320,-0.213844,-0.400644 ElbowRight:-0.311105,0.863179,-0.041452,0.395496 FootLeft:0.000000,0.000000,0.000000,0.000000 FootRight:0.000000,0.000000,0.000000,0.000000 HandLeft:-0.100178,0.813914,-0.044838,0.570524 HandRight:0.034800,0.140903,-0.369817,0.917699 HandTipLeft:0.000000,0.000000,0.000000,0.000000 HandTipRight:0.000000,0.000000,0.000000,0.000000 Head:0.000000,0.000000,0.000000,0.000000 HipLeft:0.109905,-0.679198,0.709117,-0.154155 HipRight:-0.133098,0.677618,0.699770,-0.182868 KneeLeft:0.017665,-0.694014,0.040402,0.718610 KneeRight:-0.000138,0.719551,0.059090,0.691921 Neck:-0.059491,-0.008257,0.994448,-0.086403 ShoulderLeft:0.022385,0.776961,-0.627625,0.043779 ShoulderRight:-0.054000,0.803169,0.578737,-0.130643 SpineBase:-0.017994,-0.004815,0.999053,-0.039324 SpineMid:-0.038496,-0.004007,0.998473,-0.039414 SpineShoulder:-0.059528,-0.005581,0.996202,-0.063298 ThumbLeft:0.000000,0.000000,0.000000,0.000000 ThumbRight:0.000000,0.000000,0.000000,0.000000 WristLeft:-0.075300,0.818400,-0.104063,0.560109 WristRight:-0.011053,0.119970,-0.426819,0.896276 END:
KINECT_DATA POSITION:12.892296,-1.065560,9.427381 HEAD_JOINT1:0.983978,0.157596,-0.000000,0.083372 LARM_JOINT2:0.838673,0.000000,-0.014461,-0.544444 LARM_JOINT3:0.968149,0.000000,-0.175804,-0.178268 LLEG_JOINT2:0.999327,0.014918,0.000000,0.033524 LLEG_JOINT4:0.994980,0.098474,0.000000,-0.017837 RARM_JOINT2:0.770447,0.000000,0.429928,0.470717 RARM_JOINT3:0.984463,0.000000,0.174660,0.018054 RLEG_JOINT2:0.997778,0.044461,0.000000,-0.049626 RLEG_JOINT4:0.995459,0.075982,0.000000,0.057351 WAIST:0.999737,-0.000000,0.022046,0.006274 WAIST_JOINT0:0.997107,-0.000000,0.065918,0.037845 WAIST_JOINT1:0.997766,0.066775,0.000000,-0.002237 END:
KINECT_DATA_Sensor  AnkleLeft:0.072383,0.727194,-0.089573,-0.676702 AnkleRight:0.092685,0.709707,0.077461,0.694064 ElbowLeft:-0.033259,0.887678,-0.215370,-0.405632 ElbowRight:-0.305224,0.863014,-0.051065,0.399296 FootLeft:0.000000,0.000000,0.000000,0.000000 FootRight:0.000000,0.000000,0.000000,0.000000 HandLeft:-0.080432,0.572220,-0.055406,0.814263 HandRight:0.026750,0.130201,-0.370070,0.919446 HandTipLeft:0.000000,0.000000,0.000000,0.000000 HandTipRight:0.000000,0.000000,0.000000,0.000000 Head:0.000000,0.000000,0.000000,0.000000 HipLeft:0.106636,-0.678067,0.710819,-0.153593 HipRight:-0.136071,0.678217,0.697628,-0.186605 KneeLeft:0.016827,-0.690724,0.038970,0.721871 KneeRight:-0.000557,0.722809,0.062006,0.688260 Neck:-0.067693,0.007532,0.994310,-0.081903 ShoulderLeft:0.023483,0.772165,-0.633777,0.039194 ShoulderRight:-0.065008,0.805986,0.571862,-0.138326 SpineBase:-0.022598,-0.002334,0.998914,-0.040675 SpineMid:-0.045170,-0.001414,0.998148,-0.040717 SpineShoulder:-0.067930,0.004965,0.995776,-0.061566 ThumbLeft:0.000000,0.000000,0.000000,0.000000 ThumbRight:0.000000,0.000000,0.000000,0.000000 WristLeft:-0.032750,0.572807,-0.125954,0.809293 WristRight:0.000476,0.116555,-0.428680,0.895906 END:
KINECT_DATA POSITION:12.935770,-1.076488,9.423458 HEAD_JOINT1:0.984019,0.160240,-0.000000,0.077656 LARM_JOINT2:0.838001,0.000000,-0.013208,-0.545509 LARM_JOINT3:0.968335,0.000000,-0.172004,-0.180945 LLEG_JOINT2:0.999379,0.014393,0.000000,0.032162 LLEG_JOINT4:0.995028,0.098248,0.000000,-0.016302 RARM_JOINT2:0.771183,0.000000,0.423460,0.475351 RARM_JOINT3:0.984122,0.000000,0.177056,0.012410 RLEG_JOINT2:0.997692,0.045321,0.000000,-0.050569 RLEG_JOINT4:0.995809,0.072723,0.000000,0.055455 WAIST:0.999675,-0.000000,0.024501,0.007037 WAIST_JOINT0:0.996761,-0.000000,0.069805,0.039935 WAIST_JOINT1:0.997814,0.066069,0.000000,-0.001680 END:
KINECT_DATA_Sensor  AnkleLeft:-0.064002,-0.669004,0.095041,0.734373 AnkleRight:0.093158,0.746302,0.072690,0.655035 ElbowLeft:-0.031839,0.887606,-0.215772,-0.405690 ElbowRight:-0.299523,0.858918,-0.054319,0.411820 FootLeft:0.000000,0.000000,0.000000,0.000000 FootRight:0.000000,0.000000,0.000000,0.000000 HandLeft:-0.083339,0.589573,-0.042933,0.802256 HandRight:0.011889,0.141014,-0.367652,0.919133 HandTipLeft:0.000000,0.000000,0.000000,0.000000 HandTipRight:0.000000,0.000000,0.000000,0.000000 Head:0.000000,0.000000,0.000000,0.000000 HipLeft:0.104896,-0.677793,0.711580,-0.152474 HipRight:-0.137945,0.678537,0.696737,-0.187395 KneeLeft:0.016722,-0.688977,0.038192,0.723583 KneeRight:-0.000266,0.724546,0.062728,0.686366 Neck:-0.071906,0.008313,0.994061,-0.081263 ShoulderLeft:0.024031,0.770806,-0.635538,0.037039 ShoulderRight:-0.070137,0.806848,0.569105,-0.142113 SpineBase:-0.025034,-0.000544,0.998866,-0.040497 SpineMid:-0.048408,0.000404,0.998006,-0.040499 SpineShoulder:-0.072071,0.006364,0.995527,-0.060760 ThumbLeft:0.000000,0.000000,0.000000,0.000000 ThumbRight:0.000000,0.000000,0.000000,0.000000 WristLeft:-0.032919,0.589669,-0.123762,0.797427 WristRight:-0.004870,0.130748,-0.431872,0.892394 END:
KINECT_DATA POSITION:12.952810,-1.087684,9.408558 HEAD_JOINT1:0.983833,0.163460,-0.000000,0.073164 LARM_JOINT2:0.837094,0.000000,-0.013905,-0.546882 LARM_JOINT3:0.967087,0.000000,-0.178771,-0.181060 LLEG_JOINT2:0.999405,0.014235,0.000000,0.031430 LLEG_JOINT4:0.994921,0.099328,0.000000,-0.016313 RARM_JOINT2:0.771443,0.000000,0.421924,0.476294 RARM_JOINT3:0.983570,0.000000,0.180039,0.013295 RLEG_JOINT2:0.997559,0.047069,0.000000,-0.051589 RLEG_JOINT4:0.996005,0.067854,0.000000,0.058052 WAIST:0.999632,-0.000000,0.026039,0.007584 WAIST_JOINT0:0.996659,-0.000000,0.070964,0.040447 WAIST_JOINT1:0.997875,0.065129,0.000000,-0.001777 END:
KINECT_DATA_Sensor  AnkleLeft:0.072390,0.724751,-0.089898,-0.679274 AnkleRight:0.092169,0.746894,0.069238,0.654875 ElbowLeft:-0.032314,0.887393,-0.214191,-0.406953 ElbowRight:-0.299001,0.859290,-0.054826,0.411356 FootLeft:0.000000,0.000000,0.000000,0.000000 FootRight:0.000000,0.000000,0.000000,0.000000 HandLeft:-0.122761,0.870830,-0.012997,0.475833 HandRight:0.027278,0.120547,-0.371547,0.920151 HandTipLeft:0.000000,0.000000,0.000000,0.000000 HandTipRight:0.000000,0.000000,0.000000,0.000000 Head:0.000000,0.000000,0.000000,0.000000 HipLeft:0.104058,-0.677613,0.712029,-0.151746 HipRight:-0.139334,0.678831,0.696055,-0.187832 KneeLeft:0.016667,-0.687882,0.037956,0.724638 KneeRight:0.000490,0.725634,0.064303,0.685069 Neck:-0.073413,0.008287,0.994026,-0.080336 ShoulderLeft:0.024472,0.769589,-0.637080,0.035542 ShoulderRight:-0.071740,0.806757,0.568891,-0.142686 SpineBase:-0.026560,0.000619,0.998840,-0.040167 SpineMid:-0.049871,0.001557,0.997947,-0.040142 SpineShoulder:-0.073533,0.006796,0.995476,-0.059785 ThumbLeft:0.000000,0.000000,0.000000,0.000000 ThumbRight:0.000000,0.000000,0.000000,0.000000 WristLeft:-0.083873,0.878875,-0.097083,0.459477 WristRight:0.007264,0.108952,-0.432262,0.895112 END:
KINECT_DATA POSITION:12.987754,-1.099239,9.408545 HEAD_JOINT1:0.983608,0.166817,-0.000000,0.068458 LARM_JOINT2:0.836199,0.000000,-0.013498,-0.548260 LARM_JOINT3:0.968065,0.000000,-0.174819,-0.179690 LLEG_JOINT2:0.999431,0.014969,0.000000,0.030223 LLEG_JOINT4:0.995180,0.097264,0.000000,-0.012528 RARM_JOINT2:0.771601,0.000000,0.420294,0.477478 RARM_JOINT3:0.982683,0.000000,0.184553,0.016578 RLEG_JOINT2:0.997482,0.047944,0.000000,-0.052263 RLEG_JOINT4:0.995972,0.069380,0.000000,0.056791 WAIST:0.999604,-0.000000,0.026910,0.008184 WAIST_JOINT0:0.996675,-0.000000,0.070908,0.040130 WAIST_JOINT1:0.997964,0.063759,0.000000,-0.001673 END:
KINECT_DATA_Sensor  AnkleLeft:-0.062007,-0.668771,0.096576,0.734557 AnkleRight:0.091396,0.733735,0.073807,0.669203 ElbowLeft:-0.032687,0.887095,-0.213027,-0.408184 ElbowRight:-0.298723,0.860670,-0.054613,0.408692 FootLeft:0.000000,0.000000,0.000000,0.000000 FootRight:0.000000,0.000000,0.000000,0.000000 HandLeft:-0.092723,0.570325,-0.059234,0.814017 HandRight:0.038401,0.121085,-0.372466,0.919311 HandTipLeft:0.000000,0.000000,0.000000,0.000000 HandTipRight:0.000000,0.000000,0.000000,0.000000 Head:0.000000,0.000000,0.000000,0.000000 HipLeft:0.103789,-0.677271,0.712503,-0.151234 HipRight:-0.140441,0.679247,0.695470,-0.187673 KneeLeft:0.015698,-0.687285,0.038018,0.725223 KneeRight:0.000970,0.726272,0.064972,0.684329 Neck:-0.073698,0.008656,0.994120,-0.078864 ShoulderLeft:0.024389,0.768566,-0.638390,0.034197 ShoulderRight:-0.072271,0.806329,0.569668,-0.141733 SpineBase:-0.027423,0.001822,0.998838,-0.039598 SpineMid:-0.050407,0.002733,0.997942,-0.039545 SpineShoulder:-0.073780,0.007441,0.995535,-0.058414 ThumbLeft:0.000000,0.000000,0.000000,0.000000 ThumbRight:0.000000,0.000000,0.000000,0.000000 WristLeft:-0.030797,0.571476,-0.125068,0.810447 WristRight:0.012264,0.106722,-0.433753,0.894605 END:
KINECT_DATA POSITION:13.053292,-1.113752,9.404969 HEAD_JOINT1:0.983428,0.168616,-0.000000,0.066626 LARM_JOINT2:0.835776,0.000000,-0.012436,-0.548930 LARM_JOINT3:0.968722,0.000000,-0.173081,-0.177819 LLEG_JOINT2:0.999462,0.015267,0.000000,0.029011 LLEG_JOINT4:0.995146,0.097504,0.000000,-0.013350 RARM_JOINT2:0.770332,0.000000,0.415588,0.483607 RARM_JOINT3:0.982020,0.000000,0.188111,0.015868 RLEG_JOINT2:0.997362,0.048793,0.000000,-0.053749 RLEG_JOINT4:0.995982,0.069315,0.000000,0.056700 WAIST:0.999577,-0.000000,0.027565,0.009259 WAIST_JOINT0:0.996624,-0.000000,0.071637,0.040110 WAIST_JOINT1:0.998004,0.063115,0.000000,-0.002207 END:
KINECT_DATA_Sensor  AnkleLeft:-0.063098,-0.668225,0.096199,0.735010 AnkleRight:0.092970,0.747189,0.072931,0.654023 ElbowLeft:-0.032317,0.886556,-0.212932,-0.409430 ElbowRight:-0.292533,0.857876,-0.058193,0.418434 FootLeft:0.000000,0.000000,0.000000,0.000000 FootRight:0.000000,0.000000,0.000000,0.000000 HandLeft:-0.098585,0.848073,-0.021374,0.520189 HandRight:0.042559,0.115320,-0.364044,0.923234 HandTipLeft:0.000000,0.000000,0.000000,0.000000 HandTipRight:0.000000,0.000000,0.000000,0.000000 Head:0.000000,0.000000,0.000000,0.000000 HipLeft:0.103824,-0.676541,0.713216,-0.151115 HipRight:-0.141451,0.679921,0.694575,-0.187787 KneeLeft:0.015387,-0.686798,0.038110,0.725686 KneeRight:0.001195,0.726791,0.065848,0.683694 Neck:-0.074509,0.009145,0.994108,-0.078189 ShoulderLeft:0.024636,0.768175,-0.638910,0.033068 ShoulderRight:-0.073135,0.806149,0.569779,-0.141872 SpineBase:-0.028111,0.002998,0.998831,-0.039208 SpineMid:-0.051123,0.003901,0.997918,-0.039128 SpineShoulder:-0.074581,0.007930,0.995511,-0.057726 ThumbLeft:0.000000,0.000000,0.000000,0.000000 ThumbRight:0.000000,0.000000,0.000000,0.000000 WristLeft:-0.079258,0.852536,-0.101611,0.506532 WristRight:0.019283,0.101232,-0.437207,0.893437 END:
KINECT_DATA POSITION:13.114434,-1.123022,9.408438 HEAD_JOINT1:0.983281,0.170096,-0.000000,0.065013 LARM_JOINT2:0.835446,0.000000,-0.012518,-0.549430 LARM_JOINT3:0.969000,0.000000,-0.170990,-0.178330 LLEG_JOINT2:0.999508,0.015235,0.000000,0.027430 LLEG_JOINT4:0.995245,0.096713,0.000000,-0.011571 RARM_JOINT2:0.770356,0.000000,0.411999,0.486629 RARM_JOINT3:0.982129,0.000000,0.187915,0.010496 RLEG_JOINT2:0.997263,0.049638,0.000000,-0.054805 RLEG_JOINT4:0.995603,0.071554,0.000000,0.060454 WAIST:0.999552,-0.000000,0.028124,0.010212 WAIST_JOINT0:0.996480,-0.000000,0.073004,0.041203 WAIST_JOINT1:0.998007,0.063047,0.000000,-0.002673 END:
KINECT_DATA_Sensor  AnkleLeft:-0.061705,-0.667700,0.096415,0.735577 AnkleRight:0.092902,0.704568,0.078452,0.699141 ElbowLeft:-0.031855,0.887143,-0.212859,-0.408232 ElbowRight:-0.289363,0.859611,-0.056779,0.417270 FootLeft:0.000000,0.000000,0.000000,0.000000 FootRight:0.000000,0.000000,0.000000,0.000000 HandLeft:-0.084200,0.605635,-0.051699,0.789584 HandRight:0.018467,0.124437,-0.367899,0.921317 HandTipLeft:0.000000,0.000000,0.000000,0.000000 HandTipRight:0.000000,0.000000,0.000000,0.000000 Head:0.000000,0.000000,0.000000,0.000000 HipLeft:0.103518,-0.675856,0.713952,-0.150913 HipRight:-0.142064,0.680490,0.693894,-0.187783 KneeLeft:0.014981,-0.686386,0.037618,0.726109 KneeRight:0.001647,0.727240,0.066511,0.683151 Neck:-0.075966,0.009709,0.993997,-0.078130 ShoulderLeft:0.025259,0.767550,-0.639680,0.032224 ShoulderRight:-0.074487,0.806654,0.568586,-0.143079 SpineBase:-0.028699,0.004082,0.998818,-0.039029 SpineMid:-0.052110,0.004996,0.997870,-0.038922 SpineShoulder:-0.076037,0.008411,0.995404,-0.057597 ThumbLeft:0.000000,0.000000,0.000000,0.000000 ThumbRight:0.000000,0.000000,0.000000,0.000000 WristLeft:-0.034980,0.606140,-0.122646,0.785066 WristRight:0.014676,0.117922,-0.436398,0.891872 END:
KINECT_DATA POSITION:13.154469,-1.127681,9.416235 HEAD_JOINT1:0.982924,0.172253,-0.000000,0.064718 LARM_JOINT2:0.835452,0.000000,-0.012415,-0.549423 LARM_JOINT3:0.967549,0.000000,-0.180688,-0.176637 LLEG_JOINT2:0.999556,0.015002,0.000000,0.025739 LLEG_JOINT4:0.995035,0.098830,0.000000,-0.011774 RARM_JOINT2:0.770609,0.000000,0.417334,0.481658 RARM_JOINT3:0.983088,0.000000,0.182802,0.010972 RLEG_JOINT2:0.997208,0.049918,0.000000,-0.055534 RLEG_JOINT4:0.995891,0.069673,0.000000,0.057844 WAIST:0.999534,-0.000000,0.028530,0.010846 WAIST_JOINT0:0.996566,-0.000000,0.072024,0.040858 WAIST_JOINT1:0.998002,0.063106,0.000000,-0.002978 END:
KINECT_DATA_Sensor  AnkleLeft:-0.064039,-0.667884,0.096734,0.735169 AnkleRight:0.094511,0.747129,0.073414,0.653817 ElbowLeft:-0.032003,0.886452,-0.213194,-0.409545 ElbowRight:-0.295021,0.864706,-0.054627,0.402818 FootLeft:0.000000,0.000000,0.000000,0.000000 FootRight:0.000000,0.000000,0.000000,0.000000 HandLeft:-0.126437,0.870986,-0.032882,0.473620 HandRight:0.017227,0.107137,-0.373278,0.921351 HandTipLeft:0.000000,0.000000,0.000000,0.000000 HandTipRight:0.000000,0.000000,0.000000,0.000000 Head:0.000000,0.000000,0.000000,0.000000 HipLeft:0.103034,-0.675416,0.714513,-0.150562 HipRight:-0.142304,0.680869,0.693505,-0.187664 KneeLeft:0.014427,-0.686095,0.036679,0.726443 KneeRight:0.001731,0.727562,0.066766,0.682783 Neck:-0.075077,0.009889,0.994051,-0.078288 ShoulderLeft:0.024997,0.767059,-0.640249,0.032818 ShoulderRight:-0.073644,0.806121,0.569651,-0.142279 SpineBase:-0.029124,0.004804,0.998805,-0.038949 SpineMid:-0.051867,0.005690,0.997883,-0.038829 SpineShoulder:-0.075138,0.008641,0.995470,-0.057607 ThumbLeft:0.000000,0.000000,0.000000,0.000000 ThumbRight:0.000000,0.000000,0.000000,0.000000 WristLeft:-0.083271,0.878249,-0.097495,0.460694 WristRight:0.022971,0.104773,-0.433585,0.894706 END:
KINECT_DATA POSITION:13.158753,-1.129902,9.416771 HEAD_JOINT1:0.982991,0.172356,-0.000000,0.063422 LARM_JOINT2:0.835499,0.000000,-0.014024,-0.549313 LARM_JOINT3:0.967677,0.000000,-0.179981,-0.176657 LLEG_JOINT2:0.999563,0.014838,0.000000,0.025587 LLEG_JOINT4:0.994920,0.099967,0.000000,-0.011882 RARM_JOINT2:0.770933,0.000000,0.416266,0.482063 RARM_JOINT3:0.983779,0.000000,0.179097,0.010179 RLEG_JOINT2:0.997143,0.050195,0.000000,-0.056442 RLEG_JOINT4:0.995983,0.068247,0.000000,0.057971 WAIST:0.999523,-0.000000,0.028887,0.010922 WAIST_JOINT0:0.996678,-0.000000,0.070652,0.040507 WAIST_JOINT1:0.997952,0.063930,0.000000,-0.002267 END:
KINECT_DATA_Sensor  AnkleLeft:0.072649,0.725554,-0.091604,-0.678162 AnkleRight:0.089307,0.713105,0.077816,0.690978 ElbowLeft:-0.032879,0.886037,-0.213757,-0.410080 ElbowRight:-0.292895,0.861128,-0.057136,0.411590 FootLeft:0.000000,0.000000,0.000000,0.000000 FootRight:0.000000,0.000000,0.000000,0.000000 HandLeft:-0.105316,0.654937,-0.070678,0.744963 HandRight:0.012491,0.108968,-0.359561,0.926653 HandTipLeft:0.000000,0.000000,0.000000,0.000000 HandTipRight:0.000000,0.000000,0.000000,0.000000 Head:0.000000,0.000000,0.000000,0.000000 HipLeft:0.102471,-0.675300,0.714653,-0.150796 HipRight:-0.142434,0.680838,0.693432,-0.187947 KneeLeft:0.014485,-0.685851,0.036513,0.726681 KneeRight:0.001294,0.727824,0.067535,0.682429 Neck:-0.073997,0.010555,0.994040,-0.079355 ShoulderLeft:0.025254,0.766507,-0.640843,0.033909 ShoulderRight:-0.072017,0.805828,0.570430,-0.141654 SpineBase:-0.029467,0.005397,0.998777,-0.039337 SpineMid:-0.051503,0.006264,0.997883,-0.039209 SpineShoulder:-0.074043,0.009333,0.995503,-0.058351 ThumbLeft:0.000000,0.000000,0.000000,0.000000 ThumbRight:0.000000,0.000000,0.000000,0.000000 WristLeft:-0.042782,0.657079,-0.121871,0.742674 WristRight:0.019637,0.106191,-0.434888,0.893986 END:
KINECT_DATA POSITION:13.160714,-1.133177,9.420908 HEAD_JOINT1:0.982715,0.173730,-0.000000,0.063951 LARM_JOINT2:0.835691,0.000000,-0.014979,-0.548995 LARM_JOINT3:0.967457,0.000000,-0.180251,-0.177584 LLEG_JOINT2:0.999572,0.014425,0.000000,0.025436 LLEG_JOINT4:0.995293,0.096280,0.000000,-0.011045 RARM_JOINT2:0.771829,0.000000,0.417898,0.479209 RARM_JOINT3:0.984054,0.000000,0.177547,0.010717 RLEG_JOINT2:0.997130,0.049254,0.000000,-0.057493 RLEG_JOINT4:0.995838,0.068997,0.000000,0.059549 WAIST:0.999514,-0.000000,0.029135,0.011073 WAIST_JOINT0:0.996638,-0.000000,0.070773,0.041275 WAIST_JOINT1:0.997914,0.064535,0.000000,-0.001907 END:
KINECT_DATA_Sensor  AnkleLeft:-0.061542,-0.668920,0.094891,0.734680 AnkleRight:0.093384,0.746705,0.072667,0.654546 ElbowLeft:-0.033624,0.885333,-0.214408,-0.411199 ElbowRight:-0.295226,0.863778,-0.054790,0.404633 FootLeft:0.000000,0.000000,0.000000,0.000000 FootRight:0.000000,0.000000,0.000000,0.000000 HandLeft:-0.104029,0.610099,-0.073335,0.782035 HandRight:0.012477,0.106732,-0.365925,0.924420 HandTipLeft:0.000000,0.000000,0.000000,0.000000 HandTipRight:0.000000,0.000000,0.000000,0.000000 Head:0.000000,0.000000,0.000000,0.000000 HipLeft:0.101899,-0.675153,0.714846,-0.150930 HipRight:-0.142421,0.680903,0.693344,-0.188047 KneeLeft:0.014782,-0.685679,0.036228,0.726852 KneeRight:-0.000027,0.728008,0.067468,0.682241 Neck:-0.074226,0.011009,0.993963,-0.080049 ShoulderLeft:0.024996,0.766109,-0.641281,0.034802 ShoulderRight:-0.072670,0.806209,0.569560,-0.142648 SpineBase:-0.029708,0.005988,0.998753,-0.039665 SpineMid:-0.051721,0.006861,0.997856,-0.039523 SpineShoulder:-0.074258,0.009848,0.995449,-0.058910 ThumbLeft:0.000000,0.000000,0.000000,0.000000 ThumbRight:0.000000,0.000000,0.000000,0.000000 WristLeft:-0.034806,0.612321,-0.125353,0.779832 WristRight:0.019432,0.104675,-0.431723,0.895701 END:
KINECT_DATA POSITION:13.156423,-1.133796,9.417999 HEAD_JOINT1:0.982648,0.174086,-0.000000,0.064006 LARM_JOINT2:0.835815,0.000000,-0.014973,-0.548807 LARM_JOINT3:0.967469,0.000000,-0.178275,-0.179506 LLEG_JOINT2:0.999576,0.014390,0.000000,0.025330 LLEG_JOINT4:0.995234,0.096748,0.000000,-0.012172 RARM_JOINT2:0.772392,0.000000,0.418033,0.478182 RARM_JOINT3:0.984158,0.000000,0.176879,0.012080 RLEG_JOINT2:0.997137,0.049103,0.000000,-0.057500 RLEG_JOINT4:0.995903,0.067751,0.000000,0.059892 WAIST:0.999516,-0.000000,0.029025,0.011239 WAIST_JOINT0:0.996722,-0.000000,0.069832,0.040845 WAIST_JOINT1:0.997901,0.064727,0.000000,-0.001755 END:
KINECT_DATA_Sensor  AnkleLeft:0.069876,0.725114,-0.089167,-0.679247 AnkleRight:0.092686,0.746286,0.071401,0.655263 ElbowLeft:-0.033772,0.885099,-0.214948,-0.411407 ElbowRight:-0.295893,0.864139,-0.053917,0.403490 FootLeft:0.000000,0.000000,0.000000,0.000000 FootRight:0.000000,0.000000,0.000000,0.000000 HandLeft:-0.098384,0.557417,-0.069376,0.821458 HandRight:0.007611,0.122691,-0.364014,0.923246 HandTipLeft:0.000000,0.000000,0.000000,0.000000 HandTipRight:0.000000,0.000000,0.000000,0.000000 Head:0.000000,0.000000,0.000000,0.000000 HipLeft:0.101748,-0.675017,0.714954,-0.151132 HipRight:-0.142266,0.681062,0.693245,-0.187954 KneeLeft:0.014854,-0.685760,0.036244,0.726773 KneeRight:-0.000012,0.727947,0.067247,0.682328 Neck:-0.073422,0.011253,0.994003,-0.080255 ShoulderLeft:0.024965,0.765970,-0.641423,0.035270 ShoulderRight:-0.071647,0.806001,0.570166,-0.141913 SpineBase:-0.029600,0.006339,0.998748,-0.039822 SpineMid:-0.051262,0.007202,0.997871,-0.039675 SpineShoulder:-0.073443,0.010141,0.995495,-0.059093 ThumbLeft:0.000000,0.000000,0.000000,0.000000 ThumbRight:0.000000,0.000000,0.000000,0.000000 WristLeft:-0.026315,0.559166,-0.127791,0.818725 WristRight:0.011581,0.119480,-0.431462,0.894109 END:
KINECT_DATA POSITION:13.139965,-1.143425,9.403944 HEAD_JOINT1:0.982549,0.174697,-0.000000,0.063868 LARM_JOINT2:0.835918,0.000000,-0.014053,-0.548674 LARM_JOINT3:0.968219,0.000000,-0.173236,-0.180390 LLEG_JOINT2:0.999577,0.014852,0.000000,0.025015 LLEG_JOINT4:0.995176,0.097172,0.000000,-0.013489 RARM_JOINT2:0.772149,0.000000,0.416922,0.479544 RARM_JOINT3:0.984123,0.000000,0.177001,0.013126 RLEG_JOINT2:0.997146,0.049324,0.000000,-0.057165 RLEG_JOINT4:0.995672,0.068695,0.000000,0.062603 WAIST:0.999513,-0.000000,0.029082,0.011352 WAIST_JOINT0:0.996620,-0.000000,0.070590,0.042015 WAIST_JOINT1:0.997902,0.064709,0.000000,-0.002002 END:
KINECT_DATA_Sensor  AnkleLeft:-0.064235,-0.668521,0.093974,0.734931 AnkleRight:0.095716,0.746115,0.069942,0.655178 ElbowLeft:-0.032477,0.886166,-0.215376,-0.408984 ElbowRight:-0.294431,0.862866,-0.054859,0.407140 FootLeft:0.000000,0.000000,0.000000,0.000000 FootRight:0.000000,0.000000,0.000000,0.000000 HandLeft:-0.094394,0.647996,-0.046064,0.754366 HandRight:0.018001,0.106467,-0.358587,0.927230 HandTipLeft:0.000000,0.000000,0.000000,0.000000 HandTipRight:0.000000,0.000000,0.000000,0.000000 Head:0.000000,0.000000,0.000000,0.000000 HipLeft:0.101558,-0.674914,0.715065,-0.151193 HipRight:-0.142226,0.681145,0.693185,-0.187900 KneeLeft:0.014379,-0.685727,0.036412,0.726805 KneeRight:0.000459,0.727998,0.067096,0.682288 Neck:-0.074102,0.011068,0.993961,-0.080180 ShoulderLeft:0.024861,0.765728,-0.641716,0.035249 ShoulderRight:-0.072667,0.806638,0.568935,-0.142716 SpineBase:-0.029656,0.006635,0.998741,-0.039917 SpineMid:-0.051606,0.007511,0.997847,-0.039762 SpineShoulder:-0.074118,0.010070,0.995447,-0.059083 ThumbLeft:0.000000,0.000000,0.000000,0.000000 ThumbRight:0.000000,0.000000,0.000000,0.000000 WristLeft:-0.040109,0.648460,-0.122188,0.750308 WristRight:0.019472,0.101946,-0.431424,0.896159 END:
KINECT_DATA POSITION:13.130590,-1.155268,9.387350 HEAD_JOINT1:0.982262,0.176502,-0.000000,0.063307 LARM_JOINT2:0.835678,0.000000,-0.012800,-0.549070 LARM_JOINT3:0.968206,0.000000,-0.172959,-0.180726 LLEG_JOINT2:0.999569,0.015046,0.000000,0.025209 LLEG_JOINT4:0.994802,0.100839,0.000000,-0.014184 RARM_JOINT2:0.771774,0.000000,0.416339,0.480652 RARM_JOINT3:0.984083,0.000000,0.177297,0.012122 RLEG_JOINT2:0.997142,0.049266,0.000000,-0.057279 RLEG_JOINT4:0.995914,0.066563,0.000000,0.061022 WAIST:0.999505,-0.000000,0.029321,0.011434 WAIST_JOINT0:0.996595,-0.000000,0.070827,0.042205 WAIST_JOINT1:0.997945,0.064034,0.000000,-0.002121 END:
KINECT_DATA_Sensor  AnkleLeft:0.074108,0.719312,-0.091204,-0.684675 AnkleRight:0.093012,0.746636,0.069597,0.655011 ElbowLeft:-0.032304,0.885243,-0.215051,-0.411162 ElbowRight:-0.293792,0.861635,-0.056396,0.409990 FootLeft:0.000000,0.000000,0.000000,0.000000 FootRight:0.000000,0.000000,0.000000,0.000000 HandLeft:-0.093600,0.647678,-0.043696,0.754879 HandRight:0.017913,0.109197,-0.359900,0.926405 HandTipLeft:0.000000,0.000000,0.000000,0.000000 HandTipRight:0.000000,0.000000,0.000000,0.000000 Head:0.000000,0.000000,0.000000,0.000000 HipLeft:0.101617,-0.674925,0.715120,-0.150842 HipRight:-0.142638,0.681237,0.693055,-0.187736 KneeLeft:0.014421,-0.685555,0.036745,0.726950 KneeRight:0.000375,0.728165,0.067072,0.682112 Neck:-0.074315,0.010934,0.994009,-0.079394 ShoulderLeft:0.024229,0.765613,-0.641894,0.034957 ShoulderRight:-0.073622,0.806715,0.568709,-0.142691 SpineBase:-0.029887,0.006826,0.998748,-0.039533 SpineMid:-0.051816,0.007692,0.997850,-0.039374 SpineShoulder:-0.074323,0.010028,0.995470,-0.058442 ThumbLeft:0.000000,0.000000,0.000000,0.000000 ThumbRight:0.000000,0.000000,0.000000,0.000000 WristLeft:-0.040259,0.648017,-0.122637,0.750608 WristRight:0.017755,0.104164,-0.431881,0.895719 END:
KINECT_DATA POSITION:13.120394,-1.161357,9.368610 HEAD_JOINT1:0.981956,0.178402,-0.000000,0.062731 LARM_JOINT2:0.835306,0.000000,-0.012046,-0.549654 LARM_JOINT3:0.967807,0.000000,-0.176204,-0.179729 LLEG_JOINT2:0.999568,0.014917,0.000000,0.025340 LLEG_JOINT4:0.995256,0.096477,0.000000,-0.012586 RARM_JOINT2:0.771352,0.000000,0.414741,0.482708 RARM_JOINT3:0.983793,0.000000,0.178966,0.011103 RLEG_JOINT2:0.997119,0.049356,0.000000,-0.057600 RLEG_JOINT4:0.995816,0.067113,0.000000,0.062022 WAIST:0.999513,-0.000000,0.028986,0.011572 WAIST_JOINT0:0.996521,-0.000000,0.071495,0.042841 WAIST_JOINT1:0.998002,0.063138,0.000000,-0.002446 END:
KINECT_DATA_Sensor  AnkleLeft:-0.062726,-0.668333,0.094598,0.735152 AnkleRight:0.094112,0.746791,0.069352,0.654703 ElbowLeft:-0.032497,0.885012,-0.214151,-0.412114 ElbowRight:-0.292372,0.859622,-0.057887,0.414992 FootLeft:0.000000,0.000000,0.000000,0.000000 FootRight:0.000000,0.000000,0.000000,0.000000 HandLeft:-0.095465,0.543836,-0.067091,0.831040 HandRight:0.011828,0.131192,-0.362901,0.922470 HandTipLeft:0.000000,0.000000,0.000000,0.000000 HandTipRight:0.000000,0.000000,0.000000,0.000000 Head:0.000000,0.000000,0.000000,0.000000 HipLeft:0.102165,-0.674893,0.715108,-0.150671 HipRight:-0.142738,0.681516,0.692921,-0.187142 KneeLeft:0.014714,-0.685792,0.036849,0.726715 KneeRight:0.000328,0.727942,0.067264,0.682331 Neck:-0.074897,0.010731,0.994048,-0.078382 ShoulderLeft:0.023361,0.765554,-0.642023,0.034459 ShoulderRight:-0.075306,0.807153,0.567797,-0.142967 SpineBase:-0.029552,0.006918,0.998779,-0.038967 SpineMid:-0.051920,0.007789,0.997867,-0.038803 SpineShoulder:-0.074898,0.009933,0.995478,-0.057571 ThumbLeft:0.000000,0.000000,0.000000,0.000000 ThumbRight:0.000000,0.000000,0.000000,0.000000 WristLeft:-0.023780,0.545373,-0.126872,0.828194 WristRight:0.006688,0.124533,-0.432830,0.892807 END:
KINECT_DATA POSITION:13.125885,-1.172946,9.362578 HEAD_JOINT1:0.982185,0.177391,-0.000000,0.062005 LARM_JOINT2:0.835170,0.000000,-0.010577,-0.549890 LARM_JOINT3:0.968703,0.000000,-0.173223,-0.177785 LLEG_JOINT2:0.999566,0.015602,0.000000,0.024993 LLEG_JOINT4:0.995390,0.094891,0.000000,-0.013967 RARM_JOINT2:0.771190,0.000000,0.405838,0.490470 RARM_JOINT3:0.979563,0.000000,0.200938,0.008985 RLEG_JOINT2:0.997042,0.049905,0.000000,-0.058461 RLEG_JOINT4:0.995893,0.066688,0.000000,0.061236 WAIST:0.999500,-0.000000,0.029214,0.012084 WAIST_JOINT0:0.996512,-0.000000,0.072052,0.042099 WAIST_JOINT1:0.998064,0.062120,0.000000,-0.003082 END:
KINECT_DATA_Sensor  AnkleLeft:0.071223,0.733037,-0.086892,-0.670846 AnkleRight:0.093401,0.747198,0.070233,0.654247 ElbowLeft:-0.032398,0.884267,-0.213878,-0.413858 ElbowRight:-0.284241,0.853502,-0.060176,0.432573 FootLeft:0.000000,0.000000,0.000000,0.000000 FootRight:0.000000,0.000000,0.000000,0.000000 HandLeft:-0.094192,0.707899,-0.043244,0.698668 HandRight:0.045424,0.119655,-0.382768,0.914936 HandTipLeft:0.000000,0.000000,0.000000,0.000000 HandTipRight:0.000000,0.000000,0.000000,0.000000 Head:0.000000,0.000000,0.000000,0.000000 HipLeft:0.102614,-0.674663,0.715342,-0.150288 HipRight:-0.143424,0.681903,0.692413,-0.187086 KneeLeft:0.014332,-0.685606,0.037429,0.726869 KneeRight:0.000427,0.728129,0.067891,0.682069 Neck:-0.075350,0.010530,0.994111,-0.077169 ShoulderLeft:0.022981,0.766057,-0.641497,0.033313 ShoulderRight:-0.076249,0.806833,0.568187,-0.142726 SpineBase:-0.029806,0.007083,0.998795,-0.038341 SpineMid:-0.052261,0.007943,0.997872,-0.038172 SpineShoulder:-0.075346,0.009808,0.995502,-0.056595 ThumbLeft:0.000000,0.000000,0.000000,0.000000 ThumbRight:0.000000,0.000000,0.000000,0.000000 WristLeft:-0.051779,0.718262,-0.118582,0.683635 WristRight:0.018364,0.104633,-0.439298,0.892038 END:
KINECT_DATA POSITION:13.318261,-1.264761,9.603226 HEAD_JOINT1:0.983314,0.172969,-0.000000,0.056351 LARM_JOINT2:0.834262,0.000000,-0.013862,-0.551194 LARM_JOINT3:0.967918,0.000000,-0.172803,-0.182409 LLEG_JOINT2:0.999700,0.016151,0.000000,0.018387 LLEG_JOINT4:0.995403,0.095491,0.000000,-0.007320 RARM_JOINT2:0.765239,0.000000,0.502535,0.402329 RARM_JOINT3:0.981978,0.000000,0.156564,0.105864 RLEG_JOINT2:0.996126,0.057652,0.000000,-0.066397 RLEG_JOINT4:0.996207,0.057820,0.000000,0.065021 WAIST:0.998830,-0.000000,0.045102,0.017470 WAIST_JOINT0:0.995069,-0.000000,0.088475,0.044839 WAIST_JOINT1:0.998255,0.058794,0.000000,-0.005530 END:
KINECT_DATA_Sensor  AnkleLeft:-0.061543,-0.658866,0.096285,0.743530 AnkleRight:0.091762,0.755605,0.070095,0.644769 ElbowLeft:-0.034945,0.878095,-0.213308,-0.426880 ElbowRight:-0.381993,0.923044,0.042417,0.016478 FootLeft:0.000000,0.000000,0.000000,0.000000 FootRight:0.000000,0.000000,0.000000,0.000000 HandLeft:-0.094974,0.712493,-0.035057,0.694338 HandRight:0.113404,0.146154,-0.412398,0.892024 HandTipLeft:0.000000,0.000000,0.000000,0.000000 HandTipRight:0.000000,0.000000,0.000000,0.000000 Head:0.000000,0.000000,0.000000,0.000000 HipLeft:0.099410,-0.673035,0.718935,-0.142389 HipRight:-0.159767,0.683021,0.684914,-0.197103 KneeLeft:0.012824,-0.673828,0.036816,0.737859 KneeRight:0.002443,0.739251,0.075021,0.669233 Neck:-0.090672,0.013325,0.993208,-0.071692 ShoulderLeft:0.028658,0.766949,-0.640725,0.020968 ShoulderRight:-0.090737,0.807269,0.562363,-0.154373 SpineBase:-0.045865,0.010288,0.998316,-0.033992 SpineMid:-0.067907,0.011037,0.997059,-0.033757 SpineShoulder:-0.090741,0.011411,0.994366,-0.053590 ThumbLeft:0.000000,0.000000,0.000000,0.000000 ThumbRight:0.000000,0.000000,0.000000,0.000000 WristLeft:-0.057218,0.724113,-0.124341,0.675963 WristRight:0.089938,0.139843,-0.388878,0.906162 END:
KINECT_DATA POSITION:13.313556,-1.233624,9.716188 HEAD_JOINT1:0.985623,0.164746,-0.000000,0.037507 LARM_JOINT2:0.828660,0.000000,0.001484,-0.559750 LARM_JOINT3:0.969276,0.000000,-0.173586,-0.174277 LLEG_JOINT2:0.999589,0.017827,0.000000,0.022454 LLEG_JOINT4:0.995831,0.091104,0.000000,-0.004498 RARM_JOINT2:0.771560,0.000000,0.508473,0.382295 RARM_JOINT3:0.971015,0.000000,0.199149,0.132174 RLEG_JOINT2:0.995752,0.063805,0.000000,-0.066381 RLEG_JOINT4:0.996070,0.058323,0.000000,0.066654 WAIST:0.997456,-0.000000,0.068910,0.018246 WAIST_JOINT0:0.992259,-0.000000,0.117118,0.041291 WAIST_JOINT1:0.998587,0.053143,0.000000,-0.000280 END:
KINECT_DATA_Sensor  AnkleLeft:0.068577,0.733343,-0.090270,-0.670340 AnkleRight:0.089540,0.716214,0.082709,0.687153 ElbowLeft:-0.029061,0.851391,-0.211954,-0.478921 ElbowRight:-0.402259,0.914929,0.030883,0.011790 FootLeft:0.000000,0.000000,0.000000,0.000000 FootRight:0.000000,0.000000,0.000000,0.000000 HandLeft:-0.073441,0.664850,-0.034923,0.742537 HandRight:0.219843,0.190279,-0.401950,0.868274 HandTipLeft:0.000000,0.000000,0.000000,0.000000 HandTipRight:0.000000,0.000000,0.000000,0.000000 Head:0.000000,0.000000,0.000000,0.000000 HipLeft:0.090575,-0.673050,0.722301,-0.130690 HipRight:-0.177477,0.678929,0.681400,-0.207972 KneeLeft:0.014183,-0.656034,0.041537,0.753454 KneeRight:0.005007,0.755167,0.078829,0.650756 Neck:-0.118833,0.018455,0.990525,-0.066322 ShoulderLeft:0.050109,0.762672,-0.644776,-0.009164 ShoulderRight:-0.106017,0.797457,0.569355,-0.169286 SpineBase:-0.069534,0.013111,0.997022,-0.030671 SpineMid:-0.093843,0.013855,0.995028,-0.030342 SpineShoulder:-0.118845,0.016366,0.991632,-0.047682 ThumbLeft:0.000000,0.000000,0.000000,0.000000 ThumbRight:0.000000,0.000000,0.000000,0.000000 WristLeft:-0.035503,0.662895,-0.139191,0.734803 WristRight:0.131305,0.151270,-0.408171,0.890659 END:
KINECT_DATA POSITION:13.093835,-0.809766,9.481632 HEAD_JOINT1:0.987650,0.154992,-0.000000,0.022890 LARM_JOINT2:0.824465,0.000000,0.019164,-0.565588 LARM_JOINT3:0.967595,0.000000,-0.186276,-0.170473 LLEG_JOINT2:0.999415,0.010427,0.000000,0.032559 LLEG_JOINT4:0.996178,0.087319,0.000000,-0.002040 RARM_JOINT2:0.782698,0.000000,0.513920,0.351097 RARM_JOINT3:0.954936,0.000000,0.252749,0.155614 RLEG_JOINT2:0.996153,0.063136,0.000000,-0.060764 RLEG_JOINT4:0.995051,0.065319,0.000000,0.074877 WAIST:0.994045,-0.000000,0.108062,0.014048 WAIST_JOINT0:0.987839,-0.000000,0.150515,0.038978 WAIST_JOINT1:0.998620,0.051165,-0.000000,0.011880 END:
KINECT_DATA_Sensor  AnkleLeft:0.060734,0.728626,-0.086638,-0.676690 AnkleRight:0.103123,0.784372,0.078422,0.606611 ElbowLeft:-0.014631,0.817154,-0.217363,-0.533666 ElbowRight:-0.425007,0.904654,0.024720,-0.018945 FootLeft:0.000000,0.000000,0.000000,0.000000 FootRight:0.000000,0.000000,0.000000,0.000000 HandLeft:-0.081972,0.830745,-0.046323,0.548633 HandRight:0.260118,0.216656,-0.413427,0.845267 HandTipLeft:0.000000,0.000000,0.000000,0.000000 HandTipRight:0.000000,0.000000,0.000000,0.000000 Head:0.000000,0.000000,0.000000,0.000000 HipLeft:0.065330,-0.677420,0.724738,-0.107651 HipRight:-0.201292,0.669278,0.679160,-0.224255 KneeLeft:0.022174,-0.626156,0.041846,0.778258 KneeRight:0.002431,0.780239,0.077365,0.620674 Neck:-0.152020,0.024685,0.985849,-0.066202 ShoulderLeft:0.064653,0.761617,-0.644035,-0.031258 ShoulderRight:-0.135917,0.789065,0.565272,-0.198419 SpineBase:-0.108220,0.017688,0.993534,-0.029439 SpineMid:-0.129791,0.018324,0.990946,-0.029047 SpineShoulder:-0.152021,0.021895,0.987046,-0.046381 ThumbLeft:0.000000,0.000000,0.000000,0.000000 ThumbRight:0.000000,0.000000,0.000000,0.000000 WristLeft:-0.056317,0.834253,-0.134833,0.531668 WristRight:0.200123,0.190792,-0.416746,0.865951 END:
KINECT_DATA POSITION:12.949592,-0.288714,9.315252 HEAD_JOINT1:0.989274,0.145034,-0.000000,0.017365 LARM_JOINT2:0.825686,0.000000,0.019262,-0.563801 LARM_JOINT3:0.967359,0.000000,-0.188494,-0.169372 LLEG_JOINT2:0.999327,0.006486,0.000000,0.036102 LLEG_JOINT4:0.995774,0.091789,0.000000,0.003074 RARM_JOINT2:0.780450,0.000000,0.535860,0.322105 RARM_JOINT3:0.941648,0.000000,0.290529,0.169974 RLEG_JOINT2:0.996362,0.062820,0.000000,-0.057592 RLEG_JOINT4:0.994655,0.067440,0.000000,0.078189 WAIST:0.991611,-0.000000,0.128678,0.012229 WAIST_JOINT0:0.983671,-0.000000,0.174007,0.045958 WAIST_JOINT1:0.998584,0.049265,-0.000000,0.020078 END:
KINECT_DATA_Sensor  AnkleLeft:0.062836,0.737937,-0.089366,-0.665968 AnkleRight:0.105998,0.794962,0.079183,0.592056 ElbowLeft:-0.016076,0.801003,-0.224737,-0.554643 ElbowRight:-0.450758,0.890507,0.016456,-0.059531 FootLeft:0.000000,0.000000,0.000000,0.000000 FootRight:0.000000,0.000000,0.000000,0.000000 HandLeft:-0.066098,0.828737,-0.056043,0.552888 HandRight:0.307676,0.247712,-0.432985,0.810246 HandTipLeft:0.000000,0.000000,0.000000,0.000000 HandTipRight:0.000000,0.000000,0.000000,0.000000 Head:0.000000,0.000000,0.000000,0.000000 HipLeft:0.052671,-0.681379,0.723521,-0.097296 HipRight:-0.216274,0.665705,0.674525,-0.234687 KneeLeft:0.025498,-0.610059,0.041219,0.790873 KneeRight:0.001677,0.793114,0.076283,0.604275 Neck:-0.175454,0.030974,0.981825,-0.065395 ShoulderLeft:0.091924,0.755795,-0.645515,-0.060285 ShoulderRight:-0.137093,0.791826,0.557859,-0.207389 SpineBase:-0.128560,0.022211,0.991036,-0.028744 SpineMid:-0.151659,0.022876,0.987765,-0.028218 SpineShoulder:-0.175447,0.027266,0.983070,-0.045270 ThumbLeft:0.000000,0.000000,0.000000,0.000000 ThumbRight:0.000000,0.000000,0.000000,0.000000 WristLeft:-0.049359,0.829586,-0.147730,0.536215 WristRight:0.251014,0.229870,-0.418198,0.842177 END:
KINECT_DATA POSITION:12.821396,0.302614,9.059847 HEAD_JOINT1:0.990398,0.138071,-0.000000,0.006939 LARM_JOINT2:0.826333,0.000000,0.058163,-0.560171 LARM_JOINT3:0.961947,0.000000,-0.199758,-0.186427 LLEG_JOINT2:0.999355,0.003373,0.000000,0.035758 LLEG_JOINT4:0.996071,0.088434,0.000000,0.004607 RARM_JOINT2:0.764487,0.000000,0.532451,0.363394 RARM_JOINT3:0.946842,0.000000,0.293258,0.132251 RLEG_JOINT2:0.996506,0.061898,0.000000,-0.056073 RLEG_JOINT4:0.994385,0.069780,0.000000,0.079560 WAIST:0.988498,-0.000000,0.150611,0.013730 WAIST_JOINT0:0.981045,-0.000000,0.190838,0.033638 WAIST_JOINT1:0.998511,0.047505,-0.000000,0.026806 END:
KINECT_DATA_Sensor  AnkleLeft:0.058404,0.731285,-0.086645,-0.674021 AnkleRight:0.107503,0.802608,0.080559,0.581182 ElbowLeft:0.012760,0.779240,-0.243857,-0.577196 ElbowRight:-0.419323,0.905132,-0.068583,0.014183 FootLeft:0.000000,0.000000,0.000000,0.000000 FootRight:0.000000,0.000000,0.000000,0.000000 HandLeft:-0.040924,0.843200,-0.057210,0.532979 HandRight:0.298554,0.331067,-0.446424,0.775864 HandTipLeft:0.000000,0.000000,0.000000,0.000000 HandTipRight:0.000000,0.000000,0.000000,0.000000 Head:0.000000,0.000000,0.000000,0.000000 HipLeft:0.036342,-0.682734,0.724960,-0.083587 HipRight:-0.229540,0.664168,0.668404,-0.243779 KneeLeft:0.028130,-0.592532,0.040531,0.804035 KneeRight:0.001537,0.806643,0.073398,0.586462 Neck:-0.194401,0.038671,0.978000,-0.065027 ShoulderLeft:0.079661,0.755656,-0.647675,-0.056173 ShoulderRight:-0.180704,0.772246,0.561341,-0.236385 SpineBase:-0.150355,0.028455,0.987818,-0.028288 SpineMid:-0.171960,0.029068,0.984287,-0.027658 SpineShoulder:-0.194345,0.034170,0.979328,-0.044495 ThumbLeft:0.000000,0.000000,0.000000,0.000000 ThumbRight:0.000000,0.000000,0.000000,0.000000 WristLeft:-0.042244,0.840155,-0.142439,0.521599 WristRight:0.234632,0.295353,-0.468693,0.798775 END:
KINECT_DATA POSITION:12.805426,0.532286,8.894121 HEAD_JOINT1:0.991238,0.132084,0.000000,-0.001343 LARM_JOINT2:0.826932,0.000000,0.049985,-0.560076 LARM_JOINT3:0.966761,0.000000,-0.180683,-0.180903 LLEG_JOINT2:0.999462,0.000063,0.000000,0.032798 LLEG_JOINT4:0.995894,0.090434,0.000000,0.004100 RARM_JOINT2:0.750858,0.000000,0.557833,0.353601 RARM_JOINT3:0.952407,0.000000,0.278859,0.123120 RLEG_JOINT2:0.996508,0.061555,0.000000,-0.056409 RLEG_JOINT4:0.994509,0.069789,0.000000,0.077985 WAIST:0.986244,-0.000000,0.164564,0.015565 WAIST_JOINT0:0.978699,-0.000000,0.199808,0.047176 WAIST_JOINT1:0.998425,0.046781,-0.000000,0.030972 END:
KINECT_DATA_Sensor  AnkleLeft:0.058012,0.716326,-0.084012,-0.690256 AnkleRight:0.096681,0.747162,0.092100,0.651091 ElbowLeft:0.014920,0.789902,-0.247128,-0.561034 ElbowRight:-0.428186,0.897861,-0.102444,-0.002756 FootLeft:0.000000,0.000000,0.000000,0.000000 FootRight:0.000000,0.000000,0.000000,0.000000 HandLeft:-0.029372,0.827157,-0.074928,0.556178 HandRight:0.361872,0.260433,-0.400470,0.800530 HandTipLeft:0.000000,0.000000,0.000000,0.000000 HandTipRight:0.000000,0.000000,0.000000,0.000000 Head:0.000000,0.000000,0.000000,0.000000 HipLeft:0.024677,-0.682841,0.726379,-0.074105 HipRight:-0.237026,0.663684,0.664192,-0.249381 KneeLeft:0.029962,-0.581293,0.037762,0.812265 KneeRight:0.001190,0.815096,0.071892,0.574846 Neck:-0.203311,0.044037,0.975925,-0.065543 ShoulderLeft:0.101364,0.743232,-0.657398,-0.071835 ShoulderRight:-0.169332,0.777761,0.558277,-0.233969 SpineBase:-0.164249,0.032747,0.985463,-0.028501 SpineMid:-0.183408,0.033296,0.982078,-0.027857 SpineShoulder:-0.203198,0.039169,0.977336,-0.044610 ThumbLeft:0.000000,0.000000,0.000000,0.000000 ThumbRight:0.000000,0.000000,0.000000,0.000000 WristLeft:-0.015052,0.825684,-0.132976,0.548029 WristRight:0.297854,0.215214,-0.447494,0.815300 END:
KINECT_DATA POSITION:12.915176,0.773355,8.708978 HEAD_JOINT1:0.992101,0.124704,0.000000,-0.013602 LARM_JOINT2:0.841852,0.000000,0.080503,-0.533671 LARM_JOINT3:0.957109,0.000000,-0.195005,-0.214279 LLEG_JOINT2:0.999605,-0.003724,0.000000,0.027839 LLEG_JOINT4:0.996180,0.087082,0.000000,0.006471 RARM_JOINT2:0.741961,0.000000,0.556122,0.374464 RARM_JOINT3:0.955701,0.000000,0.273198,0.109542 RLEG_JOINT2:0.996108,0.062846,0.000000,-0.061798 RLEG_JOINT4:0.993886,0.070128,0.000000,0.085275 WAIST:0.982449,-0.000000,0.185532,0.019256 WAIST_JOINT0:0.967630,-0.000000,0.245543,0.058308 WAIST_JOINT1:0.998302,0.046058,-0.000000,0.035668 END:
KINECT_DATA_Sensor  AnkleLeft:-0.036820,-0.565569,0.088382,0.819125 AnkleRight:0.096789,0.739905,0.095108,0.658883 ElbowLeft:0.039681,0.776215,-0.286217,-0.560352 ElbowRight:-0.404103,0.902993,-0.145222,0.014633 FootLeft:0.000000,0.000000,0.000000,0.000000 FootRight:0.000000,0.000000,0.000000,0.000000 HandLeft:-0.014471,0.825753,-0.096622,0.555506 HandRight:0.276731,0.436757,-0.459926,0.721894 HandTipLeft:0.000000,0.000000,0.000000,0.000000 HandTipRight:0.000000,0.000000,0.000000,0.000000 Head:0.000000,0.000000,0.000000,0.000000 HipLeft:0.010427,-0.679884,0.730543,-0.062899 HipRight:-0.251257,0.661450,0.657551,-0.258806 KneeLeft:0.032325,-0.564111,0.034549,0.824342 KneeRight:-0.001646,0.827543,0.073174,0.556610 Neck:-0.246645,0.053794,0.965413,-0.065193 ShoulderLeft:0.133517,0.725011,-0.667683,-0.103594 ShoulderRight:-0.198400,0.762644,0.556034,-0.264268 SpineBase:-0.185196,0.038387,0.981519,-0.029148 SpineMid:-0.215451,0.039269,0.975325,-0.027947 SpineShoulder:-0.246572,0.047262,0.966984,-0.043701 ThumbLeft:0.000000,0.000000,0.000000,0.000000 ThumbRight:0.000000,0.000000,0.000000,0.000000 WristLeft:-0.001266,0.824111,-0.133387,0.550497 WristRight:0.217181,0.391689,-0.506563,0.736754 END:
KINECT_DATA POSITION:13.106129,0.915854,8.485567 HEAD_JOINT1:0.992888,0.116838,0.000000,-0.022875 LARM_JOINT2:0.853425,0.000000,0.072079,-0.516208 LARM_JOINT3:0.952349,0.000000,-0.187288,-0.240739 LLEG_JOINT2:0.999731,-0.006544,0.000000,0.022241 LLEG_JOINT4:0.996111,0.086417,0.000000,0.017186 RARM_JOINT2:0.724899,0.000000,0.578976,0.373240 RARM_JOINT3:0.959343,0.000000,0.262662,0.103294 RLEG_JOINT2:0.995668,0.063708,0.000000,-0.067731 RLEG_JOINT4:0.993212,0.072681,0.000000,0.090815 WAIST:0.979062,-0.000000,0.202261,0.022959 WAIST_JOINT0:0.962434,-0.000000,0.262958,0.067633 WAIST_JOINT1:0.998124,0.047223,-0.000000,0.038969 END:
KINECT_DATA_Sensor  AnkleLeft:0.050547,0.729238,-0.083101,-0.677312 AnkleRight:0.096633,0.734630,0.099772,0.664098 ElbowLeft:0.047808,0.788910,-0.308687,-0.529196 ElbowRight:-0.400916,0.897863,-0.181743,-0.008796 FootLeft:0.000000,0.000000,0.000000,0.000000 FootRight:0.000000,0.000000,0.000000,0.000000 HandLeft:-0.010425,0.843046,-0.104527,0.527484 HandRight:0.298916,0.473571,-0.466753,0.684486 HandTipLeft:0.000000,0.000000,0.000000,0.000000 HandTipRight:0.000000,0.000000,0.000000,0.000000 Head:0.000000,0.000000,0.000000,0.000000 HipLeft:-0.001605,-0.678051,0.732889,-0.055838 HipRight:-0.261500,0.660334,0.650860,-0.268251 KneeLeft:0.033857,-0.550353,0.031274,0.833659 KneeRight:-0.004953,0.837256,0.074288,0.541718 Neck:-0.264361,0.060428,0.960146,-0.067682 ShoulderLeft:0.157640,0.712088,-0.672982,-0.123189 ShoulderRight:-0.197331,0.761479,0.554651,-0.271242 SpineBase:-0.201882,0.043995,0.977926,-0.031123 SpineMid:-0.232664,0.044956,0.971063,-0.029718 SpineShoulder:-0.264291,0.053036,0.961917,-0.045303 ThumbLeft:0.000000,0.000000,0.000000,0.000000 ThumbRight:0.000000,0.000000,0.000000,0.000000 WristLeft:-0.002679,0.841657,-0.127392,0.524764 WristRight:0.221105,0.421538,-0.512116,0.714951 END:
KINECT_DATA POSITION:13.276572,0.890115,8.409548 HEAD_JOINT1:0.993669,0.107778,0.000000,-0.031712 LARM_JOINT2:0.770621,0.000000,0.064195,-0.634052 LARM_JOINT3:0.974511,0.000000,-0.219907,-0.044385 LLEG_JOINT2:0.999818,-0.009063,0.000000,0.016787 LLEG_JOINT4:0.996021,0.086680,0.000000,0.020702 RARM_JOINT2:0.711853,0.000000,0.606445,0.354245 RARM_JOINT3:0.962364,0.000000,0.248789,0.109357 RLEG_JOINT2:0.995510,0.065099,0.000000,-0.068712 RLEG_JOINT4:0.992958,0.073186,0.000000,0.093156 WAIST:0.976014,-0.000000,0.216311,0.024624 WAIST_JOINT0:0.965506,-0.000000,0.252331,0.064239 WAIST_JOINT1:0.997895,0.048054,-0.000000,0.043556 END:
KINECT_DATA_Sensor  AnkleLeft:-0.031254,-0.562045,0.089496,0.821656 AnkleRight:0.098221,0.743116,0.101164,0.654138 ElbowLeft:0.011940,-0.513499,0.185300,0.837759 ElbowRight:-0.422170,0.883006,-0.187689,-0.082740 FootLeft:0.000000,0.000000,0.000000,0.000000 FootRight:0.000000,0.000000,0.000000,0.000000 HandLeft:-0.023363,0.857444,-0.107635,0.502651 HandRight:0.342517,0.447420,-0.451560,0.691802 HandTipLeft:0.000000,0.000000,0.000000,0.000000 HandTipRight:0.000000,0.000000,0.000000,0.000000 Head:0.000000,0.000000,0.000000,0.000000 HipLeft:-0.015200,-0.678470,0.733125,-0.044443 HipRight:-0.268347,0.659890,0.646231,-0.273717 KneeLeft:0.034011,-0.538751,0.026767,0.841353 KneeRight:-0.005125,0.845229,0.074499,0.529161 Neck:-0.254956,0.063920,0.962230,-0.070885 ShoulderLeft:0.147395,0.718065,-0.670984,-0.111524 ShoulderRight:-0.195243,0.764591,0.552128,-0.269137 SpineBase:-0.215832,0.048170,0.974727,-0.031670 SpineMid:-0.234987,0.048785,0.970288,-0.030715 SpineShoulder:-0.254773,0.057204,0.964080,-0.048654 ThumbLeft:0.000000,0.000000,0.000000,0.000000 ThumbRight:0.000000,0.000000,0.000000,0.000000 WristLeft:0.044037,0.854039,-0.210204,0.473806 WristRight:0.272266,0.405317,-0.485804,0.724972 END:
KINECT_DATA POSITION:13.380199,0.924239,8.342684 HEAD_JOINT1:0.994100,0.101895,0.000000,-0.037181 LARM_JOINT2:0.770047,0.000000,0.065390,-0.634628 LARM_JOINT3:0.973183,0.000000,-0.224581,-0.049780 LLEG_JOINT2:0.999858,-0.010054,0.000000,0.013494 LLEG_JOINT4:0.995867,0.087932,0.000000,0.022733 RARM_JOINT2:0.718587,0.000000,0.608620,0.336472 RARM_JOINT3:0.960784,0.000000,0.249127,0.121782 RLEG_JOINT2:0.995369,0.065992,0.000000,-0.069899 RLEG_JOINT4:0.992937,0.073571,0.000000,0.093072 WAIST:0.973709,-0.000000,0.226275,0.026266 WAIST_JOINT0:0.965080,-0.000000,0.253338,0.066630 WAIST_JOINT1:0.997748,0.048925,-0.000000,0.045876 END:
KINECT_DATA_Sensor  AnkleLeft:-0.032532,-0.561140,0.088957,0.822283 AnkleRight:0.097609,0.749264,0.102740,0.646931 ElbowLeft:0.008042,-0.515946,0.188601,0.835562 ElbowRight:-0.440201,0.872700,-0.167630,-0.128524 FootLeft:0.000000,0.000000,0.000000,0.000000 FootRight:0.000000,0.000000,0.000000,0.000000 HandLeft:-0.028410,0.829575,-0.137744,0.540392 HandRight:0.265374,0.481612,-0.479502,0.683889 HandTipLeft:0.000000,0.000000,0.000000,0.000000 HandTipRight:0.000000,0.000000,0.000000,0.000000 Head:0.000000,0.000000,0.000000,0.000000 HipLeft:-0.024098,-0.677126,0.734500,-0.037798 HipRight:-0.273398,0.658940,0.643357,-0.277745 KneeLeft:0.034174,-0.530406,0.024789,0.846692 KneeRight:-0.005421,0.850797,0.074491,0.520160 Neck:-0.256681,0.066061,0.961486,-0.072772 ShoulderLeft:0.152677,0.715636,-0.672008,-0.113838 ShoulderRight:-0.191682,0.766259,0.550778,-0.269718 SpineBase:-0.225732,0.051317,0.972291,-0.032575 SpineMid:-0.240781,0.051816,0.968674,-0.031775 SpineShoulder:-0.256414,0.060086,0.963358,-0.050825 ThumbLeft:0.000000,0.000000,0.000000,0.000000 ThumbRight:0.000000,0.000000,0.000000,0.000000 WristLeft:0.058705,0.831201,-0.200584,0.515194 WristRight:0.266601,0.474854,-0.491517,0.679594 END:
KINECT_DATA POSITION:13.396615,0.931626,8.338332 HEAD_JOINT1:0.994124,0.101214,0.000000,-0.038389 LARM_JOINT2:0.771007,0.000000,0.050548,-0.634817 LARM_JOINT3:0.976159,0.000000,-0.210973,-0.051020 LLEG_JOINT2:0.999862,-0.009970,0.000000,0.013296 LLEG_JOINT4:0.996332,0.082587,0.000000,0.022422 RARM_JOINT2:0.724191,0.000000,0.594223,0.349923 RARM_JOINT3:0.966297,0.000000,0.238241,0.097526 RLEG_JOINT2:0.995346,0.065276,0.000000,-0.070891 RLEG_JOINT4:0.992606,0.074345,0.000000,0.095952 WAIST:0.973599,-0.000000,0.226743,0.026320 WAIST_JOINT0:0.966373,-0.000000,0.248857,0.064762 WAIST_JOINT1:0.997695,0.049504,-0.000000,0.046416 END:
KINECT_DATA_Sensor  AnkleLeft:-0.028529,-0.564517,0.085855,0.820448 AnkleRight:0.098263,0.742414,0.103080,0.654629 ElbowLeft:0.016408,-0.524926,0.184774,0.830688 ElbowRight:-0.417123,0.886749,-0.188245,-0.065178 FootLeft:0.000000,0.000000,0.000000,0.000000 FootRight:0.000000,0.000000,0.000000,0.000000 HandLeft:-0.051577,0.838138,-0.149643,0.521988 HandRight:0.279010,0.427785,-0.453412,0.730459 HandTipLeft:0.000000,0.000000,0.000000,0.000000 HandTipRight:0.000000,0.000000,0.000000,0.000000 Head:0.000000,0.000000,0.000000,0.000000 HipLeft:-0.024286,-0.677333,0.734225,-0.039297 HipRight:-0.273739,0.659000,0.642905,-0.278315 KneeLeft:0.034028,-0.530128,0.024715,0.846874 KneeRight:-0.006648,0.851046,0.074367,0.519756 Neck:-0.252637,0.065786,0.962516,-0.073558 ShoulderLeft:0.148366,0.718613,-0.670566,-0.109198 ShoulderRight:-0.190482,0.767521,0.550013,-0.268540 SpineBase:-0.226133,0.052470,0.972107,-0.033446 SpineMid:-0.238928,0.052906,0.969042,-0.032751 SpineShoulder:-0.252320,0.060402,0.964363,-0.051868 ThumbLeft:0.000000,0.000000,0.000000,0.000000 ThumbRight:0.000000,0.000000,0.000000,0.000000 WristLeft:0.061272,0.844372,-0.190183,0.497103 WristRight:0.274483,0.405180,-0.491613,0.720281 END:
KINECT_DATA POSITION:13.400158,0.977338,8.362925 HEAD_JOINT1:0.994017,0.102524,0.000000,-0.037660 LARM_JOINT2:0.776139,0.000000,0.019682,-0.630255 LARM_JOINT3:0.982230,0.000000,-0.180181,-0.052524 LLEG_JOINT2:0.999870,-0.009203,0.000000,0.013243 LLEG_JOINT4:0.996415,0.081749,0.000000,0.021763 RARM_JOINT2:0.725766,0.000000,0.591207,0.351764 RARM_JOINT3:0.968118,0.000000,0.234017,0.089352 RLEG_JOINT2:0.995237,0.065509,0.000000,-0.072188 RLEG_JOINT4:0.992655,0.075379,0.000000,0.094621 WAIST:0.974066,-0.000000,0.224619,0.027238 WAIST_JOINT0:0.965459,-0.000000,0.251321,0.068752 WAIST_JOINT1:0.997739,0.049872,-0.000000,0.045059 END:
KINECT_DATA_Sensor  AnkleLeft:0.044859,0.720269,-0.078525,-0.687775 AnkleRight:0.098666,0.749322,0.103312,0.646613 ElbowLeft:0.033511,-0.561793,0.180352,0.806684 ElbowRight:-0.413400,0.889016,-0.190434,-0.049850 FootLeft:0.000000,0.000000,0.000000,0.000000 FootRight:0.000000,0.000000,0.000000,0.000000 HandLeft:-0.057773,0.832936,-0.154861,0.528107 HandRight:0.275402,0.415795,-0.456551,0.736769 HandTipLeft:0.000000,0.000000,0.000000,0.000000 HandTipRight:0.000000,0.000000,0.000000,0.000000 Head:0.000000,0.000000,0.000000,0.000000 HipLeft:-0.021328,-0.676593,0.734809,-0.042694 HipRight:-0.273105,0.659765,0.642512,-0.278032 KneeLeft:0.034013,-0.531884,0.025690,0.845744 KneeRight:-0.006770,0.849950,0.074662,0.521502 Neck:-0.255238,0.065673,0.961861,-0.073243 ShoulderLeft:0.153195,0.714007,-0.673926,-0.112019 ShoulderRight:-0.189266,0.767773,0.549940,-0.268830 SpineBase:-0.224062,0.052791,0.972565,-0.033581 SpineMid:-0.239158,0.053307,0.968963,-0.032756 SpineShoulder:-0.254921,0.060323,0.963700,-0.051559 ThumbLeft:0.000000,0.000000,0.000000,0.000000 ThumbRight:0.000000,0.000000,0.000000,0.000000 WristLeft:0.068254,0.841759,-0.174354,0.506343 WristRight:0.267082,0.393079,-0.493582,0.728377 END:
KINECT_DATA POSITION:13.412933,0.980767,8.413231 HEAD_JOINT1:0.993982,0.103759,0.000000,-0.035131 LARM_JOINT2:0.790072,0.000000,-0.038701,-0.611792 LARM_JOINT3:0.990473,0.000000,-0.103955,-0.090317 LLEG_JOINT2:0.999850,-0.007491,0.000000,0.015640 LLEG_JOINT4:0.996304,0.083399,0.000000,0.020541 RARM_JOINT2:0.735851,0.000000,0.578929,0.351234 RARM_JOINT3:0.965452,0.000000,0.242056,0.096492 RLEG_JOINT2:0.995274,0.065501,0.000000,-0.071685 RLEG_JOINT4:0.992733,0.073739,0.000000,0.095096 WAIST:0.975395,-0.000000,0.218885,0.026329 WAIST_JOINT0:0.963793,-0.000000,0.257526,0.069167 WAIST_JOINT1:0.997755,0.050252,-0.000000,0.044277 END:
KINECT_DATA_Sensor  AnkleLeft:0.047543,0.721513,-0.080390,-0.686073 AnkleRight:0.098030,0.740256,0.102303,0.657226 ElbowLeft:-0.025641,0.788452,-0.192964,-0.583482 ElbowRight:-0.416453,0.892145,-0.167925,-0.049451 FootLeft:0.000000,0.000000,0.000000,0.000000 FootRight:0.000000,0.000000,0.000000,0.000000 HandLeft:-0.062660,0.818431,-0.131139,0.555920 HandRight:0.225842,0.444210,-0.470341,0.728321 HandTipLeft:0.000000,0.000000,0.000000,0.000000 HandTipRight:0.000000,0.000000,0.000000,0.000000 Head:0.000000,0.000000,0.000000,0.000000 HipLeft:-0.014101,-0.677253,0.733897,-0.050254 HipRight:-0.271846,0.660043,0.643342,-0.276682 KneeLeft:0.033241,-0.536728,0.027896,0.842639 KneeRight:-0.006434,0.846814,0.075179,0.526509 Neck:-0.260904,0.064414,0.960491,-0.072372 ShoulderLeft:0.153267,0.712304,-0.675697,-0.112094 ShoulderRight:-0.198759,0.762912,0.550174,-0.275261 SpineBase:-0.218292,0.052479,0.973890,-0.033662 SpineMid:-0.239001,0.053184,0.969016,-0.032535 SpineShoulder:-0.260553,0.059750,0.962260,-0.050964 ThumbLeft:0.000000,0.000000,0.000000,0.000000 ThumbRight:0.000000,0.000000,0.000000,0.000000 WristLeft:0.076482,0.827505,-0.118590,0.543437 WristRight:0.242537,0.431533,-0.502857,0.708583 END:
KINECT_DATA POSITION:13.419832,0.979425,8.460342 HEAD_JOINT1:0.993961,0.104823,0.000000,-0.032459 LARM_JOINT2:0.855880,0.000000,0.075568,-0.511624 LARM_JOINT3:0.944918,0.000000,-0.200371,-0.258809 LLEG_JOINT2:0.999829,-0.006449,0.000000,0.017327 LLEG_JOINT4:0.996262,0.083882,0.000000,0.020639 RARM_JOINT2:0.734019,0.000000,0.576867,0.358386 RARM_JOINT3:0.967046,0.000000,0.238160,0.090011 RLEG_JOINT2:0.995278,0.065452,0.000000,-0.071675 RLEG_JOINT4:0.992846,0.073756,0.000000,0.093893 WAIST:0.976409,-0.000000,0.214357,0.026024 WAIST_JOINT0:0.964106,-0.000000,0.257514,0.064695 WAIST_JOINT1:0.997774,0.051169,-0.000000,0.042763 END:
KINECT_DATA_Sensor  AnkleLeft:0.049580,0.734866,-0.081816,-0.671431 AnkleRight:0.098276,0.744014,0.101574,0.653045 ElbowLeft:0.060049,0.785837,-0.319144,-0.526309 ElbowRight:-0.408060,0.895747,-0.174079,-0.028638 FootLeft:0.000000,0.000000,0.000000,0.000000 FootRight:0.000000,0.000000,0.000000,0.000000 HandLeft:-0.038893,0.808232,-0.142913,0.569933 HandRight:0.236215,0.434497,-0.464271,0.734757 HandTipLeft:0.000000,0.000000,0.000000,0.000000 HandTipRight:0.000000,0.000000,0.000000,0.000000 Head:0.000000,0.000000,0.000000,0.000000 HipLeft:-0.008988,-0.677283,0.733544,-0.055864 HipRight:-0.270147,0.660367,0.644133,-0.275735 KneeLeft:0.033096,-0.540532,0.029591,0.840151 KneeRight:-0.006234,0.844306,0.075463,0.530484 Neck:-0.260721,0.062635,0.960644,-0.072552 ShoulderLeft:0.152543,0.714574,-0.673454,-0.112135 ShoulderRight:-0.199384,0.759802,0.554228,-0.275278 SpineBase:-0.213772,0.051860,0.974912,-0.034051 SpineMid:-0.236595,0.052645,0.969626,-0.032824 SpineShoulder:-0.260360,0.058425,0.962381,-0.051212 ThumbLeft:0.000000,0.000000,0.000000,0.000000 ThumbRight:0.000000,0.000000,0.000000,0.000000 WristLeft:0.004578,0.813880,-0.122214,0.568015 WristRight:0.236119,0.414160,-0.502866,0.721003 END:
KINECT_DATA POSITION:13.455528,0.999553,8.519423 HEAD_JOINT1:0.993926,0.105524,0.000000,-0.031234 LARM_JOINT2:0.854424,0.000000,0.086613,-0.512307 LARM_JOINT3:0.943985,0.000000,-0.204588,-0.258915 LLEG_JOINT2:0.999825,-0.004430,0.000000,0.018179 LLEG_JOINT4:0.996538,0.081627,0.000000,0.015792 RARM_JOINT2:0.734754,0.000000,0.579057,0.353311 RARM_JOINT3:0.967010,0.000000,0.236238,0.095304 RLEG_JOINT2:0.995309,0.065124,0.000000,-0.071545 RLEG_JOINT4:0.992865,0.075402,0.000000,0.092382 WAIST:0.977371,-0.000000,0.209955,0.025784 WAIST_JOINT0:0.967031,-0.000000,0.247062,0.061738 WAIST_JOINT1:0.997774,0.051697,-0.000000,0.042122 END:
KINECT_DATA_Sensor  AnkleLeft:0.048168,0.718811,-0.079421,-0.688972 AnkleRight:0.099963,0.754031,0.101145,0.641259 ElbowLeft:0.063382,0.777902,-0.319025,-0.537657 ElbowRight:-0.413237,0.894305,-0.169085,-0.029381 FootLeft:0.000000,0.000000,0.000000,0.000000 FootRight:0.000000,0.000000,0.000000,0.000000 HandLeft:-0.035512,0.810977,-0.130123,0.569318 HandRight:0.180756,0.525576,-0.481839,0.677442 HandTipLeft:0.000000,0.000000,0.000000,0.000000 HandTipRight:0.000000,0.000000,0.000000,0.000000 Head:0.000000,0.000000,0.000000,0.000000 HipLeft:-0.006225,-0.677514,0.733112,-0.059022 HipRight:-0.267608,0.661136,0.645143,-0.274000 KneeLeft:0.031743,-0.544197,0.031160,0.837777 KneeRight:-0.006057,0.841858,0.075397,0.534373 Neck:-0.250927,0.061504,0.963277,-0.073143 ShoulderLeft:0.147505,0.718602,-0.671126,-0.106976 ShoulderRight:-0.189838,0.763792,0.556017,-0.267260 SpineBase:-0.209372,0.051537,0.975870,-0.034422 SpineMid:-0.229516,0.052238,0.971330,-0.033349 SpineShoulder:-0.250556,0.057440,0.965006,-0.051826 ThumbLeft:0.000000,0.000000,0.000000,0.000000 ThumbRight:0.000000,0.000000,0.000000,0.000000 WristLeft:0.004110,0.814838,-0.124142,0.566225 WristRight:-0.168862,-0.493911,0.527383,-0.670377 END:
KINECT_DATA POSITION:13.475850,1.014288,8.536852 HEAD_JOINT1:0.993831,0.106666,0.000000,-0.030367 LARM_JOINT2:0.852299,0.000000,0.092540,-0.514803 LARM_JOINT3:0.943973,0.000000,-0.208951,-0.255450 LLEG_JOINT2:0.999812,-0.004009,0.000000,0.018970 LLEG_JOINT4:0.996669,0.079818,0.000000,0.016731 RARM_JOINT2:0.731939,0.000000,0.575431,0.364890 RARM_JOINT3:0.967478,0.000000,0.236416,0.089966 RLEG_JOINT2:0.995389,0.064629,0.000000,-0.070886 RLEG_JOINT4:0.992945,0.075146,0.000000,0.091720 WAIST:0.977601,-0.000000,0.208927,0.025396 WAIST_JOINT0:0.965763,-0.000000,0.252589,0.059171 WAIST_JOINT1:0.997771,0.051997,-0.000000,0.041826 END:
KINECT_DATA_Sensor  AnkleLeft:-0.028863,-0.562206,0.088173,0.821777 AnkleRight:0.097654,0.741955,0.102383,0.655351 ElbowLeft:0.064930,0.771593,-0.316595,-0.547901 ElbowRight:-0.401368,0.898460,-0.177485,-0.013120 FootLeft:0.000000,0.000000,0.000000,0.000000 FootRight:0.000000,0.000000,0.000000,0.000000 HandLeft:-0.041210,0.832601,-0.129564,0.536926 HandRight:0.247730,0.429755,-0.452719,0.740936 HandTipLeft:0.000000,0.000000,0.000000,0.000000 HandTipRight:0.000000,0.000000,0.000000,0.000000 Head:0.000000,0.000000,0.000000,0.000000 HipLeft:-0.005660,-0.677814,0.732776,-0.059799 HipRight:-0.266816,0.661099,0.645655,-0.273653 KneeLeft:0.031557,-0.545058,0.031763,0.837202 KneeRight:-0.005959,0.841243,0.074920,0.535409 Neck:-0.255431,0.061263,0.962119,-0.072994 ShoulderLeft:0.142772,0.721631,-0.669287,-0.104496 ShoulderRight:-0.202553,0.758858,0.554303,-0.275417 SpineBase:-0.208329,0.051172,0.976104,-0.034671 SpineMid:-0.231204,0.051972,0.970940,-0.033459 SpineShoulder:-0.255091,0.057071,0.963844,-0.051733 ThumbLeft:0.000000,0.000000,0.000000,0.000000 ThumbRight:0.000000,0.000000,0.000000,0.000000 WristLeft:-0.000121,0.836453,-0.125731,0.533421 WristRight:0.233871,0.400280,-0.501608,0.730390 END:
KINECT_DATA POSITION:13.488446,1.038077,8.559620 HEAD_JOINT1:0.993732,0.107654,0.000000,-0.030126 LARM_JOINT2:0.851000,0.000000,0.093796,-0.516722 LARM_JOINT3:0.944952,0.000000,-0.210637,-0.250395 LLEG_JOINT2:0.999804,-0.003346,0.000000,0.019496 LLEG_JOINT4:0.996471,0.082414,0.000000,0.015890 RARM_JOINT2:0.731695,0.000000,0.577009,0.362882 RARM_JOINT3:0.967119,0.000000,0.236725,0.092958 RLEG_JOINT2:0.995440,0.064404,0.000000,-0.070365 RLEG_JOINT4:0.993078,0.076810,0.000000,0.088863 WAIST:0.978251,-0.000000,0.205925,0.024918 WAIST_JOINT0:0.967398,-0.000000,0.246919,0.056315 WAIST_JOINT1:0.997749,0.052531,-0.000000,0.041681 END:
KINECT_DATA_Sensor  AnkleLeft:-0.032028,-0.565473,0.089352,0.819287 AnkleRight:0.097395,0.747866,0.103543,0.648452 ElbowLeft:0.064127,0.770336,-0.314668,-0.550867 ElbowRight:-0.403578,0.897938,-0.175068,-0.013542 FootLeft:0.000000,0.000000,0.000000,0.000000 FootRight:0.000000,0.000000,0.000000,0.000000 HandLeft:-0.026243,0.787944,-0.136013,0.599963 HandRight:0.250942,0.432977,-0.449494,0.739942 HandTipLeft:0.000000,0.000000,0.000000,0.000000 HandTipRight:0.000000,0.000000,0.000000,0.000000 Head:0.000000,0.000000,0.000000,0.000000 HipLeft:-0.003960,-0.678002,0.732433,-0.061956 HipRight:-0.264999,0.661307,0.646709,-0.272427 KneeLeft:0.030992,-0.547622,0.032185,0.835532 KneeRight:-0.005703,0.839541,0.074856,0.538085 Neck:-0.250279,0.060556,0.963471,-0.073596 ShoulderLeft:0.141872,0.723289,-0.667910,-0.103061 ShoulderRight:-0.195670,0.759836,0.558020,-0.270142 SpineBase:-0.205306,0.050826,0.976747,-0.035104 SpineMid:-0.227134,0.051599,0.971903,-0.033957 SpineShoulder:-0.249937,0.056430,0.965202,-0.052274 ThumbLeft:0.000000,0.000000,0.000000,0.000000 ThumbRight:0.000000,0.000000,0.000000,0.000000 WristLeft:0.010430,0.791920,-0.125935,0.597406 WristRight:0.230736,0.399870,-0.502077,0.731289 END:
KINECT_DATA POSITION:13.498269,1.070659,8.560872 HEAD_JOINT1:0.993685,0.108380,0.000000,-0.029064 LARM_JOINT2:0.851047,0.000000,0.070075,-0.520392 LARM_JOINT3:0.951354,0.000000,-0.196641,-0.237186 LLEG_JOINT2:0.999803,-0.003521,0.000000,0.019533 LLEG_JOINT4:0.996127,0.086952,0.000000,0.013031 RARM_JOINT2:0.732506,0.000000,0.578434,0.358955 RARM_JOINT3:0.965523,0.000000,0.242820,0.093829 RLEG_JOINT2:0.995490,0.063677,0.000000,-0.070325 RLEG_JOINT4:0.993166,0.076468,0.000000,0.088167 WAIST:0.978467,-0.000000,0.204864,0.025149 WAIST_JOINT0:0.965918,-0.000000,0.250824,0.063951 WAIST_JOINT1:0.997755,0.052666,-0.000000,0.041363 END:
KINECT_DATA_Sensor  AnkleLeft:-0.036560,-0.562143,0.089608,0.821358 AnkleRight:0.096077,0.743701,0.103198,0.653474 ElbowLeft:0.050409,0.785740,-0.309132,-0.533393 ElbowRight:-0.407551,0.896675,-0.172009,-0.016973 FootLeft:0.000000,0.000000,0.000000,0.000000 FootRight:0.000000,0.000000,0.000000,0.000000 HandLeft:-0.025241,0.796032,-0.136230,0.589184 HandRight:0.201790,0.523203,-0.487491,0.669247 HandTipLeft:0.000000,0.000000,0.000000,0.000000 HandTipRight:0.000000,0.000000,0.000000,0.000000 Head:0.000000,0.000000,0.000000,0.000000 HipLeft:-0.003355,-0.677538,0.732804,-0.062687 HipRight:-0.264390,0.661469,0.647001,-0.271930 KneeLeft:0.031338,-0.548524,0.032270,0.834924 KneeRight:-0.005819,0.838935,0.074088,0.539134 Neck:-0.254642,0.060930,0.962328,-0.073273 ShoulderLeft:0.155208,0.713313,-0.674238,-0.111795 ShoulderRight:-0.187446,0.761504,0.559945,-0.267278 SpineBase:-0.204262,0.050852,0.976960,-0.035219 SpineMid:-0.228802,0.051722,0.971506,-0.033927 SpineShoulder:-0.254311,0.056680,0.964059,-0.051999 ThumbLeft:0.000000,0.000000,0.000000,0.000000 ThumbRight:0.000000,0.000000,0.000000,0.000000 WristLeft:0.014017,0.800150,-0.125774,0.586297 WristRight:-0.166605,-0.485976,0.526740,-0.677211 END:
KINECT_DATA POSITION:13.509615,1.063841,8.555519 HEAD_JOINT1:0.993695,0.108481,0.000000,-0.028306 LARM_JOINT2:0.849991,0.000000,0.078799,-0.520870 LARM_JOINT3:0.950345,0.000000,-0.199624,-0.238735 LLEG_JOINT2:0.999800,-0.003351,0.000000,0.019727 LLEG_JOINT4:0.996511,0.082771,0.000000,0.010718 RARM_JOINT2:0.732323,0.000000,0.579866,0.357014 RARM_JOINT3:0.967840,0.000000,0.233240,0.094263 RLEG_JOINT2:0.995420,0.065350,0.000000,-0.069768 RLEG_JOINT4:0.993490,0.073657,0.000000,0.086904 WAIST:0.978722,-0.000000,0.203612,0.025405 WAIST_JOINT0:0.967640,-0.000000,0.244766,0.061332 WAIST_JOINT1:0.997764,0.052780,-0.000000,0.041012 END:
KINECT_DATA_Sensor  AnkleLeft:-0.048337,-0.696954,0.078793,0.711133 AnkleRight:0.094939,0.740882,0.102571,0.656932 ElbowLeft:0.053990,0.779103,-0.309444,-0.542519 ElbowRight:-0.409610,0.895903,-0.171010,-0.018228 FootLeft:0.000000,0.000000,0.000000,0.000000 FootRight:0.000000,0.000000,0.000000,0.000000 HandLeft:-0.029046,0.834282,-0.124721,0.536259 HandRight:0.260177,0.403959,-0.439496,0.758926 HandTipLeft:0.000000,0.000000,0.000000,0.000000 HandTipRight:0.000000,0.000000,0.000000,0.000000 Head:0.000000,0.000000,0.000000,0.000000 HipLeft:-0.002899,-0.677558,0.732733,-0.063311 HipRight:-0.263394,0.662055,0.647044,-0.271369 KneeLeft:0.031500,-0.549566,0.032688,0.834216 KneeRight:-0.004120,0.838316,0.075022,0.539982 Neck:-0.248836,0.060564,0.963852,-0.073494 ShoulderLeft:0.149354,0.717844,-0.671495,-0.107179 ShoulderRight:-0.184793,0.764048,0.558820,-0.264202 SpineBase:-0.203027,0.050917,0.977210,-0.035339 SpineMid:-0.225289,0.051710,0.972319,-0.034167 SpineShoulder:-0.248496,0.056390,0.965575,-0.052295 ThumbLeft:0.000000,0.000000,0.000000,0.000000 ThumbRight:0.000000,0.000000,0.000000,0.000000 WristLeft:0.004508,0.836706,-0.127357,0.532619 WristRight:0.246042,0.371936,-0.494121,0.746305 END:
KINECT_DATA POSITION:13.521112,1.057412,8.579170 HEAD_JOINT1:0.993584,0.109862,0.000000,-0.026851 LARM_JOINT2:0.848298,0.000000,0.083584,-0.522881 LARM_JOINT3:0.950207,0.000000,-0.203911,-0.235642 LLEG_JOINT2:0.999783,-0.001694,0.000000,0.020781 LLEG_JOINT4:0.996494,0.082921,0.000000,0.011126 RARM_JOINT2:0.731752,0.000000,0.580809,0.356651 RARM_JOINT3:0.968173,0.000000,0.232908,0.091625 RLEG_JOINT2:0.995406,0.066162,0.000000,-0.069213 RLEG_JOINT4:0.993413,0.073190,0.000000,0.088165 WAIST:0.979145,-0.000000,0.201626,0.024961 WAIST_JOINT0:0.968600,-0.000000,0.241311,0.059851 WAIST_JOINT1:0.997790,0.052380,-0.000000,0.040886 END:
KINECT_DATA_Sensor  AnkleLeft:-0.035301,-0.568610,0.087776,0.817149 AnkleRight:0.096279,0.737289,0.102513,0.660778 ElbowLeft:0.054666,0.774994,-0.307411,-0.549449 ElbowRight:-0.410672,0.895512,-0.170636,-0.017021 FootLeft:0.000000,0.000000,0.000000,0.000000 FootRight:0.000000,0.000000,0.000000,0.000000 HandLeft:-0.034156,0.825546,-0.132568,0.547478 HandRight:0.298414,0.332596,-0.421013,0.789352 HandTipLeft:0.000000,0.000000,0.000000,0.000000 HandTipRight:0.000000,0.000000,0.000000,0.000000 Head:0.000000,0.000000,0.000000,0.000000 HipLeft:-0.001364,-0.677793,0.732427,-0.064392 HipRight:-0.262498,0.662260,0.647696,-0.270178 KneeLeft:0.030411,-0.551143,0.034131,0.833158 KneeRight:-0.003323,0.837230,0.075748,0.541569 Neck:-0.245342,0.060014,0.964814,-0.073073 ShoulderLeft:0.145077,0.720866,-0.669624,-0.104443 ShoulderRight:-0.183932,0.765698,0.557744,-0.262291 SpineBase:-0.201029,0.050708,0.977644,-0.035053 SpineMid:-0.222537,0.051469,0.972973,-0.033926 SpineShoulder:-0.244993,0.055940,0.966515,-0.051942 ThumbLeft:0.000000,0.000000,0.000000,0.000000 ThumbRight:0.000000,0.000000,0.000000,0.000000 WristLeft:0.007708,0.829387,-0.128023,0.543753 WristRight:0.285468,0.303098,-0.471554,0.777352 END:
KINECT_DATA POSITION:13.516331,1.071587,8.588278 HEAD_JOINT1:0.993758,0.111397,0.000000,-0.005926 LARM_JOINT2:0.850199,0.000000,0.082877,-0.519896 LARM_JOINT3:0.949278,0.000000,-0.209194,-0.234752 LLEG_JOINT2:0.999771,-0.002361,0.000000,0.021246 LLEG_JOINT4:0.996297,0.085296,0.000000,0.010785 RARM_JOINT2:0.727784,0.000000,0.582736,0.361594 RARM_JOINT3:0.969566,0.000000,0.231090,0.080869 RLEG_JOINT2:0.995435,0.064829,0.000000,-0.070042 RLEG_JOINT4:0.993250,0.076150,0.000000,0.087495 WAIST:0.979179,-0.000000,0.201474,0.024852 WAIST_JOINT0:0.968153,-0.000000,0.243466,0.058343 WAIST_JOINT1:0.997920,0.054258,-0.000000,0.034807 END:
KINECT_DATA_Sensor  AnkleLeft:0.052554,0.710080,-0.080354,-0.697544 AnkleRight:0.096428,0.742465,0.103864,0.654721 ElbowLeft:0.054357,0.772184,-0.305705,-0.554366 ElbowRight:-0.404981,0.897241,-0.175705,-0.008727 FootLeft:0.000000,0.000000,0.000000,0.000000 FootRight:0.000000,0.000000,0.000000,0.000000 HandLeft:-0.047252,0.808685,-0.137242,0.570053 HandRight:0.310678,0.288039,-0.414494,0.805423 HandTipLeft:0.000000,0.000000,0.000000,0.000000 HandTipRight:0.000000,0.000000,0.000000,0.000000 Head:0.000000,0.000000,0.000000,0.000000 HipLeft:-0.000987,-0.677930,0.732327,-0.064091 HipRight:-0.261156,0.661865,0.648272,-0.271064 KneeLeft:0.031154,-0.551186,0.034072,0.833104 KneeRight:-0.004837,0.836982,0.075181,0.542019 Neck:-0.245654,0.053077,0.965083,-0.073831 ShoulderLeft:0.146315,0.722190,-0.668122,-0.103182 ShoulderRight:-0.183519,0.761038,0.563604,-0.263614 SpineBase:-0.200977,0.048152,0.977774,-0.035319 SpineMid:-0.222603,0.048923,0.973078,-0.034243 SpineShoulder:-0.245370,0.049757,0.966708,-0.052846 ThumbLeft:0.000000,0.000000,0.000000,0.000000 ThumbRight:0.000000,0.000000,0.000000,0.000000 WristLeft:0.011389,0.814594,-0.128881,0.565417 WristRight:0.306341,0.264529,-0.458286,0.791299 END:
KINECT_DATA POSITION:13.491729,1.052076,8.617270 HEAD_JOINT1:0.993367,0.114494,0.000000,-0.010675 LARM_JOINT2:0.846424,0.000000,0.086037,-0.525514 LARM_JOINT3:0.950496,0.000000,-0.209693,-0.229319 LLEG_JOINT2:0.999745,-0.001920,0.000000,0.022510 LLEG_JOINT4:0.996448,0.083810,0.000000,0.008256 RARM_JOINT2:0.744601,0.000000,0.559749,0.363663 RARM_JOINT3:0.952786,0.000000,0.284285,0.106683 RLEG_JOINT2:0.995534,0.064589,0.000000,-0.068847 RLEG_JOINT4:0.993405,0.074428,0.000000,0.087219 WAIST:0.980077,-0.000000,0.197197,0.023708 WAIST_JOINT0:0.969185,-0.000000,0.239645,0.057010 WAIST_JOINT1:0.997914,0.052625,-0.000000,0.037386 END:
KINECT_DATA_Sensor  AnkleLeft:-0.051019,-0.701077,0.079029,0.706853 AnkleRight:0.096026,0.739892,0.102048,0.657970 ElbowLeft:0.052872,0.770866,-0.301371,-0.558700 ElbowRight:-0.403544,0.902125,-0.152459,0.008854 FootLeft:0.000000,0.000000,0.000000,0.000000 FootRight:0.000000,0.000000,0.000000,0.000000 HandLeft:-0.054125,0.823753,-0.138796,0.547026 HandRight:0.342884,0.347250,-0.420896,0.764653 HandTipLeft:0.000000,0.000000,0.000000,0.000000 HandTipRight:0.000000,0.000000,0.000000,0.000000 Head:0.000000,0.000000,0.000000,0.000000 HipLeft:0.003011,-0.679135,0.730879,-0.067695 HipRight:-0.259501,0.662488,0.649135,-0.269058 KneeLeft:0.030747,-0.554817,0.034499,0.830688 KneeRight:-0.004377,0.834557,0.075220,0.545744 Neck:-0.242211,0.055909,0.965925,-0.072095 ShoulderLeft:0.140520,0.724006,-0.667879,-0.100031 ShoulderRight:-0.185021,0.762485,0.562030,-0.261738 SpineBase:-0.196643,0.047971,0.978677,-0.034950 SpineMid:-0.218798,0.048752,0.973963,-0.033852 SpineShoulder:-0.241982,0.051450,0.967538,-0.051648 ThumbLeft:0.000000,0.000000,0.000000,0.000000 ThumbRight:0.000000,0.000000,0.000000,0.000000 WristLeft:0.008248,0.830203,-0.129342,0.542186 WristRight:0.297898,0.303882,-0.476007,0.769630 END:
KINECT_DATA POSITION:13.516164,1.007231,8.721722 HEAD_JOINT1:0.992443,0.121788,0.000000,-0.014977 LARM_JOINT2:0.819050,0.000000,0.010254,-0.573630 LARM_JOINT3:0.972465,0.000000,-0.168428,-0.161071 LLEG_JOINT2:0.999680,-0.001169,0.000000,0.025283 LLEG_JOINT4:0.996227,0.086470,0.000000,0.007402 RARM_JOINT2:0.796852,0.000000,0.470452,0.379079 RARM_JOINT3:0.911272,0.000000,0.377584,0.164356 RLEG_JOINT2:0.995644,0.065143,0.000000,-0.066697 RLEG_JOINT4:0.993604,0.073633,0.000000,0.085606 WAIST:0.980704,-0.000000,0.194276,0.021826 WAIST_JOINT0:0.970003,-0.000000,0.235960,0.058461 WAIST_JOINT1:0.997992,0.050670,-0.000000,0.037998 END:
KINECT_DATA_Sensor  AnkleLeft:-0.053196,-0.693142,0.081444,0.714206 AnkleRight:0.095719,0.740939,0.102070,0.656832 ElbowLeft:0.003351,0.800813,-0.237723,-0.549705 ElbowRight:-0.381964,0.920004,-0.069409,0.053657 FootLeft:0.000000,0.000000,0.000000,0.000000 FootRight:0.000000,0.000000,0.000000,0.000000 HandLeft:-0.072925,0.850557,-0.134507,0.503133 HandRight:0.338672,0.360935,-0.411661,0.765220 HandTipLeft:0.000000,0.000000,0.000000,0.000000 HandTipRight:0.000000,0.000000,0.000000,0.000000 Head:0.000000,0.000000,0.000000,0.000000 HipLeft:0.006588,-0.680387,0.729588,-0.068779 HipRight:-0.259304,0.662297,0.650434,-0.266568 KneeLeft:0.030388,-0.557179,0.035844,0.829062 KneeRight:-0.003321,0.832902,0.075870,0.548184 Neck:-0.239264,0.054842,0.966892,-0.069753 ShoulderLeft:0.135245,0.724713,-0.668726,-0.096470 ShoulderRight:-0.186275,0.765859,0.557623,-0.260420 SpineBase:-0.193662,0.047343,0.979363,-0.033185 SpineMid:-0.215810,0.048083,0.974722,-0.032103 SpineShoulder:-0.239011,0.050734,0.968402,-0.049972 ThumbLeft:0.000000,0.000000,0.000000,0.000000 ThumbRight:0.000000,0.000000,0.000000,0.000000 WristLeft:0.003340,0.858188,-0.129398,0.496748 WristRight:0.323379,0.321446,-0.475072,0.752599 END:
