EastLYD/RoboCupatHomeSim/InteractiveCleanUp/JapanOpen2016/Motion_Data/File75.dat
KINECT_DATA POSITION:28.411659,-3.839721,-6.956780 HEAD_JOINT1:0.976094,0.197988,-0.000000,0.089675 LARM_JOINT2:0.827174,0.000000,-0.030651,-0.561110 LARM_JOINT3:0.975262,0.000000,-0.165972,-0.146003 LLEG_JOINT2:0.999501,0.018368,0.000000,0.025696 LLEG_JOINT4:0.995903,0.082356,0.000000,-0.037343 RARM_JOINT2:0.812307,0.000000,-0.026090,0.582647 RARM_JOINT3:0.960055,0.000000,0.237659,0.147694 RLEG_JOINT2:0.999732,0.002910,0.000000,-0.022982 RLEG_JOINT4:0.993884,0.107669,0.000000,0.024536 WAIST:0.999971,0.000000,-0.005166,0.005556 WAIST_JOINT0:0.999898,0.000000,-0.008468,0.011516 WAIST_JOINT1:0.995900,0.089983,0.000000,-0.009299 END:
KINECT_DATA_Sensor  AnkleLeft:0.077026,0.723973,-0.065037,-0.682422 AnkleRight:0.086044,0.721026,0.069818,0.683991 ElbowLeft:-0.023854,0.893121,-0.192142,-0.406015 ElbowRight:0.012255,0.849847,0.198063,0.488242 FootLeft:0.000000,0.000000,0.000000,0.000000 FootRight:0.000000,0.000000,0.000000,0.000000 HandLeft:-0.082539,0.843831,-0.008999,0.530146 HandRight:-0.148519,0.921487,-0.076992,0.350536 HandTipLeft:0.000000,0.000000,0.000000,0.000000 HandTipRight:0.000000,0.000000,0.000000,0.000000 Head:0.000000,0.000000,0.000000,0.000000 HipLeft:0.107628,-0.672668,0.708437,-0.184531 HipRight:-0.103951,0.679683,0.701999,-0.185534 KneeLeft:-0.009277,0.710037,-0.035054,-0.703230 KneeRight:-0.010156,0.704076,0.014464,0.709904 Neck:0.006853,-0.004468,0.994223,-0.107021 ShoulderLeft:0.039391,0.765985,-0.637177,0.075639 ShoulderRight:0.049434,0.777610,0.623628,-0.062987 SpineBase:0.004294,-0.001955,0.997923,-0.064242 SpineMid:0.005637,-0.002041,0.997917,-0.064239 SpineShoulder:0.006936,-0.003196,0.996392,-0.084522 ThumbLeft:0.000000,0.000000,0.000000,0.000000 ThumbRight:0.000000,0.000000,0.000000,0.000000 WristLeft:-0.063526,0.848190,-0.088534,0.518363 WristRight:-0.120189,0.925212,-0.017926,0.359466 END:
KINECT_DATA POSITION:28.374178,-3.845347,-6.905019 HEAD_JOINT1:0.975489,0.199517,-0.000000,0.092813 LARM_JOINT2:0.827286,0.000000,-0.030542,-0.560951 LARM_JOINT3:0.975196,0.000000,-0.166453,-0.145901 LLEG_JOINT2:0.999489,0.019133,0.000000,0.025593 LLEG_JOINT4:0.995797,0.083849,0.000000,-0.036839 RARM_JOINT2:0.811554,0.000000,-0.026266,0.583686 RARM_JOINT3:0.960094,0.000000,0.238982,0.145283 RLEG_JOINT2:0.999737,0.003100,0.000000,-0.022743 RLEG_JOINT4:0.993926,0.107535,0.000000,0.023403 WAIST:0.999960,0.000000,-0.006885,0.005724 WAIST_JOINT0:0.999884,0.000000,-0.010561,0.010935 WAIST_JOINT1:0.995905,0.089854,0.000000,-0.009977 END:
KINECT_DATA_Sensor  AnkleLeft:0.076703,0.710226,-0.068795,-0.696392 AnkleRight:0.087086,0.733217,0.068551,0.670902 ElbowLeft:-0.023699,0.894654,-0.191861,-0.402768 ElbowRight:0.012657,0.848210,0.197415,0.491331 FootLeft:0.000000,0.000000,0.000000,0.000000 FootRight:0.000000,0.000000,0.000000,0.000000 HandLeft:-0.088575,0.867952,-0.007132,0.488634 HandRight:-0.155689,0.919273,-0.074266,0.353812 HandTipLeft:0.000000,0.000000,0.000000,0.000000 HandTipRight:0.000000,0.000000,0.000000,0.000000 Head:0.000000,0.000000,0.000000,0.000000 HipLeft:0.108981,-0.672341,0.708373,-0.185172 HipRight:-0.102917,0.679986,0.702096,-0.184631 KneeLeft:-0.008841,0.711198,-0.035636,-0.702033 KneeRight:-0.009700,0.702932,0.014332,0.711046 Neck:0.009024,-0.004847,0.994213,-0.106936 ShoulderLeft:0.037834,0.766284,-0.636720,0.077234 ShoulderRight:0.050678,0.777241,0.624158,-0.061288 SpineBase:0.005947,-0.002519,0.997927,-0.064035 SpineMid:0.007532,-0.002621,0.997916,-0.064031 SpineShoulder:0.009101,-0.003600,0.996384,-0.084402 ThumbLeft:0.000000,0.000000,0.000000,0.000000 ThumbRight:0.000000,0.000000,0.000000,0.000000 WristLeft:-0.066701,0.872227,-0.084466,0.477114 WristRight:-0.120298,0.923780,-0.017645,0.363108 END:
KINECT_DATA POSITION:28.307262,-3.844652,-6.866622 HEAD_JOINT1:0.975061,0.201008,-0.000000,0.094085 LARM_JOINT2:0.827401,0.000000,-0.030319,-0.560792 LARM_JOINT3:0.974865,0.000000,-0.167990,-0.146346 LLEG_JOINT2:0.999482,0.018772,0.000000,0.026146 LLEG_JOINT4:0.995875,0.083079,0.000000,-0.036488 RARM_JOINT2:0.811163,0.000000,-0.026189,0.584234 RARM_JOINT3:0.959950,0.000000,0.240131,0.144336 RLEG_JOINT2:0.999753,0.002818,0.000000,-0.022031 RLEG_JOINT4:0.993629,0.110171,0.000000,0.023732 WAIST:0.999956,0.000000,-0.007527,0.005637 WAIST_JOINT0:0.999873,0.000000,-0.011879,0.010623 WAIST_JOINT1:0.995913,0.089730,0.000000,-0.010312 END:
KINECT_DATA_Sensor  AnkleLeft:0.077600,0.734272,-0.065996,-0.671169 AnkleRight:0.086261,0.701119,0.073368,0.703994 ElbowLeft:-0.023760,0.894765,-0.191672,-0.402609 ElbowRight:0.012523,0.847341,0.197121,0.492951 FootLeft:0.000000,0.000000,0.000000,0.000000 FootRight:0.000000,0.000000,0.000000,0.000000 HandLeft:-0.094776,0.869015,-0.006972,0.485574 HandRight:-0.162695,0.923744,-0.073618,0.338834 HandTipLeft:0.000000,0.000000,0.000000,0.000000 HandTipRight:0.000000,0.000000,0.000000,0.000000 Head:0.000000,0.000000,0.000000,0.000000 HipLeft:0.109453,-0.672430,0.708229,-0.185121 HipRight:-0.102290,0.680048,0.702233,-0.184226 KneeLeft:-0.009449,0.711603,-0.035701,-0.701610 KneeRight:-0.009451,0.702533,0.013699,0.711457 Neck:0.010389,-0.005133,0.994206,-0.106863 ShoulderLeft:0.036562,0.766484,-0.636412,0.078392 ShoulderRight:0.051164,0.777129,0.624347,-0.060363 SpineBase:0.006556,-0.003204,0.997930,-0.063897 SpineMid:0.008486,-0.003327,0.997915,-0.063891 SpineShoulder:0.010439,-0.004073,0.996380,-0.084268 ThumbLeft:0.000000,0.000000,0.000000,0.000000 ThumbRight:0.000000,0.000000,0.000000,0.000000 WristLeft:-0.067149,0.874176,-0.084096,0.473534 WristRight:-0.120472,0.929173,-0.014696,0.349154 END:
KINECT_DATA POSITION:28.296392,-3.853581,-6.695533 HEAD_JOINT1:0.974757,0.202015,-0.000000,0.095072 LARM_JOINT2:0.827296,0.000000,-0.028745,-0.561030 LARM_JOINT3:0.975233,0.000000,-0.167112,-0.144896 LLEG_JOINT2:0.999463,0.020159,0.000000,0.025839 LLEG_JOINT4:0.995938,0.082623,0.000000,-0.035788 RARM_JOINT2:0.810964,0.000000,-0.026720,0.584485 RARM_JOINT3:0.958053,0.000000,0.245450,0.147946 RLEG_JOINT2:0.999754,0.001288,0.000000,-0.022144 RLEG_JOINT4:0.993517,0.111446,0.000000,0.022434 WAIST:0.999950,0.000000,-0.008135,0.005815 WAIST_JOINT0:0.999862,0.000000,-0.012853,0.010554 WAIST_JOINT1:0.995996,0.088758,0.000000,-0.010720 END:
KINECT_DATA_Sensor  AnkleLeft:0.075560,0.711758,-0.069663,-0.694866 AnkleRight:0.085822,0.705927,0.073398,0.699224 ElbowLeft:-0.023122,0.895463,-0.191493,-0.401177 ElbowRight:0.012490,0.847649,0.196757,0.492567 FootLeft:0.000000,0.000000,0.000000,0.000000 FootRight:0.000000,0.000000,0.000000,0.000000 HandLeft:-0.088933,0.892079,-0.009347,0.442944 HandRight:-0.178774,0.910284,-0.100563,0.359596 HandTipLeft:0.000000,0.000000,0.000000,0.000000 HandTipRight:0.000000,0.000000,0.000000,0.000000 Head:0.000000,0.000000,0.000000,0.000000 HipLeft:0.110570,-0.672403,0.708204,-0.184650 HipRight:-0.102651,0.680404,0.702108,-0.183189 KneeLeft:-0.008400,0.712045,-0.036598,-0.701129 KneeRight:-0.010486,0.702100,0.012589,0.711889 Neck:0.011420,-0.005361,0.994285,-0.106009 ShoulderLeft:0.034682,0.766781,-0.636100,0.078873 ShoulderRight:0.050606,0.777296,0.624290,-0.059260 SpineBase:0.007153,-0.003251,0.997999,-0.062740 SpineMid:0.009303,-0.003387,0.997981,-0.062732 SpineShoulder:0.011467,-0.004289,0.996452,-0.083267 ThumbLeft:0.000000,0.000000,0.000000,0.000000 ThumbRight:0.000000,0.000000,0.000000,0.000000 WristLeft:-0.071489,0.894989,-0.079654,0.433058 WristRight:-0.119363,0.919056,-0.017684,0.375201 END:
KINECT_DATA POSITION:28.307013,-3.861869,-6.586075 HEAD_JOINT1:0.974819,0.201326,-0.000000,0.095894 LARM_JOINT2:0.827082,0.000000,-0.028658,-0.561350 LARM_JOINT3:0.975388,0.000000,-0.166531,-0.144518 LLEG_JOINT2:0.999456,0.021211,0.000000,0.025256 LLEG_JOINT4:0.995961,0.082288,0.000000,-0.035934 RARM_JOINT2:0.810792,0.000000,-0.022965,0.584884 RARM_JOINT3:0.949794,0.000000,0.267365,0.162506 RLEG_JOINT2:0.999746,0.003142,0.000000,-0.022304 RLEG_JOINT4:0.993703,0.109500,0.000000,0.023759 WAIST:0.999947,0.000000,-0.008304,0.006018 WAIST_JOINT0:0.999866,0.000000,-0.012299,0.010814 WAIST_JOINT1:0.996050,0.088116,0.000000,-0.010911 END:
KINECT_DATA_Sensor  AnkleLeft:0.078936,0.736840,-0.066958,-0.668096 AnkleRight:0.088867,0.726790,0.069653,0.677516 ElbowLeft:-0.023689,0.895126,-0.190912,-0.402170 ElbowRight:0.010571,0.850677,0.194580,0.488237 FootLeft:0.000000,0.000000,0.000000,0.000000 FootRight:0.000000,0.000000,0.000000,0.000000 HandLeft:-0.087224,0.873071,-0.012407,0.479568 HandRight:-0.221566,0.908773,-0.149021,0.320676 HandTipLeft:0.000000,0.000000,0.000000,0.000000 HandTipRight:0.000000,0.000000,0.000000,0.000000 Head:0.000000,0.000000,0.000000,0.000000 HipLeft:0.111041,-0.672391,0.708239,-0.184275 HipRight:-0.102914,0.680711,0.701913,-0.182645 KneeLeft:-0.007396,0.712175,-0.037083,-0.700983 KneeRight:-0.009129,0.701993,0.013861,0.711991 Neck:0.010888,-0.005256,0.994355,-0.105414 ShoulderLeft:0.034435,0.767037,-0.635899,0.078113 ShoulderRight:0.049648,0.777673,0.623892,-0.059321 SpineBase:0.007311,-0.003180,0.998039,-0.062081 SpineMid:0.009118,-0.003292,0.998024,-0.062075 SpineShoulder:0.010932,-0.004211,0.996512,-0.082619 ThumbLeft:0.000000,0.000000,0.000000,0.000000 ThumbRight:0.000000,0.000000,0.000000,0.000000 WristLeft:-0.068567,0.876387,-0.082980,0.469424 WristRight:-0.128328,0.928091,-0.027976,0.348420 END:
KINECT_DATA POSITION:28.328159,-3.893944,-6.444478 HEAD_JOINT1:0.974909,0.200712,-0.000000,0.096266 LARM_JOINT2:0.826928,0.000000,-0.029351,-0.561541 LARM_JOINT3:0.975201,0.000000,-0.168917,-0.143005 LLEG_JOINT2:0.999460,0.022036,0.000000,0.024395 LLEG_JOINT4:0.996078,0.081535,0.000000,-0.034352 RARM_JOINT2:0.809858,0.000000,-0.013827,0.586463 RARM_JOINT3:0.930707,0.000000,0.316571,0.183215 RLEG_JOINT2:0.999715,0.004989,0.000000,-0.023332 RLEG_JOINT4:0.993675,0.109879,0.000000,0.023177 WAIST:0.999957,0.000000,-0.006467,0.006616 WAIST_JOINT0:0.999868,0.000000,-0.010849,0.012092 WAIST_JOINT1:0.996128,0.087217,0.000000,-0.011015 END:
KINECT_DATA_Sensor  AnkleLeft:0.077953,0.733130,-0.068116,-0.672164 AnkleRight:0.087056,0.703054,0.075219,0.701768 ElbowLeft:-0.024551,0.894754,-0.190555,-0.403114 ElbowRight:0.004265,0.853230,0.188644,0.486203 FootLeft:0.000000,0.000000,0.000000,0.000000 FootRight:0.000000,0.000000,0.000000,0.000000 HandLeft:-0.093521,0.869049,-0.023125,0.485256 HandRight:-0.278780,0.858910,-0.240007,0.356304 HandTipLeft:0.000000,0.000000,0.000000,0.000000 HandTipRight:0.000000,0.000000,0.000000,0.000000 Head:0.000000,0.000000,0.000000,0.000000 HipLeft:0.110817,-0.672408,0.708680,-0.182646 HipRight:-0.105066,0.681010,0.701211,-0.183002 KneeLeft:-0.006564,0.710897,-0.037494,-0.702266 KneeRight:-0.008145,0.703288,0.015442,0.710691 Neck:0.009404,-0.004909,0.994463,-0.104550 ShoulderLeft:0.033439,0.767085,-0.635986,0.077362 ShoulderRight:0.046727,0.778957,0.622378,-0.060727 SpineBase:0.005463,-0.002683,0.998129,-0.060836 SpineMid:0.007458,-0.002805,0.998116,-0.060831 SpineShoulder:0.009441,-0.003935,0.996606,-0.081683 ThumbLeft:0.000000,0.000000,0.000000,0.000000 ThumbRight:0.000000,0.000000,0.000000,0.000000 WristLeft:-0.069086,0.872697,-0.084103,0.475977 WristRight:-0.155610,0.899236,-0.080099,0.400930 END:
KINECT_DATA POSITION:28.348541,-3.922207,-6.338286 HEAD_JOINT1:0.975217,0.198613,-0.000000,0.097493 LARM_JOINT2:0.826893,0.000000,-0.028539,-0.561634 LARM_JOINT3:0.975160,0.000000,-0.167482,-0.144960 LLEG_JOINT2:0.999448,0.023296,0.000000,0.023703 LLEG_JOINT4:0.996122,0.080609,0.000000,-0.035258 RARM_JOINT2:0.808902,0.000000,-0.003486,0.587934 RARM_JOINT3:0.909142,0.000000,0.368006,0.195021 RLEG_JOINT2:0.999709,0.006893,0.000000,-0.023136 RLEG_JOINT4:0.993690,0.109540,0.000000,0.024098 WAIST:0.999954,0.000000,-0.006795,0.006799 WAIST_JOINT0:0.999856,0.000000,-0.010031,0.013697 WAIST_JOINT1:0.996196,0.086459,0.000000,-0.010912 END:
KINECT_DATA_Sensor  AnkleLeft:0.076795,0.709973,-0.069997,-0.696521 AnkleRight:0.089147,0.703142,0.075285,0.701410 ElbowLeft:-0.025101,0.894075,-0.190683,-0.404524 ElbowRight:-0.003901,0.850751,0.182431,0.492876 FootLeft:0.000000,0.000000,0.000000,0.000000 FootRight:0.000000,0.000000,0.000000,0.000000 HandLeft:-0.088395,0.883256,-0.011763,0.460332 HandRight:-0.361414,0.861185,-0.250170,0.255254 HandTipLeft:0.000000,0.000000,0.000000,0.000000 HandTipRight:0.000000,0.000000,0.000000,0.000000 Head:0.000000,0.000000,0.000000,0.000000 HipLeft:0.111512,-0.672372,0.708720,-0.182200 HipRight:-0.105565,0.681372,0.701051,-0.181975 KneeLeft:-0.005323,0.711164,-0.038034,-0.701976 KneeRight:-0.006516,0.703031,0.016512,0.710938 Neck:0.008465,-0.004343,0.994565,-0.103682 ShoulderLeft:0.032807,0.767303,-0.635836,0.076693 ShoulderRight:0.044884,0.780887,0.620032,-0.061326 SpineBase:0.005813,-0.002214,0.998191,-0.059797 SpineMid:0.007171,-0.002295,0.998182,-0.059794 SpineShoulder:0.008488,-0.003559,0.996674,-0.080971 ThumbLeft:0.000000,0.000000,0.000000,0.000000 ThumbRight:0.000000,0.000000,0.000000,0.000000 WristLeft:-0.072857,0.886066,-0.082618,0.450281 WristRight:-0.202106,0.923278,-0.105382,0.309201 END:
KINECT_DATA POSITION:28.363546,-3.951509,-6.246138 HEAD_JOINT1:0.976255,0.191252,-0.000000,0.101728 LARM_JOINT2:0.826768,0.000000,-0.026747,-0.561908 LARM_JOINT3:0.973877,0.000000,-0.173650,-0.146320 LLEG_JOINT2:0.999442,0.024552,0.000000,0.022639 LLEG_JOINT4:0.996348,0.078951,0.000000,-0.032525 RARM_JOINT2:0.805484,0.000000,0.028810,0.591917 RARM_JOINT3:0.895745,0.000000,0.406549,0.179887 RLEG_JOINT2:0.999703,0.007717,0.000000,-0.023101 RLEG_JOINT4:0.993814,0.108642,0.000000,0.023055 WAIST:0.999932,0.000000,-0.009589,0.006568 WAIST_JOINT0:0.999828,0.000000,-0.009589,0.015892 WAIST_JOINT1:0.996381,0.084367,0.000000,-0.010324 END:
KINECT_DATA_Sensor  AnkleLeft:0.077305,0.731684,-0.068773,-0.673745 AnkleRight:0.090874,0.723683,0.072971,0.680221 ElbowLeft:-0.026675,0.894013,-0.190451,-0.404669 ElbowRight:-0.024471,0.852796,0.163201,0.495485 FootLeft:0.000000,0.000000,0.000000,0.000000 FootRight:0.000000,0.000000,0.000000,0.000000 HandLeft:-0.106397,0.870257,-0.017683,0.480645 HandRight:-0.485391,0.835673,0.023736,-0.255895 HandTipLeft:0.000000,0.000000,0.000000,0.000000 HandTipRight:0.000000,0.000000,0.000000,0.000000 Head:0.000000,0.000000,0.000000,0.000000 HipLeft:0.114041,-0.672312,0.708205,-0.182856 HipRight:-0.104907,0.681843,0.701366,-0.179361 KneeLeft:-0.003612,0.713178,-0.038022,-0.699942 KneeRight:-0.006006,0.701002,0.017258,0.712925 Neck:0.007928,-0.003078,0.994928,-0.100227 ShoulderLeft:0.030554,0.768060,-0.635091,0.076218 ShoulderRight:0.041865,0.784030,0.616251,-0.061475 SpineBase:0.008655,-0.002030,0.998258,-0.058325 SpineMid:0.008305,-0.002009,0.998261,-0.058326 SpineShoulder:0.007915,-0.002814,0.996810,-0.079364 ThumbLeft:0.000000,0.000000,0.000000,0.000000 ThumbRight:0.000000,0.000000,0.000000,0.000000 WristLeft:-0.074302,0.875722,-0.084675,0.469489 WristRight:-0.278113,0.919472,0.022545,-0.276975 END:
KINECT_DATA POSITION:28.453047,-3.966098,-6.097615 HEAD_JOINT1:0.977018,0.186219,-0.000000,0.103723 LARM_JOINT2:0.826178,0.000000,-0.024301,-0.562885 LARM_JOINT3:0.974033,0.000000,-0.169570,-0.150017 LLEG_JOINT2:0.999429,0.026871,0.000000,0.020478 LLEG_JOINT4:0.996597,0.076114,0.000000,-0.031628 RARM_JOINT2:0.803639,0.000000,0.041698,0.593655 RARM_JOINT3:0.878722,0.000000,0.445276,0.171980 RLEG_JOINT2:0.999656,0.009090,0.000000,-0.024614 RLEG_JOINT4:0.993982,0.106990,0.000000,0.023531 WAIST:0.999910,0.000000,-0.011559,0.006879 WAIST_JOINT0:0.999819,0.000000,-0.009032,0.016772 WAIST_JOINT1:0.996646,0.081298,0.000000,-0.009306 END:
KINECT_DATA_Sensor  AnkleLeft:0.075091,0.709747,-0.070504,-0.696885 AnkleRight:0.089958,0.718810,0.073606,0.685421 ElbowLeft:-0.027861,0.894861,-0.190298,-0.402784 ElbowRight:-0.036955,0.841654,0.152111,0.516833 FootLeft:0.000000,0.000000,0.000000,0.000000 FootRight:0.000000,0.000000,0.000000,0.000000 HandLeft:-0.096581,0.852346,-0.007979,0.513920 HandRight:-0.013856,0.245479,-0.505392,0.827120 HandTipLeft:0.000000,0.000000,0.000000,0.000000 HandTipRight:0.000000,0.000000,0.000000,0.000000 Head:0.000000,0.000000,0.000000,0.000000 HipLeft:0.116214,-0.672186,0.708048,-0.182559 HipRight:-0.105312,0.682897,0.701110,-0.176086 KneeLeft:-0.000725,0.714632,-0.038391,-0.698446 KneeRight:-0.005819,0.699497,0.019100,0.714357 Neck:0.007485,-0.000952,0.995334,-0.096192 ShoulderLeft:0.027806,0.768510,-0.634839,0.074819 ShoulderRight:0.038332,0.785639,0.614491,-0.060853 SpineBase:0.010702,-0.000613,0.998379,-0.055905 SpineMid:0.009116,-0.000524,0.998394,-0.055906 SpineShoulder:0.007441,-0.001311,0.997031,-0.076623 ThumbLeft:0.000000,0.000000,0.000000,0.000000 ThumbRight:0.000000,0.000000,0.000000,0.000000 WristLeft:-0.072983,0.857768,-0.087363,0.501274 WristRight:-0.023726,0.258191,-0.325876,0.909164 END:
KINECT_DATA POSITION:28.533587,-3.950122,-6.008399 HEAD_JOINT1:0.976889,0.186660,-0.000000,0.104142 LARM_JOINT2:0.825435,0.000000,-0.022038,-0.564067 LARM_JOINT3:0.974001,0.000000,-0.167686,-0.152324 LLEG_JOINT2:0.999457,0.027376,0.000000,0.018354 LLEG_JOINT4:0.996422,0.079153,0.000000,-0.029639 RARM_JOINT2:0.805871,0.000000,0.052216,0.589785 RARM_JOINT3:0.871699,0.000000,0.463415,0.159338 RLEG_JOINT2:0.999603,0.009491,0.000000,-0.026546 RLEG_JOINT4:0.994001,0.106555,0.000000,0.024671 WAIST:0.999900,0.000000,-0.012020,0.007405 WAIST_JOINT0:0.999817,0.000000,-0.008067,0.017356 WAIST_JOINT1:0.996849,0.078813,0.000000,-0.008968 END:
KINECT_DATA_Sensor  AnkleLeft:0.077180,0.709074,-0.073432,-0.697040 AnkleRight:0.090858,0.728291,0.072423,0.675345 ElbowLeft:-0.028617,0.894032,-0.189634,-0.404878 ElbowRight:-0.051013,0.830753,0.147875,0.534211 FootLeft:0.000000,0.000000,0.000000,0.000000 FootRight:0.000000,0.000000,0.000000,0.000000 HandLeft:-0.091732,0.854863,0.002446,0.510674 HandRight:-0.011208,0.235060,-0.504999,0.830420 HandTipLeft:0.000000,0.000000,0.000000,0.000000 HandTipRight:0.000000,0.000000,0.000000,0.000000 Head:0.000000,0.000000,0.000000,0.000000 HipLeft:0.117265,-0.672011,0.708176,-0.182037 HipRight:-0.106287,0.683688,0.700580,-0.174530 KneeLeft:0.000761,0.714977,-0.037643,-0.698133 KneeRight:-0.006500,0.699108,0.020397,0.714696 Neck:0.006623,-0.000025,0.995562,-0.093871 ShoulderLeft:0.025596,0.769039,-0.634486,0.073158 ShoulderRight:0.034901,0.786734,0.613323,-0.060551 SpineBase:0.011194,0.000553,0.998462,-0.054288 SpineMid:0.008966,0.000674,0.998485,-0.054287 SpineShoulder:0.006601,-0.000335,0.997230,-0.074086 ThumbLeft:0.000000,0.000000,0.000000,0.000000 ThumbRight:0.000000,0.000000,0.000000,0.000000 WristLeft:-0.075397,0.860147,-0.087542,0.496788 WristRight:-0.029062,0.238222,-0.364012,0.899945 END:
KINECT_DATA POSITION:28.542591,-3.948669,-5.983603 HEAD_JOINT1:0.976897,0.186989,-0.000000,0.103473 LARM_JOINT2:0.824836,0.000000,-0.020904,-0.564985 LARM_JOINT3:0.973790,0.000000,-0.168552,-0.152721 LLEG_JOINT2:0.999453,0.027830,0.000000,0.017845 LLEG_JOINT4:0.996567,0.078167,0.000000,-0.027274 RARM_JOINT2:0.809009,0.000000,0.075613,0.582912 RARM_JOINT3:0.875634,0.000000,0.461571,0.142190 RLEG_JOINT2:0.999591,0.009524,0.000000,-0.026976 RLEG_JOINT4:0.994060,0.105515,0.000000,0.026680 WAIST:0.999888,0.000000,-0.013100,0.007273 WAIST_JOINT0:0.999819,0.000000,-0.007501,0.017502 WAIST_JOINT1:0.996929,0.077831,0.000000,-0.008708 END:
KINECT_DATA_Sensor  AnkleLeft:0.078417,0.737299,-0.071260,-0.667206 AnkleRight:0.090288,0.719464,0.071660,0.684897 ElbowLeft:-0.028945,0.893350,-0.188722,-0.406783 ElbowRight:-0.071412,0.828658,0.141347,0.536886 FootLeft:0.000000,0.000000,0.000000,0.000000 FootRight:0.000000,0.000000,0.000000,0.000000 HandLeft:-0.093936,0.860517,0.005793,0.500652 HandRight:-0.041749,0.274025,-0.494674,0.823690 HandTipLeft:0.000000,0.000000,0.000000,0.000000 HandTipRight:0.000000,0.000000,0.000000,0.000000 Head:0.000000,0.000000,0.000000,0.000000 HipLeft:0.118257,-0.672060,0.707916,-0.182224 HipRight:-0.106085,0.683889,0.700696,-0.173397 KneeLeft:0.001501,0.715749,-0.037526,-0.697347 KneeRight:-0.006842,0.698310,0.020834,0.715459 Neck:0.006092,0.000092,0.995622,-0.093276 ShoulderLeft:0.024570,0.769004,-0.634645,0.072492 ShoulderRight:0.033174,0.786869,0.613232,-0.060691 SpineBase:0.012301,0.000683,0.998486,-0.053608 SpineMid:0.009270,0.000845,0.998519,-0.053606 SpineShoulder:0.006103,0.000053,0.997314,-0.072986 ThumbLeft:0.000000,0.000000,0.000000,0.000000 ThumbRight:0.000000,0.000000,0.000000,0.000000 WristLeft:-0.077815,0.865997,-0.086772,0.486276 WristRight:-0.054070,0.277410,-0.384159,0.878943 END:
KINECT_DATA POSITION:28.563707,-3.948426,-5.956435 HEAD_JOINT1:0.976949,0.188337,-0.000000,0.100501 LARM_JOINT2:0.823298,0.000000,-0.018973,-0.567293 LARM_JOINT3:0.974477,0.000000,-0.166090,-0.151027 LLEG_JOINT2:0.999467,0.027784,0.000000,0.017114 LLEG_JOINT4:0.996523,0.078896,0.000000,-0.026772 RARM_JOINT2:0.810791,0.000000,0.097873,0.577096 RARM_JOINT3:0.882553,0.000000,0.451670,0.130746 RLEG_JOINT2:0.999582,0.007865,0.000000,-0.027825 RLEG_JOINT4:0.993866,0.106724,0.000000,0.028983 WAIST:0.999890,0.000000,-0.013068,0.007046 WAIST_JOINT0:0.999829,0.000000,-0.005255,0.017729 WAIST_JOINT1:0.997026,0.076691,0.000000,-0.007620 END:
KINECT_DATA_Sensor  AnkleLeft:0.079383,0.738754,-0.071221,-0.665484 AnkleRight:0.090390,0.715606,0.070948,0.688987 ElbowLeft:-0.028424,0.891701,-0.187245,-0.411096 ElbowRight:-0.089133,0.829733,0.133013,0.534702 FootLeft:0.000000,0.000000,0.000000,0.000000 FootRight:0.000000,0.000000,0.000000,0.000000 HandLeft:-0.081519,0.854891,0.007100,0.512314 HandRight:-0.028811,0.259908,-0.480624,0.837030 HandTipLeft:0.000000,0.000000,0.000000,0.000000 HandTipRight:0.000000,0.000000,0.000000,0.000000 Head:0.000000,0.000000,0.000000,0.000000 HipLeft:0.118628,-0.672301,0.707723,-0.181843 HipRight:-0.106764,0.683890,0.700757,-0.172731 KneeLeft:0.002154,0.715766,-0.036822,-0.697366 KneeRight:-0.008785,0.698256,0.020445,0.715502 Neck:0.003954,0.001016,0.995714,-0.092396 ShoulderLeft:0.023277,0.768893,-0.634946,0.071450 ShoulderRight:0.029022,0.787046,0.612985,-0.062978 SpineBase:0.012329,0.001122,0.998529,-0.052789 SpineMid:0.008221,0.001339,0.998571,-0.052784 SpineShoulder:0.003990,0.001079,0.997415,-0.071735 ThumbLeft:0.000000,0.000000,0.000000,0.000000 ThumbRight:0.000000,0.000000,0.000000,0.000000 WristLeft:-0.077761,0.858735,-0.087837,0.498811 WristRight:-0.048815,0.256202,-0.397731,0.879652 END:
KINECT_DATA POSITION:28.553204,-3.941876,-5.919802 HEAD_JOINT1:0.976928,0.190482,-0.000000,0.096578 LARM_JOINT2:0.821868,0.000000,-0.016343,-0.569443 LARM_JOINT3:0.974113,0.000000,-0.169947,-0.149066 LLEG_JOINT2:0.999474,0.027855,0.000000,0.016598 LLEG_JOINT4:0.996557,0.078800,0.000000,-0.025779 RARM_JOINT2:0.810138,0.000000,0.159939,0.564000 RARM_JOINT3:0.905040,0.000000,0.417094,0.083274 RLEG_JOINT2:0.999569,0.007330,0.000000,-0.028422 RLEG_JOINT4:0.993619,0.108840,0.000000,0.029587 WAIST:0.999892,0.000000,-0.012891,0.007046 WAIST_JOINT0:0.999846,0.000000,-0.002824,0.017334 WAIST_JOINT1:0.997110,0.075691,0.000000,-0.006542 END:
KINECT_DATA_Sensor  AnkleLeft:0.078674,0.735184,-0.071952,-0.669430 AnkleRight:0.091343,0.713489,0.072285,0.690916 ElbowLeft:-0.027361,0.890001,-0.186476,-0.415183 ElbowRight:-0.131532,0.838140,0.106229,0.518591 FootLeft:0.000000,0.000000,0.000000,0.000000 FootRight:0.000000,0.000000,0.000000,0.000000 HandLeft:-0.092092,0.863915,0.000121,0.495146 HandRight:-0.133818,0.361140,-0.457980,0.801202 HandTipLeft:0.000000,0.000000,0.000000,0.000000 HandTipRight:0.000000,0.000000,0.000000,0.000000 Head:0.000000,0.000000,0.000000,0.000000 HipLeft:0.119024,-0.672443,0.707684,-0.181209 HipRight:-0.107734,0.684069,0.700636,-0.171907 KneeLeft:0.002580,0.715674,-0.036512,-0.697474 KneeRight:-0.009591,0.698316,0.020496,0.715431 Neck:0.001655,0.002031,0.995790,-0.091628 ShoulderLeft:0.021912,0.768953,-0.635019,0.070582 ShoulderRight:0.024567,0.786806,0.613197,-0.065747 SpineBase:0.012205,0.001812,0.998587,-0.051687 SpineMid:0.007028,0.002080,0.998637,-0.051677 SpineShoulder:0.001736,0.002342,0.997499,-0.070623 ThumbLeft:0.000000,0.000000,0.000000,0.000000 ThumbRight:0.000000,0.000000,0.000000,0.000000 WristLeft:-0.079049,0.868256,-0.086381,0.482100 WristRight:-0.110947,0.378452,-0.394556,0.829934 END:
KINECT_DATA POSITION:28.532427,-4.000205,-5.817163 HEAD_JOINT1:0.977198,0.190755,-0.000000,0.093255 LARM_JOINT2:0.820617,0.000000,-0.016324,-0.571246 LARM_JOINT3:0.973704,0.000000,-0.171348,-0.150135 LLEG_JOINT2:0.999501,0.027473,0.000000,0.015593 LLEG_JOINT4:0.996540,0.079905,0.000000,-0.022877 RARM_JOINT2:0.799705,0.000000,0.270281,0.536115 RARM_JOINT3:0.932429,0.000000,0.359793,0.033540 RLEG_JOINT2:0.999547,0.008339,0.000000,-0.028912 RLEG_JOINT4:0.993014,0.113593,0.000000,0.031939 WAIST:0.999902,0.000000,-0.012081,0.007086 WAIST_JOINT0:0.999731,-0.000000,0.006190,0.022369 WAIST_JOINT1:0.997227,0.074204,0.000000,-0.005718 END:
KINECT_DATA_Sensor  AnkleLeft:-0.074305,-0.701850,0.077425,0.704195 AnkleRight:0.095001,0.696758,0.077113,0.706793 ElbowLeft:-0.027263,0.891141,-0.184807,-0.413486 ElbowRight:-0.203411,0.838810,0.047037,0.502801 FootLeft:0.000000,0.000000,0.000000,0.000000 FootRight:0.000000,0.000000,0.000000,0.000000 HandLeft:-0.099818,0.864191,-0.002550,0.493158 HandRight:-0.127820,0.383925,-0.452229,0.794829 HandTipLeft:0.000000,0.000000,0.000000,0.000000 HandTipRight:0.000000,0.000000,0.000000,0.000000 Head:0.000000,0.000000,0.000000,0.000000 HipLeft:0.119514,-0.672813,0.707645,-0.179660 HipRight:-0.109350,0.684310,0.700367,-0.171020 KneeLeft:0.003030,0.715135,-0.035557,-0.698075 KneeRight:-0.009204,0.698864,0.021511,0.714872 Neck:-0.007397,0.003562,0.995916,-0.089911 ShoulderLeft:0.018616,0.769233,-0.634973,0.068875 ShoulderRight:0.009415,0.791843,0.605740,-0.077293 SpineBase:0.011439,0.002201,0.998686,-0.049897 SpineMid:0.002135,0.002666,0.998750,-0.049875 SpineShoulder:-0.007326,0.003679,0.997573,-0.069143 ThumbLeft:0.000000,0.000000,0.000000,0.000000 ThumbRight:0.000000,0.000000,0.000000,0.000000 WristLeft:-0.081137,0.869254,-0.084427,0.480298 WristRight:-0.133572,0.383124,-0.423322,0.810045 END:
KINECT_DATA POSITION:28.570330,-4.056905,-5.763948 HEAD_JOINT1:0.977706,0.185708,-0.000000,0.098001 LARM_JOINT2:0.821376,0.000000,-0.018823,-0.570076 LARM_JOINT3:0.975259,0.000000,-0.164102,-0.148126 LLEG_JOINT2:0.999511,0.028104,0.000000,0.013679 LLEG_JOINT4:0.996490,0.080822,0.000000,-0.021810 RARM_JOINT2:0.798602,0.000000,0.405546,0.444710 RARM_JOINT3:0.964952,0.000000,0.249831,0.080320 RLEG_JOINT2:0.999487,0.009109,0.000000,-0.030720 RLEG_JOINT4:0.993553,0.109140,0.000000,0.030669 WAIST:0.999918,0.000000,-0.009852,0.008205 WAIST_JOINT0:0.999463,-0.000000,0.016587,0.028245 WAIST_JOINT1:0.997097,0.075713,0.000000,-0.008124 END:
KINECT_DATA_Sensor  AnkleLeft:0.078597,0.729333,-0.075306,-0.675444 AnkleRight:0.093237,0.721249,0.073185,0.682460 ElbowLeft:-0.026793,0.891742,-0.184700,-0.412267 ElbowRight:-0.307210,0.917562,0.074670,0.241095 FootLeft:0.000000,0.000000,0.000000,0.000000 FootRight:0.000000,0.000000,0.000000,0.000000 HandLeft:-0.072420,0.859713,-0.001645,0.505615 HandRight:-0.126557,0.390698,-0.450727,0.792581 HandTipLeft:0.000000,0.000000,0.000000,0.000000 HandTipRight:0.000000,0.000000,0.000000,0.000000 Head:0.000000,0.000000,0.000000,0.000000 HipLeft:0.118445,-0.672347,0.708524,-0.178644 HipRight:-0.110840,0.684663,0.699359,-0.172764 KneeLeft:0.004113,0.713500,-0.035442,-0.699747 KneeRight:-0.009185,0.700522,0.022519,0.713216 Neck:-0.017708,0.002145,0.995584,-0.092165 ShoulderLeft:0.021293,0.771571,-0.632438,0.065165 ShoulderRight:-0.001012,0.797822,0.596334,-0.088684 SpineBase:0.009114,0.002382,0.998703,-0.050027 SpineMid:-0.004075,0.003042,0.998737,-0.049991 SpineShoulder:-0.017598,0.003068,0.997357,-0.070425 ThumbLeft:0.000000,0.000000,0.000000,0.000000 ThumbRight:0.000000,0.000000,0.000000,0.000000 WristLeft:-0.079334,0.860949,-0.085038,0.495219 WristRight:-0.085989,0.418776,-0.383220,0.818764 END:
KINECT_DATA POSITION:28.592798,-4.117422,-5.687773 HEAD_JOINT1:0.978716,0.181692,-0.000000,0.095408 LARM_JOINT2:0.820224,0.000000,-0.020489,-0.571676 LARM_JOINT3:0.975122,0.000000,-0.166663,-0.146154 LLEG_JOINT2:0.999537,0.027897,0.000000,0.012117 LLEG_JOINT4:0.996776,0.077527,0.000000,-0.020666 RARM_JOINT2:0.784329,0.000000,0.458059,0.418342 RARM_JOINT3:0.978817,0.000000,0.191321,0.072896 RLEG_JOINT2:0.999414,0.011483,0.000000,-0.032235 RLEG_JOINT4:0.993835,0.105847,0.000000,0.032981 WAIST:0.999940,0.000000,-0.005426,0.009486 WAIST_JOINT0:0.999178,-0.000000,0.025353,0.031617 WAIST_JOINT1:0.997052,0.076439,0.000000,-0.006730 END:
KINECT_DATA_Sensor  AnkleLeft:0.076859,0.736690,-0.072027,-0.667977 AnkleRight:0.093790,0.726164,0.071168,0.677365 ElbowLeft:-0.026088,0.891454,-0.185220,-0.412701 ElbowRight:-0.340099,0.924805,0.067996,0.156349 FootLeft:0.000000,0.000000,0.000000,0.000000 FootRight:0.000000,0.000000,0.000000,0.000000 HandLeft:-0.079503,0.889057,-0.011115,0.450702 HandRight:-0.205820,0.494988,-0.401998,0.742309 HandTipLeft:0.000000,0.000000,0.000000,0.000000 HandTipRight:0.000000,0.000000,0.000000,0.000000 Head:0.000000,0.000000,0.000000,0.000000 HipLeft:0.115211,-0.672025,0.709678,-0.177385 HipRight:-0.112867,0.684728,0.697947,-0.176858 KneeLeft:0.004299,0.710303,-0.035056,-0.703009 KneeRight:-0.007778,0.703781,0.024295,0.709958 Neck:-0.025913,0.005825,0.995378,-0.092286 ShoulderLeft:0.025729,0.772615,-0.631497,0.060124 ShoulderRight:-0.007378,0.800081,0.592028,-0.096537 SpineBase:0.004560,0.002580,0.998656,-0.051559 SpineMid:-0.010546,0.003360,0.998611,-0.051514 SpineShoulder:-0.025899,0.005377,0.997112,-0.071188 ThumbLeft:0.000000,0.000000,0.000000,0.000000 ThumbRight:0.000000,0.000000,0.000000,0.000000 WristLeft:-0.083516,0.889355,-0.080035,0.442342 WristRight:-0.137785,0.528505,-0.361382,0.755712 END:
KINECT_DATA POSITION:28.583151,-4.176595,-5.597162 HEAD_JOINT1:0.979403,0.181750,-0.000000,0.087962 LARM_JOINT2:0.819177,0.000000,-0.021471,-0.573138 LARM_JOINT3:0.974268,0.000000,-0.169101,-0.149018 LLEG_JOINT2:0.999574,0.027146,0.000000,0.010679 LLEG_JOINT4:0.996771,0.077792,0.000000,-0.019902 RARM_JOINT2:0.775421,0.000000,0.487795,0.400972 RARM_JOINT3:0.986153,0.000000,0.150563,0.069519 RLEG_JOINT2:0.999370,0.010180,0.000000,-0.033993 RLEG_JOINT4:0.993494,0.108246,0.000000,0.035399 WAIST:0.999944,0.000000,-0.001654,0.010413 WAIST_JOINT0:0.998809,-0.000000,0.034586,0.034401 WAIST_JOINT1:0.997089,0.076113,0.000000,-0.004443 END:
KINECT_DATA_Sensor  AnkleLeft:-0.071434,-0.685985,0.076710,0.720026 AnkleRight:0.094888,0.723792,0.071725,0.679689 ElbowLeft:-0.025898,0.892062,-0.186223,-0.410944 ElbowRight:-0.356428,0.928881,0.083866,0.055731 FootLeft:0.000000,0.000000,0.000000,0.000000 FootRight:0.000000,0.000000,0.000000,0.000000 HandLeft:-0.093566,0.886052,-0.012797,0.453865 HandRight:-0.210470,0.475657,-0.415741,0.746065 HandTipLeft:0.000000,0.000000,0.000000,0.000000 HandTipRight:0.000000,0.000000,0.000000,0.000000 Head:0.000000,0.000000,0.000000,0.000000 HipLeft:0.112277,-0.671589,0.710973,-0.175727 HipRight:-0.115168,0.684632,0.697168,-0.178806 KneeLeft:0.004238,0.707642,-0.034123,-0.705734 KneeRight:-0.009406,0.706394,0.023911,0.707352 Neck:-0.035372,0.009513,0.995122,-0.091601 ShoulderLeft:0.026407,0.770645,-0.634178,0.056810 ShoulderRight:-0.019334,0.801392,0.588108,-0.107359 SpineBase:0.000786,0.004243,0.998639,-0.051967 SpineMid:-0.017157,0.005176,0.998492,-0.051882 SpineShoulder:-0.035354,0.008605,0.996829,-0.070762 ThumbLeft:0.000000,0.000000,0.000000,0.000000 ThumbRight:0.000000,0.000000,0.000000,0.000000 WristLeft:-0.082650,0.888419,-0.080122,0.444367 WristRight:-0.135729,0.516391,-0.342567,0.773024 END:
KINECT_DATA POSITION:28.469212,-4.231372,-5.515587 HEAD_JOINT1:0.979240,0.187472,-0.000000,0.077093 LARM_JOINT2:0.818566,0.000000,-0.021712,-0.574002 LARM_JOINT3:0.973893,0.000000,-0.167175,-0.153574 LLEG_JOINT2:0.999574,0.027228,0.000000,0.010493 LLEG_JOINT4:0.996651,0.080046,0.000000,-0.016694 RARM_JOINT2:0.766152,0.000000,0.502254,0.400939 RARM_JOINT3:0.990792,0.000000,0.124750,0.052626 RLEG_JOINT2:0.999355,0.014014,0.000000,-0.033055 RLEG_JOINT4:0.993781,0.105831,0.000000,0.034620 WAIST:0.999942,-0.000000,0.001883,0.010618 WAIST_JOINT0:0.998804,-0.000000,0.034942,0.034199 WAIST_JOINT1:0.997150,0.075401,0.000000,-0.002698 END:
KINECT_DATA_Sensor  AnkleLeft:0.077138,0.738611,-0.074437,-0.665554 AnkleRight:0.095688,0.724493,0.072968,0.678697 ElbowLeft:-0.025899,0.891619,-0.186797,-0.411644 ElbowRight:-0.365336,0.926622,0.060497,0.065126 FootLeft:0.000000,0.000000,0.000000,0.000000 FootRight:0.000000,0.000000,0.000000,0.000000 HandLeft:-0.096350,0.876603,0.000000,0.471470 HandRight:-0.217367,0.485397,-0.393845,0.749685 HandTipLeft:0.000000,0.000000,0.000000,0.000000 HandTipRight:0.000000,0.000000,0.000000,0.000000 Head:0.000000,0.000000,0.000000,0.000000 HipLeft:0.109361,-0.671878,0.711688,-0.173553 HipRight:-0.118118,0.684645,0.696632,-0.178924 KneeLeft:-0.004383,-0.705248,0.034153,0.708124 KneeRight:-0.006004,0.708784,0.025756,0.704930 Neck:-0.036002,0.010326,0.995123,-0.091257 ShoulderLeft:0.025761,0.767603,-0.637885,0.056781 ShoulderRight:-0.020995,0.799186,0.590927,-0.108013 SpineBase:-0.002582,0.007405,0.998661,-0.051140 SpineMid:-0.019048,0.008248,0.998482,-0.051011 SpineShoulder:-0.035874,0.010232,0.996858,-0.069874 ThumbLeft:0.000000,0.000000,0.000000,0.000000 ThumbRight:0.000000,0.000000,0.000000,0.000000 WristLeft:-0.080218,0.880940,-0.082251,0.459069 WristRight:-0.153528,0.517283,-0.344890,0.768049 END:
KINECT_DATA POSITION:28.435341,-4.252746,-5.514431 HEAD_JOINT1:0.978922,0.191640,-0.000000,0.070617 LARM_JOINT2:0.818090,0.000000,-0.021457,-0.574690 LARM_JOINT3:0.974379,0.000000,-0.162765,-0.155219 LLEG_JOINT2:0.999566,0.027154,0.000000,0.011398 LLEG_JOINT4:0.996755,0.078575,0.000000,-0.017456 RARM_JOINT2:0.758500,0.000000,0.422414,0.496230 RARM_JOINT3:0.975840,0.000000,0.213076,-0.048321 RLEG_JOINT2:0.999364,0.014631,0.000000,-0.032528 RLEG_JOINT4:0.993707,0.105767,0.000000,0.036874 WAIST:0.999942,-0.000000,0.003482,0.010200 WAIST_JOINT0:0.998583,-0.000000,0.039251,0.035942 WAIST_JOINT1:0.997178,0.075071,0.000000,-0.000401 END:
KINECT_DATA_Sensor  AnkleLeft:0.075407,0.729761,-0.073970,-0.675493 AnkleRight:0.095279,0.703870,0.074791,0.699925 ElbowLeft:-0.025088,0.893077,-0.187875,-0.408029 ElbowRight:-0.264865,0.804397,-0.091388,0.523871 FootLeft:0.000000,0.000000,0.000000,0.000000 FootRight:0.000000,0.000000,0.000000,0.000000 HandLeft:-0.083951,0.875600,0.004087,0.475667 HandRight:-0.203138,0.494125,-0.386342,0.751875 HandTipLeft:0.000000,0.000000,0.000000,0.000000 HandTipRight:0.000000,0.000000,0.000000,0.000000 Head:0.000000,0.000000,0.000000,0.000000 HipLeft:0.107933,-0.672405,0.711628,-0.172647 HipRight:-0.119576,0.684465,0.696625,-0.178668 KneeLeft:-0.004035,-0.704212,0.034428,0.709143 KneeRight:-0.005548,0.709794,0.026095,0.703904 Neck:-0.040651,0.012398,0.994948,-0.090956 ShoulderLeft:0.025061,0.765705,-0.640266,0.055922 ShoulderRight:-0.028073,0.799658,0.588904,-0.113798 SpineBase:-0.004036,0.009193,0.998666,-0.050653 SpineMid:-0.022054,0.010105,0.998430,-0.050479 SpineShoulder:-0.040502,0.012182,0.996691,-0.069412 ThumbLeft:0.000000,0.000000,0.000000,0.000000 ThumbRight:0.000000,0.000000,0.000000,0.000000 WristLeft:-0.078841,0.878541,-0.081535,0.464006 WristRight:-0.218366,0.485531,-0.411360,0.739837 END:
KINECT_DATA POSITION:28.403355,-4.275292,-5.506229 HEAD_JOINT1:0.978675,0.194135,-0.000000,0.067132 LARM_JOINT2:0.818092,0.000000,-0.021827,-0.574673 LARM_JOINT3:0.973945,0.000000,-0.163445,-0.157218 LLEG_JOINT2:0.999567,0.027012,0.000000,0.011701 LLEG_JOINT4:0.996713,0.079357,0.000000,-0.016280 RARM_JOINT2:0.766205,0.000000,0.516744,0.381977 RARM_JOINT3:0.991086,0.000000,0.117053,0.063615 RLEG_JOINT2:0.999351,0.016844,0.000000,-0.031832 RLEG_JOINT4:0.993996,0.103597,0.000000,0.035217 WAIST:0.999933,-0.000000,0.005333,0.010259 WAIST_JOINT0:0.998499,-0.000000,0.040635,0.036734 WAIST_JOINT1:0.997211,0.074633,-0.000000,0.000805 END:
KINECT_DATA_Sensor  AnkleLeft:0.075229,0.730745,-0.075128,-0.674321 AnkleRight:0.096946,0.727923,0.072461,0.674892 ElbowLeft:-0.024787,0.894641,-0.188900,-0.404129 ElbowRight:-0.375435,0.921548,0.094331,-0.029998 FootLeft:0.000000,0.000000,0.000000,0.000000 FootRight:0.000000,0.000000,0.000000,0.000000 HandLeft:-0.088783,0.875344,0.001245,0.475277 HandRight:-0.220092,0.468325,-0.421440,0.744728 HandTipLeft:0.000000,0.000000,0.000000,0.000000 HandTipRight:0.000000,0.000000,0.000000,0.000000 Head:0.000000,0.000000,0.000000,0.000000 HipLeft:0.106490,-0.672725,0.711831,-0.171456 HipRight:-0.120945,0.684543,0.696270,-0.178830 KneeLeft:-0.003733,-0.702944,0.034564,0.710395 KneeRight:-0.003518,0.711077,0.027112,0.702582 Neck:-0.042380,0.013500,0.994902,-0.090505 ShoulderLeft:0.024724,0.764128,-0.642196,0.055508 ShoulderRight:-0.030848,0.799630,0.588429,-0.115726 SpineBase:-0.005817,0.010469,0.998665,-0.050240 SpineMid:-0.023783,0.011371,0.998399,-0.050043 SpineShoulder:-0.042211,0.013285,0.996639,-0.068934 ThumbLeft:0.000000,0.000000,0.000000,0.000000 ThumbRight:0.000000,0.000000,0.000000,0.000000 WristLeft:-0.078942,0.878755,-0.080431,0.463777 WristRight:-0.140798,0.512393,-0.341390,0.775294 END:
KINECT_DATA POSITION:28.353523,-4.288298,-5.505180 HEAD_JOINT1:0.978436,0.195622,-0.000000,0.066293 LARM_JOINT2:0.818133,0.000000,-0.020587,-0.574660 LARM_JOINT3:0.973746,0.000000,-0.164562,-0.157282 LLEG_JOINT2:0.999592,0.026173,0.000000,0.011455 LLEG_JOINT4:0.996693,0.079861,0.000000,-0.015030 RARM_JOINT2:0.761444,0.000000,0.526748,0.377810 RARM_JOINT3:0.992513,0.000000,0.101697,0.067637 RLEG_JOINT2:0.999336,0.016322,0.000000,-0.032575 RLEG_JOINT4:0.994053,0.102646,0.000000,0.036376 WAIST:0.999928,-0.000000,0.005629,0.010573 WAIST_JOINT0:0.998742,-0.000000,0.035915,0.034988 WAIST_JOINT1:0.997237,0.074287,-0.000000,0.000414 END:
KINECT_DATA_Sensor  AnkleLeft:0.075108,0.739348,-0.074885,-0.664918 AnkleRight:0.096156,0.726337,0.071217,0.676843 ElbowLeft:-0.024685,0.893210,-0.189110,-0.407189 ElbowRight:-0.379780,0.917293,0.101025,-0.064292 FootLeft:0.000000,0.000000,0.000000,0.000000 FootRight:0.000000,0.000000,0.000000,0.000000 HandLeft:-0.089830,0.880018,0.002349,0.466363 HandRight:-0.211147,0.444361,-0.410080,0.767981 HandTipLeft:0.000000,0.000000,0.000000,0.000000 HandTipRight:0.000000,0.000000,0.000000,0.000000 Head:0.000000,0.000000,0.000000,0.000000 HipLeft:0.106350,-0.672572,0.712146,-0.170835 HipRight:-0.121313,0.684716,0.696095,-0.178602 KneeLeft:-0.003094,-0.702735,0.034018,0.710631 KneeRight:-0.004201,0.711284,0.027039,0.702372 Neck:-0.037656,0.012894,0.995126,-0.090220 ShoulderLeft:0.025755,0.763452,-0.642936,0.055772 ShoulderRight:-0.023486,0.797833,0.592455,-0.109126 SpineBase:-0.006127,0.010700,0.998682,-0.049832 SpineMid:-0.021586,0.011470,0.998467,-0.049660 SpineShoulder:-0.037471,0.012839,0.996854,-0.068657 ThumbLeft:0.000000,0.000000,0.000000,0.000000 ThumbRight:0.000000,0.000000,0.000000,0.000000 WristLeft:-0.080141,0.883396,-0.080443,0.454663 WristRight:-0.126789,0.487096,-0.345669,0.791944 END:
KINECT_DATA POSITION:28.336090,-4.297060,-5.500293 HEAD_JOINT1:0.978176,0.196837,-0.000000,0.066530 LARM_JOINT2:0.817837,0.000000,-0.019810,-0.575109 LARM_JOINT3:0.974007,0.000000,-0.164453,-0.155776 LLEG_JOINT2:0.999590,0.026097,0.000000,0.011740 LLEG_JOINT4:0.996805,0.078549,0.000000,-0.014471 RARM_JOINT2:0.766176,0.000000,0.513120,0.386888 RARM_JOINT3:0.991469,0.000000,0.114289,0.062669 RLEG_JOINT2:0.999343,0.016603,0.000000,-0.032206 RLEG_JOINT4:0.994081,0.102233,0.000000,0.036760 WAIST:0.999927,-0.000000,0.006090,0.010468 WAIST_JOINT0:0.998401,-0.000000,0.042945,0.036752 WAIST_JOINT1:0.997250,0.074114,-0.000000,0.000476 END:
KINECT_DATA_Sensor  AnkleLeft:-0.067248,-0.682082,0.080283,0.723738 AnkleRight:0.095975,0.721959,0.071366,0.681521 ElbowLeft:-0.024413,0.892023,-0.188763,-0.409960 ElbowRight:-0.375071,0.923596,0.079136,0.005451 FootLeft:0.000000,0.000000,0.000000,0.000000 FootRight:0.000000,0.000000,0.000000,0.000000 HandLeft:-0.086348,0.883715,0.000673,0.459991 HandRight:-0.186273,0.409791,-0.414462,0.790945 HandTipLeft:0.000000,0.000000,0.000000,0.000000 HandTipRight:0.000000,0.000000,0.000000,0.000000 Head:0.000000,0.000000,0.000000,0.000000 HipLeft:0.106026,-0.672756,0.712135,-0.170356 HipRight:-0.121580,0.684639,0.696121,-0.178614 KneeLeft:-0.002926,-0.702418,0.034089,0.710942 KneeRight:-0.003832,0.711605,0.027049,0.702048 Neck:-0.044977,0.013429,0.994841,-0.089931 ShoulderLeft:0.024775,0.763419,-0.643134,0.054381 ShoulderRight:-0.034295,0.799328,0.588118,-0.118391 SpineBase:-0.006574,0.010719,0.998687,-0.049662 SpineMid:-0.025437,0.011655,0.998385,-0.049450 SpineShoulder:-0.044813,0.013232,0.996563,-0.068406 ThumbLeft:0.000000,0.000000,0.000000,0.000000 ThumbRight:0.000000,0.000000,0.000000,0.000000 WristLeft:-0.080713,0.886245,-0.080376,0.448992 WristRight:-0.115005,0.446460,-0.357711,0.812090 END:
KINECT_DATA POSITION:28.327110,-4.309178,-5.477178 HEAD_JOINT1:0.977781,0.198959,-0.000000,0.066029 LARM_JOINT2:0.817646,0.000000,-0.019506,-0.575390 LARM_JOINT3:0.974286,0.000000,-0.164594,-0.153868 LLEG_JOINT2:0.999594,0.025971,0.000000,0.011694 LLEG_JOINT4:0.996736,0.079435,0.000000,-0.014394 RARM_JOINT2:0.767970,0.000000,0.518917,0.375429 RARM_JOINT3:0.991138,0.000000,0.110574,0.073620 RLEG_JOINT2:0.999333,0.017105,0.000000,-0.032270 RLEG_JOINT4:0.994247,0.100954,0.000000,0.035808 WAIST:0.999920,-0.000000,0.007023,0.010535 WAIST_JOINT0:0.998206,-0.000000,0.046380,0.037859 WAIST_JOINT1:0.997261,0.073962,-0.000000,0.000782 END:
KINECT_DATA_Sensor  AnkleLeft:0.075063,0.746315,-0.074107,-0.657182 AnkleRight:0.095862,0.733959,0.070005,0.668740 ElbowLeft:-0.024061,0.891825,-0.188880,-0.410358 ElbowRight:-0.375845,0.916876,0.113561,-0.071985 FootLeft:0.000000,0.000000,0.000000,0.000000 FootRight:0.000000,0.000000,0.000000,0.000000 HandLeft:-0.086017,0.879878,-0.006941,0.467298 HandRight:-0.221068,0.455311,-0.419212,0.753712 HandTipLeft:0.000000,0.000000,0.000000,0.000000 HandTipRight:0.000000,0.000000,0.000000,0.000000 Head:0.000000,0.000000,0.000000,0.000000 HipLeft:0.105470,-0.672814,0.712319,-0.169700 HipRight:-0.122289,0.684555,0.696004,-0.178908 KneeLeft:-0.002847,-0.701762,0.034005,0.711594 KneeRight:-0.003509,0.712260,0.027393,0.701372 Neck:-0.048546,0.014009,0.994682,-0.089752 ShoulderLeft:0.024308,0.763067,-0.643629,0.053667 ShoulderRight:-0.039615,0.799920,0.586066,-0.122824 SpineBase:-0.007496,0.010980,0.998687,-0.049472 SpineMid:-0.027667,0.011977,0.998332,-0.049240 SpineShoulder:-0.048390,0.013698,0.996403,-0.068203 ThumbLeft:0.000000,0.000000,0.000000,0.000000 ThumbRight:0.000000,0.000000,0.000000,0.000000 WristLeft:-0.078964,0.882110,-0.081256,0.457213 WristRight:-0.129622,0.503918,-0.337711,0.784357 END:
KINECT_DATA POSITION:28.329304,-4.319682,-5.435359 HEAD_JOINT1:0.977074,0.190067,-0.000000,0.095926 LARM_JOINT2:0.822352,0.000000,-0.023702,-0.568484 LARM_JOINT3:0.973967,0.000000,-0.166914,-0.153391 LLEG_JOINT2:0.999611,0.025425,0.000000,0.011440 LLEG_JOINT4:0.996684,0.080203,0.000000,-0.013759 RARM_JOINT2:0.758925,0.000000,0.534727,0.371619 RARM_JOINT3:0.990705,0.000000,0.113196,0.075436 RLEG_JOINT2:0.999319,0.018005,0.000000,-0.032202 RLEG_JOINT4:0.994175,0.101010,0.000000,0.037593 WAIST:0.999910,-0.000000,0.008020,0.010785 WAIST_JOINT0:0.998520,-0.000000,0.040082,0.036760 WAIST_JOINT1:0.996944,0.077757,0.000000,-0.007514 END:
KINECT_DATA_Sensor  AnkleLeft:-0.067884,-0.683547,0.081071,0.722207 AnkleRight:0.096568,0.721594,0.071066,0.681855 ElbowLeft:-0.023998,0.891659,-0.189002,-0.410666 ElbowRight:-0.380775,0.912523,0.114208,-0.096276 FootLeft:0.000000,0.000000,0.000000,0.000000 FootRight:0.000000,0.000000,0.000000,0.000000 HandLeft:-0.092607,0.880465,-0.005832,0.464942 HandRight:-0.163876,0.407153,-0.453535,0.775679 HandTipLeft:0.000000,0.000000,0.000000,0.000000 HandTipRight:0.000000,0.000000,0.000000,0.000000 Head:0.000000,0.000000,0.000000,0.000000 HipLeft:0.104526,-0.672662,0.712641,-0.169537 HipRight:-0.120509,0.683874,0.696166,-0.182059 KneeLeft:-0.002478,-0.700904,0.033609,0.712459 KneeRight:-0.002680,0.713172,0.027799,0.700433 Neck:-0.040970,0.004282,0.994711,-0.094092 ShoulderLeft:0.034379,0.769987,-0.635061,0.051345 ShoulderRight:-0.017922,0.801173,0.587931,-0.110173 SpineBase:-0.008735,0.007124,0.998600,-0.051677 SpineMid:-0.024454,0.007937,0.998339,-0.051559 SpineShoulder:-0.040848,0.005379,0.996537,-0.072222 ThumbLeft:0.000000,0.000000,0.000000,0.000000 ThumbRight:0.000000,0.000000,0.000000,0.000000 WristLeft:-0.078733,0.883766,-0.081212,0.454051 WristRight:-0.102883,0.448721,-0.348433,0.816492 END:
KINECT_DATA POSITION:28.327789,-4.324045,-5.382800 HEAD_JOINT1:0.977493,0.189548,-0.000000,0.092622 LARM_JOINT2:0.820537,0.000000,-0.023204,-0.571122 LARM_JOINT3:0.973941,0.000000,-0.165540,-0.155032 LLEG_JOINT2:0.999618,0.025244,0.000000,0.011281 LLEG_JOINT4:0.996608,0.080937,0.000000,-0.014866 RARM_JOINT2:0.745353,0.000000,0.462472,0.480176 RARM_JOINT3:0.981408,0.000000,0.186004,-0.047346 RLEG_JOINT2:0.999294,0.019079,0.000000,-0.032379 RLEG_JOINT4:0.994252,0.100662,0.000000,0.036475 WAIST:0.999892,-0.000000,0.009619,0.011109 WAIST_JOINT0:0.998517,-0.000000,0.040013,0.036906 WAIST_JOINT1:0.997043,0.076697,0.000000,-0.004731 END:
KINECT_DATA_Sensor  AnkleLeft:-0.069175,-0.683350,0.080578,0.722326 AnkleRight:0.097112,0.730539,0.071280,0.672162 ElbowLeft:-0.023953,0.891362,-0.188790,-0.411411 ElbowRight:-0.278351,0.799293,-0.124494,0.517835 FootLeft:0.000000,0.000000,0.000000,0.000000 FootRight:0.000000,0.000000,0.000000,0.000000 HandLeft:-0.090833,0.882802,-0.000534,0.460878 HandRight:-0.149229,0.453263,-0.412871,0.775771 HandTipLeft:0.000000,0.000000,0.000000,0.000000 HandTipRight:0.000000,0.000000,0.000000,0.000000 Head:0.000000,0.000000,0.000000,0.000000 HipLeft:0.103525,-0.672591,0.713044,-0.168737 HipRight:-0.120693,0.683564,0.695961,-0.183880 KneeLeft:-0.002269,-0.699692,0.033581,0.713652 KneeRight:-0.001878,0.714388,0.028445,0.699169 Neck:-0.040498,0.009194,0.994872,-0.092223 ShoulderLeft:0.035239,0.770236,-0.634859,0.049489 ShoulderRight:-0.016826,0.801400,0.587998,-0.108323 SpineBase:-0.010439,0.005807,0.998555,-0.052389 SpineMid:-0.025329,0.006587,0.998289,-0.052297 SpineShoulder:-0.040586,0.007510,0.996597,-0.071352 ThumbLeft:0.000000,0.000000,0.000000,0.000000 ThumbRight:0.000000,0.000000,0.000000,0.000000 WristLeft:-0.079453,0.886084,-0.080814,0.449458 WristRight:-0.186220,0.433210,-0.429995,0.769906 END:
KINECT_DATA POSITION:28.365711,-4.343529,-5.351889 HEAD_JOINT1:0.977955,0.192823,-0.000000,0.080147 LARM_JOINT2:0.818653,0.000000,-0.020242,-0.573932 LARM_JOINT3:0.975061,0.000000,-0.161390,-0.152344 LLEG_JOINT2:0.999613,0.025694,0.000000,0.010650 LLEG_JOINT4:0.996649,0.080694,0.000000,-0.013404 RARM_JOINT2:0.759166,0.000000,0.442652,0.477206 RARM_JOINT3:0.978821,0.000000,0.202847,-0.027615 RLEG_JOINT2:0.999192,0.021343,0.000000,-0.034048 RLEG_JOINT4:0.994394,0.098614,0.000000,0.038164 WAIST:0.999843,-0.000000,0.013177,0.011872 WAIST_JOINT0:0.997713,-0.000000,0.054604,0.039839 WAIST_JOINT1:0.997182,0.075008,0.000000,-0.000950 END:
KINECT_DATA_Sensor  AnkleLeft:-0.067824,-0.675259,0.082079,0.729855 AnkleRight:0.095876,0.717519,0.073352,0.685998 ElbowLeft:-0.022023,0.891576,-0.190485,-0.410273 ElbowRight:-0.284772,0.822122,-0.094605,0.483809 FootLeft:0.000000,0.000000,0.000000,0.000000 FootRight:0.000000,0.000000,0.000000,0.000000 HandLeft:-0.073179,0.863667,-0.017794,0.498405 HandRight:-0.140801,0.458231,-0.395520,0.783431 HandTipLeft:0.000000,0.000000,0.000000,0.000000 HandTipRight:0.000000,0.000000,0.000000,0.000000 Head:0.000000,0.000000,0.000000,0.000000 HipLeft:0.101676,-0.672599,0.713723,-0.166952 HipRight:-0.124114,0.683702,0.694760,-0.185620 KneeLeft:-0.002586,-0.697163,0.033946,0.716104 KneeRight:-0.001081,0.716862,0.030655,0.696540 Neck:-0.055516,0.014018,0.994252,-0.090472 ShoulderLeft:0.032569,0.767759,-0.638288,0.045540 ShoulderRight:-0.039830,0.802741,0.581401,-0.126463 SpineBase:-0.013963,0.007510,0.998534,-0.051763 SpineMid:-0.034557,0.008576,0.998033,-0.051597 SpineShoulder:-0.055492,0.012686,0.995967,-0.069355 ThumbLeft:0.000000,0.000000,0.000000,0.000000 ThumbRight:0.000000,0.000000,0.000000,0.000000 WristLeft:-0.072895,0.864442,-0.083676,0.490331 WristRight:-0.176969,0.438173,-0.435647,0.766093 END:
KINECT_DATA POSITION:28.454229,-4.362083,-5.357373 HEAD_JOINT1:0.978134,0.190400,-0.000000,0.083674 LARM_JOINT2:0.819550,0.000000,-0.020109,-0.572655 LARM_JOINT3:0.975020,0.000000,-0.162616,-0.151305 LLEG_JOINT2:0.999658,0.024720,0.000000,0.008532 LLEG_JOINT4:0.996446,0.083058,0.000000,-0.014016 RARM_JOINT2:0.763463,0.000000,0.441206,0.471658 RARM_JOINT3:0.978037,0.000000,0.207716,-0.017227 RLEG_JOINT2:0.999088,0.022261,0.000000,-0.036431 RLEG_JOINT4:0.994578,0.096023,0.000000,0.039921 WAIST:0.999778,-0.000000,0.016761,0.012775 WAIST_JOINT0:0.997373,-0.000000,0.059742,0.040961 WAIST_JOINT1:0.997095,0.076148,0.000000,-0.001748 END:
KINECT_DATA_Sensor  AnkleLeft:0.075382,0.717649,-0.076874,-0.688032 AnkleRight:0.095968,0.733147,0.070423,0.669571 ElbowLeft:-0.020872,0.890005,-0.192515,-0.412787 ElbowRight:-0.291250,0.838577,-0.080602,0.453283 FootLeft:0.000000,0.000000,0.000000,0.000000 FootRight:0.000000,0.000000,0.000000,0.000000 HandLeft:-0.070474,0.887993,-0.022669,0.453859 HandRight:-0.137208,0.457499,-0.396391,0.784055 HandTipLeft:0.000000,0.000000,0.000000,0.000000 HandTipRight:0.000000,0.000000,0.000000,0.000000 Head:0.000000,0.000000,0.000000,0.000000 HipLeft:0.099343,-0.672381,0.714671,-0.165165 HipRight:-0.126313,0.683611,0.693788,-0.188093 KneeLeft:-0.002807,-0.694554,0.032346,0.718708 KneeRight:-0.001654,0.719407,0.032300,0.693835 Neck:-0.060451,0.014207,0.993829,-0.091914 ShoulderLeft:0.036009,0.768252,-0.637710,0.042644 ShoulderRight:-0.042744,0.803116,0.579614,-0.131245 SpineBase:-0.017613,0.007892,0.998456,-0.052083 SpineMid:-0.038836,0.008998,0.997856,-0.051904 SpineShoulder:-0.060470,0.012573,0.995608,-0.070352 ThumbLeft:0.000000,0.000000,0.000000,0.000000 ThumbRight:0.000000,0.000000,0.000000,0.000000 WristLeft:-0.076057,0.887372,-0.080822,0.447497 WristRight:-0.164800,0.441383,-0.436461,0.766501 END:
KINECT_DATA POSITION:28.494978,-4.352665,-5.386174 HEAD_JOINT1:0.977156,0.184153,-0.000000,0.106083 LARM_JOINT2:0.823318,0.000000,-0.022474,-0.567135 LARM_JOINT3:0.973242,0.000000,-0.172148,-0.152199 LLEG_JOINT2:0.999641,0.025157,0.000000,0.009268 LLEG_JOINT4:0.996433,0.083217,0.000000,-0.013993 RARM_JOINT2:0.784781,0.000000,0.377157,0.491805 RARM_JOINT3:0.948279,0.000000,0.316571,-0.023437 RLEG_JOINT2:0.999103,0.022160,0.000000,-0.036076 RLEG_JOINT4:0.994647,0.095468,0.000000,0.039544 WAIST:0.999796,-0.000000,0.016008,0.012351 WAIST_JOINT0:0.997623,-0.000000,0.055571,0.040753 WAIST_JOINT1:0.996883,0.078469,0.000000,-0.008189 END:
KINECT_DATA_Sensor  AnkleLeft:-0.070602,-0.674101,0.082120,0.730657 AnkleRight:0.095570,0.735723,0.069797,0.666863 ElbowLeft:-0.021384,0.889377,-0.192220,-0.414249 ElbowRight:-0.266214,0.836064,-0.027498,0.478927 FootLeft:0.000000,0.000000,0.000000,0.000000 FootRight:0.000000,0.000000,0.000000,0.000000 HandLeft:-0.104821,0.881122,-0.027661,0.460295 HandRight:-0.151463,0.440278,-0.445744,0.764543 HandTipLeft:0.000000,0.000000,0.000000,0.000000 HandTipRight:0.000000,0.000000,0.000000,0.000000 Head:0.000000,0.000000,0.000000,0.000000 HipLeft:0.099563,-0.672471,0.714627,-0.164858 HipRight:-0.123980,0.683020,0.694745,-0.188260 KneeLeft:-0.002887,-0.694998,0.032888,0.718254 KneeRight:-0.001732,0.718984,0.032289,0.694274 Neck:-0.055892,0.005763,0.993911,-0.094781 ShoulderLeft:0.043430,0.773376,-0.631187,0.040078 ShoulderRight:-0.027853,0.805006,0.579814,-0.122499 SpineBase:-0.016986,0.004930,0.998446,-0.052842 SpineMid:-0.036153,0.005944,0.997936,-0.052738 SpineShoulder:-0.055874,0.005982,0.995764,-0.072774 ThumbLeft:0.000000,0.000000,0.000000,0.000000 ThumbRight:0.000000,0.000000,0.000000,0.000000 WristLeft:-0.075793,0.885226,-0.081939,0.451571 WristRight:-0.162595,0.430657,-0.481441,0.745863 END:
KINECT_DATA POSITION:28.466064,-4.313241,-5.433416 HEAD_JOINT1:0.976925,0.190436,-0.000000,0.096705 LARM_JOINT2:0.821770,0.000000,-0.019798,-0.569475 LARM_JOINT3:0.972396,0.000000,-0.175260,-0.154047 LLEG_JOINT2:0.999618,0.025316,0.000000,0.011087 LLEG_JOINT4:0.996648,0.080507,0.000000,-0.014536 RARM_JOINT2:0.795714,0.000000,0.356475,0.489658 RARM_JOINT3:0.939830,0.000000,0.341423,-0.012241 RLEG_JOINT2:0.999227,0.020047,0.000000,-0.033822 RLEG_JOINT4:0.994446,0.097099,0.000000,0.040609 WAIST:0.999868,-0.000000,0.012194,0.010750 WAIST_JOINT0:0.998278,-0.000000,0.044635,0.038056 WAIST_JOINT1:0.997093,0.076026,0.000000,-0.005036 END:
KINECT_DATA_Sensor  AnkleLeft:-0.069170,-0.680669,0.080061,0.724911 AnkleRight:0.095401,0.720100,0.069762,0.683731 ElbowLeft:-0.022345,0.889576,-0.191024,-0.414325 ElbowRight:-0.265278,0.832100,-0.007877,0.487007 FootLeft:0.000000,0.000000,0.000000,0.000000 FootRight:0.000000,0.000000,0.000000,0.000000 HandLeft:-0.122282,0.885747,-0.020785,0.447288 HandRight:-0.165385,0.473905,-0.426546,0.752410 HandTipLeft:0.000000,0.000000,0.000000,0.000000 HandTipRight:0.000000,0.000000,0.000000,0.000000 Head:0.000000,0.000000,0.000000,0.000000 HipLeft:0.101450,-0.673127,0.713465,-0.166063 HipRight:-0.121686,0.682900,0.696353,-0.184208 KneeLeft:-0.002777,-0.697873,0.033213,0.715446 KneeRight:-0.002578,0.716171,0.030374,0.697259 Neck:-0.045585,0.007054,0.994673,-0.092179 ShoulderLeft:0.038684,0.770951,-0.634177,0.044250 ShoulderRight:-0.019503,0.803329,0.584825,-0.110733 SpineBase:-0.012975,0.005512,0.998552,-0.051907 SpineMid:-0.029047,0.006347,0.998214,-0.051812 SpineShoulder:-0.045511,0.007293,0.996449,-0.070460 ThumbLeft:0.000000,0.000000,0.000000,0.000000 ThumbRight:0.000000,0.000000,0.000000,0.000000 WristLeft:-0.077887,0.892724,-0.080830,0.436399 WristRight:-0.188592,0.455497,-0.490330,0.718702 END:
KINECT_DATA POSITION:28.452206,-4.297699,-5.465543 HEAD_JOINT1:0.976812,0.188107,-0.000000,0.102247 LARM_JOINT2:0.822283,0.000000,-0.022130,-0.568649 LARM_JOINT3:0.972631,0.000000,-0.176869,-0.150684 LLEG_JOINT2:0.999616,0.025279,0.000000,0.011345 LLEG_JOINT4:0.996546,0.081862,0.000000,-0.013970 RARM_JOINT2:0.786697,0.000000,0.480867,0.387137 RARM_JOINT3:0.978395,0.000000,0.191381,0.078213 RLEG_JOINT2:0.999257,0.020553,0.000000,-0.032596 RLEG_JOINT4:0.994678,0.096211,0.000000,0.036859 WAIST:0.999901,-0.000000,0.009303,0.010599 WAIST_JOINT0:0.998374,-0.000000,0.042264,0.038249 WAIST_JOINT1:0.997062,0.076307,0.000000,-0.006634 END:
KINECT_DATA_Sensor  AnkleLeft:-0.069346,-0.682110,0.081743,0.723350 AnkleRight:0.093652,0.720040,0.070918,0.683917 ElbowLeft:-0.025196,0.888574,-0.189364,-0.417063 ElbowRight:-0.366537,0.921554,0.078775,0.100908 FootLeft:0.000000,0.000000,0.000000,0.000000 FootRight:0.000000,0.000000,0.000000,0.000000 HandLeft:-0.118746,0.881512,-0.026574,0.456212 HandRight:-0.142873,0.392912,-0.455013,0.786239 HandTipLeft:0.000000,0.000000,0.000000,0.000000 HandTipRight:0.000000,0.000000,0.000000,0.000000 Head:0.000000,0.000000,0.000000,0.000000 HipLeft:0.103070,-0.673118,0.713009,-0.167052 HipRight:-0.119569,0.683488,0.696708,-0.182062 KneeLeft:-0.002601,-0.699931,0.033295,0.713429 KneeRight:-0.001345,0.714170,0.030011,0.699327 Neck:-0.043202,0.005503,0.994755,-0.092554 ShoulderLeft:0.037895,0.771746,-0.633150,0.045754 ShoulderRight:-0.017052,0.804014,0.584379,-0.108495 SpineBase:-0.010096,0.005113,0.998604,-0.051585 SpineMid:-0.026385,0.005954,0.998307,-0.051494 SpineShoulder:-0.043146,0.005833,0.996542,-0.070771 ThumbLeft:0.000000,0.000000,0.000000,0.000000 ThumbRight:0.000000,0.000000,0.000000,0.000000 WristLeft:-0.081027,0.887361,-0.083311,0.446188 WristRight:-0.083777,0.430128,-0.388214,0.810717 END:
KINECT_DATA POSITION:28.486687,-4.311459,-5.459106 HEAD_JOINT1:0.977134,0.184025,-0.000000,0.106505 LARM_JOINT2:0.822323,0.000000,-0.023140,-0.568551 LARM_JOINT3:0.974823,0.000000,-0.164307,-0.150744 LLEG_JOINT2:0.999620,0.025339,0.000000,0.010890 LLEG_JOINT4:0.996529,0.081861,0.000000,-0.015107 RARM_JOINT2:0.773927,0.000000,0.508325,0.377681 RARM_JOINT3:0.985784,0.000000,0.140686,0.091858 RLEG_JOINT2:0.999238,0.020146,0.000000,-0.033426 RLEG_JOINT4:0.994647,0.095603,0.000000,0.039198 WAIST:0.999894,-0.000000,0.009481,0.011061 WAIST_JOINT0:0.998014,-0.000000,0.047538,0.041328 WAIST_JOINT1:0.996962,0.077570,0.000000,-0.006998 END:
KINECT_DATA_Sensor  AnkleLeft:0.076689,0.739723,-0.074858,-0.664323 AnkleRight:0.094312,0.720380,0.068787,0.683686 ElbowLeft:-0.024249,0.889875,-0.189751,-0.414162 ElbowRight:-0.373171,0.922053,0.101956,-0.012889 FootLeft:0.000000,0.000000,0.000000,0.000000 FootRight:0.000000,0.000000,0.000000,0.000000 HandLeft:-0.076227,0.875627,-0.012367,0.476775 HandRight:-0.170788,0.447083,-0.410912,0.775951 HandTipLeft:0.000000,0.000000,0.000000,0.000000 HandTipRight:0.000000,0.000000,0.000000,0.000000 Head:0.000000,0.000000,0.000000,0.000000 HipLeft:0.103070,-0.672767,0.713225,-0.167546 HipRight:-0.119328,0.683559,0.696366,-0.183256 KneeLeft:-0.002639,-0.699738,0.033337,0.713616 KneeRight:-0.001901,0.714360,0.029975,0.699134 Neck:-0.048360,0.006356,0.994391,-0.093850 ShoulderLeft:0.040606,0.772669,-0.632019,0.043418 ShoulderRight:-0.020889,0.806658,0.579539,-0.114019 SpineBase:-0.010368,0.004420,0.998566,-0.052333 SpineMid:-0.029121,0.005403,0.998195,-0.052241 SpineShoulder:-0.048352,0.006214,0.996215,-0.071969 ThumbLeft:0.000000,0.000000,0.000000,0.000000 ThumbRight:0.000000,0.000000,0.000000,0.000000 WristLeft:-0.077375,0.876390,-0.084080,0.467850 WristRight:-0.102912,0.482434,-0.356065,0.793652 END:
KINECT_DATA POSITION:28.509912,-4.323695,-5.430198 HEAD_JOINT1:0.978275,0.184589,-0.000000,0.094368 LARM_JOINT2:0.819950,0.000000,-0.022419,-0.571997 LARM_JOINT3:0.974165,0.000000,-0.166757,-0.152297 LLEG_JOINT2:0.999643,0.024600,0.000000,0.010446 LLEG_JOINT4:0.996450,0.082728,0.000000,-0.015608 RARM_JOINT2:0.770958,0.000000,0.520394,0.367168 RARM_JOINT3:0.988288,0.000000,0.110543,0.105204 RLEG_JOINT2:0.999192,0.021162,0.000000,-0.034180 RLEG_JOINT4:0.994588,0.096791,0.000000,0.037755 WAIST:0.999864,-0.000000,0.011845,0.011514 WAIST_JOINT0:0.997468,-0.000000,0.056353,0.043388 WAIST_JOINT1:0.997019,0.077098,0.000000,-0.002826 END:
KINECT_DATA_Sensor  AnkleLeft:-0.070090,-0.673685,0.081162,0.731196 AnkleRight:0.095002,0.726893,0.071061,0.676426 ElbowLeft:-0.022461,0.891525,-0.190496,-0.410354 ElbowRight:-0.372635,0.910733,0.135153,-0.115942 FootLeft:0.000000,0.000000,0.000000,0.000000 FootRight:0.000000,0.000000,0.000000,0.000000 HandLeft:-0.093017,0.888284,-0.016368,0.449479 HandRight:-0.187061,0.459098,-0.399419,0.771169 HandTipLeft:0.000000,0.000000,0.000000,0.000000 HandTipRight:0.000000,0.000000,0.000000,0.000000 Head:0.000000,0.000000,0.000000,0.000000 HipLeft:0.101652,-0.672628,0.713640,-0.167201 HipRight:-0.121352,0.683426,0.695625,-0.185224 KneeLeft:-0.002161,-0.698066,0.032800,0.715278 KneeRight:-0.001499,0.716002,0.030885,0.697413 Neck:-0.057306,0.012704,0.993982,-0.092491 ShoulderLeft:0.041084,0.768954,-0.636678,0.040779 ShoulderRight:-0.032851,0.806100,0.577539,-0.124788 SpineBase:-0.012721,0.005493,0.998511,-0.052754 SpineMid:-0.034880,0.006663,0.997983,-0.052619 SpineShoulder:-0.057395,0.010698,0.995729,-0.071516 ThumbLeft:0.000000,0.000000,0.000000,0.000000 ThumbRight:0.000000,0.000000,0.000000,0.000000 WristLeft:-0.077291,0.890875,-0.079912,0.440434 WristRight:-0.104248,0.500308,-0.331963,0.792858 END:
KINECT_DATA POSITION:28.505785,-4.343526,-5.407393 HEAD_JOINT1:0.978423,0.188661,-0.000000,0.084240 LARM_JOINT2:0.818657,0.000000,-0.021624,-0.573875 LARM_JOINT3:0.973668,0.000000,-0.167170,-0.154997 LLEG_JOINT2:0.999644,0.024574,0.000000,0.010359 LLEG_JOINT4:0.996762,0.079058,0.000000,-0.014700 RARM_JOINT2:0.763631,0.000000,0.422823,0.487943 RARM_JOINT3:0.979759,0.000000,0.197685,-0.031516 RLEG_JOINT2:0.999178,0.021760,0.000000,-0.034199 RLEG_JOINT4:0.994461,0.097775,0.000000,0.038569 WAIST:0.999840,-0.000000,0.013589,0.011652 WAIST_JOINT0:0.997333,-0.000000,0.058461,0.043685 WAIST_JOINT1:0.997142,0.075545,0.000000,-0.000534 END:
KINECT_DATA_Sensor  AnkleLeft:-0.066970,-0.672916,0.079042,0.732428 AnkleRight:0.097787,0.738719,0.070069,0.663191 ElbowLeft:-0.022483,0.891695,-0.190436,-0.410011 ElbowRight:-0.273443,0.824838,-0.081041,0.488163 FootLeft:0.000000,0.000000,0.000000,0.000000 FootRight:0.000000,0.000000,0.000000,0.000000 HandLeft:-0.099386,0.883984,-0.013823,0.456622 HandRight:-0.181730,0.485081,-0.366637,0.772818 HandTipLeft:0.000000,0.000000,0.000000,0.000000 HandTipRight:0.000000,0.000000,0.000000,0.000000 Head:0.000000,0.000000,0.000000,0.000000 HipLeft:0.100804,-0.672738,0.713833,-0.166449 HipRight:-0.123567,0.683499,0.695113,-0.185412 KneeLeft:-0.002152,-0.696893,0.032798,0.716421 KneeRight:-0.001070,0.717142,0.031211,0.696227 Neck:-0.059956,0.014482,0.993961,-0.090759 ShoulderLeft:0.038250,0.766284,-0.640054,0.040953 ShoulderRight:-0.039607,0.805457,0.577230,-0.128359 SpineBase:-0.014359,0.007427,0.998515,-0.052027 SpineMid:-0.036964,0.008603,0.997934,-0.051846 SpineShoulder:-0.059932,0.013178,0.995665,-0.069898 ThumbLeft:0.000000,0.000000,0.000000,0.000000 ThumbRight:0.000000,0.000000,0.000000,0.000000 WristLeft:-0.077120,0.887819,-0.080217,0.446538 WristRight:-0.195759,0.476934,-0.405578,0.754797 END:
KINECT_DATA POSITION:28.482241,-4.359962,-5.391061 HEAD_JOINT1:0.978584,0.192880,-0.000000,0.071904 LARM_JOINT2:0.817495,0.000000,-0.020110,-0.575584 LARM_JOINT3:0.973954,0.000000,-0.164573,-0.155980 LLEG_JOINT2:0.999631,0.024953,0.000000,0.010696 LLEG_JOINT4:0.996597,0.081333,0.000000,-0.013358 RARM_JOINT2:0.764301,0.000000,0.410794,0.497083 RARM_JOINT3:0.978395,0.000000,0.203387,-0.037110 RLEG_JOINT2:0.999202,0.021100,0.000000,-0.033924 RLEG_JOINT4:0.994552,0.097019,0.000000,0.038139 WAIST:0.999836,-0.000000,0.014246,0.011156 WAIST_JOINT0:0.997265,-0.000000,0.059689,0.043581 WAIST_JOINT1:0.997250,0.074087,-0.000000,0.002064 END:
KINECT_DATA_Sensor  AnkleLeft:0.076517,0.747989,-0.073826,-0.655139 AnkleRight:0.094667,0.724093,0.071799,0.679392 ElbowLeft:-0.022537,0.891247,-0.190487,-0.410956 ElbowRight:-0.262636,0.816050,-0.082943,0.508138 FootLeft:0.000000,0.000000,0.000000,0.000000 FootRight:0.000000,0.000000,0.000000,0.000000 HandLeft:-0.090219,0.889157,-0.008390,0.448542 HandRight:-0.185362,0.491686,-0.355951,0.772777 HandTipLeft:0.000000,0.000000,0.000000,0.000000 HandTipRight:0.000000,0.000000,0.000000,0.000000 Head:0.000000,0.000000,0.000000,0.000000 HipLeft:0.100540,-0.673144,0.713569,-0.166098 HipRight:-0.125637,0.683518,0.695078,-0.184079 KneeLeft:-0.002562,-0.696566,0.032944,0.716732 KneeRight:-0.001716,0.717431,0.030890,0.695942 Neck:-0.061996,0.016251,0.993927,-0.089452 ShoulderLeft:0.034831,0.763291,-0.643753,0.041908 ShoulderRight:-0.046282,0.804451,0.577391,-0.131667 SpineBase:-0.014801,0.010269,0.998551,-0.050713 SpineMid:-0.038105,0.011450,0.997933,-0.050460 SpineShoulder:-0.061885,0.015397,0.995625,-0.068286 ThumbLeft:0.000000,0.000000,0.000000,0.000000 ThumbRight:0.000000,0.000000,0.000000,0.000000 WristLeft:-0.078610,0.891660,-0.079654,0.438656 WristRight:-0.203157,0.481808,-0.405377,0.749838 END:
KINECT_DATA POSITION:28.471249,-4.365580,-5.396223 HEAD_JOINT1:0.977451,0.186539,-0.000000,0.098955 LARM_JOINT2:0.822413,0.000000,-0.023404,-0.568410 LARM_JOINT3:0.973860,0.000000,-0.165804,-0.155263 LLEG_JOINT2:0.999626,0.025172,0.000000,0.010734 LLEG_JOINT4:0.996762,0.079400,0.000000,-0.012697 RARM_JOINT2:0.774385,0.000000,0.509484,0.375171 RARM_JOINT3:0.987686,0.000000,0.110720,0.110530 RLEG_JOINT2:0.999196,0.021622,0.000000,-0.033748 RLEG_JOINT4:0.994672,0.095652,0.000000,0.038461 WAIST:0.999832,-0.000000,0.014740,0.010917 WAIST_JOINT0:0.997241,-0.000000,0.060234,0.043384 WAIST_JOINT1:0.996993,0.077261,0.000000,-0.005998 END:
KINECT_DATA_Sensor  AnkleLeft:0.074375,0.742809,-0.073631,-0.661273 AnkleRight:0.094548,0.727736,0.070617,0.675629 ElbowLeft:-0.022486,0.891266,-0.190757,-0.410793 ElbowRight:-0.365243,0.915708,0.133811,-0.100854 FootLeft:0.000000,0.000000,0.000000,0.000000 FootRight:0.000000,0.000000,0.000000,0.000000 HandLeft:-0.090639,0.871689,-0.011541,0.481466 HandRight:-0.168441,0.440900,-0.379508,0.795744 HandTipLeft:0.000000,0.000000,0.000000,0.000000 HandTipRight:0.000000,0.000000,0.000000,0.000000 Head:0.000000,0.000000,0.000000,0.000000 HipLeft:0.100348,-0.673414,0.713420,-0.165761 HipRight:-0.124680,0.682981,0.695379,-0.185579 KneeLeft:-0.002870,-0.696128,0.032952,0.717156 KneeRight:-0.001410,0.717873,0.031307,0.695468 Neck:-0.061424,0.006800,0.993707,-0.093424 ShoulderLeft:0.041126,0.770189,-0.635248,0.039716 ShoulderRight:-0.037687,0.806597,0.575515,-0.129470 SpineBase:-0.015410,0.007688,0.998521,-0.051576 SpineMid:-0.037968,0.008851,0.997917,-0.051389 SpineShoulder:-0.061346,0.007451,0.995520,-0.071563 ThumbLeft:0.000000,0.000000,0.000000,0.000000 ThumbRight:0.000000,0.000000,0.000000,0.000000 WristLeft:-0.075587,0.874885,-0.082522,0.471226 WristRight:-0.092035,0.475392,-0.330533,0.810111 END:
KINECT_DATA POSITION:28.470526,-4.335308,-5.423987 HEAD_JOINT1:0.979104,0.170117,-0.000000,0.111423 LARM_JOINT2:0.824159,0.000000,-0.022444,-0.565914 LARM_JOINT3:0.973217,0.000000,-0.171882,-0.152663 LLEG_JOINT2:0.999606,0.025438,0.000000,0.011871 LLEG_JOINT4:0.996702,0.079770,0.000000,-0.014928 RARM_JOINT2:0.802436,0.000000,0.439521,0.403632 RARM_JOINT3:0.968088,0.000000,0.229589,0.100469 RLEG_JOINT2:0.999231,0.021921,0.000000,-0.032514 RLEG_JOINT4:0.994615,0.096654,0.000000,0.037413 WAIST:0.999875,-0.000000,0.012211,0.010061 WAIST_JOINT0:0.998160,-0.000000,0.046465,0.038946 WAIST_JOINT1:0.996962,0.077427,0.000000,-0.008506 END:
KINECT_DATA_Sensor  AnkleLeft:0.076805,0.752099,-0.071858,-0.650603 AnkleRight:0.094419,0.718408,0.072834,0.685325 ElbowLeft:-0.022798,0.890753,-0.190705,-0.411912 ElbowRight:-0.340504,0.925473,0.096044,0.135394 FootLeft:0.000000,0.000000,0.000000,0.000000 FootRight:0.000000,0.000000,0.000000,0.000000 HandLeft:-0.104902,0.871362,-0.025382,0.478623 HandRight:-0.155623,0.447591,-0.443393,0.760819 HandTipLeft:0.000000,0.000000,0.000000,0.000000 HandTipRight:0.000000,0.000000,0.000000,0.000000 Head:0.000000,0.000000,0.000000,0.000000 HipLeft:0.102371,-0.673578,0.712831,-0.166390 HipRight:-0.121771,0.682258,0.696735,-0.185083 KneeLeft:-0.002803,-0.697850,0.033372,0.715461 KneeRight:-0.000818,0.716219,0.031287,0.697173 Neck:-0.047407,0.003053,0.994483,-0.093525 ShoulderLeft:0.044620,0.775564,-0.628413,0.040092 ShoulderRight:-0.015102,0.806611,0.580581,-0.109896 SpineBase:-0.013004,0.003910,0.998555,-0.052004 SpineMid:-0.029922,0.004791,0.998191,-0.051930 SpineShoulder:-0.047420,0.003317,0.996272,-0.071989 ThumbLeft:0.000000,0.000000,0.000000,0.000000 ThumbRight:0.000000,0.000000,0.000000,0.000000 WristLeft:-0.076436,0.875790,-0.082791,0.469356 WristRight:-0.091137,0.486814,-0.379279,0.781572 END:
KINECT_DATA POSITION:28.448179,-4.229622,-5.418468 HEAD_JOINT1:0.979454,0.180752,-0.000000,0.089438 LARM_JOINT2:0.822045,0.000000,-0.014319,-0.569242 LARM_JOINT3:0.970012,0.000000,-0.186501,-0.155863 LLEG_JOINT2:0.999568,0.026233,0.000000,0.013247 LLEG_JOINT4:0.996472,0.081939,0.000000,-0.018158 RARM_JOINT2:0.845557,0.000000,0.363849,0.390701 RARM_JOINT3:0.907869,0.000000,0.383587,0.169217 RLEG_JOINT2:0.999335,0.019547,0.000000,-0.030773 RLEG_JOINT4:0.994682,0.096656,0.000000,0.035566 WAIST:0.999943,-0.000000,0.005803,0.008962 WAIST_JOINT0:0.999025,-0.000000,0.027527,0.034527 WAIST_JOINT1:0.997863,0.065230,0.000000,-0.003925 END:
KINECT_DATA_Sensor  AnkleLeft:0.078063,0.733548,-0.074701,-0.670994 AnkleRight:0.092362,0.713800,0.071550,0.690535 ElbowLeft:-0.029233,0.891358,-0.188266,-0.411318 ElbowRight:-0.326458,0.908950,0.153961,0.208641 FootLeft:0.000000,0.000000,0.000000,0.000000 FootRight:0.000000,0.000000,0.000000,0.000000 HandLeft:-0.156575,0.876544,-0.042181,0.453184 HandRight:0.078886,0.280272,-0.571748,0.767026 HandTipLeft:0.000000,0.000000,0.000000,0.000000 HandTipRight:0.000000,0.000000,0.000000,0.000000 Head:0.000000,0.000000,0.000000,0.000000 HipLeft:0.110241,-0.673796,0.711373,-0.166718 HipRight:-0.122615,0.683125,0.697811,-0.177102 KneeLeft:-0.003017,-0.702556,0.034196,0.710799 KneeRight:-0.001788,0.711571,0.029203,0.702005 Neck:-0.028162,0.005988,0.996358,-0.080255 ShoulderLeft:0.018589,0.773516,-0.631408,0.051490 ShoulderRight:-0.017462,0.805137,0.585777,-0.091180 SpineBase:-0.006372,0.005140,0.998917,-0.045806 SpineMid:-0.017087,0.005631,0.998791,-0.045748 SpineShoulder:-0.028086,0.006081,0.997773,-0.060202 ThumbLeft:0.000000,0.000000,0.000000,0.000000 ThumbRight:0.000000,0.000000,0.000000,0.000000 WristLeft:-0.089285,0.887472,-0.082220,0.444591 WristRight:0.046541,0.291889,-0.435003,0.850534 END:
KINECT_DATA POSITION:28.352919,-4.094690,-5.172741 HEAD_JOINT1:0.983927,0.154597,-0.000000,0.089376 LARM_JOINT2:0.824643,0.000000,-0.014986,-0.565454 LARM_JOINT3:0.968362,0.000000,-0.190867,-0.160761 LLEG_JOINT2:0.999533,0.026041,0.000000,0.015990 LLEG_JOINT4:0.996310,0.084017,0.000000,-0.017543 RARM_JOINT2:0.871110,0.000000,0.329469,0.364166 RARM_JOINT3:0.803901,0.000000,0.551233,0.223350 RLEG_JOINT2:0.999411,0.019920,0.000000,-0.027949 RLEG_JOINT4:0.994248,0.100666,0.000000,0.036581 WAIST:0.999962,-0.000000,0.004071,0.007666 WAIST_JOINT0:0.999563,-0.000000,0.014819,0.025577 WAIST_JOINT1:0.998548,0.053643,0.000000,-0.005014 END:
KINECT_DATA_Sensor  AnkleLeft:0.080953,0.760041,-0.074534,-0.640491 AnkleRight:0.097897,0.716895,0.071985,0.686510 ElbowLeft:-0.040368,0.893918,-0.185455,-0.406063 ElbowRight:-0.343147,0.882129,0.186400,0.263350 FootLeft:0.000000,0.000000,0.000000,0.000000 FootRight:0.000000,0.000000,0.000000,0.000000 HandLeft:-0.162189,0.824219,-0.067920,0.538280 HandRight:-0.133512,-0.354150,0.642406,-0.666383 HandTipLeft:0.000000,0.000000,0.000000,0.000000 HandTipRight:0.000000,0.000000,0.000000,0.000000 Head:0.000000,0.000000,0.000000,0.000000 HipLeft:0.117694,-0.676271,0.708799,-0.162512 HipRight:-0.127509,0.684233,0.697253,-0.171479 KneeLeft:-0.001821,-0.703881,0.035108,0.709448 KneeRight:-0.000378,0.710284,0.028407,0.703341 Neck:-0.014421,0.002247,0.997578,-0.068008 ShoulderLeft:-0.003380,0.778408,-0.625092,0.057710 ShoulderRight:-0.022072,0.801674,0.592370,-0.076997 SpineBase:-0.004493,0.003704,0.999299,-0.036994 SpineMid:-0.009316,0.003882,0.999265,-0.036975 SpineShoulder:-0.014321,0.003179,0.998693,-0.048955 ThumbLeft:0.000000,0.000000,0.000000,0.000000 ThumbRight:0.000000,0.000000,0.000000,0.000000 WristLeft:-0.097438,0.835505,-0.094682,0.532422 WristRight:0.109900,0.376201,-0.549376,0.737958 END:
KINECT_DATA POSITION:28.391668,-4.013515,-4.952288 HEAD_JOINT1:0.988454,0.126440,-0.000000,0.083499 LARM_JOINT2:0.825178,0.000000,-0.022474,-0.564425 LARM_JOINT3:0.972820,0.000000,-0.167870,-0.159500 LLEG_JOINT2:0.999532,0.023244,0.000000,0.019899 LLEG_JOINT4:0.995951,0.088793,0.000000,-0.014059 RARM_JOINT2:0.852487,0.000000,0.357061,0.381802 RARM_JOINT3:0.773149,0.000000,0.616519,0.148811 RLEG_JOINT2:0.999371,0.024355,0.000000,-0.025765 RLEG_JOINT4:0.994464,0.097932,0.000000,0.038092 WAIST:0.999784,-0.000000,0.020328,0.004407 WAIST_JOINT0:0.998307,-0.000000,0.050458,0.028928 WAIST_JOINT1:0.998808,0.048815,-0.000000,0.000243 END:
KINECT_DATA_Sensor  AnkleLeft:0.080588,0.745181,-0.078154,-0.657345 AnkleRight:0.096851,0.715731,0.076097,0.687428 ElbowLeft:-0.047580,0.889433,-0.184644,-0.415393 ElbowRight:-0.359753,0.877752,0.122153,0.291904 FootLeft:0.000000,0.000000,0.000000,0.000000 FootRight:0.000000,0.000000,0.000000,0.000000 HandLeft:-0.094983,0.835962,-0.042104,0.538863 HandRight:-0.072754,-0.403040,0.725007,-0.553743 HandTipLeft:0.000000,0.000000,0.000000,0.000000 HandTipRight:0.000000,0.000000,0.000000,0.000000 Head:0.000000,0.000000,0.000000,0.000000 HipLeft:0.115005,-0.680468,0.707406,-0.152688 HipRight:-0.145877,0.679756,0.695973,-0.179649 KneeLeft:0.000114,-0.692458,0.033566,0.720676 KneeRight:0.001418,0.721462,0.032297,0.691699 Neck:-0.048515,0.005537,0.996782,-0.063577 ShoulderLeft:0.001916,0.783038,-0.620895,0.036567 ShoulderRight:-0.061037,0.804992,0.579946,-0.109203 SpineBase:-0.020442,0.004131,0.999317,-0.030492 SpineMid:-0.034287,0.004553,0.998938,-0.030432 SpineShoulder:-0.048535,0.004854,0.997845,-0.043896 ThumbLeft:0.000000,0.000000,0.000000,0.000000 ThumbRight:0.000000,0.000000,0.000000,0.000000 WristLeft:-0.099473,0.836041,-0.103460,0.529563 WristRight:-0.065535,-0.462910,0.636914,-0.612993 END:
KINECT_DATA POSITION:28.564968,-4.051167,-5.061662 HEAD_JOINT1:0.988605,0.139143,-0.000000,0.057446 LARM_JOINT2:0.818549,0.000000,-0.009174,-0.574363 LARM_JOINT3:0.974214,0.000000,-0.162907,-0.156102 LLEG_JOINT2:0.999588,0.018012,0.000000,0.022361 LLEG_JOINT4:0.995377,0.095008,0.000000,-0.014091 RARM_JOINT2:0.784944,0.000000,0.555041,0.275303 RARM_JOINT3:0.904567,0.000000,0.425970,0.017537 RLEG_JOINT2:0.999402,0.024531,0.000000,-0.024370 RLEG_JOINT4:0.994327,0.098995,0.000000,0.038920 WAIST:0.999435,-0.000000,0.033592,0.001275 WAIST_JOINT0:0.995418,-0.000000,0.095327,0.007517 WAIST_JOINT1:0.999034,0.042708,-0.000000,0.010376 END:
KINECT_DATA_Sensor  AnkleLeft:-0.073012,-0.650917,0.086567,0.750655 AnkleRight:0.099873,0.757402,0.074023,0.641005 ElbowLeft:-0.042167,0.874952,-0.182303,-0.446594 ElbowRight:-0.494810,0.849952,-0.008239,0.180767 FootLeft:0.000000,0.000000,0.000000,0.000000 FootRight:0.000000,0.000000,0.000000,0.000000 HandLeft:-0.090551,0.875140,-0.020995,0.474857 HandRight:0.020143,-0.405889,0.753547,-0.516735 HandTipLeft:0.000000,0.000000,0.000000,0.000000 HandTipRight:0.000000,0.000000,0.000000,0.000000 Head:0.000000,0.000000,0.000000,0.000000 HipLeft:0.108200,-0.685728,0.706094,-0.139650 HipRight:-0.157668,0.678612,0.694932,-0.178035 KneeLeft:0.003001,-0.682986,0.029539,0.729828 KneeRight:-0.000126,0.730500,0.033661,0.682083 Neck:-0.093349,0.013964,0.993878,-0.057427 ShoulderLeft:0.014954,0.778907,-0.626921,0.007066 ShoulderRight:-0.108071,0.773754,0.605738,-0.150689 SpineBase:-0.033419,0.009018,0.999144,-0.022674 SpineMid:-0.063004,0.009686,0.997715,-0.022397 SpineShoulder:-0.093326,0.012382,0.994852,-0.037491 ThumbLeft:0.000000,0.000000,0.000000,0.000000 ThumbRight:0.000000,0.000000,0.000000,0.000000 WristLeft:-0.097084,0.875048,-0.102693,0.462948 WristRight:0.024051,-0.486815,0.633890,-0.600513 END:
KINECT_DATA POSITION:28.594763,-4.026996,-5.174172 HEAD_JOINT1:0.989640,0.137137,-0.000000,0.042491 LARM_JOINT2:0.817797,0.000000,-0.011551,-0.575390 LARM_JOINT3:0.971968,0.000000,-0.169621,-0.162807 LLEG_JOINT2:0.999676,0.010880,0.000000,0.022996 LLEG_JOINT4:0.994926,0.100352,0.000000,-0.007160 RARM_JOINT2:0.747135,0.000000,0.603821,0.277829 RARM_JOINT3:0.962918,0.000000,0.243590,-0.115982 RLEG_JOINT2:0.999379,0.028530,0.000000,-0.020662 RLEG_JOINT4:0.994651,0.093918,0.000000,0.042989 WAIST:0.998383,0.000000,0.056838,-0.000784 WAIST_JOINT0:0.993698,0.000000,0.104528,-0.040480 WAIST_JOINT1:0.998805,0.047403,-0.000000,0.011919 END:
KINECT_DATA_Sensor  AnkleLeft:-0.071261,-0.644545,0.086651,0.756290 AnkleRight:0.100404,0.762887,0.073070,0.634494 ElbowLeft:-0.032898,0.869460,-0.182920,-0.457709 ElbowRight:-0.474727,0.821108,-0.154886,0.276453 FootLeft:0.000000,0.000000,0.000000,0.000000 FootRight:0.000000,0.000000,0.000000,0.000000 HandLeft:-0.111851,0.868950,-0.025148,0.481439 HandRight:0.252486,-0.341590,0.718641,-0.550565 HandTipLeft:0.000000,0.000000,0.000000,0.000000 HandTipRight:0.000000,0.000000,0.000000,0.000000 Head:0.000000,0.000000,0.000000,0.000000 HipLeft:0.089553,-0.690015,0.707515,-0.123624 HipRight:-0.166982,0.674724,0.694017,-0.187630 KneeLeft:0.006625,-0.665982,0.023852,0.745557 KneeRight:0.003048,0.746134,0.035597,0.664837 Neck:-0.100562,0.010763,0.992802,-0.064149 ShoulderLeft:0.025136,0.782930,-0.621599,0.001741 ShoulderRight:-0.109814,0.714915,0.671645,-0.160407 SpineBase:-0.056524,0.009496,0.998071,-0.023857 SpineMid:-0.078259,0.010014,0.996602,-0.023645 SpineShoulder:-0.100525,0.010448,0.993982,-0.042246 ThumbLeft:0.000000,0.000000,0.000000,0.000000 ThumbRight:0.000000,0.000000,0.000000,0.000000 WristLeft:-0.094308,0.872805,-0.099534,0.468413 WristRight:0.161267,-0.468575,0.616535,-0.611812 END:
KINECT_DATA POSITION:28.351870,-3.308717,-5.226529 HEAD_JOINT1:0.992758,0.119127,-0.000000,0.015516 LARM_JOINT2:0.815936,0.000000,-0.024095,-0.577641 LARM_JOINT3:0.971454,0.000000,-0.171355,-0.164058 LLEG_JOINT2:0.999731,0.007421,0.000000,0.021954 LLEG_JOINT4:0.994740,0.102104,0.000000,-0.008172 RARM_JOINT2:0.795929,0.000000,0.577784,0.180730 RARM_JOINT3:0.956326,0.000000,0.252499,-0.147255 RLEG_JOINT2:0.999362,0.027229,0.000000,-0.023102 RLEG_JOINT4:0.994629,0.091944,0.000000,0.047534 WAIST:0.997556,-0.000000,0.069835,0.002068 WAIST_JOINT0:0.992675,-0.000000,0.119725,0.016172 WAIST_JOINT1:0.998237,0.056673,-0.000000,0.017644 END:
KINECT_DATA_Sensor  AnkleLeft:0.082950,0.746858,-0.072904,-0.655750 AnkleRight:0.100470,0.769383,0.068798,0.627074 ElbowLeft:-0.030884,0.870059,-0.188176,-0.454569 ElbowRight:-0.528251,0.768041,-0.144857,0.331783 FootLeft:0.000000,0.000000,0.000000,0.000000 FootRight:0.000000,0.000000,0.000000,0.000000 HandLeft:-0.108656,0.873868,-0.037380,0.472390 HandRight:0.321046,-0.152470,-0.669315,0.652457 HandTipLeft:0.000000,0.000000,0.000000,0.000000 HandTipRight:0.000000,0.000000,0.000000,0.000000 Head:0.000000,0.000000,0.000000,0.000000 HipLeft:0.077309,-0.688515,0.710472,-0.123291 HipRight:-0.171201,0.673294,0.690665,-0.200865 KneeLeft:0.010246,-0.656361,0.022909,0.754030 KneeRight:0.001905,0.754691,0.034244,0.655184 Neck:-0.123335,0.021304,0.989424,-0.073308 ShoulderLeft:0.052942,0.786473,-0.615071,-0.018581 ShoulderRight:-0.105565,0.801502,0.562369,-0.173759 SpineBase:-0.069458,0.012350,0.996992,-0.032084 SpineMid:-0.096048,0.013202,0.994783,-0.031743 SpineShoulder:-0.123429,0.017990,0.990851,-0.051529 ThumbLeft:0.000000,0.000000,0.000000,0.000000 ThumbRight:0.000000,0.000000,0.000000,0.000000 WristLeft:-0.092437,0.876499,-0.098808,0.461997 WristRight:0.329404,-0.129697,-0.619079,0.701008 END:
KINECT_DATA POSITION:28.384388,-3.380443,-5.252314 HEAD_JOINT1:0.988923,0.146830,-0.000000,0.021749 LARM_JOINT2:0.816208,0.000000,-0.014882,-0.577567 LARM_JOINT3:0.971681,0.000000,-0.168086,-0.166082 LLEG_JOINT2:0.999800,0.007819,0.000000,0.018401 LLEG_JOINT4:0.995211,0.097631,0.000000,-0.004804 RARM_JOINT2:0.837625,0.000000,0.520487,0.165763 RARM_JOINT3:0.948812,0.000000,0.275602,-0.154272 RLEG_JOINT2:0.999319,0.027365,0.000000,-0.024746 RLEG_JOINT4:0.994518,0.093063,0.000000,0.047682 WAIST:0.997626,-0.000000,0.068780,0.003537 WAIST_JOINT0:0.991772,-0.000000,0.122955,0.035644 WAIST_JOINT1:0.998566,0.050419,-0.000000,0.017998 END:
KINECT_DATA_Sensor  AnkleLeft:0.078360,0.745204,-0.072143,-0.658275 AnkleRight:0.101537,0.770692,0.069218,0.625246 ElbowLeft:-0.030622,0.869477,-0.190754,-0.454626 ElbowRight:-0.546913,0.736390,-0.102551,0.384838 FootLeft:0.000000,0.000000,0.000000,0.000000 FootRight:0.000000,0.000000,0.000000,0.000000 HandLeft:-0.105828,0.889203,-0.034598,0.443759 HandRight:0.615125,-0.482125,-0.406745,0.473006 HandTipLeft:0.000000,0.000000,0.000000,0.000000 HandTipRight:0.000000,0.000000,0.000000,0.000000 Head:0.000000,0.000000,0.000000,0.000000 HipLeft:0.078105,-0.687994,0.711031,-0.122471 HipRight:-0.171989,0.675408,0.689217,-0.198048 KneeLeft:0.008674,-0.657153,0.021519,0.753400 KneeRight:0.001834,0.754085,0.034387,0.655873 Neck:-0.129390,0.022306,0.989191,-0.065281 ShoulderLeft:0.042901,0.782889,-0.620397,-0.018755 ShoulderRight:-0.123356,0.822186,0.525943,-0.179381 SpineBase:-0.068437,0.015194,0.997090,-0.029952 SpineMid:-0.098264,0.016084,0.994594,-0.029483 SpineShoulder:-0.129295,0.020738,0.990343,-0.045539 ThumbLeft:0.000000,0.000000,0.000000,0.000000 ThumbRight:0.000000,0.000000,0.000000,0.000000 WristLeft:-0.092407,0.891078,-0.097422,0.433531 WristRight:0.596181,-0.499896,-0.397786,0.486249 END:
KINECT_DATA POSITION:28.369341,-3.522878,-5.287158 HEAD_JOINT1:0.985142,0.163191,-0.000000,0.053523 LARM_JOINT2:0.819991,0.000000,-0.011406,-0.572263 LARM_JOINT3:0.970208,0.000000,-0.171813,-0.170813 LLEG_JOINT2:0.999831,0.009372,0.000000,0.015846 LLEG_JOINT4:0.995392,0.095831,0.000000,-0.003487 RARM_JOINT2:0.829375,0.000000,0.537570,0.152166 RARM_JOINT3:0.958228,0.000000,0.248493,-0.141597 RLEG_JOINT2:0.999305,0.026698,0.000000,-0.026021 RLEG_JOINT4:0.994451,0.095082,0.000000,0.045015 WAIST:0.997957,-0.000000,0.063631,0.005793 WAIST_JOINT0:0.991807,-0.000000,0.123375,0.033136 WAIST_JOINT1:0.998810,0.047536,-0.000000,0.010883 END:
KINECT_DATA_Sensor  AnkleLeft:0.075976,0.738517,-0.074355,-0.665801 AnkleRight:0.101888,0.770839,0.070216,0.624897 ElbowLeft:-0.031690,0.872928,-0.192231,-0.447258 ElbowRight:-0.559434,0.729860,-0.114912,0.375678 FootLeft:0.000000,0.000000,0.000000,0.000000 FootRight:0.000000,0.000000,0.000000,0.000000 HandLeft:-0.131613,0.875661,-0.036405,0.463217 HandRight:0.639266,-0.549163,-0.335688,0.420801 HandTipLeft:0.000000,0.000000,0.000000,0.000000 HandTipRight:0.000000,0.000000,0.000000,0.000000 Head:0.000000,0.000000,0.000000,0.000000 HipLeft:0.084621,-0.686587,0.711553,-0.123005 HipRight:-0.170484,0.678127,0.687955,-0.194417 KneeLeft:0.007520,-0.660793,0.022186,0.750203 KneeRight:0.002223,0.750814,0.033137,0.659678 Neck:-0.127846,0.017673,0.989671,-0.062399 ShoulderLeft:0.035468,0.780298,-0.624234,-0.014461 ShoulderRight:-0.130589,0.810922,0.541157,-0.180278 SpineBase:-0.063519,0.013125,0.997542,-0.026507 SpineMid:-0.095026,0.013957,0.995035,-0.026078 SpineShoulder:-0.127799,0.016372,0.990765,-0.042247 ThumbLeft:0.000000,0.000000,0.000000,0.000000 ThumbRight:0.000000,0.000000,0.000000,0.000000 WristLeft:-0.088325,0.882910,-0.098741,0.450465 WristRight:0.634405,-0.553983,-0.334821,0.422525 END:
KINECT_DATA POSITION:28.271872,-3.585940,-5.426395 HEAD_JOINT1:0.984411,0.167324,-0.000000,0.054205 LARM_JOINT2:0.818587,0.000000,0.010509,-0.574287 LARM_JOINT3:0.969061,0.000000,-0.179718,-0.169182 LLEG_JOINT2:0.999849,0.009594,0.000000,0.014504 LLEG_JOINT4:0.995303,0.096718,0.000000,-0.004182 RARM_JOINT2:0.824430,0.000000,0.549428,0.135809 RARM_JOINT3:0.959583,0.000000,0.256112,-0.116654 RLEG_JOINT2:0.999337,0.025809,0.000000,-0.025696 RLEG_JOINT4:0.994732,0.093716,0.000000,0.041549 WAIST:0.998164,-0.000000,0.060196,0.006767 WAIST_JOINT0:0.993667,-0.000000,0.107239,0.033535 WAIST_JOINT1:0.998744,0.048484,-0.000000,0.012668 END:
KINECT_DATA_Sensor  AnkleLeft:-0.066513,-0.644881,0.084054,0.756730 AnkleRight:0.093956,0.724212,0.076376,0.678864 ElbowLeft:-0.020194,0.860450,-0.198602,-0.468801 ElbowRight:-0.572699,0.739199,-0.100947,0.339720 FootLeft:0.000000,0.000000,0.000000,0.000000 FootRight:0.000000,0.000000,0.000000,0.000000 HandLeft:-0.105033,0.885520,-0.042229,0.450598 HandRight:0.601657,-0.486356,-0.375400,0.510433 HandTipLeft:0.000000,0.000000,0.000000,0.000000 HandTipRight:0.000000,0.000000,0.000000,0.000000 Head:0.000000,0.000000,0.000000,0.000000 HipLeft:0.086028,-0.685345,0.712215,-0.125105 HipRight:-0.168708,0.679333,0.687965,-0.191698 KneeLeft:0.007214,-0.663382,0.022005,0.747922 KneeRight:0.002689,0.748558,0.031574,0.662312 Neck:-0.114910,0.020582,0.991116,-0.063733 ShoulderLeft:0.015489,0.777067,-0.629192,0.006603 ShoulderRight:-0.136527,0.811137,0.540170,-0.177858 SpineBase:-0.060082,0.015241,0.997726,-0.026477 SpineMid:-0.086877,0.015947,0.995751,-0.026057 SpineShoulder:-0.114839,0.018684,0.992270,-0.043173 ThumbLeft:0.000000,0.000000,0.000000,0.000000 ThumbRight:0.000000,0.000000,0.000000,0.000000 WristLeft:-0.089125,0.887453,-0.098088,0.441432 WristRight:0.591951,-0.500602,-0.392985,0.494524 END:
KINECT_DATA POSITION:28.189182,-3.591412,-5.534017 HEAD_JOINT1:0.983768,0.169049,-0.000000,0.060195 LARM_JOINT2:0.818074,0.000000,0.018858,-0.574803 LARM_JOINT3:0.967386,0.000000,-0.188628,-0.169068 LLEG_JOINT2:0.999853,0.009816,0.000000,0.014065 LLEG_JOINT4:0.995178,0.098039,0.000000,-0.003107 RARM_JOINT2:0.858229,0.000000,0.460087,0.227514 RARM_JOINT3:0.910821,0.000000,0.379062,-0.163453 RLEG_JOINT2:0.999379,0.024238,0.000000,-0.025574 RLEG_JOINT4:0.994586,0.095280,0.000000,0.041475 WAIST:0.998326,-0.000000,0.057352,0.007446 WAIST_JOINT0:0.994279,-0.000000,0.101492,0.033306 WAIST_JOINT1:0.998708,0.049484,-0.000000,0.011582 END:
KINECT_DATA_Sensor  AnkleLeft:-0.066676,-0.648395,0.086102,0.753475 AnkleRight:0.098912,0.760324,0.070050,0.638135 ElbowLeft:-0.015989,0.854441,-0.200143,-0.479185 ElbowRight:-0.506017,0.745993,-0.045811,0.430513 FootLeft:0.000000,0.000000,0.000000,0.000000 FootRight:0.000000,0.000000,0.000000,0.000000 HandLeft:-0.116733,0.891416,-0.044827,0.435593 HandRight:0.610522,-0.504153,-0.382470,0.476245 HandTipLeft:0.000000,0.000000,0.000000,0.000000 HandTipRight:0.000000,0.000000,0.000000,0.000000 Head:0.000000,0.000000,0.000000,0.000000 HipLeft:0.086776,-0.684555,0.712593,-0.126751 HipRight:-0.166200,0.680201,0.688171,-0.190062 KneeLeft:0.007285,-0.665499,0.022297,0.746030 KneeRight:0.002315,0.746654,0.029846,0.664539 Neck:-0.110586,0.019740,0.991553,-0.064833 ShoulderLeft:0.009241,0.776095,-0.630393,0.013986 ShoulderRight:-0.137912,0.811184,0.539919,-0.177336 SpineBase:-0.057261,0.015693,0.997867,-0.027132 SpineMid:-0.083269,0.016395,0.996034,-0.026713 SpineShoulder:-0.110474,0.018492,0.992729,-0.044079 ThumbLeft:0.000000,0.000000,0.000000,0.000000 ThumbRight:0.000000,0.000000,0.000000,0.000000 WristLeft:-0.090158,0.894915,-0.097488,0.426022 WristRight:0.627705,-0.484878,-0.375536,0.479428 END:
KINECT_DATA POSITION:28.136789,-3.604789,-5.539727 HEAD_JOINT1:0.983702,0.169105,-0.000000,0.061106 LARM_JOINT2:0.818844,0.000000,0.015259,-0.573813 LARM_JOINT3:0.967377,0.000000,-0.186414,-0.171554 LLEG_JOINT2:0.999857,0.009205,0.000000,0.014219 LLEG_JOINT4:0.995190,0.097903,0.000000,-0.003408 RARM_JOINT2:0.818956,0.000000,0.560282,0.124081 RARM_JOINT3:0.961935,0.000000,0.245443,-0.120160 RLEG_JOINT2:0.999415,0.024313,0.000000,-0.024056 RLEG_JOINT4:0.994399,0.097621,0.000000,0.040504 WAIST:0.998327,-0.000000,0.057359,0.007308 WAIST_JOINT0:0.994184,-0.000000,0.102410,0.033306 WAIST_JOINT1:0.998641,0.050591,-0.000000,0.012497 END:
KINECT_DATA_Sensor  AnkleLeft:0.076445,0.737237,-0.076471,-0.666926 AnkleRight:0.100915,0.760530,0.071467,0.637419 ElbowLeft:-0.017535,0.856693,-0.201387,-0.474566 ElbowRight:-0.581825,0.747810,-0.087958,0.307446 FootLeft:0.000000,0.000000,0.000000,0.000000 FootRight:0.000000,0.000000,0.000000,0.000000 HandLeft:-0.114630,0.883084,-0.040452,0.453195 HandRight:0.603181,-0.486444,-0.417626,0.474482 HandTipLeft:0.000000,0.000000,0.000000,0.000000 HandTipRight:0.000000,0.000000,0.000000,0.000000 Head:0.000000,0.000000,0.000000,0.000000 HipLeft:0.086144,-0.684502,0.712658,-0.127104 HipRight:-0.165917,0.680024,0.688405,-0.190099 KneeLeft:0.007745,-0.665531,0.021908,0.746008 KneeRight:0.003400,0.746642,0.028988,0.664586 Neck:-0.111688,0.020718,0.991324,-0.066131 ShoulderLeft:0.012282,0.775573,-0.631009,0.012784 ShoulderRight:-0.136183,0.810986,0.540444,-0.177979 SpineBase:-0.057243,0.016215,0.997845,-0.027685 SpineMid:-0.083807,0.016947,0.995965,-0.027243 SpineShoulder:-0.111578,0.019271,0.992544,-0.045110 ThumbLeft:0.000000,0.000000,0.000000,0.000000 ThumbRight:0.000000,0.000000,0.000000,0.000000 WristLeft:-0.088246,0.886855,-0.099397,0.442517 WristRight:0.591935,-0.492089,-0.383988,0.509917 END:
KINECT_DATA POSITION:28.127935,-3.641150,-5.523670 HEAD_JOINT1:0.983451,0.171022,-0.000000,0.059789 LARM_JOINT2:0.818547,0.000000,0.007699,-0.574388 LARM_JOINT3:0.968201,0.000000,-0.182535,-0.171076 LLEG_JOINT2:0.999868,0.008775,0.000000,0.013685 LLEG_JOINT4:0.995027,0.099559,0.000000,-0.003087 RARM_JOINT2:0.812954,0.000000,0.560865,0.156638 RARM_JOINT3:0.970213,0.000000,0.201034,-0.135177 RLEG_JOINT2:0.999384,0.024265,0.000000,-0.025347 RLEG_JOINT4:0.994599,0.094988,0.000000,0.041833 WAIST:0.998287,-0.000000,0.058010,0.007659 WAIST_JOINT0:0.993787,-0.000000,0.106275,0.033062 WAIST_JOINT1:0.998570,0.051750,-0.000000,0.013421 END:
KINECT_DATA_Sensor  AnkleLeft:0.078160,0.743279,-0.076456,-0.659986 AnkleRight:0.099451,0.762646,0.069074,0.635382 ElbowLeft:-0.020261,0.861760,-0.200298,-0.465662 ElbowRight:-0.542377,0.720357,-0.160603,0.401398 FootLeft:0.000000,0.000000,0.000000,0.000000 FootRight:0.000000,0.000000,0.000000,0.000000 HandLeft:-0.115950,0.891029,-0.038139,0.437228 HandRight:0.592456,-0.508475,-0.397314,0.482277 HandTipLeft:0.000000,0.000000,0.000000,0.000000 HandTipRight:0.000000,0.000000,0.000000,0.000000 Head:0.000000,0.000000,0.000000,0.000000 HipLeft:0.085473,-0.684177,0.712921,-0.127825 HipRight:-0.166546,0.679960,0.687984,-0.191298 KneeLeft:0.007948,-0.665076,0.021475,0.746425 KneeRight:0.002629,0.747075,0.029563,0.664077 Neck:-0.115361,0.022303,0.990794,-0.067240 ShoulderLeft:0.019615,0.774374,-0.632374,0.007966 ShoulderRight:-0.133281,0.809502,0.542911,-0.179416 SpineBase:-0.057884,0.017016,0.997772,-0.028487 SpineMid:-0.085960,0.017812,0.995746,-0.027997 SpineShoulder:-0.115250,0.020600,0.992048,-0.046191 ThumbLeft:0.000000,0.000000,0.000000,0.000000 ThumbRight:0.000000,0.000000,0.000000,0.000000 WristLeft:-0.089364,0.894768,-0.096594,0.426700 WristRight:0.568550,-0.534592,-0.408634,0.473266 END:
KINECT_DATA POSITION:28.137928,-3.740290,-5.466902 HEAD_JOINT1:0.982869,0.174666,-0.000000,0.058831 LARM_JOINT2:0.816508,0.000000,0.003670,-0.577323 LARM_JOINT3:0.969881,0.000000,-0.177013,-0.167322 LLEG_JOINT2:0.999850,0.010140,0.000000,0.014070 LLEG_JOINT4:0.995237,0.097386,0.000000,-0.004351 RARM_JOINT2:0.801232,0.000000,0.568169,0.187648 RARM_JOINT3:0.970545,0.000000,0.208433,-0.120826 RLEG_JOINT2:0.999337,0.024711,0.000000,-0.026719 RLEG_JOINT4:0.994628,0.094182,0.000000,0.042948 WAIST:0.998297,-0.000000,0.057824,0.007722 WAIST_JOINT0:0.993745,-0.000000,0.107272,0.031036 WAIST_JOINT1:0.998431,0.054115,-0.000000,0.014406 END:
KINECT_DATA_Sensor  AnkleLeft:0.078489,0.748274,-0.074763,-0.654474 AnkleRight:0.099158,0.763253,0.068800,0.634727 ElbowLeft:-0.020103,0.862866,-0.197656,-0.464748 ElbowRight:-0.522530,0.751374,-0.150273,0.373921 FootLeft:0.000000,0.000000,0.000000,0.000000 FootRight:0.000000,0.000000,0.000000,0.000000 HandLeft:-0.098159,0.867932,-0.038070,0.485397 HandRight:0.684580,-0.659199,-0.150379,0.272384 HandTipLeft:0.000000,0.000000,0.000000,0.000000 HandTipRight:0.000000,0.000000,0.000000,0.000000 Head:0.000000,0.000000,0.000000,0.000000 HipLeft:0.084823,-0.683695,0.713094,-0.129855 HipRight:-0.166301,0.679582,0.688067,-0.192552 KneeLeft:0.007230,-0.665243,0.022715,0.746247 KneeRight:0.001952,0.746933,0.030764,0.664184 Neck:-0.116868,0.023491,0.990420,-0.069700 ShoulderLeft:0.025885,0.771481,-0.635690,0.006761 ShoulderRight:-0.129168,0.804857,0.550346,-0.180668 SpineBase:-0.057661,0.017969,0.997717,-0.030210 SpineMid:-0.086613,0.018839,0.995622,-0.029675 SpineShoulder:-0.116748,0.021733,0.991740,-0.048467 ThumbLeft:0.000000,0.000000,0.000000,0.000000 ThumbRight:0.000000,0.000000,0.000000,0.000000 WristLeft:-0.083524,0.870064,-0.099756,0.475459 WristRight:0.659277,-0.682996,-0.150468,0.276098 END:
KINECT_DATA POSITION:28.147331,-3.856089,-5.452669 HEAD_JOINT1:0.981553,0.183202,-0.000000,0.054696 LARM_JOINT2:0.814274,0.000000,-0.002650,-0.580475 LARM_JOINT3:0.971666,0.000000,-0.174840,-0.159046 LLEG_JOINT2:0.999841,0.010242,0.000000,0.014568 LLEG_JOINT4:0.995185,0.097979,0.000000,-0.002784 RARM_JOINT2:0.802485,0.000000,0.568005,0.182721 RARM_JOINT3:0.974608,0.000000,0.206993,-0.085396 RLEG_JOINT2:0.999323,0.025271,0.000000,-0.026746 RLEG_JOINT4:0.994574,0.094844,0.000000,0.042744 WAIST:0.998223,-0.000000,0.059101,0.007550 WAIST_JOINT0:0.993457,-0.000000,0.109468,0.032542 WAIST_JOINT1:0.998132,0.058316,-0.000000,0.018236 END:
KINECT_DATA_Sensor  AnkleLeft:-0.066067,-0.643618,0.087196,0.757488 AnkleRight:0.099668,0.764369,0.070014,0.633170 ElbowLeft:-0.019838,0.864729,-0.197169,-0.461493 ElbowRight:-0.528401,0.769954,-0.123649,0.335670 FootLeft:0.000000,0.000000,0.000000,0.000000 FootRight:0.000000,0.000000,0.000000,0.000000 HandLeft:-0.087225,0.885888,-0.051036,0.452758 HandRight:0.589154,-0.603372,-0.282234,0.457366 HandTipLeft:0.000000,0.000000,0.000000,0.000000 HandTipRight:0.000000,0.000000,0.000000,0.000000 Head:0.000000,0.000000,0.000000,0.000000 HipLeft:0.081653,-0.683282,0.713451,-0.132087 HipRight:-0.166079,0.678731,0.688323,-0.194816 KneeLeft:0.007335,-0.664436,0.023036,0.746955 KneeRight:0.002133,0.747709,0.031319,0.663284 Neck:-0.120417,0.027469,0.989575,-0.074076 ShoulderLeft:0.037661,0.765486,-0.642338,0.003841 ShoulderRight:-0.122268,0.802483,0.554688,-0.182737 SpineBase:-0.058817,0.020285,0.997502,-0.033451 SpineMid:-0.088986,0.021288,0.995264,-0.032822 SpineShoulder:-0.120270,0.025367,0.991024,-0.052568 ThumbLeft:0.000000,0.000000,0.000000,0.000000 ThumbRight:0.000000,0.000000,0.000000,0.000000 WristLeft:-0.083463,0.885623,-0.095962,0.446652 WristRight:0.589799,-0.604737,-0.292331,0.448300 END:
KINECT_DATA POSITION:28.169060,-3.943068,-5.442607 HEAD_JOINT1:0.980978,0.186345,-0.000000,0.054391 LARM_JOINT2:0.814311,0.000000,-0.011059,-0.580323 LARM_JOINT3:0.971914,0.000000,-0.170246,-0.162482 LLEG_JOINT2:0.999854,0.009714,0.000000,0.014078 LLEG_JOINT4:0.995303,0.096730,0.000000,-0.003931 RARM_JOINT2:0.803423,0.000000,0.567137,0.181293 RARM_JOINT3:0.972329,0.000000,0.214476,-0.092612 RLEG_JOINT2:0.999263,0.026060,0.000000,-0.028168 RLEG_JOINT4:0.994549,0.094019,0.000000,0.045086 WAIST:0.998140,-0.000000,0.060379,0.008385 WAIST_JOINT0:0.992479,-0.000000,0.116750,0.036798 WAIST_JOINT1:0.998013,0.060106,-0.000000,0.018884 END:
KINECT_DATA_Sensor  AnkleLeft:-0.064980,-0.639265,0.085579,0.761442 AnkleRight:0.095406,0.716227,0.076123,0.687111 ElbowLeft:-0.022454,0.870198,-0.196965,-0.451062 ElbowRight:-0.528256,0.772605,-0.120175,0.331037 FootLeft:0.000000,0.000000,0.000000,0.000000 FootRight:0.000000,0.000000,0.000000,0.000000 HandLeft:-0.093937,0.865044,-0.042836,0.490958 HandRight:0.371554,-0.524016,0.567283,-0.515311 HandTipLeft:0.000000,0.000000,0.000000,0.000000 HandTipRight:0.000000,0.000000,0.000000,0.000000 Head:0.000000,0.000000,0.000000,0.000000 HipLeft:0.079566,-0.682400,0.714349,-0.133060 HipRight:-0.166211,0.678659,0.687852,-0.196610 KneeLeft:0.007972,-0.663546,0.022915,0.747742 KneeRight:0.002137,0.748561,0.032257,0.662278 Neck:-0.127367,0.029242,0.988535,-0.075634 ShoulderLeft:0.045789,0.762554,-0.645300,-0.001366 ShoulderRight:-0.123232,0.802904,0.552165,-0.187811 SpineBase:-0.060078,0.021741,0.997330,-0.035379 SpineMid:-0.093038,0.022899,0.994796,-0.034640 SpineShoulder:-0.127208,0.027101,0.990024,-0.054187 ThumbLeft:0.000000,0.000000,0.000000,0.000000 ThumbRight:0.000000,0.000000,0.000000,0.000000 WristLeft:-0.077076,0.867120,-0.098352,0.482171 WristRight:-0.389195,0.550835,-0.530426,0.513573 END:
KINECT_DATA POSITION:28.171915,-3.973000,-5.437195 HEAD_JOINT1:0.981106,0.185703,-0.000000,0.054277 LARM_JOINT2:0.814150,0.000000,-0.014126,-0.580483 LARM_JOINT3:0.972428,0.000000,-0.169456,-0.160214 LLEG_JOINT2:0.999850,0.009366,0.000000,0.014537 LLEG_JOINT4:0.994946,0.100244,0.000000,-0.005717 RARM_JOINT2:0.803443,0.000000,0.567091,0.181350 RARM_JOINT3:0.972972,0.000000,0.209759,-0.096571 RLEG_JOINT2:0.999277,0.025882,0.000000,-0.027865 RLEG_JOINT4:0.994384,0.095306,0.000000,0.046005 WAIST:0.998137,-0.000000,0.060484,0.008023 WAIST_JOINT0:0.992421,-0.000000,0.117419,0.036244 WAIST_JOINT1:0.997995,0.060295,-0.000000,0.019266 END:
KINECT_DATA_Sensor  AnkleLeft:-0.068407,-0.638305,0.086552,0.761837 AnkleRight:0.097176,0.719707,0.075951,0.683235 ElbowLeft:-0.023703,0.872193,-0.196001,-0.447550 ElbowRight:-0.527975,0.772570,-0.120419,0.331477 FootLeft:0.000000,0.000000,0.000000,0.000000 FootRight:0.000000,0.000000,0.000000,0.000000 HandLeft:-0.095757,0.875074,-0.047633,0.472025 HandRight:0.629328,-0.611672,-0.268386,0.397207 HandTipLeft:0.000000,0.000000,0.000000,0.000000 HandTipRight:0.000000,0.000000,0.000000,0.000000 Head:0.000000,0.000000,0.000000,0.000000 HipLeft:0.079055,-0.682484,0.714233,-0.133552 HipRight:-0.166091,0.678278,0.688179,-0.196882 KneeLeft:0.008277,-0.663523,0.022771,0.747763 KneeRight:0.001983,0.748592,0.032179,0.662247 Neck:-0.128005,0.029230,0.988443,-0.075772 ShoulderLeft:0.048366,0.761909,-0.645868,-0.003048 ShoulderRight:-0.121326,0.802005,0.554045,-0.187354 SpineBase:-0.060137,0.022085,0.997297,-0.035976 SpineMid:-0.093385,0.023273,0.994735,-0.035219 SpineShoulder:-0.127841,0.027170,0.989928,-0.054405 ThumbLeft:0.000000,0.000000,0.000000,0.000000 ThumbRight:0.000000,0.000000,0.000000,0.000000 WristLeft:-0.078687,0.876879,-0.096353,0.464337 WristRight:0.606613,-0.629024,-0.253869,0.414608 END:
KINECT_DATA POSITION:28.176413,-4.064093,-5.508900 HEAD_JOINT1:0.981195,0.185230,-0.000000,0.054278 LARM_JOINT2:0.814633,0.000000,-0.017706,-0.579706 LARM_JOINT3:0.973362,0.000000,-0.165318,-0.158862 LLEG_JOINT2:0.999863,0.009272,0.000000,0.013708 LLEG_JOINT4:0.995067,0.099127,0.000000,-0.003901 RARM_JOINT2:0.810584,0.000000,0.549169,0.203389 RARM_JOINT3:0.951417,0.000000,0.273486,-0.141458 RLEG_JOINT2:0.999233,0.026037,0.000000,-0.029262 RLEG_JOINT4:0.994368,0.095548,0.000000,0.045858 WAIST:0.998185,-0.000000,0.059595,0.008692 WAIST_JOINT0:0.992190,-0.000000,0.116588,0.044334 WAIST_JOINT1:0.997992,0.060577,-0.000000,0.018483 END:
KINECT_DATA_Sensor  AnkleLeft:-0.066304,-0.639190,0.086970,0.761233 AnkleRight:0.095147,0.704305,0.078747,0.699072 ElbowLeft:-0.025344,0.875643,-0.195850,-0.440737 ElbowRight:-0.504798,0.752899,-0.141035,0.398034 FootLeft:0.000000,0.000000,0.000000,0.000000 FootRight:0.000000,0.000000,0.000000,0.000000 HandLeft:-0.092342,0.894469,-0.044284,0.435244 HandRight:0.747211,-0.585740,-0.054498,0.309217 HandTipLeft:0.000000,0.000000,0.000000,0.000000 HandTipRight:0.000000,0.000000,0.000000,0.000000 Head:0.000000,0.000000,0.000000,0.000000 HipLeft:0.078829,-0.681737,0.714776,-0.134598 HipRight:-0.164871,0.678612,0.688122,-0.196956 KneeLeft:0.008285,-0.664193,0.022561,0.747175 KneeRight:0.001549,0.748014,0.032754,0.662873 Neck:-0.127524,0.029152,0.988497,-0.075902 ShoulderLeft:0.050714,0.760901,-0.646870,-0.004151 ShoulderRight:-0.117376,0.811727,0.541428,-0.184870 SpineBase:-0.059276,0.022353,0.997306,-0.036978 SpineMid:-0.092675,0.023580,0.994758,-0.036208 SpineShoulder:-0.127359,0.027144,0.989978,-0.054651 ThumbLeft:0.000000,0.000000,0.000000,0.000000 ThumbRight:0.000000,0.000000,0.000000,0.000000 WristLeft:-0.081036,0.895254,-0.092634,0.428220 WristRight:0.669123,-0.690513,-0.120441,0.246899 END:
KINECT_DATA POSITION:28.165161,-4.127478,-5.508828 HEAD_JOINT1:0.981314,0.185020,-0.000000,0.052820 LARM_JOINT2:0.816363,0.000000,-0.022485,-0.577102 LARM_JOINT3:0.970805,0.000000,-0.173955,-0.165158 LLEG_JOINT2:0.999913,0.009118,0.000000,0.009573 LLEG_JOINT4:0.995021,0.099613,0.000000,-0.003199 RARM_JOINT2:0.850616,0.000000,0.499871,0.163042 RARM_JOINT3:0.890913,0.000000,0.427557,-0.153194 RLEG_JOINT2:0.999134,0.023927,0.000000,-0.034052 RLEG_JOINT4:0.994279,0.095430,0.000000,0.047976 WAIST:0.998345,-0.000000,0.056291,0.011794 WAIST_JOINT0:0.992273,-0.000000,0.109313,0.058700 WAIST_JOINT1:0.997975,0.061792,-0.000000,0.015065 END:
KINECT_DATA_Sensor  AnkleLeft:0.077767,0.740396,-0.077078,-0.663193 AnkleRight:0.100928,0.764076,0.067267,0.633622 ElbowLeft:-0.027583,0.881426,-0.197475,-0.428171 ElbowRight:-0.545864,0.763415,-0.027429,0.344205 FootLeft:0.000000,0.000000,0.000000,0.000000 FootRight:0.000000,0.000000,0.000000,0.000000 HandLeft:-0.136831,0.888618,-0.046981,0.435234 HandRight:-0.218103,-0.073354,0.735345,-0.637431 HandTipLeft:0.000000,0.000000,0.000000,0.000000 HandTipRight:0.000000,0.000000,0.000000,0.000000 Head:0.000000,0.000000,0.000000,0.000000 HipLeft:0.080420,-0.679157,0.716880,-0.135500 HipRight:-0.161511,0.680859,0.687164,-0.195321 KneeLeft:0.007900,-0.666484,0.021558,0.745166 KneeRight:-0.001107,0.745911,0.032194,0.665266 Neck:-0.118778,0.029037,0.989484,-0.077261 ShoulderLeft:0.046763,0.767733,-0.639061,-0.000749 ShoulderRight:-0.107301,0.834042,0.512128,-0.174889 SpineBase:-0.056232,0.021747,0.997486,-0.037251 SpineMid:-0.086740,0.022878,0.995297,-0.036568 SpineShoulder:-0.118649,0.026568,0.991017,-0.055703 ThumbLeft:0.000000,0.000000,0.000000,0.000000 ThumbRight:0.000000,0.000000,0.000000,0.000000 WristLeft:-0.080615,0.896680,-0.091336,0.425586 WristRight:-0.218145,-0.087528,0.707777,-0.666186 END:
