EastLYD/RoboCupatHomeSim/InteractiveCleanUp/JapanOpen2016/Motion_Data/File37.dat
KINECT_DATA POSITION:40.783085,0.678413,-7.960713 HEAD_JOINT1:0.981495,0.172968,-0.000000,0.082161 LARM_JOINT2:0.814617,0.000000,-0.049166,-0.577911 LARM_JOINT3:0.957714,0.000000,-0.214674,-0.191569 LLEG_JOINT2:0.996815,0.035398,0.000000,0.071457 LLEG_JOINT4:0.995570,0.087706,0.000000,-0.033871 RARM_JOINT2:0.801230,0.000000,-0.034629,0.597354 RARM_JOINT3:0.977201,0.000000,0.175487,0.119506 RLEG_JOINT2:0.998917,0.007365,0.000000,-0.045952 RLEG_JOINT4:0.993750,0.107010,0.000000,0.031776 WAIST:0.999861,0.000000,-0.009336,-0.013794 WAIST_JOINT0:0.999738,0.000000,-0.022816,0.001660 WAIST_JOINT1:0.997709,0.067556,0.000000,-0.003701 END:
KINECT_DATA_Sensor  AnkleLeft:0.071842,0.723087,-0.102170,-0.679371 AnkleRight:0.063613,0.702260,0.098555,0.702190 ElbowLeft:-0.039179,0.908783,-0.145427,-0.389139 ElbowRight:0.003587,0.850259,0.186300,0.492279 FootLeft:0.000000,0.000000,0.000000,0.000000 FootRight:0.000000,0.000000,0.000000,0.000000 HandLeft:-0.035462,-0.575187,-0.210679,0.789631 HandRight:-0.086421,0.939200,-0.002340,0.332309 HandTipLeft:0.000000,0.000000,0.000000,0.000000 HandTipRight:0.000000,0.000000,0.000000,0.000000 Head:0.000000,0.000000,0.000000,0.000000 HipLeft:0.126788,-0.687739,0.693418,-0.173527 HipRight:-0.110871,0.670095,0.714197,-0.169123 KneeLeft:-0.016313,0.714128,-0.065628,-0.696741 KneeRight:-0.036645,0.699536,0.047714,0.712060 Neck:0.022665,-0.018015,0.996098,-0.083375 ShoulderLeft:0.006179,0.781959,-0.618543,0.076849 ShoulderRight:0.036222,0.781216,0.621897,-0.040418 SpineBase:0.009786,-0.016594,0.998871,-0.043429 SpineMid:0.015903,-0.016860,0.998792,-0.043326 SpineShoulder:0.022383,-0.017541,0.997658,-0.062209 ThumbLeft:0.000000,0.000000,0.000000,0.000000 ThumbRight:0.000000,0.000000,0.000000,0.000000 WristLeft:0.059137,-0.554690,-0.169003,0.812564 WristRight:-0.097897,0.937504,0.019922,0.333324 END:
KINECT_DATA POSITION:40.761589,0.667495,-7.964075 HEAD_JOINT1:0.981783,0.171384,-0.000000,0.082029 LARM_JOINT2:0.815095,0.000000,-0.050504,-0.577122 LARM_JOINT3:0.957263,0.000000,-0.219510,-0.188318 LLEG_JOINT2:0.996816,0.034722,0.000000,0.071780 LLEG_JOINT4:0.995329,0.090614,0.000000,-0.033297 RARM_JOINT2:0.801395,0.000000,-0.034376,0.597146 RARM_JOINT3:0.977465,0.000000,0.174276,0.119122 RLEG_JOINT2:0.998940,0.005974,0.000000,-0.045650 RLEG_JOINT4:0.993340,0.110441,0.000000,0.032850 WAIST:0.999856,0.000000,-0.009676,-0.013950 WAIST_JOINT0:0.999725,0.000000,-0.023394,0.001393 WAIST_JOINT1:0.997695,0.067763,0.000000,-0.003634 END:
KINECT_DATA_Sensor  AnkleLeft:0.072279,0.718968,-0.104684,-0.683302 AnkleRight:0.064647,0.692326,0.099910,0.711705 ElbowLeft:-0.040321,0.909081,-0.145696,-0.388226 ElbowRight:0.003985,0.851404,0.186601,0.490179 FootLeft:0.000000,0.000000,0.000000,0.000000 FootRight:0.000000,0.000000,0.000000,0.000000 HandLeft:-0.119133,0.934250,0.182677,-0.282157 HandRight:-0.081830,0.939392,0.007525,0.332851 HandTipLeft:0.000000,0.000000,0.000000,0.000000 HandTipRight:0.000000,0.000000,0.000000,0.000000 Head:0.000000,0.000000,0.000000,0.000000 HipLeft:0.126863,-0.687780,0.693290,-0.173819 HipRight:-0.110497,0.670015,0.714348,-0.169047 KneeLeft:-0.016935,0.714342,-0.065253,-0.696542 KneeRight:-0.037528,0.699279,0.046644,0.712338 Neck:0.023268,-0.018111,0.996060,-0.083631 ShoulderLeft:0.005424,0.782286,-0.618021,0.077777 ShoulderRight:0.036237,0.781320,0.621766,-0.040419 SpineBase:0.010135,-0.016721,0.998857,-0.043626 SpineMid:0.016375,-0.016993,0.998774,-0.043520 SpineShoulder:0.022985,-0.017621,0.997631,-0.062392 ThumbLeft:0.000000,0.000000,0.000000,0.000000 ThumbRight:0.000000,0.000000,0.000000,0.000000 WristLeft:-0.152414,0.938176,0.097592,-0.295079 WristRight:-0.098008,0.937694,0.018506,0.332840 END:
KINECT_DATA POSITION:40.753330,0.660029,-7.947111 HEAD_JOINT1:0.981979,0.170021,-0.000000,0.082528 LARM_JOINT2:0.815844,0.000000,-0.052121,-0.575918 LARM_JOINT3:0.956630,0.000000,-0.221471,-0.189232 LLEG_JOINT2:0.996804,0.034449,0.000000,0.072076 LLEG_JOINT4:0.995490,0.088866,0.000000,-0.033193 RARM_JOINT2:0.801057,0.000000,-0.033764,0.597635 RARM_JOINT3:0.977401,0.000000,0.173125,0.121309 RLEG_JOINT2:0.998948,0.005460,0.000000,-0.045523 RLEG_JOINT4:0.993632,0.107819,0.000000,0.032718 WAIST:0.999849,0.000000,-0.010168,-0.014104 WAIST_JOINT0:0.999696,0.000000,-0.024634,0.001119 WAIST_JOINT1:0.997675,0.068045,0.000000,-0.003794 END:
KINECT_DATA_Sensor  AnkleLeft:0.071663,0.726515,-0.102761,-0.675633 AnkleRight:0.063550,0.701225,0.097028,0.703442 ElbowLeft:-0.041452,0.910221,-0.146190,-0.385237 ElbowRight:0.004119,0.851530,0.186263,0.490088 FootLeft:0.000000,0.000000,0.000000,0.000000 FootRight:0.000000,0.000000,0.000000,0.000000 HandLeft:-0.097581,0.882842,0.200880,-0.413178 HandRight:-0.074453,0.944627,0.001424,0.319584 HandTipLeft:0.000000,0.000000,0.000000,0.000000 HandTipRight:0.000000,0.000000,0.000000,0.000000 Head:0.000000,0.000000,0.000000,0.000000 HipLeft:0.127280,-0.687767,0.693101,-0.174319 HipRight:-0.110254,0.669936,0.714473,-0.168990 KneeLeft:-0.017267,0.714678,-0.065143,-0.696200 KneeRight:-0.037898,0.698919,0.046315,0.712693 Neck:0.024510,-0.018560,0.995997,-0.083938 ShoulderLeft:0.004480,0.782857,-0.617139,0.079085 ShoulderRight:0.036899,0.781616,0.621397,-0.039759 SpineBase:0.010634,-0.016841,0.998844,-0.043739 SpineMid:0.017249,-0.017131,0.998752,-0.043627 SpineShoulder:0.024236,-0.017915,0.997581,-0.062645 ThumbLeft:0.000000,0.000000,0.000000,0.000000 ThumbRight:0.000000,0.000000,0.000000,0.000000 WristLeft:-0.137180,0.886487,0.119721,-0.425427 WristRight:-0.097699,0.942296,0.019442,0.319617 END:
KINECT_DATA POSITION:40.734745,0.641873,-7.864094 HEAD_JOINT1:0.982166,0.168120,-0.000000,0.084173 LARM_JOINT2:0.815664,0.000000,-0.055837,-0.575825 LARM_JOINT3:0.956848,0.000000,-0.220493,-0.189275 LLEG_JOINT2:0.996807,0.034636,0.000000,0.071953 LLEG_JOINT4:0.995342,0.090620,0.000000,-0.032903 RARM_JOINT2:0.800579,0.000000,-0.033986,0.598263 RARM_JOINT3:0.977804,0.000000,0.170857,0.121276 RLEG_JOINT2:0.998940,0.004184,0.000000,-0.045847 RLEG_JOINT4:0.993371,0.109864,0.000000,0.033832 WAIST:0.999832,0.000000,-0.011507,-0.014254 WAIST_JOINT0:0.999641,0.000000,-0.026795,0.000652 WAIST_JOINT1:0.997668,0.068118,0.000000,-0.004268 END:
KINECT_DATA_Sensor  AnkleLeft:0.072185,0.722584,-0.104683,-0.679488 AnkleRight:0.066336,0.712183,0.095854,0.692248 ElbowLeft:-0.043479,0.912301,-0.144211,-0.380814 ElbowRight:0.004809,0.851270,0.186209,0.490552 FootLeft:0.000000,0.000000,0.000000,0.000000 FootRight:0.000000,0.000000,0.000000,0.000000 HandLeft:-0.095123,0.877578,0.205927,-0.422377 HandRight:-0.066057,0.943142,0.005813,0.325707 HandTipLeft:0.000000,0.000000,0.000000,0.000000 HandTipRight:0.000000,0.000000,0.000000,0.000000 Head:0.000000,0.000000,0.000000,0.000000 HipLeft:0.128222,-0.687673,0.692862,-0.174950 HipRight:-0.109453,0.669952,0.714739,-0.168320 KneeLeft:-0.017044,0.715625,-0.065049,-0.695240 KneeRight:-0.039095,0.697941,0.045797,0.713619 Neck:0.026690,-0.019274,0.995921,-0.084010 ShoulderLeft:0.002543,0.783522,-0.616037,0.081154 ShoulderRight:0.037777,0.781836,0.621152,-0.038404 SpineBase:0.011965,-0.017236,0.998825,-0.043681 SpineMid:0.019004,-0.017543,0.998716,-0.043559 SpineShoulder:0.026424,-0.018463,0.997512,-0.062702 ThumbLeft:0.000000,0.000000,0.000000,0.000000 ThumbRight:0.000000,0.000000,0.000000,0.000000 WristLeft:-0.135329,0.881712,0.122807,-0.434958 WristRight:-0.097311,0.940502,0.018746,0.325016 END:
KINECT_DATA POSITION:40.552292,0.599158,-7.623851 HEAD_JOINT1:0.982117,0.166850,-0.000000,0.087223 LARM_JOINT2:0.816621,0.000000,-0.072076,-0.572656 LARM_JOINT3:0.948751,0.000000,-0.236577,-0.209529 LLEG_JOINT2:0.996429,0.037566,0.000000,0.075614 LLEG_JOINT4:0.995707,0.085999,0.000000,-0.034236 RARM_JOINT2:0.799386,0.000000,-0.035294,0.599780 RARM_JOINT3:0.977991,0.000000,0.167839,0.123953 RLEG_JOINT2:0.999107,0.006217,0.000000,-0.041794 RLEG_JOINT4:0.993326,0.110775,0.000000,0.032140 WAIST:0.999763,0.000000,-0.014637,-0.016123 WAIST_JOINT0:0.999507,0.000000,-0.031392,-0.000754 WAIST_JOINT1:0.997728,0.067233,0.000000,-0.004235 END:
KINECT_DATA_Sensor  AnkleLeft:0.070309,0.725334,-0.103986,-0.676856 AnkleRight:0.069519,0.712911,0.096905,0.691039 ElbowLeft:-0.053924,0.922131,-0.139212,-0.356913 ElbowRight:0.006112,0.851034,0.186094,0.490991 FootLeft:0.000000,0.000000,0.000000,0.000000 FootRight:0.000000,0.000000,0.000000,0.000000 HandLeft:-0.113429,0.875551,0.267694,-0.385854 HandRight:-0.053935,0.941587,0.003392,0.332405 HandTipLeft:0.000000,0.000000,0.000000,0.000000 HandTipRight:0.000000,0.000000,0.000000,0.000000 Head:0.000000,0.000000,0.000000,0.000000 HipLeft:0.131495,-0.688759,0.691061,-0.175368 HipRight:-0.108245,0.669135,0.716202,-0.166118 KneeLeft:-0.016515,0.717986,-0.068305,-0.692501 KneeRight:-0.036019,0.695821,0.045719,0.715853 Neck:0.031387,-0.020996,0.995803,-0.083372 ShoulderLeft:-0.002540,0.784589,-0.614167,0.084934 ShoulderRight:0.038729,0.781612,0.621581,-0.034929 SpineBase:0.015128,-0.019647,0.998802,-0.042185 SpineMid:0.022861,-0.019974,0.998655,-0.042031 SpineShoulder:0.031087,-0.020177,0.997408,-0.061679 ThumbLeft:0.000000,0.000000,0.000000,0.000000 ThumbRight:0.000000,0.000000,0.000000,0.000000 WristLeft:-0.142151,0.891419,0.144380,-0.405363 WristRight:-0.096478,0.938437,0.017650,0.331235 END:
KINECT_DATA POSITION:39.771168,0.636994,-7.093561 HEAD_JOINT1:0.982058,0.165685,-0.000000,0.090061 LARM_JOINT2:0.810586,0.000000,-0.140694,-0.568468 LARM_JOINT3:0.941805,0.000000,-0.263849,-0.208294 LLEG_JOINT2:0.994424,0.045820,0.000000,0.094980 LLEG_JOINT4:0.995678,0.082977,0.000000,-0.041710 RARM_JOINT2:0.795842,0.000000,-0.041543,0.604077 RARM_JOINT3:0.978153,0.000000,0.165528,0.125765 RLEG_JOINT2:0.999719,0.012560,0.000000,-0.020108 RLEG_JOINT4:0.994435,0.103351,0.000000,0.020452 WAIST:0.999470,0.000000,-0.019553,-0.026033 WAIST_JOINT0:0.999185,0.000000,-0.040203,-0.003705 WAIST_JOINT1:0.997953,0.063944,-0.000000,0.000472 END:
KINECT_DATA_Sensor  AnkleLeft:0.073294,0.737007,-0.108245,-0.663123 AnkleRight:0.068745,0.708577,0.095874,0.695702 ElbowLeft:-0.104380,0.921757,-0.100861,-0.359577 ElbowRight:0.008233,0.846711,0.186197,0.498340 FootLeft:0.000000,0.000000,0.000000,0.000000 FootRight:0.000000,0.000000,0.000000,0.000000 HandLeft:-0.012371,0.731868,0.337932,-0.591624 HandRight:-0.040382,0.946267,0.008135,0.320753 HandTipLeft:0.000000,0.000000,0.000000,0.000000 HandTipRight:0.000000,0.000000,0.000000,0.000000 Head:0.000000,0.000000,0.000000,0.000000 HipLeft:-0.138249,0.695967,-0.683243,0.172326 HipRight:-0.106459,0.663598,0.722968,-0.160066 KneeLeft:-0.018022,0.722231,-0.080605,-0.686703 KneeRight:-0.023268,0.692415,0.041604,0.719923 Neck:0.040570,-0.024642,0.995551,-0.081390 ShoulderLeft:-0.015266,0.787361,-0.609442,0.091703 ShoulderRight:0.037595,0.781701,0.621900,-0.027762 SpineBase:0.020364,-0.028845,0.998701,-0.036746 SpineMid:0.029686,-0.029187,0.998467,-0.036475 SpineShoulder:0.039969,-0.025731,0.997206,-0.057629 ThumbLeft:0.000000,0.000000,0.000000,0.000000 ThumbRight:0.000000,0.000000,0.000000,0.000000 WristLeft:-0.127272,0.732990,0.250418,-0.619530 WristRight:-0.096669,0.942677,0.019113,0.318826 END:
KINECT_DATA POSITION:38.990395,0.564624,-6.548131 HEAD_JOINT1:0.982493,0.161707,-0.000000,0.092509 LARM_JOINT2:0.800355,0.000000,-0.270633,-0.534967 LARM_JOINT3:0.951092,0.000000,-0.260488,-0.166040 LLEG_JOINT2:0.991676,0.054619,0.000000,0.116597 LLEG_JOINT4:0.995368,0.077262,0.000000,-0.057215 RARM_JOINT2:0.792419,0.000000,-0.046643,0.608191 RARM_JOINT3:0.977957,0.000000,0.167181,0.125101 RLEG_JOINT2:0.999889,0.014493,0.000000,-0.003568 RLEG_JOINT4:0.994391,0.104954,0.000000,0.013114 WAIST:0.998969,0.000000,-0.027801,-0.035887 WAIST_JOINT0:0.998327,0.000000,-0.056939,-0.010089 WAIST_JOINT1:0.998242,0.059201,-0.000000,0.002889 END:
KINECT_DATA_Sensor  AnkleLeft:0.075095,0.732117,-0.109162,-0.668168 AnkleRight:0.068524,0.682257,0.099850,0.721013 ElbowLeft:-0.196594,0.941560,-0.051299,-0.268670 ElbowRight:0.008560,0.843346,0.187114,0.503670 FootLeft:0.000000,0.000000,0.000000,0.000000 FootRight:0.000000,0.000000,0.000000,0.000000 HandLeft:-0.090203,-0.397057,-0.406074,0.818116 HandRight:-0.050878,0.932315,0.026749,0.357050 HandTipLeft:0.000000,0.000000,0.000000,0.000000 HandTipRight:0.000000,0.000000,0.000000,0.000000 Head:0.000000,0.000000,0.000000,0.000000 HipLeft:-0.148847,0.702139,-0.674427,0.173187 HipRight:-0.106006,0.658171,0.729337,-0.153756 KneeLeft:-0.021353,0.728850,-0.094704,-0.677756 KneeRight:-0.017297,0.686262,0.037918,0.726160 Neck:0.057819,-0.031597,0.994898,-0.076398 ShoulderLeft:-0.037865,0.793876,-0.597565,0.106038 ShoulderRight:0.036954,0.782128,0.621825,-0.015650 SpineBase:0.028831,-0.036712,0.998443,-0.030528 SpineMid:0.042288,-0.037120,0.997964,-0.030030 SpineShoulder:0.057022,-0.033319,0.996445,-0.052299 ThumbLeft:0.000000,0.000000,0.000000,0.000000 ThumbRight:0.000000,0.000000,0.000000,0.000000 WristLeft:-0.014179,-0.377126,-0.335819,0.863018 WristRight:-0.100215,0.929554,0.014669,0.354502 END:
KINECT_DATA POSITION:38.858650,0.540954,-6.514204 HEAD_JOINT1:0.982997,0.157758,-0.000000,0.093960 LARM_JOINT2:0.788059,0.000000,-0.355165,-0.502812 LARM_JOINT3:0.957250,0.000000,-0.247871,-0.149104 LLEG_JOINT2:0.991200,0.055026,0.000000,0.120395 LLEG_JOINT4:0.994604,0.084305,0.000000,-0.060467 RARM_JOINT2:0.791016,0.000000,-0.055539,0.609270 RARM_JOINT3:0.977392,0.000000,0.168552,0.127648 RLEG_JOINT2:0.999858,0.016560,0.000000,-0.003230 RLEG_JOINT4:0.994407,0.104623,0.000000,0.014414 WAIST:0.998690,0.000000,-0.034737,-0.037573 WAIST_JOINT0:0.997217,0.000000,-0.073066,-0.014848 WAIST_JOINT1:0.998397,0.056576,-0.000000,0.001488 END:
KINECT_DATA_Sensor  AnkleLeft:0.078056,0.723574,-0.115329,-0.676053 AnkleRight:0.074159,0.705173,0.097478,0.698376 ElbowLeft:-0.258789,0.947157,-0.026359,-0.187689 ElbowRight:0.011611,0.834797,0.189763,0.516690 FootLeft:0.000000,0.000000,0.000000,0.000000 FootRight:0.000000,0.000000,0.000000,0.000000 HandLeft:-0.204483,-0.169234,-0.418408,0.868609 HandRight:-0.040561,0.941256,0.028379,0.334045 HandTipLeft:0.000000,0.000000,0.000000,0.000000 HandTipRight:0.000000,0.000000,0.000000,0.000000 Head:0.000000,0.000000,0.000000,0.000000 HipLeft:-0.155702,0.701964,-0.671623,0.178677 HipRight:-0.104300,0.657779,0.730447,-0.151315 KneeLeft:-0.023477,0.733612,-0.096102,-0.672329 KneeRight:-0.016662,0.681052,0.040213,0.730940 Neck:0.073765,-0.036253,0.994094,-0.070863 ShoulderLeft:-0.055022,0.797079,-0.589233,0.120178 ShoulderRight:0.040442,0.781953,0.622006,-0.004796 SpineBase:0.035809,-0.037481,0.998214,-0.029692 SpineMid:0.053849,-0.038011,0.997404,-0.029010 SpineShoulder:0.073171,-0.036057,0.995408,-0.050094 ThumbLeft:0.000000,0.000000,0.000000,0.000000 ThumbRight:0.000000,0.000000,0.000000,0.000000 WristLeft:-0.128572,-0.149409,-0.348870,0.916207 WristRight:-0.101257,0.937905,0.019971,0.331184 END:
KINECT_DATA POSITION:38.875614,0.527755,-6.542754 HEAD_JOINT1:0.982656,0.158065,-0.000000,0.096963 LARM_JOINT2:0.786580,0.000000,-0.390676,-0.478188 LARM_JOINT3:0.960541,0.000000,-0.245311,-0.131086 LLEG_JOINT2:0.991510,0.058844,0.000000,0.115955 LLEG_JOINT4:0.994849,0.080069,0.000000,-0.062165 RARM_JOINT2:0.789249,0.000000,-0.054490,0.611651 RARM_JOINT3:0.977436,0.000000,0.166177,0.130400 RLEG_JOINT2:0.999876,0.012891,0.000000,-0.008994 RLEG_JOINT4:0.994097,0.107630,0.000000,0.013688 WAIST:0.998322,0.000000,-0.046022,-0.035142 WAIST_JOINT0:0.996129,0.000000,-0.086240,-0.017046 WAIST_JOINT1:0.998529,0.054102,0.000000,-0.003529 END:
KINECT_DATA_Sensor  AnkleLeft:0.078648,0.729533,-0.113403,-0.669877 AnkleRight:0.067551,0.665601,0.102153,0.736191 ElbowLeft:-0.292589,0.940579,-0.012663,-0.171878 ElbowRight:0.011641,0.832021,0.187608,0.521927 FootLeft:0.000000,0.000000,0.000000,0.000000 FootRight:0.000000,0.000000,0.000000,0.000000 HandLeft:-0.192533,-0.194568,-0.442541,0.853951 HandRight:-0.043948,0.944079,0.015737,0.326400 HandTipLeft:0.000000,0.000000,0.000000,0.000000 HandTipRight:0.000000,0.000000,0.000000,0.000000 Head:0.000000,0.000000,0.000000,0.000000 HipLeft:-0.161169,0.699566,-0.671742,0.182739 HipRight:-0.097473,0.660937,0.729867,-0.144761 KneeLeft:-0.020662,0.741371,-0.097050,-0.663720 KneeRight:-0.021374,0.672927,0.040173,0.738308 Neck:0.087057,-0.039440,0.993112,-0.067774 ShoulderLeft:-0.067746,0.797773,-0.584741,0.130562 ShoulderRight:0.044891,0.780731,0.623228,0.005550 SpineBase:0.046912,-0.037575,0.997767,-0.029127 SpineMid:0.066152,-0.038130,0.996676,-0.028397 SpineShoulder:0.086571,-0.037810,0.994377,-0.047867 ThumbLeft:0.000000,0.000000,0.000000,0.000000 ThumbRight:0.000000,0.000000,0.000000,0.000000 WristLeft:-0.119415,-0.173847,-0.376607,0.902045 WristRight:-0.100197,0.940433,0.022512,0.324098 END:
KINECT_DATA POSITION:39.012238,0.543187,-6.623757 HEAD_JOINT1:0.983216,0.153419,-0.000000,0.098734 LARM_JOINT2:0.776725,0.000000,-0.431763,-0.458562 LARM_JOINT3:0.965800,0.000000,-0.231631,-0.116521 LLEG_JOINT2:0.992184,0.058653,0.000000,0.110143 LLEG_JOINT4:0.994680,0.083147,0.000000,-0.060813 RARM_JOINT2:0.792307,0.000000,-0.051769,0.607922 RARM_JOINT3:0.977433,0.000000,0.162183,0.135353 RLEG_JOINT2:0.999824,0.007658,0.000000,-0.017126 RLEG_JOINT4:0.993362,0.113650,0.000000,0.017785 WAIST:0.997848,0.000000,-0.057413,-0.031668 WAIST_JOINT0:0.995538,0.000000,-0.093141,-0.015156 WAIST_JOINT1:0.998549,0.053233,0.000000,-0.008078 END:
KINECT_DATA_Sensor  AnkleLeft:0.078119,0.726469,-0.116801,-0.672680 AnkleRight:0.069437,0.661173,0.101731,0.740054 ElbowLeft:-0.322898,0.937473,0.004382,-0.129851 ElbowRight:0.010981,0.832789,0.191332,0.519359 FootLeft:0.000000,0.000000,0.000000,0.000000 FootRight:0.000000,0.000000,0.000000,0.000000 HandLeft:-0.232134,-0.139314,-0.450090,0.850955 HandRight:-0.037933,0.936472,0.017430,0.348250 HandTipLeft:0.000000,0.000000,0.000000,0.000000 HandTipRight:0.000000,0.000000,0.000000,0.000000 Head:0.000000,0.000000,0.000000,0.000000 HipLeft:-0.167495,0.695710,-0.672529,0.188776 HipRight:-0.091225,0.664375,0.728617,-0.139292 KneeLeft:-0.020300,0.748751,-0.094937,-0.655703 KneeRight:-0.028047,0.664620,0.040272,0.745568 Neck:0.092636,-0.039855,0.992609,-0.067510 ShoulderLeft:-0.068088,0.792877,-0.590974,0.132136 ShoulderRight:0.051758,0.780950,0.622302,0.013369 SpineBase:0.058120,-0.036355,0.997214,-0.029394 SpineMid:0.074666,-0.036838,0.996112,-0.028787 SpineShoulder:0.092171,-0.037926,0.993890,-0.047431 ThumbLeft:0.000000,0.000000,0.000000,0.000000 ThumbRight:0.000000,0.000000,0.000000,0.000000 WristLeft:-0.154871,-0.117046,-0.379170,0.904735 WristRight:-0.100954,0.932691,0.022455,0.345530 END:
KINECT_DATA POSITION:39.156464,0.600687,-6.789660 HEAD_JOINT1:0.982950,0.153392,-0.000000,0.101389 LARM_JOINT2:0.780718,0.000000,-0.454369,-0.428985 LARM_JOINT3:0.961563,0.000000,-0.245542,-0.122906 LLEG_JOINT2:0.992638,0.062499,0.000000,0.103749 LLEG_JOINT4:0.994430,0.081272,0.000000,-0.067116 RARM_JOINT2:0.790138,0.000000,-0.051413,0.610769 RARM_JOINT3:0.977887,0.000000,0.162793,0.131282 RLEG_JOINT2:0.999685,0.002807,0.000000,-0.024961 RLEG_JOINT4:0.992709,0.118594,0.000000,0.021545 WAIST:0.997137,0.000000,-0.070415,-0.027577 WAIST_JOINT0:0.993930,0.000000,-0.109000,-0.014914 WAIST_JOINT1:0.998516,0.052726,0.000000,-0.013661 END:
KINECT_DATA_Sensor  AnkleLeft:0.079197,0.704572,-0.117263,-0.695381 AnkleRight:0.077854,0.703334,0.095397,0.700114 ElbowLeft:-0.350590,0.927988,0.011277,-0.125685 ElbowRight:0.013318,0.826120,0.188900,0.530722 FootLeft:0.000000,0.000000,0.000000,0.000000 FootRight:0.000000,0.000000,0.000000,0.000000 HandLeft:-0.247347,-0.184470,-0.429067,0.848936 HandRight:-0.046883,0.942687,0.025308,0.329396 HandTipLeft:0.000000,0.000000,0.000000,0.000000 HandTipRight:0.000000,0.000000,0.000000,0.000000 Head:0.000000,0.000000,0.000000,0.000000 HipLeft:-0.175632,0.691113,-0.673092,0.196119 HipRight:-0.083419,0.668442,0.726953,-0.133287 KneeLeft:-0.017301,0.757328,-0.095938,-0.645717 KneeRight:-0.033705,0.655023,0.040196,0.753786 Neck:0.109777,-0.041309,0.990812,-0.067340 ShoulderLeft:-0.089232,0.790807,-0.586260,0.151533 ShoulderRight:0.053380,0.778847,0.624620,0.019944 SpineBase:0.070874,-0.035981,0.996385,-0.029995 SpineMid:0.089648,-0.036540,0.994871,-0.029311 SpineShoulder:0.109359,-0.038847,0.992123,-0.047158 ThumbLeft:0.000000,0.000000,0.000000,0.000000 ThumbRight:0.000000,0.000000,0.000000,0.000000 WristLeft:-0.165185,-0.150892,-0.413492,0.882593 WristRight:-0.098319,0.939532,0.027323,0.326904 END:
KINECT_DATA POSITION:39.490318,0.767560,-6.986415 HEAD_JOINT1:0.983415,0.150776,-0.000000,0.100801 LARM_JOINT2:0.777841,0.000000,-0.466418,-0.421210 LARM_JOINT3:0.952899,0.000000,-0.279353,-0.118094 LLEG_JOINT2:0.993855,0.065080,0.000000,0.089541 LLEG_JOINT4:0.995474,0.074615,0.000000,-0.058858 RARM_JOINT2:0.790520,0.000000,-0.048550,0.610509 RARM_JOINT3:0.977658,0.000000,0.162082,0.133847 RLEG_JOINT2:0.999315,-0.001680,-0.000000,-0.036967 RLEG_JOINT4:0.992346,0.121124,0.000000,0.024040 WAIST:0.996442,0.000000,-0.081708,-0.020657 WAIST_JOINT0:0.992622,0.000000,-0.120477,-0.013662 WAIST_JOINT1:0.998395,0.052835,0.000000,-0.020406 END:
KINECT_DATA_Sensor  AnkleLeft:0.084356,0.768893,-0.109011,-0.624343 AnkleRight:0.076333,0.697137,0.095359,0.706456 ElbowLeft:-0.359318,0.925766,0.021876,-0.115622 ElbowRight:0.014402,0.823001,0.188295,0.535730 FootLeft:0.000000,0.000000,0.000000,0.000000 FootRight:0.000000,0.000000,0.000000,0.000000 HandLeft:-0.348039,-0.144517,-0.473109,0.796336 HandRight:-0.041808,0.939024,0.021139,0.340645 HandTipLeft:0.000000,0.000000,0.000000,0.000000 HandTipRight:0.000000,0.000000,0.000000,0.000000 Head:0.000000,0.000000,0.000000,0.000000 HipLeft:-0.184332,0.683946,-0.675744,0.203983 HipRight:-0.077614,0.673514,0.723590,-0.129508 KneeLeft:-0.010993,0.764472,-0.093095,-0.637804 KneeRight:-0.039749,0.646594,0.041731,0.760655 Neck:0.121990,-0.041017,0.989347,-0.068030 ShoulderLeft:-0.100394,0.786900,-0.586384,0.163902 ShoulderRight:0.058608,0.776800,0.626468,0.026154 SpineBase:0.081782,-0.034108,0.995580,-0.031131 SpineMid:0.101292,-0.034712,0.993784,-0.030456 SpineShoulder:0.121653,-0.038016,0.990686,-0.047927 ThumbLeft:0.000000,0.000000,0.000000,0.000000 ThumbRight:0.000000,0.000000,0.000000,0.000000 WristLeft:-0.223660,-0.096537,-0.408195,0.879792 WristRight:-0.099534,0.935517,0.025743,0.337990 END:
KINECT_DATA POSITION:39.699474,0.963056,-7.123291 HEAD_JOINT1:0.984175,0.146875,-0.000000,0.099132 LARM_JOINT2:0.775896,0.000000,-0.479307,-0.410183 LARM_JOINT3:0.952991,0.000000,-0.281888,-0.111120 LLEG_JOINT2:0.994203,0.067041,0.000000,0.084064 LLEG_JOINT4:0.995569,0.070687,0.000000,-0.062021 RARM_JOINT2:0.798764,0.000000,-0.049061,0.599641 RARM_JOINT3:0.975073,0.000000,0.165985,0.147246 RLEG_JOINT2:0.999092,-0.004922,-0.000000,-0.042329 RLEG_JOINT4:0.992351,0.121664,0.000000,0.020930 WAIST:0.995588,0.000000,-0.092360,-0.016529 WAIST_JOINT0:0.991768,0.000000,-0.127321,-0.013592 WAIST_JOINT1:0.998285,0.052759,0.000000,-0.025357 END:
KINECT_DATA_Sensor  AnkleLeft:0.084825,0.772329,-0.106019,-0.620543 AnkleRight:0.066278,0.641134,0.101219,0.757832 ElbowLeft:-0.365153,0.907432,0.068403,-0.196344 ElbowRight:0.016018,0.827261,0.201204,0.524309 FootLeft:0.000000,0.000000,0.000000,0.000000 FootRight:0.000000,0.000000,0.000000,0.000000 HandLeft:-0.162921,-0.297094,-0.303815,0.890443 HandRight:-0.049758,0.930391,0.026743,0.362189 HandTipLeft:0.000000,0.000000,0.000000,0.000000 HandTipRight:0.000000,0.000000,0.000000,0.000000 Head:0.000000,0.000000,0.000000,0.000000 HipLeft:-0.191274,0.679192,-0.676943,0.209430 HipRight:-0.070772,0.676795,0.722184,-0.124057 KneeLeft:-0.009554,0.771183,-0.093715,-0.629605 KneeRight:-0.042447,0.638613,0.041150,0.767254 Neck:0.127443,-0.041237,0.988594,-0.068842 ShoulderLeft:-0.107121,0.784524,-0.586437,0.170700 ShoulderRight:0.059158,0.778700,0.623962,0.028246 SpineBase:0.092154,-0.033903,0.994664,-0.031645 SpineMid:0.109258,-0.034443,0.992931,-0.031057 SpineShoulder:0.127141,-0.037932,0.989965,-0.048639 ThumbLeft:0.000000,0.000000,0.000000,0.000000 ThumbRight:0.000000,0.000000,0.000000,0.000000 WristLeft:-0.194042,-0.233638,-0.510944,0.804175 WristRight:-0.102302,0.927232,0.023761,0.359459 END:
KINECT_DATA POSITION:39.760105,1.028544,-7.210922 HEAD_JOINT1:0.984712,0.143631,-0.000000,0.098553 LARM_JOINT2:0.787070,0.000000,-0.480899,-0.386338 LARM_JOINT3:0.958189,0.000000,-0.259737,-0.120047 LLEG_JOINT2:0.994194,0.067881,0.000000,0.083494 LLEG_JOINT4:0.995148,0.073922,0.000000,-0.064927 RARM_JOINT2:0.796290,0.000000,-0.045253,0.603220 RARM_JOINT3:0.975591,0.000000,0.165909,0.143860 RLEG_JOINT2:0.999052,-0.008400,-0.000000,-0.042715 RLEG_JOINT4:0.992355,0.122152,0.000000,0.017622 WAIST:0.995221,0.000000,-0.096382,-0.015659 WAIST_JOINT0:0.990624,0.000000,-0.135779,-0.015125 WAIST_JOINT1:0.998212,0.053194,0.000000,-0.027246 END:
KINECT_DATA_Sensor  AnkleLeft:0.078671,0.713596,-0.115481,-0.686481 AnkleRight:0.072601,0.712341,0.094433,0.691651 ElbowLeft:-0.385442,0.913108,0.029598,-0.129581 ElbowRight:0.015719,0.826595,0.197276,0.526854 FootLeft:0.000000,0.000000,0.000000,0.000000 FootRight:0.000000,0.000000,0.000000,0.000000 HandLeft:-0.163164,-0.324833,-0.416639,0.833230 HandRight:-0.061671,0.930841,0.025056,0.359311 HandTipLeft:0.000000,0.000000,0.000000,0.000000 HandTipRight:0.000000,0.000000,0.000000,0.000000 Head:0.000000,0.000000,0.000000,0.000000 HipLeft:-0.194097,0.677831,-0.676654,0.212161 HipRight:-0.068176,0.677646,0.721831,-0.122917 KneeLeft:-0.009595,0.773735,-0.094528,-0.626343 KneeRight:-0.044641,0.635657,0.038756,0.769704 Neck:0.136507,-0.042524,0.987285,-0.069472 ShoulderLeft:-0.113753,0.783225,-0.584608,0.178470 ShoulderRight:0.064682,0.775773,0.626768,0.033974 SpineBase:0.096083,-0.034458,0.994250,-0.032355 SpineMid:0.115740,-0.035092,0.992154,-0.031667 SpineShoulder:0.136225,-0.038908,0.988697,-0.049055 ThumbLeft:0.000000,0.000000,0.000000,0.000000 ThumbRight:0.000000,0.000000,0.000000,0.000000 WristLeft:-0.123792,-0.289850,-0.480444,0.818435 WristRight:-0.100673,0.928252,0.024284,0.357245 END:
KINECT_DATA POSITION:39.825703,1.071817,-7.308102 HEAD_JOINT1:0.984966,0.142198,-0.000000,0.098093 LARM_JOINT2:0.786425,0.000000,-0.481235,-0.387232 LARM_JOINT3:0.960320,0.000000,-0.250961,-0.121676 LLEG_JOINT2:0.994273,0.067958,0.000000,0.082476 LLEG_JOINT4:0.995129,0.072768,0.000000,-0.066507 RARM_JOINT2:0.797685,0.000000,-0.045584,0.601349 RARM_JOINT3:0.974732,0.000000,0.168557,0.146581 RLEG_JOINT2:0.999021,-0.008628,-0.000000,-0.043393 RLEG_JOINT4:0.992136,0.124130,0.000000,0.016079 WAIST:0.994953,0.000000,-0.099289,-0.014532 WAIST_JOINT0:0.990463,0.000000,-0.136906,-0.015450 WAIST_JOINT1:0.998152,0.053637,0.000000,-0.028553 END:
KINECT_DATA_Sensor  AnkleLeft:0.078885,0.715220,-0.114079,-0.684999 AnkleRight:0.072727,0.702129,0.096948,0.701660 ElbowLeft:-0.384345,0.914035,0.031253,-0.125863 ElbowRight:0.016758,0.826313,0.199760,0.526329 FootLeft:0.000000,0.000000,0.000000,0.000000 FootRight:0.000000,0.000000,0.000000,0.000000 HandLeft:-0.201216,-0.219423,-0.374836,0.877988 HandRight:-0.066498,0.945573,0.028792,0.317238 HandTipLeft:0.000000,0.000000,0.000000,0.000000 HandTipRight:0.000000,0.000000,0.000000,0.000000 Head:0.000000,0.000000,0.000000,0.000000 HipLeft:0.195189,-0.676302,0.676956,-0.215052 HipRight:-0.066035,0.678717,0.721179,-0.122001 KneeLeft:-0.009858,0.775506,-0.094676,-0.624124 KneeRight:-0.044366,0.633515,0.038443,0.771500 Neck:0.137615,-0.042453,0.987087,-0.070137 ShoulderLeft:-0.115401,0.782731,-0.584265,0.180687 ShoulderRight:0.064686,0.775572,0.627052,0.033324 SpineBase:0.098900,-0.034418,0.993951,-0.033090 SpineMid:0.117721,-0.035039,0.991898,-0.032432 SpineShoulder:0.137345,-0.038797,0.988511,-0.049772 ThumbLeft:0.000000,0.000000,0.000000,0.000000 ThumbRight:0.000000,0.000000,0.000000,0.000000 WristLeft:-0.183542,-0.187394,-0.459026,0.848817 WristRight:-0.100162,0.943223,0.028476,0.315415 END:
KINECT_DATA POSITION:39.823204,1.100460,-7.382071 HEAD_JOINT1:0.984987,0.141762,-0.000000,0.098507 LARM_JOINT2:0.777932,0.000000,-0.479257,-0.406368 LARM_JOINT3:0.957929,0.000000,-0.269231,-0.099432 LLEG_JOINT2:0.994285,0.067741,0.000000,0.082514 LLEG_JOINT4:0.995132,0.071811,0.000000,-0.067496 RARM_JOINT2:0.793973,0.000000,-0.042165,0.606490 RARM_JOINT3:0.975252,0.000000,0.169589,0.141855 RLEG_JOINT2:0.999006,-0.009069,-0.000000,-0.043638 RLEG_JOINT4:0.992491,0.121244,0.000000,0.016166 WAIST:0.994838,0.000000,-0.100476,-0.014211 WAIST_JOINT0:0.990200,0.000000,-0.138726,-0.016130 WAIST_JOINT1:0.998124,0.053962,0.000000,-0.028933 END:
KINECT_DATA_Sensor  AnkleLeft:0.079386,0.720905,-0.112312,-0.679249 AnkleRight:0.061232,0.634942,0.100918,0.763489 ElbowLeft:-0.366224,0.909354,0.067625,-0.185424 ElbowRight:0.015444,0.823026,0.193349,0.533860 FootLeft:0.000000,0.000000,0.000000,0.000000 FootRight:0.000000,0.000000,0.000000,0.000000 HandLeft:-0.105125,-0.342089,-0.325588,0.875166 HandRight:-0.076284,0.934364,0.017422,0.347622 HandTipLeft:0.000000,0.000000,0.000000,0.000000 HandTipRight:0.000000,0.000000,0.000000,0.000000 Head:0.000000,0.000000,0.000000,0.000000 HipLeft:0.195992,-0.675793,0.676928,-0.216008 HipRight:-0.065210,0.678976,0.721043,-0.121801 KneeLeft:-0.010375,0.776226,-0.094736,-0.623210 KneeRight:-0.044600,0.632643,0.038171,0.772215 Neck:0.140155,-0.042388,0.986710,-0.070450 ShoulderLeft:-0.115710,0.782711,-0.583750,0.182238 ShoulderRight:0.067758,0.773613,0.629034,0.035326 SpineBase:0.100052,-0.034570,0.993819,-0.033449 SpineMid:0.119557,-0.035220,0.991661,-0.032764 SpineShoulder:0.139880,-0.038882,0.988135,-0.050115 ThumbLeft:0.000000,0.000000,0.000000,0.000000 ThumbRight:0.000000,0.000000,0.000000,0.000000 WristLeft:-0.152151,-0.292153,-0.514629,0.791615 WristRight:-0.101420,0.932140,0.024890,0.346712 END:
KINECT_DATA POSITION:39.816402,1.109098,-7.377756 HEAD_JOINT1:0.984967,0.142248,-0.000000,0.098005 LARM_JOINT2:0.775868,0.000000,-0.484220,-0.404425 LARM_JOINT3:0.958795,0.000000,-0.265258,-0.101737 LLEG_JOINT2:0.994375,0.067387,0.000000,0.081710 LLEG_JOINT4:0.995221,0.073651,0.000000,-0.064120 RARM_JOINT2:0.792582,0.000000,-0.040803,0.608399 RARM_JOINT3:0.975436,0.000000,0.171673,0.138030 RLEG_JOINT2:0.998934,-0.009706,-0.000000,-0.045124 RLEG_JOINT4:0.992370,0.122022,0.000000,0.017645 WAIST:0.994890,0.000000,-0.100070,-0.013417 WAIST_JOINT0:0.990162,0.000000,-0.138990,-0.016133 WAIST_JOINT1:0.998113,0.053891,0.000000,-0.029430 END:
KINECT_DATA_Sensor  AnkleLeft:0.080997,0.740198,-0.113166,-0.657830 AnkleRight:0.061793,0.634694,0.100502,0.763704 ElbowLeft:-0.368812,0.908496,0.070731,-0.183328 ElbowRight:0.014719,0.822199,0.190623,0.536130 FootLeft:0.000000,0.000000,0.000000,0.000000 FootRight:0.000000,0.000000,0.000000,0.000000 HandLeft:-0.133090,-0.260986,-0.283309,0.913186 HandRight:-0.087044,0.930492,0.021626,0.355162 HandTipLeft:0.000000,0.000000,0.000000,0.000000 HandTipRight:0.000000,0.000000,0.000000,0.000000 Head:0.000000,0.000000,0.000000,0.000000 HipLeft:0.196177,-0.675289,0.677437,-0.215820 HipRight:-0.065645,0.679415,0.720526,-0.122179 KneeLeft:-0.010497,0.775924,-0.094521,-0.623617 KneeRight:-0.045482,0.632961,0.038346,0.771895 Neck:0.140831,-0.041998,0.986631,-0.070446 ShoulderLeft:-0.116434,0.782963,-0.583063,0.182892 ShoulderRight:0.067906,0.773241,0.629463,0.035548 SpineBase:0.099599,-0.034465,0.993871,-0.033349 SpineMid:0.119651,-0.035132,0.991657,-0.032647 SpineShoulder:0.140540,-0.038736,0.988051,-0.050033 ThumbLeft:0.000000,0.000000,0.000000,0.000000 ThumbRight:0.000000,0.000000,0.000000,0.000000 WristLeft:-0.208155,-0.205262,-0.496813,0.817139 WristRight:-0.102311,0.929185,0.023103,0.354421 END:
KINECT_DATA POSITION:39.786129,1.098371,-7.381403 HEAD_JOINT1:0.984512,0.144232,-0.000000,0.099669 LARM_JOINT2:0.777615,0.000000,-0.472357,-0.414962 LARM_JOINT3:0.961076,0.000000,-0.252129,-0.112979 LLEG_JOINT2:0.994335,0.067188,0.000000,0.082367 LLEG_JOINT4:0.995190,0.071714,0.000000,-0.066735 RARM_JOINT2:0.793139,0.000000,-0.043017,0.607520 RARM_JOINT3:0.975081,0.000000,0.171886,0.140258 RLEG_JOINT2:0.998909,-0.009659,-0.000000,-0.045692 RLEG_JOINT4:0.992146,0.123775,0.000000,0.018039 WAIST:0.994994,0.000000,-0.099091,-0.012964 WAIST_JOINT0:0.990426,0.000000,-0.137164,-0.015598 WAIST_JOINT1:0.998110,0.053809,0.000000,-0.029691 END:
KINECT_DATA_Sensor  AnkleLeft:0.078556,0.724793,-0.112305,-0.675197 AnkleRight:0.073900,0.713780,0.094072,0.690078 ElbowLeft:-0.362949,0.924792,0.034129,-0.108920 ElbowRight:0.015371,0.821023,0.192006,0.537418 FootLeft:0.000000,0.000000,0.000000,0.000000 FootRight:0.000000,0.000000,0.000000,0.000000 HandLeft:-0.226026,-0.275295,-0.444746,0.821782 HandRight:-0.077911,0.939533,0.020162,0.332867 HandTipLeft:0.000000,0.000000,0.000000,0.000000 HandTipRight:0.000000,0.000000,0.000000,0.000000 Head:0.000000,0.000000,0.000000,0.000000 HipLeft:0.196145,-0.675206,0.677673,-0.215368 HipRight:-0.066663,0.679670,0.720044,-0.123050 KneeLeft:-0.011337,0.775280,-0.095130,-0.624310 KneeRight:-0.045513,0.633731,0.038460,0.771255 Neck:0.139060,-0.041721,0.986895,-0.070429 ShoulderLeft:-0.116883,0.783598,-0.582249,0.182476 ShoulderRight:0.065122,0.774464,0.628375,0.033304 SpineBase:0.098593,-0.034521,0.993977,-0.033140 SpineMid:0.118249,-0.035170,0.991830,-0.032450 SpineShoulder:0.138757,-0.038593,0.988311,-0.049982 ThumbLeft:0.000000,0.000000,0.000000,0.000000 ThumbRight:0.000000,0.000000,0.000000,0.000000 WristLeft:-0.153869,-0.243688,-0.441551,0.849690 WristRight:-0.102791,0.937371,0.025383,0.331851 END:
KINECT_DATA POSITION:39.755962,0.989538,-7.316267 HEAD_JOINT1:0.984079,0.145889,-0.000000,0.101510 LARM_JOINT2:0.825904,0.000000,-0.390551,-0.406637 LARM_JOINT3:0.935834,0.000000,-0.297195,-0.189445 LLEG_JOINT2:0.994636,0.065311,0.000000,0.080215 LLEG_JOINT4:0.995775,0.072544,0.000000,-0.056302 RARM_JOINT2:0.791629,0.000000,-0.041507,0.609591 RARM_JOINT3:0.974945,0.000000,0.172957,0.139887 RLEG_JOINT2:0.998938,-0.009167,-0.000000,-0.045154 RLEG_JOINT4:0.992153,0.123368,0.000000,0.020328 WAIST:0.994998,0.000000,-0.098839,-0.014487 WAIST_JOINT0:0.990597,0.000000,-0.135727,-0.017189 WAIST_JOINT1:0.998172,0.053546,0.000000,-0.028043 END:
KINECT_DATA_Sensor  AnkleLeft:0.081424,0.776898,-0.109222,-0.614712 AnkleRight:0.073304,0.704908,0.093901,0.699224 ElbowLeft:-0.338895,0.932389,-0.058191,-0.111417 ElbowRight:0.014158,0.819845,0.189048,0.540291 FootLeft:0.000000,0.000000,0.000000,0.000000 FootRight:0.000000,0.000000,0.000000,0.000000 HandLeft:-0.195836,-0.211389,-0.365859,0.884935 HandRight:-0.082029,0.944458,0.011248,0.318032 HandTipLeft:0.000000,0.000000,0.000000,0.000000 HandTipRight:0.000000,0.000000,0.000000,0.000000 Head:0.000000,0.000000,0.000000,0.000000 HipLeft:0.196847,-0.676131,0.676582,-0.215255 HipRight:-0.068045,0.678559,0.720996,-0.122846 KneeLeft:-0.009834,0.775166,-0.091228,-0.625059 KneeRight:-0.045879,0.633758,0.039415,0.771163 Neck:0.137871,-0.041436,0.987100,-0.070056 ShoulderLeft:-0.114115,0.785587,-0.580870,0.180059 ShoulderRight:0.066043,0.773561,0.629367,0.033745 SpineBase:0.098459,-0.034524,0.994022,-0.032146 SpineMid:0.117578,-0.035136,0.991943,-0.031476 SpineShoulder:0.137553,-0.038483,0.988503,-0.049592 ThumbLeft:0.000000,0.000000,0.000000,0.000000 ThumbRight:0.000000,0.000000,0.000000,0.000000 WristLeft:-0.197162,-0.199524,-0.405676,0.869911 WristRight:-0.103749,0.942091,0.026055,0.317840 END:
KINECT_DATA POSITION:39.729427,0.877457,-7.265806 HEAD_JOINT1:0.983994,0.146420,-0.000000,0.101577 LARM_JOINT2:0.777958,0.000000,-0.434693,-0.453677 LARM_JOINT3:0.964242,0.000000,-0.238414,-0.115742 LLEG_JOINT2:0.994549,0.064121,0.000000,0.082228 LLEG_JOINT4:0.995274,0.078212,0.000000,-0.057546 RARM_JOINT2:0.791007,0.000000,-0.040446,0.610468 RARM_JOINT3:0.975327,0.000000,0.172821,0.137370 RLEG_JOINT2:0.998972,-0.010537,-0.000000,-0.044084 RLEG_JOINT4:0.992185,0.122857,0.000000,0.021792 WAIST:0.995030,0.000000,-0.098264,-0.016118 WAIST_JOINT0:0.991767,0.000000,-0.126645,-0.018934 WAIST_JOINT1:0.998204,0.053598,0.000000,-0.026751 END:
KINECT_DATA_Sensor  AnkleLeft:0.077238,0.732800,-0.117306,-0.665791 AnkleRight:0.063750,0.641949,0.098006,0.757781 ElbowLeft:-0.324261,0.936031,0.032479,-0.132836 ElbowRight:0.012999,0.819036,0.188092,0.541879 FootLeft:0.000000,0.000000,0.000000,0.000000 FootRight:0.000000,0.000000,0.000000,0.000000 HandLeft:-0.198606,-0.267026,-0.418915,0.844845 HandRight:-0.082654,0.929238,0.012365,0.359907 HandTipLeft:0.000000,0.000000,0.000000,0.000000 HandTipRight:0.000000,0.000000,0.000000,0.000000 Head:0.000000,0.000000,0.000000,0.000000 HipLeft:-0.197629,0.677306,-0.675387,0.214594 HipRight:-0.068981,0.677257,0.722047,-0.123340 KneeLeft:-0.010954,0.774834,-0.090454,-0.625564 KneeRight:-0.047433,0.634115,0.038848,0.770804 Neck:0.127820,-0.041186,0.988426,-0.070562 ShoulderLeft:-0.098012,0.788332,-0.584085,0.166648 ShoulderRight:0.068290,0.773203,0.629651,0.032139 SpineBase:0.097982,-0.034884,0.994065,-0.031909 SpineMid:0.112359,-0.035342,0.992542,-0.031401 SpineShoulder:0.127471,-0.038346,0.989849,-0.049797 ThumbLeft:0.000000,0.000000,0.000000,0.000000 ThumbRight:0.000000,0.000000,0.000000,0.000000 WristLeft:-0.138204,-0.243111,-0.413414,0.866536 WristRight:-0.105775,0.926960,0.021782,0.359281 END:
KINECT_DATA POSITION:39.748146,0.761084,-7.227552 HEAD_JOINT1:0.984022,0.146342,-0.000000,0.101410 LARM_JOINT2:0.777699,0.000000,-0.431005,-0.457623 LARM_JOINT3:0.961237,0.000000,-0.251562,-0.112867 LLEG_JOINT2:0.994175,0.067158,0.000000,0.084301 LLEG_JOINT4:0.995458,0.074736,0.000000,-0.058981 RARM_JOINT2:0.799713,0.000000,-0.047188,0.598526 RARM_JOINT3:0.972311,0.000000,0.174602,0.155323 RLEG_JOINT2:0.999028,-0.009025,-0.000000,-0.043151 RLEG_JOINT4:0.991963,0.124257,0.000000,0.023876 WAIST:0.995061,0.000000,-0.097607,-0.018065 WAIST_JOINT0:0.991683,0.000000,-0.126874,-0.021620 WAIST_JOINT1:0.998182,0.054567,0.000000,-0.025595 END:
KINECT_DATA_Sensor  AnkleLeft:0.084900,0.771918,-0.111029,-0.620167 AnkleRight:0.066412,0.641422,0.098918,0.757880 ElbowLeft:-0.319147,0.936622,0.034448,-0.140351 ElbowRight:0.016240,0.824772,0.204157,0.527074 FootLeft:0.000000,0.000000,0.000000,0.000000 FootRight:0.000000,0.000000,0.000000,0.000000 HandLeft:-0.145351,0.756651,0.479815,-0.419678 HandRight:-0.067159,0.952040,0.009010,0.298377 HandTipLeft:0.000000,0.000000,0.000000,0.000000 HandTipRight:0.000000,0.000000,0.000000,0.000000 Head:0.000000,0.000000,0.000000,0.000000 HipLeft:-0.196683,0.678377,-0.674542,0.214739 HipRight:-0.068947,0.675648,0.723462,-0.123891 KneeLeft:-0.009144,0.774625,-0.092755,-0.625516 KneeRight:-0.047067,0.634521,0.040434,0.770411 Neck:0.127097,-0.042137,0.988405,-0.071593 ShoulderLeft:-0.103247,0.790896,-0.578602,0.170424 ShoulderRight:0.062178,0.776243,0.626763,0.027371 SpineBase:0.097432,-0.035339,0.994084,-0.032489 SpineMid:0.111711,-0.035802,0.992581,-0.031978 SpineShoulder:0.126753,-0.039028,0.989876,-0.050549 ThumbLeft:0.000000,0.000000,0.000000,0.000000 ThumbRight:0.000000,0.000000,0.000000,0.000000 WristLeft:-0.184674,0.774384,0.394884,-0.458576 WristRight:-0.104665,0.948533,0.029538,0.297419 END:
KINECT_DATA POSITION:39.754025,0.736063,-7.195210 HEAD_JOINT1:0.983938,0.146834,-0.000000,0.101522 LARM_JOINT2:0.775479,0.000000,-0.435469,-0.457165 LARM_JOINT3:0.960767,0.000000,-0.255076,-0.108920 LLEG_JOINT2:0.994190,0.066938,0.000000,0.084293 LLEG_JOINT4:0.995189,0.075040,0.000000,-0.062987 RARM_JOINT2:0.797937,0.000000,-0.046214,0.600967 RARM_JOINT3:0.972410,0.000000,0.175827,0.153309 RLEG_JOINT2:0.998996,-0.008709,-0.000000,-0.043950 RLEG_JOINT4:0.992268,0.121609,0.000000,0.024795 WAIST:0.994979,0.000000,-0.098467,-0.017916 WAIST_JOINT0:0.991824,0.000000,-0.125672,-0.022185 WAIST_JOINT1:0.998141,0.054967,0.000000,-0.026343 END:
KINECT_DATA_Sensor  AnkleLeft:0.087558,0.770939,-0.108837,-0.621403 AnkleRight:0.064988,0.642343,0.097102,0.757458 ElbowLeft:-0.320373,0.936571,0.038446,-0.136811 ElbowRight:0.016221,0.823068,0.201864,0.530611 FootLeft:0.000000,0.000000,0.000000,0.000000 FootRight:0.000000,0.000000,0.000000,0.000000 HandLeft:-0.185028,-0.315553,-0.477524,0.798850 HandRight:-0.074548,0.938250,0.003236,0.337815 HandTipLeft:0.000000,0.000000,0.000000,0.000000 HandTipRight:0.000000,0.000000,0.000000,0.000000 Head:0.000000,0.000000,0.000000,0.000000 HipLeft:-0.197182,0.678091,-0.674493,0.215338 HipRight:-0.068117,0.675761,0.723449,-0.123809 KneeLeft:-0.009473,0.775160,-0.092668,-0.624860 KneeRight:-0.047196,0.633868,0.041179,0.770901 Neck:0.126111,-0.042567,0.988471,-0.072181 ShoulderLeft:-0.099339,0.790837,-0.580010,0.168217 ShoulderRight:0.064801,0.774613,0.628486,0.027931 SpineBase:0.098263,-0.035720,0.993975,-0.032881 SpineMid:0.111646,-0.036159,0.992561,-0.032397 SpineShoulder:0.125760,-0.039439,0.989959,-0.051085 ThumbLeft:0.000000,0.000000,0.000000,0.000000 ThumbRight:0.000000,0.000000,0.000000,0.000000 WristLeft:-0.119727,-0.299251,-0.423809,0.846463 WristRight:-0.105608,0.935078,0.025309,0.337397 END:
KINECT_DATA POSITION:39.703117,0.726372,-7.136905 HEAD_JOINT1:0.983779,0.147532,-0.000000,0.102041 LARM_JOINT2:0.777412,0.000000,-0.434070,-0.455208 LARM_JOINT3:0.957818,0.000000,-0.267112,-0.105995 LLEG_JOINT2:0.994093,0.067897,0.000000,0.084666 LLEG_JOINT4:0.995662,0.070905,0.000000,-0.060244 RARM_JOINT2:0.793823,0.000000,-0.043499,0.606592 RARM_JOINT3:0.973230,0.000000,0.176295,0.147454 RLEG_JOINT2:0.999037,-0.008456,-0.000000,-0.043063 RLEG_JOINT4:0.991992,0.124123,0.000000,0.023341 WAIST:0.994850,0.000000,-0.099678,-0.018375 WAIST_JOINT0:0.990948,0.000000,-0.131995,-0.024487 WAIST_JOINT1:0.998149,0.054794,0.000000,-0.026399 END:
KINECT_DATA_Sensor  AnkleLeft:0.083724,0.774708,-0.107911,-0.617392 AnkleRight:0.066264,0.638403,0.099712,0.760334 ElbowLeft:-0.320429,0.933096,0.043654,-0.157327 ElbowRight:0.014966,0.819585,0.195251,0.538454 FootLeft:0.000000,0.000000,0.000000,0.000000 FootRight:0.000000,0.000000,0.000000,0.000000 HandLeft:-0.161827,-0.363105,-0.485876,0.778390 HandRight:-0.081029,0.928772,-0.000841,0.361686 HandTipLeft:0.000000,0.000000,0.000000,0.000000 HandTipRight:0.000000,0.000000,0.000000,0.000000 Head:0.000000,0.000000,0.000000,0.000000 HipLeft:-0.198319,0.678093,-0.673954,0.215974 HipRight:-0.067700,0.675398,0.723893,-0.123421 KneeLeft:-0.008941,0.776009,-0.093294,-0.623720 KneeRight:-0.046728,0.632955,0.041019,0.771687 Neck:0.133292,-0.043436,0.987519,-0.071784 ShoulderLeft:-0.106626,0.792409,-0.574535,0.175009 ShoulderRight:0.066883,0.772965,0.630114,0.031755 SpineBase:0.099483,-0.036285,0.993838,-0.032747 SpineMid:0.115803,-0.036819,0.992069,-0.032146 SpineShoulder:0.132945,-0.040209,0.989010,-0.050685 ThumbLeft:0.000000,0.000000,0.000000,0.000000 ThumbRight:0.000000,0.000000,0.000000,0.000000 WristLeft:-0.097950,-0.344344,-0.443717,0.821552 WristRight:-0.107054,0.925870,0.021839,0.361701 END:
KINECT_DATA POSITION:39.607044,0.727496,-7.024837 HEAD_JOINT1:0.983695,0.147751,-0.000000,0.102534 LARM_JOINT2:0.777735,0.000000,-0.437345,-0.451505 LARM_JOINT3:0.954722,0.000000,-0.279784,-0.101130 LLEG_JOINT2:0.994026,0.067440,0.000000,0.085820 LLEG_JOINT4:0.995272,0.074629,0.000000,-0.062157 RARM_JOINT2:0.791428,0.000000,-0.041177,0.609874 RARM_JOINT3:0.974260,0.000000,0.174805,0.142337 RLEG_JOINT2:0.999083,-0.008258,-0.000000,-0.042008 RLEG_JOINT4:0.992189,0.122855,0.000000,0.021607 WAIST:0.994705,0.000000,-0.101235,-0.017715 WAIST_JOINT0:0.990552,0.000000,-0.134796,-0.025226 WAIST_JOINT1:0.998162,0.053929,0.000000,-0.027630 END:
KINECT_DATA_Sensor  AnkleLeft:0.074701,0.711909,-0.118203,-0.688210 AnkleRight:0.074166,0.702890,0.092761,0.701314 ElbowLeft:-0.324150,0.930553,0.047954,-0.163396 ElbowRight:0.014056,0.819659,0.191123,0.539846 FootLeft:0.000000,0.000000,0.000000,0.000000 FootRight:0.000000,0.000000,0.000000,0.000000 HandLeft:-0.170765,0.746612,0.505805,-0.396951 HandRight:-0.085723,0.935728,0.010233,0.341994 HandTipLeft:0.000000,0.000000,0.000000,0.000000 HandTipRight:0.000000,0.000000,0.000000,0.000000 Head:0.000000,0.000000,0.000000,0.000000 HipLeft:-0.200218,0.677495,-0.673962,0.216078 HipRight:-0.067372,0.675818,0.723668,-0.122618 KneeLeft:-0.010734,0.776979,-0.094114,-0.622359 KneeRight:-0.045397,0.631873,0.039916,0.772711 Neck:0.136656,-0.044028,0.987087,-0.071039 ShoulderLeft:-0.110186,0.793310,-0.571830,0.177563 ShoulderRight:0.067648,0.772194,0.630850,0.034188 SpineBase:0.100974,-0.037025,0.993684,-0.032016 SpineMid:0.118196,-0.037575,0.991783,-0.031369 SpineShoulder:0.136292,-0.040869,0.988568,-0.049869 ThumbLeft:0.000000,0.000000,0.000000,0.000000 ThumbRight:0.000000,0.000000,0.000000,0.000000 WristLeft:-0.195741,0.770090,0.423298,-0.435277 WristRight:-0.106053,0.933486,0.023182,0.341789 END:
KINECT_DATA POSITION:39.532749,0.742847,-6.982505 HEAD_JOINT1:0.983655,0.147494,-0.000000,0.103286 LARM_JOINT2:0.772108,0.000000,-0.453396,-0.445287 LARM_JOINT3:0.955411,0.000000,-0.281144,-0.090264 LLEG_JOINT2:0.993899,0.068962,0.000000,0.086070 LLEG_JOINT4:0.994940,0.079877,0.000000,-0.060935 RARM_JOINT2:0.796312,0.000000,-0.044184,0.603270 RARM_JOINT3:0.972665,0.000000,0.174530,0.153173 RLEG_JOINT2:0.999125,-0.006911,-0.000000,-0.041237 RLEG_JOINT4:0.992305,0.122395,0.000000,0.018732 WAIST:0.994779,0.000000,-0.100565,-0.017377 WAIST_JOINT0:0.991685,0.000000,-0.126797,-0.021968 WAIST_JOINT1:0.998164,0.053608,0.000000,-0.028195 END:
KINECT_DATA_Sensor  AnkleLeft:0.088384,0.771116,-0.117036,-0.619574 AnkleRight:0.065661,0.641707,0.100703,0.757470 ElbowLeft:-0.331592,0.922815,0.067743,-0.184040 ElbowRight:0.015559,0.825541,0.199366,0.527724 FootLeft:0.000000,0.000000,0.000000,0.000000 FootRight:0.000000,0.000000,0.000000,0.000000 HandLeft:-0.211870,-0.278120,-0.465719,0.812936 HandRight:-0.080984,0.929739,0.001021,0.359201 HandTipLeft:0.000000,0.000000,0.000000,0.000000 HandTipRight:0.000000,0.000000,0.000000,0.000000 Head:0.000000,0.000000,0.000000,0.000000 HipLeft:-0.199899,0.677540,-0.674339,0.215051 HipRight:-0.067389,0.675983,0.723520,-0.122572 KneeLeft:-0.010092,0.776636,-0.095706,-0.622555 KneeRight:-0.043645,0.632462,0.039910,0.772330 Neck:0.127615,-0.043608,0.988308,-0.071132 ShoulderLeft:-0.102037,0.792530,-0.576990,0.169018 ShoulderRight:0.063795,0.775529,0.627383,0.029606 SpineBase:0.100270,-0.037509,0.993746,-0.031766 SpineMid:0.113345,-0.037924,0.992339,-0.031269 SpineShoulder:0.127210,-0.040767,0.989779,-0.049926 ThumbLeft:0.000000,0.000000,0.000000,0.000000 ThumbRight:0.000000,0.000000,0.000000,0.000000 WristLeft:-0.160075,-0.253529,-0.466301,0.832263 WristRight:-0.105466,0.927054,0.020962,0.359179 END:
KINECT_DATA POSITION:39.432049,0.790880,-7.008696 HEAD_JOINT1:0.983301,0.148030,-0.000000,0.105860 LARM_JOINT2:0.770930,0.000000,-0.459101,-0.441467 LARM_JOINT3:0.949632,0.000000,-0.303190,-0.079217 LLEG_JOINT2:0.993742,0.068731,0.000000,0.088048 LLEG_JOINT4:0.994791,0.077178,0.000000,-0.066588 RARM_JOINT2:0.795025,0.000000,-0.042800,0.605064 RARM_JOINT3:0.972660,0.000000,0.174688,0.153023 RLEG_JOINT2:0.999218,-0.007940,-0.000000,-0.038744 RLEG_JOINT4:0.992134,0.124004,0.000000,0.017101 WAIST:0.994851,0.000000,-0.099751,-0.017899 WAIST_JOINT0:0.991712,0.000000,-0.126916,-0.019969 WAIST_JOINT1:0.998174,0.053621,0.000000,-0.027824 END:
KINECT_DATA_Sensor  AnkleLeft:0.081396,0.723744,-0.118221,-0.674977 AnkleRight:0.075500,0.711357,0.094096,0.692399 ElbowLeft:-0.336071,0.921908,0.069272,-0.179844 ElbowRight:0.015025,0.826367,0.197134,0.527285 FootLeft:0.000000,0.000000,0.000000,0.000000 FootRight:0.000000,0.000000,0.000000,0.000000 HandLeft:-0.488370,0.388269,-0.242282,0.742995 HandRight:-0.083335,0.935075,-0.003384,0.344496 HandTipLeft:0.000000,0.000000,0.000000,0.000000 HandTipRight:0.000000,0.000000,0.000000,0.000000 Head:0.000000,0.000000,0.000000,0.000000 HipLeft:-0.198618,0.678188,-0.674355,0.214142 HipRight:-0.066708,0.675743,0.723901,-0.122018 KneeLeft:-0.011302,0.776128,-0.096443,-0.623054 KneeRight:-0.043259,0.633183,0.037673,0.771873 Neck:0.127920,-0.043855,0.988270,-0.070966 ShoulderLeft:-0.102708,0.791930,-0.577593,0.169362 ShoulderRight:0.063500,0.776496,0.626196,0.030002 SpineBase:0.099482,-0.037720,0.993813,-0.031880 SpineMid:0.113094,-0.038154,0.992356,-0.031360 SpineShoulder:0.127511,-0.041025,0.989733,-0.049856 ThumbLeft:0.000000,0.000000,0.000000,0.000000 ThumbRight:0.000000,0.000000,0.000000,0.000000 WristLeft:-0.468818,0.387319,-0.212656,0.764834 WristRight:-0.105337,0.932448,0.021012,0.344968 END:
KINECT_DATA POSITION:39.386150,0.822556,-7.005763 HEAD_JOINT1:0.983218,0.148033,-0.000000,0.106628 LARM_JOINT2:0.768982,0.000000,-0.462835,-0.440966 LARM_JOINT3:0.953556,0.000000,-0.289685,-0.082545 LLEG_JOINT2:0.993783,0.067989,0.000000,0.088168 LLEG_JOINT4:0.994882,0.074903,0.000000,-0.067816 RARM_JOINT2:0.792080,0.000000,-0.040946,0.609042 RARM_JOINT3:0.973988,0.000000,0.172074,0.147439 RLEG_JOINT2:0.999190,-0.008202,-0.000000,-0.039387 RLEG_JOINT4:0.991761,0.126464,0.000000,0.020400 WAIST:0.994943,0.000000,-0.099023,-0.016795 WAIST_JOINT0:0.991532,0.000000,-0.128394,-0.019498 WAIST_JOINT1:0.998160,0.053456,0.000000,-0.028633 END:
KINECT_DATA_Sensor  AnkleLeft:0.078882,0.718167,-0.116448,-0.681509 AnkleRight:0.069906,0.639872,0.099618,0.758784 ElbowLeft:-0.335508,0.916322,0.080861,-0.203099 ElbowRight:0.014448,0.825544,0.191905,0.530510 FootLeft:0.000000,0.000000,0.000000,0.000000 FootRight:0.000000,0.000000,0.000000,0.000000 HandLeft:-0.459650,0.803184,0.178369,0.334368 HandRight:-0.076402,0.934735,0.003926,0.347013 HandTipLeft:0.000000,0.000000,0.000000,0.000000 HandTipRight:0.000000,0.000000,0.000000,0.000000 Head:0.000000,0.000000,0.000000,0.000000 HipLeft:-0.198162,0.677734,-0.675180,0.213401 HipRight:-0.066991,0.676488,0.723132,-0.122294 KneeLeft:-0.012560,0.775574,-0.096748,-0.623672 KneeRight:-0.043107,0.633809,0.037204,0.771390 Neck:0.129700,-0.043769,0.988059,-0.070714 ShoulderLeft:-0.103669,0.791589,-0.577574,0.170434 ShoulderRight:0.064838,0.776019,0.626568,0.031661 SpineBase:0.098692,-0.037505,0.993902,-0.031817 SpineMid:0.113581,-0.037978,0.992311,-0.031251 SpineShoulder:0.129299,-0.040922,0.989515,-0.049671 ThumbLeft:0.000000,0.000000,0.000000,0.000000 ThumbRight:0.000000,0.000000,0.000000,0.000000 WristLeft:-0.498412,0.800225,0.138650,0.303317 WristRight:-0.105395,0.931911,0.019003,0.346514 END:
KINECT_DATA POSITION:39.399124,0.828309,-6.998861 HEAD_JOINT1:0.983047,0.148236,-0.000000,0.107909 LARM_JOINT2:0.828939,0.000000,-0.348492,-0.437508 LARM_JOINT3:0.902095,0.000000,-0.408384,-0.139452 LLEG_JOINT2:0.993797,0.069192,0.000000,0.087059 LLEG_JOINT4:0.994910,0.074605,0.000000,-0.067741 RARM_JOINT2:0.794010,0.000000,-0.041233,0.606505 RARM_JOINT3:0.973480,0.000000,0.171195,0.151754 RLEG_JOINT2:0.999140,-0.007834,-0.000000,-0.040716 RLEG_JOINT4:0.992178,0.123492,0.000000,0.018218 WAIST:0.994912,0.000000,-0.099443,-0.016142 WAIST_JOINT0:0.991180,0.000000,-0.131092,-0.019441 WAIST_JOINT1:0.998170,0.053122,0.000000,-0.028892 END:
KINECT_DATA_Sensor  AnkleLeft:0.081997,0.731661,-0.115437,-0.666801 AnkleRight:0.066077,0.639028,0.100334,0.759743 ElbowLeft:-0.306271,0.915104,-0.021429,-0.261386 ElbowRight:0.014766,0.828309,0.194363,0.525270 FootLeft:0.000000,0.000000,0.000000,0.000000 FootRight:0.000000,0.000000,0.000000,0.000000 HandLeft:-0.470302,0.811606,0.160923,0.306945 HandRight:-0.073342,0.939584,0.000961,0.334368 HandTipLeft:0.000000,0.000000,0.000000,0.000000 HandTipRight:0.000000,0.000000,0.000000,0.000000 Head:0.000000,0.000000,0.000000,0.000000 HipLeft:-0.198265,0.677349,-0.675572,0.213288 HipRight:-0.066731,0.677031,0.722746,-0.121713 KneeLeft:-0.011429,0.775859,-0.097420,-0.623235 KneeRight:-0.043189,0.633453,0.038016,0.771639 Neck:0.132347,-0.043447,0.987760,-0.070190 ShoulderLeft:-0.108566,0.791673,-0.575469,0.174079 ShoulderRight:0.063399,0.777089,0.625364,0.032148 SpineBase:0.099084,-0.037146,0.993883,-0.031622 SpineMid:0.115088,-0.037651,0.992157,-0.031020 SpineShoulder:0.131953,-0.040672,0.989191,-0.049340 ThumbLeft:0.000000,0.000000,0.000000,0.000000 ThumbRight:0.000000,0.000000,0.000000,0.000000 WristLeft:-0.524296,0.782958,0.168677,0.289201 WristRight:-0.104749,0.936542,0.019760,0.333954 END:
KINECT_DATA POSITION:39.405098,0.838993,-6.995654 HEAD_JOINT1:0.983078,0.148170,-0.000000,0.107722 LARM_JOINT2:0.830031,0.000000,-0.344984,-0.438218 LARM_JOINT3:0.899883,0.000000,-0.412395,-0.141919 LLEG_JOINT2:0.993848,0.068115,0.000000,0.087329 LLEG_JOINT4:0.994638,0.076269,0.000000,-0.069840 RARM_JOINT2:0.790941,0.000000,-0.038699,0.610668 RARM_JOINT3:0.974179,0.000000,0.167934,0.150910 RLEG_JOINT2:0.999121,-0.008384,-0.000000,-0.041079 RLEG_JOINT4:0.992226,0.123218,0.000000,0.017467 WAIST:0.994880,0.000000,-0.099850,-0.015624 WAIST_JOINT0:0.991146,0.000000,-0.131307,-0.019675 WAIST_JOINT1:0.998168,0.052905,0.000000,-0.029366 END:
KINECT_DATA_Sensor  AnkleLeft:0.081620,0.721423,-0.116420,-0.677741 AnkleRight:0.065169,0.639044,0.100282,0.759815 ElbowLeft:-0.304794,0.914084,-0.022355,-0.266556 ElbowRight:0.013838,0.827079,0.188917,0.529207 FootLeft:0.000000,0.000000,0.000000,0.000000 FootRight:0.000000,0.000000,0.000000,0.000000 HandLeft:-0.456979,0.827282,0.189734,0.266038 HandRight:-0.063320,0.924195,-0.017981,0.376206 HandTipLeft:0.000000,0.000000,0.000000,0.000000 HandTipRight:0.000000,0.000000,0.000000,0.000000 Head:0.000000,0.000000,0.000000,0.000000 HipLeft:-0.198505,0.677002,-0.675840,0.213318 HipRight:-0.066502,0.677427,0.722446,-0.121419 KneeLeft:-0.012738,0.776035,-0.097121,-0.623037 KneeRight:-0.043469,0.633166,0.037599,0.771879 Neck:0.132819,-0.043394,0.987715,-0.069972 ShoulderLeft:-0.106404,0.791439,-0.576569,0.172828 ShoulderRight:0.066113,0.775567,0.626872,0.034016 SpineBase:0.099462,-0.037023,0.993852,-0.031550 SpineMid:0.115524,-0.037529,0.992113,-0.030947 SpineShoulder:0.132427,-0.040629,0.989137,-0.049198 ThumbLeft:0.000000,0.000000,0.000000,0.000000 ThumbRight:0.000000,0.000000,0.000000,0.000000 WristLeft:-0.518006,0.795241,0.197649,0.245350 WristRight:-0.105324,0.920577,0.014036,0.375829 END:
KINECT_DATA POSITION:39.405651,0.843176,-6.983113 HEAD_JOINT1:0.983086,0.148245,-0.000000,0.107538 LARM_JOINT2:0.766017,0.000000,-0.472883,-0.435430 LARM_JOINT3:0.956898,0.000000,-0.277624,-0.085272 LLEG_JOINT2:0.993840,0.068556,0.000000,0.087072 LLEG_JOINT4:0.994698,0.075140,0.000000,-0.070215 RARM_JOINT2:0.793556,0.000000,-0.040428,0.607153 RARM_JOINT3:0.973425,0.000000,0.171033,0.152287 RLEG_JOINT2:0.999139,-0.007110,-0.000000,-0.040864 RLEG_JOINT4:0.992564,0.120510,0.000000,0.017164 WAIST:0.994840,0.000000,-0.100278,-0.015418 WAIST_JOINT0:0.991578,0.000000,-0.128034,-0.019487 WAIST_JOINT1:0.998166,0.052788,0.000000,-0.029624 END:
KINECT_DATA_Sensor  AnkleLeft:0.081151,0.719652,-0.115925,-0.679763 AnkleRight:0.064437,0.641119,0.099114,0.758282 ElbowLeft:-0.342815,0.915522,0.085055,-0.192518 ElbowRight:0.014672,0.829014,0.193314,0.524547 FootLeft:0.000000,0.000000,0.000000,0.000000 FootRight:0.000000,0.000000,0.000000,0.000000 HandLeft:-0.479026,0.356436,-0.149844,0.788057 HandRight:-0.073979,0.930516,-0.002718,0.358692 HandTipLeft:0.000000,0.000000,0.000000,0.000000 HandTipRight:0.000000,0.000000,0.000000,0.000000 Head:0.000000,0.000000,0.000000,0.000000 HipLeft:-0.198728,0.676853,-0.675898,0.213400 HipRight:-0.066224,0.677632,0.722334,-0.121092 KneeLeft:-0.012443,0.776317,-0.097433,-0.622642 KneeRight:-0.042187,0.632843,0.038105,0.772190 Neck:0.128899,-0.043162,0.988236,-0.070091 ShoulderLeft:-0.103352,0.790664,-0.579155,0.169553 ShoulderRight:0.064177,0.776118,0.626532,0.031291 SpineBase:0.099878,-0.037006,0.993813,-0.031486 SpineMid:0.113796,-0.037444,0.992315,-0.030964 SpineShoulder:0.128500,-0.040436,0.989658,-0.049292 ThumbLeft:0.000000,0.000000,0.000000,0.000000 ThumbRight:0.000000,0.000000,0.000000,0.000000 WristLeft:-0.452678,0.396633,-0.233371,0.763743 WristRight:-0.105427,0.927496,0.015687,0.358316 END:
KINECT_DATA POSITION:39.386879,0.857662,-6.984341 HEAD_JOINT1:0.983025,0.148075,-0.000000,0.108331 LARM_JOINT2:0.766804,0.000000,-0.470670,-0.436442 LARM_JOINT3:0.953954,0.000000,-0.285358,-0.092425 LLEG_JOINT2:0.993750,0.070180,0.000000,0.086812 LLEG_JOINT4:0.994990,0.072501,0.000000,-0.068842 RARM_JOINT2:0.791280,0.000000,-0.039040,0.610207 RARM_JOINT3:0.974921,0.000000,0.169601,0.144101 RLEG_JOINT2:0.999143,-0.007195,-0.000000,-0.040758 RLEG_JOINT4:0.992058,0.124544,0.000000,0.017621 WAIST:0.994757,0.000000,-0.101093,-0.015460 WAIST_JOINT0:0.990954,0.000000,-0.132601,-0.020671 WAIST_JOINT1:0.998130,0.053238,0.000000,-0.030025 END:
KINECT_DATA_Sensor  AnkleLeft:0.080879,0.728093,-0.114898,-0.670923 AnkleRight:0.067666,0.637852,0.101236,0.760472 ElbowLeft:-0.342039,0.918628,0.079714,-0.181047 ElbowRight:0.014374,0.826542,0.190072,0.529617 FootLeft:0.000000,0.000000,0.000000,0.000000 FootRight:0.000000,0.000000,0.000000,0.000000 HandLeft:-0.471500,0.327075,-0.176410,0.799743 HandRight:-0.071545,0.926952,0.018317,0.367839 HandTipLeft:0.000000,0.000000,0.000000,0.000000 HandTipRight:0.000000,0.000000,0.000000,0.000000 Head:0.000000,0.000000,0.000000,0.000000 HipLeft:-0.199305,0.676630,-0.675737,0.214078 HipRight:-0.065601,0.677583,0.722458,-0.120960 KneeLeft:-0.011247,0.776908,-0.098473,-0.621764 KneeRight:-0.042192,0.632239,0.038025,0.772689 Neck:0.133955,-0.043987,0.987493,-0.070564 ShoulderLeft:-0.109306,0.790112,-0.577073,0.175393 ShoulderRight:0.065178,0.774533,0.628312,0.032768 SpineBase:0.100681,-0.037245,0.993714,-0.031772 SpineMid:0.116707,-0.037753,0.991959,-0.031166 SpineShoulder:0.133575,-0.040961,0.988951,-0.049559 ThumbLeft:0.000000,0.000000,0.000000,0.000000 ThumbRight:0.000000,0.000000,0.000000,0.000000 WristLeft:-0.450821,0.359467,-0.241530,0.780517 WristRight:-0.105645,0.924460,0.015080,0.366042 END:
KINECT_DATA POSITION:39.359009,0.905485,-6.947720 HEAD_JOINT1:0.983239,0.146352,-0.000000,0.108733 LARM_JOINT2:0.757676,0.000000,-0.484095,-0.437698 LARM_JOINT3:0.956664,0.000000,-0.280325,-0.078811 LLEG_JOINT2:0.993816,0.069700,0.000000,0.086444 LLEG_JOINT4:0.994972,0.073487,0.000000,-0.068049 RARM_JOINT2:0.793769,0.000000,-0.039785,0.606917 RARM_JOINT3:0.973270,0.000000,0.173776,0.150158 RLEG_JOINT2:0.999184,-0.008302,-0.000000,-0.039534 RLEG_JOINT4:0.992435,0.122153,0.000000,0.012303 WAIST:0.994640,0.000000,-0.102313,-0.014963 WAIST_JOINT0:0.992151,0.000000,-0.123707,-0.018225 WAIST_JOINT1:0.998071,0.054045,0.000000,-0.030538 END:
KINECT_DATA_Sensor  AnkleLeft:0.087542,0.770022,-0.110612,-0.622228 AnkleRight:0.063731,0.643978,0.101339,0.755619 ElbowLeft:-0.341586,0.915731,0.098828,-0.187052 ElbowRight:0.015081,0.826772,0.194319,0.527695 FootLeft:0.000000,0.000000,0.000000,0.000000 FootRight:0.000000,0.000000,0.000000,0.000000 HandLeft:-0.171114,-0.372447,-0.471957,0.780551 HandRight:-0.083216,0.928081,0.003258,0.362945 HandTipLeft:0.000000,0.000000,0.000000,0.000000 HandTipRight:0.000000,0.000000,0.000000,0.000000 Head:0.000000,0.000000,0.000000,0.000000 HipLeft:0.198626,-0.675802,0.676232,-0.215754 HipRight:-0.064264,0.678002,0.722249,-0.120578 KneeLeft:-0.011757,0.777608,-0.098191,-0.620924 KneeRight:-0.041896,0.631428,0.036070,0.773461 Neck:0.123825,-0.043094,0.988747,-0.072042 ShoulderLeft:-0.094622,0.788589,-0.585083,0.163867 ShoulderRight:0.066397,0.775972,0.626570,0.029469 SpineBase:0.101858,-0.037136,0.993575,-0.032465 SpineMid:0.112293,-0.037475,0.992450,-0.032073 SpineShoulder:0.123427,-0.040261,0.990230,-0.050885 ThumbLeft:0.000000,0.000000,0.000000,0.000000 ThumbRight:0.000000,0.000000,0.000000,0.000000 WristLeft:-0.127433,-0.340409,-0.506057,0.782170 WristRight:-0.105664,0.925720,0.016922,0.362756 END:
KINECT_DATA POSITION:39.301048,0.949183,-6.917334 HEAD_JOINT1:0.983397,0.146117,-0.000000,0.107612 LARM_JOINT2:0.760067,0.000000,-0.479484,-0.438627 LARM_JOINT3:0.952342,0.000000,-0.296510,-0.071596 LLEG_JOINT2:0.993897,0.067752,0.000000,0.087052 LLEG_JOINT4:0.994603,0.077529,0.000000,-0.068952 RARM_JOINT2:0.791259,0.000000,-0.038251,0.610283 RARM_JOINT3:0.973751,0.000000,0.174683,0.145928 RLEG_JOINT2:0.999179,-0.007957,-0.000000,-0.039728 RLEG_JOINT4:0.992061,0.125036,0.000000,0.013433 WAIST:0.994533,0.000000,-0.103388,-0.014658 WAIST_JOINT0:0.990885,0.000000,-0.133207,-0.020062 WAIST_JOINT1:0.998040,0.054609,0.000000,-0.030572 END:
KINECT_DATA_Sensor  AnkleLeft:0.089517,0.774376,-0.111694,-0.616322 AnkleRight:0.066488,0.637710,0.102689,0.760500 ElbowLeft:-0.337375,0.912414,0.102236,-0.207907 ElbowRight:0.015158,0.824089,0.190084,0.533399 FootLeft:0.000000,0.000000,0.000000,0.000000 FootRight:0.000000,0.000000,0.000000,0.000000 HandLeft:-0.214892,-0.298330,-0.452044,0.812697 HandRight:-0.089737,0.938095,0.004835,0.334517 HandTipLeft:0.000000,0.000000,0.000000,0.000000 HandTipRight:0.000000,0.000000,0.000000,0.000000 Head:0.000000,0.000000,0.000000,0.000000 HipLeft:0.198698,-0.675407,0.676313,-0.216669 HipRight:-0.063230,0.678369,0.722054,-0.120235 KneeLeft:-0.013820,0.778140,-0.097264,-0.620360 KneeRight:-0.041506,0.630614,0.036257,0.774137 Neck:0.134190,-0.043406,0.987365,-0.072239 ShoulderLeft:-0.107746,0.789525,-0.577923,0.176201 ShoulderRight:0.066966,0.775389,0.627073,0.032678 SpineBase:0.102913,-0.036794,0.993460,-0.033053 SpineMid:0.117966,-0.037291,0.991785,-0.032492 SpineShoulder:0.133829,-0.040364,0.988862,-0.051104 ThumbLeft:0.000000,0.000000,0.000000,0.000000 ThumbRight:0.000000,0.000000,0.000000,0.000000 WristLeft:-0.180116,-0.263041,-0.505969,0.801475 WristRight:-0.104703,0.936212,0.019950,0.334884 END:
KINECT_DATA POSITION:39.223831,1.000293,-6.930792 HEAD_JOINT1:0.983504,0.146227,-0.000000,0.106474 LARM_JOINT2:0.764688,0.000000,-0.475335,-0.435097 LARM_JOINT3:0.939771,0.000000,-0.336932,-0.057499 LLEG_JOINT2:0.993796,0.068951,0.000000,0.087269 LLEG_JOINT4:0.994488,0.078501,0.000000,-0.069507 RARM_JOINT2:0.793854,0.000000,-0.038005,0.606919 RARM_JOINT3:0.972155,0.000000,0.177562,0.152927 RLEG_JOINT2:0.999216,-0.009659,-0.000000,-0.038389 RLEG_JOINT4:0.991952,0.125972,0.000000,0.012707 WAIST:0.994532,0.000000,-0.103341,-0.015074 WAIST_JOINT0:0.990723,0.000000,-0.134426,-0.019939 WAIST_JOINT1:0.998028,0.054983,0.000000,-0.030282 END:
KINECT_DATA_Sensor  AnkleLeft:0.083501,0.729957,-0.118826,-0.667885 AnkleRight:0.065870,0.637090,0.102123,0.761149 ElbowLeft:-0.340056,0.913977,0.092413,-0.201167 ElbowRight:0.015068,0.827065,0.194082,0.527323 FootLeft:0.000000,0.000000,0.000000,0.000000 FootRight:0.000000,0.000000,0.000000,0.000000 HandLeft:-0.582966,0.737475,0.170000,0.295604 HandRight:-0.098697,0.928708,-0.011720,0.357243 HandTipLeft:0.000000,0.000000,0.000000,0.000000 HandTipRight:0.000000,0.000000,0.000000,0.000000 Head:0.000000,0.000000,0.000000,0.000000 HipLeft:0.198133,-0.675697,0.676152,-0.216784 HipRight:-0.062702,0.678130,0.722312,-0.120303 KneeLeft:-0.012916,0.778176,-0.098037,-0.620213 KneeRight:-0.042281,0.630720,0.034440,0.774092 Neck:0.135169,-0.043566,0.987203,-0.072535 ShoulderLeft:-0.111494,0.788996,-0.577040,0.179105 ShoulderRight:0.064732,0.776336,0.626208,0.031244 SpineBase:0.102882,-0.036923,0.993443,-0.033508 SpineMid:0.118429,-0.037443,0.991710,-0.032926 SpineShoulder:0.134810,-0.040521,0.988707,-0.051399 ThumbLeft:0.000000,0.000000,0.000000,0.000000 ThumbRight:0.000000,0.000000,0.000000,0.000000 WristLeft:-0.525896,0.770452,0.167122,0.319228 WristRight:-0.105580,0.927112,0.016983,0.359205 END:
KINECT_DATA POSITION:39.186398,1.074757,-6.923687 HEAD_JOINT1:0.983451,0.146841,-0.000000,0.106126 LARM_JOINT2:0.763017,0.000000,-0.480791,-0.432023 LARM_JOINT3:0.932468,0.000000,-0.355528,-0.064053 LLEG_JOINT2:0.993881,0.068743,0.000000,0.086457 LLEG_JOINT4:0.994605,0.078447,0.000000,-0.067869 RARM_JOINT2:0.792045,0.000000,-0.036049,0.609397 RARM_JOINT3:0.972986,0.000000,0.174987,0.150595 RLEG_JOINT2:0.999242,-0.010346,-0.000000,-0.037532 RLEG_JOINT4:0.991937,0.126141,0.000000,0.012231 WAIST:0.994584,0.000000,-0.102827,-0.015155 WAIST_JOINT0:0.991627,0.000000,-0.127760,-0.018802 WAIST_JOINT1:0.998037,0.054839,0.000000,-0.030231 END:
KINECT_DATA_Sensor  AnkleLeft:0.082423,0.727573,-0.119293,-0.670533 AnkleRight:0.066064,0.641108,0.101310,0.757860 ElbowLeft:-0.338874,0.902706,0.111127,-0.240703 ElbowRight:0.012902,0.823795,0.190861,0.533636 FootLeft:0.000000,0.000000,0.000000,0.000000 FootRight:0.000000,0.000000,0.000000,0.000000 HandLeft:-0.524715,0.282617,-0.159237,0.787048 HandRight:-0.083246,0.938289,-0.013337,0.335419 HandTipLeft:0.000000,0.000000,0.000000,0.000000 HandTipRight:0.000000,0.000000,0.000000,0.000000 Head:0.000000,0.000000,0.000000,0.000000 HipLeft:-0.198397,0.676323,-0.675933,0.215269 HipRight:-0.062543,0.678221,0.722281,-0.120060 KneeLeft:-0.012317,0.777872,-0.097311,-0.620720 KneeRight:-0.042343,0.631165,0.033382,0.773772 Neck:0.128463,-0.043128,0.988116,-0.072559 ShoulderLeft:-0.101208,0.788236,-0.582573,0.170440 ShoulderRight:0.066179,0.775153,0.627598,0.029626 SpineBase:0.102369,-0.037119,0.993493,-0.033377 SpineMid:0.114850,-0.037536,0.992128,-0.032908 SpineShoulder:0.128081,-0.040284,0.989605,-0.051516 ThumbLeft:0.000000,0.000000,0.000000,0.000000 ThumbRight:0.000000,0.000000,0.000000,0.000000 WristLeft:-0.523165,0.332975,-0.261990,0.739450 WristRight:-0.107983,0.935319,0.019741,0.336344 END:
KINECT_DATA POSITION:39.203651,1.098347,-6.915772 HEAD_JOINT1:0.983152,0.148242,-0.000000,0.106939 LARM_JOINT2:0.761665,0.000000,-0.483813,-0.431035 LARM_JOINT3:0.934824,0.000000,-0.349055,-0.065309 LLEG_JOINT2:0.993985,0.068875,0.000000,0.085142 LLEG_JOINT4:0.994582,0.079348,0.000000,-0.067154 RARM_JOINT2:0.796267,0.000000,-0.035362,0.603911 RARM_JOINT3:0.972433,0.000000,0.171217,0.158302 RLEG_JOINT2:0.999230,-0.010282,-0.000000,-0.037874 RLEG_JOINT4:0.991730,0.127543,0.000000,0.014323 WAIST:0.994520,0.000000,-0.103526,-0.014562 WAIST_JOINT0:0.992085,0.000000,-0.124265,-0.018062 WAIST_JOINT1:0.998056,0.054137,0.000000,-0.030889 END:
KINECT_DATA_Sensor  AnkleLeft:0.086076,0.745042,-0.118020,-0.650826 AnkleRight:0.069050,0.642635,0.100134,0.756456 ElbowLeft:-0.342666,0.906742,0.107349,-0.221079 ElbowRight:0.012014,0.829301,0.196759,0.522878 FootLeft:0.000000,0.000000,0.000000,0.000000 FootRight:0.000000,0.000000,0.000000,0.000000 HandLeft:-0.323082,-0.178145,-0.445033,0.815983 HandRight:-0.068695,0.940703,-0.015312,0.331850 HandTipLeft:0.000000,0.000000,0.000000,0.000000 HandTipRight:0.000000,0.000000,0.000000,0.000000 Head:0.000000,0.000000,0.000000,0.000000 HipLeft:0.197877,-0.675734,0.676497,-0.215823 HipRight:-0.062055,0.678736,0.721994,-0.119129 KneeLeft:-0.011709,0.778308,-0.096980,-0.620238 KneeRight:-0.042074,0.630639,0.033293,0.774219 Neck:0.124104,-0.042905,0.988722,-0.072016 ShoulderLeft:-0.097541,0.788211,-0.584482,0.166102 ShoulderRight:0.064005,0.777051,0.625562,0.027690 SpineBase:0.103036,-0.037048,0.993439,-0.033000 SpineMid:0.113034,-0.037379,0.992352,-0.032625 SpineShoulder:0.123718,-0.040086,0.990187,-0.051154 ThumbLeft:0.000000,0.000000,0.000000,0.000000 ThumbRight:0.000000,0.000000,0.000000,0.000000 WristLeft:-0.294783,-0.140800,-0.499194,0.802548 WristRight:-0.108369,0.936903,0.019989,0.331766 END:
KINECT_DATA POSITION:39.199005,1.119392,-6.933248 HEAD_JOINT1:0.982829,0.149392,-0.000000,0.108304 LARM_JOINT2:0.771626,0.000000,-0.474917,-0.423139 LARM_JOINT3:0.922517,0.000000,-0.376686,-0.084087 LLEG_JOINT2:0.993981,0.068435,0.000000,0.085547 LLEG_JOINT4:0.994459,0.080419,0.000000,-0.067700 RARM_JOINT2:0.793654,0.000000,-0.033089,0.607469 RARM_JOINT3:0.973259,0.000000,0.167486,0.157211 RLEG_JOINT2:0.999227,-0.009372,-0.000000,-0.038173 RLEG_JOINT4:0.992070,0.124827,0.000000,0.014690 WAIST:0.994494,0.000000,-0.103788,-0.014501 WAIST_JOINT0:0.991093,0.000000,-0.131697,-0.019743 WAIST_JOINT1:0.998071,0.053652,0.000000,-0.031251 END:
KINECT_DATA_Sensor  AnkleLeft:0.084340,0.733176,-0.120025,-0.664028 AnkleRight:0.067159,0.638447,0.099298,0.760273 ElbowLeft:-0.352255,0.915589,0.075848,-0.178493 ElbowRight:0.011328,0.830092,0.192228,0.523323 FootLeft:0.000000,0.000000,0.000000,0.000000 FootRight:0.000000,0.000000,0.000000,0.000000 HandLeft:-0.605889,0.335809,-0.204055,0.691732 HandRight:-0.060283,0.945701,-0.019068,0.318829 HandTipLeft:0.000000,0.000000,0.000000,0.000000 HandTipRight:0.000000,0.000000,0.000000,0.000000 Head:0.000000,0.000000,0.000000,0.000000 HipLeft:0.198102,-0.675746,0.676427,-0.215802 HipRight:-0.061857,0.678869,0.721925,-0.118888 KneeLeft:-0.012372,0.778456,-0.096935,-0.620045 KneeRight:-0.041506,0.630421,0.034063,0.774394 Neck:0.132360,-0.043927,0.987670,-0.071132 ShoulderLeft:-0.107591,0.788540,-0.579783,0.174586 ShoulderRight:0.064967,0.775337,0.627413,0.031383 SpineBase:0.103289,-0.037222,0.993411,-0.032883 SpineMid:0.117260,-0.037681,0.991859,-0.032356 SpineShoulder:0.132000,-0.040785,0.989127,-0.050409 ThumbLeft:0.000000,0.000000,0.000000,0.000000 ThumbRight:0.000000,0.000000,0.000000,0.000000 WristLeft:-0.534685,0.365472,-0.192990,0.737087 WristRight:-0.107921,0.941601,0.019266,0.318387 END:
KINECT_DATA POSITION:39.185200,1.168093,-6.981575 HEAD_JOINT1:0.982670,0.149765,-0.000000,0.109225 LARM_JOINT2:0.794054,0.000000,-0.458091,-0.399538 LARM_JOINT3:0.903710,0.000000,-0.408800,-0.127239 LLEG_JOINT2:0.993972,0.067868,0.000000,0.086102 LLEG_JOINT4:0.994623,0.078177,0.000000,-0.067915 RARM_JOINT2:0.797594,0.000000,-0.034004,0.602235 RARM_JOINT3:0.972047,0.000000,0.169353,0.162618 RLEG_JOINT2:0.999270,-0.009060,-0.000000,-0.037108 RLEG_JOINT4:0.991772,0.127100,0.000000,0.015315 WAIST:0.994473,0.000000,-0.103921,-0.014944 WAIST_JOINT0:0.991357,0.000000,-0.129721,-0.019586 WAIST_JOINT1:0.998077,0.053638,0.000000,-0.031077 END:
KINECT_DATA_Sensor  AnkleLeft:0.082577,0.732932,-0.117806,-0.664916 AnkleRight:0.078458,0.702515,0.093308,0.701150 ElbowLeft:-0.367972,0.918574,0.025770,-0.141967 ElbowRight:0.012185,0.835411,0.198600,0.512345 FootLeft:0.000000,0.000000,0.000000,0.000000 FootRight:0.000000,0.000000,0.000000,0.000000 HandLeft:-0.242291,-0.294864,-0.572600,0.725589 HandRight:-0.067930,0.934334,-0.011876,0.349664 HandTipLeft:0.000000,0.000000,0.000000,0.000000 HandTipRight:0.000000,0.000000,0.000000,0.000000 Head:0.000000,0.000000,0.000000,0.000000 HipLeft:-0.198779,0.676355,-0.675890,0.214949 HipRight:-0.061486,0.678665,0.722195,-0.118606 KneeLeft:-0.012873,0.778539,-0.096533,-0.619995 KneeRight:-0.040904,0.630330,0.033747,0.774514 Neck:0.129664,-0.043999,0.988019,-0.071201 ShoulderLeft:-0.106837,0.788742,-0.580080,0.173143 ShoulderRight:0.062181,0.777094,0.625636,0.028941 SpineBase:0.103444,-0.037416,0.993386,-0.032929 SpineMid:0.115998,-0.037829,0.991998,-0.032454 SpineShoulder:0.129295,-0.040896,0.989475,-0.050498 ThumbLeft:0.000000,0.000000,0.000000,0.000000 ThumbRight:0.000000,0.000000,0.000000,0.000000 WristLeft:-0.239343,-0.323447,-0.515846,0.756307 WristRight:-0.108110,0.930646,0.014361,0.349292 END:
KINECT_DATA POSITION:39.158424,1.211484,-7.028210 HEAD_JOINT1:0.982746,0.149232,-0.000000,0.109269 LARM_JOINT2:0.763707,0.000000,-0.485973,-0.424950 LARM_JOINT3:0.930678,0.000000,-0.357572,-0.077331 LLEG_JOINT2:0.993965,0.067048,0.000000,0.086821 LLEG_JOINT4:0.994583,0.076990,0.000000,-0.069843 RARM_JOINT2:0.794926,0.000000,-0.032476,0.605836 RARM_JOINT3:0.972508,0.000000,0.168037,0.161221 RLEG_JOINT2:0.999283,-0.009607,-0.000000,-0.036632 RLEG_JOINT4:0.992167,0.124016,0.000000,0.014976 WAIST:0.994558,0.000000,-0.103133,-0.014771 WAIST_JOINT0:0.991813,0.000000,-0.126238,-0.019243 WAIST_JOINT1:0.998070,0.053728,0.000000,-0.031128 END:
KINECT_DATA_Sensor  AnkleLeft:0.081542,0.727986,-0.116100,-0.670752 AnkleRight:0.067507,0.641593,0.097268,0.757852 ElbowLeft:-0.352221,0.913442,0.091071,-0.182401 ElbowRight:0.011477,0.833988,0.194077,0.516397 FootLeft:0.000000,0.000000,0.000000,0.000000 FootRight:0.000000,0.000000,0.000000,0.000000 HandLeft:-0.247879,-0.270825,-0.543602,0.754789 HandRight:-0.063430,0.925917,-0.026138,0.371444 HandTipLeft:0.000000,0.000000,0.000000,0.000000 HandTipRight:0.000000,0.000000,0.000000,0.000000 Head:0.000000,0.000000,0.000000,0.000000 HipLeft:-0.198324,0.676398,-0.676058,0.214707 HipRight:-0.061932,0.678766,0.721944,-0.119320 KneeLeft:-0.013990,0.777985,-0.096499,-0.620670 KneeRight:-0.040925,0.630994,0.032888,0.774009 Neck:0.126288,-0.043633,0.988460,-0.071381 ShoulderLeft:-0.099716,0.788080,-0.583827,0.167728 ShoulderRight:0.064829,0.775525,0.627304,0.029098 SpineBase:0.102643,-0.037397,0.993464,-0.033104 SpineMid:0.113925,-0.037770,0.992233,-0.032677 SpineShoulder:0.125902,-0.040708,0.989910,-0.050687 ThumbLeft:0.000000,0.000000,0.000000,0.000000 ThumbRight:0.000000,0.000000,0.000000,0.000000 WristLeft:-0.232388,-0.272588,-0.522453,0.773780 WristRight:-0.108352,0.922097,0.011302,0.371307 END:
KINECT_DATA POSITION:39.137806,1.241823,-7.070255 HEAD_JOINT1:0.982744,0.149695,-0.000000,0.108658 LARM_JOINT2:0.765521,0.000000,-0.485480,-0.422241 LARM_JOINT3:0.928705,0.000000,-0.361303,-0.083473 LLEG_JOINT2:0.993970,0.066524,0.000000,0.087170 LLEG_JOINT4:0.994533,0.077494,0.000000,-0.069993 RARM_JOINT2:0.795336,0.000000,-0.033864,0.605222 RARM_JOINT3:0.972364,0.000000,0.168015,0.162108 RLEG_JOINT2:0.999292,-0.008636,-0.000000,-0.036610 RLEG_JOINT4:0.992119,0.124417,0.000000,0.014811 WAIST:0.994701,0.000000,-0.101774,-0.014582 WAIST_JOINT0:0.992358,0.000000,-0.122098,-0.017843 WAIST_JOINT1:0.998088,0.053646,0.000000,-0.030687 END:
KINECT_DATA_Sensor  AnkleLeft:0.080579,0.722238,-0.116797,-0.676932 AnkleRight:0.068696,0.643904,0.098056,0.755681 ElbowLeft:-0.354650,0.912687,0.087512,-0.183212 ElbowRight:0.011945,0.833924,0.194530,0.516320 FootLeft:0.000000,0.000000,0.000000,0.000000 FootRight:0.000000,0.000000,0.000000,0.000000 HandLeft:-0.523277,0.766180,0.250459,0.276441 HandRight:-0.059284,0.931966,-0.025461,0.356757 HandTipLeft:0.000000,0.000000,0.000000,0.000000 HandTipRight:0.000000,0.000000,0.000000,0.000000 Head:0.000000,0.000000,0.000000,0.000000 HipLeft:0.196684,-0.676281,0.676635,-0.214767 HipRight:-0.062888,0.678835,0.721698,-0.119914 KneeLeft:-0.014584,0.777084,-0.096483,-0.621787 KneeRight:-0.040056,0.632023,0.033306,0.773197 Neck:0.121765,-0.042789,0.989060,-0.071429 ShoulderLeft:-0.094686,0.787707,-0.586530,0.162895 ShoulderRight:0.063822,0.776680,0.626061,0.027261 SpineBase:0.101290,-0.037045,0.993621,-0.032943 SpineMid:0.110998,-0.037365,0.992583,-0.032579 SpineShoulder:0.121371,-0.040024,0.990506,-0.050647 ThumbLeft:0.000000,0.000000,0.000000,0.000000 ThumbRight:0.000000,0.000000,0.000000,0.000000 WristLeft:-0.524778,0.771631,0.238003,0.269348 WristRight:-0.108481,0.927942,0.012378,0.356373 END:
KINECT_DATA POSITION:39.139511,1.230525,-7.110548 HEAD_JOINT1:0.982792,0.150039,-0.000000,0.107739 LARM_JOINT2:0.764279,0.000000,-0.485460,-0.424507 LARM_JOINT3:0.930859,0.000000,-0.356135,-0.081665 LLEG_JOINT2:0.993994,0.067259,0.000000,0.086325 LLEG_JOINT4:0.994647,0.079545,0.000000,-0.065953 RARM_JOINT2:0.798331,0.000000,-0.035485,0.601173 RARM_JOINT3:0.972016,0.000000,0.168984,0.163185 RLEG_JOINT2:0.999252,-0.010959,-0.000000,-0.037089 RLEG_JOINT4:0.992082,0.124764,0.000000,0.014399 WAIST:0.994672,0.000000,-0.102079,-0.014437 WAIST_JOINT0:0.992199,0.000000,-0.123388,-0.017768 WAIST_JOINT1:0.998127,0.053213,0.000000,-0.030182 END:
KINECT_DATA_Sensor  AnkleLeft:0.083534,0.744825,-0.118256,-0.651363 AnkleRight:0.072692,0.689858,0.093070,0.714247 ElbowLeft:-0.353781,0.913759,0.087555,-0.179491 ElbowRight:0.012524,0.835919,0.198774,0.511441 FootLeft:0.000000,0.000000,0.000000,0.000000 FootRight:0.000000,0.000000,0.000000,0.000000 HandLeft:-0.287692,-0.209380,-0.511924,0.781874 HandRight:-0.062081,0.926799,-0.010486,0.370244 HandTipLeft:0.000000,0.000000,0.000000,0.000000 HandTipRight:0.000000,0.000000,0.000000,0.000000 Head:0.000000,0.000000,0.000000,0.000000 HipLeft:0.196568,-0.676277,0.676683,-0.214734 HipRight:-0.062650,0.679162,0.721545,-0.119111 KneeLeft:-0.013598,0.777291,-0.096608,-0.621531 KneeRight:-0.042053,0.631767,0.032120,0.773350 Neck:0.122661,-0.042122,0.989017,-0.070885 ShoulderLeft:-0.098918,0.788482,-0.584083,0.165405 ShoulderRight:0.060630,0.778939,0.623605,0.026362 SpineBase:0.101610,-0.036465,0.993618,-0.032701 SpineMid:0.111608,-0.036793,0.992545,-0.032332 SpineShoulder:0.122273,-0.039453,0.990442,-0.050178 ThumbLeft:0.000000,0.000000,0.000000,0.000000 ThumbRight:0.000000,0.000000,0.000000,0.000000 WristLeft:-0.274840,-0.208269,-0.500119,0.794335 WristRight:-0.108963,0.922826,0.010487,0.369336 END:
KINECT_DATA POSITION:39.140499,1.215475,-7.235181 HEAD_JOINT1:0.982622,0.150888,-0.000000,0.108104 LARM_JOINT2:0.767274,0.000000,-0.476551,-0.429174 LARM_JOINT3:0.940683,0.000000,-0.330400,-0.077142 LLEG_JOINT2:0.994076,0.065489,0.000000,0.086737 LLEG_JOINT4:0.994368,0.081406,0.000000,-0.067863 RARM_JOINT2:0.793384,0.000000,-0.033000,0.607827 RARM_JOINT3:0.972644,0.000000,0.166519,0.161970 RLEG_JOINT2:0.999261,-0.010222,-0.000000,-0.037043 RLEG_JOINT4:0.992003,0.125618,0.000000,0.012269 WAIST:0.994769,0.000000,-0.101161,-0.014190 WAIST_JOINT0:0.992024,0.000000,-0.124781,-0.017816 WAIST_JOINT1:0.998118,0.053376,0.000000,-0.030180 END:
KINECT_DATA_Sensor  AnkleLeft:0.089478,0.770214,-0.113910,-0.621119 AnkleRight:0.074704,0.703523,0.094186,0.700431 ElbowLeft:-0.345680,0.909084,0.092563,-0.213316 ElbowRight:0.011482,0.832571,0.190466,0.520017 FootLeft:0.000000,0.000000,0.000000,0.000000 FootRight:0.000000,0.000000,0.000000,0.000000 HandLeft:-0.425311,0.368182,-0.179777,0.806990 HandRight:-0.053850,0.951684,-0.035017,0.300284 HandTipLeft:0.000000,0.000000,0.000000,0.000000 HandTipRight:0.000000,0.000000,0.000000,0.000000 Head:0.000000,0.000000,0.000000,0.000000 HipLeft:0.195791,-0.676349,0.677013,-0.214178 HipRight:-0.062982,0.679356,0.721286,-0.119399 KneeLeft:-0.015138,0.776603,-0.095700,-0.622495 KneeRight:-0.041299,0.632479,0.032346,0.772799 Neck:0.124928,-0.042180,0.988728,-0.070931 ShoulderLeft:-0.098731,0.789045,-0.583128,0.166199 ShoulderRight:0.063674,0.777371,0.625144,0.028885 SpineBase:0.100687,-0.036193,0.993721,-0.032739 SpineMid:0.112273,-0.036572,0.992478,-0.032314 SpineShoulder:0.124552,-0.039393,0.990160,-0.050183 ThumbLeft:0.000000,0.000000,0.000000,0.000000 ThumbRight:0.000000,0.000000,0.000000,0.000000 WristLeft:-0.520069,0.349434,-0.236485,0.742630 WristRight:-0.108133,0.947614,0.017583,0.300045 END:
KINECT_DATA POSITION:39.133381,1.114201,-7.275784 HEAD_JOINT1:0.982456,0.152304,-0.000000,0.107624 LARM_JOINT2:0.869839,0.000000,-0.320815,-0.374776 LARM_JOINT3:0.874752,0.000000,-0.436324,-0.210787 LLEG_JOINT2:0.994307,0.061169,0.000000,0.087246 LLEG_JOINT4:0.994352,0.083059,0.000000,-0.066074 RARM_JOINT2:0.788072,0.000000,-0.037103,0.614464 RARM_JOINT3:0.973822,0.000000,0.172237,0.148342 RLEG_JOINT2:0.999239,-0.006563,-0.000000,-0.038440 RLEG_JOINT4:0.992130,0.124262,0.000000,0.015418 WAIST:0.996005,0.000000,-0.088337,-0.013062 WAIST_JOINT0:0.992762,0.000000,-0.119205,-0.014620 WAIST_JOINT1:0.998108,0.054202,0.000000,-0.029019 END:
KINECT_DATA_Sensor  AnkleLeft:0.087802,0.767739,-0.112410,-0.624685 AnkleRight:0.077099,0.711630,0.094256,0.691920 ElbowLeft:-0.331459,0.914327,-0.126791,-0.195103 ElbowRight:0.013238,0.830023,0.182388,0.526898 FootLeft:0.000000,0.000000,0.000000,0.000000 FootRight:0.000000,0.000000,0.000000,0.000000 HandLeft:-0.247224,-0.153860,-0.456754,0.840585 HandRight:-0.071583,0.937608,-0.021919,0.339539 HandTipLeft:0.000000,0.000000,0.000000,0.000000 HandTipRight:0.000000,0.000000,0.000000,0.000000 Head:0.000000,0.000000,0.000000,0.000000 HipLeft:-0.188647,0.679210,-0.678217,0.207625 HipRight:-0.070682,0.680587,0.717986,-0.127678 KneeLeft:-0.017802,0.768162,-0.093840,-0.633091 KneeRight:-0.038875,0.642320,0.034556,0.764669 Neck:0.120856,-0.040703,0.989295,-0.070936 ShoulderLeft:-0.094319,0.790106,-0.583535,0.162244 ShoulderRight:0.062608,0.777540,0.625148,0.026471 SpineBase:0.087846,-0.035129,0.994962,-0.033160 SpineMid:0.103757,-0.035656,0.993429,-0.032593 SpineShoulder:0.120462,-0.038368,0.990700,-0.050305 ThumbLeft:0.000000,0.000000,0.000000,0.000000 ThumbRight:0.000000,0.000000,0.000000,0.000000 WristLeft:-0.249238,-0.160262,-0.442480,0.846409 WristRight:-0.106830,0.934284,0.010216,0.339993 END:
KINECT_DATA POSITION:39.077412,0.731456,-7.165802 HEAD_JOINT1:0.981710,0.159673,-0.000000,0.103678 LARM_JOINT2:0.882937,0.000000,-0.301764,-0.359667 LARM_JOINT3:0.884815,0.000000,-0.392201,-0.251557 LLEG_JOINT2:0.994765,0.052867,0.000000,0.087454 LLEG_JOINT4:0.994326,0.088088,0.000000,-0.059639 RARM_JOINT2:0.789893,0.000000,-0.036290,0.612170 RARM_JOINT3:0.970670,0.000000,0.190775,0.146302 RLEG_JOINT2:0.999174,0.003490,0.000000,-0.040480 RLEG_JOINT4:0.993176,0.114258,0.000000,0.023395 WAIST:0.998309,0.000000,-0.057017,-0.011327 WAIST_JOINT0:0.995982,0.000000,-0.088723,-0.012189 WAIST_JOINT1:0.998240,0.054336,0.000000,-0.023767 END:
KINECT_DATA_Sensor  AnkleLeft:0.077938,0.716559,-0.117060,-0.683202 AnkleRight:0.069584,0.663781,0.098067,0.738197 ElbowLeft:-0.315249,0.915306,-0.193773,-0.159015 ElbowRight:0.006506,0.839473,0.179260,0.512941 FootLeft:0.000000,0.000000,0.000000,0.000000 FootRight:0.000000,0.000000,0.000000,0.000000 HandLeft:-0.249066,-0.049137,-0.428779,0.867007 HandRight:-0.126209,0.943099,-0.046844,0.304042 HandTipLeft:0.000000,0.000000,0.000000,0.000000 HandTipRight:0.000000,0.000000,0.000000,0.000000 Head:0.000000,0.000000,0.000000,0.000000 HipLeft:-0.172042,0.683705,-0.682443,0.192929 HipRight:-0.091975,0.679793,0.712750,-0.146321 KneeLeft:-0.021594,0.747207,-0.089817,-0.658140 KneeRight:-0.032285,0.665723,0.040577,0.744395 Neck:0.090209,-0.034351,0.992881,-0.069778 ShoulderLeft:-0.065547,0.794836,-0.588533,0.132545 ShoulderRight:0.050925,0.780867,0.622557,0.008697 SpineBase:0.056614,-0.031720,0.997377,-0.032060 SpineMid:0.072769,-0.032235,0.996329,-0.031541 SpineShoulder:0.089754,-0.033522,0.994163,-0.049614 ThumbLeft:0.000000,0.000000,0.000000,0.000000 ThumbRight:0.000000,0.000000,0.000000,0.000000 WristLeft:-0.224922,-0.054644,-0.366668,0.901098 WristRight:-0.112827,0.943876,0.005380,0.310387 END:
KINECT_DATA POSITION:39.059925,0.641836,-7.067537 HEAD_JOINT1:0.982023,0.162936,-0.000000,0.095299 LARM_JOINT2:0.878955,0.000000,-0.282175,-0.384468 LARM_JOINT3:0.893809,0.000000,-0.375850,-0.244626 LLEG_JOINT2:0.994979,0.047807,0.000000,0.087931 LLEG_JOINT4:0.994821,0.088304,0.000000,-0.050338 RARM_JOINT2:0.791556,0.000000,-0.029475,0.610386 RARM_JOINT3:0.972270,0.000000,0.186936,0.140517 RLEG_JOINT2:0.999180,0.009499,0.000000,-0.039350 RLEG_JOINT4:0.993514,0.110262,0.000000,0.027785 WAIST:0.999321,0.000000,-0.034710,-0.012388 WAIST_JOINT0:0.997269,0.000000,-0.073211,-0.009736 WAIST_JOINT1:0.998414,0.053709,0.000000,-0.016898 END:
KINECT_DATA_Sensor  AnkleLeft:0.074003,0.719708,-0.115799,-0.680540 AnkleRight:0.070996,0.672677,0.098520,0.729904 ElbowLeft:-0.281617,0.923315,-0.207248,-0.158839 ElbowRight:-0.001532,0.851076,0.174053,0.495350 FootLeft:0.000000,0.000000,0.000000,0.000000 FootRight:0.000000,0.000000,0.000000,0.000000 HandLeft:-0.176019,-0.062731,-0.494312,0.848963 HandRight:-0.110489,0.938941,-0.038477,0.323577 HandTipLeft:0.000000,0.000000,0.000000,0.000000 HandTipRight:0.000000,0.000000,0.000000,0.000000 Head:0.000000,0.000000,0.000000,0.000000 HipLeft:-0.159911,0.687080,-0.684841,0.182599 HipRight:-0.107588,0.676258,0.711232,-0.158899 KneeLeft:-0.022546,0.732001,-0.086327,-0.675436 KneeRight:-0.028597,0.681922,0.044036,0.729538 Neck:0.073763,-0.029982,0.994488,-0.068213 ShoulderLeft:-0.054676,0.791214,-0.597425,0.118635 ShoulderRight:0.040850,0.781845,0.622126,-0.003096 SpineBase:0.034519,-0.028867,0.998496,-0.031329 SpineMid:0.053490,-0.029457,0.997659,-0.030774 SpineShoulder:0.073357,-0.029272,0.995704,-0.048318 ThumbLeft:0.000000,0.000000,0.000000,0.000000 ThumbRight:0.000000,0.000000,0.000000,0.000000 WristLeft:-0.176838,-0.098084,-0.348035,0.915412 WristRight:-0.117438,0.937786,-0.005310,0.326706 END:
KINECT_DATA POSITION:39.116234,0.571183,-7.039225 HEAD_JOINT1:0.982625,0.165594,-0.000000,0.083826 LARM_JOINT2:0.877741,0.000000,-0.281441,-0.387765 LARM_JOINT3:0.902090,0.000000,-0.368499,-0.224594 LLEG_JOINT2:0.995463,0.040529,0.000000,0.086083 LLEG_JOINT4:0.994644,0.091994,0.000000,-0.047131 RARM_JOINT2:0.795581,0.000000,-0.028490,0.605177 RARM_JOINT3:0.973075,0.000000,0.183322,0.139709 RLEG_JOINT2:0.999148,0.012574,0.000000,-0.039313 RLEG_JOINT4:0.993437,0.109127,0.000000,0.034261 WAIST:0.999793,0.000000,-0.015523,-0.013130 WAIST_JOINT0:0.998864,0.000000,-0.047066,-0.007475 WAIST_JOINT1:0.998507,0.053732,0.000000,-0.009841 END:
KINECT_DATA_Sensor  AnkleLeft:0.074063,0.710598,-0.112015,-0.690664 AnkleRight:0.076505,0.700033,0.095748,0.703515 ElbowLeft:-0.278090,0.918724,-0.214045,-0.181100 ElbowRight:-0.005241,0.861086,0.174052,0.477713 FootLeft:0.000000,0.000000,0.000000,0.000000 FootRight:0.000000,0.000000,0.000000,0.000000 HandLeft:-0.197185,0.027383,-0.503178,0.840940 HandRight:-0.097171,0.956884,-0.030019,0.272083 HandTipLeft:0.000000,0.000000,0.000000,0.000000 HandTipRight:0.000000,0.000000,0.000000,0.000000 Head:0.000000,0.000000,0.000000,0.000000 HipLeft:-0.142731,0.690769,-0.688489,0.168669 HipRight:-0.116925,0.673927,0.710603,-0.164904 KneeLeft:-0.024050,0.718483,-0.079859,-0.690526 KneeRight:-0.027566,0.695588,0.046279,0.716418 Neck:0.048390,-0.024032,0.996194,-0.068399 ShoulderLeft:-0.033563,0.793752,-0.599683,0.095977 ShoulderRight:0.029046,0.782605,0.621506,-0.020424 SpineBase:0.015536,-0.025020,0.999088,-0.030923 SpineMid:0.031358,-0.025506,0.998716,-0.030523 SpineShoulder:0.048015,-0.023758,0.997399,-0.048217 ThumbLeft:0.000000,0.000000,0.000000,0.000000 ThumbRight:0.000000,0.000000,0.000000,0.000000 WristLeft:-0.173718,0.011826,-0.335479,0.925817 WristRight:-0.117559,0.954522,-0.003456,0.273964 END:
KINECT_DATA POSITION:39.139194,0.501665,-7.081544 HEAD_JOINT1:0.982989,0.166421,-0.000000,0.077693 LARM_JOINT2:0.876143,0.000000,-0.274573,-0.396210 LARM_JOINT3:0.909159,0.000000,-0.362501,-0.204995 LLEG_JOINT2:0.995740,0.038478,0.000000,0.083788 LLEG_JOINT4:0.995010,0.091440,0.000000,-0.039927 RARM_JOINT2:0.803288,0.000000,-0.027021,0.594977 RARM_JOINT3:0.971159,0.000000,0.181602,0.154503 RLEG_JOINT2:0.999117,0.011334,0.000000,-0.040444 RLEG_JOINT4:0.993689,0.107210,0.000000,0.032983 WAIST:0.999877,0.000000,-0.008792,-0.012980 WAIST_JOINT0:0.999408,0.000000,-0.033993,-0.005302 WAIST_JOINT1:0.998496,0.054383,0.000000,-0.006894 END:
KINECT_DATA_Sensor  AnkleLeft:0.072788,0.726575,-0.111241,-0.674104 AnkleRight:0.074225,0.720657,0.094155,0.682847 ElbowLeft:-0.268195,0.919572,-0.215789,-0.189454 ElbowRight:-0.007434,0.872765,0.182535,0.452666 FootLeft:0.000000,0.000000,0.000000,0.000000 FootRight:0.000000,0.000000,0.000000,0.000000 HandLeft:-0.118083,0.008384,-0.548924,0.827447 HandRight:-0.086885,0.956307,-0.049152,0.274794 HandTipLeft:0.000000,0.000000,0.000000,0.000000 HandTipRight:0.000000,0.000000,0.000000,0.000000 Head:0.000000,0.000000,0.000000,0.000000 HipLeft:-0.135582,0.691445,-0.690476,0.163598 HipRight:-0.119390,0.673304,0.710553,-0.165897 KneeLeft:-0.023392,0.713707,-0.077104,-0.695794 KneeRight:-0.029391,0.700309,0.045983,0.711751 Neck:0.035030,-0.020913,0.996748,-0.069491 ShoulderLeft:-0.021756,0.794406,-0.601128,0.084204 ShoulderRight:0.023553,0.785285,0.617992,-0.029317 SpineBase:0.008889,-0.022371,0.999226,-0.031124 SpineMid:0.021413,-0.022759,0.999036,-0.030841 SpineShoulder:0.034684,-0.020694,0.997986,-0.048909 ThumbLeft:0.000000,0.000000,0.000000,0.000000 ThumbRight:0.000000,0.000000,0.000000,0.000000 WristLeft:-0.139850,-0.040963,-0.339992,0.929069 WristRight:-0.116334,0.953627,-0.007135,0.277510 END:
KINECT_DATA POSITION:39.101791,0.435529,-7.217622 HEAD_JOINT1:0.983791,0.169860,-0.000000,0.057464 LARM_JOINT2:0.868037,0.000000,-0.240141,-0.434562 LARM_JOINT3:0.919214,0.000000,-0.367322,-0.141844 LLEG_JOINT2:0.996279,0.033082,0.000000,0.079589 LLEG_JOINT4:0.995394,0.091110,0.000000,-0.029818 RARM_JOINT2:0.806642,0.000000,-0.023874,0.590558 RARM_JOINT3:0.972408,0.000000,0.171015,0.158672 RLEG_JOINT2:0.998994,0.012285,0.000000,-0.043136 RLEG_JOINT4:0.993192,0.109406,0.000000,0.040000 WAIST:0.999909,0.000000,0.008540,-0.010465 WAIST_JOINT0:0.999998,0.000000,-0.000959,0.001630 WAIST_JOINT1:0.998385,0.056735,0.000000,-0.002787 END:
KINECT_DATA_Sensor  AnkleLeft:0.067569,0.731009,-0.110950,-0.669888 AnkleRight:0.076529,0.709038,0.095328,0.694493 ElbowLeft:-0.249500,0.888342,-0.180946,-0.340377 ElbowRight:-0.004731,0.893643,0.181734,0.410308 FootLeft:0.000000,0.000000,0.000000,0.000000 FootRight:0.000000,0.000000,0.000000,0.000000 HandLeft:-0.101940,0.093535,-0.499853,0.854989 HandRight:-0.053947,0.771012,-0.077781,0.629747 HandTipLeft:0.000000,0.000000,0.000000,0.000000 HandTipRight:0.000000,0.000000,0.000000,0.000000 Head:0.000000,0.000000,0.000000,0.000000 HipLeft:0.120015,-0.691564,0.695609,-0.153175 HipRight:-0.126705,0.673031,0.708165,-0.171689 KneeLeft:0.024635,-0.701130,0.072637,0.708896 KneeRight:-0.029505,0.712490,0.046413,0.699523 Neck:0.003013,-0.014221,0.997259,-0.072551 ShoulderLeft:0.001662,0.790127,-0.609915,0.060829 ShoulderRight:0.005979,0.783483,0.618832,-0.056265 SpineBase:-0.008386,-0.016576,0.999304,-0.032350 SpineMid:-0.003107,-0.016746,0.999334,-0.032262 SpineShoulder:0.002709,-0.014361,0.998571,-0.051396 ThumbLeft:0.000000,0.000000,0.000000,0.000000 ThumbRight:0.000000,0.000000,0.000000,0.000000 WristLeft:-0.114366,0.076712,-0.383492,0.913219 WristRight:-0.087261,0.768785,-0.053199,0.631288 END:
KINECT_DATA POSITION:38.922138,0.371429,-7.352972 HEAD_JOINT1:0.984515,0.171774,-0.000000,0.034986 LARM_JOINT2:0.855878,0.000000,-0.210171,-0.472548 LARM_JOINT3:0.929093,0.000000,-0.364379,-0.063361 LLEG_JOINT2:0.996492,0.030620,0.000000,0.077891 LLEG_JOINT4:0.995513,0.091009,0.000000,-0.025904 RARM_JOINT2:0.813532,0.000000,-0.016335,0.581290 RARM_JOINT3:0.971043,0.000000,0.172939,0.164825 RLEG_JOINT2:0.998931,0.010582,0.000000,-0.044993 RLEG_JOINT4:0.992350,0.115198,0.000000,0.044393 WAIST:0.999702,0.000000,0.023024,-0.008170 WAIST_JOINT0:0.999725,-0.000000,0.022635,0.006164 WAIST_JOINT1:0.998298,0.058305,-0.000000,0.001017 END:
KINECT_DATA_Sensor  AnkleLeft:0.065352,0.727146,-0.111246,-0.674249 AnkleRight:0.077633,0.690564,0.099234,0.712213 ElbowLeft:-0.226623,0.842424,-0.150586,-0.465067 ElbowRight:-0.011686,0.904014,0.184705,0.385364 FootLeft:0.000000,0.000000,0.000000,0.000000 FootRight:0.000000,0.000000,0.000000,0.000000 HandLeft:0.021107,0.104358,-0.503098,0.857645 HandRight:-0.085410,0.961034,-0.060198,0.255922 HandTipLeft:0.000000,0.000000,0.000000,0.000000 HandTipRight:0.000000,0.000000,0.000000,0.000000 Head:0.000000,0.000000,0.000000,0.000000 HipLeft:0.109418,-0.690878,0.699381,-0.146910 HipRight:-0.135349,0.672428,0.705428,-0.178585 KneeLeft:0.025720,-0.690552,0.071781,0.719253 KneeRight:-0.030976,0.722463,0.044514,0.689279 Neck:-0.020881,-0.008298,0.996980,-0.074339 ShoulderLeft:0.020674,0.786319,-0.616038,0.042090 ShoulderRight:-0.005794,0.783921,0.616331,-0.074632 SpineBase:-0.022791,-0.010568,0.999122,-0.033531 SpineMid:-0.022127,-0.010590,0.999137,-0.033524 SpineShoulder:-0.021126,-0.008652,0.998327,-0.053127 ThumbLeft:0.000000,0.000000,0.000000,0.000000 ThumbRight:0.000000,0.000000,0.000000,0.000000 WristLeft:-0.039497,0.068236,-0.414450,0.906650 WristRight:-0.103736,0.960056,-0.017978,0.259246 END:
KINECT_DATA POSITION:38.591133,0.240632,-7.414687 HEAD_JOINT1:0.984031,0.176088,-0.000000,0.025987 LARM_JOINT2:0.834853,0.000000,-0.217522,-0.505673 LARM_JOINT3:0.953361,0.000000,-0.298367,0.045602 LLEG_JOINT2:0.996727,0.028485,0.000000,0.075652 LLEG_JOINT4:0.995833,0.088055,0.000000,-0.023733 RARM_JOINT2:0.815114,0.000000,-0.016258,0.579073 RARM_JOINT3:0.970873,0.000000,0.169776,0.169060 RLEG_JOINT2:0.998878,0.012453,0.000000,-0.045699 RLEG_JOINT4:0.992307,0.114799,0.000000,0.046343 WAIST:0.999427,0.000000,0.033435,-0.005241 WAIST_JOINT0:0.999434,-0.000000,0.032651,0.008060 WAIST_JOINT1:0.998369,0.057075,-0.000000,0.001603 END:
KINECT_DATA_Sensor  AnkleLeft:0.058789,0.708162,-0.110638,-0.694845 AnkleRight:0.082051,0.707793,0.097249,0.694867 ElbowLeft:-0.225668,0.759036,-0.086596,-0.604517 ElbowRight:-0.015137,0.906800,0.183244,0.379350 FootLeft:0.000000,0.000000,0.000000,0.000000 FootRight:0.000000,0.000000,0.000000,0.000000 HandLeft:-0.016977,0.329652,-0.496215,0.803002 HandRight:-0.050461,0.962972,-0.058965,0.258189 HandTipLeft:0.000000,0.000000,0.000000,0.000000 HandTipRight:0.000000,0.000000,0.000000,0.000000 Head:0.000000,0.000000,0.000000,0.000000 HipLeft:0.103730,-0.689534,0.702578,-0.142010 HipRight:-0.143748,0.672548,0.702159,-0.184359 KneeLeft:0.027022,-0.682794,0.071074,0.726643 KneeRight:-0.028547,0.729704,0.044028,0.681747 Neck:-0.030970,-0.005426,0.996844,-0.072889 ShoulderLeft:0.024024,0.784675,-0.618428,0.035429 ShoulderRight:-0.015495,0.784543,0.614224,-0.083555 SpineBase:-0.033251,-0.006553,0.998881,-0.032998 SpineMid:-0.032312,-0.006584,0.998911,-0.032991 SpineShoulder:-0.031164,-0.005724,0.998145,-0.051990 ThumbLeft:0.000000,0.000000,0.000000,0.000000 ThumbRight:0.000000,0.000000,0.000000,0.000000 WristLeft:-0.039472,0.329915,-0.407358,0.850680 WristRight:-0.108944,0.959032,-0.026758,0.260140 END:
KINECT_DATA POSITION:38.371754,0.193127,-7.409275 HEAD_JOINT1:0.984176,0.174974,-0.000000,0.027966 LARM_JOINT2:0.834982,0.000000,-0.218681,-0.504959 LARM_JOINT3:0.961056,0.000000,-0.263898,0.082033 LLEG_JOINT2:0.996872,0.027146,0.000000,0.074228 LLEG_JOINT4:0.995496,0.091971,0.000000,-0.023018 RARM_JOINT2:0.815536,0.000000,-0.020242,0.578352 RARM_JOINT3:0.973041,0.000000,0.159421,0.166663 RLEG_JOINT2:0.998856,0.015817,0.000000,-0.045131 RLEG_JOINT4:0.992960,0.109107,0.000000,0.046100 WAIST:0.999343,0.000000,0.036076,-0.003445 WAIST_JOINT0:0.999501,-0.000000,0.030639,0.007732 WAIST_JOINT1:0.998446,0.055713,-0.000000,0.001161 END:
KINECT_DATA_Sensor  AnkleLeft:0.059758,0.702339,-0.113204,-0.700239 AnkleRight:0.084240,0.728413,0.092094,0.673674 ElbowLeft:0.234895,-0.703146,0.067572,0.667715 ElbowRight:-0.013895,0.907292,0.183523,0.378084 FootLeft:0.000000,0.000000,0.000000,0.000000 FootRight:0.000000,0.000000,0.000000,0.000000 HandLeft:0.005906,0.376282,-0.492537,0.784720 HandRight:-0.014586,0.964060,-0.036565,0.262753 HandTipLeft:0.000000,0.000000,0.000000,0.000000 HandTipRight:0.000000,0.000000,0.000000,0.000000 Head:0.000000,0.000000,0.000000,0.000000 HipLeft:0.102713,-0.688424,0.704197,-0.140103 HipRight:-0.146749,0.673165,0.700644,-0.185503 KneeLeft:0.028112,-0.680733,0.070466,0.728593 KneeRight:-0.024670,0.731661,0.044772,0.679749 Neck:-0.028954,-0.004547,0.997019,-0.071374 ShoulderLeft:0.021144,0.785593,-0.617313,0.036348 ShoulderRight:-0.015788,0.785459,0.613333,-0.081410 SpineBase:-0.035958,-0.004966,0.998828,-0.032013 SpineMid:-0.032633,-0.005073,0.998942,-0.031997 SpineShoulder:-0.029111,-0.004705,0.998282,-0.050633 ThumbLeft:0.000000,0.000000,0.000000,0.000000 ThumbRight:0.000000,0.000000,0.000000,0.000000 WristLeft:-0.007825,0.385527,-0.413893,0.824621 WristRight:-0.106499,0.958344,-0.025729,0.263766 END:
KINECT_DATA POSITION:38.267834,0.169285,-7.350922 HEAD_JOINT1:0.984182,0.174578,-0.000000,0.030139 LARM_JOINT2:0.837731,0.000000,-0.220286,-0.499680 LARM_JOINT3:0.962681,0.000000,-0.253488,0.094813 LLEG_JOINT2:0.996922,0.026281,0.000000,0.073870 LLEG_JOINT4:0.996029,0.086327,0.000000,-0.021756 RARM_JOINT2:0.814412,0.000000,-0.022203,0.579862 RARM_JOINT3:0.971001,0.000000,0.166243,0.171813 RLEG_JOINT2:0.998847,0.016531,0.000000,-0.045080 RLEG_JOINT4:0.993110,0.107695,0.000000,0.046203 WAIST:0.999358,0.000000,0.035751,-0.002411 WAIST_JOINT0:0.999582,-0.000000,0.027878,0.007698 WAIST_JOINT1:0.998470,0.055293,0.000000,-0.000152 END:
KINECT_DATA_Sensor  AnkleLeft:0.056543,0.722521,-0.108964,-0.680363 AnkleRight:0.082588,0.713279,0.092579,0.689812 ElbowLeft:0.241993,-0.684578,0.063034,0.684704 ElbowRight:-0.012800,0.905787,0.182560,0.382176 FootLeft:0.000000,0.000000,0.000000,0.000000 FootRight:0.000000,0.000000,0.000000,0.000000 HandLeft:-0.007964,0.424523,-0.501228,0.753981 HandRight:-0.030976,0.971005,-0.068880,0.226814 HandTipLeft:0.000000,0.000000,0.000000,0.000000 HandTipRight:0.000000,0.000000,0.000000,0.000000 Head:0.000000,0.000000,0.000000,0.000000 HipLeft:0.103686,-0.687621,0.704880,-0.139892 HipRight:-0.147141,0.673718,0.700043,-0.185451 KneeLeft:0.029261,-0.680865,0.070333,0.728437 KneeRight:-0.023399,0.731525,0.044537,0.679956 Neck:-0.026111,-0.004951,0.997126,-0.070952 ShoulderLeft:0.018436,0.786145,-0.616564,0.038537 ShoulderRight:-0.014829,0.785899,0.613086,-0.079172 SpineBase:-0.035708,-0.005149,0.998856,-0.031401 SpineMid:-0.031097,-0.005294,0.999010,-0.031377 SpineShoulder:-0.026269,-0.005085,0.998384,-0.050133 ThumbLeft:0.000000,0.000000,0.000000,0.000000 ThumbRight:0.000000,0.000000,0.000000,0.000000 WristLeft:-0.017028,0.439304,-0.418096,0.794933 WristRight:-0.107855,0.967248,-0.022620,0.228665 END:
KINECT_DATA POSITION:38.215233,0.144540,-7.297242 HEAD_JOINT1:0.983781,0.176654,-0.000000,0.031100 LARM_JOINT2:0.838562,0.000000,-0.229110,-0.494290 LARM_JOINT3:0.966949,0.000000,-0.235939,0.096655 LLEG_JOINT2:0.996923,0.025544,0.000000,0.074107 LLEG_JOINT4:0.995722,0.090162,0.000000,-0.020225 RARM_JOINT2:0.813289,0.000000,-0.024375,0.581349 RARM_JOINT3:0.972018,0.000000,0.163853,0.168323 RLEG_JOINT2:0.998860,0.014679,0.000000,-0.045425 RLEG_JOINT4:0.992705,0.111468,0.000000,0.045953 WAIST:0.999402,0.000000,0.034506,-0.002242 WAIST_JOINT0:0.999695,-0.000000,0.023927,0.006113 WAIST_JOINT1:0.998487,0.054988,0.000000,-0.000996 END:
KINECT_DATA_Sensor  AnkleLeft:0.058155,0.726193,-0.112163,-0.675782 AnkleRight:0.084845,0.720619,0.093130,0.681789 ElbowLeft:0.249902,-0.679152,0.056017,0.687869 ElbowRight:-0.011675,0.903289,0.182100,0.388295 FootLeft:0.000000,0.000000,0.000000,0.000000 FootRight:0.000000,0.000000,0.000000,0.000000 HandLeft:-0.016361,0.458836,-0.494605,0.737948 HandRight:-0.019531,0.970594,-0.053408,0.233909 HandTipLeft:0.000000,0.000000,0.000000,0.000000 HandTipRight:0.000000,0.000000,0.000000,0.000000 Head:0.000000,0.000000,0.000000,0.000000 HipLeft:0.105233,-0.687337,0.704866,-0.140204 HipRight:-0.146883,0.673881,0.700105,-0.184830 KneeLeft:0.030175,-0.681719,0.070084,0.727624 KneeRight:-0.024745,0.730665,0.043325,0.680910 Neck:-0.022027,-0.005846,0.997248,-0.070555 ShoulderLeft:0.013329,0.787993,-0.614046,0.042862 ShoulderRight:-0.014657,0.786238,0.612899,-0.077268 SpineBase:-0.034496,-0.005800,0.998913,-0.030802 SpineMid:-0.028466,-0.005986,0.999103,-0.030766 SpineShoulder:-0.022179,-0.005786,0.998496,-0.049794 ThumbLeft:0.000000,0.000000,0.000000,0.000000 ThumbRight:0.000000,0.000000,0.000000,0.000000 WristLeft:-0.026908,0.472265,-0.416896,0.776169 WristRight:-0.108295,0.965642,-0.022594,0.235152 END:
KINECT_DATA POSITION:38.199097,0.129531,-7.237434 HEAD_JOINT1:0.983154,0.180050,-0.000000,0.031473 LARM_JOINT2:0.840206,0.000000,-0.231870,-0.490194 LARM_JOINT3:0.971541,0.000000,-0.212709,0.104226 LLEG_JOINT2:0.996865,0.026973,0.000000,0.074382 LLEG_JOINT4:0.995484,0.092051,0.000000,-0.023200 RARM_JOINT2:0.812278,0.000000,-0.025502,0.582713 RARM_JOINT3:0.972751,0.000000,0.163240,0.164644 RLEG_JOINT2:0.998855,0.015140,0.000000,-0.045390 RLEG_JOINT4:0.992497,0.113047,0.000000,0.046581 WAIST:0.999486,0.000000,0.031978,-0.002118 WAIST_JOINT0:0.999779,-0.000000,0.020432,0.005017 WAIST_JOINT1:0.998500,0.054717,0.000000,-0.001982 END:
KINECT_DATA_Sensor  AnkleLeft:0.059917,0.714651,-0.113500,-0.687605 AnkleRight:0.084967,0.703508,0.095732,0.699065 ElbowLeft:0.254558,-0.675493,0.053120,0.689991 ElbowRight:-0.010838,0.901079,0.181632,0.393635 FootLeft:0.000000,0.000000,0.000000,0.000000 FootRight:0.000000,0.000000,0.000000,0.000000 HandLeft:0.040527,0.455278,-0.489301,0.742741 HandRight:-0.016768,0.942611,-0.042364,0.330771 HandTipLeft:0.000000,0.000000,0.000000,0.000000 HandTipRight:0.000000,0.000000,0.000000,0.000000 Head:0.000000,0.000000,0.000000,0.000000 HipLeft:0.107617,-0.686859,0.704695,-0.141591 HipRight:-0.145986,0.674128,0.700347,-0.183724 KneeLeft:0.029578,-0.683597,0.071270,0.725770 KneeRight:-0.024209,0.728969,0.043610,0.682727 Neck:-0.018462,-0.006804,0.997331,-0.070315 ShoulderLeft:0.009197,0.788930,-0.612654,0.046468 ShoulderRight:-0.014182,0.786226,0.613162,-0.075367 SpineBase:-0.031997,-0.006330,0.999006,-0.030377 SpineMid:-0.025436,-0.006530,0.999195,-0.030335 SpineShoulder:-0.018605,-0.006494,0.998582,-0.049461 ThumbLeft:0.000000,0.000000,0.000000,0.000000 ThumbRight:0.000000,0.000000,0.000000,0.000000 WristLeft:-0.006195,0.449887,-0.413932,0.791343 WristRight:-0.105890,0.936792,-0.032314,0.331910 END:
