EastLYD/RoboCupatHomeSim/InteractiveCleanUp/JapanOpen2016/Motion_Data/File13.dat
KINECT_DATA POSITION:4.808473,-0.412600,-5.278480 HEAD_JOINT1:0.984734,0.144393,-0.000000,0.097214 LARM_JOINT2:0.832497,0.000000,-0.042004,-0.552434 LARM_JOINT3:0.959539,0.000000,-0.195297,-0.202838 LLEG_JOINT2:0.997988,0.015469,0.000000,0.061494 LLEG_JOINT4:0.994701,0.098820,0.000000,-0.028370 RARM_JOINT2:0.799474,0.000000,-0.065871,0.597078 RARM_JOINT3:0.969949,0.000000,0.212849,0.117874 RLEG_JOINT2:0.999208,0.022990,0.000000,-0.032485 RLEG_JOINT4:0.995665,0.082029,0.000000,0.043846 WAIST:0.999986,0.000000,-0.003021,-0.004353 WAIST_JOINT0:0.998764,0.000000,-0.049436,0.005162 WAIST_JOINT1:0.997769,0.065371,0.000000,-0.013540 END:
KINECT_DATA_Sensor  AnkleLeft:0.066366,0.742897,-0.097010,-0.659006 AnkleRight:0.080752,0.712300,0.067217,0.693967 ElbowLeft:-0.042635,0.914820,-0.176208,-0.360884 ElbowRight:0.012400,0.822546,0.196772,0.533428 FootLeft:0.000000,0.000000,0.000000,0.000000 FootRight:0.000000,0.000000,0.000000,0.000000 HandLeft:-0.158862,0.762616,0.011456,0.626936 HandRight:0.025520,-0.323421,-0.154176,0.933262 HandTipLeft:0.000000,0.000000,0.000000,0.000000 HandTipRight:0.000000,0.000000,0.000000,0.000000 Head:0.000000,0.000000,0.000000,0.000000 HipLeft:0.115891,-0.683798,0.702493,-0.159668 HipRight:-0.112704,0.674807,0.709146,-0.170428 KneeLeft:-0.029620,0.708275,-0.051260,-0.703450 KneeRight:-0.009621,0.705077,0.042333,0.707801 Neck:0.047416,-0.022319,0.995431,-0.079820 ShoulderLeft:0.004779,0.788823,-0.609184,0.081427 ShoulderRight:0.066146,0.790700,0.608603,-0.004624 SpineBase:0.002705,-0.016029,0.998991,-0.041873 SpineMid:0.024723,-0.016948,0.998688,-0.041510 SpineShoulder:0.047292,-0.019984,0.996899,-0.059640 ThumbLeft:0.000000,0.000000,0.000000,0.000000 ThumbRight:0.000000,0.000000,0.000000,0.000000 WristLeft:-0.141044,0.776317,-0.076069,0.609633 WristRight:-0.027099,-0.333535,-0.106081,0.936358 END:
KINECT_DATA POSITION:4.823977,-0.416151,-5.270100 HEAD_JOINT1:0.984714,0.144836,-0.000000,0.096755 LARM_JOINT2:0.832209,0.000000,-0.041178,-0.552930 LARM_JOINT3:0.959843,0.000000,-0.195223,-0.201470 LLEG_JOINT2:0.998017,0.016179,0.000000,0.060832 LLEG_JOINT4:0.994835,0.097005,0.000000,-0.029899 RARM_JOINT2:0.799606,0.000000,-0.062767,0.597236 RARM_JOINT3:0.969596,0.000000,0.214344,0.118072 RLEG_JOINT2:0.999187,0.023992,0.000000,-0.032386 RLEG_JOINT4:0.995730,0.081477,0.000000,0.043407 WAIST:0.999988,0.000000,-0.002735,-0.004074 WAIST_JOINT0:0.998792,0.000000,-0.048814,0.005594 WAIST_JOINT1:0.997782,0.065147,0.000000,-0.013709 END:
KINECT_DATA_Sensor  AnkleLeft:0.065339,0.732498,-0.095872,-0.670810 AnkleRight:0.081237,0.714783,0.067328,0.691341 ElbowLeft:-0.042093,0.914462,-0.176009,-0.361951 ElbowRight:0.009731,0.822201,0.195388,0.534522 FootLeft:0.000000,0.000000,0.000000,0.000000 FootRight:0.000000,0.000000,0.000000,0.000000 HandLeft:-0.153801,0.768562,0.008509,0.620955 HandRight:0.006792,-0.199528,-0.152344,0.967953 HandTipLeft:0.000000,0.000000,0.000000,0.000000 HandTipRight:0.000000,0.000000,0.000000,0.000000 Head:0.000000,0.000000,0.000000,0.000000 HipLeft:0.115827,-0.683689,0.702659,-0.159450 HipRight:-0.113000,0.675005,0.708887,-0.170523 KneeLeft:-0.028828,0.708116,-0.051504,-0.703625 KneeRight:-0.008653,0.705278,0.042770,0.707587 Neck:0.046733,-0.022183,0.995491,-0.079515 ShoulderLeft:0.005713,0.788935,-0.609180,0.080305 ShoulderRight:0.066198,0.791105,0.608071,-0.004543 SpineBase:0.002407,-0.015867,0.999000,-0.041727 SpineMid:0.024237,-0.016775,0.998709,-0.041370 SpineShoulder:0.046609,-0.019864,0.996944,-0.059454 ThumbLeft:0.000000,0.000000,0.000000,0.000000 ThumbRight:0.000000,0.000000,0.000000,0.000000 WristLeft:-0.141990,0.780021,-0.074987,0.604800 WristRight:-0.038402,-0.208699,-0.107338,0.971313 END:
KINECT_DATA POSITION:4.849251,-0.425623,-5.209410 HEAD_JOINT1:0.984669,0.145655,-0.000000,0.095975 LARM_JOINT2:0.831993,0.000000,-0.040588,-0.553300 LARM_JOINT3:0.960590,0.000000,-0.193290,-0.199766 LLEG_JOINT2:0.998055,0.015985,0.000000,0.060257 LLEG_JOINT4:0.994942,0.097123,0.000000,-0.025653 RARM_JOINT2:0.800008,0.000000,-0.056009,0.597370 RARM_JOINT3:0.968382,0.000000,0.219363,0.118814 RLEG_JOINT2:0.999173,0.023595,0.000000,-0.033115 RLEG_JOINT4:0.995686,0.082345,0.000000,0.042774 WAIST:0.999991,0.000000,-0.001398,-0.003893 WAIST_JOINT0:0.998850,0.000000,-0.047591,0.005834 WAIST_JOINT1:0.997830,0.064442,0.000000,-0.013495 END:
KINECT_DATA_Sensor  AnkleLeft:0.065951,0.752753,-0.096520,-0.647841 AnkleRight:0.081080,0.719670,0.068145,0.686191 ElbowLeft:-0.042151,0.913639,-0.175978,-0.364032 ElbowRight:0.004285,0.823688,0.192250,0.533441 FootLeft:0.000000,0.000000,0.000000,0.000000 FootRight:0.000000,0.000000,0.000000,0.000000 HandLeft:-0.142124,0.817236,0.016828,0.558250 HandRight:0.024706,-0.226284,-0.167173,0.959291 HandTipLeft:0.000000,0.000000,0.000000,0.000000 HandTipRight:0.000000,0.000000,0.000000,0.000000 Head:0.000000,0.000000,0.000000,0.000000 HipLeft:0.115520,-0.683820,0.702821,-0.158391 HipRight:-0.114433,0.675085,0.708510,-0.170818 KneeLeft:-0.028613,0.707192,-0.051131,-0.704589 KneeRight:-0.009375,0.706212,0.042870,0.706639 Neck:0.045526,-0.021756,0.995624,-0.078651 ShoulderLeft:0.006532,0.788869,-0.609485,0.078561 ShoulderRight:0.065454,0.791135,0.608111,-0.004761 SpineBase:0.001078,-0.015476,0.999039,-0.040989 SpineMid:0.022971,-0.016371,0.998776,-0.040640 SpineShoulder:0.045396,-0.019566,0.997045,-0.058793 ThumbLeft:0.000000,0.000000,0.000000,0.000000 ThumbRight:0.000000,0.000000,0.000000,0.000000 WristLeft:-0.147540,0.823887,-0.064802,0.543362 WristRight:-0.031637,-0.238075,-0.116119,0.963761 END:
KINECT_DATA POSITION:4.933007,-0.451446,-5.147111 HEAD_JOINT1:0.985104,0.144290,-0.000000,0.093549 LARM_JOINT2:0.831317,0.000000,-0.040375,-0.554330 LARM_JOINT3:0.960430,0.000000,-0.194805,-0.199059 LLEG_JOINT2:0.998157,0.016718,0.000000,0.058340 LLEG_JOINT4:0.994811,0.098131,0.000000,-0.026850 RARM_JOINT2:0.802393,0.000000,-0.008640,0.596734 RARM_JOINT3:0.960418,0.000000,0.248617,0.125641 RLEG_JOINT2:0.999109,0.024557,0.000000,-0.034334 RLEG_JOINT4:0.995655,0.081569,0.000000,0.044914 WAIST:0.999994,0.000000,-0.000041,-0.003426 WAIST_JOINT0:0.999140,0.000000,-0.040927,0.006659 WAIST_JOINT1:0.997962,0.062363,0.000000,-0.013554 END:
KINECT_DATA_Sensor  AnkleLeft:0.070869,0.763572,-0.094266,-0.634862 AnkleRight:0.081645,0.716161,0.067888,0.689811 ElbowLeft:-0.043681,0.912286,-0.174534,-0.367918 ElbowRight:-0.029481,0.833455,0.173365,0.523858 FootLeft:0.000000,0.000000,0.000000,0.000000 FootRight:0.000000,0.000000,0.000000,0.000000 HandLeft:-0.150542,0.775626,0.005047,0.612957 HandRight:-0.206797,0.717634,0.133248,-0.651522 HandTipLeft:0.000000,0.000000,0.000000,0.000000 HandTipRight:0.000000,0.000000,0.000000,0.000000 Head:0.000000,0.000000,0.000000,0.000000 HipLeft:0.115335,-0.683888,0.703132,-0.156845 HipRight:-0.116191,0.675524,0.707876,-0.170525 KneeLeft:-0.026992,0.706336,-0.050667,-0.705545 KneeRight:-0.009280,0.707137,0.044073,0.705640 Neck:0.039064,-0.020804,0.996125,-0.075997 ShoulderLeft:0.008473,0.789429,-0.609414,0.073108 ShoulderRight:0.059108,0.792362,0.607105,-0.009571 SpineBase:-0.000270,-0.014666,0.999106,-0.039645 SpineMid:0.019100,-0.015432,0.998924,-0.039353 SpineShoulder:0.038918,-0.018915,0.997434,-0.057029 ThumbLeft:0.000000,0.000000,0.000000,0.000000 ThumbRight:0.000000,0.000000,0.000000,0.000000 WristLeft:-0.143994,0.785391,-0.076845,0.597094 WristRight:-0.092991,0.741487,0.139557,-0.649672 END:
KINECT_DATA POSITION:5.084990,-0.462728,-5.068743 HEAD_JOINT1:0.986207,0.139945,-0.000000,0.088378 LARM_JOINT2:0.829575,0.000000,-0.035991,-0.557234 LARM_JOINT3:0.962377,0.000000,-0.194590,-0.189645 LLEG_JOINT2:0.998220,0.016036,0.000000,0.057446 LLEG_JOINT4:0.994837,0.098970,0.000000,-0.022444 RARM_JOINT2:0.808743,0.000000,0.106183,0.578498 RARM_JOINT3:0.958989,0.000000,0.262824,0.106126 RLEG_JOINT2:0.999025,0.025912,0.000000,-0.035734 RLEG_JOINT4:0.995701,0.080163,0.000000,0.046406 WAIST:0.999990,0.000000,0.002601,-0.003555 WAIST_JOINT0:0.999692,0.000000,-0.023473,0.008095 WAIST_JOINT1:0.998334,0.056323,0.000000,-0.012489 END:
KINECT_DATA_Sensor  AnkleLeft:0.068099,0.755204,-0.097523,-0.644608 AnkleRight:0.079577,0.699458,0.070216,0.706750 ElbowLeft:-0.046197,0.907145,-0.171411,-0.381538 ElbowRight:-0.113160,0.861374,0.133519,0.476867 FootLeft:0.000000,0.000000,0.000000,0.000000 FootRight:0.000000,0.000000,0.000000,0.000000 HandLeft:-0.132453,0.787788,-0.015061,0.601348 HandRight:0.233467,-0.583706,-0.225120,0.744380 HandTipLeft:0.000000,0.000000,0.000000,0.000000 HandTipRight:0.000000,0.000000,0.000000,0.000000 Head:0.000000,0.000000,0.000000,0.000000 HipLeft:0.115796,-0.684682,0.703019,-0.153517 HipRight:-0.120200,0.675620,0.707302,-0.169747 KneeLeft:0.026612,-0.704552,0.049540,0.707421 KneeRight:-0.009517,0.708896,0.046094,0.703741 Neck:0.022221,-0.018364,0.997158,-0.069606 ShoulderLeft:0.011872,0.790243,-0.609839,0.058918 ShoulderRight:0.040934,0.794953,0.604880,-0.022245 SpineBase:-0.002840,-0.013866,0.999240,-0.036318 SpineMid:0.009436,-0.014311,0.999200,-0.036145 SpineShoulder:0.022018,-0.017299,0.998283,-0.051446 ThumbLeft:0.000000,0.000000,0.000000,0.000000 ThumbRight:0.000000,0.000000,0.000000,0.000000 WristLeft:-0.147911,0.790152,-0.081897,0.589131 WristRight:0.144803,-0.605907,-0.208038,0.754075 END:
KINECT_DATA POSITION:5.273108,-0.420824,-4.992998 HEAD_JOINT1:0.988006,0.132668,-0.000000,0.079019 LARM_JOINT2:0.827458,0.000000,-0.028439,-0.560807 LARM_JOINT3:0.962258,0.000000,-0.198648,-0.186006 LLEG_JOINT2:0.998423,0.017047,0.000000,0.053483 LLEG_JOINT4:0.995078,0.097021,0.000000,-0.020155 RARM_JOINT2:0.811064,0.000000,0.206861,0.547160 RARM_JOINT3:0.960188,0.000000,0.266469,0.083860 RLEG_JOINT2:0.998877,0.026254,0.000000,-0.039436 RLEG_JOINT4:0.995618,0.080114,0.000000,0.048243 WAIST:0.999985,0.000000,0.004806,-0.002566 WAIST_JOINT0:0.999921,0.000000,-0.007341,0.010177 WAIST_JOINT1:0.998673,0.050297,0.000000,-0.011054 END:
KINECT_DATA_Sensor  AnkleLeft:0.068399,0.756594,-0.096012,-0.643171 AnkleRight:0.081344,0.724076,0.068516,0.681471 ElbowLeft:-0.047972,0.898569,-0.169664,-0.401853 ElbowRight:-0.191078,0.873361,0.097750,0.437236 FootLeft:0.000000,0.000000,0.000000,0.000000 FootRight:0.000000,0.000000,0.000000,0.000000 HandLeft:-0.138191,0.778764,-0.019917,0.611582 HandRight:0.174803,-0.253723,-0.355489,0.882437 HandTipLeft:0.000000,0.000000,0.000000,0.000000 HandTipRight:0.000000,0.000000,0.000000,0.000000 Head:0.000000,0.000000,0.000000,0.000000 HipLeft:0.116977,-0.684810,0.703501,-0.149791 HipRight:-0.124589,0.676727,0.705901,-0.167996 KneeLeft:0.023682,-0.703163,0.048199,0.708997 KneeRight:-0.011301,0.710384,0.048229,0.702069 Neck:0.006531,-0.014646,0.997835,-0.063790 ShoulderLeft:0.016235,0.789747,-0.611626,0.044152 ShoulderRight:0.025212,0.796885,0.602726,-0.032557 SpineBase:-0.005026,-0.012263,0.999399,-0.032022 SpineMid:0.000542,-0.012442,0.999412,-0.031953 SpineShoulder:0.006303,-0.014336,0.998834,-0.045669 ThumbLeft:0.000000,0.000000,0.000000,0.000000 ThumbRight:0.000000,0.000000,0.000000,0.000000 WristLeft:-0.147815,0.782740,-0.093285,0.597299 WristRight:0.098020,-0.283483,-0.308105,0.902829 END:
KINECT_DATA POSITION:5.426090,-0.370628,-4.900408 HEAD_JOINT1:0.989192,0.129220,-0.000000,0.069288 LARM_JOINT2:0.824723,0.000000,-0.022206,-0.565101 LARM_JOINT3:0.962613,0.000000,-0.202630,-0.179772 LLEG_JOINT2:0.998518,0.017737,0.000000,0.051458 LLEG_JOINT4:0.994702,0.100882,0.000000,-0.019779 RARM_JOINT2:0.804170,0.000000,0.296187,0.515348 RARM_JOINT3:0.970079,0.000000,0.233553,0.066326 RLEG_JOINT2:0.998757,0.027512,0.000000,-0.041573 RLEG_JOINT4:0.995426,0.080425,0.000000,0.051559 WAIST:0.999957,0.000000,0.008883,-0.002795 WAIST_JOINT0:0.999897,-0.000000,0.007831,0.011995 WAIST_JOINT1:0.998957,0.044984,0.000000,-0.007824 END:
KINECT_DATA_Sensor  AnkleLeft:0.071968,0.743318,-0.098306,-0.657750 AnkleRight:0.082907,0.727013,0.069167,0.678082 ElbowLeft:-0.049188,0.889888,-0.167487,-0.421459 ElbowRight:-0.256488,0.879101,0.057051,0.397668 FootLeft:0.000000,0.000000,0.000000,0.000000 FootRight:0.000000,0.000000,0.000000,0.000000 HandLeft:-0.136714,0.761876,-0.035011,0.632162 HandRight:-0.021744,0.263385,-0.397364,0.878782 HandTipLeft:0.000000,0.000000,0.000000,0.000000 HandTipRight:0.000000,0.000000,0.000000,0.000000 Head:0.000000,0.000000,0.000000,0.000000 HipLeft:0.117473,-0.685780,0.703339,-0.145672 HipRight:-0.131063,0.676660,0.704899,-0.167543 KneeLeft:0.021398,-0.700445,0.047180,0.711824 KneeRight:-0.012292,0.713136,0.050748,0.699078 Neck:-0.008174,-0.010889,0.998184,-0.058684 ShoulderLeft:0.017290,0.789908,-0.612107,0.032727 ShoulderRight:0.007451,0.799369,0.599140,-0.044550 SpineBase:-0.009001,-0.010260,0.999526,-0.027589 SpineMid:-0.008750,-0.010267,0.999528,-0.027586 SpineShoulder:-0.008393,-0.011081,0.999084,-0.040469 ThumbLeft:0.000000,0.000000,0.000000,0.000000 ThumbRight:0.000000,0.000000,0.000000,0.000000 WristLeft:-0.145886,0.765305,-0.106182,0.617860 WristRight:-0.082033,0.236846,-0.358112,0.899405 END:
KINECT_DATA POSITION:5.494634,-0.366053,-4.882526 HEAD_JOINT1:0.990074,0.126294,-0.000000,0.061674 LARM_JOINT2:0.823603,0.000000,-0.020678,-0.566790 LARM_JOINT3:0.964407,0.000000,-0.200191,-0.172751 LLEG_JOINT2:0.998573,0.017712,0.000000,0.050382 LLEG_JOINT4:0.995030,0.097776,0.000000,-0.018826 RARM_JOINT2:0.803370,0.000000,0.318825,0.502938 RARM_JOINT3:0.970238,0.000000,0.235513,0.056315 RLEG_JOINT2:0.998706,0.026664,0.000000,-0.043313 RLEG_JOINT4:0.994892,0.085223,0.000000,0.054109 WAIST:0.999895,0.000000,0.014254,-0.002720 WAIST_JOINT0:0.999353,-0.000000,0.032089,0.016245 WAIST_JOINT1:0.999041,0.043473,0.000000,-0.005304 END:
KINECT_DATA_Sensor  AnkleLeft:0.069476,0.735684,-0.096384,-0.666822 AnkleRight:0.085326,0.723713,0.072500,0.680957 ElbowLeft:-0.049687,0.884800,-0.167956,-0.431800 ElbowRight:-0.276422,0.864004,0.034523,0.419399 FootLeft:0.000000,0.000000,0.000000,0.000000 FootRight:0.000000,0.000000,0.000000,0.000000 HandLeft:-0.127229,0.809357,-0.038320,0.572090 HandRight:-0.019891,0.295773,-0.386397,0.873396 HandTipLeft:0.000000,0.000000,0.000000,0.000000 HandTipRight:0.000000,0.000000,0.000000,0.000000 Head:0.000000,0.000000,0.000000,0.000000 HipLeft:0.115458,-0.686509,0.703749,-0.141817 HipRight:-0.136661,0.676244,0.703769,-0.169489 KneeLeft:0.020454,-0.696668,0.046570,0.715588 KneeRight:-0.014339,0.716846,0.051245,0.695198 Neck:-0.032067,-0.007510,0.997791,-0.057699 ShoulderLeft:0.021133,0.789160,-0.613469,0.020880 ShoulderRight:-0.019084,0.803047,0.591458,-0.070199 SpineBase:-0.014325,-0.008734,0.999535,-0.025479 SpineMid:-0.023275,-0.008506,0.999366,-0.025556 SpineShoulder:-0.032279,-0.007962,0.998687,-0.038981 ThumbLeft:0.000000,0.000000,0.000000,0.000000 ThumbRight:0.000000,0.000000,0.000000,0.000000 WristLeft:-0.148119,0.808394,-0.101313,0.560620 WristRight:-0.099152,0.259992,-0.388206,0.878561 END:
KINECT_DATA POSITION:5.584108,-0.389273,-4.863596 HEAD_JOINT1:0.990296,0.127394,-0.000000,0.055540 LARM_JOINT2:0.822581,0.000000,-0.017697,-0.568373 LARM_JOINT3:0.963454,0.000000,-0.206041,-0.171180 LLEG_JOINT2:0.998668,0.016986,0.000000,0.048717 LLEG_JOINT4:0.995475,0.093993,0.000000,-0.013964 RARM_JOINT2:0.802805,0.000000,0.365770,0.470868 RARM_JOINT3:0.974569,0.000000,0.216841,0.056526 RLEG_JOINT2:0.998604,0.028398,0.000000,-0.044538 RLEG_JOINT4:0.994826,0.084621,0.000000,0.056221 WAIST:0.999760,0.000000,0.021787,-0.002191 WAIST_JOINT0:0.998959,-0.000000,0.041375,0.019216 WAIST_JOINT1:0.999125,0.041766,0.000000,-0.002182 END:
KINECT_DATA_Sensor  AnkleLeft:0.068160,0.757585,-0.093203,-0.642443 AnkleRight:0.086294,0.726010,0.073268,0.678303 ElbowLeft:-0.050641,0.875170,-0.169693,-0.450242 ElbowRight:-0.315451,0.874332,0.023240,0.368095 FootLeft:0.000000,0.000000,0.000000,0.000000 FootRight:0.000000,0.000000,0.000000,0.000000 HandLeft:-0.143475,0.812436,-0.041517,0.563595 HandRight:-0.021223,0.294773,-0.395666,0.869544 HandTipLeft:0.000000,0.000000,0.000000,0.000000 HandTipRight:0.000000,0.000000,0.000000,0.000000 Head:0.000000,0.000000,0.000000,0.000000 HipLeft:0.111378,-0.687459,0.704570,-0.136296 HipRight:-0.142990,0.676293,0.701903,-0.171796 KneeLeft:0.019837,-0.691279,0.045406,0.720887 KneeRight:-0.014015,0.722072,0.052876,0.689652 Neck:-0.041379,-0.003936,0.997558,-0.056136 ShoulderLeft:0.023325,0.788429,-0.614519,0.014244 ShoulderRight:-0.028759,0.805955,0.586089,-0.078159 SpineBase:-0.021814,-0.006337,0.999471,-0.023295 SpineMid:-0.031646,-0.006108,0.999207,-0.023356 SpineShoulder:-0.041554,-0.004616,0.998433,-0.037186 ThumbLeft:0.000000,0.000000,0.000000,0.000000 ThumbRight:0.000000,0.000000,0.000000,0.000000 WristLeft:-0.145730,0.815198,-0.109637,0.549722 WristRight:-0.092016,0.262067,-0.409505,0.868999 END:
KINECT_DATA POSITION:5.651268,-0.399038,-4.848564 HEAD_JOINT1:0.990805,0.126331,-0.000000,0.048426 LARM_JOINT2:0.821543,0.000000,-0.016540,-0.569906 LARM_JOINT3:0.962774,0.000000,-0.209933,-0.170278 LLEG_JOINT2:0.998790,0.015732,0.000000,0.046598 LLEG_JOINT4:0.995409,0.094776,0.000000,-0.013341 RARM_JOINT2:0.804115,0.000000,0.397261,0.442247 RARM_JOINT3:0.975780,0.000000,0.206846,0.071186 RLEG_JOINT2:0.998473,0.029621,0.000000,-0.046635 RLEG_JOINT4:0.994704,0.084933,0.000000,0.057888 WAIST:0.999638,0.000000,0.026904,-0.000639 WAIST_JOINT0:0.997793,-0.000000,0.062120,0.023460 WAIST_JOINT1:0.999163,0.040895,-0.000000,0.000194 END:
KINECT_DATA_Sensor  AnkleLeft:0.066470,0.742111,-0.093853,-0.660337 AnkleRight:0.086569,0.718390,0.075380,0.686104 ElbowLeft:-0.051458,0.869939,-0.171611,-0.459465 ElbowRight:-0.343739,0.894556,0.037824,0.283165 FootLeft:0.000000,0.000000,0.000000,0.000000 FootRight:0.000000,0.000000,0.000000,0.000000 HandLeft:-0.150606,0.778966,-0.057048,0.606032 HandRight:-0.014958,0.266818,-0.404533,0.874607 HandTipLeft:0.000000,0.000000,0.000000,0.000000 HandTipRight:0.000000,0.000000,0.000000,0.000000 Head:0.000000,0.000000,0.000000,0.000000 HipLeft:0.109100,-0.687105,0.705846,-0.133285 HipRight:-0.147847,0.676956,0.699727,-0.173937 KneeLeft:0.020149,-0.687532,0.044209,0.724527 KneeRight:-0.013855,0.725655,0.054048,0.685793 Neck:-0.061872,0.000675,0.996542,-0.055453 ShoulderLeft:0.024939,0.786774,-0.616710,0.005797 ShoulderRight:-0.053576,0.807563,0.578504,-0.101512 SpineBase:-0.026941,-0.003895,0.999388,-0.021949 SpineMid:-0.044348,-0.003512,0.998767,-0.022014 SpineShoulder:-0.062013,-0.000357,0.997418,-0.036229 ThumbLeft:0.000000,0.000000,0.000000,0.000000 ThumbRight:0.000000,0.000000,0.000000,0.000000 WristLeft:-0.136817,0.785109,-0.122872,0.591429 WristRight:-0.057272,0.246841,-0.420432,0.871221 END:
KINECT_DATA POSITION:5.698457,-0.398655,-4.867709 HEAD_JOINT1:0.991097,0.125536,-0.000000,0.044363 LARM_JOINT2:0.821188,0.000000,-0.017189,-0.570399 LARM_JOINT3:0.962272,0.000000,-0.211112,-0.171650 LLEG_JOINT2:0.998840,0.015441,0.000000,0.045606 LLEG_JOINT4:0.995250,0.096710,0.000000,-0.011162 RARM_JOINT2:0.819175,0.000000,0.436956,0.371512 RARM_JOINT3:0.973909,0.000000,0.168321,0.152216 RLEG_JOINT2:0.998397,0.030656,0.000000,-0.047583 RLEG_JOINT4:0.994847,0.082839,0.000000,0.058463 WAIST:0.999548,0.000000,0.030051,-0.000073 WAIST_JOINT0:0.997253,-0.000000,0.069714,0.025038 WAIST_JOINT1:0.999171,0.040688,-0.000000,0.001653 END:
KINECT_DATA_Sensor  AnkleLeft:0.067891,0.746198,-0.095368,-0.655351 AnkleRight:0.086042,0.723532,0.074382,0.680857 ElbowLeft:-0.052015,0.868690,-0.172760,-0.461330 ElbowRight:-0.375826,0.912631,0.160577,0.008630 FootLeft:0.000000,0.000000,0.000000,0.000000 FootRight:0.000000,0.000000,0.000000,0.000000 HandLeft:-0.159220,0.793567,-0.055046,0.584697 HandRight:-0.050876,0.294649,-0.394559,0.868860 HandTipLeft:0.000000,0.000000,0.000000,0.000000 HandTipRight:0.000000,0.000000,0.000000,0.000000 Head:0.000000,0.000000,0.000000,0.000000 HipLeft:0.106717,-0.687079,0.706700,-0.130806 HipRight:-0.150020,0.677192,0.698977,-0.174176 KneeLeft:0.019941,-0.685249,0.043751,0.726720 KneeRight:-0.013598,0.727851,0.055010,0.683390 Neck:-0.069560,0.002758,0.996039,-0.055323 ShoulderLeft:0.026839,0.785534,-0.618233,0.001880 ShoulderRight:-0.061639,0.807929,0.575739,-0.109434 SpineBase:-0.030070,-0.002010,0.999321,-0.021191 SpineMid:-0.049699,-0.001593,0.998537,-0.021227 SpineShoulder:-0.069672,0.001720,0.996920,-0.035951 ThumbLeft:0.000000,0.000000,0.000000,0.000000 ThumbRight:0.000000,0.000000,0.000000,0.000000 WristLeft:-0.138651,0.801046,-0.120960,0.569622 WristRight:-0.038866,0.301994,-0.369541,0.877912 END:
KINECT_DATA POSITION:5.713511,-0.391174,-4.918301 HEAD_JOINT1:0.991678,0.120378,-0.000000,0.045644 LARM_JOINT2:0.821225,0.000000,-0.019123,-0.570284 LARM_JOINT3:0.961216,0.000000,-0.214629,-0.173202 LLEG_JOINT2:0.998854,0.015548,0.000000,0.045257 LLEG_JOINT4:0.995441,0.094747,0.000000,-0.010930 RARM_JOINT2:0.811131,0.000000,0.414536,0.412585 RARM_JOINT3:0.978773,0.000000,0.186386,0.085229 RLEG_JOINT2:0.998355,0.031177,0.000000,-0.048108 RLEG_JOINT4:0.994864,0.084170,0.000000,0.056224 WAIST:0.999470,-0.000000,0.032550,0.000355 WAIST_JOINT0:0.997098,-0.000000,0.071656,0.025716 WAIST_JOINT1:0.999143,0.041328,-0.000000,0.002151 END:
KINECT_DATA_Sensor  AnkleLeft:0.069782,0.767760,-0.091882,-0.630264 AnkleRight:0.086767,0.736865,0.076025,0.666124 ElbowLeft:-0.052520,0.868454,-0.173470,-0.461452 ElbowRight:-0.364326,0.908176,0.072118,0.193086 FootLeft:0.000000,0.000000,0.000000,0.000000 FootRight:0.000000,0.000000,0.000000,0.000000 HandLeft:-0.173606,0.791788,-0.058623,0.582663 HandRight:-0.060280,0.266128,-0.400119,0.874898 HandTipLeft:0.000000,0.000000,0.000000,0.000000 HandTipRight:0.000000,0.000000,0.000000,0.000000 Head:0.000000,0.000000,0.000000,0.000000 HipLeft:0.104723,-0.687013,0.707377,-0.129086 HipRight:-0.151494,0.677343,0.698439,-0.174468 KneeLeft:0.019817,-0.683430,0.043922,0.728424 KneeRight:-0.013457,0.729593,0.055413,0.681500 Neck:-0.071784,0.003409,0.995843,-0.055973 ShoulderLeft:0.028188,0.784509,-0.619476,0.001136 ShoulderRight:-0.063187,0.808149,0.574777,-0.111957 SpineBase:-0.032554,-0.000517,0.999252,-0.020868 SpineMid:-0.052024,-0.000110,0.998428,-0.020874 SpineShoulder:-0.071872,0.002589,0.996740,-0.036567 ThumbLeft:0.000000,0.000000,0.000000,0.000000 ThumbRight:0.000000,0.000000,0.000000,0.000000 WristLeft:-0.138667,0.802475,-0.121408,0.567508 WristRight:-0.054954,0.267674,-0.410095,0.870145 END:
KINECT_DATA POSITION:5.715754,-0.396657,-4.998016 HEAD_JOINT1:0.991770,0.119000,-0.000000,0.047242 LARM_JOINT2:0.821506,0.000000,-0.020218,-0.569842 LARM_JOINT3:0.961466,0.000000,-0.214654,-0.171776 LLEG_JOINT2:0.998867,0.014724,0.000000,0.045264 LLEG_JOINT4:0.995386,0.095361,0.000000,-0.010661 RARM_JOINT2:0.817854,0.000000,0.434771,0.376947 RARM_JOINT3:0.977504,0.000000,0.174888,0.117897 RLEG_JOINT2:0.998352,0.031389,0.000000,-0.048047 RLEG_JOINT4:0.994922,0.082172,0.000000,0.058126 WAIST:0.999444,-0.000000,0.033349,0.000628 WAIST_JOINT0:0.997040,-0.000000,0.072391,0.025909 WAIST_JOINT1:0.999124,0.041801,-0.000000,0.002208 END:
KINECT_DATA_Sensor  AnkleLeft:-0.055169,-0.666909,0.101283,0.736159 AnkleRight:0.086035,0.728414,0.074439,0.675625 ElbowLeft:-0.053069,0.868207,-0.174074,-0.461627 ElbowRight:-0.382272,0.912122,0.126563,0.076697 FootLeft:0.000000,0.000000,0.000000,0.000000 FootRight:0.000000,0.000000,0.000000,0.000000 HandLeft:-0.170998,0.818506,-0.056170,0.545576 HandRight:-0.060991,0.267872,-0.410238,0.869614 HandTipLeft:0.000000,0.000000,0.000000,0.000000 HandTipRight:0.000000,0.000000,0.000000,0.000000 Head:0.000000,0.000000,0.000000,0.000000 HipLeft:0.104221,-0.686882,0.707653,-0.128675 HipRight:-0.152256,0.677580,0.698097,-0.174251 KneeLeft:0.020583,-0.682825,0.043572,0.728991 KneeRight:-0.013117,0.730169,0.055322,0.680897 Neck:-0.072727,0.003542,0.995748,-0.056427 ShoulderLeft:0.027625,0.783959,-0.620194,0.001970 ShoulderRight:-0.065066,0.808079,0.574257,-0.114033 SpineBase:-0.033340,0.000623,0.999233,-0.020546 SpineMid:-0.052856,0.001024,0.998391,-0.020530 SpineShoulder:-0.072798,0.002948,0.996654,-0.037034 ThumbLeft:0.000000,0.000000,0.000000,0.000000 ThumbRight:0.000000,0.000000,0.000000,0.000000 WristLeft:-0.144221,0.826536,-0.115962,0.531593 WristRight:-0.046198,0.275714,-0.393590,0.875748 END:
KINECT_DATA POSITION:5.663424,-0.401862,-5.063081 HEAD_JOINT1:0.991585,0.119941,-0.000000,0.048720 LARM_JOINT2:0.821961,0.000000,-0.020923,-0.569159 LARM_JOINT3:0.960042,0.000000,-0.215087,-0.179046 LLEG_JOINT2:0.998880,0.013045,0.000000,0.045488 LLEG_JOINT4:0.995237,0.096620,0.000000,-0.012948 RARM_JOINT2:0.815814,0.000000,0.447437,0.366399 RARM_JOINT3:0.976892,0.000000,0.167109,0.133254 RLEG_JOINT2:0.998342,0.031503,0.000000,-0.048184 RLEG_JOINT4:0.995026,0.080899,0.000000,0.058129 WAIST:0.999424,-0.000000,0.033934,0.000842 WAIST_JOINT0:0.997003,-0.000000,0.072833,0.026076 WAIST_JOINT1:0.999106,0.042244,-0.000000,0.001688 END:
KINECT_DATA_Sensor  AnkleLeft:0.066521,0.741330,-0.093045,-0.661323 AnkleRight:0.084993,0.726664,0.073885,0.677699 ElbowLeft:-0.053159,0.868353,-0.174523,-0.461171 ElbowRight:-0.389133,0.909956,0.138212,0.038118 FootLeft:0.000000,0.000000,0.000000,0.000000 FootRight:0.000000,0.000000,0.000000,0.000000 HandLeft:-0.184622,0.860669,-0.020191,0.474085 HandRight:-0.040007,0.278531,-0.396050,0.874051 HandTipLeft:0.000000,0.000000,0.000000,0.000000 HandTipRight:0.000000,0.000000,0.000000,0.000000 Head:0.000000,0.000000,0.000000,0.000000 HipLeft:0.103943,-0.686761,0.707840,-0.128525 HipRight:-0.152549,0.677642,0.697884,-0.174608 KneeLeft:0.022092,-0.682347,0.042752,0.729443 KneeRight:-0.013021,0.730578,0.055340,0.680459 Neck:-0.073239,0.003173,0.995689,-0.056829 ShoulderLeft:0.027171,0.783598,-0.620667,0.002841 ShoulderRight:-0.066266,0.807809,0.574200,-0.115532 SpineBase:-0.033931,0.000766,0.999211,-0.020620 SpineMid:-0.053400,0.001168,0.998360,-0.020602 SpineShoulder:-0.073315,0.002629,0.996601,-0.037485 ThumbLeft:0.000000,0.000000,0.000000,0.000000 ThumbRight:0.000000,0.000000,0.000000,0.000000 WristLeft:-0.155317,0.871201,-0.102229,0.454351 WristRight:-0.042386,0.278010,-0.390421,0.876633 END:
KINECT_DATA POSITION:5.598500,-0.426076,-5.099189 HEAD_JOINT1:0.991319,0.121929,-0.000000,0.049184 LARM_JOINT2:0.821772,0.000000,-0.020541,-0.569447 LARM_JOINT3:0.960576,0.000000,-0.212894,-0.178799 LLEG_JOINT2:0.998881,0.013758,0.000000,0.045246 LLEG_JOINT4:0.995425,0.094835,0.000000,-0.011612 RARM_JOINT2:0.812878,0.000000,0.435165,0.387118 RARM_JOINT3:0.979425,0.000000,0.170152,0.108509 RLEG_JOINT2:0.998274,0.032448,0.000000,-0.048944 RLEG_JOINT4:0.995165,0.077696,0.000000,0.060083 WAIST:0.999417,-0.000000,0.034120,0.001049 WAIST_JOINT0:0.996968,-0.000000,0.073294,0.026148 WAIST_JOINT1:0.999090,0.042626,-0.000000,0.001348 END:
KINECT_DATA_Sensor  AnkleLeft:0.065396,0.744929,-0.093055,-0.657377 AnkleRight:0.084468,0.727303,0.071260,0.677361 ElbowLeft:-0.052250,0.868479,-0.174416,-0.461078 ElbowRight:-0.382584,0.909871,0.096026,0.128623 FootLeft:0.000000,0.000000,0.000000,0.000000 FootRight:0.000000,0.000000,0.000000,0.000000 HandLeft:-0.164187,0.782054,-0.044281,0.599561 HandRight:-0.058877,0.278185,-0.366011,0.886105 HandTipLeft:0.000000,0.000000,0.000000,0.000000 HandTipRight:0.000000,0.000000,0.000000,0.000000 Head:0.000000,0.000000,0.000000,0.000000 HipLeft:0.103820,-0.686582,0.708008,-0.128650 HipRight:-0.152597,0.677723,0.697746,-0.174806 KneeLeft:0.021542,-0.682223,0.043212,0.729548 KneeRight:-0.012790,0.730717,0.056401,0.680227 Neck:-0.073830,0.002986,0.995624,-0.057217 ShoulderLeft:0.027035,0.783145,-0.621242,0.003360 ShoulderRight:-0.067237,0.807557,0.574182,-0.116817 SpineBase:-0.034122,0.000946,0.999201,-0.020781 SpineMid:-0.053781,0.001355,0.998336,-0.020758 SpineShoulder:-0.073904,0.002527,0.996543,-0.037856 ThumbLeft:0.000000,0.000000,0.000000,0.000000 ThumbRight:0.000000,0.000000,0.000000,0.000000 WristLeft:-0.140719,0.792348,-0.123529,0.580623 WristRight:-0.051631,0.277763,-0.409063,0.867669 END:
KINECT_DATA POSITION:5.573034,-0.441815,-5.108142 HEAD_JOINT1:0.990922,0.124718,-0.000000,0.050192 LARM_JOINT2:0.821231,0.000000,-0.019326,-0.570269 LARM_JOINT3:0.960536,0.000000,-0.213707,-0.178046 LLEG_JOINT2:0.998911,0.013336,0.000000,0.044717 LLEG_JOINT4:0.995236,0.096664,0.000000,-0.012709 RARM_JOINT2:0.815924,0.000000,0.436387,0.379254 RARM_JOINT3:0.978367,0.000000,0.168475,0.120062 RLEG_JOINT2:0.998251,0.031598,0.000000,-0.049968 RLEG_JOINT4:0.994847,0.080087,0.000000,0.062179 WAIST:0.999420,-0.000000,0.034041,0.001357 WAIST_JOINT0:0.996958,-0.000000,0.073357,0.026327 WAIST_JOINT1:0.999083,0.042789,-0.000000,0.001156 END:
KINECT_DATA_Sensor  AnkleLeft:0.065602,0.732764,-0.094059,-0.670751 AnkleRight:0.086159,0.723457,0.071847,0.681193 ElbowLeft:-0.051350,0.867260,-0.174007,-0.463622 ElbowRight:-0.384088,0.910977,0.113692,0.098339 FootLeft:0.000000,0.000000,0.000000,0.000000 FootRight:0.000000,0.000000,0.000000,0.000000 HandLeft:-0.167491,0.868418,-0.017570,0.466356 HandRight:-0.076121,0.309773,-0.361590,0.876070 HandTipLeft:0.000000,0.000000,0.000000,0.000000 HandTipRight:0.000000,0.000000,0.000000,0.000000 Head:0.000000,0.000000,0.000000,0.000000 HipLeft:0.103846,-0.686365,0.708196,-0.128754 HipRight:-0.152538,0.677960,0.697545,-0.174738 KneeLeft:0.021712,-0.682269,0.042753,0.729527 KneeRight:-0.013897,0.730655,0.056265,0.680282 Neck:-0.073941,0.003061,0.995604,-0.057415 ShoulderLeft:0.026728,0.782923,-0.621533,0.003776 ShoulderRight:-0.067734,0.807548,0.574034,-0.117317 SpineBase:-0.034051,0.001180,0.999203,-0.020802 SpineMid:-0.053793,0.001591,0.998335,-0.020774 SpineShoulder:-0.074010,0.002672,0.996530,-0.037991 ThumbLeft:0.000000,0.000000,0.000000,0.000000 ThumbRight:0.000000,0.000000,0.000000,0.000000 WristLeft:-0.158959,0.873988,-0.099887,0.448219 WristRight:-0.061457,0.312293,-0.400556,0.859216 END:
KINECT_DATA POSITION:5.560324,-0.447444,-5.105758 HEAD_JOINT1:0.990432,0.128321,-0.000000,0.050773 LARM_JOINT2:0.820893,0.000000,-0.019235,-0.570759 LARM_JOINT3:0.959541,0.000000,-0.217780,-0.178473 LLEG_JOINT2:0.998915,0.013058,0.000000,0.044712 LLEG_JOINT4:0.995247,0.096749,0.000000,-0.011051 RARM_JOINT2:0.815832,0.000000,0.435869,0.380049 RARM_JOINT3:0.978299,0.000000,0.170774,0.117333 RLEG_JOINT2:0.998292,0.031244,0.000000,-0.049360 RLEG_JOINT4:0.994707,0.083404,0.000000,0.060012 WAIST:0.999424,-0.000000,0.033912,0.001516 WAIST_JOINT0:0.996930,-0.000000,0.073520,0.026916 WAIST_JOINT1:0.999067,0.043165,-0.000000,0.001384 END:
KINECT_DATA_Sensor  AnkleLeft:0.064863,0.736694,-0.094992,-0.666372 AnkleRight:0.087114,0.722579,0.075013,0.681663 ElbowLeft:-0.050899,0.867292,-0.173997,-0.463615 ElbowRight:-0.383220,0.911240,0.112478,0.100663 FootLeft:0.000000,0.000000,0.000000,0.000000 FootRight:0.000000,0.000000,0.000000,0.000000 HandLeft:-0.174905,0.799284,-0.044241,0.573233 HandRight:-0.062122,0.275958,-0.373639,0.883392 HandTipLeft:0.000000,0.000000,0.000000,0.000000 HandTipRight:0.000000,0.000000,0.000000,0.000000 Head:0.000000,0.000000,0.000000,0.000000 HipLeft:0.103879,-0.686179,0.708305,-0.129122 HipRight:-0.152527,0.678052,0.697451,-0.174764 KneeLeft:0.022031,-0.682353,0.042670,0.729444 KneeRight:-0.013578,0.730583,0.055480,0.680430 Neck:-0.074159,0.003449,0.995561,-0.057858 ShoulderLeft:0.026599,0.782432,-0.622153,0.004325 ShoulderRight:-0.068213,0.807660,0.573668,-0.118054 SpineBase:-0.033921,0.001538,0.999203,-0.020961 SpineMid:-0.053829,0.001955,0.998329,-0.020926 SpineShoulder:-0.074220,0.003088,0.996500,-0.038334 ThumbLeft:0.000000,0.000000,0.000000,0.000000 ThumbRight:0.000000,0.000000,0.000000,0.000000 WristLeft:-0.145951,0.810178,-0.118738,0.555168 WristRight:-0.046880,0.279613,-0.402277,0.870513 END:
KINECT_DATA POSITION:5.551139,-0.458997,-5.084991 HEAD_JOINT1:0.990189,0.130106,-0.000000,0.050970 LARM_JOINT2:0.820774,0.000000,-0.019117,-0.570933 LARM_JOINT3:0.960042,0.000000,-0.215603,-0.178424 LLEG_JOINT2:0.998919,0.013185,0.000000,0.044565 LLEG_JOINT4:0.995686,0.092342,0.000000,-0.009022 RARM_JOINT2:0.810426,0.000000,0.425438,0.402757 RARM_JOINT3:0.980602,0.000000,0.170794,0.096170 RLEG_JOINT2:0.998300,0.031347,0.000000,-0.049146 RLEG_JOINT4:0.994702,0.082614,0.000000,0.061185 WAIST:0.999422,-0.000000,0.033955,0.001557 WAIST_JOINT0:0.996909,-0.000000,0.073732,0.027137 WAIST_JOINT1:0.999066,0.043183,-0.000000,0.001289 END:
KINECT_DATA_Sensor  AnkleLeft:0.062823,0.754857,-0.092228,-0.646327 AnkleRight:0.086846,0.714938,0.074525,0.689759 ElbowLeft:-0.050695,0.867252,-0.173810,-0.463783 ElbowRight:-0.373053,0.906588,0.071000,0.184089 FootLeft:0.000000,0.000000,0.000000,0.000000 FootRight:0.000000,0.000000,0.000000,0.000000 HandLeft:-0.165165,0.765833,-0.049824,0.619465 HandRight:-0.050511,0.273540,-0.346768,0.895755 HandTipLeft:0.000000,0.000000,0.000000,0.000000 HandTipRight:0.000000,0.000000,0.000000,0.000000 Head:0.000000,0.000000,0.000000,0.000000 HipLeft:0.103898,-0.686149,0.708336,-0.129091 HipRight:-0.152569,0.678067,0.697422,-0.174788 KneeLeft:0.021864,-0.682325,0.042678,0.729475 KneeRight:-0.013325,0.730618,0.055379,0.680406 Neck:-0.074353,0.003376,0.995545,-0.057886 ShoulderLeft:0.026512,0.782206,-0.622440,0.004424 ShoulderRight:-0.068582,0.807553,0.573705,-0.118395 SpineBase:-0.033966,0.001525,0.999202,-0.020935 SpineMid:-0.053947,0.001944,0.998323,-0.020900 SpineShoulder:-0.074413,0.003045,0.996485,-0.038348 ThumbLeft:0.000000,0.000000,0.000000,0.000000 ThumbRight:0.000000,0.000000,0.000000,0.000000 WristLeft:-0.138920,0.776912,-0.126762,0.600866 WristRight:-0.055976,0.267182,-0.415295,0.867762 END:
KINECT_DATA POSITION:5.557732,-0.473978,-5.063951 HEAD_JOINT1:0.989936,0.132089,-0.000000,0.050780 LARM_JOINT2:0.820824,0.000000,-0.017977,-0.570898 LARM_JOINT3:0.960758,0.000000,-0.213104,-0.177570 LLEG_JOINT2:0.998926,0.013593,0.000000,0.044293 LLEG_JOINT4:0.995443,0.094782,0.000000,-0.010473 RARM_JOINT2:0.814571,0.000000,0.431337,0.387844 RARM_JOINT3:0.978635,0.000000,0.169450,0.116446 RLEG_JOINT2:0.998257,0.029977,0.000000,-0.050841 RLEG_JOINT4:0.994571,0.082476,0.000000,0.063459 WAIST:0.999447,-0.000000,0.033200,0.001696 WAIST_JOINT0:0.996925,-0.000000,0.073480,0.027207 WAIST_JOINT1:0.999062,0.043292,-0.000000,0.000949 END:
KINECT_DATA_Sensor  AnkleLeft:0.065662,0.752860,-0.092905,-0.648274 AnkleRight:0.086024,0.710736,0.073319,0.694319 ElbowLeft:-0.049719,0.867873,-0.174137,-0.462603 ElbowRight:-0.378117,0.912382,0.105207,0.116265 FootLeft:0.000000,0.000000,0.000000,0.000000 FootRight:0.000000,0.000000,0.000000,0.000000 HandLeft:-0.148309,0.707060,-0.062164,0.688626 HandRight:-0.066715,0.309682,-0.358249,0.878239 HandTipLeft:0.000000,0.000000,0.000000,0.000000 HandTipRight:0.000000,0.000000,0.000000,0.000000 Head:0.000000,0.000000,0.000000,0.000000 HipLeft:0.104412,-0.685968,0.708346,-0.129587 HipRight:-0.152139,0.678250,0.697427,-0.174432 KneeLeft:0.021510,-0.682884,0.042841,0.728953 KneeRight:-0.015359,0.730067,0.055452,0.680949 Neck:-0.074052,0.003154,0.995560,-0.058020 ShoulderLeft:0.025874,0.782421,-0.622192,0.005058 ShoulderRight:-0.068842,0.807645,0.573517,-0.118529 SpineBase:-0.033217,0.001536,0.999227,-0.020954 SpineMid:-0.053412,0.001959,0.998352,-0.020919 SpineShoulder:-0.074109,0.002921,0.996505,-0.038441 ThumbLeft:0.000000,0.000000,0.000000,0.000000 ThumbRight:0.000000,0.000000,0.000000,0.000000 WristLeft:-0.126657,0.717778,-0.137907,0.670623 WristRight:-0.062724,0.308144,-0.399421,0.861148 END:
KINECT_DATA POSITION:5.567139,-0.480623,-5.036771 HEAD_JOINT1:0.989831,0.133225,-0.000000,0.049863 LARM_JOINT2:0.820498,0.000000,-0.018469,-0.571352 LARM_JOINT3:0.960448,0.000000,-0.215424,-0.176443 LLEG_JOINT2:0.998940,0.012974,0.000000,0.044164 LLEG_JOINT4:0.995553,0.093836,0.000000,-0.008250 RARM_JOINT2:0.813388,0.000000,0.430049,0.391738 RARM_JOINT3:0.978724,0.000000,0.171283,0.112963 RLEG_JOINT2:0.998268,0.030427,0.000000,-0.050359 RLEG_JOINT4:0.994762,0.080646,0.000000,0.062808 WAIST:0.999435,-0.000000,0.033556,0.001669 WAIST_JOINT0:0.996953,-0.000000,0.073163,0.027047 WAIST_JOINT1:0.999037,0.043875,-0.000000,0.000548 END:
KINECT_DATA_Sensor  AnkleLeft:0.062099,0.745041,-0.094353,-0.657385 AnkleRight:0.086109,0.722549,0.071058,0.682246 ElbowLeft:-0.049011,0.868090,-0.173351,-0.462566 ElbowRight:-0.376070,0.912473,0.099103,0.127053 FootLeft:0.000000,0.000000,0.000000,0.000000 FootRight:0.000000,0.000000,0.000000,0.000000 HandLeft:-0.159589,0.738228,-0.063443,0.652323 HandRight:-0.051126,0.291788,-0.362712,0.883564 HandTipLeft:0.000000,0.000000,0.000000,0.000000 HandTipRight:0.000000,0.000000,0.000000,0.000000 Head:0.000000,0.000000,0.000000,0.000000 HipLeft:0.104074,-0.685958,0.708401,-0.129607 HipRight:-0.152139,0.678085,0.697465,-0.174920 KneeLeft:0.021841,-0.682613,0.042311,0.729227 KneeRight:-0.014740,0.730320,0.055464,0.680691 Neck:-0.073749,0.002574,0.995547,-0.058664 ShoulderLeft:0.026356,0.782628,-0.621908,0.005442 ShoulderRight:-0.067912,0.807624,0.573672,-0.118452 SpineBase:-0.033575,0.001366,0.999208,-0.021289 SpineMid:-0.053442,0.001789,0.998343,-0.021258 SpineShoulder:-0.073807,0.002488,0.996506,-0.039012 ThumbLeft:0.000000,0.000000,0.000000,0.000000 ThumbRight:0.000000,0.000000,0.000000,0.000000 WristLeft:-0.132043,0.748661,-0.130834,0.636360 WristRight:-0.055549,0.287257,-0.401348,0.867939 END:
KINECT_DATA POSITION:5.580611,-0.489090,-5.011368 HEAD_JOINT1:0.989679,0.134928,-0.000000,0.048278 LARM_JOINT2:0.820170,0.000000,-0.020134,-0.571765 LARM_JOINT3:0.961084,0.000000,-0.214970,-0.173511 LLEG_JOINT2:0.998941,0.012966,0.000000,0.044148 LLEG_JOINT4:0.995108,0.098503,0.000000,-0.007614 RARM_JOINT2:0.809762,0.000000,0.425529,0.403992 RARM_JOINT3:0.980190,0.000000,0.173594,0.095358 RLEG_JOINT2:0.998244,0.031393,0.000000,-0.050225 RLEG_JOINT4:0.994810,0.080808,0.000000,0.061834 WAIST:0.999438,-0.000000,0.033495,0.001581 WAIST_JOINT0:0.996972,-0.000000,0.072923,0.027002 WAIST_JOINT1:0.999005,0.044601,-0.000000,0.000286 END:
KINECT_DATA_Sensor  AnkleLeft:0.066529,0.751581,-0.096875,-0.649088 AnkleRight:0.087271,0.732443,0.071223,0.671445 ElbowLeft:-0.048797,0.869516,-0.172375,-0.460270 ElbowRight:-0.370322,0.909566,0.075984,0.172561 FootLeft:0.000000,0.000000,0.000000,0.000000 FootRight:0.000000,0.000000,0.000000,0.000000 HandLeft:-0.170073,0.857454,-0.038061,0.484148 HandRight:-0.061836,0.308810,-0.365225,0.876027 HandTipLeft:0.000000,0.000000,0.000000,0.000000 HandTipRight:0.000000,0.000000,0.000000,0.000000 Head:0.000000,0.000000,0.000000,0.000000 HipLeft:0.103769,-0.685934,0.708405,-0.129956 HipRight:-0.151647,0.677916,0.697646,-0.175280 KneeLeft:0.021776,-0.682660,0.042231,0.729190 KneeRight:-0.014036,0.730286,0.056140,0.680686 Neck:-0.073610,0.002211,0.995514,-0.059408 ShoulderLeft:0.027014,0.782469,-0.622075,0.005929 ShoulderRight:-0.067056,0.807539,0.573848,-0.118668 SpineBase:-0.033516,0.001112,0.999198,-0.021877 SpineMid:-0.053348,0.001546,0.998336,-0.021850 SpineShoulder:-0.073674,0.002149,0.996488,-0.039739 ThumbLeft:0.000000,0.000000,0.000000,0.000000 ThumbRight:0.000000,0.000000,0.000000,0.000000 WristLeft:-0.154419,0.862963,-0.099789,0.470629 WristRight:-0.071523,0.302300,-0.405919,0.859493 END:
KINECT_DATA POSITION:5.592852,-0.496629,-4.992235 HEAD_JOINT1:0.989747,0.134646,-0.000000,0.047668 LARM_JOINT2:0.820287,0.000000,-0.021176,-0.571560 LARM_JOINT3:0.960875,0.000000,-0.215549,-0.173950 LLEG_JOINT2:0.998933,0.013449,0.000000,0.044190 LLEG_JOINT4:0.995350,0.095819,0.000000,-0.009812 RARM_JOINT2:0.814452,0.000000,0.431183,0.388263 RARM_JOINT3:0.978574,0.000000,0.167428,0.119837 RLEG_JOINT2:0.998242,0.032107,0.000000,-0.049826 RLEG_JOINT4:0.994873,0.081650,0.000000,0.059666 WAIST:0.999446,-0.000000,0.033251,0.001499 WAIST_JOINT0:0.997044,-0.000000,0.071918,0.027050 WAIST_JOINT1:0.998974,0.045296,-0.000000,0.000230 END:
KINECT_DATA_Sensor  AnkleLeft:0.063620,0.734957,-0.095479,-0.668337 AnkleRight:0.087472,0.736149,0.073089,0.667152 ElbowLeft:-0.048960,0.869881,-0.172364,-0.459565 ElbowRight:-0.374911,0.914432,0.110480,0.105117 FootLeft:0.000000,0.000000,0.000000,0.000000 FootRight:0.000000,0.000000,0.000000,0.000000 HandLeft:-0.174587,0.873134,-0.030344,0.454131 HandRight:-0.048585,0.275615,-0.358419,0.890624 HandTipLeft:0.000000,0.000000,0.000000,0.000000 HandTipRight:0.000000,0.000000,0.000000,0.000000 Head:0.000000,0.000000,0.000000,0.000000 HipLeft:0.103607,-0.685908,0.708359,-0.130471 HipRight:-0.151168,0.677813,0.697790,-0.175520 KneeLeft:0.021403,-0.682851,0.042529,0.729005 KneeRight:-0.013299,0.730129,0.056450,0.680844 Neck:-0.072714,0.002044,0.995536,-0.060139 ShoulderLeft:0.026658,0.782108,-0.622529,0.007403 ShoulderRight:-0.066318,0.807363,0.574195,-0.118599 SpineBase:-0.033270,0.001019,0.999194,-0.022419 SpineMid:-0.052783,0.001457,0.998354,-0.022395 SpineShoulder:-0.072780,0.002002,0.996526,-0.040428 ThumbLeft:0.000000,0.000000,0.000000,0.000000 ThumbRight:0.000000,0.000000,0.000000,0.000000 WristLeft:-0.157720,0.878944,-0.094154,0.440133 WristRight:-0.045959,0.273892,-0.394986,0.875704 END:
KINECT_DATA POSITION:5.606926,-0.502982,-4.983401 HEAD_JOINT1:0.989671,0.134815,-0.000000,0.048756 LARM_JOINT2:0.820262,0.000000,-0.022865,-0.571530 LARM_JOINT3:0.961485,0.000000,-0.213424,-0.173198 LLEG_JOINT2:0.998937,0.013393,0.000000,0.044099 LLEG_JOINT4:0.995218,0.097346,0.000000,-0.007996 RARM_JOINT2:0.816040,0.000000,0.424346,0.392441 RARM_JOINT3:0.977534,0.000000,0.176478,0.115249 RLEG_JOINT2:0.998245,0.032380,0.000000,-0.049576 RLEG_JOINT4:0.994813,0.081948,0.000000,0.060268 WAIST:0.999456,-0.000000,0.032939,0.001576 WAIST_JOINT0:0.997100,-0.000000,0.071162,0.026978 WAIST_JOINT1:0.998956,0.045674,0.000000,-0.000036 END:
KINECT_DATA_Sensor  AnkleLeft:0.065267,0.746087,-0.096733,-0.655544 AnkleRight:0.087697,0.728014,0.073846,0.675908 ElbowLeft:-0.049762,0.870382,-0.171742,-0.458763 ElbowRight:-0.371520,0.913412,0.104813,0.129095 FootLeft:0.000000,0.000000,0.000000,0.000000 FootRight:0.000000,0.000000,0.000000,0.000000 HandLeft:-0.168879,0.858617,-0.033191,0.482861 HandRight:-0.051134,0.270716,-0.362552,0.890311 HandTipLeft:0.000000,0.000000,0.000000,0.000000 HandTipRight:0.000000,0.000000,0.000000,0.000000 Head:0.000000,0.000000,0.000000,0.000000 HipLeft:0.103631,-0.685793,0.708381,-0.130938 HipRight:-0.150784,0.677839,0.697801,-0.175704 KneeLeft:0.021449,-0.683074,0.042472,0.728798 KneeRight:-0.012858,0.729925,0.056427,0.681072 Neck:-0.071941,0.001817,0.995571,-0.060498 ShoulderLeft:0.026425,0.782194,-0.622419,0.008252 ShoulderRight:-0.065553,0.807284,0.574473,-0.118221 SpineBase:-0.032964,0.000932,0.999196,-0.022806 SpineMid:-0.052245,0.001372,0.998373,-0.022783 SpineShoulder:-0.072007,0.001820,0.996567,-0.040811 ThumbLeft:0.000000,0.000000,0.000000,0.000000 ThumbRight:0.000000,0.000000,0.000000,0.000000 WristLeft:-0.154393,0.864225,-0.099315,0.468416 WristRight:-0.043867,0.270625,-0.399850,0.874619 END:
KINECT_DATA POSITION:5.610464,-0.508872,-4.981136 HEAD_JOINT1:0.989553,0.135629,-0.000000,0.048883 LARM_JOINT2:0.820417,0.000000,-0.022366,-0.571329 LARM_JOINT3:0.961438,0.000000,-0.210755,-0.176687 LLEG_JOINT2:0.998943,0.013453,0.000000,0.043943 LLEG_JOINT4:0.995427,0.095021,0.000000,-0.009759 RARM_JOINT2:0.816836,0.000000,0.422089,0.393218 RARM_JOINT3:0.977177,0.000000,0.177332,0.116956 RLEG_JOINT2:0.998232,0.032607,0.000000,-0.049700 RLEG_JOINT4:0.994918,0.080725,0.000000,0.060178 WAIST:0.999461,-0.000000,0.032798,0.001657 WAIST_JOINT0:0.997120,-0.000000,0.070957,0.026773 WAIST_JOINT1:0.998967,0.045446,0.000000,-0.000214 END:
KINECT_DATA_Sensor  AnkleLeft:0.063998,0.742558,-0.094301,-0.660014 AnkleRight:0.086598,0.725067,0.073591,0.679238 ElbowLeft:-0.049665,0.870468,-0.171973,-0.458525 ElbowRight:-0.370482,0.913339,0.105466,0.132032 FootLeft:0.000000,0.000000,0.000000,0.000000 FootRight:0.000000,0.000000,0.000000,0.000000 HandLeft:-0.162442,0.804986,-0.035300,0.569530 HandRight:-0.066015,0.307476,-0.354637,0.880530 HandTipLeft:0.000000,0.000000,0.000000,0.000000 HandTipRight:0.000000,0.000000,0.000000,0.000000 Head:0.000000,0.000000,0.000000,0.000000 HipLeft:0.103744,-0.685741,0.708423,-0.130895 HipRight:-0.150675,0.677931,0.697778,-0.175535 KneeLeft:0.021362,-0.683177,0.042454,0.728705 KneeRight:-0.012727,0.729833,0.056623,0.681158 Neck:-0.071678,0.001677,0.995609,-0.060188 ShoulderLeft:0.025799,0.782487,-0.622074,0.008484 ShoulderRight:-0.065841,0.807240,0.574532,-0.118074 SpineBase:-0.032828,0.000891,0.999202,-0.022716 SpineMid:-0.052043,0.001328,0.998386,-0.022695 SpineShoulder:-0.071740,0.001736,0.996595,-0.040607 ThumbLeft:0.000000,0.000000,0.000000,0.000000 ThumbRight:0.000000,0.000000,0.000000,0.000000 WristLeft:-0.143804,0.813737,-0.113989,0.551505 WristRight:-0.059603,0.306596,-0.397983,0.862587 END:
KINECT_DATA POSITION:5.608773,-0.509800,-4.985976 HEAD_JOINT1:0.989500,0.136025,-0.000000,0.048848 LARM_JOINT2:0.820411,0.000000,-0.021774,-0.571360 LARM_JOINT3:0.961629,0.000000,-0.212677,-0.173316 LLEG_JOINT2:0.998941,0.013300,0.000000,0.044056 LLEG_JOINT4:0.995534,0.093987,0.000000,-0.008879 RARM_JOINT2:0.812664,0.000000,0.412709,0.411399 RARM_JOINT3:0.978879,0.000000,0.181098,0.094868 RLEG_JOINT2:0.998225,0.033855,0.000000,-0.049003 RLEG_JOINT4:0.994844,0.081640,0.000000,0.060167 WAIST:0.999466,-0.000000,0.032636,0.001677 WAIST_JOINT0:0.997119,-0.000000,0.070969,0.026788 WAIST_JOINT1:0.998979,0.045186,0.000000,-0.000180 END:
KINECT_DATA_Sensor  AnkleLeft:0.063747,0.751987,-0.093503,-0.649391 AnkleRight:0.088091,0.720088,0.075256,0.684142 ElbowLeft:-0.049800,0.869693,-0.172014,-0.459963 ElbowRight:-0.361908,0.907254,0.073038,0.201438 FootLeft:0.000000,0.000000,0.000000,0.000000 FootRight:0.000000,0.000000,0.000000,0.000000 HandLeft:-0.164730,0.845844,-0.034906,0.506155 HandRight:-0.061869,0.293382,-0.348648,0.888000 HandTipLeft:0.000000,0.000000,0.000000,0.000000 HandTipRight:0.000000,0.000000,0.000000,0.000000 Head:0.000000,0.000000,0.000000,0.000000 HipLeft:0.103862,-0.685716,0.708428,-0.130903 HipRight:-0.150583,0.677981,0.697797,-0.175347 KneeLeft:0.021572,-0.683288,0.042441,0.728595 KneeRight:-0.011339,0.729745,0.057043,0.681242 Neck:-0.071634,0.001771,0.995632,-0.059856 ShoulderLeft:0.025784,0.782586,-0.621954,0.008188 ShoulderRight:-0.065785,0.807290,0.574534,-0.117756 SpineBase:-0.032666,0.000898,0.999210,-0.022637 SpineMid:-0.051941,0.001335,0.998393,-0.022615 SpineShoulder:-0.071697,0.001790,0.996608,-0.040369 ThumbLeft:0.000000,0.000000,0.000000,0.000000 ThumbRight:0.000000,0.000000,0.000000,0.000000 WristLeft:-0.151602,0.851554,-0.104058,0.490963 WristRight:-0.064145,0.288584,-0.410043,0.862826 END:
KINECT_DATA POSITION:5.597909,-0.513498,-4.989088 HEAD_JOINT1:0.989459,0.135924,-0.000000,0.049961 LARM_JOINT2:0.820781,0.000000,-0.021317,-0.570846 LARM_JOINT3:0.961317,0.000000,-0.212748,-0.174950 LLEG_JOINT2:0.998938,0.014060,0.000000,0.043883 LLEG_JOINT4:0.995407,0.095169,0.000000,-0.010392 RARM_JOINT2:0.810442,0.000000,0.412015,0.416446 RARM_JOINT3:0.978236,0.000000,0.187018,0.089885 RLEG_JOINT2:0.998177,0.034470,0.000000,-0.049548 RLEG_JOINT4:0.995294,0.076489,0.000000,0.059496 WAIST:0.999480,-0.000000,0.032178,0.001913 WAIST_JOINT0:0.997175,-0.000000,0.070254,0.026565 WAIST_JOINT1:0.998995,0.044811,0.000000,-0.000428 END:
KINECT_DATA_Sensor  AnkleLeft:0.064809,0.742985,-0.094437,-0.659436 AnkleRight:0.085140,0.728200,0.071614,0.676275 ElbowLeft:-0.050248,0.869513,-0.172529,-0.460062 ElbowRight:-0.359795,0.905137,0.063831,0.217254 FootLeft:0.000000,0.000000,0.000000,0.000000 FootRight:0.000000,0.000000,0.000000,0.000000 HandLeft:-0.168145,0.851792,-0.028342,0.495353 HandRight:-0.038391,0.287626,-0.367324,0.883669 HandTipLeft:0.000000,0.000000,0.000000,0.000000 HandTipRight:0.000000,0.000000,0.000000,0.000000 Head:0.000000,0.000000,0.000000,0.000000 HipLeft:0.104221,-0.685580,0.708484,-0.131029 HipRight:-0.150303,0.678269,0.697659,-0.175020 KneeLeft:0.021084,-0.683628,0.042993,0.728258 KneeRight:-0.011119,0.729442,0.057704,0.681514 Neck:-0.070834,0.001759,0.995720,-0.059344 ShoulderLeft:0.025406,0.782579,-0.621977,0.008307 ShoulderRight:-0.065142,0.806973,0.575271,-0.116676 SpineBase:-0.032220,0.000865,0.999227,-0.022505 SpineMid:-0.051322,0.001295,0.998428,-0.022484 SpineShoulder:-0.070894,0.001781,0.996679,-0.040030 ThumbLeft:0.000000,0.000000,0.000000,0.000000 ThumbRight:0.000000,0.000000,0.000000,0.000000 WristLeft:-0.152788,0.858421,-0.102595,0.478794 WristRight:-0.062617,0.275109,-0.412164,0.866322 END:
KINECT_DATA POSITION:5.602405,-0.518934,-4.915750 HEAD_JOINT1:0.989433,0.136269,-0.000000,0.049525 LARM_JOINT2:0.820391,0.000000,-0.021088,-0.571414 LARM_JOINT3:0.961087,0.000000,-0.213637,-0.175130 LLEG_JOINT2:0.998961,0.014598,0.000000,0.043164 LLEG_JOINT4:0.995554,0.093556,0.000000,-0.010973 RARM_JOINT2:0.807021,0.000000,0.433700,0.400776 RARM_JOINT3:0.973561,0.000000,0.198179,0.113594 RLEG_JOINT2:0.998131,0.035027,0.000000,-0.050079 RLEG_JOINT4:0.995159,0.077650,0.000000,0.060247 WAIST:0.999426,-0.000000,0.033774,0.002607 WAIST_JOINT0:0.997024,-0.000000,0.071950,0.027675 WAIST_JOINT1:0.999025,0.044135,0.000000,-0.000786 END:
KINECT_DATA_Sensor  AnkleLeft:0.063849,0.737779,-0.093601,-0.665465 AnkleRight:0.085120,0.712972,0.074362,0.692024 ElbowLeft:-0.050450,0.868272,-0.172050,-0.462554 ElbowRight:-0.373670,0.913122,0.082701,0.140498 FootLeft:0.000000,0.000000,0.000000,0.000000 FootRight:0.000000,0.000000,0.000000,0.000000 HandLeft:-0.167034,0.808643,-0.042784,0.562463 HandRight:0.000919,0.326451,-0.411284,0.851043 HandTipLeft:0.000000,0.000000,0.000000,0.000000 HandTipRight:0.000000,0.000000,0.000000,0.000000 Head:0.000000,0.000000,0.000000,0.000000 HipLeft:0.104149,-0.685427,0.708929,-0.129470 HipRight:-0.152032,0.678659,0.696794,-0.175462 KneeLeft:0.020623,-0.682455,0.043357,0.729349 KneeRight:-0.010729,0.730558,0.057964,0.680301 Neck:-0.072272,0.002174,0.995682,-0.058218 ShoulderLeft:0.025356,0.782604,-0.621961,0.007226 ShoulderRight:-0.067060,0.807467,0.574121,-0.117835 SpineBase:-0.033842,0.000988,0.999198,-0.021401 SpineMid:-0.052855,0.001395,0.998372,-0.021379 SpineShoulder:-0.072339,0.001980,0.996597,-0.039466 ThumbLeft:0.000000,0.000000,0.000000,0.000000 ThumbRight:0.000000,0.000000,0.000000,0.000000 WristLeft:-0.145029,0.817313,-0.115462,0.545560 WristRight:-0.048819,0.304158,-0.408699,0.859110 END:
KINECT_DATA POSITION:5.629220,-0.573373,-4.635024 HEAD_JOINT1:0.989668,0.136337,-0.000000,0.044370 LARM_JOINT2:0.818730,0.000000,-0.019443,-0.573850 LARM_JOINT3:0.961702,0.000000,-0.210514,-0.175534 LLEG_JOINT2:0.998990,0.015918,0.000000,0.042030 LLEG_JOINT4:0.995723,0.092051,0.000000,-0.007909 RARM_JOINT2:0.795650,0.000000,0.461421,0.392470 RARM_JOINT3:0.970808,0.000000,0.208808,0.118027 RLEG_JOINT2:0.997915,0.040029,0.000000,-0.050636 RLEG_JOINT4:0.995621,0.071915,0.000000,0.059719 WAIST:0.999202,-0.000000,0.039771,0.003687 WAIST_JOINT0:0.996706,-0.000000,0.076126,0.027946 WAIST_JOINT1:0.999113,0.042117,0.000000,-0.000327 END:
KINECT_DATA_Sensor  AnkleLeft:-0.052791,-0.665090,0.101070,0.738006 AnkleRight:0.083674,0.713241,0.074796,0.691875 ElbowLeft:-0.049485,0.865292,-0.170873,-0.468639 ElbowRight:-0.392489,0.908191,0.055754,0.134287 FootLeft:0.000000,0.000000,0.000000,0.000000 FootRight:0.000000,0.000000,0.000000,0.000000 HandLeft:-0.157728,0.804635,-0.039478,0.571074 HandRight:0.011813,0.328430,-0.383008,0.863307 HandTipLeft:0.000000,0.000000,0.000000,0.000000 HandTipRight:0.000000,0.000000,0.000000,0.000000 Head:0.000000,0.000000,0.000000,0.000000 HipLeft:0.103107,-0.685469,0.709942,-0.124434 HipRight:-0.158516,0.678835,0.694737,-0.177188 KneeLeft:0.019395,-0.678074,0.044294,0.733401 KneeRight:-0.007321,0.734721,0.061174,0.675566 Neck:-0.076332,0.004082,0.995501,-0.055986 ShoulderLeft:0.026424,0.782353,-0.622269,0.002828 ShoulderRight:-0.071282,0.807529,0.573078,-0.119989 SpineBase:-0.039846,0.002115,0.999041,-0.018036 SpineMid:-0.057905,0.002441,0.998157,-0.017995 SpineShoulder:-0.076434,0.002943,0.996366,-0.037469 ThumbLeft:0.000000,0.000000,0.000000,0.000000 ThumbRight:0.000000,0.000000,0.000000,0.000000 WristLeft:-0.144108,0.811974,-0.118258,0.553124 WristRight:-0.006443,0.311820,-0.445152,0.839384 END:
KINECT_DATA POSITION:5.604981,-0.601421,-4.491925 HEAD_JOINT1:0.990174,0.134713,-0.000000,0.037528 LARM_JOINT2:0.817122,0.000000,-0.018219,-0.576177 LARM_JOINT3:0.962746,0.000000,-0.207709,-0.173138 LLEG_JOINT2:0.999034,0.015321,0.000000,0.041185 LLEG_JOINT4:0.995236,0.096949,0.000000,-0.010345 RARM_JOINT2:0.798737,0.000000,0.494015,0.343465 RARM_JOINT3:0.961522,0.000000,0.219687,0.164965 RLEG_JOINT2:0.997757,0.043862,0.000000,-0.050567 RLEG_JOINT4:0.995576,0.072222,0.000000,0.060100 WAIST:0.998818,-0.000000,0.048396,0.004580 WAIST_JOINT0:0.995451,-0.000000,0.090796,0.028863 WAIST_JOINT1:0.999180,0.040487,-0.000000,0.000378 END:
KINECT_DATA_Sensor  AnkleLeft:0.068038,0.727625,-0.095514,-0.675877 AnkleRight:0.086763,0.719442,0.077598,0.684729 ElbowLeft:-0.048196,0.860903,-0.169951,-0.477115 ElbowRight:-0.425618,0.898078,0.110897,-0.002715 FootLeft:0.000000,0.000000,0.000000,0.000000 FootRight:0.000000,0.000000,0.000000,0.000000 HandLeft:-0.144052,0.792185,-0.048946,0.591012 HandRight:0.072843,0.375449,-0.448457,0.807848 HandTipLeft:0.000000,0.000000,0.000000,0.000000 HandTipRight:0.000000,0.000000,0.000000,0.000000 Head:0.000000,0.000000,0.000000,0.000000 HipLeft:0.100257,-0.685554,0.710992,-0.120222 HipRight:-0.166427,0.677879,0.692291,-0.183072 KneeLeft:0.019541,-0.671684,0.044041,0.739270 KneeRight:-0.004598,0.740597,0.063242,0.668952 Neck:-0.090785,0.005859,0.994370,-0.054333 ShoulderLeft:0.028274,0.782189,-0.622381,-0.004875 ShoulderRight:-0.088337,0.806742,0.568521,-0.134717 SpineBase:-0.048481,0.002854,0.998679,-0.016771 SpineMid:-0.069402,0.003205,0.997444,-0.016708 SpineShoulder:-0.090896,0.004340,0.995208,-0.035772 ThumbLeft:0.000000,0.000000,0.000000,0.000000 ThumbRight:0.000000,0.000000,0.000000,0.000000 WristLeft:-0.139520,0.796868,-0.124490,0.574489 WristRight:0.010518,0.349696,-0.429022,0.832792 END:
KINECT_DATA POSITION:5.606826,-0.605410,-4.443789 HEAD_JOINT1:0.990625,0.132915,-0.000000,0.031550 LARM_JOINT2:0.816447,0.000000,-0.017714,-0.577149 LARM_JOINT3:0.963002,0.000000,-0.207939,-0.171429 LLEG_JOINT2:0.998988,0.013647,0.000000,0.042858 LLEG_JOINT4:0.995081,0.098534,0.000000,-0.010236 RARM_JOINT2:0.784790,0.000000,0.515341,0.344280 RARM_JOINT3:0.967371,0.000000,0.208001,0.144667 RLEG_JOINT2:0.997690,0.045817,0.000000,-0.050163 RLEG_JOINT4:0.995370,0.073142,0.000000,0.062368 WAIST:0.998368,-0.000000,0.056987,0.003731 WAIST_JOINT0:0.994532,-0.000000,0.101148,0.025978 WAIST_JOINT1:0.999207,0.039752,-0.000000,0.002455 END:
KINECT_DATA_Sensor  AnkleLeft:0.069320,0.729337,-0.094845,-0.673993 AnkleRight:0.087740,0.711165,0.081078,0.692800 ElbowLeft:-0.046557,0.858001,-0.170429,-0.482307 ElbowRight:-0.435911,0.895737,0.085275,-0.019088 FootLeft:0.000000,0.000000,0.000000,0.000000 FootRight:0.000000,0.000000,0.000000,0.000000 HandLeft:-0.151277,0.814079,-0.055375,0.557965 HandRight:0.109279,0.348400,-0.469370,0.803970 HandTipLeft:0.000000,0.000000,0.000000,0.000000 HandTipRight:0.000000,0.000000,0.000000,0.000000 Head:0.000000,0.000000,0.000000,0.000000 HipLeft:0.096842,-0.686221,0.711364,-0.116977 HipRight:-0.173723,0.675305,0.691418,-0.189008 KneeLeft:0.020954,-0.665275,0.043715,0.745023 KneeRight:-0.004151,0.746336,0.064960,0.662378 Neck:-0.101243,0.006843,0.993388,-0.053695 ShoulderLeft:0.030979,0.781987,-0.622430,-0.010824 ShoulderRight:-0.099413,0.802671,0.569879,-0.145171 SpineBase:-0.057029,0.003470,0.998229,-0.016556 SpineMid:-0.078888,0.003832,0.996740,-0.016476 SpineShoulder:-0.101349,0.005303,0.994218,-0.035079 ThumbLeft:0.000000,0.000000,0.000000,0.000000 ThumbRight:0.000000,0.000000,0.000000,0.000000 WristLeft:-0.139079,0.818876,-0.120493,0.543673 WristRight:0.026632,0.312818,-0.436603,0.843098 END:
KINECT_DATA POSITION:5.610178,-0.576465,-4.455137 HEAD_JOINT1:0.991161,0.130164,-0.000000,0.025632 LARM_JOINT2:0.815690,0.000000,-0.020582,-0.578122 LARM_JOINT3:0.963431,0.000000,-0.205923,-0.171457 LLEG_JOINT2:0.998971,0.010244,0.000000,0.044173 LLEG_JOINT4:0.994870,0.100600,0.000000,-0.010646 RARM_JOINT2:0.783968,0.000000,0.519043,0.340570 RARM_JOINT3:0.967460,0.000000,0.209789,0.141458 RLEG_JOINT2:0.997652,0.047647,0.000000,-0.049197 RLEG_JOINT4:0.995517,0.070069,0.000000,0.063538 WAIST:0.997694,-0.000000,0.067813,0.002998 WAIST_JOINT0:0.993763,-0.000000,0.109435,0.021429 WAIST_JOINT1:0.999208,0.039573,-0.000000,0.004148 END:
KINECT_DATA_Sensor  AnkleLeft:0.067524,0.709905,-0.094662,-0.694633 AnkleRight:0.087321,0.720065,0.080016,0.683725 ElbowLeft:-0.046159,0.854961,-0.169851,-0.487915 ElbowRight:-0.441181,0.894061,0.074624,-0.021112 FootLeft:0.000000,0.000000,0.000000,0.000000 FootRight:0.000000,0.000000,0.000000,0.000000 HandLeft:-0.150537,0.827021,-0.054507,0.538891 HandRight:0.085720,0.401559,-0.472579,0.779790 HandTipLeft:0.000000,0.000000,0.000000,0.000000 HandTipRight:0.000000,0.000000,0.000000,0.000000 Head:0.000000,0.000000,0.000000,0.000000 HipLeft:0.088541,-0.686710,0.713218,-0.109137 HipRight:-0.178528,0.672619,0.691744,-0.192877 KneeLeft:0.023424,-0.657094,0.042146,0.752265 KneeRight:-0.003458,0.753486,0.066140,0.654119 Neck:-0.109906,0.007319,0.992463,-0.053705 ShoulderLeft:0.034008,0.781626,-0.622622,-0.015685 ShoulderRight:-0.107935,0.797023,0.573946,-0.153918 SpineBase:-0.067821,0.003823,0.997551,-0.016692 SpineMid:-0.088638,0.004171,0.995917,-0.016608 SpineShoulder:-0.110016,0.005746,0.993298,-0.034977 ThumbLeft:0.000000,0.000000,0.000000,0.000000 ThumbRight:0.000000,0.000000,0.000000,0.000000 WristLeft:-0.140081,0.831099,-0.119340,0.524795 WristRight:0.006767,0.367328,-0.444646,0.816893 END:
KINECT_DATA POSITION:5.617668,-0.462434,-4.560494 HEAD_JOINT1:0.991731,0.126670,-0.000000,0.020578 LARM_JOINT2:0.815507,0.000000,-0.025887,-0.578168 LARM_JOINT3:0.963193,0.000000,-0.205517,-0.173267 LLEG_JOINT2:0.998984,0.006004,0.000000,0.044662 LLEG_JOINT4:0.994282,0.106479,0.000000,-0.008136 RARM_JOINT2:0.783074,0.000000,0.526019,0.331812 RARM_JOINT3:0.966092,0.000000,0.215923,0.141577 RLEG_JOINT2:0.997579,0.048878,0.000000,-0.049463 RLEG_JOINT4:0.995323,0.071629,0.000000,0.064817 WAIST:0.996945,-0.000000,0.078057,0.002638 WAIST_JOINT0:0.993558,-0.000000,0.111760,0.018783 WAIST_JOINT1:0.999196,0.039741,-0.000000,0.005365 END:
KINECT_DATA_Sensor  AnkleLeft:0.073059,0.736465,-0.093521,-0.665984 AnkleRight:0.089019,0.728994,0.082350,0.673692 ElbowLeft:-0.047023,0.854335,-0.169684,-0.488987 ElbowRight:-0.450069,0.890400,0.064016,-0.022965 FootLeft:0.000000,0.000000,0.000000,0.000000 FootRight:0.000000,0.000000,0.000000,0.000000 HandLeft:-0.149362,0.752647,-0.078263,0.636466 HandRight:0.074543,0.412346,-0.466114,0.779200 HandTipLeft:0.000000,0.000000,0.000000,0.000000 HandTipRight:0.000000,0.000000,0.000000,0.000000 Head:0.000000,0.000000,0.000000,0.000000 HipLeft:0.080177,-0.688170,0.713745,-0.102770 HipRight:-0.182579,0.671324,0.690542,-0.197841 KneeLeft:0.026305,-0.649255,0.039723,0.759077 KneeRight:-0.003802,0.760180,0.067443,0.646191 Neck:-0.112751,0.007402,0.992127,-0.054012 ShoulderLeft:0.038394,0.780554,-0.623614,-0.019144 ShoulderRight:-0.107238,0.794091,0.577829,-0.155025 SpineBase:-0.078038,0.004267,0.996784,-0.017730 SpineMid:-0.095227,0.004572,0.995288,-0.017654 SpineShoulder:-0.112858,0.005915,0.992967,-0.035278 ThumbLeft:0.000000,0.000000,0.000000,0.000000 ThumbRight:0.000000,0.000000,0.000000,0.000000 WristLeft:-0.123507,0.760454,-0.136691,0.622713 WristRight:0.016960,0.386747,-0.457084,0.800758 END:
KINECT_DATA POSITION:5.652838,-0.319749,-4.691374 HEAD_JOINT1:0.992225,0.123473,-0.000000,0.015600 LARM_JOINT2:0.814579,0.000000,-0.032551,-0.579139 LARM_JOINT3:0.964983,0.000000,-0.197280,-0.172881 LLEG_JOINT2:0.998953,0.001789,0.000000,0.045716 LLEG_JOINT4:0.994095,0.108316,0.000000,-0.006485 RARM_JOINT2:0.784175,0.000000,0.524759,0.331207 RARM_JOINT3:0.964225,0.000000,0.224049,0.141678 RLEG_JOINT2:0.997551,0.049875,0.000000,-0.049028 RLEG_JOINT4:0.995211,0.069813,0.000000,0.068423 WAIST:0.996308,-0.000000,0.085841,0.001310 WAIST_JOINT0:0.992584,-0.000000,0.120423,0.016595 WAIST_JOINT1:0.999175,0.039943,-0.000000,0.007405 END:
KINECT_DATA_Sensor  AnkleLeft:0.070112,0.723923,-0.093676,-0.679886 AnkleRight:0.094760,0.773064,0.075195,0.622686 ElbowLeft:-0.049117,0.854052,-0.167744,-0.489943 ElbowRight:-0.450363,0.890498,0.059651,-0.025074 FootLeft:0.000000,0.000000,0.000000,0.000000 FootRight:0.000000,0.000000,0.000000,0.000000 HandLeft:-0.149234,0.843204,-0.043834,0.514603 HandRight:0.103387,0.421241,-0.476980,0.764432 HandTipLeft:0.000000,0.000000,0.000000,0.000000 HandTipRight:0.000000,0.000000,0.000000,0.000000 Head:0.000000,0.000000,0.000000,0.000000 HipLeft:0.075338,-0.689773,0.713207,-0.099364 HipRight:-0.187415,0.669288,0.689817,-0.202686 KneeLeft:0.028979,-0.643266,0.037066,0.764196 KneeRight:-0.004292,0.765190,0.068816,0.640102 Neck:-0.121859,0.007831,0.991021,-0.054465 ShoulderLeft:0.042554,0.779371,-0.624650,-0.024149 ShoulderRight:-0.115280,0.789892,0.579562,-0.163980 SpineBase:-0.085759,0.004654,0.996136,-0.018365 SpineMid:-0.103636,0.004983,0.994435,-0.018278 SpineShoulder:-0.121970,0.006367,0.991874,-0.035620 ThumbLeft:0.000000,0.000000,0.000000,0.000000 ThumbRight:0.000000,0.000000,0.000000,0.000000 WristLeft:-0.140702,0.847157,-0.117612,0.498693 WristRight:0.022149,0.384896,-0.457930,0.801040 END:
KINECT_DATA POSITION:5.689958,-0.180683,-4.816425 HEAD_JOINT1:0.992421,0.122181,-0.000000,0.013145 LARM_JOINT2:0.813544,0.000000,-0.034684,-0.580468 LARM_JOINT3:0.965315,0.000000,-0.194273,-0.174429 LLEG_JOINT2:0.998930,-0.000727,0.000000,0.046252 LLEG_JOINT4:0.993815,0.111042,0.000000,-0.001060 RARM_JOINT2:0.783017,0.000000,0.526809,0.330691 RARM_JOINT3:0.960625,0.000000,0.238012,0.143349 RLEG_JOINT2:0.997442,0.051609,0.000000,-0.049447 RLEG_JOINT4:0.995138,0.065698,0.000000,0.073382 WAIST:0.995843,-0.000000,0.091090,0.000133 WAIST_JOINT0:0.991896,-0.000000,0.126198,0.014703 WAIST_JOINT1:0.999155,0.040145,-0.000000,0.008824 END:
KINECT_DATA_Sensor  AnkleLeft:0.069740,0.730232,-0.096468,-0.672749 AnkleRight:0.089492,0.725762,0.078950,0.677515 ElbowLeft:-0.048458,0.853471,-0.166272,-0.491521 ElbowRight:-0.452292,0.890472,0.047588,-0.015083 FootLeft:0.000000,0.000000,0.000000,0.000000 FootRight:0.000000,0.000000,0.000000,0.000000 HandLeft:-0.145846,0.838668,-0.037285,0.523425 HandRight:0.132656,0.433293,-0.476663,0.753294 HandTipLeft:0.000000,0.000000,0.000000,0.000000 HandTipRight:0.000000,0.000000,0.000000,0.000000 Head:0.000000,0.000000,0.000000,0.000000 HipLeft:0.072520,-0.691174,0.712407,-0.097443 HipRight:-0.190866,0.667781,0.689258,-0.206304 KneeLeft:0.030236,-0.639225,0.035183,0.767619 KneeRight:-0.004681,0.768517,0.071220,0.635835 Neck:-0.127908,0.007838,0.990236,-0.054879 ShoulderLeft:0.046684,0.779536,-0.623951,-0.028814 ShoulderRight:-0.118933,0.787931,0.580067,-0.168944 SpineBase:-0.090960,0.004606,0.995666,-0.018802 SpineMid:-0.109261,0.004951,0.993825,-0.018714 SpineShoulder:-0.128023,0.006435,0.991099,-0.035941 ThumbLeft:0.000000,0.000000,0.000000,0.000000 ThumbRight:0.000000,0.000000,0.000000,0.000000 WristLeft:-0.139849,0.842833,-0.118291,0.506045 WristRight:0.034860,0.386113,-0.466979,0.794753 END:
KINECT_DATA POSITION:5.701509,-0.000197,-4.976153 HEAD_JOINT1:0.992364,0.122766,-0.000000,0.011907 LARM_JOINT2:0.813313,0.000000,-0.032701,-0.580907 LARM_JOINT3:0.964232,0.000000,-0.198699,-0.175430 LLEG_JOINT2:0.998818,-0.002840,0.000000,0.048517 LLEG_JOINT4:0.993708,0.111995,0.000000,-0.001114 RARM_JOINT2:0.779024,0.000000,0.534114,0.328395 RARM_JOINT3:0.958187,0.000000,0.249277,0.140496 RLEG_JOINT2:0.997531,0.050871,0.000000,-0.048424 RLEG_JOINT4:0.995021,0.065018,0.000000,0.075531 WAIST:0.995572,0.000000,0.093975,-0.002229 WAIST_JOINT0:0.992017,-0.000000,0.125362,0.013650 WAIST_JOINT1:0.999110,0.040608,-0.000000,0.011396 END:
KINECT_DATA_Sensor  AnkleLeft:0.068147,0.720159,-0.096485,-0.683680 AnkleRight:0.089928,0.733889,0.076908,0.668883 ElbowLeft:-0.045909,0.851635,-0.166968,-0.494705 ElbowRight:-0.456260,0.889279,0.031572,-0.003551 FootLeft:0.000000,0.000000,0.000000,0.000000 FootRight:0.000000,0.000000,0.000000,0.000000 HandLeft:-0.154603,0.847426,-0.041548,0.506203 HandRight:-0.111704,0.726865,-0.469789,0.488351 HandTipLeft:0.000000,0.000000,0.000000,0.000000 HandTipRight:0.000000,0.000000,0.000000,0.000000 Head:0.000000,0.000000,0.000000,0.000000 HipLeft:0.071032,-0.693263,0.710482,-0.097752 HipRight:-0.193143,0.665872,0.689623,-0.209118 KneeLeft:0.031537,-0.637035,0.034002,0.769439 KneeRight:-0.006232,0.770286,0.071656,0.633629 Neck:-0.126852,0.007635,0.990336,-0.055541 ShoulderLeft:0.047727,0.780427,-0.622757,-0.028791 ShoulderRight:-0.116292,0.787587,0.581436,-0.167673 SpineBase:-0.093741,0.004566,0.995389,-0.019791 SpineMid:-0.110152,0.004892,0.993707,-0.019713 SpineShoulder:-0.126961,0.006376,0.991208,-0.036707 ThumbLeft:0.000000,0.000000,0.000000,0.000000 ThumbRight:0.000000,0.000000,0.000000,0.000000 WristLeft:-0.142131,0.852298,-0.115225,0.490010 WristRight:-0.166255,0.708461,-0.457278,0.511213 END:
KINECT_DATA POSITION:5.667506,0.097956,-5.068541 HEAD_JOINT1:0.992190,0.124304,-0.000000,0.010361 LARM_JOINT2:0.813979,0.000000,-0.031684,-0.580030 LARM_JOINT3:0.963796,0.000000,-0.199828,-0.176537 LLEG_JOINT2:0.998786,-0.004052,0.000000,0.049102 LLEG_JOINT4:0.993921,0.110089,0.000000,0.001558 RARM_JOINT2:0.791865,0.000000,0.518049,0.323379 RARM_JOINT3:0.946958,0.000000,0.283090,0.152084 RLEG_JOINT2:0.997531,0.050727,0.000000,-0.048556 RLEG_JOINT4:0.994794,0.065230,0.000000,0.078294 WAIST:0.995369,0.000000,0.096079,-0.002989 WAIST_JOINT0:0.992230,-0.000000,0.123686,0.013460 WAIST_JOINT1:0.999096,0.040680,-0.000000,0.012306 END:
KINECT_DATA_Sensor  AnkleLeft:0.065513,0.726458,-0.096124,-0.677293 AnkleRight:0.091632,0.737623,0.075713,0.664668 ElbowLeft:-0.044699,0.851588,-0.168689,-0.494312 ElbowRight:-0.454847,0.889355,0.044663,0.012965 FootLeft:0.000000,0.000000,0.000000,0.000000 FootRight:0.000000,0.000000,0.000000,0.000000 HandLeft:-0.146878,0.753609,-0.070182,0.636848 HandRight:-0.052740,0.696977,-0.499223,0.512072 HandTipLeft:0.000000,0.000000,0.000000,0.000000 HandTipRight:0.000000,0.000000,0.000000,0.000000 Head:0.000000,0.000000,0.000000,0.000000 HipLeft:0.069855,-0.694131,0.709855,-0.096995 HipRight:-0.194574,0.665171,0.689458,-0.210563 KneeLeft:0.032232,-0.635407,0.033216,0.770789 KneeRight:-0.007104,0.771598,0.072156,0.631965 Neck:-0.124841,0.007515,0.990578,-0.055803 ShoulderLeft:0.047883,0.781475,-0.621441,-0.028555 ShoulderRight:-0.113229,0.788409,0.581648,-0.165156 SpineBase:-0.095812,0.004542,0.995189,-0.019966 SpineMid:-0.110210,0.004831,0.993697,-0.019898 SpineShoulder:-0.124950,0.006267,0.991457,-0.036887 ThumbLeft:0.000000,0.000000,0.000000,0.000000 ThumbRight:0.000000,0.000000,0.000000,0.000000 WristLeft:-0.120786,0.762130,-0.136193,0.621305 WristRight:-0.128987,0.676051,-0.475836,0.547630 END:
KINECT_DATA POSITION:5.656868,0.212628,-5.197108 HEAD_JOINT1:0.992076,0.125358,-0.000000,0.008464 LARM_JOINT2:0.813352,0.000000,-0.026208,-0.581182 LARM_JOINT3:0.963371,0.000000,-0.202559,-0.175746 LLEG_JOINT2:0.998786,-0.005448,0.000000,0.048950 LLEG_JOINT4:0.993898,0.110297,0.000000,0.001480 RARM_JOINT2:0.790114,0.000000,0.524016,0.318004 RARM_JOINT3:0.946439,0.000000,0.284653,0.152403 RLEG_JOINT2:0.997607,0.049698,0.000000,-0.048060 RLEG_JOINT4:0.994830,0.066070,0.000000,0.077130 WAIST:0.995185,0.000000,0.097952,-0.003354 WAIST_JOINT0:0.992811,-0.000000,0.118810,0.014527 WAIST_JOINT1:0.999077,0.040894,-0.000000,0.013113 END:
KINECT_DATA_Sensor  AnkleLeft:0.066413,0.735151,-0.093943,-0.668070 AnkleRight:0.091199,0.744252,0.075666,0.657303 ElbowLeft:-0.041059,0.846492,-0.169423,-0.503051 ElbowRight:-0.459527,0.887063,0.044107,0.002896 FootLeft:0.000000,0.000000,0.000000,0.000000 FootRight:0.000000,0.000000,0.000000,0.000000 HandLeft:-0.154648,0.818544,-0.054900,0.550504 HandRight:-0.007643,0.653886,-0.513149,0.555924 HandTipLeft:0.000000,0.000000,0.000000,0.000000 HandTipRight:0.000000,0.000000,0.000000,0.000000 Head:0.000000,0.000000,0.000000,0.000000 HipLeft:0.068332,-0.694709,0.709558,-0.096105 HipRight:-0.195617,0.664827,0.689189,-0.211560 KneeLeft:0.032890,-0.633968,0.032020,0.771996 KneeRight:-0.007769,0.772792,0.071296,0.630594 Neck:-0.119865,0.007475,0.991167,-0.056262 ShoulderLeft:0.044339,0.782068,-0.621143,-0.024207 ShoulderRight:-0.110298,0.790312,0.580603,-0.161683 SpineBase:-0.097656,0.004962,0.995003,-0.020199 SpineMid:-0.108673,0.005186,0.993860,-0.020143 SpineShoulder:-0.119961,0.006358,0.992061,-0.037193 ThumbLeft:0.000000,0.000000,0.000000,0.000000 ThumbRight:0.000000,0.000000,0.000000,0.000000 WristLeft:-0.132224,0.825414,-0.123537,0.534741 WristRight:-0.088395,0.633268,-0.486147,0.595667 END:
KINECT_DATA POSITION:5.649112,0.280678,-5.261171 HEAD_JOINT1:0.991932,0.126521,-0.000000,0.007937 LARM_JOINT2:0.813721,0.000000,-0.029684,-0.580497 LARM_JOINT3:0.963532,0.000000,-0.200969,-0.176687 LLEG_JOINT2:0.998739,-0.004524,0.000000,0.050007 LLEG_JOINT4:0.994388,0.105782,0.000000,0.001524 RARM_JOINT2:0.814619,0.000000,0.480197,0.325278 RARM_JOINT3:0.917469,0.000000,0.360055,0.169150 RLEG_JOINT2:0.997608,0.050187,0.000000,-0.047525 RLEG_JOINT4:0.994997,0.064183,0.000000,0.076556 WAIST:0.995125,0.000000,0.098550,-0.003848 WAIST_JOINT0:0.992451,-0.000000,0.121745,0.014818 WAIST_JOINT1:0.999070,0.040909,-0.000000,0.013602 END:
KINECT_DATA_Sensor  AnkleLeft:-0.050005,-0.638025,0.100309,0.761814 AnkleRight:0.089260,0.739129,0.075761,0.663310 ElbowLeft:-0.043155,0.848184,-0.169256,-0.500074 ElbowRight:-0.443862,0.891536,0.059119,0.068229 FootLeft:0.000000,0.000000,0.000000,0.000000 FootRight:0.000000,0.000000,0.000000,0.000000 HandLeft:-0.151295,0.730192,-0.073489,0.662215 HandRight:-0.014374,0.695065,-0.530801,0.484694 HandTipLeft:0.000000,0.000000,0.000000,0.000000 HandTipRight:0.000000,0.000000,0.000000,0.000000 Head:0.000000,0.000000,0.000000,0.000000 HipLeft:0.068151,-0.695173,0.709138,-0.095979 HipRight:-0.196190,0.664476,0.689233,-0.211988 KneeLeft:0.032474,-0.633526,0.033096,0.772331 KneeRight:-0.007432,0.773159,0.071679,0.630105 Neck:-0.122385,0.007541,0.990850,-0.056401 ShoulderLeft:0.047605,0.782498,-0.620214,-0.027666 ShoulderRight:-0.109996,0.790461,0.580227,-0.162507 SpineBase:-0.098236,0.004921,0.994946,-0.020177 SpineMid:-0.110215,0.005163,0.993691,-0.020116 SpineShoulder:-0.122486,0.006403,0.991751,-0.037223 ThumbLeft:0.000000,0.000000,0.000000,0.000000 ThumbRight:0.000000,0.000000,0.000000,0.000000 WristLeft:-0.112648,0.742110,-0.141101,0.645503 WristRight:-0.104629,0.669190,-0.509616,0.530594 END:
KINECT_DATA POSITION:5.621099,0.340666,-5.293179 HEAD_JOINT1:0.991985,0.126158,-0.000000,0.006984 LARM_JOINT2:0.813904,0.000000,-0.030567,-0.580195 LARM_JOINT3:0.963923,0.000000,-0.202294,-0.172999 LLEG_JOINT2:0.998707,-0.005284,0.000000,0.050570 LLEG_JOINT4:0.993771,0.111443,0.000000,0.000123 RARM_JOINT2:0.791415,0.000000,0.518557,0.323667 RARM_JOINT3:0.936961,0.000000,0.313368,0.154610 RLEG_JOINT2:0.997630,0.050099,0.000000,-0.047164 RLEG_JOINT4:0.994924,0.063349,0.000000,0.078186 WAIST:0.995049,0.000000,0.099303,-0.004134 WAIST_JOINT0:0.992304,-0.000000,0.122912,0.015008 WAIST_JOINT1:0.999063,0.041016,-0.000000,0.013782 END:
KINECT_DATA_Sensor  AnkleLeft:0.065902,0.719091,-0.095591,-0.685148 AnkleRight:0.089602,0.735877,0.074595,0.667003 ElbowLeft:-0.043448,0.848452,-0.169341,-0.499564 ElbowRight:-0.455082,0.889437,0.035501,0.023294 FootLeft:0.000000,0.000000,0.000000,0.000000 FootRight:0.000000,0.000000,0.000000,0.000000 HandLeft:-0.151942,0.762395,-0.080210,0.623886 HandRight:-0.007040,0.679454,-0.533725,0.503418 HandTipLeft:0.000000,0.000000,0.000000,0.000000 HandTipRight:0.000000,0.000000,0.000000,0.000000 Head:0.000000,0.000000,0.000000,0.000000 HipLeft:0.067733,-0.695461,0.708937,-0.095679 HipRight:-0.196568,0.664146,0.689252,-0.212610 KneeLeft:0.033192,-0.632912,0.032876,0.772813 KneeRight:-0.007464,0.773617,0.071581,0.629553 Neck:-0.123406,0.007446,0.990716,-0.056544 ShoulderLeft:0.048978,0.782501,-0.620048,-0.028869 ShoulderRight:-0.109861,0.790394,0.580210,-0.162986 SpineBase:-0.098981,0.004636,0.994871,-0.020316 SpineMid:-0.111105,0.004884,0.993590,-0.020258 SpineShoulder:-0.123514,0.006258,0.991620,-0.037353 ThumbLeft:0.000000,0.000000,0.000000,0.000000 ThumbRight:0.000000,0.000000,0.000000,0.000000 WristLeft:-0.118144,0.771257,-0.135722,0.610561 WristRight:-0.099358,0.660844,-0.497530,0.553061 END:
KINECT_DATA POSITION:5.610588,0.387461,-5.344522 HEAD_JOINT1:0.992019,0.125921,-0.000000,0.006475 LARM_JOINT2:0.814524,0.000000,-0.030906,-0.579306 LARM_JOINT3:0.963710,0.000000,-0.203622,-0.172631 LLEG_JOINT2:0.998671,-0.005859,0.000000,0.051198 LLEG_JOINT4:0.994085,0.108604,0.000000,-0.000691 RARM_JOINT2:0.778983,0.000000,0.540118,0.318524 RARM_JOINT3:0.945236,0.000000,0.289155,0.151389 RLEG_JOINT2:0.997692,0.049169,0.000000,-0.046829 RLEG_JOINT4:0.994846,0.063840,0.000000,0.078774 WAIST:0.995059,0.000000,0.099177,-0.004727 WAIST_JOINT0:0.992209,-0.000000,0.123638,0.015315 WAIST_JOINT1:0.999047,0.041233,-0.000000,0.014352 END:
KINECT_DATA_Sensor  AnkleLeft:0.065319,0.733264,-0.091879,-0.670534 AnkleRight:0.093957,0.774657,0.068536,0.621596 ElbowLeft:-0.043708,0.848854,-0.170330,-0.498522 ElbowRight:-0.463476,0.885568,0.029256,-0.010200 FootLeft:0.000000,0.000000,0.000000,0.000000 FootRight:0.000000,0.000000,0.000000,0.000000 HandLeft:-0.146716,0.721846,-0.095674,0.669522 HandRight:-0.059135,0.719942,-0.528737,0.445672 HandTipLeft:0.000000,0.000000,0.000000,0.000000 HandTipRight:0.000000,0.000000,0.000000,0.000000 Head:0.000000,0.000000,0.000000,0.000000 HipLeft:0.067675,-0.695865,0.708484,-0.096135 HipRight:-0.196470,0.663769,0.689601,-0.212746 KneeLeft:0.033619,-0.633019,0.032574,0.772720 KneeRight:-0.008209,0.773513,0.071069,0.629729 Neck:-0.124094,0.007493,0.990613,-0.056828 ShoulderLeft:0.050060,0.782207,-0.620304,-0.029484 ShoulderRight:-0.109661,0.790314,0.580233,-0.163427 SpineBase:-0.098825,0.004602,0.994880,-0.020639 SpineMid:-0.111370,0.004863,0.993554,-0.020580 SpineShoulder:-0.124208,0.006244,0.991523,-0.037614 ThumbLeft:0.000000,0.000000,0.000000,0.000000 ThumbRight:0.000000,0.000000,0.000000,0.000000 WristLeft:-0.109120,0.731146,-0.143100,0.658059 WristRight:-0.142066,0.711255,-0.479598,0.493883 END:
KINECT_DATA POSITION:5.605597,0.422531,-5.389345 HEAD_JOINT1:0.992112,0.125195,-0.000000,0.006325 LARM_JOINT2:0.814789,0.000000,-0.031322,-0.578911 LARM_JOINT3:0.962171,0.000000,-0.209261,-0.174461 LLEG_JOINT2:0.998684,-0.005799,0.000000,0.050948 LLEG_JOINT4:0.993844,0.110784,0.000000,-0.000479 RARM_JOINT2:0.819179,0.000000,0.476617,0.319033 RARM_JOINT3:0.908083,0.000000,0.378187,0.179890 RLEG_JOINT2:0.997728,0.048732,0.000000,-0.046510 RLEG_JOINT4:0.994995,0.064185,0.000000,0.076588 WAIST:0.995126,0.000000,0.098489,-0.005009 WAIST_JOINT0:0.992198,-0.000000,0.123726,0.015336 WAIST_JOINT1:0.999032,0.041470,-0.000000,0.014643 END:
KINECT_DATA_Sensor  AnkleLeft:0.064957,0.716034,-0.094508,-0.688582 AnkleRight:0.087948,0.735395,0.075262,0.667678 ElbowLeft:-0.044364,0.848324,-0.170623,-0.499265 ElbowRight:-0.445993,0.889912,0.068384,0.066865 FootLeft:0.000000,0.000000,0.000000,0.000000 FootRight:0.000000,0.000000,0.000000,0.000000 HandLeft:-0.161357,0.701566,-0.106749,0.685839 HandRight:-0.002573,0.673757,-0.522065,0.522965 HandTipLeft:0.000000,0.000000,0.000000,0.000000 HandTipRight:0.000000,0.000000,0.000000,0.000000 Head:0.000000,0.000000,0.000000,0.000000 HipLeft:0.068039,-0.696013,0.708207,-0.096849 HipRight:-0.196148,0.663707,0.689829,-0.212497 KneeLeft:0.033239,-0.633591,0.032195,0.772283 KneeRight:-0.008394,0.773073,0.070731,0.630306 Neck:-0.124204,0.007555,0.990581,-0.057149 ShoulderLeft:0.050122,0.782207,-0.620308,-0.029295 ShoulderRight:-0.109758,0.790302,0.580133,-0.163770 SpineBase:-0.098119,0.004744,0.994946,-0.020821 SpineMid:-0.111064,0.005015,0.993584,-0.020758 SpineShoulder:-0.124318,0.006298,0.991500,-0.037843 ThumbLeft:0.000000,0.000000,0.000000,0.000000 ThumbRight:0.000000,0.000000,0.000000,0.000000 WristLeft:-0.106535,0.714632,-0.146918,0.675549 WristRight:-0.063287,0.647631,-0.524375,0.549181 END:
KINECT_DATA POSITION:5.594019,0.448868,-5.401552 HEAD_JOINT1:0.992180,0.124684,-0.000000,0.005685 LARM_JOINT2:0.814378,0.000000,-0.022911,-0.579883 LARM_JOINT3:0.961341,0.000000,-0.209867,-0.178268 LLEG_JOINT2:0.998672,-0.006321,0.000000,0.051124 LLEG_JOINT4:0.993880,0.110461,0.000000,-0.001315 RARM_JOINT2:0.792394,0.000000,0.519973,0.318968 RARM_JOINT3:0.934387,0.000000,0.317531,0.161540 RLEG_JOINT2:0.997736,0.048768,0.000000,-0.046306 RLEG_JOINT4:0.994947,0.063432,0.000000,0.077823 WAIST:0.995149,0.000000,0.098240,-0.005129 WAIST_JOINT0:0.992921,-0.000000,0.117798,0.015181 WAIST_JOINT1:0.999021,0.041667,-0.000000,0.014870 END:
KINECT_DATA_Sensor  AnkleLeft:0.064947,0.718519,-0.093214,-0.686166 AnkleRight:0.089134,0.740102,0.073233,0.662526 ElbowLeft:-0.039053,0.843682,-0.172081,-0.507014 ElbowRight:-0.457608,0.888047,0.039769,0.019663 FootLeft:0.000000,0.000000,0.000000,0.000000 FootRight:0.000000,0.000000,0.000000,0.000000 HandLeft:-0.156492,0.734397,-0.083166,0.655175 HandRight:0.030392,0.641556,-0.517291,0.565590 HandTipLeft:0.000000,0.000000,0.000000,0.000000 HandTipRight:0.000000,0.000000,0.000000,0.000000 Head:0.000000,0.000000,0.000000,0.000000 HipLeft:0.068024,-0.696045,0.708145,-0.097080 HipRight:-0.195866,0.663649,0.690005,-0.212367 KneeLeft:0.033677,-0.633776,0.031905,0.772125 KneeRight:-0.008282,0.772911,0.070716,0.630507 Neck:-0.118770,0.007416,0.991228,-0.057492 ShoulderLeft:0.042889,0.782280,-0.621068,-0.021762 ShoulderRight:-0.110448,0.790740,0.579823,-0.162285 SpineBase:-0.097862,0.004766,0.994967,-0.020989 SpineMid:-0.108245,0.004985,0.993891,-0.020938 SpineShoulder:-0.118880,0.006181,0.992160,-0.038060 ThumbLeft:0.000000,0.000000,0.000000,0.000000 ThumbRight:0.000000,0.000000,0.000000,0.000000 WristLeft:-0.114894,0.745950,-0.141656,0.640541 WristRight:-0.047890,0.614308,-0.508199,0.601719 END:
KINECT_DATA POSITION:5.587492,0.468178,-5.403292 HEAD_JOINT1:0.992117,0.125187,-0.000000,0.005618 LARM_JOINT2:0.814921,0.000000,-0.026240,-0.578978 LARM_JOINT3:0.961847,0.000000,-0.208511,-0.177123 LLEG_JOINT2:0.998690,-0.006441,0.000000,0.050770 LLEG_JOINT4:0.994074,0.108690,0.000000,0.001948 RARM_JOINT2:0.790175,0.000000,0.521931,0.321265 RARM_JOINT3:0.937267,0.000000,0.311350,0.156820 RLEG_JOINT2:0.997711,0.049263,0.000000,-0.046320 RLEG_JOINT4:0.995094,0.062836,0.000000,0.076422 WAIST:0.995117,0.000000,0.098593,-0.004616 WAIST_JOINT0:0.992700,-0.000000,0.119631,0.015331 WAIST_JOINT1:0.999019,0.041854,-0.000000,0.014476 END:
KINECT_DATA_Sensor  AnkleLeft:0.063019,0.729142,-0.094073,-0.674931 AnkleRight:0.087930,0.737155,0.074142,0.665864 ElbowLeft:-0.040924,0.846072,-0.172384,-0.502763 ElbowRight:-0.456695,0.888698,0.034810,0.020811 FootLeft:0.000000,0.000000,0.000000,0.000000 FootRight:0.000000,0.000000,0.000000,0.000000 HandLeft:-0.167077,0.826397,-0.062813,0.534049 HandRight:0.033582,0.624179,-0.512020,0.589159 HandTipLeft:0.000000,0.000000,0.000000,0.000000 HandTipRight:0.000000,0.000000,0.000000,0.000000 Head:0.000000,0.000000,0.000000,0.000000 HipLeft:0.067880,-0.695712,0.708517,-0.096855 HipRight:-0.196054,0.663886,0.689634,-0.212658 KneeLeft:0.033897,-0.633477,0.031931,0.772359 KneeRight:-0.007640,0.773155,0.070743,0.630213 Neck:-0.120383,0.007595,0.991017,-0.057753 ShoulderLeft:0.045214,0.782454,-0.620599,-0.024025 ShoulderRight:-0.110027,0.790802,0.579686,-0.162758 SpineBase:-0.098234,0.004814,0.994931,-0.020971 SpineMid:-0.109233,0.005046,0.993783,-0.020916 SpineShoulder:-0.120497,0.006314,0.991960,-0.038164 ThumbLeft:0.000000,0.000000,0.000000,0.000000 ThumbRight:0.000000,0.000000,0.000000,0.000000 WristLeft:-0.134471,0.834774,-0.122290,0.519726 WristRight:-0.035979,0.596660,-0.509368,0.619069 END:
KINECT_DATA POSITION:5.577606,0.472917,-5.397129 HEAD_JOINT1:0.992056,0.125663,-0.000000,0.005812 LARM_JOINT2:0.815198,0.000000,-0.023517,-0.578704 LARM_JOINT3:0.961054,0.000000,-0.210614,-0.178931 LLEG_JOINT2:0.998673,-0.006389,0.000000,0.051097 LLEG_JOINT4:0.993838,0.110818,0.000000,-0.002112 RARM_JOINT2:0.793073,0.000000,0.519432,0.318159 RARM_JOINT3:0.935819,0.000000,0.314545,0.159076 RLEG_JOINT2:0.997716,0.048754,0.000000,-0.046754 RLEG_JOINT4:0.995013,0.062561,0.000000,0.077691 WAIST:0.995151,0.000000,0.098260,-0.004458 WAIST_JOINT0:0.992896,-0.000000,0.117994,0.015316 WAIST_JOINT1:0.999016,0.041963,-0.000000,0.014330 END:
KINECT_DATA_Sensor  AnkleLeft:0.063949,0.709055,-0.094070,-0.695918 AnkleRight:0.088475,0.738882,0.072620,0.664042 ElbowLeft:-0.039382,0.844874,-0.173512,-0.504511 ElbowRight:-0.457734,0.887931,0.040774,0.019882 FootLeft:0.000000,0.000000,0.000000,0.000000 FootRight:0.000000,0.000000,0.000000,0.000000 HandLeft:-0.162079,0.748981,-0.082282,0.637172 HandRight:-0.011986,0.654894,-0.510368,0.557221 HandTipLeft:0.000000,0.000000,0.000000,0.000000 HandTipRight:0.000000,0.000000,0.000000,0.000000 Head:0.000000,0.000000,0.000000,0.000000 HipLeft:0.068132,-0.695574,0.708591,-0.097124 HipRight:-0.195880,0.664030,0.689578,-0.212549 KneeLeft:0.034188,-0.633717,0.032316,0.772133 KneeRight:-0.008167,0.772946,0.070515,0.630488 Neck:-0.118776,0.007513,0.991204,-0.057884 ShoulderLeft:0.043126,0.782746,-0.620458,-0.021929 ShoulderRight:-0.110123,0.791047,0.579472,-0.162262 SpineBase:-0.097907,0.004852,0.994962,-0.020992 SpineMid:-0.108269,0.005071,0.993888,-0.020940 SpineShoulder:-0.118886,0.006292,0.992151,-0.038253 ThumbLeft:0.000000,0.000000,0.000000,0.000000 ThumbRight:0.000000,0.000000,0.000000,0.000000 WristLeft:-0.117416,0.760853,-0.138636,0.622974 WristRight:-0.064120,0.634529,-0.506777,0.580034 END:
KINECT_DATA POSITION:5.562696,0.479102,-5.371845 HEAD_JOINT1:0.991934,0.126606,-0.000000,0.006227 LARM_JOINT2:0.815289,0.000000,-0.026432,-0.578450 LARM_JOINT3:0.961245,0.000000,-0.208371,-0.180524 LLEG_JOINT2:0.998665,-0.006058,0.000000,0.051305 LLEG_JOINT4:0.993851,0.110702,0.000000,-0.002126 RARM_JOINT2:0.812548,0.000000,0.484614,0.323907 RARM_JOINT3:0.917929,0.000000,0.359871,0.167029 RLEG_JOINT2:0.997719,0.048690,0.000000,-0.046747 RLEG_JOINT4:0.994801,0.064333,0.000000,0.078945 WAIST:0.995173,0.000000,0.098021,-0.004670 WAIST_JOINT0:0.992793,-0.000000,0.118870,0.015232 WAIST_JOINT1:0.999012,0.041934,-0.000000,0.014707 END:
KINECT_DATA_Sensor  AnkleLeft:0.064085,0.708871,-0.094229,-0.696072 AnkleRight:0.089987,0.734963,0.073792,0.668047 ElbowLeft:-0.041084,0.847135,-0.173153,-0.500691 ElbowRight:-0.445115,0.891208,0.055753,0.067184 FootLeft:0.000000,0.000000,0.000000,0.000000 FootRight:0.000000,0.000000,0.000000,0.000000 HandLeft:-0.161222,0.704087,-0.087940,0.685956 HandRight:0.002547,0.630079,-0.506577,0.588535 HandTipLeft:0.000000,0.000000,0.000000,0.000000 HandTipRight:0.000000,0.000000,0.000000,0.000000 Head:0.000000,0.000000,0.000000,0.000000 HipLeft:0.068315,-0.695736,0.708394,-0.097275 HipRight:-0.195890,0.663999,0.689677,-0.212316 KneeLeft:0.033923,-0.633922,0.032529,0.771968 KneeRight:-0.008334,0.772793,0.070613,0.630663 Neck:-0.119534,0.007749,0.991110,-0.057902 ShoulderLeft:0.044486,0.783032,-0.619948,-0.023386 ShoulderRight:-0.109589,0.791208,0.579375,-0.162185 SpineBase:-0.097659,0.004980,0.994988,-0.020896 SpineMid:-0.108517,0.005208,0.993862,-0.020840 SpineShoulder:-0.119642,0.006508,0.992059,-0.038240 ThumbLeft:0.000000,0.000000,0.000000,0.000000 ThumbRight:0.000000,0.000000,0.000000,0.000000 WristLeft:-0.107786,0.718808,-0.145408,0.671233 WristRight:-0.032509,0.606027,-0.527026,0.594910 END:
KINECT_DATA POSITION:5.545861,0.491212,-5.343807 HEAD_JOINT1:0.991845,0.127283,-0.000000,0.006480 LARM_JOINT2:0.815127,0.000000,-0.027904,-0.578610 LARM_JOINT3:0.961575,0.000000,-0.207568,-0.179690 LLEG_JOINT2:0.998654,-0.005736,0.000000,0.051543 LLEG_JOINT4:0.993756,0.111531,0.000000,-0.003207 RARM_JOINT2:0.800249,0.000000,0.500041,0.331001 RARM_JOINT3:0.931876,0.000000,0.327493,0.156061 RLEG_JOINT2:0.997729,0.048778,0.000000,-0.046443 RLEG_JOINT4:0.994881,0.064752,0.000000,0.077576 WAIST:0.995229,0.000000,0.097456,-0.004573 WAIST_JOINT0:0.991910,-0.000000,0.126384,0.011918 WAIST_JOINT1:0.999012,0.041975,-0.000000,0.014593 END:
KINECT_DATA_Sensor  AnkleLeft:0.065608,0.710747,-0.094102,-0.694032 AnkleRight:0.090423,0.742392,0.073669,0.659736 ElbowLeft:-0.042049,0.847910,-0.172494,-0.499527 ElbowRight:-0.444682,0.893260,0.040585,0.051932 FootLeft:0.000000,0.000000,0.000000,0.000000 FootRight:0.000000,0.000000,0.000000,0.000000 HandLeft:-0.176437,0.828484,-0.054140,0.528728 HandRight:-0.046318,0.672853,-0.499273,0.543921 HandTipLeft:0.000000,0.000000,0.000000,0.000000 HandTipRight:0.000000,0.000000,0.000000,0.000000 Head:0.000000,0.000000,0.000000,0.000000 HipLeft:0.068982,-0.695612,0.708377,-0.097810 HipRight:-0.195763,0.664135,0.689638,-0.212135 KneeLeft:0.033914,-0.634352,0.032964,0.771596 KneeRight:-0.007938,0.772441,0.070420,0.631120 Neck:-0.127067,0.008212,0.990168,-0.057911 ShoulderLeft:0.044095,0.782874,-0.620098,-0.025326 ShoulderRight:-0.120475,0.785456,0.582281,-0.171735 SpineBase:-0.097100,0.004981,0.995044,-0.020816 SpineMid:-0.111958,0.005291,0.993482,-0.020739 SpineShoulder:-0.127188,0.006829,0.991120,-0.038193 ThumbLeft:0.000000,0.000000,0.000000,0.000000 ThumbRight:0.000000,0.000000,0.000000,0.000000 WristLeft:-0.134512,0.839750,-0.120590,0.512040 WristRight:-0.083687,0.652162,-0.510081,0.554525 END:
KINECT_DATA POSITION:5.531848,0.485317,-5.332947 HEAD_JOINT1:0.991700,0.128353,-0.000000,0.007565 LARM_JOINT2:0.815188,0.000000,-0.029031,-0.578468 LARM_JOINT3:0.962646,0.000000,-0.203246,-0.178894 LLEG_JOINT2:0.998671,-0.005239,0.000000,0.051275 LLEG_JOINT4:0.994152,0.107961,0.000000,-0.002495 RARM_JOINT2:0.795159,0.000000,0.504911,0.335839 RARM_JOINT3:0.937733,0.000000,0.316470,0.143192 RLEG_JOINT2:0.997681,0.049161,0.000000,-0.047082 RLEG_JOINT4:0.994850,0.063748,0.000000,0.078800 WAIST:0.995250,0.000000,0.097245,-0.004474 WAIST_JOINT0:0.992317,-0.000000,0.122938,0.013860 WAIST_JOINT1:0.999017,0.041910,-0.000000,0.014419 END:
KINECT_DATA_Sensor  AnkleLeft:0.066075,0.736332,-0.090541,-0.667272 AnkleRight:0.090352,0.740078,0.073029,0.662410 ElbowLeft:-0.042761,0.848850,-0.172247,-0.497952 ElbowRight:-0.443429,0.893812,0.027073,0.061148 FootLeft:0.000000,0.000000,0.000000,0.000000 FootRight:0.000000,0.000000,0.000000,0.000000 HandLeft:-0.165891,0.883770,-0.030685,0.436450 HandRight:-0.073638,0.694166,-0.489937,0.522180 HandTipLeft:0.000000,0.000000,0.000000,0.000000 HandTipRight:0.000000,0.000000,0.000000,0.000000 Head:0.000000,0.000000,0.000000,0.000000 HipLeft:0.069169,-0.695564,0.708408,-0.097797 HipRight:-0.195638,0.664272,0.689596,-0.211956 KneeLeft:0.033437,-0.634527,0.033135,0.771466 KneeRight:-0.008098,0.772306,0.071055,0.631213 Neck:-0.123380,0.007929,0.990640,-0.057859 ShoulderLeft:0.045321,0.782948,-0.619919,-0.025281 ShoulderRight:-0.113979,0.788425,0.581160,-0.166276 SpineBase:-0.096897,0.004917,0.995067,-0.020697 SpineMid:-0.110034,0.005190,0.993700,-0.020630 SpineShoulder:-0.123493,0.006640,0.991590,-0.038135 ThumbLeft:0.000000,0.000000,0.000000,0.000000 ThumbRight:0.000000,0.000000,0.000000,0.000000 WristLeft:-0.147489,0.889350,-0.105230,0.419799 WristRight:-0.113517,0.669851,-0.507304,0.530147 END:
KINECT_DATA POSITION:5.521133,0.463366,-5.309725 HEAD_JOINT1:0.991691,0.128403,-0.000000,0.007824 LARM_JOINT2:0.814950,0.000000,-0.029725,-0.578769 LARM_JOINT3:0.961890,0.000000,-0.205757,-0.180090 LLEG_JOINT2:0.998668,-0.005117,0.000000,0.051345 LLEG_JOINT4:0.994007,0.109310,0.000000,-0.000857 RARM_JOINT2:0.768313,0.000000,0.550587,0.326418 RARM_JOINT3:0.960819,0.000000,0.246039,0.127639 RLEG_JOINT2:0.997715,0.048543,0.000000,-0.047001 RLEG_JOINT4:0.994812,0.064475,0.000000,0.078693 WAIST:0.995288,0.000000,0.096848,-0.004627 WAIST_JOINT0:0.992504,-0.000000,0.121348,0.014488 WAIST_JOINT1:0.999012,0.041967,-0.000000,0.014613 END:
KINECT_DATA_Sensor  AnkleLeft:0.068023,0.747147,-0.091560,-0.654799 AnkleRight:0.094031,0.773539,0.068360,0.622994 ElbowLeft:-0.043111,0.849296,-0.171736,-0.497337 ElbowRight:-0.460817,0.887354,0.012312,-0.009955 FootLeft:0.000000,0.000000,0.000000,0.000000 FootRight:0.000000,0.000000,0.000000,0.000000 HandLeft:-0.177583,0.859376,-0.039710,0.477871 HandRight:-0.095353,0.696381,-0.491337,0.514343 HandTipLeft:0.000000,0.000000,0.000000,0.000000 HandTipRight:0.000000,0.000000,0.000000,0.000000 Head:0.000000,0.000000,0.000000,0.000000 HipLeft:0.069250,-0.695732,0.708216,-0.097932 HipRight:-0.195353,0.664349,0.689706,-0.211620 KneeLeft:0.033292,-0.634848,0.033144,0.771208 KneeRight:-0.008513,0.772050,0.070637,0.631567 Neck:-0.121750,0.007880,0.990835,-0.057964 ShoulderLeft:0.045806,0.782864,-0.619998,-0.025068 ShoulderRight:-0.111227,0.789398,0.581015,-0.164014 SpineBase:-0.096493,0.004984,0.995106,-0.020684 SpineMid:-0.109023,0.005244,0.993811,-0.020619 SpineShoulder:-0.121858,0.006655,0.991790,-0.038204 ThumbLeft:0.000000,0.000000,0.000000,0.000000 ThumbRight:0.000000,0.000000,0.000000,0.000000 WristLeft:-0.142214,0.869147,-0.111709,0.460304 WristRight:-0.138337,0.684052,-0.475641,0.535446 END:
KINECT_DATA POSITION:5.508376,0.417024,-5.308950 HEAD_JOINT1:0.991574,0.129199,-0.000000,0.009386 LARM_JOINT2:0.814854,0.000000,-0.031006,-0.578837 LARM_JOINT3:0.961409,0.000000,-0.207206,-0.180995 LLEG_JOINT2:0.998741,-0.005419,0.000000,0.049863 LLEG_JOINT4:0.993668,0.112355,0.000000,0.000743 RARM_JOINT2:0.780785,0.000000,0.537367,0.318766 RARM_JOINT3:0.957457,0.000000,0.256557,0.132115 RLEG_JOINT2:0.997658,0.048998,0.000000,-0.047735 RLEG_JOINT4:0.994800,0.064537,0.000000,0.078788 WAIST:0.995345,0.000000,0.096306,-0.003688 WAIST_JOINT0:0.992661,-0.000000,0.119972,0.015213 WAIST_JOINT1:0.999023,0.042036,-0.000000,0.013638 END:
KINECT_DATA_Sensor  AnkleLeft:0.068141,0.735877,-0.095000,-0.666947 AnkleRight:0.094521,0.772770,0.068502,0.623859 ElbowLeft:-0.043710,0.850860,-0.171277,-0.494764 ElbowRight:-0.461980,0.886377,0.030161,-0.000726 FootLeft:0.000000,0.000000,0.000000,0.000000 FootRight:0.000000,0.000000,0.000000,0.000000 HandLeft:-0.187094,0.863244,-0.038724,0.467232 HandRight:-0.099829,0.651489,-0.480357,0.578666 HandTipLeft:0.000000,0.000000,0.000000,0.000000 HandTipRight:0.000000,0.000000,0.000000,0.000000 Head:0.000000,0.000000,0.000000,0.000000 HipLeft:0.069411,-0.695155,0.708767,-0.097935 HipRight:-0.194694,0.665120,0.689242,-0.211316 KneeLeft:0.033268,-0.635245,0.032450,0.770911 KneeRight:-0.008089,0.771733,0.070794,0.631943 Neck:-0.120335,0.007814,0.991010,-0.057952 ShoulderLeft:0.045753,0.782845,-0.620043,-0.024630 ShoulderRight:-0.109337,0.790417,0.580478,-0.162269 SpineBase:-0.095990,0.004985,0.995155,-0.020664 SpineMid:-0.108068,0.005236,0.993916,-0.020602 SpineShoulder:-0.120441,0.006603,0.991964,-0.038176 ThumbLeft:0.000000,0.000000,0.000000,0.000000 ThumbRight:0.000000,0.000000,0.000000,0.000000 WristLeft:-0.144131,0.874790,-0.109000,0.449541 WristRight:-0.105315,0.647254,-0.485520,0.578137 END:
KINECT_DATA POSITION:5.495741,0.362406,-5.295205 HEAD_JOINT1:0.991558,0.129170,-0.000000,0.011260 LARM_JOINT2:0.814522,0.000000,-0.033429,-0.579168 LARM_JOINT3:0.961454,0.000000,-0.207353,-0.180587 LLEG_JOINT2:0.998766,-0.005151,0.000000,0.049391 LLEG_JOINT4:0.993793,0.111218,0.000000,0.002497 RARM_JOINT2:0.780231,0.000000,0.534537,0.324824 RARM_JOINT3:0.963798,0.000000,0.236692,0.122759 RLEG_JOINT2:0.997628,0.049350,0.000000,-0.047993 RLEG_JOINT4:0.994948,0.062770,0.000000,0.078346 WAIST:0.995360,0.000000,0.096172,-0.003203 WAIST_JOINT0:0.991889,-0.000000,0.126517,0.012257 WAIST_JOINT1:0.999026,0.042053,-0.000000,0.013349 END:
KINECT_DATA_Sensor  AnkleLeft:0.070189,0.761860,-0.093347,-0.637126 AnkleRight:0.093764,0.776118,0.067049,0.619962 ElbowLeft:-0.044735,0.853230,-0.170460,-0.490858 ElbowRight:-0.457470,0.888801,0.027136,0.004115 FootLeft:0.000000,0.000000,0.000000,0.000000 FootRight:0.000000,0.000000,0.000000,0.000000 HandLeft:-0.164685,0.653181,-0.105808,0.731463 HandRight:-0.054754,0.612201,-0.482548,0.623987 HandTipLeft:0.000000,0.000000,0.000000,0.000000 HandTipRight:0.000000,0.000000,0.000000,0.000000 Head:0.000000,0.000000,0.000000,0.000000 HipLeft:0.069476,-0.694794,0.709129,-0.097827 HipRight:-0.194594,0.665442,0.689006,-0.211167 KneeLeft:0.033109,-0.635341,0.032593,0.770832 KneeRight:-0.007712,0.771668,0.070888,0.632016 Neck:-0.127092,0.008473,0.990163,-0.057903 ShoulderLeft:0.044912,0.782322,-0.620713,-0.025876 ShoulderRight:-0.119714,0.785183,0.582970,-0.171178 SpineBase:-0.095875,0.005100,0.995168,-0.020558 SpineMid:-0.111351,0.005419,0.993555,-0.020476 SpineShoulder:-0.127211,0.007050,0.991118,-0.038104 ThumbLeft:0.000000,0.000000,0.000000,0.000000 ThumbRight:0.000000,0.000000,0.000000,0.000000 WristLeft:-0.097840,0.660731,-0.151735,0.728586 WristRight:-0.091210,0.596878,-0.479236,0.636985 END:
KINECT_DATA POSITION:5.464782,0.253376,-5.311537 HEAD_JOINT1:0.991451,0.129594,-0.000000,0.015146 LARM_JOINT2:0.814264,0.000000,-0.036314,-0.579358 LARM_JOINT3:0.961837,0.000000,-0.206422,-0.179612 LLEG_JOINT2:0.998834,-0.005633,0.000000,0.047955 LLEG_JOINT4:0.993846,0.110766,0.000000,0.000348 RARM_JOINT2:0.776481,0.000000,0.544333,0.317456 RARM_JOINT3:0.965726,0.000000,0.226308,0.127113 RLEG_JOINT2:0.997549,0.050203,0.000000,-0.048743 RLEG_JOINT4:0.994951,0.061766,0.000000,0.079100 WAIST:0.995440,0.000000,0.095364,-0.002137 WAIST_JOINT0:0.992590,-0.000000,0.120538,0.015335 WAIST_JOINT1:0.999030,0.042272,-0.000000,0.012343 END:
KINECT_DATA_Sensor  AnkleLeft:0.066843,0.737335,-0.093361,-0.665697 AnkleRight:0.089632,0.730653,0.072492,0.672946 ElbowLeft:-0.046659,0.854320,-0.169383,-0.489151 ElbowRight:-0.464387,0.885096,0.028535,-0.011664 FootLeft:0.000000,0.000000,0.000000,0.000000 FootRight:0.000000,0.000000,0.000000,0.000000 HandLeft:-0.152125,0.600641,-0.114896,0.776458 HandRight:-0.087693,0.689104,-0.471814,0.542988 HandTipLeft:0.000000,0.000000,0.000000,0.000000 HandTipRight:0.000000,0.000000,0.000000,0.000000 Head:0.000000,0.000000,0.000000,0.000000 HipLeft:0.069598,-0.693970,0.709894,-0.098048 HipRight:-0.193578,0.666179,0.688683,-0.210831 KneeLeft:0.033349,-0.635931,0.031900,0.770365 KneeRight:-0.006937,0.771182,0.071273,0.632575 Neck:-0.121029,0.008397,0.990914,-0.058057 ShoulderLeft:0.045579,0.782008,-0.621124,-0.024299 ShoulderRight:-0.110659,0.789659,0.580928,-0.163447 SpineBase:-0.095108,0.005046,0.995237,-0.020790 SpineMid:-0.107975,0.005314,0.993923,-0.020723 SpineShoulder:-0.121149,0.006877,0.991873,-0.038254 ThumbLeft:0.000000,0.000000,0.000000,0.000000 ThumbRight:0.000000,0.000000,0.000000,0.000000 WristLeft:-0.089583,0.607977,-0.159349,0.772623 WristRight:-0.155932,0.664485,-0.459210,0.568570 END:
KINECT_DATA POSITION:5.418613,0.192768,-5.298281 HEAD_JOINT1:0.991431,0.129454,-0.000000,0.017498 LARM_JOINT2:0.814245,0.000000,-0.039314,-0.579189 LARM_JOINT3:0.961835,0.000000,-0.206941,-0.179023 LLEG_JOINT2:0.998838,-0.005274,0.000000,0.047897 LLEG_JOINT4:0.994056,0.108869,0.000000,-0.000365 RARM_JOINT2:0.776335,0.000000,0.541819,0.322082 RARM_JOINT3:0.965103,0.000000,0.230335,0.124586 RLEG_JOINT2:0.997556,0.049465,0.000000,-0.049345 RLEG_JOINT4:0.994852,0.063332,0.000000,0.079105 WAIST:0.995504,0.000000,0.094703,-0.001715 WAIST_JOINT0:0.992239,-0.000000,0.123554,0.014036 WAIST_JOINT1:0.999012,0.042710,-0.000000,0.012255 END:
KINECT_DATA_Sensor  AnkleLeft:-0.051884,-0.636424,0.100651,0.762982 AnkleRight:0.091231,0.741359,0.071640,0.661008 ElbowLeft:-0.048594,0.855372,-0.169021,-0.487246 ElbowRight:-0.460510,0.887263,0.025797,-0.005446 FootLeft:0.000000,0.000000,0.000000,0.000000 FootRight:0.000000,0.000000,0.000000,0.000000 HandLeft:-0.153001,0.641775,-0.107647,0.743725 HandRight:-0.117930,0.712494,-0.474107,0.503653 HandTipLeft:0.000000,0.000000,0.000000,0.000000 HandTipRight:0.000000,0.000000,0.000000,0.000000 Head:0.000000,0.000000,0.000000,0.000000 HipLeft:0.069606,-0.693552,0.710230,-0.098561 HipRight:-0.192974,0.666477,0.688644,-0.210567 KneeLeft:0.033356,-0.636443,0.032360,0.769922 KneeRight:-0.007532,0.770779,0.070796,0.633113 Neck:-0.124308,0.008885,0.990479,-0.058478 ShoulderLeft:0.045561,0.780960,-0.622439,-0.024412 ShoulderRight:-0.115452,0.786599,0.582832,-0.168047 SpineBase:-0.094454,0.005369,0.995291,-0.021123 SpineMid:-0.109259,0.005683,0.993774,-0.021041 SpineShoulder:-0.124423,0.007386,0.991450,-0.038624 ThumbLeft:0.000000,0.000000,0.000000,0.000000 ThumbRight:0.000000,0.000000,0.000000,0.000000 WristLeft:-0.101364,0.648077,-0.155748,0.738555 WristRight:-0.177965,0.694744,-0.450942,0.531329 END:
KINECT_DATA POSITION:5.394973,0.158526,-5.287898 HEAD_JOINT1:0.991526,0.128739,-0.000000,0.017386 LARM_JOINT2:0.813952,0.000000,-0.040250,-0.579537 LARM_JOINT3:0.963050,0.000000,-0.202971,-0.177027 LLEG_JOINT2:0.998831,-0.005099,0.000000,0.048064 LLEG_JOINT4:0.993752,0.111607,0.000000,-0.000848 RARM_JOINT2:0.777460,0.000000,0.540636,0.321354 RARM_JOINT3:0.963828,0.000000,0.231826,0.131497 RLEG_JOINT2:0.997607,0.049095,0.000000,-0.048679 RLEG_JOINT4:0.994703,0.064212,0.000000,0.080265 WAIST:0.995502,0.000000,0.094733,-0.001504 WAIST_JOINT0:0.992534,-0.000000,0.121117,0.014366 WAIST_JOINT1:0.999001,0.042991,-0.000000,0.012205 END:
KINECT_DATA_Sensor  AnkleLeft:0.064956,0.714813,-0.095914,-0.689655 AnkleRight:0.090621,0.717836,0.073974,0.686314 ElbowLeft:-0.048838,0.855743,-0.168572,-0.486727 ElbowRight:-0.460226,0.887257,0.029682,-0.009278 FootLeft:0.000000,0.000000,0.000000,0.000000 FootRight:0.000000,0.000000,0.000000,0.000000 HandLeft:-0.131629,0.579259,-0.112829,0.796494 HandRight:-0.075486,0.695872,-0.475479,0.532901 HandTipLeft:0.000000,0.000000,0.000000,0.000000 HandTipRight:0.000000,0.000000,0.000000,0.000000 Head:0.000000,0.000000,0.000000,0.000000 HipLeft:0.069303,-0.693371,0.710426,-0.098631 HipRight:-0.192783,0.666571,0.688586,-0.210634 KneeLeft:0.033476,-0.636416,0.032752,0.769923 KneeRight:-0.007113,0.770813,0.069935,0.633171 Neck:-0.122164,0.008830,0.990728,-0.058794 ShoulderLeft:0.046295,0.780516,-0.622963,-0.023861 ShoulderRight:-0.111792,0.787641,0.582937,-0.165254 SpineBase:-0.094485,0.005544,0.995281,-0.021371 SpineMid:-0.108212,0.005839,0.993883,-0.021292 SpineShoulder:-0.122268,0.007464,0.991706,-0.038904 ThumbLeft:0.000000,0.000000,0.000000,0.000000 ThumbRight:0.000000,0.000000,0.000000,0.000000 WristLeft:-0.087749,0.584422,-0.163298,0.789990 WristRight:-0.154669,0.669696,-0.457183,0.564418 END:
KINECT_DATA POSITION:5.449403,0.061775,-5.245233 HEAD_JOINT1:0.990130,0.139912,-0.000000,0.008162 LARM_JOINT2:0.813397,0.000000,-0.031606,-0.580850 LARM_JOINT3:0.966056,0.000000,-0.198721,-0.165061 LLEG_JOINT2:0.998742,-0.001297,0.000000,0.050132 LLEG_JOINT4:0.994250,0.107066,0.000000,-0.001973 RARM_JOINT2:0.884697,0.000000,0.306913,0.350878 RARM_JOINT3:0.834477,0.000000,0.487860,0.256205 RLEG_JOINT2:0.997863,0.046287,0.000000,-0.046130 RLEG_JOINT4:0.994820,0.067466,0.000000,0.076033 WAIST:0.996403,0.000000,0.084670,-0.003520 WAIST_JOINT0:0.994327,-0.000000,0.104754,0.018466 WAIST_JOINT1:0.998972,0.043972,-0.000000,0.011053 END:
KINECT_DATA_Sensor  AnkleLeft:0.064442,0.724761,-0.095102,-0.679356 AnkleRight:0.089575,0.718354,0.074783,0.685821 ElbowLeft:-0.044550,0.851872,-0.166196,-0.494680 ElbowRight:-0.361237,0.892445,0.179058,0.202455 FootLeft:0.000000,0.000000,0.000000,0.000000 FootRight:0.000000,0.000000,0.000000,0.000000 HandLeft:-0.127116,0.823266,-0.061326,0.549831 HandRight:0.220324,0.343115,-0.420046,0.810734 HandTipLeft:0.000000,0.000000,0.000000,0.000000 HandTipRight:0.000000,0.000000,0.000000,0.000000 Head:0.000000,0.000000,0.000000,0.000000 HipLeft:0.075542,-0.694784,0.707449,-0.105283 HipRight:-0.187433,0.667292,0.690546,-0.206729 KneeLeft:0.030812,-0.644284,0.035012,0.763363 KneeRight:-0.007729,0.764252,0.067627,0.641316 Neck:-0.105606,0.004979,0.992599,-0.059743 ShoulderLeft:0.046766,0.780356,-0.623325,-0.017969 ShoulderRight:-0.088812,0.794742,0.582498,-0.145582 SpineBase:-0.084366,0.004114,0.996186,-0.021875 SpineMid:-0.094894,0.004345,0.995238,-0.021830 SpineShoulder:-0.105683,0.004648,0.993593,-0.039792 ThumbLeft:0.000000,0.000000,0.000000,0.000000 ThumbRight:0.000000,0.000000,0.000000,0.000000 WristLeft:-0.135416,0.822779,-0.121716,0.538407 WristRight:0.189632,0.299933,-0.500927,0.789400 END:
