EastLYD/RoboCupatHomeSim/InteractiveCleanUp/JapanOpen2016/Motion_Data/File68.dat
KINECT_DATA POSITION:15.241307,-1.418629,-7.638967 HEAD_JOINT1:0.970437,0.182405,-0.000000,0.158052 LARM_JOINT2:0.836312,0.000000,-0.056520,-0.545332 LARM_JOINT3:0.965262,0.000000,-0.174875,-0.194134 LLEG_JOINT2:0.998804,0.008715,0.000000,0.048120 LLEG_JOINT4:0.993673,0.103516,0.000000,-0.043576 RARM_JOINT2:0.771022,0.000000,-0.012918,0.636678 RARM_JOINT3:0.964063,0.000000,0.233662,0.126429 RLEG_JOINT2:0.999070,0.009402,0.000000,-0.042084 RLEG_JOINT4:0.996646,0.075801,0.000000,0.030827 WAIST:0.999373,0.000000,-0.035376,0.001322 WAIST_JOINT0:0.997229,0.000000,-0.074320,-0.003219 WAIST_JOINT1:0.996133,0.084345,0.000000,-0.024579 END:
KINECT_DATA_Sensor  AnkleLeft:0.072299,0.723229,-0.085841,-0.681428 AnkleRight:0.061394,0.741356,0.059818,0.665615 ElbowLeft:-0.035175,0.940813,-0.180273,-0.284843 ElbowRight:0.018522,0.808477,0.149465,0.568931 FootLeft:0.000000,0.000000,0.000000,0.000000 FootRight:0.000000,0.000000,0.000000,0.000000 HandLeft:-0.130351,0.766140,0.001276,0.629315 HandRight:0.150370,-0.419221,-0.113383,0.888137 HandTipLeft:0.000000,0.000000,0.000000,0.000000 HandTipRight:0.000000,0.000000,0.000000,0.000000 Head:0.000000,0.000000,0.000000,0.000000 HipLeft:0.133789,-0.671199,0.702593,-0.194824 HipRight:-0.086911,0.678838,0.708885,-0.170610 KneeLeft:-0.030273,0.729533,-0.040056,-0.682100 KneeRight:-0.020781,0.682928,0.036320,0.729286 Neck:0.073575,-0.025504,0.991871,-0.100643 ShoulderLeft:-0.016447,0.781346,-0.610622,0.127941 ShoulderRight:0.079862,0.778583,0.622340,-0.011102 SpineBase:0.033938,-0.018160,0.997476,-0.059663 SpineMid:0.053522,-0.019329,0.996617,-0.059295 SpineShoulder:0.073530,-0.022900,0.993892,-0.079044 ThumbLeft:0.000000,0.000000,0.000000,0.000000 ThumbRight:0.000000,0.000000,0.000000,0.000000 WristLeft:-0.113973,0.772801,-0.049114,0.622397 WristRight:0.037724,-0.429563,-0.130575,0.892750 END:
KINECT_DATA POSITION:15.242145,-1.418648,-7.605362 HEAD_JOINT1:0.970533,0.181846,-0.000000,0.158107 LARM_JOINT2:0.836679,0.000000,-0.056686,-0.544753 LARM_JOINT3:0.964703,0.000000,-0.177151,-0.194849 LLEG_JOINT2:0.998798,0.008855,0.000000,0.048200 LLEG_JOINT4:0.993895,0.101891,0.000000,-0.042310 RARM_JOINT2:0.771033,0.000000,-0.012844,0.636666 RARM_JOINT3:0.962909,0.000000,0.238973,0.125293 RLEG_JOINT2:0.999084,0.009526,0.000000,-0.041726 RLEG_JOINT4:0.996700,0.075130,0.000000,0.030738 WAIST:0.999342,0.000000,-0.036258,0.001243 WAIST_JOINT0:0.997160,0.000000,-0.075243,-0.003309 WAIST_JOINT1:0.996123,0.084437,0.000000,-0.024671 END:
KINECT_DATA_Sensor  AnkleLeft:0.073025,0.745745,-0.083359,-0.656950 AnkleRight:0.055121,0.673052,0.064905,0.734677 ElbowLeft:-0.035453,0.941237,-0.180690,-0.283137 ElbowRight:0.018830,0.808886,0.149593,0.568305 FootLeft:0.000000,0.000000,0.000000,0.000000 FootRight:0.000000,0.000000,0.000000,0.000000 HandLeft:-0.138691,0.760214,-0.003481,0.634686 HandRight:0.172146,-0.527116,-0.119095,0.823609 HandTipLeft:0.000000,0.000000,0.000000,0.000000 HandTipRight:0.000000,0.000000,0.000000,0.000000 Head:0.000000,0.000000,0.000000,0.000000 HipLeft:0.134273,-0.671108,0.702448,-0.195322 HipRight:-0.086291,0.678874,0.709022,-0.170213 KneeLeft:-0.030216,0.730132,-0.040133,-0.681457 KneeRight:-0.020469,0.682300,0.036217,0.729887 Neck:0.074498,-0.025575,0.991787,-0.100770 ShoulderLeft:-0.017120,0.781064,-0.610779,0.128820 ShoulderRight:0.080412,0.778350,0.622570,-0.010562 SpineBase:0.034813,-0.018318,0.997437,-0.059766 SpineMid:0.054417,-0.019490,0.996560,-0.059395 SpineShoulder:0.074450,-0.023008,0.993813,-0.079149 ThumbLeft:0.000000,0.000000,0.000000,0.000000 ThumbRight:0.000000,0.000000,0.000000,0.000000 WristLeft:-0.113792,0.767781,-0.049687,0.628566 WristRight:0.053341,-0.538549,-0.123894,0.831727 END:
KINECT_DATA POSITION:15.262961,-1.428697,-7.575321 HEAD_JOINT1:0.970771,0.179348,-0.000000,0.159495 LARM_JOINT2:0.837184,0.000000,-0.058678,-0.543765 LARM_JOINT3:0.964708,0.000000,-0.174350,-0.197336 LLEG_JOINT2:0.998825,0.009284,0.000000,0.047572 LLEG_JOINT4:0.994017,0.101545,0.000000,-0.040230 RARM_JOINT2:0.770996,0.000000,-0.012221,0.636723 RARM_JOINT3:0.964487,0.000000,0.234088,0.122344 RLEG_JOINT2:0.999063,0.009665,0.000000,-0.042181 RLEG_JOINT4:0.996759,0.074228,0.000000,0.030998 WAIST:0.999341,0.000000,-0.036276,0.001403 WAIST_JOINT0:0.997010,0.000000,-0.077157,-0.004178 WAIST_JOINT1:0.996047,0.085213,0.000000,-0.025070 END:
KINECT_DATA_Sensor  AnkleLeft:0.072089,0.746944,-0.084436,-0.655552 AnkleRight:0.060682,0.742851,0.058667,0.664114 ElbowLeft:-0.036259,0.941790,-0.181024,-0.280975 ElbowRight:0.018928,0.808641,0.149904,0.568568 FootLeft:0.000000,0.000000,0.000000,0.000000 FootRight:0.000000,0.000000,0.000000,0.000000 HandLeft:-0.132006,0.730229,0.002935,0.670322 HandRight:0.153860,-0.553897,-0.101480,0.811928 HandTipLeft:0.000000,0.000000,0.000000,0.000000 HandTipRight:0.000000,0.000000,0.000000,0.000000 Head:0.000000,0.000000,0.000000,0.000000 HipLeft:0.133972,-0.670870,0.702618,-0.195734 HipRight:-0.085846,0.678839,0.708982,-0.170742 KneeLeft:-0.029578,0.730137,-0.040132,-0.681480 KneeRight:-0.020559,0.682328,0.036534,0.729843 Neck:0.076529,-0.026029,0.991542,-0.101541 ShoulderLeft:-0.018101,0.780851,-0.610563,0.130985 ShoulderRight:0.082123,0.777242,0.623744,-0.009705 SpineBase:0.034784,-0.018464,0.997395,-0.060441 SpineMid:0.055417,-0.019711,0.996461,-0.060046 SpineShoulder:0.076485,-0.023411,0.993591,-0.079867 ThumbLeft:0.000000,0.000000,0.000000,0.000000 ThumbRight:0.000000,0.000000,0.000000,0.000000 WristLeft:-0.112130,0.738869,-0.054565,0.662210 WristRight:0.056392,-0.562122,-0.122267,0.816021 END:
KINECT_DATA POSITION:15.285221,-1.438935,-7.504022 HEAD_JOINT1:0.970868,0.178654,-0.000000,0.159679 LARM_JOINT2:0.837343,0.000000,-0.058794,-0.543508 LARM_JOINT3:0.964481,0.000000,-0.175649,-0.197289 LLEG_JOINT2:0.998864,0.010051,0.000000,0.046583 LLEG_JOINT4:0.993983,0.102006,0.000000,-0.039895 RARM_JOINT2:0.771472,0.000000,-0.013252,0.636125 RARM_JOINT3:0.964870,0.000000,0.232108,0.123096 RLEG_JOINT2:0.999036,0.009518,0.000000,-0.042854 RLEG_JOINT4:0.996731,0.074636,0.000000,0.030922 WAIST:0.999326,0.000000,-0.036672,0.001530 WAIST_JOINT0:0.996946,0.000000,-0.077952,-0.004775 WAIST_JOINT1:0.996057,0.085098,0.000000,-0.025066 END:
KINECT_DATA_Sensor  AnkleLeft:0.073304,0.747187,-0.084959,-0.655073 AnkleRight:0.054238,0.671616,0.065108,0.736037 ElbowLeft:-0.036544,0.942062,-0.181343,-0.279818 ElbowRight:0.019164,0.807992,0.150787,0.569250 FootLeft:0.000000,0.000000,0.000000,0.000000 FootRight:0.000000,0.000000,0.000000,0.000000 HandLeft:-0.134328,0.722701,-0.002945,0.677975 HandRight:0.156294,-0.580218,-0.089196,0.794332 HandTipLeft:0.000000,0.000000,0.000000,0.000000 HandTipRight:0.000000,0.000000,0.000000,0.000000 Head:0.000000,0.000000,0.000000,0.000000 HipLeft:0.134151,-0.670720,0.702665,-0.195961 HipRight:-0.085609,0.679002,0.708931,-0.170426 KneeLeft:-0.028434,0.730477,-0.040103,-0.681166 KneeRight:-0.021020,0.682026,0.036846,0.730097 Neck:0.077400,-0.025921,0.991490,-0.101414 ShoulderLeft:-0.018630,0.780963,-0.610286,0.131531 ShoulderRight:0.082686,0.776746,0.624298,-0.009011 SpineBase:0.035175,-0.018257,0.997385,-0.060431 SpineMid:0.056055,-0.019518,0.996430,-0.060036 SpineShoulder:0.077363,-0.023284,0.993535,-0.079760 ThumbLeft:0.000000,0.000000,0.000000,0.000000 ThumbRight:0.000000,0.000000,0.000000,0.000000 WristLeft:-0.112229,0.731090,-0.055557,0.670690 WristRight:0.058383,-0.587347,-0.120072,0.798246 END:
KINECT_DATA POSITION:15.268324,-1.448801,-7.423627 HEAD_JOINT1:0.970985,0.178651,-0.000000,0.158971 LARM_JOINT2:0.837262,0.000000,-0.058365,-0.543678 LARM_JOINT3:0.964956,0.000000,-0.173917,-0.196502 LLEG_JOINT2:0.998852,0.010339,0.000000,0.046774 LLEG_JOINT4:0.994199,0.100182,0.000000,-0.039136 RARM_JOINT2:0.771854,0.000000,-0.013623,0.635654 RARM_JOINT3:0.961875,0.000000,0.242800,0.125874 RLEG_JOINT2:0.999040,0.009321,0.000000,-0.042806 RLEG_JOINT4:0.996440,0.077114,0.000000,0.034057 WAIST:0.999315,0.000000,-0.036995,0.001050 WAIST_JOINT0:0.996968,0.000000,-0.077636,-0.005275 WAIST_JOINT1:0.996090,0.084820,0.000000,-0.024705 END:
KINECT_DATA_Sensor  AnkleLeft:0.071795,0.747241,-0.084265,-0.655268 AnkleRight:0.063469,0.736046,0.059068,0.671356 ElbowLeft:-0.036558,0.941993,-0.181094,-0.280211 ElbowRight:0.018987,0.808274,0.151369,0.568701 FootLeft:0.000000,0.000000,0.000000,0.000000 FootRight:0.000000,0.000000,0.000000,0.000000 HandLeft:-0.127655,0.765916,0.007025,0.630101 HandRight:0.182406,-0.533798,-0.131565,0.815156 HandTipLeft:0.000000,0.000000,0.000000,0.000000 HandTipRight:0.000000,0.000000,0.000000,0.000000 Head:0.000000,0.000000,0.000000,0.000000 HipLeft:0.134546,-0.671046,0.702309,-0.195847 HipRight:-0.085590,0.678772,0.709280,-0.169899 KneeLeft:-0.028049,0.730757,-0.040099,-0.680881 KneeRight:-0.021460,0.681742,0.037025,0.730340 Neck:0.077167,-0.025934,0.991529,-0.101206 ShoulderLeft:-0.018796,0.781103,-0.610163,0.131250 ShoulderRight:0.082207,0.776342,0.624861,-0.009213 SpineBase:0.035553,-0.018466,0.997392,-0.060032 SpineMid:0.056119,-0.019700,0.996447,-0.059638 SpineShoulder:0.077123,-0.023328,0.993576,-0.079467 ThumbLeft:0.000000,0.000000,0.000000,0.000000 ThumbRight:0.000000,0.000000,0.000000,0.000000 WristLeft:-0.115286,0.772690,-0.048435,0.622345 WristRight:0.052459,-0.547399,-0.123096,0.826105 END:
KINECT_DATA POSITION:15.354145,-1.494377,-7.171345 HEAD_JOINT1:0.973323,0.174257,-0.000000,0.149255 LARM_JOINT2:0.835434,0.000000,-0.058202,-0.546500 LARM_JOINT3:0.967580,0.000000,-0.165312,-0.190950 LLEG_JOINT2:0.998910,0.011761,0.000000,0.045161 LLEG_JOINT4:0.994295,0.099946,0.000000,-0.037248 RARM_JOINT2:0.774924,0.000000,0.016582,0.631837 RARM_JOINT3:0.952586,0.000000,0.282123,0.113955 RLEG_JOINT2:0.998957,0.012832,0.000000,-0.043830 RLEG_JOINT4:0.996566,0.074937,0.000000,0.035224 WAIST:0.999473,0.000000,-0.032453,0.001075 WAIST_JOINT0:0.997724,0.000000,-0.067402,-0.002022 WAIST_JOINT1:0.996357,0.081747,0.000000,-0.024282 END:
KINECT_DATA_Sensor  AnkleLeft:0.072470,0.741731,-0.085267,-0.661296 AnkleRight:0.063538,0.730077,0.060882,0.677676 ElbowLeft:-0.038037,0.939686,-0.177510,-0.289886 ElbowRight:-0.006302,0.813591,0.141298,0.563973 FootLeft:0.000000,0.000000,0.000000,0.000000 FootRight:0.000000,0.000000,0.000000,0.000000 HandLeft:-0.091330,0.799138,0.015042,0.593979 HandRight:0.171000,-0.365730,-0.274674,0.872671 HandTipLeft:0.000000,0.000000,0.000000,0.000000 HandTipRight:0.000000,0.000000,0.000000,0.000000 Head:0.000000,0.000000,0.000000,0.000000 HipLeft:0.134208,-0.672134,0.702518,-0.191556 HipRight:-0.091269,0.678699,0.708633,-0.169933 KneeLeft:-0.025722,0.727979,-0.040189,-0.683938 KneeRight:-0.019755,0.684796,0.040042,0.727366 Neck:0.066574,-0.025272,0.992807,-0.096250 ShoulderLeft:-0.016243,0.782176,-0.610516,0.123314 ShoulderRight:0.071048,0.781093,0.620122,-0.017176 SpineBase:0.031200,-0.017285,0.997779,-0.056261 SpineMid:0.048697,-0.018269,0.997078,-0.055949 SpineShoulder:0.066523,-0.022761,0.994545,-0.077047 ThumbLeft:0.000000,0.000000,0.000000,0.000000 ThumbRight:0.000000,0.000000,0.000000,0.000000 WristLeft:-0.119559,0.800192,-0.046368,0.585875 WristRight:0.053819,-0.400690,-0.167207,0.899218 END:
KINECT_DATA POSITION:15.450191,-1.497277,-6.993723 HEAD_JOINT1:0.975196,0.171837,-0.000000,0.139517 LARM_JOINT2:0.834309,0.000000,-0.048325,-0.549176 LARM_JOINT3:0.968018,0.000000,-0.168416,-0.185951 LLEG_JOINT2:0.998939,0.012755,0.000000,0.044251 LLEG_JOINT4:0.994674,0.097059,0.000000,-0.034697 RARM_JOINT2:0.777843,0.000000,0.085673,0.622591 RARM_JOINT3:0.951283,0.000000,0.292393,0.097806 RLEG_JOINT2:0.999000,0.014260,0.000000,-0.042367 RLEG_JOINT4:0.996853,0.072353,0.000000,0.032385 WAIST:0.999595,0.000000,-0.028436,0.000742 WAIST_JOINT0:0.998451,0.000000,-0.055639,0.000050 WAIST_JOINT1:0.996835,0.075922,0.000000,-0.023570 END:
KINECT_DATA_Sensor  AnkleLeft:0.070083,0.735868,-0.084945,-0.668111 AnkleRight:0.056850,0.684169,0.065857,0.724115 ElbowLeft:-0.038207,0.931272,-0.176333,-0.316511 ElbowRight:-0.056329,0.836873,0.115455,0.532111 FootLeft:0.000000,0.000000,0.000000,0.000000 FootRight:0.000000,0.000000,0.000000,0.000000 HandLeft:-0.088973,0.753399,0.006135,0.651488 HandRight:0.029769,0.026155,-0.377846,0.925020 HandTipLeft:0.000000,0.000000,0.000000,0.000000 HandTipRight:0.000000,0.000000,0.000000,0.000000 Head:0.000000,0.000000,0.000000,0.000000 HipLeft:0.134105,-0.673328,0.702395,-0.187848 HipRight:-0.096299,0.678382,0.708207,-0.170197 KneeLeft:-0.023971,0.725470,-0.040161,-0.686663 KneeRight:-0.018121,0.687553,0.040103,0.724799 Neck:0.054896,-0.023890,0.994157,-0.089817 ShoulderLeft:-0.011990,0.783145,-0.611874,0.110234 ShoulderRight:0.059993,0.783071,0.618626,-0.022425 SpineBase:0.027350,-0.016676,0.998082,-0.052972 SpineMid:0.040944,-0.017397,0.997617,-0.052740 SpineShoulder:0.054737,-0.022303,0.995686,-0.071524 ThumbLeft:0.000000,0.000000,0.000000,0.000000 ThumbRight:0.000000,0.000000,0.000000,0.000000 WristLeft:-0.116715,0.755425,-0.064492,0.641523 WristRight:-0.002739,0.013102,-0.233589,0.972243 END:
KINECT_DATA POSITION:15.501799,-1.465345,-6.930697 HEAD_JOINT1:0.975690,0.174315,-0.000000,0.132828 LARM_JOINT2:0.831533,0.000000,-0.043746,-0.553751 LARM_JOINT3:0.968534,0.000000,-0.167392,-0.184181 LLEG_JOINT2:0.998946,0.012646,0.000000,0.044135 LLEG_JOINT4:0.994367,0.100108,0.000000,-0.034827 RARM_JOINT2:0.782359,0.000000,0.120336,0.611093 RARM_JOINT3:0.955385,0.000000,0.279463,0.095603 RLEG_JOINT2:0.998990,0.013845,0.000000,-0.042738 RLEG_JOINT4:0.996631,0.074736,0.000000,0.033786 WAIST:0.999668,0.000000,-0.025752,0.000279 WAIST_JOINT0:0.999106,0.000000,-0.042161,0.003001 WAIST_JOINT1:0.997171,0.071811,0.000000,-0.022192 END:
KINECT_DATA_Sensor  AnkleLeft:0.073492,0.738503,-0.085801,-0.664718 AnkleRight:0.059018,0.691595,0.066459,0.716796 ElbowLeft:-0.038682,0.925877,-0.172214,-0.334063 ElbowRight:-0.085014,0.851577,0.107162,0.506069 FootLeft:0.000000,0.000000,0.000000,0.000000 FootRight:0.000000,0.000000,0.000000,0.000000 HandLeft:-0.091813,0.747067,0.020580,0.658056 HandRight:-0.033253,0.168460,-0.337105,0.925676 HandTipLeft:0.000000,0.000000,0.000000,0.000000 HandTipRight:0.000000,0.000000,0.000000,0.000000 Head:0.000000,0.000000,0.000000,0.000000 HipLeft:0.134050,-0.674312,0.702132,-0.185321 HipRight:-0.099506,0.678011,0.708056,-0.170459 KneeLeft:-0.023523,0.723732,-0.039741,-0.688534 KneeRight:-0.019118,0.689379,0.040364,0.723022 Neck:0.041509,-0.021973,0.995165,-0.086259 ShoulderLeft:-0.008856,0.783236,-0.613689,0.099242 ShoulderRight:0.045775,0.785799,0.615938,-0.032322 SpineBase:0.024774,-0.016651,0.998261,-0.050833 SpineMid:0.032953,-0.017067,0.998024,-0.050695 SpineShoulder:0.041285,-0.020941,0.996648,-0.067451 ThumbLeft:0.000000,0.000000,0.000000,0.000000 ThumbRight:0.000000,0.000000,0.000000,0.000000 WristLeft:-0.116639,0.752612,-0.070673,0.644187 WristRight:-0.035333,0.169242,-0.255592,0.951200 END:
KINECT_DATA POSITION:15.503245,-1.446736,-6.842101 HEAD_JOINT1:0.976680,0.181745,-0.000000,0.114305 LARM_JOINT2:0.827960,0.000000,-0.029395,-0.560017 LARM_JOINT3:0.967844,0.000000,-0.174137,-0.181532 LLEG_JOINT2:0.998961,0.013586,0.000000,0.043505 LLEG_JOINT4:0.995015,0.093611,0.000000,-0.034378 RARM_JOINT2:0.789308,0.000000,0.173393,0.589006 RARM_JOINT3:0.954720,0.000000,0.282959,0.091895 RLEG_JOINT2:0.998952,0.015047,0.000000,-0.043235 RLEG_JOINT4:0.996178,0.080323,0.000000,0.034309 WAIST:0.999795,0.000000,-0.020247,0.000237 WAIST_JOINT0:0.999756,0.000000,-0.020881,0.007271 WAIST_JOINT1:0.997614,0.066687,0.000000,-0.017871 END:
KINECT_DATA_Sensor  AnkleLeft:0.066586,0.706227,-0.084305,-0.699787 AnkleRight:0.064405,0.703020,0.070673,0.704713 ElbowLeft:-0.034392,0.915106,-0.172607,-0.362773 ElbowRight:-0.130828,0.861920,0.092293,0.481102 FootLeft:0.000000,0.000000,0.000000,0.000000 FootRight:0.000000,0.000000,0.000000,0.000000 HandLeft:-0.099100,0.710749,0.015328,0.696261 HandRight:0.007386,0.131991,-0.362857,0.922420 HandTipLeft:0.000000,0.000000,0.000000,0.000000 HandTipRight:0.000000,0.000000,0.000000,0.000000 Head:0.000000,0.000000,0.000000,0.000000 HipLeft:0.133045,-0.675710,0.702202,-0.180632 HipRight:-0.105708,0.678039,0.707008,-0.170964 KneeLeft:-0.022157,0.720169,-0.040089,-0.692285 KneeRight:-0.018855,0.693151,0.041471,0.719351 Neck:0.020426,-0.016850,0.996272,-0.082105 ShoulderLeft:-0.005492,0.782253,-0.617158,0.084656 ShoulderRight:0.021763,0.789029,0.611874,-0.050704 SpineBase:0.019439,-0.015205,0.998587,-0.047072 SpineMid:0.019743,-0.015219,0.998581,-0.047067 SpineShoulder:0.020208,-0.016103,0.997730,-0.062180 ThumbLeft:0.000000,0.000000,0.000000,0.000000 ThumbRight:0.000000,0.000000,0.000000,0.000000 WristLeft:-0.111173,0.720296,-0.083512,0.679588 WristRight:-0.017903,0.123754,-0.302455,0.944926 END:
KINECT_DATA POSITION:15.472067,-1.443499,-6.813943 HEAD_JOINT1:0.977474,0.182867,-0.000000,0.105372 LARM_JOINT2:0.827128,0.000000,-0.029148,-0.561257 LARM_JOINT3:0.967594,0.000000,-0.175288,-0.181757 LLEG_JOINT2:0.998996,0.014814,0.000000,0.042274 LLEG_JOINT4:0.995189,0.093363,0.000000,-0.029712 RARM_JOINT2:0.788116,0.000000,0.252841,0.561199 RARM_JOINT3:0.964586,0.000000,0.254651,0.068744 RLEG_JOINT2:0.998916,0.015582,0.000000,-0.043866 RLEG_JOINT4:0.996006,0.080776,0.000000,0.038038 WAIST:0.999868,0.000000,-0.016245,0.000166 WAIST_JOINT0:0.999893,0.000000,-0.009547,0.011063 WAIST_JOINT1:0.997753,0.065247,0.000000,-0.015248 END:
KINECT_DATA_Sensor  AnkleLeft:0.066152,0.711533,-0.086305,-0.694188 AnkleRight:0.067208,0.708814,0.069067,0.698781 ElbowLeft:-0.034799,0.914259,-0.173324,-0.364524 ElbowRight:-0.188660,0.868044,0.061512,0.455107 FootLeft:0.000000,0.000000,0.000000,0.000000 FootRight:0.000000,0.000000,0.000000,0.000000 HandLeft:-0.111157,0.723906,0.007845,0.680840 HandRight:-0.009750,0.205633,-0.366296,0.907440 HandTipLeft:0.000000,0.000000,0.000000,0.000000 HandTipRight:0.000000,0.000000,0.000000,0.000000 Head:0.000000,0.000000,0.000000,0.000000 HipLeft:0.131825,-0.676436,0.702421,-0.177936 HipRight:-0.109878,0.677855,0.706394,-0.171603 KneeLeft:-0.020198,0.717598,-0.040159,-0.695005 KneeRight:-0.019132,0.695883,0.042268,0.716655 Neck:0.009221,-0.014080,0.996575,-0.080961 ShoulderLeft:-0.006308,0.781280,-0.618961,0.080309 ShoulderRight:0.006383,0.791608,0.607687,-0.063507 SpineBase:0.015565,-0.013594,0.998769,-0.045094 SpineMid:0.012232,-0.013444,0.998815,-0.045139 SpineShoulder:0.009026,-0.013381,0.998030,-0.060634 ThumbLeft:0.000000,0.000000,0.000000,0.000000 ThumbRight:0.000000,0.000000,0.000000,0.000000 WristLeft:-0.110114,0.733828,-0.082919,0.665203 WristRight:-0.048723,0.190838,-0.332623,0.922263 END:
KINECT_DATA POSITION:15.487421,-1.456487,-6.792772 HEAD_JOINT1:0.978885,0.181058,-0.000000,0.094878 LARM_JOINT2:0.826276,0.000000,-0.032662,-0.562318 LARM_JOINT3:0.968256,0.000000,-0.170514,-0.182770 LLEG_JOINT2:0.999113,0.014416,0.000000,0.039563 LLEG_JOINT4:0.995403,0.091640,0.000000,-0.027829 RARM_JOINT2:0.770975,0.000000,0.391751,0.502125 RARM_JOINT3:0.982498,0.000000,0.182183,0.038812 RLEG_JOINT2:0.998718,0.017449,0.000000,-0.047523 RLEG_JOINT4:0.995844,0.078907,0.000000,0.045486 WAIST:0.999941,0.000000,-0.010839,0.000962 WAIST_JOINT0:0.999658,-0.000000,0.015564,0.021022 WAIST_JOINT1:0.997815,0.065206,0.000000,-0.010662 END:
KINECT_DATA_Sensor  AnkleLeft:-0.063917,-0.697810,0.085379,0.708298 AnkleRight:0.070841,0.721844,0.065087,0.685337 ElbowLeft:-0.036053,0.915958,-0.176242,-0.358693 ElbowRight:-0.280623,0.884013,0.003048,0.373848 FootLeft:0.000000,0.000000,0.000000,0.000000 FootRight:0.000000,0.000000,0.000000,0.000000 HandLeft:-0.096626,0.800662,0.017161,0.591024 HandRight:-0.034483,0.228016,-0.371972,0.899142 HandTipLeft:0.000000,0.000000,0.000000,0.000000 HandTipRight:0.000000,0.000000,0.000000,0.000000 Head:0.000000,0.000000,0.000000,0.000000 HipLeft:0.128124,-0.677154,0.703283,-0.174469 HipRight:-0.114318,0.678354,0.704776,-0.173370 KneeLeft:-0.018881,0.713943,-0.038651,-0.698881 KneeRight:-0.020019,0.699612,0.045521,0.712790 Neck:-0.015600,-0.006870,0.996544,-0.081297 ShoulderLeft:-0.005604,0.778672,-0.623176,0.072732 ShoulderRight:-0.025593,0.797469,0.595558,-0.093271 SpineBase:0.010238,-0.010993,0.998920,-0.043963 SpineMid:-0.002806,-0.010418,0.998969,-0.044103 SpineShoulder:-0.015822,-0.007380,0.998018,-0.060456 ThumbLeft:0.000000,0.000000,0.000000,0.000000 ThumbRight:0.000000,0.000000,0.000000,0.000000 WristLeft:-0.117074,0.804519,-0.070332,0.578011 WristRight:-0.058786,0.218013,-0.374085,0.899486 END:
KINECT_DATA POSITION:15.507415,-1.452009,-6.797731 HEAD_JOINT1:0.980031,0.180139,-0.000000,0.084194 LARM_JOINT2:0.826101,0.000000,-0.030918,-0.562673 LARM_JOINT3:0.968533,0.000000,-0.171137,-0.180709 LLEG_JOINT2:0.999209,0.013995,0.000000,0.037226 LLEG_JOINT4:0.995407,0.092882,0.000000,-0.023185 RARM_JOINT2:0.768056,0.000000,0.425820,0.478297 RARM_JOINT3:0.984144,0.000000,0.172249,0.042319 RLEG_JOINT2:0.998580,0.019531,0.000000,-0.049563 RLEG_JOINT4:0.995735,0.079275,0.000000,0.047202 WAIST:0.999981,0.000000,-0.005662,0.002226 WAIST_JOINT0:0.999163,-0.000000,0.032168,0.025268 WAIST_JOINT1:0.997820,0.065636,0.000000,-0.006831 END:
KINECT_DATA_Sensor  AnkleLeft:0.067036,0.731602,-0.084613,-0.673131 AnkleRight:0.073459,0.730441,0.065820,0.675816 ElbowLeft:-0.035036,0.913624,-0.181529,-0.362093 ElbowRight:-0.306252,0.894965,-0.003165,0.324403 FootLeft:0.000000,0.000000,0.000000,0.000000 FootRight:0.000000,0.000000,0.000000,0.000000 HandLeft:-0.083938,0.764925,-0.005455,0.638604 HandRight:-0.047001,0.259479,-0.378628,0.887188 HandTipLeft:0.000000,0.000000,0.000000,0.000000 HandTipRight:0.000000,0.000000,0.000000,0.000000 Head:0.000000,0.000000,0.000000,0.000000 HipLeft:0.122956,-0.676992,0.705397,-0.170233 HipRight:-0.117464,0.678716,0.703795,-0.173837 KneeLeft:-0.018207,0.710406,-0.037696,-0.702546 KneeRight:-0.019318,0.703230,0.047433,0.709115 Neck:-0.032603,-0.001056,0.996117,-0.081778 ShoulderLeft:-0.003864,0.776481,-0.626540,0.067154 ShoulderRight:-0.046618,0.798993,0.588756,-0.113153 SpineBase:0.005124,-0.007583,0.999022,-0.043250 SpineMid:-0.013778,-0.006763,0.998941,-0.043385 SpineShoulder:-0.032777,-0.001931,0.997620,-0.060637 ThumbLeft:0.000000,0.000000,0.000000,0.000000 ThumbRight:0.000000,0.000000,0.000000,0.000000 WristLeft:-0.109362,0.766274,-0.080379,0.628015 WristRight:-0.058263,0.254256,-0.389570,0.883286 END:
KINECT_DATA POSITION:15.619099,-1.436099,-6.686199 HEAD_JOINT1:0.980723,0.178898,-0.000000,0.078594 LARM_JOINT2:0.825422,0.000000,-0.031480,-0.563638 LARM_JOINT3:0.966872,0.000000,-0.173185,-0.187524 LLEG_JOINT2:0.999331,0.015116,0.000000,0.033317 LLEG_JOINT4:0.995584,0.091533,0.000000,-0.020854 RARM_JOINT2:0.760862,0.000000,0.460748,0.456947 RARM_JOINT3:0.988141,0.000000,0.147520,0.042593 RLEG_JOINT2:0.998345,0.024783,0.000000,-0.051890 RLEG_JOINT4:0.995977,0.075147,0.000000,0.048822 WAIST:0.999987,-0.000000,0.002833,0.004283 WAIST_JOINT0:0.999422,-0.000000,0.024680,0.023371 WAIST_JOINT1:0.997798,0.066157,0.000000,-0.004832 END:
KINECT_DATA_Sensor  AnkleLeft:-0.063153,-0.692850,0.087337,0.712982 AnkleRight:0.071968,0.709555,0.069033,0.697558 ElbowLeft:-0.034053,0.910896,-0.184519,-0.367506 ElbowRight:-0.329907,0.899756,-0.018466,0.285061 FootLeft:0.000000,0.000000,0.000000,0.000000 FootRight:0.000000,0.000000,0.000000,0.000000 HandLeft:-0.102149,0.746592,0.003982,0.657382 HandRight:-0.005442,0.225977,-0.385192,0.894724 HandTipLeft:0.000000,0.000000,0.000000,0.000000 HandTipRight:0.000000,0.000000,0.000000,0.000000 Head:0.000000,0.000000,0.000000,0.000000 HipLeft:0.118316,-0.676799,0.707314,-0.166285 HipRight:-0.124419,0.679349,0.700941,-0.178005 KneeLeft:0.015798,-0.704518,0.037312,0.708528 KneeRight:-0.016216,0.709270,0.051163,0.702891 Neck:-0.027024,0.001301,0.996263,-0.082024 ShoulderLeft:0.001724,0.774004,-0.629765,0.065662 ShoulderRight:-0.033577,0.799107,0.591316,-0.103178 SpineBase:-0.003356,-0.003929,0.999088,-0.042375 SpineMid:-0.015251,-0.003424,0.998978,-0.042419 SpineShoulder:-0.027111,0.000697,0.997768,-0.061026 ThumbLeft:0.000000,0.000000,0.000000,0.000000 ThumbRight:0.000000,0.000000,0.000000,0.000000 WristLeft:-0.105735,0.754028,-0.084978,0.642683 WristRight:-0.039798,0.210957,-0.396099,0.892759 END:
KINECT_DATA POSITION:15.762048,-1.466396,-6.562269 HEAD_JOINT1:0.981067,0.178782,-0.000000,0.074461 LARM_JOINT2:0.824349,0.000000,-0.035325,-0.564978 LARM_JOINT3:0.966581,0.000000,-0.170673,-0.191291 LLEG_JOINT2:0.999496,0.015738,0.000000,0.027552 LLEG_JOINT4:0.995644,0.091467,0.000000,-0.018099 RARM_JOINT2:0.767940,0.000000,0.494545,0.407054 RARM_JOINT3:0.986836,0.000000,0.138170,0.084043 RLEG_JOINT2:0.997890,0.029801,0.000000,-0.057679 RLEG_JOINT4:0.995911,0.072739,0.000000,0.053584 WAIST:0.999907,-0.000000,0.010689,0.008488 WAIST_JOINT0:0.998097,-0.000000,0.052616,0.032141 WAIST_JOINT1:0.997807,0.065932,0.000000,-0.005790 END:
KINECT_DATA_Sensor  AnkleLeft:-0.062091,-0.677065,0.088905,0.727890 AnkleRight:0.074277,0.703208,0.070369,0.703583 ElbowLeft:-0.034550,0.911178,-0.185090,-0.366473 ElbowRight:-0.369191,0.924798,0.058600,0.070805 FootLeft:0.000000,0.000000,0.000000,0.000000 FootRight:0.000000,0.000000,0.000000,0.000000 HandLeft:-0.104316,0.837752,0.023012,0.535500 HandRight:-0.036348,0.277198,-0.403135,0.871391 HandTipLeft:0.000000,0.000000,0.000000,0.000000 HandTipRight:0.000000,0.000000,0.000000,0.000000 Head:0.000000,0.000000,0.000000,0.000000 HipLeft:0.114612,-0.675353,0.710224,-0.162307 HipRight:-0.131005,0.681594,0.696489,-0.182127 KneeLeft:0.014025,-0.698873,0.036696,0.714166 KneeRight:-0.014276,0.714957,0.055680,0.696801 Neck:-0.054160,0.005770,0.995192,-0.081398 ShoulderLeft:0.001355,0.772814,-0.631972,0.058046 ShoulderRight:-0.070560,0.801576,0.578015,-0.135632 SpineBase:-0.011378,-0.000392,0.999087,-0.041172 SpineMid:-0.032638,0.000485,0.998619,-0.041171 SpineShoulder:-0.054274,0.004506,0.996671,-0.060667 ThumbLeft:0.000000,0.000000,0.000000,0.000000 ThumbRight:0.000000,0.000000,0.000000,0.000000 WristLeft:-0.116814,0.842350,-0.068506,0.521639 WristRight:-0.032037,0.280776,-0.385319,0.878446 END:
KINECT_DATA POSITION:15.775424,-1.490953,-6.541800 HEAD_JOINT1:0.980925,0.180466,-0.000000,0.072232 LARM_JOINT2:0.823526,0.000000,-0.035777,-0.566150 LARM_JOINT3:0.966348,0.000000,-0.169746,-0.193283 LLEG_JOINT2:0.999546,0.014791,0.000000,0.026240 LLEG_JOINT4:0.995957,0.088413,0.000000,-0.015908 RARM_JOINT2:0.767715,0.000000,0.527062,0.364444 RARM_JOINT3:0.988117,0.000000,0.114853,0.102143 RLEG_JOINT2:0.997705,0.032287,0.000000,-0.059512 RLEG_JOINT4:0.996375,0.068258,0.000000,0.050776 WAIST:0.999828,-0.000000,0.015740,0.009806 WAIST_JOINT0:0.997404,-0.000000,0.063095,0.034703 WAIST_JOINT1:0.997829,0.065668,0.000000,-0.005023 END:
KINECT_DATA_Sensor  AnkleLeft:-0.057867,-0.671609,0.087425,0.733450 AnkleRight:0.072685,0.732491,0.068934,0.673366 ElbowLeft:-0.033547,0.910915,-0.185782,-0.366870 ElbowRight:-0.404577,0.911403,0.072023,0.021782 FootLeft:0.000000,0.000000,0.000000,0.000000 FootRight:0.000000,0.000000,0.000000,0.000000 HandLeft:-0.111162,0.748688,0.008260,0.653484 HandRight:-0.074669,0.279532,-0.345591,0.892667 HandTipLeft:0.000000,0.000000,0.000000,0.000000 HandTipRight:0.000000,0.000000,0.000000,0.000000 Head:0.000000,0.000000,0.000000,0.000000 HipLeft:0.110897,-0.675086,0.711706,-0.159481 HipRight:-0.134103,0.681932,0.695024,-0.184192 KneeLeft:0.014569,-0.695250,0.036067,0.717714 KneeRight:-0.013232,0.718537,0.057706,0.692964 Neck:-0.064917,0.007696,0.994567,-0.081017 ShoulderLeft:0.001983,0.771733,-0.633618,0.054339 ShoulderRight:-0.084678,0.801814,0.572846,-0.147553 SpineBase:-0.016438,0.001666,0.999019,-0.041078 SpineMid:-0.040440,0.002653,0.998336,-0.041026 SpineShoulder:-0.064989,0.006672,0.996042,-0.060260 ThumbLeft:0.000000,0.000000,0.000000,0.000000 ThumbRight:0.000000,0.000000,0.000000,0.000000 WristLeft:-0.104094,0.758718,-0.084354,0.637492 WristRight:-0.022672,0.290399,-0.411061,0.863819 END:
KINECT_DATA POSITION:15.786952,-1.499184,-6.546497 HEAD_JOINT1:0.980808,0.181179,-0.000000,0.072041 LARM_JOINT2:0.823326,0.000000,-0.037622,-0.566321 LARM_JOINT3:0.966118,0.000000,-0.172345,-0.192130 LLEG_JOINT2:0.999566,0.014761,0.000000,0.025500 LLEG_JOINT4:0.996023,0.087866,0.000000,-0.014736 RARM_JOINT2:0.768575,0.000000,0.531447,0.356169 RARM_JOINT3:0.987320,0.000000,0.117351,0.106899 RLEG_JOINT2:0.997666,0.033241,0.000000,-0.059654 RLEG_JOINT4:0.996460,0.067533,0.000000,0.050061 WAIST:0.999786,-0.000000,0.018034,0.010128 WAIST_JOINT0:0.997253,-0.000000,0.065310,0.034948 WAIST_JOINT1:0.997821,0.065815,0.000000,-0.004605 END:
KINECT_DATA_Sensor  AnkleLeft:-0.057154,-0.670410,0.087364,0.734610 AnkleRight:0.071882,0.730094,0.070053,0.675935 ElbowLeft:-0.033770,0.911650,-0.185873,-0.364972 ElbowRight:-0.406705,0.908344,0.093409,-0.027863 FootLeft:0.000000,0.000000,0.000000,0.000000 FootRight:0.000000,0.000000,0.000000,0.000000 HandLeft:-0.118849,0.776354,-0.001839,0.618988 HandRight:-0.075281,0.308186,-0.375769,0.870719 HandTipLeft:0.000000,0.000000,0.000000,0.000000 HandTipRight:0.000000,0.000000,0.000000,0.000000 Head:0.000000,0.000000,0.000000,0.000000 HipLeft:0.108769,-0.675096,0.712323,-0.158145 HipRight:-0.135118,0.681871,0.694670,-0.185012 KneeLeft:0.014237,-0.693624,0.035758,0.719308 KneeRight:-0.012590,0.720150,0.058218,0.691257 Neck:-0.067363,0.008256,0.994386,-0.081182 ShoulderLeft:0.002706,0.771244,-0.634291,0.053388 ShoulderRight:-0.087324,0.801498,0.572211,-0.150170 SpineBase:-0.018719,0.002565,0.998968,-0.041299 SpineMid:-0.042778,0.003559,0.998227,-0.041226 SpineShoulder:-0.067423,0.007286,0.995871,-0.060353 ThumbLeft:0.000000,0.000000,0.000000,0.000000 ThumbRight:0.000000,0.000000,0.000000,0.000000 WristLeft:-0.107511,0.784235,-0.079537,0.605880 WristRight:-0.035993,0.320619,-0.399414,0.858123 END:
KINECT_DATA POSITION:15.822262,-1.536340,-6.511605 HEAD_JOINT1:0.980545,0.182570,-0.000000,0.072112 LARM_JOINT2:0.823270,0.000000,-0.040217,-0.566223 LARM_JOINT3:0.966815,0.000000,-0.166809,-0.193503 LLEG_JOINT2:0.999612,0.013770,0.000000,0.024226 LLEG_JOINT4:0.996165,0.086454,0.000000,-0.013491 RARM_JOINT2:0.762308,0.000000,0.498878,0.412319 RARM_JOINT3:0.991305,0.000000,0.108960,0.073776 RLEG_JOINT2:0.997486,0.035393,0.000000,-0.061389 RLEG_JOINT4:0.996569,0.064592,0.000000,0.051756 WAIST:0.999707,-0.000000,0.021282,0.011553 WAIST_JOINT0:0.996874,-0.000000,0.069072,0.038356 WAIST_JOINT1:0.997778,0.066411,0.000000,-0.005368 END:
KINECT_DATA_Sensor  AnkleLeft:-0.054756,-0.668568,0.086394,0.736583 AnkleRight:0.071597,0.728333,0.069145,0.677956 ElbowLeft:-0.033860,0.912445,-0.186136,-0.362838 ElbowRight:-0.370421,0.916257,0.006099,0.152393 FootLeft:0.000000,0.000000,0.000000,0.000000 FootRight:0.000000,0.000000,0.000000,0.000000 HandLeft:-0.103406,0.754690,0.004479,0.647866 HandRight:-0.053545,0.294931,-0.309429,0.902442 HandTipLeft:0.000000,0.000000,0.000000,0.000000 HandTipRight:0.000000,0.000000,0.000000,0.000000 Head:0.000000,0.000000,0.000000,0.000000 HipLeft:0.106883,-0.674348,0.713579,-0.156956 HipRight:-0.137230,0.682167,0.693346,-0.187316 KneeLeft:0.014989,-0.691222,0.035182,0.721630 KneeRight:-0.011548,0.722495,0.059901,0.688680 Neck:-0.071161,0.008718,0.994064,-0.081831 ShoulderLeft:0.004492,0.770510,-0.635303,0.051810 ShoulderRight:-0.090650,0.803657,0.567703,-0.153724 SpineBase:-0.022045,0.003485,0.998883,-0.041659 SpineMid:-0.046303,0.004496,0.998052,-0.041562 SpineShoulder:-0.071217,0.007786,0.995573,-0.060848 ThumbLeft:0.000000,0.000000,0.000000,0.000000 ThumbRight:0.000000,0.000000,0.000000,0.000000 WristLeft:-0.104782,0.762050,-0.082689,0.633611 WristRight:-0.043435,0.290491,-0.407886,0.864498 END:
KINECT_DATA POSITION:15.913182,-1.560145,-6.490147 HEAD_JOINT1:0.979649,0.187096,-0.000000,0.072678 LARM_JOINT2:0.822888,0.000000,-0.042647,-0.566602 LARM_JOINT3:0.966993,0.000000,-0.169727,-0.190048 LLEG_JOINT2:0.999671,0.013611,0.000000,0.021724 LLEG_JOINT4:0.995547,0.093321,0.000000,-0.013280 RARM_JOINT2:0.763146,0.000000,0.495136,0.415269 RARM_JOINT3:0.991572,0.000000,0.112691,0.063913 RLEG_JOINT2:0.997305,0.037007,0.000000,-0.063344 RLEG_JOINT4:0.996645,0.062994,0.000000,0.052259 WAIST:0.999630,-0.000000,0.023972,0.012866 WAIST_JOINT0:0.996762,-0.000000,0.070070,0.039449 WAIST_JOINT1:0.997691,0.067701,0.000000,-0.005489 END:
KINECT_DATA_Sensor  AnkleLeft:0.067614,0.724528,-0.084952,-0.680640 AnkleRight:0.071052,0.728066,0.069634,0.678250 ElbowLeft:-0.033788,0.912382,-0.186526,-0.362802 ElbowRight:-0.365991,0.918089,0.005539,0.152094 FootLeft:0.000000,0.000000,0.000000,0.000000 FootRight:0.000000,0.000000,0.000000,0.000000 HandLeft:-0.104751,0.749984,-0.016097,0.652911 HandRight:-0.043977,0.238686,-0.338583,0.909096 HandTipLeft:0.000000,0.000000,0.000000,0.000000 HandTipRight:0.000000,0.000000,0.000000,0.000000 Head:0.000000,0.000000,0.000000,0.000000 HipLeft:0.104435,-0.673554,0.714943,-0.155802 HipRight:-0.138470,0.682506,0.692371,-0.188769 KneeLeft:0.014234,-0.689270,0.034207,0.723557 KneeRight:-0.011095,0.724433,0.061440,0.686512 Neck:-0.072422,0.009818,0.993838,-0.083340 ShoulderLeft:0.007351,0.769268,-0.636836,0.051119 ShoulderRight:-0.089495,0.803722,0.567509,-0.154774 SpineBase:-0.024791,0.004885,0.998787,-0.042265 SpineMid:-0.048301,0.005879,0.997926,-0.042138 SpineShoulder:-0.072484,0.008670,0.995403,-0.061991 ThumbLeft:0.000000,0.000000,0.000000,0.000000 ThumbRight:0.000000,0.000000,0.000000,0.000000 WristLeft:-0.103458,0.754920,-0.083982,0.642136 WristRight:-0.020994,0.241166,-0.404441,0.881944 END:
KINECT_DATA POSITION:15.977684,-1.587901,-6.455576 HEAD_JOINT1:0.979858,0.186932,-0.000000,0.070253 LARM_JOINT2:0.822550,0.000000,-0.046059,-0.566824 LARM_JOINT3:0.965892,0.000000,-0.172308,-0.193292 LLEG_JOINT2:0.999708,0.013858,0.000000,0.019784 LLEG_JOINT4:0.995904,0.089766,0.000000,-0.010801 RARM_JOINT2:0.763781,0.000000,0.496849,0.412042 RARM_JOINT3:0.991203,0.000000,0.117716,0.060492 RLEG_JOINT2:0.997181,0.039031,0.000000,-0.064088 RLEG_JOINT4:0.996794,0.060397,0.000000,0.052470 WAIST:0.999555,-0.000000,0.026345,0.013975 WAIST_JOINT0:0.996681,-0.000000,0.070628,0.040481 WAIST_JOINT1:0.997561,0.069609,0.000000,-0.005209 END:
KINECT_DATA_Sensor  AnkleLeft:-0.057366,-0.667251,0.088693,0.737305 AnkleRight:0.071241,0.733696,0.068552,0.672247 ElbowLeft:-0.033706,0.913132,-0.187160,-0.360589 ElbowRight:-0.366677,0.918505,0.005310,0.147879 FootLeft:0.000000,0.000000,0.000000,0.000000 FootRight:0.000000,0.000000,0.000000,0.000000 HandLeft:-0.124030,0.752000,-0.013529,0.647248 HandRight:-0.065187,0.316224,-0.356465,0.876747 HandTipLeft:0.000000,0.000000,0.000000,0.000000 HandTipRight:0.000000,0.000000,0.000000,0.000000 Head:0.000000,0.000000,0.000000,0.000000 HipLeft:0.101758,-0.672768,0.716160,-0.155380 HipRight:-0.138936,0.682670,0.691637,-0.190520 KneeLeft:0.013445,-0.687537,0.033766,0.725239 KneeRight:-0.009616,0.726166,0.062588,0.684597 Neck:-0.073494,0.010977,0.993583,-0.085276 ShoulderLeft:0.011735,0.767589,-0.638858,0.050299 ShoulderRight:-0.086464,0.803668,0.567879,-0.155417 SpineBase:-0.027226,0.006095,0.998657,-0.043659 SpineMid:-0.050055,0.007092,0.997773,-0.043508 SpineShoulder:-0.073538,0.009839,0.995200,-0.063815 ThumbLeft:0.000000,0.000000,0.000000,0.000000 ThumbRight:0.000000,0.000000,0.000000,0.000000 WristLeft:-0.103166,0.760730,-0.082577,0.635474 WristRight:-0.056524,0.315824,-0.399904,0.858566 END:
KINECT_DATA POSITION:16.033806,-1.591174,-6.442368 HEAD_JOINT1:0.980100,0.186056,-0.000000,0.069191 LARM_JOINT2:0.822515,0.000000,-0.046850,-0.566811 LARM_JOINT3:0.965875,0.000000,-0.171421,-0.194165 LLEG_JOINT2:0.999737,0.013596,0.000000,0.018475 LLEG_JOINT4:0.995567,0.093279,0.000000,-0.012043 RARM_JOINT2:0.763895,0.000000,0.496095,0.412739 RARM_JOINT3:0.991496,0.000000,0.110448,0.068820 RLEG_JOINT2:0.997053,0.040257,0.000000,-0.065302 RLEG_JOINT4:0.996820,0.059363,0.000000,0.053167 WAIST:0.999530,-0.000000,0.026963,0.014574 WAIST_JOINT0:0.996744,-0.000000,0.069687,0.040562 WAIST_JOINT1:0.997543,0.069849,0.000000,-0.005331 END:
KINECT_DATA_Sensor  AnkleLeft:-0.061170,-0.667186,0.089471,0.736964 AnkleRight:0.070867,0.729196,0.069177,0.677101 ElbowLeft:-0.033805,0.913498,-0.187485,-0.359482 ElbowRight:-0.365694,0.919006,0.005114,0.147206 FootLeft:0.000000,0.000000,0.000000,0.000000 FootRight:0.000000,0.000000,0.000000,0.000000 HandLeft:-0.121427,0.735277,-0.014389,0.666645 HandRight:-0.038262,0.259101,-0.325463,0.908557 HandTipLeft:0.000000,0.000000,0.000000,0.000000 HandTipRight:0.000000,0.000000,0.000000,0.000000 Head:0.000000,0.000000,0.000000,0.000000 HipLeft:0.100897,-0.672264,0.716797,-0.155190 HipRight:-0.139065,0.682905,0.691336,-0.190671 KneeLeft:0.013144,-0.687094,0.033061,0.725697 KneeRight:-0.009266,0.726637,0.063879,0.683983 Neck:-0.072658,0.011244,0.993623,-0.085483 ShoulderLeft:0.011938,0.767002,-0.639516,0.050838 ShoulderRight:-0.085175,0.803473,0.568568,-0.154620 SpineBase:-0.027863,0.006917,0.998621,-0.043954 SpineMid:-0.049943,0.007887,0.997760,-0.043790 SpineShoulder:-0.072686,0.010192,0.995244,-0.064048 ThumbLeft:0.000000,0.000000,0.000000,0.000000 ThumbRight:0.000000,0.000000,0.000000,0.000000 WristLeft:-0.101350,0.744331,-0.084918,0.654590 WristRight:-0.026418,0.256663,-0.402793,0.878171 END:
KINECT_DATA POSITION:16.066849,-1.617602,-6.445253 HEAD_JOINT1:0.979934,0.186838,-0.000000,0.069428 LARM_JOINT2:0.822533,0.000000,-0.046804,-0.566789 LARM_JOINT3:0.965840,0.000000,-0.168843,-0.196585 LLEG_JOINT2:0.999757,0.013870,0.000000,0.017140 LLEG_JOINT4:0.996139,0.087314,0.000000,-0.009111 RARM_JOINT2:0.765594,0.000000,0.496715,0.408828 RARM_JOINT3:0.990848,0.000000,0.112030,0.075294 RLEG_JOINT2:0.996970,0.040789,0.000000,-0.066230 RLEG_JOINT4:0.997028,0.057122,0.000000,0.051695 WAIST:0.999533,-0.000000,0.026606,0.015050 WAIST_JOINT0:0.996756,-0.000000,0.069458,0.040666 WAIST_JOINT1:0.997566,0.069501,0.000000,-0.005623 END:
KINECT_DATA_Sensor  AnkleLeft:-0.055627,-0.668115,0.086988,0.736859 AnkleRight:0.070517,0.750689,0.067037,0.653451 ElbowLeft:-0.033918,0.914171,-0.187633,-0.357679 ElbowRight:-0.368340,0.921680,0.018237,0.120410 FootLeft:0.000000,0.000000,0.000000,0.000000 FootRight:0.000000,0.000000,0.000000,0.000000 HandLeft:-0.118072,0.769271,0.003511,0.627908 HandRight:-0.042239,0.261519,-0.328284,0.906672 HandTipLeft:0.000000,0.000000,0.000000,0.000000 HandTipRight:0.000000,0.000000,0.000000,0.000000 Head:0.000000,0.000000,0.000000,0.000000 HipLeft:0.100994,-0.671815,0.717172,-0.155335 HipRight:-0.138838,0.683243,0.691155,-0.190280 KneeLeft:0.012372,-0.687353,0.032617,0.725485 KneeRight:-0.009207,0.726424,0.064576,0.684144 Neck:-0.072397,0.011427,0.993685,-0.084955 ShoulderLeft:0.011258,0.766951,-0.639573,0.051040 ShoulderRight:-0.085560,0.803558,0.568453,-0.154384 SpineBase:-0.027530,0.007353,0.998628,-0.043927 SpineMid:-0.049630,0.008323,0.997774,-0.043753 SpineShoulder:-0.072417,0.010405,0.995281,-0.063738 ThumbLeft:0.000000,0.000000,0.000000,0.000000 ThumbRight:0.000000,0.000000,0.000000,0.000000 WristLeft:-0.106185,0.778168,-0.078785,0.613980 WristRight:-0.022547,0.261794,-0.399845,0.878111 END:
KINECT_DATA POSITION:16.085472,-1.638044,-6.463766 HEAD_JOINT1:0.979603,0.188220,-0.000000,0.070364 LARM_JOINT2:0.822694,0.000000,-0.046082,-0.566614 LARM_JOINT3:0.966988,0.000000,-0.162667,-0.196149 LLEG_JOINT2:0.999765,0.013789,0.000000,0.016725 LLEG_JOINT4:0.995823,0.090730,0.000000,-0.010201 RARM_JOINT2:0.763491,0.000000,0.487878,0.423150 RARM_JOINT3:0.990730,0.000000,0.122618,0.058463 RLEG_JOINT2:0.996959,0.041786,0.000000,-0.065770 RLEG_JOINT4:0.997176,0.054474,0.000000,0.051705 WAIST:0.999526,-0.000000,0.026673,0.015399 WAIST_JOINT0:0.996806,-0.000000,0.068732,0.040655 WAIST_JOINT1:0.997585,0.069211,0.000000,-0.005903 END:
KINECT_DATA_Sensor  AnkleLeft:-0.058856,-0.668092,0.088455,0.736454 AnkleRight:0.069816,0.750294,0.065386,0.654148 ElbowLeft:-0.033336,0.914810,-0.188129,-0.355835 ElbowRight:-0.356672,0.914037,-0.011620,0.192837 FootLeft:0.000000,0.000000,0.000000,0.000000 FootRight:0.000000,0.000000,0.000000,0.000000 HandLeft:-0.093801,0.761032,0.009996,0.641819 HandRight:-0.048971,0.289804,-0.336925,0.894481 HandTipLeft:0.000000,0.000000,0.000000,0.000000 HandTipRight:0.000000,0.000000,0.000000,0.000000 Head:0.000000,0.000000,0.000000,0.000000 HipLeft:0.100752,-0.671533,0.717512,-0.155139 HipRight:-0.138706,0.683439,0.691032,-0.190121 KneeLeft:0.012391,-0.687292,0.032506,0.725548 KneeRight:-0.007943,0.726514,0.064733,0.684049 Neck:-0.071647,0.011347,0.993773,-0.084575 ShoulderLeft:0.010615,0.766892,-0.639624,0.051421 ShoulderRight:-0.085217,0.803604,0.568652,-0.153602 SpineBase:-0.027618,0.007575,0.998624,-0.043940 SpineMid:-0.049294,0.008527,0.997789,-0.043765 SpineShoulder:-0.071655,0.010429,0.995353,-0.063475 ThumbLeft:0.000000,0.000000,0.000000,0.000000 ThumbRight:0.000000,0.000000,0.000000,0.000000 WristLeft:-0.104649,0.767045,-0.079664,0.627968 WristRight:-0.039882,0.286904,-0.407934,0.865844 END:
KINECT_DATA POSITION:16.135092,-1.646337,-6.472397 HEAD_JOINT1:0.979161,0.190204,-0.000000,0.071177 LARM_JOINT2:0.822730,0.000000,-0.045119,-0.566639 LARM_JOINT3:0.965917,0.000000,-0.168152,-0.196795 LLEG_JOINT2:0.999777,0.014237,0.000000,0.015591 LLEG_JOINT4:0.995806,0.090939,0.000000,-0.010033 RARM_JOINT2:0.761266,0.000000,0.493837,0.420238 RARM_JOINT3:0.990982,0.000000,0.116963,0.065386 RLEG_JOINT2:0.996896,0.042132,0.000000,-0.066513 RLEG_JOINT4:0.997438,0.051290,0.000000,0.049871 WAIST:0.999526,-0.000000,0.026417,0.015789 WAIST_JOINT0:0.996959,-0.000000,0.066971,0.039843 WAIST_JOINT1:0.997610,0.068815,0.000000,-0.006254 END:
KINECT_DATA_Sensor  AnkleLeft:-0.059785,-0.668984,0.088460,0.735568 AnkleRight:0.066213,0.749910,0.065048,0.654996 ElbowLeft:-0.032950,0.914985,-0.188363,-0.355298 ElbowRight:-0.360933,0.916814,-0.007492,0.170658 FootLeft:0.000000,0.000000,0.000000,0.000000 FootRight:0.000000,0.000000,0.000000,0.000000 HandLeft:-0.113333,0.751652,-0.004080,0.649738 HandRight:-0.019743,0.254121,-0.334463,0.907286 HandTipLeft:0.000000,0.000000,0.000000,0.000000 HandTipRight:0.000000,0.000000,0.000000,0.000000 Head:0.000000,0.000000,0.000000,0.000000 HipLeft:0.100877,-0.671189,0.717831,-0.155070 HipRight:-0.138584,0.683742,0.690887,-0.189647 KneeLeft:0.011567,-0.687479,0.032268,0.725395 KneeRight:-0.007946,0.726363,0.065225,0.684163 Neck:-0.069800,0.011144,0.993948,-0.084092 ShoulderLeft:0.009811,0.766872,-0.639606,0.052107 ShoulderRight:-0.083542,0.802991,0.570293,-0.151634 SpineBase:-0.027377,0.007925,0.998636,-0.043740 SpineMid:-0.048244,0.008838,0.997846,-0.043565 SpineShoulder:-0.069788,0.010413,0.995509,-0.063118 ThumbLeft:0.000000,0.000000,0.000000,0.000000 ThumbRight:0.000000,0.000000,0.000000,0.000000 WristLeft:-0.103841,0.759479,-0.080413,0.637137 WristRight:-0.021237,0.247472,-0.405876,0.879529 END:
KINECT_DATA POSITION:16.229469,-1.691674,-6.370473 HEAD_JOINT1:0.978714,0.192203,-0.000000,0.071958 LARM_JOINT2:0.822373,0.000000,-0.044314,-0.567220 LARM_JOINT3:0.965873,0.000000,-0.169641,-0.195731 LLEG_JOINT2:0.999795,0.015262,0.000000,0.013302 LLEG_JOINT4:0.995974,0.089310,0.000000,-0.007660 RARM_JOINT2:0.757101,0.000000,0.500304,0.420113 RARM_JOINT3:0.990841,0.000000,0.119102,0.063626 RLEG_JOINT2:0.996719,0.042752,0.000000,-0.068729 RLEG_JOINT4:0.997337,0.052605,0.000000,0.050509 WAIST:0.999540,-0.000000,0.025511,0.016399 WAIST_JOINT0:0.996971,-0.000000,0.066608,0.040147 WAIST_JOINT1:0.997654,0.068132,0.000000,-0.006695 END:
KINECT_DATA_Sensor  AnkleLeft:-0.058726,-0.669374,0.088628,0.735278 AnkleRight:0.067046,0.749665,0.066959,0.654999 ElbowLeft:-0.033061,0.915095,-0.187901,-0.355248 ElbowRight:-0.363699,0.919166,-0.006753,0.151033 FootLeft:0.000000,0.000000,0.000000,0.000000 FootRight:0.000000,0.000000,0.000000,0.000000 HandLeft:-0.114842,0.743973,-0.013754,0.658123 HandRight:-0.026121,0.285850,-0.357488,0.888712 HandTipLeft:0.000000,0.000000,0.000000,0.000000 HandTipRight:0.000000,0.000000,0.000000,0.000000 Head:0.000000,0.000000,0.000000,0.000000 HipLeft:0.101949,-0.670644,0.718168,-0.155169 HipRight:-0.138550,0.684336,0.690598,-0.188578 KneeLeft:0.009699,-0.688137,0.031745,0.724821 KneeRight:-0.008614,0.725770,0.066792,0.684633 Neck:-0.069275,0.011241,0.994034,-0.083494 ShoulderLeft:0.009298,0.766769,-0.639764,0.051774 ShoulderRight:-0.083346,0.803182,0.570349,-0.150515 SpineBase:-0.026494,0.008355,0.998690,-0.042983 SpineMid:-0.047518,0.009258,0.997910,-0.042797 SpineShoulder:-0.069239,0.010700,0.995590,-0.062384 ThumbLeft:0.000000,0.000000,0.000000,0.000000 ThumbRight:0.000000,0.000000,0.000000,0.000000 WristLeft:-0.103570,0.750978,-0.081555,0.647035 WristRight:-0.030799,0.279752,-0.403681,0.870536 END:
KINECT_DATA POSITION:16.295818,-1.709358,-6.275308 HEAD_JOINT1:0.978030,0.195367,-0.000000,0.072730 LARM_JOINT2:0.822051,0.000000,-0.043103,-0.567780 LARM_JOINT3:0.965925,0.000000,-0.168497,-0.196465 LLEG_JOINT2:0.999805,0.016065,0.000000,0.011504 LLEG_JOINT4:0.996122,0.087945,0.000000,-0.002700 RARM_JOINT2:0.755974,0.000000,0.502890,0.419053 RARM_JOINT3:0.991967,0.000000,0.107921,0.065989 RLEG_JOINT2:0.996598,0.043659,0.000000,-0.069903 RLEG_JOINT4:0.997326,0.052969,0.000000,0.050348 WAIST:0.999538,-0.000000,0.025226,0.016968 WAIST_JOINT0:0.997131,-0.000000,0.064683,0.039326 WAIST_JOINT1:0.997658,0.068018,0.000000,-0.007221 END:
KINECT_DATA_Sensor  AnkleLeft:-0.055844,-0.671103,0.090800,0.733660 AnkleRight:0.066701,0.742318,0.069081,0.663131 ElbowLeft:-0.032637,0.914152,-0.187604,-0.357863 ElbowRight:-0.365366,0.920424,-0.003996,0.138967 FootLeft:0.000000,0.000000,0.000000,0.000000 FootRight:0.000000,0.000000,0.000000,0.000000 HandLeft:-0.109384,0.772836,-0.000791,0.625108 HandRight:-0.035041,0.251662,-0.332112,0.908372 HandTipLeft:0.000000,0.000000,0.000000,0.000000 HandTipRight:0.000000,0.000000,0.000000,0.000000 Head:0.000000,0.000000,0.000000,0.000000 HipLeft:0.102113,-0.670161,0.718578,-0.155249 HipRight:-0.138246,0.684691,0.690357,-0.188397 KneeLeft:0.008287,-0.688320,0.031397,0.724680 KneeRight:-0.008409,0.725619,0.067864,0.684690 Neck:-0.067272,0.011135,0.994179,-0.083412 ShoulderLeft:0.008635,0.766701,-0.639779,0.052697 ShoulderRight:-0.081335,0.802520,0.572083,-0.148547 SpineBase:-0.026254,0.008449,0.998694,-0.043005 SpineMid:-0.046408,0.009315,0.997961,-0.042825 SpineShoulder:-0.067228,0.010654,0.995736,-0.062266 ThumbLeft:0.000000,0.000000,0.000000,0.000000 ThumbRight:0.000000,0.000000,0.000000,0.000000 WristLeft:-0.107950,0.778946,-0.077159,0.612893 WristRight:-0.013849,0.251961,-0.404117,0.879211 END:
KINECT_DATA POSITION:16.338871,-1.724552,-6.179857 HEAD_JOINT1:0.978087,0.195384,-0.000000,0.071904 LARM_JOINT2:0.821552,0.000000,-0.043301,-0.568486 LARM_JOINT3:0.965104,0.000000,-0.171590,-0.197816 LLEG_JOINT2:0.999820,0.015343,0.000000,0.011185 LLEG_JOINT4:0.995892,0.090486,0.000000,-0.003288 RARM_JOINT2:0.757589,0.000000,0.500677,0.418785 RARM_JOINT3:0.991210,0.000000,0.116492,0.062710 RLEG_JOINT2:0.996562,0.043800,0.000000,-0.070325 RLEG_JOINT4:0.997226,0.054419,0.000000,0.050785 WAIST:0.999540,-0.000000,0.025113,0.016980 WAIST_JOINT0:0.997225,-0.000000,0.063242,0.039274 WAIST_JOINT1:0.997627,0.068510,0.000000,-0.006885 END:
KINECT_DATA_Sensor  AnkleLeft:-0.057837,-0.671630,0.091394,0.732949 AnkleRight:0.068186,0.745122,0.069844,0.659746 ElbowLeft:-0.032431,0.913742,-0.187176,-0.359150 ElbowRight:-0.364263,0.918704,-0.006661,0.152481 FootLeft:0.000000,0.000000,0.000000,0.000000 FootRight:0.000000,0.000000,0.000000,0.000000 HandLeft:-0.121999,0.772109,-0.000695,0.623669 HandRight:-0.035551,0.280897,-0.352546,0.891933 HandTipLeft:0.000000,0.000000,0.000000,0.000000 HandTipRight:0.000000,0.000000,0.000000,0.000000 Head:0.000000,0.000000,0.000000,0.000000 HipLeft:0.101824,-0.670006,0.718672,-0.155674 HipRight:-0.137921,0.684618,0.690459,-0.188526 KneeLeft:0.008601,-0.688411,0.030679,0.724620 KneeRight:-0.008597,0.725547,0.068252,0.684726 Neck:-0.065962,0.011447,0.994217,-0.083969 ShoulderLeft:0.009115,0.765956,-0.640598,0.053506 ShoulderRight:-0.079133,0.802143,0.573235,-0.147332 SpineBase:-0.026143,0.008684,0.998674,-0.043483 SpineMid:-0.045709,0.009535,0.997970,-0.043304 SpineShoulder:-0.065913,0.010924,0.995791,-0.062749 ThumbLeft:0.000000,0.000000,0.000000,0.000000 ThumbRight:0.000000,0.000000,0.000000,0.000000 WristLeft:-0.108659,0.780479,-0.076913,0.610844 WristRight:-0.029628,0.278118,-0.405093,0.870444 END:
KINECT_DATA POSITION:16.359240,-1.725703,-6.147194 HEAD_JOINT1:0.978217,0.194919,-0.000000,0.071397 LARM_JOINT2:0.821243,0.000000,-0.043865,-0.568890 LARM_JOINT3:0.965653,0.000000,-0.170153,-0.196374 LLEG_JOINT2:0.999808,0.016358,0.000000,0.010743 LLEG_JOINT4:0.995963,0.089713,0.000000,-0.002964 RARM_JOINT2:0.756695,0.000000,0.501647,0.419241 RARM_JOINT3:0.991447,0.000000,0.114090,0.063370 RLEG_JOINT2:0.996549,0.043745,0.000000,-0.070542 RLEG_JOINT4:0.997153,0.055350,0.000000,0.051204 WAIST:0.999549,-0.000000,0.024727,0.017047 WAIST_JOINT0:0.997315,-0.000000,0.062120,0.038785 WAIST_JOINT1:0.997605,0.068871,0.000000,-0.006451 END:
KINECT_DATA_Sensor  AnkleLeft:0.065630,0.732152,-0.086253,-0.672463 AnkleRight:0.068852,0.743066,0.070410,0.661933 ElbowLeft:-0.032479,0.914082,-0.187112,-0.358314 ElbowRight:-0.363836,0.918953,-0.007951,0.151940 FootLeft:0.000000,0.000000,0.000000,0.000000 FootRight:0.000000,0.000000,0.000000,0.000000 HandLeft:-0.115846,0.757784,-0.003703,0.642129 HandRight:-0.034938,0.265409,-0.343463,0.900206 HandTipLeft:0.000000,0.000000,0.000000,0.000000 HandTipRight:0.000000,0.000000,0.000000,0.000000 Head:0.000000,0.000000,0.000000,0.000000 HipLeft:0.101809,-0.669835,0.718725,-0.156173 HipRight:-0.137641,0.684687,0.690483,-0.188395 KneeLeft:0.007616,-0.688697,0.031108,0.724341 KneeRight:-0.008712,0.725287,0.068323,0.684992 Neck:-0.064990,0.012001,0.994240,-0.084373 ShoulderLeft:0.009614,0.765745,-0.640815,0.053838 ShoulderRight:-0.077330,0.801853,0.574149,-0.146303 SpineBase:-0.025753,0.009065,0.998669,-0.043758 SpineMid:-0.045033,0.009908,0.997986,-0.043574 SpineShoulder:-0.064937,0.011395,0.995827,-0.063095 ThumbLeft:0.000000,0.000000,0.000000,0.000000 ThumbRight:0.000000,0.000000,0.000000,0.000000 WristLeft:-0.106155,0.765540,-0.079348,0.629591 WristRight:-0.020066,0.264560,-0.406368,0.874340 END:
KINECT_DATA POSITION:16.353584,-1.733503,-6.121111 HEAD_JOINT1:0.978646,0.192833,-0.000000,0.071184 LARM_JOINT2:0.821540,0.000000,-0.044674,-0.568398 LARM_JOINT3:0.965155,0.000000,-0.171001,-0.198078 LLEG_JOINT2:0.999815,0.016234,0.000000,0.010332 LLEG_JOINT4:0.996100,0.088128,0.000000,-0.004154 RARM_JOINT2:0.756468,0.000000,0.500860,0.420589 RARM_JOINT3:0.991824,0.000000,0.110746,0.063413 RLEG_JOINT2:0.996507,0.044058,0.000000,-0.070938 RLEG_JOINT4:0.997105,0.055081,0.000000,0.052419 WAIST:0.999541,-0.000000,0.024937,0.017203 WAIST_JOINT0:0.997299,-0.000000,0.062223,0.039033 WAIST_JOINT1:0.997573,0.069358,0.000000,-0.006179 END:
KINECT_DATA_Sensor  AnkleLeft:-0.057834,-0.672109,0.089301,0.732769 AnkleRight:0.069951,0.747063,0.069339,0.657416 ElbowLeft:-0.032324,0.915096,-0.188034,-0.355243 ElbowRight:-0.362108,0.918300,-0.011507,0.159591 FootLeft:0.000000,0.000000,0.000000,0.000000 FootRight:0.000000,0.000000,0.000000,0.000000 HandLeft:-0.124832,0.758545,-0.005017,0.639532 HandRight:-0.043289,0.277588,-0.328294,0.901828 HandTipLeft:0.000000,0.000000,0.000000,0.000000 HandTipRight:0.000000,0.000000,0.000000,0.000000 Head:0.000000,0.000000,0.000000,0.000000 HipLeft:0.101367,-0.669658,0.718895,-0.156438 HipRight:-0.137613,0.684688,0.690393,-0.188741 KneeLeft:0.007529,-0.688549,0.030833,0.724495 KneeRight:-0.008687,0.725448,0.068709,0.684783 Neck:-0.065120,0.012415,0.994185,-0.084863 ShoulderLeft:0.009977,0.765496,-0.641081,0.054143 ShoulderRight:-0.077175,0.801835,0.574083,-0.146742 SpineBase:-0.025970,0.009414,0.998641,-0.044191 SpineMid:-0.045202,0.010263,0.997956,-0.044001 SpineShoulder:-0.065060,0.011807,0.995785,-0.063567 ThumbLeft:0.000000,0.000000,0.000000,0.000000 ThumbRight:0.000000,0.000000,0.000000,0.000000 WristLeft:-0.105068,0.767807,-0.078301,0.627139 WristRight:-0.025391,0.276226,-0.406826,0.870372 END:
KINECT_DATA POSITION:16.195717,-1.742644,-6.088865 HEAD_JOINT1:0.978583,0.192561,-0.000000,0.072770 LARM_JOINT2:0.822620,0.000000,-0.044482,-0.566849 LARM_JOINT3:0.964563,0.000000,-0.171225,-0.200751 LLEG_JOINT2:0.999768,0.016357,0.000000,0.013982 LLEG_JOINT4:0.996168,0.087057,0.000000,-0.008445 RARM_JOINT2:0.762845,0.000000,0.519327,0.385185 RARM_JOINT3:0.986603,0.000000,0.143651,0.077319 RLEG_JOINT2:0.996661,0.043584,0.000000,-0.069044 RLEG_JOINT4:0.997138,0.055786,0.000000,0.051034 WAIST:0.999584,-0.000000,0.023930,0.016086 WAIST_JOINT0:0.997390,-0.000000,0.061008,0.038618 WAIST_JOINT1:0.997593,0.069064,0.000000,-0.006121 END:
KINECT_DATA_Sensor  AnkleLeft:-0.058316,-0.672653,0.087473,0.732451 AnkleRight:0.069815,0.746496,0.069882,0.658017 ElbowLeft:-0.032437,0.916326,-0.188809,-0.351634 ElbowRight:-0.388311,0.919605,0.047979,0.035191 FootLeft:0.000000,0.000000,0.000000,0.000000 FootRight:0.000000,0.000000,0.000000,0.000000 HandLeft:-0.128353,0.776625,0.002152,0.616745 HandRight:-0.018650,0.256409,-0.461709,0.848959 HandTipLeft:0.000000,0.000000,0.000000,0.000000 HandTipRight:0.000000,0.000000,0.000000,0.000000 Head:0.000000,0.000000,0.000000,0.000000 HipLeft:0.102766,-0.670336,0.717961,-0.156913 HipRight:-0.137259,0.683995,0.691197,-0.188565 KneeLeft:0.009186,-0.689269,0.032773,0.723706 KneeRight:-0.008358,0.724686,0.067865,0.685678 Neck:-0.063943,0.011615,0.994296,-0.084571 ShoulderLeft:0.009038,0.765761,-0.640717,0.054865 ShoulderRight:-0.076530,0.801901,0.574344,-0.145697 SpineBase:-0.024927,0.007951,0.998692,-0.043923 SpineMid:-0.044138,0.008794,0.998028,-0.043762 SpineShoulder:-0.063923,0.010750,0.995885,-0.063339 ThumbLeft:0.000000,0.000000,0.000000,0.000000 ThumbRight:0.000000,0.000000,0.000000,0.000000 WristLeft:-0.108270,0.786255,-0.073918,0.603836 WristRight:-0.005488,0.270977,-0.401936,0.874637 END:
KINECT_DATA POSITION:16.028276,-1.782741,-6.056416 HEAD_JOINT1:0.978718,0.191420,-0.000000,0.073961 LARM_JOINT2:0.823280,0.000000,-0.045524,-0.565807 LARM_JOINT3:0.965394,0.000000,-0.167741,-0.199691 LLEG_JOINT2:0.999713,0.016142,0.000000,0.017730 LLEG_JOINT4:0.996020,0.088647,0.000000,-0.009281 RARM_JOINT2:0.755120,0.000000,0.540030,0.371701 RARM_JOINT3:0.987181,0.000000,0.128993,0.093994 RLEG_JOINT2:0.996900,0.042966,0.000000,-0.065904 RLEG_JOINT4:0.997055,0.057416,0.000000,0.050831 WAIST:0.999627,-0.000000,0.023114,0.014541 WAIST_JOINT0:0.997506,-0.000000,0.059800,0.037490 WAIST_JOINT1:0.997683,0.067723,0.000000,-0.006428 END:
KINECT_DATA_Sensor  AnkleLeft:-0.058361,-0.673447,0.089443,0.731480 AnkleRight:0.071294,0.742855,0.069868,0.661968 ElbowLeft:-0.033720,0.918171,-0.187579,-0.347332 ElbowRight:-0.404228,0.913260,0.050449,0.003439 FootLeft:0.000000,0.000000,0.000000,0.000000 FootRight:0.000000,0.000000,0.000000,0.000000 HandLeft:-0.111102,0.774853,0.000078,0.622302 HandRight:-0.039560,0.282638,-0.398007,0.871861 HandTipLeft:0.000000,0.000000,0.000000,0.000000 HandTipRight:0.000000,0.000000,0.000000,0.000000 Head:0.000000,0.000000,0.000000,0.000000 HipLeft:0.104387,-0.671383,0.716788,-0.156727 HipRight:-0.137103,0.682986,0.692314,-0.188242 KneeLeft:0.010853,-0.689855,0.034246,0.723055 KneeRight:-0.007553,0.724029,0.066351,0.686529 Neck:-0.062732,0.009076,0.994570,-0.082541 ShoulderLeft:0.006481,0.766690,-0.639564,0.055693 ShoulderRight:-0.077359,0.801711,0.574759,-0.144662 SpineBase:-0.024056,0.005795,0.998761,-0.043180 SpineMid:-0.043111,0.006618,0.998120,-0.043061 SpineShoulder:-0.062665,0.009146,0.996045,-0.062317 ThumbLeft:0.000000,0.000000,0.000000,0.000000 ThumbRight:0.000000,0.000000,0.000000,0.000000 WristLeft:-0.111196,0.780560,-0.073168,0.610744 WristRight:0.000845,0.296389,-0.412853,0.861223 END:
KINECT_DATA POSITION:16.076830,-1.802161,-6.052554 HEAD_JOINT1:0.978375,0.192539,-0.000000,0.075572 LARM_JOINT2:0.823689,0.000000,-0.041791,-0.565500 LARM_JOINT3:0.966478,0.000000,-0.162742,-0.198583 LLEG_JOINT2:0.999729,0.015049,0.000000,0.017785 LLEG_JOINT4:0.995738,0.091781,0.000000,-0.009021 RARM_JOINT2:0.752619,0.000000,0.531922,0.388103 RARM_JOINT3:0.989984,0.000000,0.114122,0.083118 RLEG_JOINT2:0.996814,0.043691,0.000000,-0.066733 RLEG_JOINT4:0.997248,0.054817,0.000000,0.049924 WAIST:0.999591,-0.000000,0.024402,0.014891 WAIST_JOINT0:0.997347,-0.000000,0.061867,0.038356 WAIST_JOINT1:0.997750,0.066611,0.000000,-0.007620 END:
KINECT_DATA_Sensor  AnkleLeft:-0.059447,-0.672201,0.091249,0.732315 AnkleRight:0.069194,0.746985,0.069324,0.657586 ElbowLeft:-0.032723,0.915440,-0.187935,-0.354371 ElbowRight:-0.394998,0.916797,0.024416,0.053511 FootLeft:0.000000,0.000000,0.000000,0.000000 FootRight:0.000000,0.000000,0.000000,0.000000 HandLeft:-0.087331,0.820760,0.019343,0.564227 HandRight:-0.061856,0.261792,-0.342577,0.900155 HandTipLeft:0.000000,0.000000,0.000000,0.000000 HandTipRight:0.000000,0.000000,0.000000,0.000000 Head:0.000000,0.000000,0.000000,0.000000 HipLeft:0.104255,-0.671404,0.717022,-0.155652 HipRight:-0.138458,0.683075,0.691798,-0.188822 KneeLeft:0.011900,-0.688900,0.033780,0.723971 KneeRight:-0.007499,0.724933,0.067178,0.685495 Neck:-0.064452,0.008302,0.994548,-0.081561 ShoulderLeft:0.004731,0.767300,-0.638909,0.054997 ShoulderRight:-0.081482,0.802427,0.572743,-0.146414 SpineBase:-0.025360,0.005737,0.998758,-0.042496 SpineMid:-0.044603,0.006554,0.998084,-0.042377 SpineShoulder:-0.064421,0.008186,0.996014,-0.061151 ThumbLeft:0.000000,0.000000,0.000000,0.000000 ThumbRight:0.000000,0.000000,0.000000,0.000000 WristLeft:-0.115353,0.822792,-0.067086,0.552455 WristRight:0.004391,0.273816,-0.417570,0.866395 END:
KINECT_DATA POSITION:16.107168,-1.801053,-6.069005 HEAD_JOINT1:0.977944,0.194178,-0.000000,0.076945 LARM_JOINT2:0.823713,0.000000,-0.040916,-0.565528 LARM_JOINT3:0.965304,0.000000,-0.167438,-0.200384 LLEG_JOINT2:0.999718,0.016114,0.000000,0.017472 LLEG_JOINT4:0.995987,0.089064,0.000000,-0.008816 RARM_JOINT2:0.756349,0.000000,0.528775,0.385141 RARM_JOINT3:0.989934,0.000000,0.107781,0.091725 RLEG_JOINT2:0.996842,0.043683,0.000000,-0.066320 RLEG_JOINT4:0.997244,0.054638,0.000000,0.050186 WAIST:0.999595,-0.000000,0.024441,0.014595 WAIST_JOINT0:0.997398,-0.000000,0.061453,0.037703 WAIST_JOINT1:0.997821,0.065494,0.000000,-0.007948 END:
KINECT_DATA_Sensor  AnkleLeft:-0.058572,-0.672540,0.089802,0.732253 AnkleRight:0.069290,0.746685,0.068963,0.657954 ElbowLeft:-0.033171,0.914914,-0.187234,-0.356055 ElbowRight:-0.396307,0.916363,0.034596,0.044989 FootLeft:0.000000,0.000000,0.000000,0.000000 FootRight:0.000000,0.000000,0.000000,0.000000 HandLeft:-0.109737,0.779942,0.010262,0.616071 HandRight:-0.076243,0.266450,-0.318300,0.906574 HandTipLeft:0.000000,0.000000,0.000000,0.000000 HandTipRight:0.000000,0.000000,0.000000,0.000000 Head:0.000000,0.000000,0.000000,0.000000 HipLeft:0.104622,-0.671775,0.716787,-0.154883 HipRight:-0.138751,0.683045,0.691938,-0.188202 KneeLeft:0.010701,-0.688897,0.034079,0.723978 KneeRight:-0.007421,0.724933,0.067095,0.685504 Neck:-0.063658,0.007685,0.994684,-0.080575 ShoulderLeft:0.003164,0.767949,-0.638148,0.054866 ShoulderRight:-0.081983,0.802073,0.573452,-0.145293 SpineBase:-0.025369,0.005421,0.998794,-0.041676 SpineMid:-0.044219,0.006207,0.998137,-0.041566 SpineShoulder:-0.063646,0.007468,0.996138,-0.060024 ThumbLeft:0.000000,0.000000,0.000000,0.000000 ThumbRight:0.000000,0.000000,0.000000,0.000000 WristLeft:-0.111929,0.786814,-0.074694,0.602342 WristRight:0.004435,0.278363,-0.416330,0.865542 END:
KINECT_DATA POSITION:16.119905,-1.783098,-6.119835 HEAD_JOINT1:0.977869,0.194568,-0.000000,0.076909 LARM_JOINT2:0.823866,0.000000,-0.040503,-0.565335 LARM_JOINT3:0.965151,0.000000,-0.165930,-0.202360 LLEG_JOINT2:0.999719,0.016705,0.000000,0.016796 LLEG_JOINT4:0.995990,0.089061,0.000000,-0.008483 RARM_JOINT2:0.758605,0.000000,0.525181,0.385620 RARM_JOINT3:0.989541,0.000000,0.114499,0.087738 RLEG_JOINT2:0.996871,0.042917,0.000000,-0.066384 RLEG_JOINT4:0.997289,0.054087,0.000000,0.049888 WAIST:0.999621,-0.000000,0.023666,0.014097 WAIST_JOINT0:0.997475,-0.000000,0.060702,0.036872 WAIST_JOINT1:0.997891,0.064420,0.000000,-0.007932 END:
KINECT_DATA_Sensor  AnkleLeft:-0.059483,-0.672821,0.089706,0.731934 AnkleRight:0.067841,0.746478,0.068611,0.658377 ElbowLeft:-0.033852,0.915322,-0.186802,-0.355169 ElbowRight:-0.396035,0.915821,0.034137,0.057120 FootLeft:0.000000,0.000000,0.000000,0.000000 FootRight:0.000000,0.000000,0.000000,0.000000 HandLeft:-0.112802,0.742206,0.012643,0.660490 HandRight:-0.057136,0.263822,-0.342841,0.899774 HandTipLeft:0.000000,0.000000,0.000000,0.000000 HandTipRight:0.000000,0.000000,0.000000,0.000000 Head:0.000000,0.000000,0.000000,0.000000 HipLeft:0.105640,-0.672182,0.716342,-0.154487 HipRight:-0.138753,0.683041,0.692292,-0.186909 KneeLeft:0.009472,-0.689503,0.033647,0.723439 KneeRight:-0.008290,0.724346,0.066952,0.686128 Neck:-0.062588,0.007247,0.994831,-0.079629 ShoulderLeft:0.000704,0.768255,-0.637722,0.055624 ShoulderRight:-0.083126,0.801283,0.574583,-0.144534 SpineBase:-0.024544,0.005168,0.998860,-0.040615 SpineMid:-0.043273,0.005929,0.998224,-0.040511 SpineShoulder:-0.062584,0.007001,0.996273,-0.058945 ThumbLeft:0.000000,0.000000,0.000000,0.000000 ThumbRight:0.000000,0.000000,0.000000,0.000000 WristLeft:-0.107876,0.752701,-0.080801,0.644418 WristRight:-0.003493,0.272937,-0.417013,0.866945 END:
KINECT_DATA POSITION:16.058744,-1.777253,-6.165040 HEAD_JOINT1:0.978082,0.193145,-0.000000,0.077790 LARM_JOINT2:0.824531,0.000000,-0.038249,-0.564522 LARM_JOINT3:0.965488,0.000000,-0.163666,-0.202598 LLEG_JOINT2:0.999687,0.016566,0.000000,0.018767 LLEG_JOINT4:0.995972,0.089360,0.000000,-0.007440 RARM_JOINT2:0.768942,0.000000,0.514181,0.379929 RARM_JOINT3:0.980072,0.000000,0.164163,0.111846 RLEG_JOINT2:0.996986,0.043065,0.000000,-0.064529 RLEG_JOINT4:0.997239,0.055813,0.000000,0.048989 WAIST:0.999638,-0.000000,0.023428,0.013222 WAIST_JOINT0:0.997570,-0.000000,0.059757,0.035820 WAIST_JOINT1:0.997954,0.063423,0.000000,-0.008067 END:
KINECT_DATA_Sensor  AnkleLeft:-0.058191,-0.673674,0.091308,0.731054 AnkleRight:0.069247,0.745794,0.069880,0.658872 ElbowLeft:-0.033473,0.914654,-0.187168,-0.356730 ElbowRight:-0.395972,0.914900,0.051602,0.059177 FootLeft:0.000000,0.000000,0.000000,0.000000 FootRight:0.000000,0.000000,0.000000,0.000000 HandLeft:-0.098867,0.800371,0.027970,0.590635 HandRight:0.028488,0.307842,-0.379253,0.872118 HandTipLeft:0.000000,0.000000,0.000000,0.000000 HandTipRight:0.000000,0.000000,0.000000,0.000000 Head:0.000000,0.000000,0.000000,0.000000 HipLeft:0.106540,-0.672855,0.715655,-0.154119 HipRight:-0.139043,0.682576,0.692818,-0.186442 KneeLeft:0.010319,-0.689694,0.034358,0.723212 KneeRight:-0.007450,0.724132,0.066396,0.686418 Neck:-0.061498,0.006061,0.994988,-0.078611 ShoulderLeft:-0.000586,0.769060,-0.636756,0.055570 ShoulderRight:-0.082864,0.800997,0.575391,-0.143050 SpineBase:-0.024255,0.004341,0.998903,-0.039832 SpineMid:-0.042594,0.005072,0.998289,-0.039746 SpineShoulder:-0.061498,0.005987,0.996402,-0.058012 ThumbLeft:0.000000,0.000000,0.000000,0.000000 ThumbRight:0.000000,0.000000,0.000000,0.000000 WristLeft:-0.115344,0.806606,-0.071125,0.575346 WristRight:0.001471,0.291572,-0.419844,0.859485 END:
KINECT_DATA POSITION:16.515459,-1.667368,-5.916500 HEAD_JOINT1:0.978179,0.192060,-0.000000,0.079242 LARM_JOINT2:0.823593,0.000000,-0.034005,-0.566160 LARM_JOINT3:0.964276,0.000000,-0.171075,-0.202251 LLEG_JOINT2:0.999733,0.021365,0.000000,0.008812 LLEG_JOINT4:0.996387,0.084905,0.000000,-0.002184 RARM_JOINT2:0.802370,0.000000,0.466421,0.372363 RARM_JOINT3:0.940952,0.000000,0.282029,0.187268 RLEG_JOINT2:0.996236,0.045386,0.000000,-0.073851 RLEG_JOINT4:0.997105,0.053567,0.000000,0.053971 WAIST:0.999660,-0.000000,0.020345,0.016294 WAIST_JOINT0:0.997950,-0.000000,0.054665,0.033267 WAIST_JOINT1:0.998099,0.060909,0.000000,-0.009371 END:
KINECT_DATA_Sensor  AnkleLeft:-0.059277,-0.676525,0.090566,0.728422 AnkleRight:0.068545,0.743141,0.070666,0.661853 ElbowLeft:-0.033602,0.914311,-0.187452,-0.357448 ElbowRight:-0.382180,0.914571,0.100725,0.085751 FootLeft:0.000000,0.000000,0.000000,0.000000 FootRight:0.000000,0.000000,0.000000,0.000000 HandLeft:-0.125501,0.748614,0.000702,0.651020 HandRight:0.175351,0.264123,-0.416932,0.851856 HandTipLeft:0.000000,0.000000,0.000000,0.000000 HandTipRight:0.000000,0.000000,0.000000,0.000000 Head:0.000000,0.000000,0.000000,0.000000 HipLeft:0.110385,-0.670868,0.716975,-0.153942 HipRight:-0.140577,0.686103,0.690443,-0.181077 KneeLeft:0.002212,-0.691943,0.032669,0.721209 KneeRight:-0.010123,0.722151,0.072430,0.687859 Neck:-0.056127,0.006966,0.995532,-0.075616 ShoulderLeft:-0.001769,0.769982,-0.635721,0.054625 ShoulderRight:-0.076613,0.800152,0.579411,-0.134794 SpineBase:-0.021155,0.008754,0.999105,-0.035557 SpineMid:-0.038215,0.009360,0.998598,-0.035402 SpineShoulder:-0.055989,0.008022,0.996851,-0.055583 ThumbLeft:0.000000,0.000000,0.000000,0.000000 ThumbRight:0.000000,0.000000,0.000000,0.000000 WristLeft:-0.109182,0.758983,-0.080482,0.636825 WristRight:0.107814,0.233983,-0.422825,0.868820 END:
KINECT_DATA POSITION:16.635590,-1.588332,-5.889821 HEAD_JOINT1:0.978141,0.191876,-0.000000,0.080144 LARM_JOINT2:0.823008,0.000000,-0.034182,-0.567001 LARM_JOINT3:0.964959,0.000000,-0.170248,-0.199673 LLEG_JOINT2:0.999726,0.022508,0.000000,0.006434 LLEG_JOINT4:0.996461,0.084041,0.000000,-0.001836 RARM_JOINT2:0.850950,0.000000,0.388128,0.353893 RARM_JOINT3:0.871073,0.000000,0.414444,0.263569 RLEG_JOINT2:0.996146,0.044378,0.000000,-0.075659 RLEG_JOINT4:0.996900,0.056787,0.000000,0.054458 WAIST:0.999666,-0.000000,0.019565,0.016897 WAIST_JOINT0:0.998172,-0.000000,0.051622,0.031444 WAIST_JOINT1:0.998145,0.060236,0.000000,-0.008810 END:
KINECT_DATA_Sensor  AnkleLeft:-0.060507,-0.678039,0.089729,0.727015 AnkleRight:0.069599,0.741412,0.072740,0.663455 ElbowLeft:-0.034536,0.914494,-0.187295,-0.356972 ElbowRight:-0.360588,0.904611,0.167071,0.154086 FootLeft:0.000000,0.000000,0.000000,0.000000 FootRight:0.000000,0.000000,0.000000,0.000000 HandLeft:-0.120255,0.758771,-0.003618,0.640150 HandRight:0.201509,0.352223,-0.453509,0.793513 HandTipLeft:0.000000,0.000000,0.000000,0.000000 HandTipRight:0.000000,0.000000,0.000000,0.000000 Head:0.000000,0.000000,0.000000,0.000000 HipLeft:0.111141,-0.670452,0.717166,-0.154320 HipRight:-0.140607,0.686800,0.689964,-0.180236 KneeLeft:0.000183,-0.692483,0.032181,0.720716 KneeRight:-0.011634,0.721615,0.072554,0.688384 Neck:-0.052997,0.008017,0.995739,-0.075046 ShoulderLeft:-0.001728,0.770076,-0.635614,0.054544 ShoulderRight:-0.072343,0.798913,0.582652,-0.130464 SpineBase:-0.020381,0.009558,0.999132,-0.035056 SpineMid:-0.036276,0.010114,0.998681,-0.034900 SpineShoulder:-0.052831,0.009081,0.997053,-0.054872 ThumbLeft:0.000000,0.000000,0.000000,0.000000 ThumbRight:0.000000,0.000000,0.000000,0.000000 WristLeft:-0.109622,0.766936,-0.079836,0.627231 WristRight:0.131891,0.319702,-0.459803,0.817910 END:
KINECT_DATA POSITION:16.701956,-1.469854,-5.837822 HEAD_JOINT1:0.978160,0.190690,-0.000000,0.082704 LARM_JOINT2:0.823222,0.000000,-0.032927,-0.566763 LARM_JOINT3:0.963737,0.000000,-0.174810,-0.201625 LLEG_JOINT2:0.999703,0.024072,0.000000,0.003854 LLEG_JOINT4:0.996805,0.079839,0.000000,0.002536 RARM_JOINT2:0.856186,0.000000,0.364859,0.365819 RARM_JOINT3:0.844145,0.000000,0.449279,0.292521 RLEG_JOINT2:0.996091,0.043092,0.000000,-0.077108 RLEG_JOINT4:0.996867,0.058012,0.000000,0.053757 WAIST:0.999723,-0.000000,0.015762,0.017470 WAIST_JOINT0:0.998814,-0.000000,0.039743,0.028115 WAIST_JOINT1:0.998174,0.059717,0.000000,-0.009076 END:
KINECT_DATA_Sensor  AnkleLeft:-0.057188,-0.685410,0.089494,0.720371 AnkleRight:0.068808,0.739049,0.073590,0.666075 ElbowLeft:-0.035037,0.915468,-0.187974,-0.354058 ElbowRight:-0.334272,0.913561,0.190605,0.131676 FootLeft:0.000000,0.000000,0.000000,0.000000 FootRight:0.000000,0.000000,0.000000,0.000000 HandLeft:-0.143771,0.736358,-0.011231,0.661045 HandRight:0.287061,0.288153,-0.557064,0.724046 HandTipLeft:0.000000,0.000000,0.000000,0.000000 HandTipRight:0.000000,0.000000,0.000000,0.000000 Head:0.000000,0.000000,0.000000,0.000000 HipLeft:0.113705,-0.669676,0.717091,-0.156158 HipRight:-0.138583,0.687780,0.690001,-0.177913 KneeLeft:-0.002252,-0.695169,0.031866,0.718136 KneeRight:-0.012846,0.718974,0.072328,0.691144 Neck:-0.041251,0.007931,0.996308,-0.074872 ShoulderLeft:-0.001231,0.770331,-0.635115,0.056729 ShoulderRight:-0.055933,0.797861,0.589010,-0.115569 SpineBase:-0.016612,0.009658,0.999214,-0.034667 SpineMid:-0.028573,0.010072,0.998944,-0.034549 SpineShoulder:-0.041048,0.009177,0.997635,-0.054358 ThumbLeft:0.000000,0.000000,0.000000,0.000000 ThumbRight:0.000000,0.000000,0.000000,0.000000 WristLeft:-0.106103,0.749483,-0.082649,0.648219 WristRight:0.194036,0.283537,-0.420016,0.839966 END:
KINECT_DATA POSITION:16.317650,-1.345315,-5.775034 HEAD_JOINT1:0.977904,0.189656,-0.000000,0.087947 LARM_JOINT2:0.825947,0.000000,-0.033413,-0.562757 LARM_JOINT3:0.962131,0.000000,-0.177442,-0.206925 LLEG_JOINT2:0.999655,0.023563,0.000000,0.011593 LLEG_JOINT4:0.996567,0.082638,0.000000,-0.004971 RARM_JOINT2:0.862402,0.000000,0.333917,0.380475 RARM_JOINT3:0.815771,0.000000,0.483948,0.316720 RLEG_JOINT2:0.996651,0.042158,0.000000,-0.070063 RLEG_JOINT4:0.997013,0.056522,0.000000,0.052635 WAIST:0.999809,-0.000000,0.012547,0.014993 WAIST_JOINT0:0.999023,-0.000000,0.034978,0.027020 WAIST_JOINT1:0.998203,0.059284,0.000000,-0.008733 END:
KINECT_DATA_Sensor  AnkleLeft:0.065426,0.728887,-0.085971,-0.676056 AnkleRight:0.069243,0.732504,0.069759,0.673630 ElbowLeft:-0.036131,0.918640,-0.190263,-0.344376 ElbowRight:-0.316555,0.910932,0.192249,0.181757 FootLeft:0.000000,0.000000,0.000000,0.000000 FootRight:0.000000,0.000000,0.000000,0.000000 HandLeft:-0.154859,0.729184,-0.015373,0.666388 HandRight:0.269727,0.301131,-0.507750,0.760761 HandTipLeft:0.000000,0.000000,0.000000,0.000000 HandTipRight:0.000000,0.000000,0.000000,0.000000 Head:0.000000,0.000000,0.000000,0.000000 HipLeft:0.117355,-0.671242,0.714671,-0.157824 HipRight:-0.136474,0.686366,0.691854,-0.177805 KneeLeft:0.001821,-0.697530,0.035345,0.715681 KneeRight:-0.009963,0.716606,0.068552,0.694030 Neck:-0.036189,0.006850,0.996522,-0.074747 ShoulderLeft:-0.004752,0.771058,-0.633902,0.060127 ShoulderRight:-0.052848,0.797614,0.590429,-0.111411 SpineBase:-0.013389,0.005058,0.999297,-0.034648 SpineMid:-0.024611,0.005447,0.999084,-0.034589 SpineShoulder:-0.036116,0.006831,0.997867,-0.053951 ThumbLeft:0.000000,0.000000,0.000000,0.000000 ThumbRight:0.000000,0.000000,0.000000,0.000000 WristLeft:-0.107972,0.743665,-0.081234,0.654756 WristRight:0.224976,0.300687,-0.458708,0.805332 END:
KINECT_DATA POSITION:15.948990,-1.208766,-5.643725 HEAD_JOINT1:0.978509,0.190273,-0.000000,0.079476 LARM_JOINT2:0.825191,0.000000,-0.027620,-0.564179 LARM_JOINT3:0.965115,0.000000,-0.167728,-0.201048 LLEG_JOINT2:0.999538,0.022292,0.000000,0.020656 LLEG_JOINT4:0.996268,0.085916,0.000000,-0.008321 RARM_JOINT2:0.817709,0.000000,0.380725,0.431742 RARM_JOINT3:0.829787,0.000000,0.476600,0.290354 RLEG_JOINT2:0.996988,0.041645,0.000000,-0.065432 RLEG_JOINT4:0.996695,0.062361,0.000000,0.052051 WAIST:0.999670,-0.000000,0.022242,0.012875 WAIST_JOINT0:0.998962,-0.000000,0.037068,0.026474 WAIST_JOINT1:0.998235,0.058844,0.000000,-0.008072 END:
KINECT_DATA_Sensor  AnkleLeft:-0.060804,-0.686430,0.092435,0.718730 AnkleRight:0.073093,0.733295,0.073234,0.671991 ElbowLeft:-0.032110,0.910143,-0.188958,-0.367292 ElbowRight:-0.318893,0.922553,0.098433,0.193686 FootLeft:0.000000,0.000000,0.000000,0.000000 FootRight:0.000000,0.000000,0.000000,0.000000 HandLeft:-0.103766,0.768233,0.009956,0.631626 HandRight:0.376487,0.375014,-0.480256,0.697837 HandTipLeft:0.000000,0.000000,0.000000,0.000000 HandTipRight:0.000000,0.000000,0.000000,0.000000 Head:0.000000,0.000000,0.000000,0.000000 HipLeft:0.113752,-0.673693,0.714145,-0.152300 HipRight:-0.142582,0.683054,0.692171,-0.184407 KneeLeft:0.007260,-0.690583,0.039435,0.722141 KneeRight:-0.009251,0.723177,0.066264,0.687415 Neck:-0.038266,0.004971,0.996444,-0.074909 ShoulderLeft:-0.001272,0.771881,-0.633281,0.056148 ShoulderRight:-0.051863,0.797672,0.590526,-0.110945 SpineBase:-0.023036,0.001384,0.999152,-0.034103 SpineMid:-0.030644,0.001643,0.998947,-0.034091 SpineShoulder:-0.038308,0.004182,0.997834,-0.053317 ThumbLeft:0.000000,0.000000,0.000000,0.000000 ThumbRight:0.000000,0.000000,0.000000,0.000000 WristLeft:-0.110045,0.775182,-0.080790,0.616812 WristRight:0.230002,0.299410,-0.487843,0.787059 END:
KINECT_DATA POSITION:15.737099,-1.188844,-5.483878 HEAD_JOINT1:0.979041,0.190049,-0.000000,0.073215 LARM_JOINT2:0.825212,0.000000,-0.019160,-0.564497 LARM_JOINT3:0.962117,0.000000,-0.184341,-0.200873 LLEG_JOINT2:0.999358,0.022650,0.000000,0.027777 LLEG_JOINT4:0.996404,0.083831,0.000000,-0.012282 RARM_JOINT2:0.847571,0.000000,0.290049,0.444403 RARM_JOINT3:0.763275,0.000000,0.540913,0.353307 RLEG_JOINT2:0.997448,0.038484,0.000000,-0.060135 RLEG_JOINT4:0.996244,0.070366,0.000000,0.050468 WAIST:0.999687,-0.000000,0.022968,0.009895 WAIST_JOINT0:0.998841,-0.000000,0.040522,0.025980 WAIST_JOINT1:0.998286,0.058002,0.000000,-0.007749 END:
KINECT_DATA_Sensor  AnkleLeft:-0.059388,-0.684685,0.091460,0.720635 AnkleRight:0.077211,0.734595,0.076024,0.669798 ElbowLeft:-0.029647,0.901081,-0.188045,-0.389632 ElbowRight:-0.267954,0.921958,0.157340,0.231167 FootLeft:0.000000,0.000000,0.000000,0.000000 FootRight:0.000000,0.000000,0.000000,0.000000 HandLeft:-0.142476,0.783815,0.003647,0.604418 HandRight:0.390199,0.355516,-0.495864,0.689545 HandTipLeft:0.000000,0.000000,0.000000,0.000000 HandTipRight:0.000000,0.000000,0.000000,0.000000 Head:0.000000,0.000000,0.000000,0.000000 HipLeft:0.115223,-0.676209,0.711820,-0.150922 HipRight:-0.144222,0.681115,0.693620,-0.184863 KneeLeft:0.009780,-0.690151,0.042726,0.722337 KneeRight:-0.009790,0.723486,0.062404,0.687443 Neck:-0.041694,0.001178,0.996383,-0.074030 ShoulderLeft:0.003270,0.772967,-0.632401,0.050793 ShoulderRight:-0.051322,0.797645,0.590591,-0.111046 SpineBase:-0.023623,-0.001487,0.999192,-0.032494 SpineMid:-0.032645,-0.001193,0.998938,-0.032506 SpineShoulder:-0.041662,0.002068,0.997747,-0.052540 ThumbLeft:0.000000,0.000000,0.000000,0.000000 ThumbRight:0.000000,0.000000,0.000000,0.000000 WristLeft:-0.115139,0.796351,-0.082470,0.588020 WristRight:0.292109,0.304550,-0.504969,0.752946 END:
KINECT_DATA POSITION:15.617344,-1.170020,-5.196333 HEAD_JOINT1:0.979017,0.187966,-0.000000,0.078707 LARM_JOINT2:0.826236,0.000000,-0.015221,-0.563119 LARM_JOINT3:0.958856,0.000000,-0.197843,-0.203599 LLEG_JOINT2:0.999173,0.026733,0.000000,0.030646 LLEG_JOINT4:0.996519,0.082314,0.000000,-0.013194 RARM_JOINT2:0.882983,0.000000,0.220366,0.414462 RARM_JOINT3:0.722574,0.000000,0.562379,0.402016 RLEG_JOINT2:0.997699,0.035707,0.000000,-0.057629 RLEG_JOINT4:0.996341,0.070875,0.000000,0.047765 WAIST:0.999875,-0.000000,0.013935,0.007504 WAIST_JOINT0:0.999420,-0.000000,0.027394,0.020246 WAIST_JOINT1:0.998481,0.054312,0.000000,-0.009266 END:
KINECT_DATA_Sensor  AnkleLeft:-0.060899,-0.691946,0.093462,0.713279 AnkleRight:0.074494,0.728005,0.075761,0.677289 ElbowLeft:-0.032381,0.901549,-0.185524,-0.389541 ElbowRight:-0.246373,0.903932,0.235380,0.258463 FootLeft:0.000000,0.000000,0.000000,0.000000 FootRight:0.000000,0.000000,0.000000,0.000000 HandLeft:-0.183941,0.769119,-0.011013,0.611964 HandRight:0.175597,0.323447,-0.429759,0.824533 HandTipLeft:0.000000,0.000000,0.000000,0.000000 HandTipRight:0.000000,0.000000,0.000000,0.000000 Head:0.000000,0.000000,0.000000,0.000000 HipLeft:0.124240,-0.677620,0.708324,-0.153861 HipRight:-0.142177,0.681520,0.695283,-0.178599 KneeLeft:0.007467,-0.696844,0.045914,0.715712 KneeRight:-0.011009,0.717046,0.060502,0.694308 Neck:-0.028139,-0.003860,0.997264,-0.068251 ShoulderLeft:0.002029,0.774972,-0.629871,0.051735 ShoulderRight:-0.034286,0.794348,0.599455,-0.092141 SpineBase:-0.014449,-0.003665,0.999485,-0.028430 SpineMid:-0.021264,-0.003471,0.999363,-0.028454 SpineShoulder:-0.028016,-0.001114,0.998372,-0.049676 ThumbLeft:0.000000,0.000000,0.000000,0.000000 ThumbRight:0.000000,0.000000,0.000000,0.000000 WristLeft:-0.121312,0.788435,-0.084082,0.597146 WristRight:0.286983,0.309894,-0.512326,0.747749 END:
KINECT_DATA POSITION:15.512980,-1.194040,-5.042899 HEAD_JOINT1:0.979545,0.177194,-0.000000,0.095362 LARM_JOINT2:0.826063,0.000000,-0.026634,-0.562948 LARM_JOINT3:0.959981,0.000000,-0.190849,-0.204969 LLEG_JOINT2:0.999173,0.026555,0.000000,0.030805 LLEG_JOINT4:0.996223,0.085492,0.000000,-0.015176 RARM_JOINT2:0.857214,0.000000,0.228314,0.461581 RARM_JOINT3:0.756496,0.000000,0.548446,0.356259 RLEG_JOINT2:0.997768,0.035406,0.000000,-0.056617 RLEG_JOINT4:0.996287,0.071513,0.000000,0.047949 WAIST:0.999955,-0.000000,0.006371,0.007046 WAIST_JOINT0:0.999866,-0.000000,0.005726,0.015368 WAIST_JOINT1:0.998581,0.052117,0.000000,-0.010917 END:
KINECT_DATA_Sensor  AnkleLeft:0.064824,0.703429,-0.093841,-0.701555 AnkleRight:0.077136,0.734413,0.073623,0.670274 ElbowLeft:-0.040593,0.911536,-0.179340,-0.367820 ElbowRight:-0.237432,0.899809,0.177669,0.320006 FootLeft:0.000000,0.000000,0.000000,0.000000 FootRight:0.000000,0.000000,0.000000,0.000000 HandLeft:-0.177401,0.769132,-0.001630,0.613973 HandRight:0.332756,0.355758,-0.476850,0.731658 HandTipLeft:0.000000,0.000000,0.000000,0.000000 HandTipRight:0.000000,0.000000,0.000000,0.000000 Head:0.000000,0.000000,0.000000,0.000000 HipLeft:0.130650,-0.677167,0.707003,-0.156596 HipRight:-0.139149,0.682247,0.696424,-0.173696 KneeLeft:0.007688,-0.702289,0.045562,0.710391 KneeRight:-0.010333,0.711708,0.060019,0.699830 Neck:-0.005911,-0.006508,0.997795,-0.065781 ShoulderLeft:-0.003347,0.777960,-0.625534,0.058944 ShoulderRight:-0.010600,0.792436,0.606299,-0.065839 SpineBase:-0.006870,-0.005101,0.999616,-0.026346 SpineMid:-0.006427,-0.005113,0.999619,-0.026344 SpineShoulder:-0.005790,-0.003535,0.998843,-0.047613 ThumbLeft:0.000000,0.000000,0.000000,0.000000 ThumbRight:0.000000,0.000000,0.000000,0.000000 WristLeft:-0.130826,0.786313,-0.078743,0.598661 WristRight:0.219134,0.272787,-0.540400,0.765203 END:
KINECT_DATA POSITION:15.394953,-1.187915,-5.096900 HEAD_JOINT1:0.979036,0.175430,-0.000000,0.103506 LARM_JOINT2:0.827122,0.000000,-0.027974,-0.561325 LARM_JOINT3:0.961381,0.000000,-0.183550,-0.205077 LLEG_JOINT2:0.999132,0.027033,0.000000,0.031685 LLEG_JOINT4:0.996138,0.086468,0.000000,-0.015276 RARM_JOINT2:0.846769,0.000000,0.239160,0.475169 RARM_JOINT3:0.746409,0.000000,0.566220,0.349669 RLEG_JOINT2:0.997879,0.033581,0.000000,-0.055770 RLEG_JOINT4:0.996213,0.073220,0.000000,0.046878 WAIST:0.999978,0.000000,-0.000500,0.006654 WAIST_JOINT0:0.999902,0.000000,-0.005244,0.012945 WAIST_JOINT1:0.998597,0.051497,0.000000,-0.012325 END:
KINECT_DATA_Sensor  AnkleLeft:0.065168,0.709442,-0.095473,-0.695219 AnkleRight:0.075052,0.710226,0.075672,0.695859 ElbowLeft:-0.041521,0.917966,-0.178945,-0.351558 ElbowRight:-0.232057,0.908472,0.166057,0.305374 FootLeft:0.000000,0.000000,0.000000,0.000000 FootRight:0.000000,0.000000,0.000000,0.000000 HandLeft:-0.172992,0.752599,-0.000380,0.635350 HandRight:0.406723,0.231834,-0.497064,0.730587 HandTipLeft:0.000000,0.000000,0.000000,0.000000 HandTipRight:0.000000,0.000000,0.000000,0.000000 Head:0.000000,0.000000,0.000000,0.000000 HipLeft:0.133485,-0.676836,0.706246,-0.159032 HipRight:-0.132883,0.683180,0.697973,-0.168642 KneeLeft:-0.007971,0.707168,-0.046225,-0.705488 KneeRight:-0.010864,0.706856,0.058511,0.704850 Neck:0.005191,-0.008007,0.997799,-0.065617 ShoulderLeft:-0.008412,0.778971,-0.623635,0.064898 ShoulderRight:-0.001327,0.791118,0.609201,-0.054815 SpineBase:-0.000027,-0.006464,0.999624,-0.026642 SpineMid:0.002510,-0.006531,0.999621,-0.026626 SpineShoulder:0.005281,-0.005244,0.998871,-0.046915 ThumbLeft:0.000000,0.000000,0.000000,0.000000 ThumbRight:0.000000,0.000000,0.000000,0.000000 WristLeft:-0.124718,0.770244,-0.077302,0.620640 WristRight:0.323289,0.182387,-0.506992,0.777932 END:
KINECT_DATA POSITION:15.303564,-1.179454,-5.209696 HEAD_JOINT1:0.978392,0.172964,-0.000000,0.113285 LARM_JOINT2:0.828146,0.000000,-0.034049,-0.559478 LARM_JOINT3:0.961637,0.000000,-0.182434,-0.204870 LLEG_JOINT2:0.999138,0.026597,0.000000,0.031888 LLEG_JOINT4:0.996156,0.086720,0.000000,-0.012376 RARM_JOINT2:0.839037,0.000000,0.252974,0.481686 RARM_JOINT3:0.751800,0.000000,0.568704,0.333725 RLEG_JOINT2:0.997869,0.033698,0.000000,-0.055874 RLEG_JOINT4:0.996310,0.070679,0.000000,0.048700 WAIST:0.999959,0.000000,-0.006019,0.006722 WAIST_JOINT0:0.999848,0.000000,-0.013063,0.011509 WAIST_JOINT1:0.998565,0.051714,0.000000,-0.013902 END:
KINECT_DATA_Sensor  AnkleLeft:0.062445,0.714172,-0.097904,-0.690271 AnkleRight:0.076473,0.721057,0.070746,0.684999 ElbowLeft:-0.044496,0.925164,-0.177889,-0.332336 ElbowRight:-0.236126,0.908139,0.152577,0.310239 FootLeft:0.000000,0.000000,0.000000,0.000000 FootRight:0.000000,0.000000,0.000000,0.000000 HandLeft:-0.169210,0.568972,-0.056803,0.802753 HandRight:0.404728,0.247232,-0.536248,0.698219 HandTipLeft:0.000000,0.000000,0.000000,0.000000 HandTipRight:0.000000,0.000000,0.000000,0.000000 Head:0.000000,0.000000,0.000000,0.000000 HipLeft:0.135734,-0.676211,0.705783,-0.161817 HipRight:-0.128430,0.683884,0.698754,-0.165987 KneeLeft:-0.008701,0.711022,-0.046088,-0.701604 KneeRight:-0.010455,0.702965,0.058704,0.708721 Neck:0.013092,-0.009043,0.997674,-0.066288 ShoulderLeft:-0.014555,0.779611,-0.621966,0.071787 ShoulderRight:0.002688,0.790657,0.610249,-0.049491 SpineBase:0.005439,-0.007377,0.999578,-0.027555 SpineMid:0.009167,-0.007479,0.999551,-0.027528 SpineShoulder:0.013138,-0.006692,0.998783,-0.047059 ThumbLeft:0.000000,0.000000,0.000000,0.000000 ThumbRight:0.000000,0.000000,0.000000,0.000000 WristLeft:-0.103044,0.576444,-0.102856,0.804062 WristRight:0.306735,0.196818,-0.520144,0.772416 END:
KINECT_DATA POSITION:15.324900,-1.172041,-5.234563 HEAD_JOINT1:0.978541,0.171108,-0.000000,0.114802 LARM_JOINT2:0.829307,0.000000,-0.034528,-0.557726 LARM_JOINT3:0.963471,0.000000,-0.175329,-0.202445 LLEG_JOINT2:0.999146,0.025709,0.000000,0.032342 LLEG_JOINT4:0.996009,0.087745,0.000000,-0.016343 RARM_JOINT2:0.823058,0.000000,0.285576,0.490941 RARM_JOINT3:0.763174,0.000000,0.560917,0.320838 RLEG_JOINT2:0.997853,0.034471,0.000000,-0.055694 RLEG_JOINT4:0.996521,0.068556,0.000000,0.047381 WAIST:0.999960,0.000000,-0.005531,0.006975 WAIST_JOINT0:0.999835,0.000000,-0.013855,0.011786 WAIST_JOINT1:0.998572,0.051485,0.000000,-0.014281 END:
KINECT_DATA_Sensor  AnkleLeft:0.064938,0.714213,-0.095593,-0.690323 AnkleRight:0.073194,0.705596,0.072244,0.701112 ElbowLeft:-0.045176,0.925757,-0.179598,-0.329663 ElbowRight:-0.248468,0.913064,0.121560,0.299668 FootLeft:0.000000,0.000000,0.000000,0.000000 FootRight:0.000000,0.000000,0.000000,0.000000 HandLeft:-0.140533,0.749272,-0.015638,0.646991 HandRight:0.406166,0.304403,-0.547507,0.665285 HandTipLeft:0.000000,0.000000,0.000000,0.000000 HandTipRight:0.000000,0.000000,0.000000,0.000000 Head:0.000000,0.000000,0.000000,0.000000 HipLeft:0.135457,-0.676042,0.706024,-0.161706 HipRight:-0.128868,0.683929,0.698533,-0.166393 KneeLeft:-0.009810,0.710644,-0.045956,-0.701981 KneeRight:-0.009630,0.703330,0.058932,0.708351 Neck:0.013957,-0.009075,0.997659,-0.066331 ShoulderLeft:-0.016443,0.780019,-0.621270,0.072960 ShoulderRight:0.001874,0.791320,0.609410,-0.049280 SpineBase:0.004942,-0.007103,0.999581,-0.027619 SpineMid:0.009350,-0.007224,0.999550,-0.027588 SpineShoulder:0.013982,-0.006973,0.998786,-0.046723 ThumbLeft:0.000000,0.000000,0.000000,0.000000 ThumbRight:0.000000,0.000000,0.000000,0.000000 WristLeft:-0.126428,0.756748,-0.074086,0.637071 WristRight:0.287107,0.237599,-0.537294,0.756592 END:
KINECT_DATA POSITION:15.366109,-1.165638,-5.394483 HEAD_JOINT1:0.979058,0.171383,-0.000000,0.109874 LARM_JOINT2:0.831719,0.000000,-0.026780,-0.554551 LARM_JOINT3:0.963370,0.000000,-0.172841,-0.205049 LLEG_JOINT2:0.999148,0.024883,0.000000,0.032917 LLEG_JOINT4:0.995815,0.089356,0.000000,-0.019197 RARM_JOINT2:0.818948,0.000000,0.296291,0.491463 RARM_JOINT3:0.759981,0.000000,0.554910,0.338383 RLEG_JOINT2:0.997870,0.032852,0.000000,-0.056362 RLEG_JOINT4:0.996375,0.070863,0.000000,0.047069 WAIST:0.999963,0.000000,-0.004464,0.007396 WAIST_JOINT0:0.999841,0.000000,-0.009963,0.014775 WAIST_JOINT1:0.998543,0.051812,0.000000,-0.015063 END:
KINECT_DATA_Sensor  AnkleLeft:0.066703,0.711862,-0.094868,-0.692679 AnkleRight:0.077625,0.748352,0.068507,0.655172 ElbowLeft:-0.041960,0.921185,-0.185212,-0.339637 ElbowRight:-0.251831,0.918632,0.117446,0.280896 FootLeft:0.000000,0.000000,0.000000,0.000000 FootRight:0.000000,0.000000,0.000000,0.000000 HandLeft:-0.107736,0.743746,-0.001864,0.659721 HandRight:0.422029,0.292682,-0.492194,0.702833 HandTipLeft:0.000000,0.000000,0.000000,0.000000 HandTipRight:0.000000,0.000000,0.000000,0.000000 Head:0.000000,0.000000,0.000000,0.000000 HipLeft:0.134892,-0.675705,0.706395,-0.161963 HipRight:-0.129567,0.683832,0.698113,-0.168003 KneeLeft:-0.011055,0.709838,-0.046078,-0.702769 KneeRight:-0.011024,0.704113,0.057956,0.707633 Neck:0.009928,-0.008971,0.997660,-0.067046 ShoulderLeft:-0.017967,0.780452,-0.620680,0.073000 ShoulderRight:-0.004936,0.795142,0.603896,-0.055084 SpineBase:0.003841,-0.007017,0.999567,-0.028318 SpineMid:0.006786,-0.007100,0.999551,-0.028297 SpineShoulder:0.009905,-0.007355,0.998822,-0.046936 ThumbLeft:0.000000,0.000000,0.000000,0.000000 ThumbRight:0.000000,0.000000,0.000000,0.000000 WristLeft:-0.125584,0.747894,-0.078544,0.647081 WristRight:0.328578,0.227564,-0.525279,0.751221 END:
KINECT_DATA POSITION:15.467982,-1.168832,-5.510187 HEAD_JOINT1:0.979583,0.173030,-0.000000,0.102365 LARM_JOINT2:0.831898,0.000000,-0.023113,-0.554447 LARM_JOINT3:0.962694,0.000000,-0.174701,-0.206640 LLEG_JOINT2:0.999219,0.022541,0.000000,0.032439 LLEG_JOINT4:0.995740,0.090323,0.000000,-0.018541 RARM_JOINT2:0.814166,0.000000,0.303879,0.494764 RARM_JOINT3:0.767570,0.000000,0.550880,0.327670 RLEG_JOINT2:0.997867,0.031866,0.000000,-0.056983 RLEG_JOINT4:0.996201,0.073649,0.000000,0.046469 WAIST:0.999967,0.000000,-0.001223,0.008040 WAIST_JOINT0:0.999830,0.000000,-0.001483,0.018395 WAIST_JOINT1:0.998523,0.052074,0.000000,-0.015495 END:
KINECT_DATA_Sensor  AnkleLeft:0.065147,0.707498,-0.094476,-0.697336 AnkleRight:0.078043,0.747173,0.070717,0.656232 ElbowLeft:-0.039208,0.918469,-0.186861,-0.346354 ElbowRight:-0.253592,0.921518,0.108564,0.273332 FootLeft:0.000000,0.000000,0.000000,0.000000 FootRight:0.000000,0.000000,0.000000,0.000000 HandLeft:-0.115498,0.757448,0.003832,0.642587 HandRight:0.368354,0.304716,-0.519502,0.708224 HandTipLeft:0.000000,0.000000,0.000000,0.000000 HandTipRight:0.000000,0.000000,0.000000,0.000000 Head:0.000000,0.000000,0.000000,0.000000 HipLeft:0.132869,-0.675620,0.707195,-0.160493 HipRight:-0.131534,0.683729,0.697298,-0.170261 KneeLeft:-0.012702,0.707474,-0.044555,-0.705219 KneeRight:-0.011911,0.706436,0.057193,0.705362 Neck:0.001259,-0.008331,0.997685,-0.067479 ShoulderLeft:-0.016174,0.780582,-0.620990,0.069291 ShoulderRight:-0.014410,0.798998,0.597710,-0.064322 SpineBase:0.000572,-0.006637,0.999568,-0.028626 SpineMid:0.000834,-0.006644,0.999568,-0.028624 SpineShoulder:0.001198,-0.007133,0.998862,-0.047135 ThumbLeft:0.000000,0.000000,0.000000,0.000000 ThumbRight:0.000000,0.000000,0.000000,0.000000 WristLeft:-0.124453,0.763556,-0.076927,0.628948 WristRight:0.310597,0.264960,-0.537745,0.737669 END:
KINECT_DATA POSITION:15.567655,-1.183400,-5.551863 HEAD_JOINT1:0.979723,0.175708,-0.000000,0.096281 LARM_JOINT2:0.831827,0.000000,-0.019952,-0.554677 LARM_JOINT3:0.962255,0.000000,-0.177555,-0.206249 LLEG_JOINT2:0.999248,0.021961,0.000000,0.031970 LLEG_JOINT4:0.995771,0.089526,0.000000,-0.020628 RARM_JOINT2:0.809286,0.000000,0.315550,0.495463 RARM_JOINT3:0.784058,0.000000,0.540809,0.304595 RLEG_JOINT2:0.997788,0.032926,0.000000,-0.057754 RLEG_JOINT4:0.996359,0.071211,0.000000,0.046886 WAIST:0.999959,-0.000000,0.003405,0.008408 WAIST_JOINT0:0.999727,-0.000000,0.007566,0.022114 WAIST_JOINT1:0.998513,0.052297,0.000000,-0.015394 END:
KINECT_DATA_Sensor  AnkleLeft:0.065828,0.702364,-0.091816,-0.702796 AnkleRight:0.075870,0.743069,0.070991,0.661100 ElbowLeft:-0.036768,0.914869,-0.188183,-0.355317 ElbowRight:-0.259296,0.923316,0.097588,0.265950 FootLeft:0.000000,0.000000,0.000000,0.000000 FootRight:0.000000,0.000000,0.000000,0.000000 HandLeft:-0.113455,0.778819,0.001874,0.616900 HandRight:0.307760,0.281665,-0.519828,0.745471 HandTipLeft:0.000000,0.000000,0.000000,0.000000 HandTipRight:0.000000,0.000000,0.000000,0.000000 Head:0.000000,0.000000,0.000000,0.000000 HipLeft:0.129913,-0.675995,0.707961,-0.157942 HipRight:-0.134307,0.683361,0.696463,-0.172971 KneeLeft:0.012866,-0.704178,0.044105,0.708536 KneeRight:-0.011738,0.709710,0.058148,0.701992 Neck:-0.007954,-0.007655,0.997640,-0.067762 ShoulderLeft:-0.013604,0.780478,-0.621660,0.064863 ShoulderRight:-0.023806,0.802474,0.591640,-0.073687 SpineBase:-0.004064,-0.006278,0.999560,-0.028701 SpineMid:-0.006075,-0.006220,0.999550,-0.028714 SpineShoulder:-0.008040,-0.006733,0.998826,-0.047287 ThumbLeft:0.000000,0.000000,0.000000,0.000000 ThumbRight:0.000000,0.000000,0.000000,0.000000 WristLeft:-0.126861,0.783027,-0.074804,0.604301 WristRight:0.308318,0.271482,-0.537346,0.736544 END:
KINECT_DATA POSITION:15.610380,-1.213532,-5.534708 HEAD_JOINT1:0.979316,0.179619,-0.000000,0.093149 LARM_JOINT2:0.831564,0.000000,-0.021267,-0.555021 LARM_JOINT3:0.961301,0.000000,-0.178711,-0.209672 LLEG_JOINT2:0.999260,0.021801,0.000000,0.031702 LLEG_JOINT4:0.995528,0.092280,0.000000,-0.020227 RARM_JOINT2:0.800853,0.000000,0.323389,0.504038 RARM_JOINT3:0.812816,0.000000,0.517037,0.268333 RLEG_JOINT2:0.997754,0.032265,0.000000,-0.058705 RLEG_JOINT4:0.996070,0.074423,0.000000,0.048028 WAIST:0.999939,-0.000000,0.006943,0.008619 WAIST_JOINT0:0.999735,-0.000000,0.009044,0.021176 WAIST_JOINT1:0.998515,0.052169,0.000000,-0.015711 END:
KINECT_DATA_Sensor  AnkleLeft:0.067972,0.701236,-0.093444,-0.703503 AnkleRight:0.074772,0.717950,0.075697,0.687915 ElbowLeft:-0.036546,0.914724,-0.187436,-0.356108 ElbowRight:-0.259646,0.922356,0.078750,0.275031 FootLeft:0.000000,0.000000,0.000000,0.000000 FootRight:0.000000,0.000000,0.000000,0.000000 HandLeft:-0.132786,0.760248,0.005533,0.635894 HandRight:0.282854,0.249945,-0.500522,0.779102 HandTipLeft:0.000000,0.000000,0.000000,0.000000 HandTipRight:0.000000,0.000000,0.000000,0.000000 Head:0.000000,0.000000,0.000000,0.000000 HipLeft:0.128585,-0.676265,0.708291,-0.156381 HipRight:-0.137148,0.682930,0.695692,-0.175528 KneeLeft:0.012806,-0.701661,0.043974,0.711038 KneeRight:-0.012956,0.712182,0.058134,0.699463 Neck:-0.009200,-0.008126,0.997638,-0.067582 ShoulderLeft:-0.012138,0.780129,-0.622288,0.063322 ShoulderRight:-0.023902,0.800587,0.594109,-0.074323 SpineBase:-0.007603,-0.006263,0.999546,-0.028478 SpineMid:-0.008477,-0.006238,0.999539,-0.028484 SpineShoulder:-0.009292,-0.007124,0.998823,-0.047079 ThumbLeft:0.000000,0.000000,0.000000,0.000000 ThumbRight:0.000000,0.000000,0.000000,0.000000 WristLeft:-0.124137,0.770081,-0.077601,0.620922 WristRight:0.296851,0.241733,-0.527397,0.758483 END:
KINECT_DATA POSITION:15.682528,-1.230510,-5.424583 HEAD_JOINT1:0.979000,0.181188,-0.000000,0.093430 LARM_JOINT2:0.830334,0.000000,-0.023631,-0.556765 LARM_JOINT3:0.960248,0.000000,-0.182247,-0.211446 LLEG_JOINT2:0.999294,0.022619,0.000000,0.029987 LLEG_JOINT4:0.995715,0.090565,0.000000,-0.018694 RARM_JOINT2:0.842227,0.000000,0.260471,0.472027 RARM_JOINT3:0.755927,0.000000,0.562320,0.335218 RLEG_JOINT2:0.997566,0.034466,0.000000,-0.060617 RLEG_JOINT4:0.996148,0.072602,0.000000,0.049170 WAIST:0.999905,-0.000000,0.010043,0.009444 WAIST_JOINT0:0.999686,-0.000000,0.011547,0.022249 WAIST_JOINT1:0.998533,0.051825,0.000000,-0.015691 END:
KINECT_DATA_Sensor  AnkleLeft:-0.067239,-0.699952,0.092988,0.704911 AnkleRight:0.074733,0.719340,0.076205,0.686410 ElbowLeft:-0.037117,0.914868,-0.185593,-0.356643 ElbowRight:-0.246833,0.913484,0.153687,0.284606 FootLeft:0.000000,0.000000,0.000000,0.000000 FootRight:0.000000,0.000000,0.000000,0.000000 HandLeft:-0.155337,0.770476,0.004234,0.618239 HandRight:0.289979,0.276150,-0.501849,0.766682 HandTipLeft:0.000000,0.000000,0.000000,0.000000 HandTipRight:0.000000,0.000000,0.000000,0.000000 Head:0.000000,0.000000,0.000000,0.000000 HipLeft:0.127583,-0.676006,0.709078,-0.154745 HipRight:-0.139735,0.683051,0.694676,-0.177037 KneeLeft:0.011486,-0.699467,0.043927,0.713221 KneeRight:-0.012388,0.714366,0.060404,0.697050 Neck:-0.011619,-0.007425,0.997637,-0.067305 ShoulderLeft:-0.011774,0.779870,-0.622765,0.061877 ShoulderRight:-0.026721,0.801172,0.592917,-0.076547 SpineBase:-0.010712,-0.005575,0.999540,-0.027811 SpineMid:-0.011238,-0.005560,0.999534,-0.027814 SpineShoulder:-0.011708,-0.006492,0.998822,-0.046641 ThumbLeft:0.000000,0.000000,0.000000,0.000000 ThumbRight:0.000000,0.000000,0.000000,0.000000 WristLeft:-0.126550,0.783757,-0.074739,0.603427 WristRight:0.299915,0.262325,-0.533934,0.745755 END:
KINECT_DATA POSITION:15.635528,-1.255032,-5.359554 HEAD_JOINT1:0.978000,0.185159,-0.000000,0.096087 LARM_JOINT2:0.829362,0.000000,-0.024622,-0.558169 LARM_JOINT3:0.960218,0.000000,-0.183588,-0.210423 LLEG_JOINT2:0.999259,0.023350,0.000000,0.030592 LLEG_JOINT4:0.995974,0.087685,0.000000,-0.018639 RARM_JOINT2:0.806513,0.000000,0.312444,0.501912 RARM_JOINT3:0.808823,0.000000,0.522984,0.268875 RLEG_JOINT2:0.997571,0.034725,0.000000,-0.060380 RLEG_JOINT4:0.996209,0.071167,0.000000,0.050026 WAIST:0.999914,-0.000000,0.009217,0.009297 WAIST_JOINT0:0.999681,-0.000000,0.010938,0.022770 WAIST_JOINT1:0.998532,0.051905,0.000000,-0.015511 END:
KINECT_DATA_Sensor  AnkleLeft:0.070973,0.744116,-0.087603,-0.658468 AnkleRight:0.076791,0.738810,0.072427,0.665595 ElbowLeft:-0.037667,0.914810,-0.183681,-0.357721 ElbowRight:-0.256641,0.919958,0.085588,0.283702 FootLeft:0.000000,0.000000,0.000000,0.000000 FootRight:0.000000,0.000000,0.000000,0.000000 HandLeft:-0.159720,0.775624,0.004648,0.610636 HandRight:0.306001,0.234108,-0.496178,0.778052 HandTipLeft:0.000000,0.000000,0.000000,0.000000 HandTipRight:0.000000,0.000000,0.000000,0.000000 Head:0.000000,0.000000,0.000000,0.000000 HipLeft:0.128249,-0.675952,0.708888,-0.155302 HipRight:-0.139323,0.683022,0.694888,-0.176637 KneeLeft:0.011312,-0.700071,0.044763,0.712579 KneeRight:-0.012086,0.713785,0.060542,0.697639 Neck:-0.010924,-0.007220,0.997637,-0.067440 ShoulderLeft:-0.012905,0.780051,-0.622409,0.062938 ShoulderRight:-0.026992,0.801768,0.592110,-0.076453 SpineBase:-0.009882,-0.005704,0.999548,-0.027798 SpineMid:-0.010484,-0.005688,0.999542,-0.027801 SpineShoulder:-0.011022,-0.006448,0.998826,-0.046724 ThumbLeft:0.000000,0.000000,0.000000,0.000000 ThumbRight:0.000000,0.000000,0.000000,0.000000 WristLeft:-0.128542,0.789266,-0.073516,0.595929 WristRight:0.302810,0.218753,-0.522080,0.766737 END:
KINECT_DATA POSITION:15.589446,-1.266736,-5.307114 HEAD_JOINT1:0.977895,0.184137,-0.000000,0.099067 LARM_JOINT2:0.828453,0.000000,-0.026883,-0.559413 LARM_JOINT3:0.960881,0.000000,-0.181207,-0.209457 LLEG_JOINT2:0.999265,0.023119,0.000000,0.030589 LLEG_JOINT4:0.996000,0.087262,0.000000,-0.019218 RARM_JOINT2:0.800716,0.000000,0.320220,0.506274 RARM_JOINT3:0.816269,0.000000,0.517590,0.256526 RLEG_JOINT2:0.997548,0.034880,0.000000,-0.060679 RLEG_JOINT4:0.996080,0.072878,0.000000,0.050127 WAIST:0.999914,-0.000000,0.009204,0.009301 WAIST_JOINT0:0.999779,-0.000000,0.005859,0.020190 WAIST_JOINT1:0.998516,0.052315,0.000000,-0.015116 END:
KINECT_DATA_Sensor  AnkleLeft:0.065508,0.703296,-0.090843,-0.702020 AnkleRight:0.075544,0.716177,0.076364,0.689603 ElbowLeft:-0.038015,0.916220,-0.182165,-0.354841 ElbowRight:-0.257476,0.919678,0.073840,0.287133 FootLeft:0.000000,0.000000,0.000000,0.000000 FootRight:0.000000,0.000000,0.000000,0.000000 HandLeft:-0.156565,0.713031,-0.008545,0.683375 HandRight:0.288360,0.283895,-0.519841,0.752341 HandTipLeft:0.000000,0.000000,0.000000,0.000000 HandTipRight:0.000000,0.000000,0.000000,0.000000 Head:0.000000,0.000000,0.000000,0.000000 HipLeft:0.127992,-0.675852,0.708989,-0.155487 HipRight:-0.139094,0.682944,0.694985,-0.176739 KneeLeft:0.011479,-0.700069,0.044601,0.712588 KneeRight:-0.012186,0.713780,0.060860,0.697614 Neck:-0.005676,-0.007047,0.997654,-0.067861 ShoulderLeft:-0.012164,0.780162,-0.622137,0.064382 ShoulderRight:-0.019392,0.799085,0.596786,-0.070241 SpineBase:-0.009874,-0.005615,0.999540,-0.028120 SpineMid:-0.007883,-0.005671,0.999558,-0.028109 SpineShoulder:-0.005768,-0.006343,0.998854,-0.047091 ThumbLeft:0.000000,0.000000,0.000000,0.000000 ThumbRight:0.000000,0.000000,0.000000,0.000000 WristLeft:-0.120846,0.728336,-0.084200,0.669203 WristRight:0.263796,0.260913,-0.540142,0.755369 END:
KINECT_DATA POSITION:15.559273,-1.265646,-5.271578 HEAD_JOINT1:0.977470,0.184808,-0.000000,0.101969 LARM_JOINT2:0.828870,0.000000,-0.028740,-0.558702 LARM_JOINT3:0.960398,0.000000,-0.182229,-0.210778 LLEG_JOINT2:0.999272,0.023285,0.000000,0.030233 LLEG_JOINT4:0.995931,0.088203,0.000000,-0.018469 RARM_JOINT2:0.799651,0.000000,0.320569,0.507733 RARM_JOINT3:0.818091,0.000000,0.517730,0.250365 RLEG_JOINT2:0.997502,0.035705,0.000000,-0.060942 RLEG_JOINT4:0.996076,0.071376,0.000000,0.052336 WAIST:0.999910,-0.000000,0.009254,0.009684 WAIST_JOINT0:0.999800,-0.000000,0.003557,0.019667 WAIST_JOINT1:0.998505,0.052411,0.000000,-0.015517 END:
KINECT_DATA_Sensor  AnkleLeft:0.065959,0.704523,-0.092026,-0.700592 AnkleRight:0.076519,0.714683,0.074412,0.691257 ElbowLeft:-0.038514,0.918338,-0.182561,-0.349060 ElbowRight:-0.257140,0.917964,0.070380,0.293713 FootLeft:0.000000,0.000000,0.000000,0.000000 FootRight:0.000000,0.000000,0.000000,0.000000 HandLeft:-0.166828,0.743379,-0.007475,0.647689 HandRight:0.299984,0.271448,-0.516583,0.754631 HandTipLeft:0.000000,0.000000,0.000000,0.000000 HandTipRight:0.000000,0.000000,0.000000,0.000000 Head:0.000000,0.000000,0.000000,0.000000 HipLeft:0.128046,-0.675581,0.709233,-0.155509 HipRight:-0.139070,0.683134,0.694747,-0.176956 KneeLeft:0.011380,-0.700019,0.044734,0.712631 KneeRight:-0.011525,0.713836,0.061361,0.697525 Neck:-0.003224,-0.007227,0.997658,-0.067942 ShoulderLeft:-0.013389,0.780375,-0.621671,0.066043 ShoulderRight:-0.017446,0.798556,0.597792,-0.068178 SpineBase:-0.009950,-0.005681,0.999537,-0.028202 SpineMid:-0.006706,-0.005773,0.999564,-0.028183 SpineShoulder:-0.003313,-0.006489,0.998861,-0.047164 ThumbLeft:0.000000,0.000000,0.000000,0.000000 ThumbRight:0.000000,0.000000,0.000000,0.000000 WristLeft:-0.124153,0.758550,-0.076890,0.635040 WristRight:0.267705,0.243675,-0.538498,0.760905 END:
KINECT_DATA POSITION:15.506824,-1.267883,-5.250013 HEAD_JOINT1:0.977586,0.183685,-0.000000,0.102886 LARM_JOINT2:0.828889,0.000000,-0.029707,-0.558624 LARM_JOINT3:0.961366,0.000000,-0.179362,-0.208817 LLEG_JOINT2:0.999266,0.022935,0.000000,0.030692 LLEG_JOINT4:0.996086,0.086268,0.000000,-0.019229 RARM_JOINT2:0.797142,0.000000,0.323871,0.509580 RARM_JOINT3:0.823372,0.000000,0.508431,0.252105 RLEG_JOINT2:0.997519,0.035923,0.000000,-0.060544 RLEG_JOINT4:0.996116,0.071167,0.000000,0.051838 WAIST:0.999911,-0.000000,0.009413,0.009418 WAIST_JOINT0:0.999830,-0.000000,0.000671,0.018446 WAIST_JOINT1:0.998488,0.052850,0.000000,-0.015116 END:
KINECT_DATA_Sensor  AnkleLeft:0.064907,0.706196,-0.089898,-0.699281 AnkleRight:0.077339,0.724823,0.073570,0.680616 ElbowLeft:-0.038612,0.918857,-0.182649,-0.347635 ElbowRight:-0.256940,0.918897,0.066297,0.291917 FootLeft:0.000000,0.000000,0.000000,0.000000 FootRight:0.000000,0.000000,0.000000,0.000000 HandLeft:-0.152804,0.728636,-0.011311,0.667542 HandRight:0.310141,0.280275,-0.486044,0.767476 HandTipLeft:0.000000,0.000000,0.000000,0.000000 HandTipRight:0.000000,0.000000,0.000000,0.000000 Head:0.000000,0.000000,0.000000,0.000000 HipLeft:0.127745,-0.675662,0.709158,-0.155748 HipRight:-0.139016,0.682833,0.694973,-0.177275 KneeLeft:0.011758,-0.699899,0.044629,0.712749 KneeRight:-0.011287,0.713946,0.061422,0.697410 Neck:-0.000363,-0.007300,0.997631,-0.068398 ShoulderLeft:-0.013384,0.779948,-0.622055,0.067450 ShoulderRight:-0.013715,0.797068,0.600192,-0.065297 SpineBase:-0.010102,-0.005672,0.999524,-0.028582 SpineMid:-0.005363,-0.005807,0.999561,-0.028555 SpineShoulder:-0.000445,-0.006518,0.998846,-0.047572 ThumbLeft:0.000000,0.000000,0.000000,0.000000 ThumbRight:0.000000,0.000000,0.000000,0.000000 WristLeft:-0.122134,0.741206,-0.079734,0.655239 WristRight:0.270509,0.237613,-0.533983,0.765001 END:
