EastLYD/RoboCupatHomeSim/InteractiveCleanUp/JapanOpen2016/Motion_Data/File63.dat
KINECT_DATA POSITION:9.780393,-1.445647,-8.806348 HEAD_JOINT1:0.985032,0.152320,-0.000000,0.080684 LARM_JOINT2:0.816824,0.000000,-0.036080,-0.575757 LARM_JOINT3:0.966628,0.000000,-0.210765,-0.145631 LLEG_JOINT2:0.998044,0.027086,0.000000,0.056351 LLEG_JOINT4:0.994650,0.100171,0.000000,-0.025258 RARM_JOINT2:0.804664,0.000000,-0.062308,0.590452 RARM_JOINT3:0.978437,0.000000,0.163332,0.126428 RLEG_JOINT2:0.999447,0.023576,0.000000,-0.023430 RLEG_JOINT4:0.994134,0.099328,0.000000,0.042791 WAIST:0.999955,0.000000,-0.005786,-0.007512 WAIST_JOINT0:0.999805,0.000000,-0.019446,-0.003514 WAIST_JOINT1:0.997881,0.064005,0.000000,-0.011694 END:
KINECT_DATA_Sensor  AnkleLeft:0.074911,0.716657,-0.105089,-0.685381 AnkleRight:0.098620,0.721673,0.073885,0.681178 ElbowLeft:-0.043712,0.875662,-0.147705,-0.457698 ElbowRight:0.014232,0.845347,0.202421,0.494177 FootLeft:0.000000,0.000000,0.000000,0.000000 FootRight:0.000000,0.000000,0.000000,0.000000 HandLeft:-0.172923,0.715623,-0.046349,0.675154 HandRight:-0.036348,0.445757,-0.041809,0.893438 HandTipLeft:0.000000,0.000000,0.000000,0.000000 HandTipRight:0.000000,0.000000,0.000000,0.000000 Head:0.000000,0.000000,0.000000,0.000000 HipLeft:0.122349,-0.684262,0.700210,-0.162858 HipRight:-0.111559,0.672681,0.712095,-0.167256 KneeLeft:-0.015665,0.711099,-0.053596,-0.700872 KneeRight:-0.004978,0.702991,0.038550,0.710135 Neck:0.019312,-0.020539,0.996445,-0.079383 ShoulderLeft:0.018123,0.783330,-0.618163,0.062774 ShoulderRight:0.043659,0.775772,0.628684,-0.032068 SpineBase:0.005652,-0.017971,0.999013,-0.040222 SpineMid:0.012169,-0.018233,0.998955,-0.040104 SpineShoulder:0.019047,-0.019354,0.997901,-0.058795 ThumbLeft:0.000000,0.000000,0.000000,0.000000 ThumbRight:0.000000,0.000000,0.000000,0.000000 WristLeft:-0.122120,0.732782,-0.116530,0.659195 WristRight:-0.086473,0.440288,-0.024682,0.893342 END:
KINECT_DATA POSITION:9.774883,-1.441281,-8.823788 HEAD_JOINT1:0.984765,0.153579,-0.000000,0.081561 LARM_JOINT2:0.815848,0.000000,-0.036067,-0.577141 LARM_JOINT3:0.967406,0.000000,-0.207498,-0.145155 LLEG_JOINT2:0.998027,0.027950,0.000000,0.056216 LLEG_JOINT4:0.994011,0.105607,0.000000,-0.028084 RARM_JOINT2:0.804619,0.000000,-0.063473,0.590389 RARM_JOINT3:0.978084,0.000000,0.166486,0.125038 RLEG_JOINT2:0.999427,0.024163,0.000000,-0.023687 RLEG_JOINT4:0.994266,0.098586,0.000000,0.041419 WAIST:0.999954,0.000000,-0.006159,-0.007369 WAIST_JOINT0:0.999797,0.000000,-0.019824,-0.003595 WAIST_JOINT1:0.997884,0.063898,0.000000,-0.012032 END:
KINECT_DATA_Sensor  AnkleLeft:0.081318,0.715911,-0.107458,-0.685064 AnkleRight:0.098237,0.727932,0.073905,0.674538 ElbowLeft:-0.043278,0.874813,-0.145932,-0.459927 ElbowRight:0.014592,0.844128,0.202970,0.496023 FootLeft:0.000000,0.000000,0.000000,0.000000 FootRight:0.000000,0.000000,0.000000,0.000000 HandLeft:-0.163560,0.604097,-0.061967,0.777480 HandRight:-0.051719,0.547676,-0.043696,0.833946 HandTipLeft:0.000000,0.000000,0.000000,0.000000 HandTipRight:0.000000,0.000000,0.000000,0.000000 Head:0.000000,0.000000,0.000000,0.000000 HipLeft:0.122439,-0.684132,0.700293,-0.162981 HipRight:-0.111095,0.672825,0.712085,-0.167032 KneeLeft:-0.015081,0.711383,-0.054208,-0.700549 KneeRight:-0.004626,0.702726,0.039043,0.710373 Neck:0.019675,-0.020743,0.996447,-0.079221 ShoulderLeft:0.018198,0.783181,-0.618354,0.062726 ShoulderRight:0.044210,0.775480,0.629036,-0.031451 SpineBase:0.006007,-0.018086,0.999005,-0.040322 SpineMid:0.012532,-0.018349,0.998944,-0.040203 SpineShoulder:0.019413,-0.019513,0.997895,-0.058713 ThumbLeft:0.000000,0.000000,0.000000,0.000000 ThumbRight:0.000000,0.000000,0.000000,0.000000 WristLeft:-0.099173,0.611154,-0.134900,0.773600 WristRight:-0.089177,0.542263,-0.013230,0.835358 END:
KINECT_DATA POSITION:9.767440,-1.430615,-8.817220 HEAD_JOINT1:0.984561,0.154638,-0.000000,0.082021 LARM_JOINT2:0.814865,0.000000,-0.035998,-0.578532 LARM_JOINT3:0.967372,0.000000,-0.210497,-0.141006 LLEG_JOINT2:0.998057,0.027776,0.000000,0.055772 LLEG_JOINT4:0.994763,0.098827,0.000000,-0.026069 RARM_JOINT2:0.804509,0.000000,-0.063989,0.590483 RARM_JOINT3:0.977816,0.000000,0.168214,0.124818 RLEG_JOINT2:0.999402,0.025006,0.000000,-0.023887 RLEG_JOINT4:0.994280,0.097335,0.000000,0.043957 WAIST:0.999957,0.000000,-0.005808,-0.007285 WAIST_JOINT0:0.999791,0.000000,-0.020066,-0.003793 WAIST_JOINT1:0.997902,0.063627,0.000000,-0.011964 END:
KINECT_DATA_Sensor  AnkleLeft:0.075263,0.716920,-0.103792,-0.685265 AnkleRight:0.098398,0.717624,0.073394,0.685527 ElbowLeft:-0.043117,0.873173,-0.144396,-0.463530 ElbowRight:0.014207,0.842826,0.202812,0.498307 FootLeft:0.000000,0.000000,0.000000,0.000000 FootRight:0.000000,0.000000,0.000000,0.000000 HandLeft:-0.172233,0.638965,-0.068739,0.746548 HandRight:-0.051004,0.506854,-0.050656,0.859029 HandTipLeft:0.000000,0.000000,0.000000,0.000000 HandTipRight:0.000000,0.000000,0.000000,0.000000 Head:0.000000,0.000000,0.000000,0.000000 HipLeft:0.122303,-0.684179,0.700361,-0.162591 HipRight:-0.111408,0.672894,0.711970,-0.167035 KneeLeft:-0.014927,0.711137,-0.053837,-0.700831 KneeRight:-0.004120,0.702956,0.039718,0.710112 Neck:0.019940,-0.020595,0.996473,-0.078861 ShoulderLeft:0.018061,0.783156,-0.618404,0.062591 ShoulderRight:0.044391,0.775198,0.629396,-0.030945 SpineBase:0.005655,-0.018023,0.999017,-0.040093 SpineMid:0.012485,-0.018297,0.998955,-0.039969 SpineShoulder:0.019675,-0.019440,0.997907,-0.058451 ThumbLeft:0.000000,0.000000,0.000000,0.000000 ThumbRight:0.000000,0.000000,0.000000,0.000000 WristLeft:-0.104045,0.646486,-0.130596,0.744429 WristRight:-0.089248,0.501091,-0.017797,0.860596 END:
KINECT_DATA POSITION:9.701896,-1.423153,-8.815443 HEAD_JOINT1:0.984622,0.153842,-0.000000,0.082774 LARM_JOINT2:0.816884,0.000000,-0.039352,-0.575459 LARM_JOINT3:0.964080,0.000000,-0.228747,-0.134998 LLEG_JOINT2:0.998020,0.027369,0.000000,0.056638 LLEG_JOINT4:0.994808,0.098779,0.000000,-0.024471 RARM_JOINT2:0.804211,0.000000,-0.064184,0.590868 RARM_JOINT3:0.978183,0.000000,0.165894,0.125045 RLEG_JOINT2:0.999451,0.023271,0.000000,-0.023599 RLEG_JOINT4:0.994229,0.097594,0.000000,0.044534 WAIST:0.999952,0.000000,-0.006493,-0.007323 WAIST_JOINT0:0.999767,0.000000,-0.021267,-0.003823 WAIST_JOINT1:0.997922,0.063272,0.000000,-0.012146 END:
KINECT_DATA_Sensor  AnkleLeft:0.073243,0.717811,-0.105217,-0.684333 AnkleRight:0.097527,0.713465,0.072273,0.690096 ElbowLeft:-0.047731,0.872960,-0.145578,-0.463109 ElbowRight:0.013825,0.841327,0.202490,0.500974 FootLeft:0.000000,0.000000,0.000000,0.000000 FootRight:0.000000,0.000000,0.000000,0.000000 HandLeft:-0.208374,0.705625,-0.103929,0.669232 HandRight:-0.047256,0.633007,-0.039825,0.771675 HandTipLeft:0.000000,0.000000,0.000000,0.000000 HandTipRight:0.000000,0.000000,0.000000,0.000000 Head:0.000000,0.000000,0.000000,0.000000 HipLeft:0.123076,-0.684168,0.700199,-0.162750 HipRight:-0.111202,0.672969,0.712032,-0.166607 KneeLeft:-0.015843,0.711587,-0.054117,-0.700331 KneeRight:-0.005157,0.702509,0.038322,0.710624 Neck:0.021140,-0.020766,0.996479,-0.078435 ShoulderLeft:0.017029,0.783149,-0.618370,0.063295 ShoulderRight:0.044900,0.775106,0.629529,-0.029786 SpineBase:0.006328,-0.018359,0.999020,-0.039775 SpineMid:0.013410,-0.018641,0.998950,-0.039644 SpineShoulder:0.020869,-0.019658,0.997898,-0.058114 ThumbLeft:0.000000,0.000000,0.000000,0.000000 ThumbRight:0.000000,0.000000,0.000000,0.000000 WristLeft:-0.123516,0.724743,-0.122888,0.666626 WristRight:-0.091707,0.626317,-0.003633,0.774147 END:
KINECT_DATA POSITION:9.618266,-1.413543,-8.849848 HEAD_JOINT1:0.984919,0.150355,-0.000000,0.085599 LARM_JOINT2:0.825637,0.000000,-0.065776,-0.560355 LARM_JOINT3:0.958398,0.000000,-0.257266,-0.123639 LLEG_JOINT2:0.997974,0.027442,0.000000,0.057399 LLEG_JOINT4:0.994722,0.098625,0.000000,-0.028316 RARM_JOINT2:0.803832,0.000000,-0.064388,0.591361 RARM_JOINT3:0.978350,0.000000,0.164556,0.125511 RLEG_JOINT2:0.999444,0.023912,0.000000,-0.023236 RLEG_JOINT4:0.994082,0.099473,0.000000,0.043661 WAIST:0.999946,0.000000,-0.007880,-0.006778 WAIST_JOINT0:0.999695,0.000000,-0.024430,-0.003474 WAIST_JOINT1:0.997957,0.062555,0.000000,-0.013002 END:
KINECT_DATA_Sensor  AnkleLeft:0.075175,0.721119,-0.103156,-0.680952 AnkleRight:0.096862,0.687896,0.077230,0.715159 ElbowLeft:-0.076784,0.869191,-0.146566,-0.465972 ElbowRight:0.013394,0.839739,0.201937,0.503866 FootLeft:0.000000,0.000000,0.000000,0.000000 FootRight:0.000000,0.000000,0.000000,0.000000 HandLeft:-0.210831,0.539497,-0.213561,0.786692 HandRight:-0.039909,0.580566,-0.036212,0.812428 HandTipLeft:0.000000,0.000000,0.000000,0.000000 HandTipRight:0.000000,0.000000,0.000000,0.000000 Head:0.000000,0.000000,0.000000,0.000000 HipLeft:0.124201,-0.683791,0.700310,-0.163001 HipRight:-0.110476,0.673629,0.711764,-0.165565 KneeLeft:-0.016800,0.712513,-0.055061,-0.699294 KneeRight:-0.004014,0.701541,0.038126,0.711597 Neck:0.024272,-0.021146,0.996462,-0.077631 ShoulderLeft:0.013725,0.782631,-0.618843,0.065826 ShoulderRight:0.045670,0.775026,0.629681,-0.027404 SpineBase:0.007663,-0.018555,0.999026,-0.039296 SpineMid:0.015642,-0.018869,0.998933,-0.039147 SpineShoulder:0.024006,-0.019975,0.997863,-0.057403 ThumbLeft:0.000000,0.000000,0.000000,0.000000 ThumbRight:0.000000,0.000000,0.000000,0.000000 WristLeft:-0.108016,0.562328,-0.178020,0.800268 WristRight:-0.092206,0.573847,-0.011082,0.813680 END:
KINECT_DATA POSITION:9.503255,-1.408692,-8.919573 HEAD_JOINT1:0.986250,0.140012,-0.000000,0.087797 LARM_JOINT2:0.839961,0.000000,-0.133472,-0.525976 LARM_JOINT3:0.951014,0.000000,-0.286529,-0.116073 LLEG_JOINT2:0.997858,0.027303,0.000000,0.059454 LLEG_JOINT4:0.994713,0.098345,0.000000,-0.029577 RARM_JOINT2:0.803351,0.000000,-0.063646,0.592095 RARM_JOINT3:0.978596,0.000000,0.162999,0.125622 RLEG_JOINT2:0.999519,0.022530,0.000000,-0.021312 RLEG_JOINT4:0.994152,0.099849,0.000000,0.041132 WAIST:0.999933,0.000000,-0.009360,-0.006742 WAIST_JOINT0:0.999500,0.000000,-0.031448,-0.003375 WAIST_JOINT1:0.998010,0.061622,0.000000,-0.013348 END:
KINECT_DATA_Sensor  AnkleLeft:0.074582,0.724933,-0.103233,-0.676944 AnkleRight:0.099243,0.718890,0.072372,0.684185 ElbowLeft:-0.140792,0.873605,-0.141653,-0.443764 ElbowRight:0.012050,0.837756,0.200738,0.507665 FootLeft:0.000000,0.000000,0.000000,0.000000 FootRight:0.000000,0.000000,0.000000,0.000000 HandLeft:-0.371780,0.853767,-0.071433,0.357435 HandRight:-0.035300,0.645962,-0.032920,0.761842 HandTipLeft:0.000000,0.000000,0.000000,0.000000 HandTipRight:0.000000,0.000000,0.000000,0.000000 Head:0.000000,0.000000,0.000000,0.000000 HipLeft:0.125370,-0.683734,0.700106,-0.163226 HipRight:-0.109897,0.673962,0.711838,-0.164269 KneeLeft:-0.018473,0.713511,-0.056398,-0.698126 KneeRight:-0.003582,0.700520,0.035760,0.712728 Neck:0.031263,-0.021828,0.996339,-0.076520 ShoulderLeft:0.007854,0.782492,-0.618551,0.070988 ShoulderRight:0.048818,0.774887,0.629840,-0.021651 SpineBase:0.009136,-0.018681,0.999037,-0.038642 SpineMid:0.019871,-0.019095,0.998881,-0.038439 SpineShoulder:0.031013,-0.020485,0.997716,-0.056400 ThumbLeft:0.000000,0.000000,0.000000,0.000000 ThumbRight:0.000000,0.000000,0.000000,0.000000 WristLeft:-0.248890,0.899248,-0.110146,0.342454 WristRight:-0.094377,0.637950,-0.003890,0.764263 END:
KINECT_DATA POSITION:9.420306,-1.424500,-8.910537 HEAD_JOINT1:0.986506,0.137477,-0.000000,0.088922 LARM_JOINT2:0.845567,0.000000,-0.237600,-0.478083 LARM_JOINT3:0.959047,0.000000,-0.271140,-0.081929 LLEG_JOINT2:0.997732,0.027967,0.000000,0.061220 LLEG_JOINT4:0.994805,0.096053,0.000000,-0.033716 RARM_JOINT2:0.802904,0.000000,-0.065822,0.592463 RARM_JOINT3:0.978784,0.000000,0.161066,0.126651 RLEG_JOINT2:0.999543,0.022167,0.000000,-0.020535 RLEG_JOINT4:0.993975,0.101990,0.000000,0.040136 WAIST:0.999921,0.000000,-0.011009,-0.006133 WAIST_JOINT0:0.999114,0.000000,-0.041843,-0.004627 WAIST_JOINT1:0.998333,0.055886,0.000000,-0.014443 END:
KINECT_DATA_Sensor  AnkleLeft:0.074753,0.728095,-0.100721,-0.673903 AnkleRight:0.100092,0.709770,0.074269,0.693320 ElbowLeft:-0.234536,0.872496,-0.111276,-0.413958 ElbowRight:0.009224,0.837196,0.198554,0.509503 FootLeft:0.000000,0.000000,0.000000,0.000000 FootRight:0.000000,0.000000,0.000000,0.000000 HandLeft:-0.410774,0.858523,-0.067790,0.299345 HandRight:-0.032947,0.634518,-0.034252,0.771445 HandTipLeft:0.000000,0.000000,0.000000,0.000000 HandTipRight:0.000000,0.000000,0.000000,0.000000 Head:0.000000,0.000000,0.000000,0.000000 HipLeft:0.128547,-0.683564,0.699905,-0.162324 HipRight:-0.110938,0.675002,0.711276,-0.161715 KneeLeft:-0.019789,0.714667,-0.058504,-0.696733 KneeRight:-0.002821,0.699336,0.034517,0.713953 Neck:0.042054,-0.023084,0.996397,-0.069939 ShoulderLeft:-0.007790,0.784939,-0.614478,0.078913 ShoulderRight:0.046927,0.775466,0.629510,-0.012930 SpineBase:0.010755,-0.018731,0.999130,-0.035667 SpineMid:0.026092,-0.019277,0.998847,-0.035375 SpineShoulder:0.041848,-0.021194,0.997611,-0.050710 ThumbLeft:0.000000,0.000000,0.000000,0.000000 ThumbRight:0.000000,0.000000,0.000000,0.000000 WristLeft:-0.327229,0.896374,-0.119211,0.274269 WristRight:-0.096471,0.625993,-0.007861,0.773799 END:
KINECT_DATA POSITION:9.314329,-1.439813,-8.957958 HEAD_JOINT1:0.986108,0.137937,-0.000000,0.092541 LARM_JOINT2:0.847747,0.000000,-0.263379,-0.460386 LARM_JOINT3:0.964843,0.000000,-0.250167,-0.080586 LLEG_JOINT2:0.997644,0.028192,0.000000,0.062547 LLEG_JOINT4:0.994831,0.095522,0.000000,-0.034439 RARM_JOINT2:0.801938,0.000000,-0.069750,0.593321 RARM_JOINT3:0.979336,0.000000,0.155667,0.129106 RLEG_JOINT2:0.999608,0.020762,0.000000,-0.018761 RLEG_JOINT4:0.994189,0.101513,0.000000,0.035815 WAIST:0.999893,0.000000,-0.013276,-0.006121 WAIST_JOINT0:0.998778,0.000000,-0.049221,-0.004540 WAIST_JOINT1:0.998414,0.053992,0.000000,-0.015926 END:
KINECT_DATA_Sensor  AnkleLeft:0.073239,0.725410,-0.101561,-0.676832 AnkleRight:0.094476,0.683815,0.078004,0.719296 ElbowLeft:-0.257365,0.882242,-0.111625,-0.378090 ElbowRight:0.011372,0.837155,0.199030,0.509342 FootLeft:0.000000,0.000000,0.000000,0.000000 FootRight:0.000000,0.000000,0.000000,0.000000 HandLeft:-0.406728,0.887594,-0.043626,0.211766 HandRight:-0.016561,0.537976,-0.023065,0.842482 HandTipLeft:0.000000,0.000000,0.000000,0.000000 HandTipRight:0.000000,0.000000,0.000000,0.000000 Head:0.000000,0.000000,0.000000,0.000000 HipLeft:0.131402,-0.683700,0.699386,-0.161700 HipRight:-0.110661,0.675614,0.711349,-0.159008 KneeLeft:-0.020726,0.716262,-0.059548,-0.694977 KneeRight:-0.002517,0.697729,0.032253,0.715631 Neck:0.049583,-0.024852,0.996133,-0.068141 ShoulderLeft:-0.017022,0.785909,-0.612183,0.085380 ShoulderRight:0.047359,0.776392,0.628422,-0.007589 SpineBase:0.013004,-0.019612,0.999166,-0.033365 SpineMid:0.030954,-0.020208,0.998771,-0.033008 SpineShoulder:0.049366,-0.022734,0.997337,-0.048636 ThumbLeft:0.000000,0.000000,0.000000,0.000000 ThumbRight:0.000000,0.000000,0.000000,0.000000 WristLeft:-0.341327,0.916186,-0.089470,0.189983 WristRight:-0.093244,0.530714,-0.018602,0.842201 END:
KINECT_DATA POSITION:9.274049,-1.459539,-8.995533 HEAD_JOINT1:0.985535,0.140484,-0.000000,0.094790 LARM_JOINT2:0.844367,0.000000,-0.296283,-0.446386 LARM_JOINT3:0.972171,0.000000,-0.224006,-0.068600 LLEG_JOINT2:0.997610,0.028060,0.000000,0.063149 LLEG_JOINT4:0.994820,0.095778,0.000000,-0.034054 RARM_JOINT2:0.800999,0.000000,-0.073726,0.594109 RARM_JOINT3:0.979596,0.000000,0.154347,0.128716 RLEG_JOINT2:0.999607,0.020984,0.000000,-0.018587 RLEG_JOINT4:0.994001,0.102531,0.000000,0.038078 WAIST:0.999870,0.000000,-0.014912,-0.006060 WAIST_JOINT0:0.998443,0.000000,-0.055325,-0.007130 WAIST_JOINT1:0.998428,0.053297,0.000000,-0.017356 END:
KINECT_DATA_Sensor  AnkleLeft:0.073720,0.734972,-0.101577,-0.666381 AnkleRight:0.096980,0.680105,0.077249,0.722555 ElbowLeft:-0.281939,0.884113,-0.098042,-0.359503 ElbowRight:0.014575,0.837628,0.200044,0.508084 FootLeft:0.000000,0.000000,0.000000,0.000000 FootRight:0.000000,0.000000,0.000000,0.000000 HandLeft:-0.312999,0.754405,0.256392,-0.516883 HandRight:-0.022993,0.673048,-0.013216,0.739123 HandTipLeft:0.000000,0.000000,0.000000,0.000000 HandTipRight:0.000000,0.000000,0.000000,0.000000 Head:0.000000,0.000000,0.000000,0.000000 HipLeft:0.133161,-0.683723,0.699079,-0.161495 HipRight:-0.110002,0.676013,0.711421,-0.157439 KneeLeft:-0.021396,0.717394,-0.059878,-0.693760 KneeRight:-0.002148,0.696546,0.032238,0.716784 Neck:0.056050,-0.026531,0.995792,-0.067478 ShoulderLeft:-0.024273,0.788021,-0.608319,0.091553 ShoulderRight:0.048372,0.775405,0.629597,-0.003902 SpineBase:0.014615,-0.020513,0.999163,-0.032241 SpineMid:0.034966,-0.021166,0.998658,-0.031816 SpineShoulder:0.055824,-0.024204,0.997003,-0.047775 ThumbLeft:0.000000,0.000000,0.000000,0.000000 ThumbRight:0.000000,0.000000,0.000000,0.000000 WristLeft:-0.308738,0.758480,0.192342,-0.540734 WristRight:-0.092027,0.665636,-0.000448,0.740581 END:
KINECT_DATA POSITION:9.236417,-1.484627,-9.027756 HEAD_JOINT1:0.984996,0.144937,-0.000000,0.093681 LARM_JOINT2:0.840498,0.000000,-0.322965,-0.435036 LARM_JOINT3:0.980241,0.000000,-0.195752,-0.028456 LLEG_JOINT2:0.997545,0.028026,0.000000,0.064178 LLEG_JOINT4:0.994847,0.093663,0.000000,-0.038821 RARM_JOINT2:0.800797,0.000000,-0.074704,0.594259 RARM_JOINT3:0.979519,0.000000,0.155102,0.128399 RLEG_JOINT2:0.999611,0.021484,0.000000,-0.017758 RLEG_JOINT4:0.994124,0.101873,0.000000,0.036599 WAIST:0.999836,0.000000,-0.016917,-0.006457 WAIST_JOINT0:0.997952,0.000000,-0.062845,-0.011968 WAIST_JOINT1:0.998454,0.052244,0.000000,-0.018973 END:
KINECT_DATA_Sensor  AnkleLeft:0.075088,0.738515,-0.097023,-0.662981 AnkleRight:0.100062,0.714354,0.072726,0.688765 ElbowLeft:-0.305274,0.867224,-0.069893,-0.387098 ElbowRight:0.014534,0.837806,0.201273,0.507305 FootLeft:0.000000,0.000000,0.000000,0.000000 FootRight:0.000000,0.000000,0.000000,0.000000 HandLeft:-0.054609,0.191857,-0.418022,0.886266 HandRight:-0.036128,0.897057,-0.002671,0.440427 HandTipLeft:0.000000,0.000000,0.000000,0.000000 HandTipRight:0.000000,0.000000,0.000000,0.000000 Head:0.000000,0.000000,0.000000,0.000000 HipLeft:0.135346,-0.684033,0.698366,-0.161446 HipRight:-0.109128,0.676140,0.711808,-0.155740 KneeLeft:-0.022003,0.718805,-0.060238,-0.692248 KneeRight:-0.001439,0.695070,0.032264,0.718216 Neck:0.064077,-0.028941,0.995316,-0.066348 ShoulderLeft:-0.033779,0.790055,-0.603985,0.099365 ShoulderRight:0.049269,0.772375,0.633253,0.000231 SpineBase:0.016609,-0.021942,0.999139,-0.031046 SpineMid:0.039941,-0.022661,0.998479,-0.030525 SpineShoulder:0.063836,-0.026325,0.996528,-0.046511 ThumbLeft:0.000000,0.000000,0.000000,0.000000 ThumbRight:0.000000,0.000000,0.000000,0.000000 WristLeft:-0.041040,0.199915,-0.381717,0.901466 WristRight:-0.084676,0.894316,0.036077,0.437867 END:
KINECT_DATA POSITION:9.236148,-1.517163,-9.060383 HEAD_JOINT1:0.984905,0.148568,-0.000000,0.088820 LARM_JOINT2:0.858664,0.000000,-0.315533,-0.403899 LARM_JOINT3:0.988037,0.000000,-0.153002,0.019343 LLEG_JOINT2:0.997490,0.027210,0.000000,0.065374 LLEG_JOINT4:0.994598,0.096838,0.000000,-0.037378 RARM_JOINT2:0.800879,0.000000,-0.077469,0.593794 RARM_JOINT3:0.978100,0.000000,0.160477,0.132545 RLEG_JOINT2:0.999626,0.020879,0.000000,-0.017678 RLEG_JOINT4:0.994286,0.100414,0.000000,0.036225 WAIST:0.999831,0.000000,-0.017079,-0.006834 WAIST_JOINT0:0.997788,0.000000,-0.064823,-0.014735 WAIST_JOINT1:0.998478,0.051896,0.000000,-0.018693 END:
KINECT_DATA_Sensor  AnkleLeft:0.075401,0.739409,-0.100141,-0.661484 AnkleRight:0.093986,0.675451,0.077123,0.727313 ElbowLeft:-0.337095,0.779008,-0.041954,-0.527023 ElbowRight:0.015854,0.836835,0.202443,0.508402 FootLeft:0.000000,0.000000,0.000000,0.000000 FootRight:0.000000,0.000000,0.000000,0.000000 HandLeft:0.081344,0.148298,-0.397485,0.901885 HandRight:-0.046194,0.851672,-0.025360,0.521418 HandTipLeft:0.000000,0.000000,0.000000,0.000000 HandTipRight:0.000000,0.000000,0.000000,0.000000 Head:0.000000,0.000000,0.000000,0.000000 HipLeft:0.136042,-0.684428,0.697957,-0.160958 HipRight:-0.109543,0.676013,0.711967,-0.155273 KneeLeft:-0.023177,0.718888,-0.060215,-0.692125 KneeRight:-0.002081,0.694942,0.032053,0.718348 Neck:0.066403,-0.028997,0.995185,-0.065998 ShoulderLeft:-0.038605,0.791631,-0.601006,0.103065 ShoulderRight:0.047468,0.771307,0.634691,-0.000266 SpineBase:0.016788,-0.022401,0.999151,-0.030233 SpineMid:0.041158,-0.023132,0.998444,-0.029677 SpineShoulder:0.066147,-0.026554,0.996392,-0.046079 ThumbLeft:0.000000,0.000000,0.000000,0.000000 ThumbRight:0.000000,0.000000,0.000000,0.000000 WristLeft:0.075605,0.142246,-0.421346,0.892478 WristRight:-0.087183,0.849501,0.028424,0.519557 END:
KINECT_DATA POSITION:9.242443,-1.516183,-9.076667 HEAD_JOINT1:0.984796,0.151403,-0.000000,0.085172 LARM_JOINT2:0.876582,0.000000,-0.293708,-0.381234 LARM_JOINT3:0.988481,0.000000,-0.147547,0.033688 LLEG_JOINT2:0.997518,0.027229,0.000000,0.064928 LLEG_JOINT4:0.994490,0.098440,0.000000,-0.036052 RARM_JOINT2:0.801689,0.000000,-0.075467,0.592958 RARM_JOINT3:0.977209,0.000000,0.164187,0.134553 RLEG_JOINT2:0.999632,0.020803,0.000000,-0.017389 RLEG_JOINT4:0.994082,0.103254,0.000000,0.033769 WAIST:0.999869,0.000000,-0.014774,-0.006619 WAIST_JOINT0:0.997992,0.000000,-0.061782,-0.013950 WAIST_JOINT1:0.998474,0.052076,0.000000,-0.018400 END:
KINECT_DATA_Sensor  AnkleLeft:0.076094,0.737788,-0.101866,-0.662949 AnkleRight:0.099797,0.725966,0.073892,0.676428 ElbowLeft:-0.352799,0.741287,-0.058720,-0.567961 ElbowRight:0.015420,0.842145,0.202400,0.499589 FootLeft:0.000000,0.000000,0.000000,0.000000 FootRight:0.000000,0.000000,0.000000,0.000000 HandLeft:0.174734,0.074436,-0.380639,0.905009 HandRight:-0.051851,0.687300,-0.053485,0.722544 HandTipLeft:0.000000,0.000000,0.000000,0.000000 HandTipRight:0.000000,0.000000,0.000000,0.000000 Head:0.000000,0.000000,0.000000,0.000000 HipLeft:0.134023,-0.684669,0.698545,-0.159060 HipRight:-0.110391,0.675946,0.711736,-0.156021 KneeLeft:-0.022846,0.717288,-0.060132,-0.693801 KneeRight:-0.001845,0.696607,0.031645,0.716752 Neck:0.063274,-0.028418,0.995390,-0.066243 ShoulderLeft:-0.035978,0.790730,-0.602802,0.100406 ShoulderRight:0.046100,0.771366,0.634714,-0.002465 SpineBase:0.014476,-0.022296,0.999190,-0.030201 SpineMid:0.038431,-0.023014,0.998556,-0.029658 SpineShoulder:0.063005,-0.026178,0.996598,-0.046233 ThumbLeft:0.000000,0.000000,0.000000,0.000000 ThumbRight:0.000000,0.000000,0.000000,0.000000 WristLeft:0.164461,0.062587,-0.416597,0.891898 WristRight:-0.089891,0.680214,0.003188,0.727474 END:
KINECT_DATA POSITION:9.258309,-1.507837,-9.096193 HEAD_JOINT1:0.984835,0.153714,-0.000000,0.080450 LARM_JOINT2:0.887711,0.000000,-0.279231,-0.366059 LARM_JOINT3:0.989045,0.000000,-0.142656,0.037937 LLEG_JOINT2:0.997567,0.025873,0.000000,0.064740 LLEG_JOINT4:0.994605,0.097727,0.000000,-0.034791 RARM_JOINT2:0.802944,0.000000,-0.070477,0.591873 RARM_JOINT3:0.977550,0.000000,0.163999,0.132287 RLEG_JOINT2:0.999643,0.020315,0.000000,-0.017360 RLEG_JOINT4:0.994026,0.103395,0.000000,0.034951 WAIST:0.999921,0.000000,-0.010874,-0.006356 WAIST_JOINT0:0.998323,0.000000,-0.056483,-0.012709 WAIST_JOINT1:0.998456,0.052704,0.000000,-0.017550 END:
KINECT_DATA_Sensor  AnkleLeft:0.074101,0.735448,-0.101160,-0.665876 AnkleRight:0.099510,0.721878,0.073964,0.680822 ElbowLeft:-0.362222,0.726767,-0.078827,-0.578265 ElbowRight:0.012942,0.848502,0.201552,0.489136 FootLeft:0.000000,0.000000,0.000000,0.000000 FootRight:0.000000,0.000000,0.000000,0.000000 HandLeft:0.233795,0.037110,-0.357691,0.903338 HandRight:-0.073323,0.836388,-0.036011,0.542016 HandTipLeft:0.000000,0.000000,0.000000,0.000000 HandTipRight:0.000000,0.000000,0.000000,0.000000 Head:0.000000,0.000000,0.000000,0.000000 HipLeft:0.130977,-0.684967,0.699382,-0.156619 HipRight:-0.112412,0.675585,0.711306,-0.158090 KneeLeft:-0.023603,0.714489,-0.059323,-0.696727 KneeRight:-0.002093,0.699422,0.031109,0.714029 Neck:0.057950,-0.027056,0.995694,-0.067106 ShoulderLeft:-0.031853,0.788747,-0.606257,0.096518 ShoulderRight:0.043474,0.770829,0.635519,-0.006970 SpineBase:0.010576,-0.021924,0.999241,-0.030421 SpineMid:0.033807,-0.022625,0.998725,-0.029903 SpineShoulder:0.057650,-0.025343,0.996918,-0.046792 ThumbLeft:0.000000,0.000000,0.000000,0.000000 ThumbRight:0.000000,0.000000,0.000000,0.000000 WristLeft:0.214713,0.018300,-0.403523,0.889232 WristRight:-0.086518,0.834872,0.022472,0.543138 END:
KINECT_DATA POSITION:9.258017,-1.501912,-9.100283 HEAD_JOINT1:0.985147,0.153282,-0.000000,0.077398 LARM_JOINT2:0.894998,0.000000,-0.268215,-0.356425 LARM_JOINT3:0.988886,0.000000,-0.143054,0.040503 LLEG_JOINT2:0.997557,0.025499,0.000000,0.065037 LLEG_JOINT4:0.994574,0.097783,0.000000,-0.035519 RARM_JOINT2:0.803536,0.000000,-0.070633,0.591051 RARM_JOINT3:0.978385,0.000000,0.160303,0.130635 RLEG_JOINT2:0.999640,0.020448,0.000000,-0.017399 RLEG_JOINT4:0.994038,0.102625,0.000000,0.036824 WAIST:0.999930,0.000000,-0.009949,-0.006338 WAIST_JOINT0:0.998539,0.000000,-0.052965,-0.010725 WAIST_JOINT1:0.998356,0.054807,0.000000,-0.016803 END:
KINECT_DATA_Sensor  AnkleLeft:0.074085,0.733753,-0.100697,-0.667816 AnkleRight:0.099565,0.716476,0.073142,0.686585 ElbowLeft:-0.368660,0.704614,-0.084848,-0.600341 ElbowRight:0.013998,0.847404,0.202886,0.490457 FootLeft:0.000000,0.000000,0.000000,0.000000 FootRight:0.000000,0.000000,0.000000,0.000000 HandLeft:0.178113,0.185238,-0.392866,0.882960 HandRight:-0.056535,0.826299,-0.020881,0.559997 HandTipLeft:0.000000,0.000000,0.000000,0.000000 HandTipRight:0.000000,0.000000,0.000000,0.000000 Head:0.000000,0.000000,0.000000,0.000000 HipLeft:0.130144,-0.684815,0.699689,-0.156610 HipRight:-0.112753,0.675251,0.711368,-0.158991 KneeLeft:-0.024033,0.713805,-0.059303,-0.697416 KneeRight:-0.002036,0.700089,0.031220,0.713370 Neck:0.054261,-0.026165,0.995744,-0.069745 ShoulderLeft:-0.026277,0.785769,-0.610795,0.093840 ShoulderRight:0.044439,0.770086,0.636312,-0.009949 SpineBase:0.009653,-0.021702,0.999237,-0.031001 SpineMid:0.031496,-0.022374,0.998787,-0.030520 SpineShoulder:0.053956,-0.024586,0.997046,-0.048824 ThumbLeft:0.000000,0.000000,0.000000,0.000000 ThumbRight:0.000000,0.000000,0.000000,0.000000 WristLeft:0.171203,0.171995,-0.430776,0.869218 WristRight:-0.086715,0.824199,0.021518,0.559208 END:
KINECT_DATA POSITION:9.281374,-1.478875,-9.132730 HEAD_JOINT1:0.985565,0.152331,-0.000000,0.073874 LARM_JOINT2:0.897278,0.000000,-0.264842,-0.353202 LARM_JOINT3:0.984457,0.000000,-0.172834,0.031203 LLEG_JOINT2:0.997589,0.023788,0.000000,0.065196 LLEG_JOINT4:0.994429,0.099590,0.000000,-0.034537 RARM_JOINT2:0.804531,0.000000,-0.068967,0.589893 RARM_JOINT3:0.977101,0.000000,0.167646,0.131031 RLEG_JOINT2:0.999615,0.021211,0.000000,-0.017861 RLEG_JOINT4:0.994115,0.101705,0.000000,0.037300 WAIST:0.999960,0.000000,-0.006429,-0.006147 WAIST_JOINT0:0.998784,0.000000,-0.048541,-0.008623 WAIST_JOINT1:0.998238,0.057330,0.000000,-0.015282 END:
KINECT_DATA_Sensor  AnkleLeft:0.073681,0.731628,-0.101449,-0.670074 AnkleRight:0.099832,0.723453,0.072580,0.679251 ElbowLeft:-0.368549,0.707381,-0.096910,-0.595309 ElbowRight:0.013820,0.847958,0.203519,0.489241 FootLeft:0.000000,0.000000,0.000000,0.000000 FootRight:0.000000,0.000000,0.000000,0.000000 HandLeft:0.129905,0.175869,-0.415126,0.883100 HandRight:-0.065874,0.699296,-0.054993,0.709663 HandTipLeft:0.000000,0.000000,0.000000,0.000000 HandTipRight:0.000000,0.000000,0.000000,0.000000 Head:0.000000,0.000000,0.000000,0.000000 HipLeft:0.127011,-0.684863,0.700360,-0.155969 HipRight:-0.114303,0.674711,0.710925,-0.162131 KneeLeft:-0.025271,0.711209,-0.058427,-0.700092 KneeRight:-0.001776,0.702603,0.031958,0.710862 Neck:0.049653,-0.024460,0.995840,-0.072379 ShoulderLeft:-0.019959,0.783230,-0.614720,0.090950 ShoulderRight:0.044902,0.769945,0.636372,-0.014095 SpineBase:0.006136,-0.020942,0.999231,-0.032569 SpineMid:0.027428,-0.021631,0.998874,-0.032115 SpineShoulder:0.049353,-0.023169,0.997192,-0.051340 ThumbLeft:0.000000,0.000000,0.000000,0.000000 ThumbRight:0.000000,0.000000,0.000000,0.000000 WristLeft:0.164729,0.183492,-0.438653,0.864163 WristRight:-0.089283,0.693975,0.004281,0.714429 END:
KINECT_DATA POSITION:9.308960,-1.462845,-9.123063 HEAD_JOINT1:0.985482,0.153133,-0.000000,0.073312 LARM_JOINT2:0.898570,0.000000,-0.250056,-0.360617 LARM_JOINT3:0.976221,0.000000,-0.213458,0.037788 LLEG_JOINT2:0.997662,0.023006,0.000000,0.064356 LLEG_JOINT4:0.994294,0.100508,0.000000,-0.035749 RARM_JOINT2:0.805047,0.000000,-0.068769,0.589212 RARM_JOINT3:0.977465,0.000000,0.162502,0.134744 RLEG_JOINT2:0.999595,0.021544,0.000000,-0.018587 RLEG_JOINT4:0.994064,0.101916,0.000000,0.038086 WAIST:0.999972,0.000000,-0.004696,-0.005749 WAIST_JOINT0:0.998960,0.000000,-0.045076,-0.006808 WAIST_JOINT1:0.998196,0.058222,0.000000,-0.014671 END:
KINECT_DATA_Sensor  AnkleLeft:0.074987,0.729739,-0.100285,-0.672162 AnkleRight:0.100132,0.721809,0.073187,0.680888 ElbowLeft:-0.357889,0.706309,-0.108190,-0.601114 ElbowRight:0.014409,0.849375,0.203783,0.486648 FootLeft:0.000000,0.000000,0.000000,0.000000 FootRight:0.000000,0.000000,0.000000,0.000000 HandLeft:0.102246,0.179083,-0.439136,0.874434 HandRight:-0.042606,0.723071,-0.050156,0.687631 HandTipLeft:0.000000,0.000000,0.000000,0.000000 HandTipRight:0.000000,0.000000,0.000000,0.000000 Head:0.000000,0.000000,0.000000,0.000000 HipLeft:0.125638,-0.684527,0.700956,-0.155876 HipRight:-0.115363,0.674502,0.710561,-0.163834 KneeLeft:-0.025404,0.709938,-0.057610,-0.701444 KneeRight:-0.001815,0.703848,0.032432,0.709608 Neck:0.046038,-0.023447,0.995981,-0.073161 ShoulderLeft:-0.015558,0.782141,-0.616675,0.087894 ShoulderRight:0.044642,0.770601,0.635539,-0.016470 SpineBase:0.004396,-0.020229,0.999229,-0.033353 SpineMid:0.024766,-0.020904,0.998932,-0.032934 SpineShoulder:0.045754,-0.022196,0.997334,-0.052335 ThumbLeft:0.000000,0.000000,0.000000,0.000000 ThumbRight:0.000000,0.000000,0.000000,0.000000 WristLeft:0.145005,0.192920,-0.457263,0.855959 WristRight:-0.087985,0.722560,0.007942,0.685641 END:
KINECT_DATA POSITION:9.416337,-1.448870,-9.096527 HEAD_JOINT1:0.985349,0.161402,-0.000000,0.055104 LARM_JOINT2:0.892971,0.000000,-0.257627,-0.369095 LARM_JOINT3:0.975563,0.000000,-0.216597,0.036909 LLEG_JOINT2:0.997931,0.018974,0.000000,0.061430 LLEG_JOINT4:0.994496,0.099934,0.000000,-0.031467 RARM_JOINT2:0.812232,0.000000,-0.051933,0.581017 RARM_JOINT3:0.973980,0.000000,0.172176,0.147374 RLEG_JOINT2:0.999516,0.023127,0.000000,-0.020798 RLEG_JOINT4:0.994164,0.098947,0.000000,0.042979 WAIST:0.999960,0.000000,0.007636,-0.004700 WAIST_JOINT0:0.999806,0.000000,-0.019576,-0.002371 WAIST_JOINT1:0.998192,0.058825,0.000000,-0.012357 END:
KINECT_DATA_Sensor  AnkleLeft:0.070604,0.717415,-0.098601,-0.686009 AnkleRight:0.100655,0.728663,0.071002,0.673705 ElbowLeft:-0.353716,0.700697,-0.103002,-0.610982 ElbowRight:0.006617,0.878028,0.204881,0.432489 FootLeft:0.000000,0.000000,0.000000,0.000000 FootRight:0.000000,0.000000,0.000000,0.000000 HandLeft:0.118528,0.143660,-0.423290,0.886645 HandRight:-0.104250,0.837283,-0.089449,0.529233 HandTipLeft:0.000000,0.000000,0.000000,0.000000 HandTipRight:0.000000,0.000000,0.000000,0.000000 Head:0.000000,0.000000,0.000000,0.000000 HipLeft:0.117197,-0.685188,0.703152,-0.149531 HipRight:-0.123841,0.673337,0.708398,-0.171619 KneeLeft:0.026227,-0.701053,0.053785,0.710594 KneeRight:-0.001887,0.712520,0.034395,0.700805 Neck:0.020908,-0.019241,0.996864,-0.073860 ShoulderLeft:-0.005457,0.780938,-0.620127,0.074489 ShoulderRight:0.022276,0.773504,0.632005,-0.042018 SpineBase:-0.007910,-0.017899,0.999236,-0.033844 SpineMid:0.006065,-0.018370,0.999248,-0.033590 SpineShoulder:0.020564,-0.019104,0.998191,-0.053166 ThumbLeft:0.000000,0.000000,0.000000,0.000000 ThumbRight:0.000000,0.000000,0.000000,0.000000 WristLeft:0.161739,0.153294,-0.456292,0.861475 WristRight:-0.083910,0.840049,0.010589,0.535877 END:
KINECT_DATA POSITION:9.969240,-1.571786,-9.025038 HEAD_JOINT1:0.984830,0.170468,-0.000000,0.032406 LARM_JOINT2:0.884578,0.000000,-0.258870,-0.387954 LARM_JOINT3:0.969006,0.000000,-0.245039,0.031341 LLEG_JOINT2:0.998363,0.016797,0.000000,0.054681 LLEG_JOINT4:0.994526,0.101097,0.000000,-0.026418 RARM_JOINT2:0.820738,0.000000,-0.009978,0.571217 RARM_JOINT3:0.970516,0.000000,0.181745,0.158327 RLEG_JOINT2:0.999373,0.022474,0.000000,-0.027368 RLEG_JOINT4:0.993646,0.101016,0.000000,0.049630 WAIST:0.999600,0.000000,0.028120,-0.002898 WAIST_JOINT0:0.999856,-0.000000,0.016070,0.005397 WAIST_JOINT1:0.998269,0.058335,0.000000,-0.007430 END:
KINECT_DATA_Sensor  AnkleLeft:-0.071175,-0.698835,0.097093,0.705079 AnkleRight:0.098613,0.715267,0.076634,0.687602 ElbowLeft:-0.338467,0.705835,-0.110215,-0.612446 ElbowRight:-0.026201,0.900480,0.195779,0.387454 FootLeft:0.000000,0.000000,0.000000,0.000000 FootRight:0.000000,0.000000,0.000000,0.000000 HandLeft:0.118494,0.085835,-0.426938,0.892365 HandRight:-0.123060,0.919675,-0.097003,0.360061 HandTipLeft:0.000000,0.000000,0.000000,0.000000 HandTipRight:0.000000,0.000000,0.000000,0.000000 Head:0.000000,0.000000,0.000000,0.000000 HipLeft:0.103722,-0.686276,0.706192,-0.139858 HipRight:-0.138712,0.672682,0.703915,-0.181001 KneeLeft:0.023274,-0.686500,0.049247,0.725086 KneeRight:-0.006471,0.726654,0.037185,0.685966 Neck:-0.014661,-0.011138,0.997126,-0.073487 ShoulderLeft:0.009571,0.779105,-0.624546,0.053357 ShoulderRight:-0.009060,0.778767,0.622669,-0.075652 SpineBase:-0.028190,-0.009343,0.999009,-0.033148 SpineMid:-0.021709,-0.009557,0.999171,-0.033087 SpineShoulder:-0.015106,-0.013218,0.998396,-0.052937 ThumbLeft:0.000000,0.000000,0.000000,0.000000 ThumbRight:0.000000,0.000000,0.000000,0.000000 WristLeft:0.172944,0.104241,-0.450607,0.869585 WristRight:-0.111735,0.922481,-0.009072,0.369408 END:
KINECT_DATA POSITION:10.375062,-1.557264,-8.573997 HEAD_JOINT1:0.984155,0.177253,-0.000000,0.004606 LARM_JOINT2:0.883799,0.000000,-0.238389,-0.402580 LARM_JOINT3:0.957982,0.000000,-0.279611,0.063934 LLEG_JOINT2:0.998599,0.016386,0.000000,0.050322 LLEG_JOINT4:0.995259,0.095174,0.000000,-0.020048 RARM_JOINT2:0.824991,0.000000,-0.023843,0.564643 RARM_JOINT3:0.972614,0.000000,0.157566,0.170865 RLEG_JOINT2:0.999261,0.023740,0.000000,-0.030230 RLEG_JOINT4:0.992915,0.106417,0.000000,0.052871 WAIST:0.999073,0.000000,0.042998,-0.002249 WAIST_JOINT0:0.999360,-0.000000,0.034803,0.008299 WAIST_JOINT1:0.998332,0.057726,0.000000,-0.001318 END:
KINECT_DATA_Sensor  AnkleLeft:-0.066140,-0.689595,0.093930,0.715026 AnkleRight:0.102957,0.726419,0.081992,0.674531 ElbowLeft:0.324219,-0.685819,0.123063,0.639836 ElbowRight:-0.019998,0.904949,0.201145,0.374443 FootLeft:0.000000,0.000000,0.000000,0.000000 FootRight:0.000000,0.000000,0.000000,0.000000 HandLeft:0.124016,0.166859,-0.482794,0.850698 HandRight:0.030055,0.598910,-0.054916,0.798366 HandTipLeft:0.000000,0.000000,0.000000,0.000000 HandTipRight:0.000000,0.000000,0.000000,0.000000 Head:0.000000,0.000000,0.000000,0.000000 HipLeft:0.094143,-0.687048,0.708089,-0.133086 HipRight:-0.147997,0.671431,0.701464,-0.187683 KneeLeft:0.020321,-0.675791,0.046586,0.735339 KneeRight:-0.007785,0.736723,0.039525,0.674993 Neck:-0.033728,-0.005601,0.996720,-0.073345 ShoulderLeft:0.025517,0.775006,-0.630408,0.036058 ShoulderRight:-0.018040,0.777251,0.622792,-0.087663 SpineBase:-0.042932,-0.004655,0.998511,-0.033325 SpineMid:-0.038517,-0.004802,0.998691,-0.033304 SpineShoulder:-0.034020,-0.006861,0.998019,-0.052469 ThumbLeft:0.000000,0.000000,0.000000,0.000000 ThumbRight:0.000000,0.000000,0.000000,0.000000 WristLeft:0.142524,0.178594,-0.474457,0.850107 WristRight:-0.082375,0.584803,-0.066158,0.804265 END:
KINECT_DATA POSITION:10.349846,-1.525459,-8.300614 HEAD_JOINT1:0.982870,0.183607,0.000000,-0.015945 LARM_JOINT2:0.881125,0.000000,-0.295733,-0.369000 LARM_JOINT3:0.980457,0.000000,-0.184826,0.067404 LLEG_JOINT2:0.998492,0.016377,0.000000,0.052394 LLEG_JOINT4:0.995128,0.096861,0.000000,-0.018385 RARM_JOINT2:0.824790,0.000000,-0.040183,0.564009 RARM_JOINT3:0.973341,0.000000,0.148154,0.175092 RLEG_JOINT2:0.999340,0.021166,0.000000,-0.029509 RLEG_JOINT4:0.992602,0.109033,0.000000,0.053422 WAIST:0.999020,0.000000,0.044025,-0.004612 WAIST_JOINT0:0.999451,-0.000000,0.032398,0.006892 WAIST_JOINT1:0.998187,0.060184,0.000000,-0.000845 END:
KINECT_DATA_Sensor  AnkleLeft:-0.066966,-0.690783,0.095870,0.713543 AnkleRight:0.102006,0.725461,0.083158,0.675563 ElbowLeft:0.369353,-0.666282,0.080059,0.642835 ElbowRight:-0.003187,0.909806,0.210193,0.357858 FootLeft:0.000000,0.000000,0.000000,0.000000 FootRight:0.000000,0.000000,0.000000,0.000000 HandLeft:0.274246,-0.021603,-0.384379,0.881235 HandRight:0.022475,0.656592,-0.030161,0.753308 HandTipLeft:0.000000,0.000000,0.000000,0.000000 HandTipRight:0.000000,0.000000,0.000000,0.000000 Head:0.000000,0.000000,0.000000,0.000000 HipLeft:0.091903,-0.688580,0.706860,-0.133267 HipRight:-0.146356,0.669349,0.703352,-0.189338 KneeLeft:0.020007,-0.675108,0.046462,0.735983 KneeRight:-0.010705,0.737326,0.038803,0.674337 Neck:-0.031611,-0.008734,0.996576,-0.075894 ShoulderLeft:0.026831,0.771655,-0.634260,0.039271 ShoulderRight:-0.013966,0.772950,0.628285,-0.087239 SpineBase:-0.043854,-0.006774,0.998382,-0.035549 SpineMid:-0.037931,-0.006984,0.998625,-0.035509 SpineShoulder:-0.031861,-0.008836,0.997947,-0.054856 ThumbLeft:0.000000,0.000000,0.000000,0.000000 ThumbRight:0.000000,0.000000,0.000000,0.000000 WristLeft:0.281412,-0.027122,-0.412437,0.866007 WristRight:-0.072646,0.647262,-0.043789,0.757534 END:
KINECT_DATA POSITION:10.338612,-1.530500,-7.919049 HEAD_JOINT1:0.983711,0.178964,0.000000,-0.016879 LARM_JOINT2:0.886298,0.000000,-0.239896,-0.396138 LARM_JOINT3:0.959366,0.000000,-0.276412,0.056690 LLEG_JOINT2:0.998282,0.017238,0.000000,0.055996 LLEG_JOINT4:0.994869,0.099347,0.000000,-0.019138 RARM_JOINT2:0.824597,0.000000,-0.045559,0.563883 RARM_JOINT3:0.972096,0.000000,0.157229,0.174096 RLEG_JOINT2:0.999374,0.022627,0.000000,-0.027182 RLEG_JOINT4:0.992162,0.111939,0.000000,0.055528 WAIST:0.999084,0.000000,0.042102,-0.007657 WAIST_JOINT0:0.999597,-0.000000,0.028288,0.002162 WAIST_JOINT1:0.998197,0.060013,0.000000,-0.000994 END:
KINECT_DATA_Sensor  AnkleLeft:-0.069638,-0.692599,0.098021,0.711230 AnkleRight:0.106143,0.722884,0.085379,0.677408 ElbowLeft:0.328336,-0.669868,0.114744,0.655977 ElbowRight:-0.001084,0.906377,0.214736,0.363823 FootLeft:0.000000,0.000000,0.000000,0.000000 FootRight:0.000000,0.000000,0.000000,0.000000 HandLeft:0.067198,0.193282,-0.471117,0.858007 HandRight:-0.008342,0.705312,-0.066009,0.705768 HandTipLeft:0.000000,0.000000,0.000000,0.000000 HandTipRight:0.000000,0.000000,0.000000,0.000000 Head:0.000000,0.000000,0.000000,0.000000 HipLeft:0.093324,-0.690532,0.704658,-0.133836 HipRight:-0.144131,0.667456,0.705790,-0.188652 KneeLeft:0.019752,-0.676603,0.047504,0.734548 KneeRight:-0.010085,0.735937,0.040469,0.675764 Neck:-0.027114,-0.012229,0.996698,-0.075548 ShoulderLeft:0.024852,0.773705,-0.631697,0.041501 ShoulderRight:-0.010016,0.769268,0.633432,-0.083010 SpineBase:-0.041843,-0.010365,0.998429,-0.035799 SpineMid:-0.034742,-0.010619,0.998701,-0.035724 SpineShoulder:-0.027389,-0.011948,0.998058,-0.054652 ThumbLeft:0.000000,0.000000,0.000000,0.000000 ThumbRight:0.000000,0.000000,0.000000,0.000000 WristLeft:0.134559,0.222152,-0.480925,0.837409 WristRight:-0.077456,0.695632,-0.029824,0.713587 END:
KINECT_DATA POSITION:10.346362,-1.533769,-7.831466 HEAD_JOINT1:0.983660,0.179380,0.000000,-0.015350 LARM_JOINT2:0.890029,0.000000,-0.203161,-0.408135 LARM_JOINT3:0.945155,0.000000,-0.321680,0.056606 LLEG_JOINT2:0.998315,0.017027,0.000000,0.055467 LLEG_JOINT4:0.994718,0.100520,0.000000,-0.020762 RARM_JOINT2:0.823552,0.000000,-0.044515,0.565491 RARM_JOINT3:0.971884,0.000000,0.157822,0.174741 RLEG_JOINT2:0.999373,0.023314,0.000000,-0.026650 RLEG_JOINT4:0.992226,0.109349,0.000000,0.059425 WAIST:0.999083,0.000000,0.042168,-0.007457 WAIST_JOINT0:0.999583,-0.000000,0.028812,0.001905 WAIST_JOINT1:0.998190,0.060141,0.000000,-0.000813 END:
KINECT_DATA_Sensor  AnkleLeft:-0.071580,-0.692011,0.097198,0.711723 AnkleRight:0.108220,0.722709,0.080920,0.677814 ElbowLeft:0.303409,-0.676963,0.144042,0.654916 ElbowRight:-0.001086,0.906365,0.212424,0.365210 FootLeft:0.000000,0.000000,0.000000,0.000000 FootRight:0.000000,0.000000,0.000000,0.000000 HandLeft:0.009398,0.297420,-0.494270,0.816792 HandRight:-0.000332,0.690473,-0.077601,0.719184 HandTipLeft:0.000000,0.000000,0.000000,0.000000 HandTipRight:0.000000,0.000000,0.000000,0.000000 Head:0.000000,0.000000,0.000000,0.000000 HipLeft:0.093160,-0.690323,0.704853,-0.134009 HipRight:-0.144010,0.667481,0.705722,-0.188906 KneeLeft:0.019688,-0.676543,0.047114,0.734630 KneeRight:-0.009089,0.735995,0.040473,0.675715 Neck:-0.027803,-0.011767,0.996677,-0.075653 ShoulderLeft:0.030166,0.773529,-0.631940,0.037345 ShoulderRight:-0.005606,0.768974,0.634233,-0.079974 SpineBase:-0.041920,-0.010328,0.998416,-0.036085 SpineMid:-0.035128,-0.010573,0.998678,-0.036013 SpineShoulder:-0.028076,-0.011561,0.998035,-0.054813 ThumbLeft:0.000000,0.000000,0.000000,0.000000 ThumbRight:0.000000,0.000000,0.000000,0.000000 WristLeft:0.059826,0.321555,-0.496113,0.804298 WristRight:-0.076249,0.679285,-0.031980,0.729202 END:
KINECT_DATA POSITION:10.320677,-1.529063,-7.798815 HEAD_JOINT1:0.983816,0.178652,0.000000,-0.013752 LARM_JOINT2:0.887932,0.000000,-0.227407,-0.399829 LARM_JOINT3:0.958597,0.000000,-0.280009,0.051835 LLEG_JOINT2:0.998321,0.016601,0.000000,0.055495 LLEG_JOINT4:0.994658,0.101340,0.000000,-0.019652 RARM_JOINT2:0.823055,0.000000,-0.047199,0.565997 RARM_JOINT3:0.972825,0.000000,0.157986,0.169271 RLEG_JOINT2:0.999364,0.023750,0.000000,-0.026597 RLEG_JOINT4:0.992123,0.112264,0.000000,0.055580 WAIST:0.999134,0.000000,0.040901,-0.007597 WAIST_JOINT0:0.999609,-0.000000,0.027909,0.001442 WAIST_JOINT1:0.998179,0.060308,0.000000,-0.001196 END:
KINECT_DATA_Sensor  AnkleLeft:-0.071064,-0.692567,0.098327,0.711078 AnkleRight:0.106777,0.714472,0.087007,0.685972 ElbowLeft:0.318822,-0.680572,0.128440,0.647053 ElbowRight:-0.000115,0.902991,0.213226,0.373016 FootLeft:0.000000,0.000000,0.000000,0.000000 FootRight:0.000000,0.000000,0.000000,0.000000 HandLeft:0.088436,0.200294,-0.462683,0.859061 HandRight:-0.007474,0.645468,-0.056266,0.761675 HandTipLeft:0.000000,0.000000,0.000000,0.000000 HandTipRight:0.000000,0.000000,0.000000,0.000000 Head:0.000000,0.000000,0.000000,0.000000 HipLeft:0.094217,-0.690244,0.704624,-0.134876 HipRight:-0.143236,0.667483,0.705986,-0.188502 KneeLeft:0.019990,-0.677452,0.046714,0.733810 KneeRight:-0.008808,0.735136,0.040862,0.676630 Neck:-0.026883,-0.012322,0.996684,-0.075812 ShoulderLeft:0.029613,0.773813,-0.631570,0.038169 ShoulderRight:-0.004937,0.768753,0.634579,-0.079402 SpineBase:-0.040663,-0.010841,0.998460,-0.036160 SpineMid:-0.034044,-0.011081,0.998707,-0.036087 SpineShoulder:-0.027152,-0.011955,0.998048,-0.054964 ThumbLeft:0.000000,0.000000,0.000000,0.000000 ThumbRight:0.000000,0.000000,0.000000,0.000000 WristLeft:0.130861,0.217020,-0.473595,0.843496 WristRight:-0.075871,0.637034,-0.036098,0.766243 END:
KINECT_DATA POSITION:10.206370,-1.492975,-7.863188 HEAD_JOINT1:0.984102,0.177368,0.000000,-0.009202 LARM_JOINT2:0.882032,0.000000,-0.268585,-0.387145 LARM_JOINT3:0.977249,0.000000,-0.208820,0.037126 LLEG_JOINT2:0.998205,0.017331,0.000000,0.057334 LLEG_JOINT4:0.994091,0.106197,0.000000,-0.022494 RARM_JOINT2:0.821936,0.000000,-0.053617,0.567050 RARM_JOINT3:0.973139,0.000000,0.158050,0.167397 RLEG_JOINT2:0.999415,0.024203,0.000000,-0.024177 RLEG_JOINT4:0.992351,0.111509,0.000000,0.052962 WAIST:0.999319,0.000000,0.035758,-0.009050 WAIST_JOINT0:0.999810,0.000000,0.019412,-0.001642 WAIST_JOINT1:0.998149,0.060767,0.000000,-0.002544 END:
KINECT_DATA_Sensor  AnkleLeft:0.079458,0.717097,-0.098081,-0.685448 AnkleRight:0.106715,0.718310,0.086235,0.682060 ElbowLeft:0.340715,-0.691938,0.098769,0.628793 ElbowRight:0.003219,0.895814,0.216689,0.388010 FootLeft:0.000000,0.000000,0.000000,0.000000 FootRight:0.000000,0.000000,0.000000,0.000000 HandLeft:0.106958,0.186123,-0.416216,0.883563 HandRight:-0.005601,0.651732,-0.037827,0.757485 HandTipLeft:0.000000,0.000000,0.000000,0.000000 HandTipRight:0.000000,0.000000,0.000000,0.000000 Head:0.000000,0.000000,0.000000,0.000000 HipLeft:0.096191,-0.690625,0.703532,-0.137211 HipRight:-0.138168,0.667090,0.708134,-0.185598 KneeLeft:0.019949,-0.681249,0.047402,0.730243 KneeRight:-0.007574,0.731618,0.040587,0.680464 Neck:-0.018231,-0.015995,0.996781,-0.076419 ShoulderLeft:0.022318,0.776539,-0.627987,0.046062 ShoulderRight:-0.000768,0.768266,0.635824,-0.074130 SpineBase:-0.035494,-0.013021,0.998596,-0.037108 SpineMid:-0.027129,-0.013331,0.998858,-0.036998 SpineShoulder:-0.018444,-0.014366,0.998200,-0.055222 ThumbLeft:0.000000,0.000000,0.000000,0.000000 ThumbRight:0.000000,0.000000,0.000000,0.000000 WristLeft:0.151067,0.196238,-0.444851,0.860684 WristRight:-0.078952,0.643835,-0.032180,0.760400 END:
KINECT_DATA POSITION:10.098225,-1.425294,-7.950032 HEAD_JOINT1:0.984629,0.174645,0.000000,-0.002319 LARM_JOINT2:0.881700,0.000000,-0.274561,-0.383695 LARM_JOINT3:0.975858,0.000000,-0.214864,0.039179 LLEG_JOINT2:0.998123,0.017851,0.000000,0.058580 LLEG_JOINT4:0.994261,0.105049,0.000000,-0.020246 RARM_JOINT2:0.820595,0.000000,-0.052569,0.569087 RARM_JOINT3:0.973736,0.000000,0.158297,0.163646 RLEG_JOINT2:0.999440,0.023909,0.000000,-0.023418 RLEG_JOINT4:0.992316,0.111647,0.000000,0.053329 WAIST:0.999462,0.000000,0.031376,-0.009540 WAIST_JOINT0:0.999959,0.000000,0.007882,-0.004496 WAIST_JOINT1:0.998137,0.060901,0.000000,-0.003655 END:
KINECT_DATA_Sensor  AnkleLeft:0.074056,0.702693,-0.102227,-0.700205 AnkleRight:0.108393,0.723041,0.083983,0.677060 ElbowLeft:0.344150,-0.698859,0.095015,0.619782 ElbowRight:0.002285,0.891480,0.215649,0.398440 FootLeft:0.000000,0.000000,0.000000,0.000000 FootRight:0.000000,0.000000,0.000000,0.000000 HandLeft:0.083489,0.202142,-0.440869,0.870519 HandRight:-0.022170,0.914810,-0.030466,0.402123 HandTipLeft:0.000000,0.000000,0.000000,0.000000 HandTipRight:0.000000,0.000000,0.000000,0.000000 Head:0.000000,0.000000,0.000000,0.000000 HipLeft:0.098717,-0.690556,0.702769,-0.139653 HipRight:-0.134676,0.667256,0.709099,-0.183875 KneeLeft:0.020312,-0.684419,0.048205,0.727210 KneeRight:-0.007418,0.728645,0.040206,0.683670 Neck:-0.006597,-0.017853,0.996911,-0.076196 ShoulderLeft:0.016895,0.777628,-0.626242,0.053209 ShoulderRight:0.008967,0.766629,0.638875,-0.063547 SpineBase:-0.031145,-0.014779,0.998694,-0.037710 SpineMid:-0.019175,-0.015230,0.998995,-0.037530 SpineShoulder:-0.006813,-0.016118,0.998318,-0.055267 ThumbLeft:0.000000,0.000000,0.000000,0.000000 ThumbRight:0.000000,0.000000,0.000000,0.000000 WristLeft:0.130258,0.219514,-0.452170,0.854628 WristRight:-0.087294,0.912089,0.009014,0.400490 END:
KINECT_DATA POSITION:10.016695,-1.389122,-8.019268 HEAD_JOINT1:0.985341,0.170365,-0.000000,0.008883 LARM_JOINT2:0.881726,0.000000,-0.273834,-0.384154 LARM_JOINT3:0.974092,0.000000,-0.223165,0.036632 LLEG_JOINT2:0.998100,0.017519,0.000000,0.059075 LLEG_JOINT4:0.994219,0.105132,0.000000,-0.021820 RARM_JOINT2:0.819027,0.000000,-0.054521,0.571158 RARM_JOINT3:0.973444,0.000000,0.160910,0.162833 RLEG_JOINT2:0.999431,0.024533,0.000000,-0.023144 RLEG_JOINT4:0.992682,0.107884,0.000000,0.054248 WAIST:0.999551,0.000000,0.028488,-0.009245 WAIST_JOINT0:0.999984,0.000000,0.001878,-0.005292 WAIST_JOINT1:0.998203,0.059740,0.000000,-0.004721 END:
KINECT_DATA_Sensor  AnkleLeft:0.078263,0.733347,-0.098460,-0.668118 AnkleRight:0.107747,0.723488,0.080043,0.677163 ElbowLeft:-0.344127,0.701084,-0.093659,-0.617484 ElbowRight:0.003424,0.889138,0.214146,0.404430 FootLeft:0.000000,0.000000,0.000000,0.000000 FootRight:0.000000,0.000000,0.000000,0.000000 HandLeft:0.065236,0.211381,-0.440994,0.869820 HandRight:-0.027500,0.847104,-0.042097,0.529043 HandTipLeft:0.000000,0.000000,0.000000,0.000000 HandTipRight:0.000000,0.000000,0.000000,0.000000 Head:0.000000,0.000000,0.000000,0.000000 HipLeft:0.101403,-0.690282,0.702479,-0.140542 HipRight:-0.133595,0.668073,0.709052,-0.181867 KneeLeft:0.021262,-0.686459,0.048466,0.725240 KneeRight:-0.006485,0.726681,0.040263,0.685763 Neck:-0.000454,-0.018342,0.997041,-0.074644 ShoulderLeft:0.011816,0.778919,-0.624401,0.057170 ShoulderRight:0.011864,0.767087,0.638792,-0.058154 SpineBase:-0.028310,-0.015236,0.998812,-0.036615 SpineMid:-0.014705,-0.015733,0.999105,-0.036404 SpineShoulder:-0.000694,-0.016923,0.998391,-0.054121 ThumbLeft:0.000000,0.000000,0.000000,0.000000 ThumbRight:0.000000,0.000000,0.000000,0.000000 WristLeft:0.115641,0.227832,-0.462220,0.849160 WristRight:-0.087488,0.844768,-0.002883,0.527924 END:
KINECT_DATA POSITION:9.916199,-1.330117,-8.179701 HEAD_JOINT1:0.984905,0.172403,-0.000000,0.015466 LARM_JOINT2:0.882357,0.000000,-0.271620,-0.384276 LARM_JOINT3:0.973044,0.000000,-0.226283,0.044514 LLEG_JOINT2:0.998047,0.017821,0.000000,0.059878 LLEG_JOINT4:0.994515,0.102087,0.000000,-0.022747 RARM_JOINT2:0.818129,0.000000,-0.055272,0.572372 RARM_JOINT3:0.973827,0.000000,0.160425,0.161008 RLEG_JOINT2:0.999489,0.022717,0.000000,-0.022471 RLEG_JOINT4:0.992740,0.108838,0.000000,0.051194 WAIST:0.999624,0.000000,0.025861,-0.009072 WAIST_JOINT0:0.999986,0.000000,-0.000437,-0.005323 WAIST_JOINT1:0.998268,0.058619,0.000000,-0.005066 END:
KINECT_DATA_Sensor  AnkleLeft:0.076272,0.738533,-0.096611,-0.662885 AnkleRight:0.106426,0.727571,0.079802,0.673013 ElbowLeft:0.344771,-0.699192,0.092336,0.619466 ElbowRight:0.003588,0.887196,0.212693,0.409429 FootLeft:0.000000,0.000000,0.000000,0.000000 FootRight:0.000000,0.000000,0.000000,0.000000 HandLeft:0.107687,0.142296,-0.446325,0.876898 HandRight:-0.016852,0.665198,-0.045562,0.745085 HandTipLeft:0.000000,0.000000,0.000000,0.000000 HandTipRight:0.000000,0.000000,0.000000,0.000000 Head:0.000000,0.000000,0.000000,0.000000 HipLeft:0.104172,-0.690081,0.702082,-0.141486 HipRight:-0.133280,0.668743,0.708933,-0.180092 KneeLeft:0.021861,-0.688350,0.049307,0.723370 KneeRight:-0.007039,0.724912,0.038361,0.687737 Neck:0.002049,-0.018018,0.997131,-0.073491 ShoulderLeft:0.007179,0.779644,-0.623306,0.059952 ShoulderRight:0.010464,0.767739,0.638121,-0.057182 SpineBase:-0.025710,-0.015275,0.998928,-0.035332 SpineMid:-0.012168,-0.015753,0.999185,-0.035122 SpineShoulder:0.001785,-0.016961,0.998448,-0.053024 ThumbLeft:0.000000,0.000000,0.000000,0.000000 ThumbRight:0.000000,0.000000,0.000000,0.000000 WristLeft:0.150800,0.159707,-0.455587,0.862667 WristRight:-0.083580,0.657000,-0.027813,0.748727 END:
KINECT_DATA POSITION:9.874683,-1.284834,-8.223534 HEAD_JOINT1:0.985381,0.168755,-0.000000,0.023387 LARM_JOINT2:0.883270,0.000000,-0.278368,-0.377287 LARM_JOINT3:0.961721,0.000000,-0.266569,0.063510 LLEG_JOINT2:0.998105,0.018095,0.000000,0.058808 LLEG_JOINT4:0.994209,0.104903,0.000000,-0.023342 RARM_JOINT2:0.817866,0.000000,-0.057545,0.572524 RARM_JOINT3:0.974069,0.000000,0.159917,0.160049 RLEG_JOINT2:0.999470,0.022788,0.000000,-0.023249 RLEG_JOINT4:0.992910,0.107729,0.000000,0.050232 WAIST:0.999638,0.000000,0.025695,-0.008029 WAIST_JOINT0:0.999986,0.000000,-0.003392,-0.003989 WAIST_JOINT1:0.998526,0.054133,0.000000,-0.003945 END:
KINECT_DATA_Sensor  AnkleLeft:0.074648,0.708390,-0.101412,-0.694498 AnkleRight:0.104592,0.722565,0.080313,0.678609 ElbowLeft:0.358545,-0.686047,0.082963,0.627616 ElbowRight:0.001744,0.885963,0.209275,0.413849 FootLeft:0.000000,0.000000,0.000000,0.000000 FootRight:0.000000,0.000000,0.000000,0.000000 HandLeft:0.083559,0.128324,-0.501644,0.851413 HandRight:-0.018685,0.708073,-0.049136,0.704180 HandTipLeft:0.000000,0.000000,0.000000,0.000000 HandTipRight:0.000000,0.000000,0.000000,0.000000 Head:0.000000,0.000000,0.000000,0.000000 HipLeft:0.106130,-0.689656,0.702478,-0.140127 HipRight:-0.135613,0.669966,0.707819,-0.178177 KneeLeft:0.021669,-0.688486,0.049453,0.723237 KneeRight:-0.006813,0.724804,0.038212,0.687861 Neck:0.004963,-0.015449,0.997513,-0.068592 ShoulderLeft:0.000956,0.780342,-0.622451,0.060166 ShoulderRight:0.007897,0.770444,0.635262,-0.052876 SpineBase:-0.025579,-0.013773,0.999052,-0.032406 SpineMid:-0.010639,-0.014256,0.999323,-0.032197 SpineShoulder:0.004723,-0.014813,0.998690,-0.048744 ThumbLeft:0.000000,0.000000,0.000000,0.000000 ThumbRight:0.000000,0.000000,0.000000,0.000000 WristLeft:0.136846,0.157364,-0.500762,0.840088 WristRight:-0.086488,0.697293,-0.025056,0.711107 END:
KINECT_DATA POSITION:9.718042,-1.221199,-8.323133 HEAD_JOINT1:0.985736,0.163821,-0.000000,0.038568 LARM_JOINT2:0.885322,0.000000,-0.352974,-0.302678 LARM_JOINT3:0.970754,0.000000,-0.227839,0.075672 LLEG_JOINT2:0.998162,0.017888,0.000000,0.057902 LLEG_JOINT4:0.994435,0.102697,0.000000,-0.023498 RARM_JOINT2:0.815368,0.000000,-0.059659,0.575861 RARM_JOINT3:0.973901,0.000000,0.162703,0.158256 RLEG_JOINT2:0.999397,0.025019,0.000000,-0.024081 RLEG_JOINT4:0.993521,0.103240,0.000000,0.047514 WAIST:0.999673,0.000000,0.025064,-0.005081 WAIST_JOINT0:0.999929,0.000000,-0.011840,0.001183 WAIST_JOINT1:0.998874,0.047253,0.000000,-0.004168 END:
KINECT_DATA_Sensor  AnkleLeft:0.072091,0.713141,-0.100787,-0.689982 AnkleRight:0.100272,0.703033,0.081906,0.699272 ElbowLeft:0.441012,-0.695682,0.062991,0.563530 ElbowRight:-0.001046,0.883597,0.200746,0.423032 FootLeft:0.000000,0.000000,0.000000,0.000000 FootRight:0.000000,0.000000,0.000000,0.000000 HandLeft:0.173645,0.037579,-0.540880,0.822122 HandRight:-0.038652,0.866249,-0.054988,0.495071 HandTipLeft:0.000000,0.000000,0.000000,0.000000 HandTipRight:0.000000,0.000000,0.000000,0.000000 Head:0.000000,0.000000,0.000000,0.000000 HipLeft:0.110840,-0.688222,0.703741,-0.137160 HipRight:-0.140713,0.673052,0.704970,-0.173836 KneeLeft:0.023306,-0.688859,0.050719,0.722743 KneeRight:-0.003775,0.724405,0.038316,0.688299 Neck:0.013402,-0.012944,0.997919,-0.061736 ShoulderLeft:-0.016119,0.781577,-0.620011,0.066815 ShoulderRight:0.001624,0.778354,0.626143,-0.045917 SpineBase:-0.025044,-0.010429,0.999299,-0.025780 SpineMid:-0.006116,-0.010915,0.999595,-0.025578 SpineShoulder:0.013245,-0.011980,0.998964,-0.041851 ThumbLeft:0.000000,0.000000,0.000000,0.000000 ThumbRight:0.000000,0.000000,0.000000,0.000000 WristLeft:0.186460,0.046129,-0.539811,0.819579 WristRight:-0.093882,0.863878,-0.007508,0.494818 END:
KINECT_DATA POSITION:9.518888,-1.151069,-8.466757 HEAD_JOINT1:0.985686,0.160397,-0.000000,0.051929 LARM_JOINT2:0.887548,0.000000,-0.380664,-0.259527 LARM_JOINT3:0.975866,0.000000,-0.206896,0.069859 LLEG_JOINT2:0.998168,0.018260,0.000000,0.057678 LLEG_JOINT4:0.994502,0.102423,0.000000,-0.021824 RARM_JOINT2:0.811893,0.000000,-0.057248,0.580992 RARM_JOINT3:0.975107,0.000000,0.158243,0.155323 RLEG_JOINT2:0.999437,0.023385,0.000000,-0.024062 RLEG_JOINT4:0.993051,0.108003,0.000000,0.046746 WAIST:0.999768,0.000000,0.021308,-0.003090 WAIST_JOINT0:0.999761,0.000000,-0.021695,0.002590 WAIST_JOINT1:0.998835,0.047838,0.000000,-0.006326 END:
KINECT_DATA_Sensor  AnkleLeft:0.069929,0.718507,-0.103355,-0.684233 AnkleRight:0.107023,0.729550,0.078452,0.670931 ElbowLeft:0.478508,-0.700450,0.063578,0.525697 ElbowRight:-0.000278,0.880269,0.194903,0.432597 FootLeft:0.000000,0.000000,0.000000,0.000000 FootRight:0.000000,0.000000,0.000000,0.000000 HandLeft:0.150854,0.072435,-0.567643,0.806088 HandRight:-0.005334,0.688790,-0.052976,0.723003 HandTipLeft:0.000000,0.000000,0.000000,0.000000 HandTipRight:0.000000,0.000000,0.000000,0.000000 Head:0.000000,0.000000,0.000000,0.000000 HipLeft:0.113304,-0.686742,0.704460,-0.138864 HipRight:-0.138558,0.675097,0.703962,-0.171706 KneeLeft:0.024492,-0.691472,0.052121,0.720105 KneeRight:-0.003356,0.721908,0.035718,0.691059 Neck:0.023406,-0.013452,0.997689,-0.062357 ShoulderLeft:-0.022702,0.781073,-0.619494,0.075078 ShoulderRight:0.007981,0.779420,0.625270,-0.038451 SpineBase:-0.021385,-0.010036,0.999398,-0.025411 SpineMid:0.000711,-0.010595,0.999627,-0.025183 SpineShoulder:0.023272,-0.012247,0.998759,-0.042285 ThumbLeft:0.000000,0.000000,0.000000,0.000000 ThumbRight:0.000000,0.000000,0.000000,0.000000 WristLeft:0.163486,0.082420,-0.562442,0.806312 WristRight:-0.087067,0.677822,-0.037106,0.729109 END:
KINECT_DATA POSITION:9.377659,-1.089136,-8.557213 HEAD_JOINT1:0.985838,0.157840,-0.000000,0.056662 LARM_JOINT2:0.889279,0.000000,-0.399458,-0.222748 LARM_JOINT3:0.980542,0.000000,-0.187505,0.058128 LLEG_JOINT2:0.998211,0.018391,0.000000,0.056885 LLEG_JOINT4:0.994552,0.101184,0.000000,-0.025069 RARM_JOINT2:0.811277,0.000000,-0.057458,0.581832 RARM_JOINT3:0.974967,0.000000,0.165004,0.149038 RLEG_JOINT2:0.999428,0.022580,0.000000,-0.025193 RLEG_JOINT4:0.993252,0.106350,0.000000,0.046262 WAIST:0.999844,0.000000,0.017643,-0.001047 WAIST_JOINT0:0.999562,0.000000,-0.029218,0.004634 WAIST_JOINT1:0.998770,0.049137,0.000000,-0.006692 END:
KINECT_DATA_Sensor  AnkleLeft:0.070181,0.722353,-0.101205,-0.680469 AnkleRight:0.105497,0.724561,0.076478,0.676781 ElbowLeft:0.509130,-0.699516,0.065618,0.497150 ElbowRight:0.001737,0.876433,0.193211,0.441058 FootLeft:0.000000,0.000000,0.000000,0.000000 FootRight:0.000000,0.000000,0.000000,0.000000 HandLeft:0.210676,-0.012525,-0.549079,0.808685 HandRight:-0.050317,0.903212,-0.044462,0.423909 HandTipLeft:0.000000,0.000000,0.000000,0.000000 HandTipRight:0.000000,0.000000,0.000000,0.000000 Head:0.000000,0.000000,0.000000,0.000000 HipLeft:0.115000,-0.684886,0.705473,-0.141471 HipRight:-0.136190,0.676918,0.703092,-0.169992 KneeLeft:0.025487,-0.694011,0.052985,0.717560 KneeRight:-0.003162,0.719455,0.034484,0.693675 Neck:0.030855,-0.011829,0.997402,-0.064004 ShoulderLeft:-0.028986,0.778743,-0.621079,0.083551 ShoulderRight:0.011330,0.780485,0.624085,-0.035095 SpineBase:-0.017797,-0.008672,0.999466,-0.026014 SpineMid:0.006234,-0.009295,0.999605,-0.025798 SpineShoulder:0.030759,-0.010687,0.998521,-0.043547 ThumbLeft:0.000000,0.000000,0.000000,0.000000 ThumbRight:0.000000,0.000000,0.000000,0.000000 WristLeft:0.228959,-0.001565,-0.554464,0.800090 WristRight:-0.094188,0.900658,-0.001217,0.424196 END:
KINECT_DATA POSITION:9.311432,-1.050714,-8.554995 HEAD_JOINT1:0.986153,0.154376,-0.000000,0.060583 LARM_JOINT2:0.889164,0.000000,-0.407372,-0.208411 LARM_JOINT3:0.981136,0.000000,-0.187728,0.046167 LLEG_JOINT2:0.998243,0.018270,0.000000,0.056365 LLEG_JOINT4:0.994550,0.101309,0.000000,-0.024618 RARM_JOINT2:0.811662,0.000000,-0.056225,0.581415 RARM_JOINT3:0.974386,0.000000,0.168714,0.148686 RLEG_JOINT2:0.999427,0.021595,0.000000,-0.026048 RLEG_JOINT4:0.993129,0.107746,0.000000,0.045665 WAIST:0.999863,-0.000000,0.016532,0.000151 WAIST_JOINT0:0.999363,0.000000,-0.035114,0.006315 WAIST_JOINT1:0.998656,0.051424,0.000000,-0.006446 END:
KINECT_DATA_Sensor  AnkleLeft:0.069681,0.725447,-0.101868,-0.677122 AnkleRight:0.101872,0.690443,0.081811,0.711490 ElbowLeft:-0.519268,0.704511,-0.072032,-0.478369 ElbowRight:0.003246,0.875814,0.193115,0.442319 FootLeft:0.000000,0.000000,0.000000,0.000000 FootRight:0.000000,0.000000,0.000000,0.000000 HandLeft:0.163630,0.023431,-0.558377,0.812952 HandRight:-0.058486,0.891784,-0.050260,0.445841 HandTipLeft:0.000000,0.000000,0.000000,0.000000 HandTipRight:0.000000,0.000000,0.000000,0.000000 Head:0.000000,0.000000,0.000000,0.000000 HipLeft:0.114896,-0.683656,0.706303,-0.143354 HipRight:-0.135243,0.677600,0.702540,-0.170310 KneeLeft:0.026120,-0.694741,0.053343,0.716803 KneeRight:-0.003577,0.718742,0.033527,0.694459 Neck:0.036727,-0.010872,0.997045,-0.066587 ShoulderLeft:-0.033045,0.777595,-0.621275,0.090952 ShoulderRight:0.014884,0.781871,0.622383,-0.033094 SpineBase:-0.016724,-0.007405,0.999460,-0.027316 SpineMid:0.009712,-0.008125,0.999552,-0.027111 SpineShoulder:0.036679,-0.009543,0.998232,-0.045781 ThumbLeft:0.000000,0.000000,0.000000,0.000000 ThumbRight:0.000000,0.000000,0.000000,0.000000 WristLeft:0.196560,0.042584,-0.569432,0.797056 WristRight:-0.093287,0.889745,-0.004140,0.446805 END:
KINECT_DATA POSITION:9.163462,-0.974552,-8.471704 HEAD_JOINT1:0.986124,0.151677,-0.000000,0.067483 LARM_JOINT2:0.882683,0.000000,-0.425450,-0.199658 LARM_JOINT3:0.984291,0.000000,-0.171803,0.040684 LLEG_JOINT2:0.998388,0.018671,0.000000,0.053596 LLEG_JOINT4:0.994663,0.100003,0.000000,-0.025381 RARM_JOINT2:0.811352,0.000000,-0.054795,0.581984 RARM_JOINT3:0.975116,0.000000,0.169699,0.142659 RLEG_JOINT2:0.999416,0.018994,0.000000,-0.028410 RLEG_JOINT4:0.992758,0.111663,0.000000,0.044301 WAIST:0.999913,-0.000000,0.012758,0.003388 WAIST_JOINT0:0.999171,0.000000,-0.039843,0.008404 WAIST_JOINT1:0.998403,0.056184,0.000000,-0.005886 END:
KINECT_DATA_Sensor  AnkleLeft:0.068763,0.727945,-0.101292,-0.674617 AnkleRight:0.102709,0.687875,0.082698,0.713750 ElbowLeft:-0.526341,0.714575,-0.065991,-0.456062 ElbowRight:0.007424,0.871152,0.191063,0.452255 FootLeft:0.000000,0.000000,0.000000,0.000000 FootRight:0.000000,0.000000,0.000000,0.000000 HandLeft:0.169407,0.008225,-0.550743,0.817261 HandRight:-0.057121,0.891907,-0.038649,0.446929 HandTipLeft:0.000000,0.000000,0.000000,0.000000 HandTipRight:0.000000,0.000000,0.000000,0.000000 Head:0.000000,0.000000,0.000000,0.000000 HipLeft:0.114286,-0.680168,0.708570,-0.149125 HipRight:-0.131697,0.679577,0.701215,-0.170673 KneeLeft:0.026389,-0.697326,0.053826,0.714242 KneeRight:-0.004669,0.716251,0.031040,0.697136 Neck:0.040473,-0.007367,0.996583,-0.071627 ShoulderLeft:-0.028969,0.773497,-0.625918,0.095341 ShoulderRight:0.023853,0.782440,0.621485,-0.031237 SpineBase:-0.013061,-0.003464,0.999415,-0.031419 SpineMid:0.013518,-0.004298,0.999409,-0.031316 SpineShoulder:0.040531,-0.005846,0.997871,-0.050760 ThumbLeft:0.000000,0.000000,0.000000,0.000000 ThumbRight:0.000000,0.000000,0.000000,0.000000 WristLeft:0.198681,0.023709,-0.566139,0.799656 WristRight:-0.091111,0.889639,-0.003455,0.447470 END:
KINECT_DATA POSITION:8.878151,-0.948381,-8.355260 HEAD_JOINT1:0.985509,0.152394,-0.000000,0.074485 LARM_JOINT2:0.885004,0.000000,-0.423622,-0.193163 LARM_JOINT3:0.983973,0.000000,-0.174739,0.035541 LLEG_JOINT2:0.998402,0.018769,0.000000,0.053310 LLEG_JOINT4:0.994394,0.102614,0.000000,-0.025521 RARM_JOINT2:0.810298,0.000000,-0.054864,0.583444 RARM_JOINT3:0.975412,0.000000,0.170366,0.139813 RLEG_JOINT2:0.999423,0.017005,0.000000,-0.029396 RLEG_JOINT4:0.992553,0.113152,0.000000,0.045113 WAIST:0.999949,-0.000000,0.008569,0.005329 WAIST_JOINT0:0.998726,0.000000,-0.049785,0.008233 WAIST_JOINT1:0.998194,0.059601,0.000000,-0.007561 END:
KINECT_DATA_Sensor  AnkleLeft:0.069762,0.732711,-0.104210,-0.668885 AnkleRight:0.107505,0.716228,0.076003,0.685335 ElbowLeft:-0.524839,0.735994,-0.094740,-0.416991 ElbowRight:0.011351,0.867612,0.190909,0.458992 FootLeft:0.000000,0.000000,0.000000,0.000000 FootRight:0.000000,0.000000,0.000000,0.000000 HandLeft:0.189088,-0.009235,-0.549016,0.814089 HandRight:-0.056952,0.875707,-0.037292,0.478020 HandTipLeft:0.000000,0.000000,0.000000,0.000000 HandTipRight:0.000000,0.000000,0.000000,0.000000 Head:0.000000,0.000000,0.000000,0.000000 HipLeft:0.114621,-0.677960,0.709632,-0.153799 HipRight:-0.127506,0.680937,0.700642,-0.170784 KneeLeft:0.027706,-0.700167,0.054958,0.711322 KneeRight:-0.005254,0.713428,0.028972,0.700109 Neck:0.050919,-0.007743,0.995843,-0.075129 ShoulderLeft:-0.036048,0.773526,-0.623535,0.107526 ShoulderRight:0.030417,0.782233,0.621648,-0.027222 SpineBase:-0.009006,-0.002373,0.999351,-0.034785 SpineMid:0.020792,-0.003409,0.999176,-0.034699 SpineShoulder:0.051030,-0.005857,0.997211,-0.054138 ThumbLeft:0.000000,0.000000,0.000000,0.000000 ThumbRight:0.000000,0.000000,0.000000,0.000000 WristLeft:0.200660,-0.003230,-0.556450,0.806280 WristRight:-0.088035,0.873651,-0.003901,0.478506 END:
KINECT_DATA POSITION:8.578282,-0.938302,-8.191061 HEAD_JOINT1:0.985206,0.153180,-0.000000,0.076840 LARM_JOINT2:0.885545,0.000000,-0.426654,-0.183782 LARM_JOINT3:0.987290,0.000000,-0.153441,0.041413 LLEG_JOINT2:0.998331,0.020552,0.000000,0.053974 LLEG_JOINT4:0.993671,0.107924,0.000000,-0.031161 RARM_JOINT2:0.812514,0.000000,-0.057213,0.580127 RARM_JOINT3:0.975940,0.000000,0.165082,0.142442 RLEG_JOINT2:0.999449,0.016077,0.000000,-0.029043 RLEG_JOINT4:0.992163,0.116405,0.000000,0.045407 WAIST:0.999968,-0.000000,0.004858,0.006411 WAIST_JOINT0:0.998472,0.000000,-0.054949,0.005832 WAIST_JOINT1:0.998012,0.062325,0.000000,-0.009404 END:
KINECT_DATA_Sensor  AnkleLeft:0.077278,0.734167,-0.106157,-0.666151 AnkleRight:0.106855,0.679354,0.081280,0.721425 ElbowLeft:-0.533323,0.719663,-0.073583,-0.438448 ElbowRight:0.014758,0.866919,0.197029,0.457618 FootLeft:0.000000,0.000000,0.000000,0.000000 FootRight:0.000000,0.000000,0.000000,0.000000 HandLeft:0.183671,0.047301,-0.547414,0.815086 HandRight:-0.037939,0.840074,-0.030556,0.540280 HandTipLeft:0.000000,0.000000,0.000000,0.000000 HandTipRight:0.000000,0.000000,0.000000,0.000000 Head:0.000000,0.000000,0.000000,0.000000 HipLeft:0.114928,-0.676557,0.710146,-0.157339 HipRight:-0.123359,0.681773,0.700592,-0.170703 KneeLeft:0.027855,-0.702716,0.057359,0.708608 KneeRight:-0.004769,0.710925,0.027333,0.702720 Neck:0.055886,-0.008757,0.995359,-0.077850 ShoulderLeft:-0.038205,0.773225,-0.622680,0.113721 ShoulderRight:0.034887,0.780651,0.623455,-0.025904 SpineBase:-0.005424,-0.002503,0.999275,-0.037602 SpineMid:0.025087,-0.003650,0.998975,-0.037508 SpineShoulder:0.056022,-0.006593,0.996789,-0.056824 ThumbLeft:0.000000,0.000000,0.000000,0.000000 ThumbRight:0.000000,0.000000,0.000000,0.000000 WristLeft:0.184098,0.040914,-0.572555,0.797881 WristRight:-0.084338,0.837694,-0.003181,0.539579 END:
KINECT_DATA POSITION:8.238304,-0.877682,-8.165812 HEAD_JOINT1:0.983420,0.159984,-0.000000,0.085384 LARM_JOINT2:0.891658,0.000000,-0.422710,-0.162056 LARM_JOINT3:0.991284,0.000000,-0.120011,0.054348 LLEG_JOINT2:0.998195,0.021160,0.000000,0.056198 LLEG_JOINT4:0.993670,0.108626,0.000000,-0.028649 RARM_JOINT2:0.808257,0.000000,-0.053381,0.586405 RARM_JOINT3:0.977229,0.000000,0.164401,0.134148 RLEG_JOINT2:0.999534,0.014234,0.000000,-0.027015 RLEG_JOINT4:0.991714,0.120911,0.000000,0.043407 WAIST:0.999980,-0.000000,0.000180,0.006303 WAIST_JOINT0:0.997859,0.000000,-0.065332,0.003014 WAIST_JOINT1:0.997529,0.069135,0.000000,-0.012497 END:
KINECT_DATA_Sensor  AnkleLeft:0.075145,0.739467,-0.110552,-0.659788 AnkleRight:0.108760,0.673545,0.083160,0.726356 ElbowLeft:-0.544473,0.705114,-0.069388,-0.448942 ElbowRight:0.019213,0.861968,0.195123,0.467513 FootLeft:0.000000,0.000000,0.000000,0.000000 FootRight:0.000000,0.000000,0.000000,0.000000 HandLeft:0.232517,0.079656,-0.553852,0.795511 HandRight:-0.041727,0.856877,-0.021152,0.513393 HandTipLeft:0.000000,0.000000,0.000000,0.000000 HandTipRight:0.000000,0.000000,0.000000,0.000000 Head:0.000000,0.000000,0.000000,0.000000 HipLeft:0.115474,-0.675610,0.709848,-0.162271 HipRight:-0.117194,0.681504,0.701647,-0.171784 KneeLeft:-0.029171,0.705853,-0.059173,-0.705280 KneeRight:-0.004562,0.707792,0.024714,0.705973 Neck:0.067069,-0.013436,0.994009,-0.085246 ShoulderLeft:-0.042629,0.773180,-0.619773,0.127504 ShoulderRight:0.045557,0.777083,0.627337,-0.022696 SpineBase:-0.000923,-0.005031,0.999099,-0.042124 SpineMid:0.032928,-0.006456,0.998557,-0.041930 SpineShoulder:0.067278,-0.010091,0.995683,-0.063152 ThumbLeft:0.000000,0.000000,0.000000,0.000000 ThumbRight:0.000000,0.000000,0.000000,0.000000 WristLeft:0.205012,0.056350,-0.570085,0.793598 WristRight:-0.079797,0.854821,0.005112,0.512726 END:
KINECT_DATA POSITION:7.990452,-0.833975,-8.028483 HEAD_JOINT1:0.981714,0.167668,-0.000000,0.090143 LARM_JOINT2:0.905073,0.000000,-0.402540,-0.137127 LARM_JOINT3:0.991800,0.000000,-0.110780,0.063724 LLEG_JOINT2:0.997983,0.023149,0.000000,0.059103 LLEG_JOINT4:0.994195,0.103448,0.000000,-0.029570 RARM_JOINT2:0.805768,0.000000,-0.053011,0.589854 RARM_JOINT3:0.976685,0.000000,0.168482,0.133040 RLEG_JOINT2:0.999576,0.012959,0.000000,-0.026060 RLEG_JOINT4:0.992001,0.117754,0.000000,0.045474 WAIST:0.999977,0.000000,-0.004145,0.005300 WAIST_JOINT0:0.997331,0.000000,-0.073011,0.000503 WAIST_JOINT1:0.996993,0.075951,0.000000,-0.015368 END:
KINECT_DATA_Sensor  AnkleLeft:0.071792,0.743667,-0.109419,-0.655616 AnkleRight:0.107452,0.669638,0.078281,0.730692 ElbowLeft:0.560362,-0.650541,0.041790,0.510925 ElbowRight:0.025220,0.858257,0.197802,0.472899 FootLeft:0.000000,0.000000,0.000000,0.000000 FootRight:0.000000,0.000000,0.000000,0.000000 HandLeft:0.238059,0.101696,-0.558215,0.788278 HandRight:-0.051529,0.864915,-0.027395,0.498513 HandTipLeft:0.000000,0.000000,0.000000,0.000000 HandTipRight:0.000000,0.000000,0.000000,0.000000 Head:0.000000,0.000000,0.000000,0.000000 HipLeft:0.114250,-0.674847,0.709256,-0.168776 HipRight:-0.110081,0.680238,0.703369,-0.174445 KneeLeft:-0.029360,0.708787,-0.061815,-0.702096 KneeRight:-0.005373,0.704896,0.023888,0.708888 Neck:0.074954,-0.017783,0.992827,-0.091434 ShoulderLeft:-0.043038,0.772081,-0.618922,0.137746 ShoulderRight:0.055991,0.773816,0.630584,-0.020937 SpineBase:0.003259,-0.007211,0.998769,-0.048961 SpineMid:0.038972,-0.008957,0.998014,-0.048672 SpineShoulder:0.075131,-0.014344,0.994621,-0.069844 ThumbLeft:0.000000,0.000000,0.000000,0.000000 ThumbRight:0.000000,0.000000,0.000000,0.000000 WristLeft:0.236014,0.091018,-0.582411,0.772535 WristRight:-0.074367,0.863502,0.011948,0.498690 END:
KINECT_DATA POSITION:7.816822,-0.803175,-7.626808 HEAD_JOINT1:0.980338,0.174366,-0.000000,0.092384 LARM_JOINT2:0.913341,0.000000,-0.388249,-0.122768 LARM_JOINT3:0.991892,0.000000,-0.113964,0.056230 LLEG_JOINT2:0.997784,0.024104,0.000000,0.062017 LLEG_JOINT4:0.993719,0.107827,0.000000,-0.029934 RARM_JOINT2:0.805089,0.000000,-0.053093,0.590773 RARM_JOINT3:0.975426,0.000000,0.173264,0.136101 RLEG_JOINT2:0.999617,0.015607,0.000000,-0.022832 RLEG_JOINT4:0.992337,0.115745,0.000000,0.043238 WAIST:0.999969,0.000000,-0.007019,0.003690 WAIST_JOINT0:0.997279,0.000000,-0.073693,-0.002028 WAIST_JOINT1:0.996613,0.080428,0.000000,-0.017134 END:
KINECT_DATA_Sensor  AnkleLeft:0.074633,0.743555,-0.113957,-0.654652 AnkleRight:0.107818,0.669208,0.078626,0.730995 ElbowLeft:0.564004,-0.659518,0.073775,0.491419 ElbowRight:0.030513,0.860595,0.201486,0.466743 FootLeft:0.000000,0.000000,0.000000,0.000000 FootRight:0.000000,0.000000,0.000000,0.000000 HandLeft:0.292168,0.047396,-0.527650,0.796227 HandRight:-0.075323,0.879611,-0.042640,0.467753 HandTipLeft:0.000000,0.000000,0.000000,0.000000 HandTipRight:0.000000,0.000000,0.000000,0.000000 Head:0.000000,0.000000,0.000000,0.000000 HipLeft:0.112546,-0.674842,0.708456,-0.173238 HipRight:-0.103877,0.678484,0.705379,-0.176946 KneeLeft:-0.029799,0.710682,-0.063328,-0.700024 KneeRight:-0.002274,0.703003,0.024611,0.710757 Neck:0.076145,-0.020890,0.992277,-0.095666 ShoulderLeft:-0.041452,0.770488,-0.620056,0.141988 ShoulderRight:0.059776,0.769355,0.635568,-0.023950 SpineBase:0.006022,-0.010230,0.998430,-0.054746 SpineMid:0.040920,-0.012138,0.997609,-0.054355 SpineShoulder:0.076252,-0.017702,0.994166,-0.074206 ThumbLeft:0.000000,0.000000,0.000000,0.000000 ThumbRight:0.000000,0.000000,0.000000,0.000000 WristLeft:0.286406,0.030609,-0.560823,0.776217 WristRight:-0.066547,0.879492,0.019131,0.470850 END:
KINECT_DATA POSITION:7.797480,-0.794954,-7.268786 HEAD_JOINT1:0.979771,0.179345,-0.000000,0.088794 LARM_JOINT2:0.918304,0.000000,-0.378006,-0.117600 LARM_JOINT3:0.992287,0.000000,-0.109749,0.057632 LLEG_JOINT2:0.997667,0.025373,0.000000,0.063371 LLEG_JOINT4:0.993757,0.107329,0.000000,-0.030466 RARM_JOINT2:0.806036,0.000000,-0.052560,0.589528 RARM_JOINT3:0.975797,0.000000,0.169116,0.138639 RLEG_JOINT2:0.999636,0.017128,0.000000,-0.020853 RLEG_JOINT4:0.992279,0.116642,0.000000,0.042164 WAIST:0.999969,0.000000,-0.007414,0.002474 WAIST_JOINT0:0.997412,0.000000,-0.071842,-0.002853 WAIST_JOINT1:0.996357,0.083586,0.000000,-0.016934 END:
KINECT_DATA_Sensor  AnkleLeft:0.075209,0.742614,-0.114333,-0.655589 AnkleRight:0.109414,0.670019,0.080341,0.729828 ElbowLeft:0.566525,-0.642598,0.069935,0.511103 ElbowRight:0.032564,0.861723,0.204865,0.463037 FootLeft:0.000000,0.000000,0.000000,0.000000 FootRight:0.000000,0.000000,0.000000,0.000000 HandLeft:0.314271,0.038598,-0.505080,0.802894 HandRight:-0.061111,0.883404,-0.042788,0.462635 HandTipLeft:0.000000,0.000000,0.000000,0.000000 HandTipRight:0.000000,0.000000,0.000000,0.000000 Head:0.000000,0.000000,0.000000,0.000000 HipLeft:0.110446,-0.675123,0.708033,-0.175213 HipRight:-0.100783,0.677127,0.706658,-0.178816 KneeLeft:-0.029036,0.710970,-0.064314,-0.699673 KneeRight:-0.000647,0.702759,0.025127,0.710984 Neck:0.074481,-0.021682,0.992073,-0.098859 ShoulderLeft:-0.039437,0.768584,-0.622133,0.143784 ShoulderRight:0.060061,0.766906,0.638299,-0.028654 SpineBase:0.006408,-0.011651,0.998214,-0.058247 SpineMid:0.040254,-0.013619,0.997422,-0.057818 SpineShoulder:0.074550,-0.018762,0.994039,-0.077315 ThumbLeft:0.000000,0.000000,0.000000,0.000000 ThumbRight:0.000000,0.000000,0.000000,0.000000 WristLeft:0.314823,0.019497,-0.551060,0.772554 WristRight:-0.062849,0.883076,0.024166,0.464374 END:
KINECT_DATA POSITION:7.818745,-0.818127,-6.820226 HEAD_JOINT1:0.978959,0.185626,-0.000000,0.084751 LARM_JOINT2:0.924221,0.000000,-0.364717,-0.113125 LARM_JOINT3:0.991706,0.000000,-0.113997,0.059356 LLEG_JOINT2:0.997504,0.027349,0.000000,0.065104 LLEG_JOINT4:0.993737,0.107248,0.000000,-0.031384 RARM_JOINT2:0.806756,0.000000,-0.050489,0.588724 RARM_JOINT3:0.975135,0.000000,0.169670,0.142563 RLEG_JOINT2:0.999656,0.018297,0.000000,-0.018779 RLEG_JOINT4:0.992181,0.117323,0.000000,0.042567 WAIST:0.999960,0.000000,-0.008925,0.000405 WAIST_JOINT0:0.997597,0.000000,-0.069181,-0.003821 WAIST_JOINT1:0.996266,0.084705,0.000000,-0.016687 END:
KINECT_DATA_Sensor  AnkleLeft:0.076840,0.741096,-0.115047,-0.656990 AnkleRight:0.111367,0.671152,0.080829,0.728436 ElbowLeft:0.566832,-0.641172,0.085563,0.510175 ElbowRight:0.032177,0.863271,0.206990,0.459219 FootLeft:0.000000,0.000000,0.000000,0.000000 FootRight:0.000000,0.000000,0.000000,0.000000 HandLeft:0.275620,0.120915,-0.531332,0.791896 HandRight:-0.056067,0.821111,-0.063711,0.564424 HandTipLeft:0.000000,0.000000,0.000000,0.000000 HandTipRight:0.000000,0.000000,0.000000,0.000000 Head:0.000000,0.000000,0.000000,0.000000 HipLeft:0.110466,-0.676134,0.706713,-0.176626 HipRight:-0.098291,0.675649,0.708401,-0.178898 KneeLeft:-0.027510,0.712172,-0.065442,-0.698407 KneeRight:0.000219,0.701644,0.025932,0.712056 Neck:0.071996,-0.022951,0.992122,-0.099923 ShoulderLeft:-0.038028,0.767820,-0.623251,0.143400 ShoulderRight:0.058522,0.765003,0.640545,-0.032380 SpineBase:0.008012,-0.013632,0.998086,-0.059783 SpineMid:0.039780,-0.015528,0.997325,-0.059319 SpineShoulder:0.072017,-0.020205,0.994109,-0.078445 ThumbLeft:0.000000,0.000000,0.000000,0.000000 ThumbRight:0.000000,0.000000,0.000000,0.000000 WristLeft:0.267237,0.095685,-0.578207,0.764922 WristRight:-0.064878,0.822340,0.018885,0.564970 END:
KINECT_DATA POSITION:7.942553,-0.847264,-6.598568 HEAD_JOINT1:0.979487,0.183709,-0.000000,0.082801 LARM_JOINT2:0.928400,0.000000,-0.355791,-0.107178 LARM_JOINT3:0.992079,0.000000,-0.110575,0.059608 LLEG_JOINT2:0.997506,0.027380,0.000000,0.065051 LLEG_JOINT4:0.993688,0.107971,0.000000,-0.030432 RARM_JOINT2:0.806949,0.000000,-0.048761,0.588605 RARM_JOINT3:0.975261,0.000000,0.167646,0.144087 RLEG_JOINT2:0.999615,0.020264,0.000000,-0.018964 RLEG_JOINT4:0.992035,0.117942,0.000000,0.044224 WAIST:0.999973,0.000000,-0.007321,-0.000284 WAIST_JOINT0:0.997760,0.000000,-0.066781,-0.003819 WAIST_JOINT1:0.996072,0.086948,0.000000,-0.016739 END:
KINECT_DATA_Sensor  AnkleLeft:0.077417,0.739869,-0.115600,-0.658207 AnkleRight:0.113600,0.672098,0.082272,0.727057 ElbowLeft:0.568577,-0.636058,0.096384,0.512699 ElbowRight:0.032565,0.864937,0.208240,0.455478 FootLeft:0.000000,0.000000,0.000000,0.000000 FootRight:0.000000,0.000000,0.000000,0.000000 HandLeft:0.309868,0.101490,-0.516230,0.791952 HandRight:-0.032347,0.691210,-0.071340,0.718396 HandTipLeft:0.000000,0.000000,0.000000,0.000000 HandTipRight:0.000000,0.000000,0.000000,0.000000 Head:0.000000,0.000000,0.000000,0.000000 HipLeft:0.108603,-0.676416,0.706659,-0.176918 HipRight:-0.097912,0.674475,0.708986,-0.181206 KneeLeft:-0.026864,0.711049,-0.064982,-0.699618 KneeRight:0.000966,0.702777,0.027931,0.710861 Neck:0.069437,-0.023804,0.992048,-0.102237 ShoulderLeft:-0.033387,0.767405,-0.624381,0.141856 ShoulderRight:0.059922,0.764260,0.641182,-0.034662 SpineBase:0.006411,-0.014588,0.997968,-0.061692 SpineMid:0.037686,-0.016515,0.997277,-0.061205 SpineShoulder:0.069432,-0.021130,0.994102,-0.080583 ThumbLeft:0.000000,0.000000,0.000000,0.000000 ThumbRight:0.000000,0.000000,0.000000,0.000000 WristLeft:0.299231,0.073854,-0.563463,0.766496 WristRight:-0.066640,0.685470,0.005775,0.725022 END:
KINECT_DATA POSITION:8.048958,-0.850661,-6.506515 HEAD_JOINT1:0.979981,0.181948,-0.000000,0.080822 LARM_JOINT2:0.934161,0.000000,-0.342631,-0.099740 LARM_JOINT3:0.992396,0.000000,-0.110353,0.054511 LLEG_JOINT2:0.997547,0.027324,0.000000,0.064440 LLEG_JOINT4:0.993495,0.109134,0.000000,-0.032507 RARM_JOINT2:0.807740,0.000000,-0.048362,0.587552 RARM_JOINT3:0.975062,0.000000,0.168745,0.144153 RLEG_JOINT2:0.999589,0.021124,0.000000,-0.019385 RLEG_JOINT4:0.992383,0.115588,0.000000,0.042608 WAIST:0.999985,0.000000,-0.005411,-0.000367 WAIST_JOINT0:0.997937,0.000000,-0.064067,-0.004064 WAIST_JOINT1:0.995961,0.088189,0.000000,-0.016850 END:
KINECT_DATA_Sensor  AnkleLeft:0.080250,0.738173,-0.114172,-0.660019 AnkleRight:0.117167,0.729736,0.073707,0.669570 ElbowLeft:0.569877,-0.636322,0.120692,0.505736 ElbowRight:0.032668,0.866417,0.209993,0.451838 FootLeft:0.000000,0.000000,0.000000,0.000000 FootRight:0.000000,0.000000,0.000000,0.000000 HandLeft:0.362421,0.041871,-0.483005,0.795992 HandRight:-0.056553,0.882937,-0.054061,0.462927 HandTipLeft:0.000000,0.000000,0.000000,0.000000 HandTipRight:0.000000,0.000000,0.000000,0.000000 Head:0.000000,0.000000,0.000000,0.000000 HipLeft:0.106943,-0.676525,0.706883,-0.176617 HipRight:-0.098244,0.673857,0.708993,-0.183287 KneeLeft:-0.026293,0.709683,-0.064504,-0.701069 KneeRight:0.001174,0.704163,0.028894,0.709449 Neck:0.066672,-0.024050,0.992107,-0.103446 ShoulderLeft:-0.030470,0.767676,-0.624526,0.140398 ShoulderRight:0.059232,0.764017,0.641379,-0.037447 SpineBase:0.004465,-0.015160,0.997895,-0.062903 SpineMid:0.035309,-0.017097,0.997280,-0.062404 SpineShoulder:0.066642,-0.021513,0.994187,-0.081787 ThumbLeft:0.000000,0.000000,0.000000,0.000000 ThumbRight:0.000000,0.000000,0.000000,0.000000 WristLeft:0.358379,0.019152,-0.525548,0.771360 WristRight:-0.061018,0.883211,0.027092,0.464199 END:
KINECT_DATA POSITION:8.152700,-0.860327,-6.430745 HEAD_JOINT1:0.980234,0.182839,-0.000000,0.075567 LARM_JOINT2:0.937174,0.000000,-0.335336,-0.096201 LARM_JOINT3:0.992267,0.000000,-0.112446,0.052558 LLEG_JOINT2:0.997609,0.027161,0.000000,0.063552 LLEG_JOINT4:0.993493,0.109037,0.000000,-0.032914 RARM_JOINT2:0.809287,0.000000,-0.046576,0.585564 RARM_JOINT3:0.974703,0.000000,0.169800,0.145331 RLEG_JOINT2:0.999573,0.021533,0.000000,-0.019772 RLEG_JOINT4:0.992270,0.116021,0.000000,0.044027 WAIST:0.999993,0.000000,-0.003713,-0.000605 WAIST_JOINT0:0.998153,0.000000,-0.060655,-0.003276 WAIST_JOINT1:0.995912,0.088869,0.000000,-0.016153 END:
KINECT_DATA_Sensor  AnkleLeft:0.081139,0.736391,-0.112830,-0.662128 AnkleRight:0.112002,0.675691,0.082959,0.723889 ElbowLeft:0.568694,-0.641041,0.140176,0.495989 ElbowRight:0.031516,0.868867,0.211454,0.446502 FootLeft:0.000000,0.000000,0.000000,0.000000 FootRight:0.000000,0.000000,0.000000,0.000000 HandLeft:0.381517,0.025864,-0.475761,0.792103 HandRight:-0.056060,0.851751,-0.056811,0.517832 HandTipLeft:0.000000,0.000000,0.000000,0.000000 HandTipRight:0.000000,0.000000,0.000000,0.000000 Head:0.000000,0.000000,0.000000,0.000000 HipLeft:0.105248,-0.676836,0.707009,-0.175940 HipRight:-0.098808,0.673441,0.709076,-0.184190 KneeLeft:-0.025499,0.708553,-0.063638,-0.702320 KneeRight:0.000975,0.705314,0.029628,0.708275 Neck:0.062954,-0.023581,0.992279,-0.104226 ShoulderLeft:-0.028272,0.766925,-0.625932,0.138694 ShoulderRight:0.056614,0.764491,0.640815,-0.041286 SpineBase:0.002830,-0.014793,0.997874,-0.063404 SpineMid:0.032643,-0.016681,0.997344,-0.062934 SpineShoulder:0.062924,-0.021066,0.994381,-0.082476 ThumbLeft:0.000000,0.000000,0.000000,0.000000 ThumbRight:0.000000,0.000000,0.000000,0.000000 WristLeft:0.375375,0.005011,-0.511187,0.773147 WristRight:-0.063521,0.852302,0.022047,0.518711 END:
KINECT_DATA POSITION:8.253839,-0.863311,-6.307697 HEAD_JOINT1:0.980112,0.184552,-0.000000,0.072951 LARM_JOINT2:0.940260,0.000000,-0.327695,-0.092339 LARM_JOINT3:0.992139,0.000000,-0.115482,0.048208 LLEG_JOINT2:0.997620,0.026680,0.000000,0.063580 LLEG_JOINT4:0.993596,0.108277,0.000000,-0.032296 RARM_JOINT2:0.809656,0.000000,-0.045575,0.585132 RARM_JOINT3:0.975493,0.000000,0.164278,0.146377 RLEG_JOINT2:0.999576,0.021114,0.000000,-0.020065 RLEG_JOINT4:0.992314,0.115831,0.000000,0.043545 WAIST:0.999994,0.000000,-0.003300,-0.001240 WAIST_JOINT0:0.998198,0.000000,-0.059885,-0.003752 WAIST_JOINT1:0.995809,0.090101,0.000000,-0.015717 END:
KINECT_DATA_Sensor  AnkleLeft:0.080231,0.736210,-0.112009,-0.662580 AnkleRight:0.110570,0.676321,0.083483,0.723460 ElbowLeft:0.568396,-0.640762,0.152650,0.492999 ElbowRight:0.031790,0.869720,0.212303,0.444415 FootLeft:0.000000,0.000000,0.000000,0.000000 FootRight:0.000000,0.000000,0.000000,0.000000 HandLeft:0.296244,0.155384,-0.528975,0.779924 HandRight:-0.037004,0.868055,-0.044866,0.493049 HandTipLeft:0.000000,0.000000,0.000000,0.000000 HandTipRight:0.000000,0.000000,0.000000,0.000000 Head:0.000000,0.000000,0.000000,0.000000 HipLeft:0.104258,-0.677119,0.706754,-0.176461 HipRight:-0.098056,0.672761,0.709591,-0.185089 KneeLeft:-0.025389,0.708263,-0.062878,-0.702684 KneeRight:0.000011,0.705612,0.029992,0.707964 Neck:0.062201,-0.023746,0.992193,-0.105453 ShoulderLeft:-0.026652,0.766080,-0.627008,0.138824 ShoulderRight:0.057375,0.763192,0.642200,-0.042717 SpineBase:0.002453,-0.015256,0.997790,-0.064628 SpineMid:0.032063,-0.017168,0.997277,-0.064147 SpineShoulder:0.062153,-0.021363,0.994322,-0.083691 ThumbLeft:0.000000,0.000000,0.000000,0.000000 ThumbRight:0.000000,0.000000,0.000000,0.000000 WristLeft:0.292679,0.136698,-0.562593,0.761014 WristRight:-0.062263,0.867965,0.024409,0.492102 END:
KINECT_DATA POSITION:8.320169,-0.856955,-6.214070 HEAD_JOINT1:0.979611,0.187316,-0.000000,0.072635 LARM_JOINT2:0.940856,0.000000,-0.326216,-0.091502 LARM_JOINT3:0.991161,0.000000,-0.124818,0.044945 LLEG_JOINT2:0.997620,0.027398,0.000000,0.063276 LLEG_JOINT4:0.993459,0.108801,0.000000,-0.034651 RARM_JOINT2:0.809048,0.000000,-0.044602,0.586048 RARM_JOINT3:0.976242,0.000000,0.160607,0.145454 RLEG_JOINT2:0.999571,0.020631,0.000000,-0.020781 RLEG_JOINT4:0.991772,0.119933,0.000000,0.044769 WAIST:0.999991,0.000000,-0.004026,-0.001457 WAIST_JOINT0:0.998150,0.000000,-0.060655,-0.004196 WAIST_JOINT1:0.995737,0.090877,0.000000,-0.015813 END:
KINECT_DATA_Sensor  AnkleLeft:0.081739,0.729100,-0.111679,-0.670269 AnkleRight:0.120316,0.735140,0.075712,0.662843 ElbowLeft:0.567807,-0.642099,0.155515,0.491038 ElbowRight:0.032409,0.869885,0.211589,0.444388 FootLeft:0.000000,0.000000,0.000000,0.000000 FootRight:0.000000,0.000000,0.000000,0.000000 HandLeft:0.335685,0.050580,-0.497416,0.798332 HandRight:-0.018331,0.742914,-0.044075,0.667683 HandTipLeft:0.000000,0.000000,0.000000,0.000000 HandTipRight:0.000000,0.000000,0.000000,0.000000 Head:0.000000,0.000000,0.000000,0.000000 HipLeft:0.104164,-0.677052,0.706635,-0.177252 HipRight:-0.096959,0.672615,0.709894,-0.185035 KneeLeft:-0.024558,0.708807,-0.063001,-0.702154 KneeRight:-0.000966,0.705122,0.030315,0.708437 Neck:0.062976,-0.024064,0.992051,-0.106252 ShoulderLeft:-0.025394,0.765668,-0.627514,0.139044 ShoulderRight:0.059707,0.762210,0.643212,-0.041820 SpineBase:0.003173,-0.015449,0.997736,-0.065375 SpineMid:0.032818,-0.017385,0.997201,-0.064887 SpineShoulder:0.062929,-0.021649,0.994203,-0.084454 ThumbLeft:0.000000,0.000000,0.000000,0.000000 ThumbRight:0.000000,0.000000,0.000000,0.000000 WristLeft:0.355312,0.048565,-0.524681,0.772079 WristRight:-0.064940,0.743682,0.011677,0.665269 END:
KINECT_DATA POSITION:8.540129,-0.884361,-5.775177 HEAD_JOINT1:0.980001,0.183225,-0.000000,0.077632 LARM_JOINT2:0.943705,0.000000,-0.314405,-0.102811 LARM_JOINT3:0.984356,0.000000,-0.165644,0.060043 LLEG_JOINT2:0.997809,0.028168,0.000000,0.059865 LLEG_JOINT4:0.993424,0.109417,0.000000,-0.033706 RARM_JOINT2:0.808869,0.000000,-0.045876,0.586197 RARM_JOINT3:0.973778,0.000000,0.172577,0.148235 RLEG_JOINT2:0.999483,0.022378,0.000000,-0.023082 RLEG_JOINT4:0.991863,0.120049,0.000000,0.042391 WAIST:0.999998,0.000000,-0.002004,0.000796 WAIST_JOINT0:0.998326,0.000000,-0.057838,-0.000866 WAIST_JOINT1:0.996080,0.087156,0.000000,-0.015091 END:
KINECT_DATA_Sensor  AnkleLeft:0.084309,0.734608,-0.111412,-0.663950 AnkleRight:0.117505,0.716077,0.082586,0.683086 ElbowLeft:0.558336,-0.646439,0.173527,0.490169 ElbowRight:0.031080,0.871414,0.207631,0.443352 FootLeft:0.000000,0.000000,0.000000,0.000000 FootRight:0.000000,0.000000,0.000000,0.000000 HandLeft:0.197994,0.180021,-0.588053,0.763272 HandRight:-0.057945,0.825476,-0.076823,0.556175 HandTipLeft:0.000000,0.000000,0.000000,0.000000 HandTipRight:0.000000,0.000000,0.000000,0.000000 Head:0.000000,0.000000,0.000000,0.000000 HipLeft:0.106001,-0.676622,0.707789,-0.173152 HipRight:-0.102411,0.675008,0.707595,-0.182169 KneeLeft:-0.023045,0.707528,-0.062785,-0.703514 KneeRight:0.000177,0.706410,0.031584,0.707098 Neck:0.059999,-0.019425,0.992919,-0.100669 ShoulderLeft:-0.025114,0.765704,-0.628448,0.134606 ShoulderRight:0.055460,0.765685,0.639460,-0.041728 SpineBase:0.001168,-0.012232,0.998134,-0.059816 SpineMid:0.030303,-0.013973,0.997674,-0.059433 SpineShoulder:0.059799,-0.019086,0.994692,-0.081537 ThumbLeft:0.000000,0.000000,0.000000,0.000000 ThumbRight:0.000000,0.000000,0.000000,0.000000 WristLeft:0.228592,0.197159,-0.593539,0.746047 WristRight:-0.063911,0.827774,0.014151,0.557230 END:
KINECT_DATA POSITION:8.687651,-0.968233,-5.365050 HEAD_JOINT1:0.980740,0.178183,-0.000000,0.079999 LARM_JOINT2:0.951537,0.000000,-0.280913,-0.125164 LARM_JOINT3:0.958727,0.000000,-0.268334,0.094021 LLEG_JOINT2:0.997991,0.030819,0.000000,0.055350 LLEG_JOINT4:0.993104,0.112723,0.000000,-0.032216 RARM_JOINT2:0.808370,0.000000,-0.045986,0.586876 RARM_JOINT3:0.973271,0.000000,0.176068,0.147454 RLEG_JOINT2:0.999308,0.023909,0.000000,-0.028494 RLEG_JOINT4:0.991460,0.122813,0.000000,0.043857 WAIST:0.999959,-0.000000,0.007327,0.005269 WAIST_JOINT0:0.998950,0.000000,-0.045294,0.006919 WAIST_JOINT1:0.996627,0.081160,0.000000,-0.012156 END:
KINECT_DATA_Sensor  AnkleLeft:0.088831,0.727524,-0.115546,-0.670424 AnkleRight:0.115258,0.683831,0.092659,0.714496 ElbowLeft:0.535510,-0.645928,0.216641,0.499072 ElbowRight:0.026309,0.874137,0.198234,0.442602 FootLeft:0.000000,0.000000,0.000000,0.000000 FootRight:0.000000,0.000000,0.000000,0.000000 HandLeft:0.141483,0.130280,-0.656477,0.729416 HandRight:-0.054139,0.805362,-0.084402,0.584241 HandTipLeft:0.000000,0.000000,0.000000,0.000000 HandTipRight:0.000000,0.000000,0.000000,0.000000 Head:0.000000,0.000000,0.000000,0.000000 HipLeft:0.104084,-0.675616,0.710854,-0.165517 HipRight:-0.113018,0.677696,0.702827,-0.184363 KneeLeft:0.020546,-0.700945,0.064796,0.709968 KneeRight:0.000259,0.712999,0.033307,0.700374 Neck:0.046522,-0.011267,0.994441,-0.093784 ShoulderLeft:-0.014189,0.764592,-0.633654,0.116960 ShoulderRight:0.047787,0.771738,0.632617,-0.043976 SpineBase:-0.008314,-0.008215,0.998458,-0.054269 SpineMid:0.018779,-0.009684,0.998316,-0.054026 SpineShoulder:0.046319,-0.012088,0.995938,-0.076257 ThumbLeft:0.000000,0.000000,0.000000,0.000000 ThumbRight:0.000000,0.000000,0.000000,0.000000 WristLeft:0.187880,0.184190,-0.618969,0.740035 WristRight:-0.068585,0.807719,-0.003524,0.585555 END:
KINECT_DATA POSITION:8.723499,-0.969785,-5.362141 HEAD_JOINT1:0.979924,0.183731,-0.000000,0.077411 LARM_JOINT2:0.935993,0.000000,-0.332077,-0.116801 LARM_JOINT3:0.982325,0.000000,-0.178672,0.055805 LLEG_JOINT2:0.997979,0.030627,0.000000,0.055680 LLEG_JOINT4:0.993684,0.107547,0.000000,-0.032024 RARM_JOINT2:0.808370,0.000000,-0.044312,0.587005 RARM_JOINT3:0.976164,0.000000,0.162243,0.144158 RLEG_JOINT2:0.999307,0.024236,0.000000,-0.028259 RLEG_JOINT4:0.991401,0.123148,0.000000,0.044249 WAIST:0.999968,-0.000000,0.006551,0.004687 WAIST_JOINT0:0.998896,0.000000,-0.046576,0.006199 WAIST_JOINT1:0.996482,0.082754,0.000000,-0.013260 END:
KINECT_DATA_Sensor  AnkleLeft:0.084759,0.728845,-0.112078,-0.670104 AnkleRight:0.115810,0.683074,0.093030,0.715083 ElbowLeft:0.554968,-0.653065,0.162901,0.488856 ElbowRight:0.026553,0.875091,0.199663,0.440051 FootLeft:0.000000,0.000000,0.000000,0.000000 FootRight:0.000000,0.000000,0.000000,0.000000 HandLeft:0.311727,-0.000290,-0.508317,0.802770 HandRight:-0.023093,0.846528,-0.035730,0.530641 HandTipLeft:0.000000,0.000000,0.000000,0.000000 HandTipRight:0.000000,0.000000,0.000000,0.000000 Head:0.000000,0.000000,0.000000,0.000000 HipLeft:0.103445,-0.675716,0.710638,-0.166438 HipRight:-0.111390,0.677166,0.703548,-0.184547 KneeLeft:0.020554,-0.701498,0.064472,0.709451 KneeRight:0.000275,0.712453,0.033788,0.700906 Neck:0.047745,-0.014697,0.994007,-0.097236 ShoulderLeft:-0.018044,0.765481,-0.631697,0.121127 ShoulderRight:0.045888,0.772371,0.631847,-0.045893 SpineBase:-0.007527,-0.008720,0.998388,-0.055584 SpineMid:0.019881,-0.010243,0.998218,-0.055323 SpineShoulder:0.047719,-0.013310,0.995790,-0.077124 ThumbLeft:0.000000,0.000000,0.000000,0.000000 ThumbRight:0.000000,0.000000,0.000000,0.000000 WristLeft:0.338130,0.001007,-0.543323,0.768419 WristRight:-0.067850,0.845424,0.002676,0.529762 END:
KINECT_DATA POSITION:8.738909,-0.948560,-5.410135 HEAD_JOINT1:0.979244,0.187313,-0.000000,0.077424 LARM_JOINT2:0.928798,0.000000,-0.349423,-0.123441 LARM_JOINT3:0.991099,0.000000,-0.128403,0.035147 LLEG_JOINT2:0.997791,0.030717,0.000000,0.058895 LLEG_JOINT4:0.994007,0.103909,0.000000,-0.033958 RARM_JOINT2:0.807020,0.000000,-0.045468,0.588771 RARM_JOINT3:0.977863,0.000000,0.155744,0.139745 RLEG_JOINT2:0.999440,0.021181,0.000000,-0.025921 RLEG_JOINT4:0.991197,0.123419,0.000000,0.047915 WAIST:0.999998,-0.000000,0.001057,0.001510 WAIST_JOINT0:0.998220,0.000000,-0.059633,0.000184 WAIST_JOINT1:0.995957,0.088035,0.000000,-0.017856 END:
KINECT_DATA_Sensor  AnkleLeft:0.083203,0.735769,-0.108493,-0.663288 AnkleRight:0.121875,0.723441,0.080895,0.674712 ElbowLeft:0.549279,-0.658878,0.129467,0.497405 ElbowRight:0.030141,0.870230,0.207170,0.445950 FootLeft:0.000000,0.000000,0.000000,0.000000 FootRight:0.000000,0.000000,0.000000,0.000000 HandLeft:0.311982,0.022009,-0.454173,0.834212 HandRight:-0.013203,0.888951,-0.012864,0.457631 HandTipLeft:0.000000,0.000000,0.000000,0.000000 HandTipRight:0.000000,0.000000,0.000000,0.000000 Head:0.000000,0.000000,0.000000,0.000000 HipLeft:0.104041,-0.676107,0.709418,-0.169649 HipRight:-0.103825,0.674540,0.707788,-0.182354 KneeLeft:-0.020857,0.705427,-0.064473,-0.705536 KneeRight:-0.002269,0.708641,0.032239,0.704829 Neck:0.061324,-0.024231,0.992459,-0.103333 ShoulderLeft:-0.029460,0.766500,-0.626587,0.137832 ShoulderRight:0.053328,0.768318,0.636460,-0.041984 SpineBase:-0.001971,-0.012554,0.998185,-0.058859 SpineMid:0.029521,-0.014405,0.997751,-0.058434 SpineShoulder:0.061336,-0.021195,0.994561,-0.081467 ThumbLeft:0.000000,0.000000,0.000000,0.000000 ThumbRight:0.000000,0.000000,0.000000,0.000000 WristLeft:0.340341,0.009926,-0.516166,0.785902 WristRight:-0.062849,0.887706,0.022250,0.455558 END:
KINECT_DATA POSITION:8.727161,-0.947304,-5.422175 HEAD_JOINT1:0.979200,0.187022,-0.000000,0.078672 LARM_JOINT2:0.935330,0.000000,-0.327867,-0.132894 LARM_JOINT3:0.982749,0.000000,-0.171756,0.068582 LLEG_JOINT2:0.997732,0.029557,0.000000,0.060477 LLEG_JOINT4:0.993628,0.107620,0.000000,-0.033490 RARM_JOINT2:0.807259,0.000000,-0.047888,0.588252 RARM_JOINT3:0.975690,0.000000,0.167096,0.141804 RLEG_JOINT2:0.999503,0.019893,0.000000,-0.024435 RLEG_JOINT4:0.991112,0.125019,0.000000,0.045459 WAIST:1.000000,-0.000000,0.000224,0.000198 WAIST_JOINT0:0.998278,0.000000,-0.058644,-0.001311 WAIST_JOINT1:0.995930,0.088387,0.000000,-0.017667 END:
KINECT_DATA_Sensor  AnkleLeft:0.084400,0.735105,-0.110894,-0.663475 AnkleRight:0.114883,0.676525,0.090504,0.721751 ElbowLeft:0.536567,-0.660742,0.150935,0.502727 ElbowRight:0.031534,0.869016,0.209587,0.447090 FootLeft:0.000000,0.000000,0.000000,0.000000 FootRight:0.000000,0.000000,0.000000,0.000000 HandLeft:0.405077,-0.138761,-0.456982,0.779632 HandRight:-0.048250,0.840970,-0.043023,0.537206 HandTipLeft:0.000000,0.000000,0.000000,0.000000 HandTipRight:0.000000,0.000000,0.000000,0.000000 Head:0.000000,0.000000,0.000000,0.000000 HipLeft:0.103961,-0.676848,0.708442,-0.170820 HipRight:-0.102193,0.673628,0.708788,-0.182763 KneeLeft:-0.021927,0.706018,-0.063829,-0.704970 KneeRight:-0.003030,0.708036,0.031209,0.705479 Neck:0.060477,-0.025008,0.992458,-0.103652 ShoulderLeft:-0.027244,0.767745,-0.625495,0.136313 ShoulderRight:0.054376,0.767301,0.637597,-0.041992 SpineBase:-0.001044,-0.013865,0.998095,-0.060108 SpineMid:0.029531,-0.015699,0.997659,-0.059655 SpineShoulder:0.060451,-0.022142,0.994566,-0.081816 ThumbLeft:0.000000,0.000000,0.000000,0.000000 ThumbRight:0.000000,0.000000,0.000000,0.000000 WristLeft:0.418200,-0.130511,-0.458077,0.773460 WristRight:-0.063745,0.840741,0.019196,0.537330 END:
KINECT_DATA POSITION:8.780865,-0.990692,-5.349541 HEAD_JOINT1:0.979551,0.188367,-0.000000,0.070699 LARM_JOINT2:0.947886,0.000000,-0.292425,-0.126488 LARM_JOINT3:0.968565,0.000000,-0.229807,0.095239 LLEG_JOINT2:0.997925,0.028261,0.000000,0.057856 LLEG_JOINT4:0.993030,0.112910,0.000000,-0.033789 RARM_JOINT2:0.811298,0.000000,-0.035263,0.583568 RARM_JOINT3:0.972926,0.000000,0.178265,0.147091 RLEG_JOINT2:0.999410,0.022130,0.000000,-0.026273 RLEG_JOINT4:0.991378,0.122734,0.000000,0.045889 WAIST:0.999970,-0.000000,0.007397,0.002057 WAIST_JOINT0:0.999186,0.000000,-0.039838,0.006269 WAIST_JOINT1:0.996121,0.086979,0.000000,-0.013329 END:
KINECT_DATA_Sensor  AnkleLeft:0.090394,0.738631,-0.110870,-0.658757 AnkleRight:0.115131,0.686697,0.090163,0.712083 ElbowLeft:0.535729,-0.643784,0.194869,0.510453 ElbowRight:0.021798,0.878608,0.204611,0.430937 FootLeft:0.000000,0.000000,0.000000,0.000000 FootRight:0.000000,0.000000,0.000000,0.000000 HandLeft:0.328192,-0.013551,-0.570146,0.753020 HandRight:-0.077899,0.860414,-0.077572,0.497596 HandTipLeft:0.000000,0.000000,0.000000,0.000000 HandTipRight:0.000000,0.000000,0.000000,0.000000 Head:0.000000,0.000000,0.000000,0.000000 HipLeft:0.100977,-0.676768,0.709490,-0.168559 HipRight:-0.108785,0.674129,0.705864,-0.188341 KneeLeft:0.021878,-0.700834,0.062516,0.710243 KneeRight:-0.001677,0.713088,0.032752,0.700308 Neck:0.041152,-0.016168,0.993814,-0.101874 ShoulderLeft:-0.009486,0.765150,-0.632916,0.117780 ShoulderRight:0.045967,0.770714,0.633330,-0.052732 SpineBase:-0.008312,-0.011805,0.998098,-0.059936 SpineMid:0.016080,-0.013266,0.998003,-0.059630 SpineShoulder:0.040921,-0.016130,0.995733,-0.081120 ThumbLeft:0.000000,0.000000,0.000000,0.000000 ThumbRight:0.000000,0.000000,0.000000,0.000000 WristLeft:0.337475,0.003762,-0.547139,0.765987 WristRight:-0.071083,0.862203,0.007339,0.501497 END:
KINECT_DATA POSITION:8.827826,-1.001560,-5.315638 HEAD_JOINT1:0.980178,0.187094,-0.000000,0.065166 LARM_JOINT2:0.942973,0.000000,-0.310145,-0.120884 LARM_JOINT3:0.978863,0.000000,-0.194019,0.064678 LLEG_JOINT2:0.997966,0.027413,0.000000,0.057547 LLEG_JOINT4:0.993026,0.111862,0.000000,-0.037239 RARM_JOINT2:0.812683,0.000000,-0.034421,0.581689 RARM_JOINT3:0.976069,0.000000,0.161553,0.145570 RLEG_JOINT2:0.999408,0.021763,0.000000,-0.026649 RLEG_JOINT4:0.991105,0.124932,0.000000,0.045851 WAIST:0.999955,-0.000000,0.009310,0.002047 WAIST_JOINT0:0.999298,0.000000,-0.036770,0.007128 WAIST_JOINT1:0.996176,0.086593,0.000000,-0.011580 END:
KINECT_DATA_Sensor  AnkleLeft:0.089285,0.723279,-0.108553,-0.676101 AnkleRight:0.115963,0.688251,0.091925,0.710220 ElbowLeft:0.545343,-0.644382,0.180296,0.504844 ElbowRight:0.020476,0.880123,0.204682,0.427865 FootLeft:0.000000,0.000000,0.000000,0.000000 FootRight:0.000000,0.000000,0.000000,0.000000 HandLeft:0.305657,0.033685,-0.517000,0.798843 HandRight:-0.024296,0.864703,-0.031257,0.500721 HandTipLeft:0.000000,0.000000,0.000000,0.000000 HandTipRight:0.000000,0.000000,0.000000,0.000000 Head:0.000000,0.000000,0.000000,0.000000 HipLeft:0.099302,-0.676974,0.709732,-0.167706 HipRight:-0.109988,0.673935,0.705672,-0.189052 KneeLeft:0.022144,-0.699501,0.061733,0.711616 KneeRight:-0.002278,0.714369,0.032757,0.698999 Neck:0.037920,-0.014669,0.993988,-0.101655 ShoulderLeft:-0.007679,0.764920,-0.633673,0.115309 ShoulderRight:0.043441,0.771472,0.632378,-0.055143 SpineBase:-0.010151,-0.010736,0.998086,-0.060053 SpineMid:0.013564,-0.012160,0.998045,-0.059781 SpineShoulder:0.037744,-0.014360,0.995912,-0.080793 ThumbLeft:0.000000,0.000000,0.000000,0.000000 ThumbRight:0.000000,0.000000,0.000000,0.000000 WristLeft:0.327410,0.031866,-0.551057,0.766892 WristRight:-0.071761,0.863250,0.006786,0.499604 END:
KINECT_DATA POSITION:8.905194,-0.984638,-5.366135 HEAD_JOINT1:0.981982,0.184696,-0.000000,0.039976 LARM_JOINT2:0.933510,0.000000,-0.336130,-0.124802 LARM_JOINT3:0.986217,0.000000,-0.157535,0.050586 LLEG_JOINT2:0.997954,0.026224,0.000000,0.058317 LLEG_JOINT4:0.993205,0.111855,0.000000,-0.032128 RARM_JOINT2:0.813617,0.000000,-0.041280,0.579934 RARM_JOINT3:0.975714,0.000000,0.158512,0.151181 RLEG_JOINT2:0.999439,0.021209,0.000000,-0.025923 RLEG_JOINT4:0.990949,0.125650,0.000000,0.047247 WAIST:0.999923,-0.000000,0.012381,0.000128 WAIST_JOINT0:0.999427,0.000000,-0.033628,0.003819 WAIST_JOINT1:0.996313,0.084775,0.000000,-0.013207 END:
KINECT_DATA_Sensor  AnkleLeft:0.086240,0.722199,-0.110412,-0.677348 AnkleRight:0.115918,0.689902,0.092316,0.708573 ElbowLeft:0.548558,-0.646246,0.147004,0.509745 ElbowRight:0.022708,0.883609,0.210898,0.417423 FootLeft:0.000000,0.000000,0.000000,0.000000 FootRight:0.000000,0.000000,0.000000,0.000000 HandLeft:0.293065,0.053471,-0.493388,0.817204 HandRight:-0.018909,0.836213,-0.036649,0.546852 HandTipLeft:0.000000,0.000000,0.000000,0.000000 HandTipRight:0.000000,0.000000,0.000000,0.000000 Head:0.000000,0.000000,0.000000,0.000000 HipLeft:0.097153,-0.679172,0.708672,-0.164528 HipRight:-0.111016,0.672583,0.706610,-0.189764 KneeLeft:0.021998,-0.697387,0.060163,0.713826 KneeRight:-0.003606,0.716434,0.033199,0.696855 Neck:0.035276,-0.019457,0.994209,-0.099625 ShoulderLeft:-0.011419,0.767214,-0.630939,0.114752 ShoulderRight:0.036558,0.769487,0.634886,-0.058932 SpineBase:-0.013079,-0.012614,0.998070,-0.059376 SpineMid:0.010847,-0.014033,0.998097,-0.059057 SpineShoulder:0.035164,-0.017723,0.996118,-0.078729 ThumbLeft:0.000000,0.000000,0.000000,0.000000 ThumbRight:0.000000,0.000000,0.000000,0.000000 WristLeft:0.322152,0.048092,-0.541987,0.774697 WristRight:-0.068232,0.835458,0.009065,0.545226 END:
KINECT_DATA POSITION:9.036086,-0.930046,-5.692732 HEAD_JOINT1:0.983191,0.182499,-0.000000,0.005416 LARM_JOINT2:0.924274,0.000000,-0.357229,-0.134552 LARM_JOINT3:0.991760,0.000000,-0.111406,0.063252 LLEG_JOINT2:0.997884,0.025022,0.000000,0.060016 LLEG_JOINT4:0.993512,0.111133,0.000000,-0.024163 RARM_JOINT2:0.821381,0.000000,-0.039812,0.568988 RARM_JOINT3:0.972945,0.000000,0.168126,0.158469 RLEG_JOINT2:0.999533,0.020432,0.000000,-0.022743 RLEG_JOINT4:0.990053,0.130012,0.000000,0.053780 WAIST:0.999727,0.000000,0.022897,-0.004678 WAIST_JOINT0:0.999821,0.000000,-0.018789,0.002208 WAIST_JOINT1:0.996581,0.082194,0.000000,-0.008393 END:
KINECT_DATA_Sensor  AnkleLeft:0.082768,0.715086,-0.112121,-0.685004 AnkleRight:0.122628,0.708221,0.090831,0.689300 ElbowLeft:0.551154,-0.623335,0.100988,0.545422 ElbowRight:0.014825,0.892580,0.220982,0.392744 FootLeft:0.000000,0.000000,0.000000,0.000000 FootRight:0.000000,0.000000,0.000000,0.000000 HandLeft:0.258115,0.237240,-0.523579,0.776504 HandRight:-0.059416,0.857562,-0.053319,0.508148 HandTipLeft:0.000000,0.000000,0.000000,0.000000 HandTipRight:0.000000,0.000000,0.000000,0.000000 Head:0.000000,0.000000,0.000000,0.000000 HipLeft:0.090929,-0.684662,0.705969,-0.156772 HipRight:-0.117439,0.668959,0.708159,-0.192908 KneeLeft:0.020003,-0.690257,0.057400,0.721006 KneeRight:-0.005603,0.723353,0.033796,0.689628 Neck:0.020221,-0.019412,0.994856,-0.097349 ShoulderLeft:-0.006469,0.768474,-0.631337,0.104018 ShoulderRight:0.021614,0.768447,0.635522,-0.071647 SpineBase:-0.023049,-0.013987,0.997994,-0.057284 SpineMid:-0.001739,-0.015207,0.998258,-0.056973 SpineShoulder:0.020014,-0.018094,0.996737,-0.076070 ThumbLeft:0.000000,0.000000,0.000000,0.000000 ThumbRight:0.000000,0.000000,0.000000,0.000000 WristLeft:0.230575,0.193926,-0.585358,0.752718 WristRight:-0.073229,0.857331,0.011641,0.509397 END:
