EastLYD/RoboCupatHomeSim/InteractiveCleanUp/JapanOpen2016/Motion_Data/File33.dat
KINECT_DATA POSITION:23.076307,-4.088019,-5.450845 HEAD_JOINT1:0.981075,0.167401,-0.000000,0.097310 LARM_JOINT2:0.822365,0.000000,-0.049064,-0.566841 LARM_JOINT3:0.977027,0.000000,-0.158496,-0.142471 LLEG_JOINT2:0.998848,0.025677,0.000000,0.040542 LLEG_JOINT4:0.995042,0.091711,0.000000,-0.038488 RARM_JOINT2:0.800851,0.000000,-0.044323,0.597222 RARM_JOINT3:0.967743,0.000000,0.205413,0.145872 RLEG_JOINT2:0.999625,0.005760,0.000000,-0.026763 RLEG_JOINT4:0.993834,0.105702,0.000000,0.033470 WAIST:0.999914,0.000000,-0.013101,-0.000945 WAIST_JOINT0:0.999380,0.000000,-0.033984,0.009151 WAIST_JOINT1:0.996607,0.081059,0.000000,-0.014248 END:
KINECT_DATA_Sensor  AnkleLeft:0.083074,0.724762,-0.082602,-0.678967 AnkleRight:0.086069,0.712237,0.070928,0.693022 ElbowLeft:-0.034216,0.909238,-0.164805,-0.380729 ElbowRight:0.024970,0.850257,0.193935,0.488701 FootLeft:0.000000,0.000000,0.000000,0.000000 FootRight:0.000000,0.000000,0.000000,0.000000 HandLeft:-0.104188,0.854653,0.001611,0.508635 HandRight:0.046313,-0.408241,-0.090695,0.907176 HandTipLeft:0.000000,0.000000,0.000000,0.000000 HandTipRight:0.000000,0.000000,0.000000,0.000000 Head:0.000000,0.000000,0.000000,0.000000 HipLeft:0.117958,-0.678082,0.702717,-0.180219 HipRight:-0.104353,0.676522,0.706552,-0.179480 KneeLeft:-0.010442,0.715740,-0.046018,-0.696771 KneeRight:-0.015184,0.698485,0.023879,0.715065 Neck:0.032419,-0.017308,0.994556,-0.097509 ShoulderLeft:0.008535,0.776771,-0.622657,0.094082 ShoulderRight:0.051882,0.785913,0.614811,-0.040688 SpineBase:0.012448,-0.012394,0.998277,-0.055994 SpineMid:0.022289,-0.012946,0.998105,-0.055869 SpineShoulder:0.032376,-0.015172,0.996497,-0.075599 ThumbLeft:0.000000,0.000000,0.000000,0.000000 ThumbRight:0.000000,0.000000,0.000000,0.000000 WristLeft:-0.087152,0.860037,-0.072429,0.497489 WristRight:0.014176,-0.410664,-0.097703,0.906426 END:
KINECT_DATA POSITION:23.072407,-4.121221,-5.399764 HEAD_JOINT1:0.981009,0.167395,-0.000000,0.097980 LARM_JOINT2:0.822430,0.000000,-0.049489,-0.566709 LARM_JOINT3:0.978425,0.000000,-0.150265,-0.141794 LLEG_JOINT2:0.998821,0.026355,0.000000,0.040769 LLEG_JOINT4:0.995044,0.091720,0.000000,-0.038400 RARM_JOINT2:0.800147,0.000000,-0.045140,0.598103 RARM_JOINT3:0.968650,0.000000,0.200410,0.146808 RLEG_JOINT2:0.999642,0.005608,0.000000,-0.026172 RLEG_JOINT4:0.993836,0.106224,0.000000,0.031731 WAIST:0.999907,0.000000,-0.013561,-0.001138 WAIST_JOINT0:0.999369,0.000000,-0.034431,0.008677 WAIST_JOINT1:0.996562,0.081497,0.000000,-0.014940 END:
KINECT_DATA_Sensor  AnkleLeft:0.082975,0.721245,-0.083662,-0.682585 AnkleRight:0.084895,0.706439,0.072799,0.698883 ElbowLeft:-0.033795,0.909818,-0.164150,-0.379662 ElbowRight:0.025154,0.847452,0.194318,0.493390 FootLeft:0.000000,0.000000,0.000000,0.000000 FootRight:0.000000,0.000000,0.000000,0.000000 HandLeft:-0.075941,0.859015,0.012697,0.506128 HandRight:-0.069308,0.756155,0.038710,-0.649559 HandTipLeft:0.000000,0.000000,0.000000,0.000000 HandTipRight:0.000000,0.000000,0.000000,0.000000 Head:0.000000,0.000000,0.000000,0.000000 HipLeft:0.118157,-0.678080,0.702592,-0.180584 HipRight:-0.103798,0.676347,0.706799,-0.179489 KneeLeft:-0.010015,0.716070,-0.046521,-0.696405 KneeRight:-0.015005,0.698185,0.023491,0.715375 Neck:0.032868,-0.018332,0.994477,-0.097977 ShoulderLeft:0.008953,0.776790,-0.622581,0.094398 ShoulderRight:0.052959,0.785239,0.615607,-0.040301 SpineBase:0.012900,-0.012817,0.998249,-0.056292 SpineMid:0.022754,-0.013372,0.998073,-0.056163 SpineShoulder:0.032833,-0.015963,0.996437,-0.076026 ThumbLeft:0.000000,0.000000,0.000000,0.000000 ThumbRight:0.000000,0.000000,0.000000,0.000000 WristLeft:-0.086396,0.861105,-0.071569,0.495894 WristRight:-0.052899,0.758851,0.083742,-0.643687 END:
KINECT_DATA POSITION:23.097706,-4.146344,-5.380273 HEAD_JOINT1:0.980728,0.168467,-0.000000,0.098948 LARM_JOINT2:0.822377,0.000000,-0.048857,-0.566841 LARM_JOINT3:0.978847,0.000000,-0.152413,-0.136487 LLEG_JOINT2:0.998835,0.026509,0.000000,0.040330 LLEG_JOINT4:0.995214,0.089519,0.000000,-0.039197 RARM_JOINT2:0.799741,0.000000,-0.045746,0.598600 RARM_JOINT3:0.968651,0.000000,0.200778,0.146301 RLEG_JOINT2:0.999640,0.006166,0.000000,-0.026129 RLEG_JOINT4:0.993784,0.106523,0.000000,0.032339 WAIST:0.999902,0.000000,-0.013943,-0.000952 WAIST_JOINT0:0.999363,0.000000,-0.034657,0.008471 WAIST_JOINT1:0.996560,0.081391,0.000000,-0.015589 END:
KINECT_DATA_Sensor  AnkleLeft:0.082189,0.721406,-0.081559,-0.682764 AnkleRight:0.086032,0.705252,0.072842,0.699937 ElbowLeft:-0.033396,0.909628,-0.163789,-0.380310 ElbowRight:0.025130,0.845891,0.194376,0.496039 FootLeft:0.000000,0.000000,0.000000,0.000000 FootRight:0.000000,0.000000,0.000000,0.000000 HandLeft:-0.080182,0.821714,-0.012946,0.564084 HandRight:0.036411,-0.248767,-0.071734,0.965217 HandTipLeft:0.000000,0.000000,0.000000,0.000000 HandTipRight:0.000000,0.000000,0.000000,0.000000 Head:0.000000,0.000000,0.000000,0.000000 HipLeft:0.118373,-0.677900,0.702718,-0.180630 HipRight:-0.103385,0.676470,0.706787,-0.179309 KneeLeft:-0.009745,0.716316,-0.046452,-0.696160 KneeRight:-0.014434,0.697947,0.023725,0.715610 Neck:0.033150,-0.018788,0.994475,-0.097813 ShoulderLeft:0.008748,0.776976,-0.622332,0.094522 ShoulderRight:0.053129,0.784963,0.615963,-0.040012 SpineBase:0.013246,-0.013082,0.998239,-0.056323 SpineMid:0.023070,-0.013636,0.998060,-0.056191 SpineShoulder:0.033111,-0.016377,0.996427,-0.075949 ThumbLeft:0.000000,0.000000,0.000000,0.000000 ThumbRight:0.000000,0.000000,0.000000,0.000000 WristLeft:-0.079490,0.823926,-0.077568,0.555707 WristRight:-0.006120,-0.250666,-0.099122,0.962966 END:
KINECT_DATA POSITION:23.108664,-4.170786,-5.355108 HEAD_JOINT1:0.980551,0.169050,-0.000000,0.099714 LARM_JOINT2:0.822448,0.000000,-0.048366,-0.566781 LARM_JOINT3:0.972328,0.000000,-0.175949,-0.153687 LLEG_JOINT2:0.998800,0.027123,0.000000,0.040774 LLEG_JOINT4:0.995095,0.091207,0.000000,-0.038310 RARM_JOINT2:0.799000,0.000000,-0.047079,0.599485 RARM_JOINT3:0.968341,0.000000,0.200821,0.148277 RLEG_JOINT2:0.999628,0.006688,0.000000,-0.026433 RLEG_JOINT4:0.993925,0.104875,0.000000,0.033375 WAIST:0.999902,0.000000,-0.014000,-0.000941 WAIST_JOINT0:0.999358,0.000000,-0.034848,0.008277 WAIST_JOINT1:0.996585,0.081037,0.000000,-0.015837 END:
KINECT_DATA_Sensor  AnkleLeft:0.082916,0.721542,-0.084079,-0.682226 AnkleRight:0.085411,0.702312,0.071888,0.703061 ElbowLeft:-0.033573,0.909022,-0.163657,-0.381796 ElbowRight:0.025451,0.843851,0.193974,0.499642 FootLeft:0.000000,0.000000,0.000000,0.000000 FootRight:0.000000,0.000000,0.000000,0.000000 HandLeft:-0.179662,0.683877,-0.025977,0.706653 HandRight:0.048405,-0.238915,-0.068194,0.967433 HandTipLeft:0.000000,0.000000,0.000000,0.000000 HandTipRight:0.000000,0.000000,0.000000,0.000000 Head:0.000000,0.000000,0.000000,0.000000 HipLeft:0.118750,-0.677951,0.702642,-0.180486 HipRight:-0.103653,0.676531,0.706721,-0.179184 KneeLeft:-0.009642,0.716369,-0.047208,-0.696056 KneeRight:-0.014262,0.697903,0.024299,0.715638 Neck:0.033405,-0.019114,0.994504,-0.097365 ShoulderLeft:0.008025,0.777240,-0.621981,0.094726 ShoulderRight:0.052732,0.784883,0.616110,-0.039838 SpineBase:0.013298,-0.013185,0.998257,-0.055967 SpineMid:0.023228,-0.013741,0.998075,-0.055833 SpineShoulder:0.033372,-0.016599,0.996440,-0.075620 ThumbLeft:0.000000,0.000000,0.000000,0.000000 ThumbRight:0.000000,0.000000,0.000000,0.000000 WristLeft:-0.066355,0.687108,-0.093122,0.717501 WristRight:-0.008077,-0.241263,-0.099234,0.965339 END:
KINECT_DATA POSITION:23.118246,-4.202954,-5.302393 HEAD_JOINT1:0.980434,0.169346,-0.000000,0.100359 LARM_JOINT2:0.823780,0.000000,-0.047456,-0.564919 LARM_JOINT3:0.949650,0.000000,-0.239699,-0.201765 LLEG_JOINT2:0.998827,0.027129,0.000000,0.040121 LLEG_JOINT4:0.995039,0.091958,0.000000,-0.037950 RARM_JOINT2:0.797852,0.000000,-0.048591,0.600892 RARM_JOINT3:0.968634,0.000000,0.198555,0.149413 RLEG_JOINT2:0.999632,0.006418,0.000000,-0.026353 RLEG_JOINT4:0.993891,0.105588,0.000000,0.032111 WAIST:0.999882,0.000000,-0.015341,-0.001121 WAIST_JOINT0:0.999307,0.000000,-0.036326,0.008076 WAIST_JOINT1:0.996642,0.080294,0.000000,-0.016030 END:
KINECT_DATA_Sensor  AnkleLeft:0.083646,0.722234,-0.084412,-0.681364 AnkleRight:0.083868,0.691431,0.074246,0.713706 ElbowLeft:-0.032864,0.913444,-0.165710,-0.370243 ElbowRight:0.026635,0.842680,0.192877,0.501976 FootLeft:0.000000,0.000000,0.000000,0.000000 FootRight:0.000000,0.000000,0.000000,0.000000 HandLeft:-0.267532,0.294379,-0.173026,0.901016 HandRight:0.052373,-0.262942,-0.057051,0.961698 HandTipLeft:0.000000,0.000000,0.000000,0.000000 HandTipRight:0.000000,0.000000,0.000000,0.000000 Head:0.000000,0.000000,0.000000,0.000000 HipLeft:0.119899,-0.678016,0.702380,-0.180502 HipRight:-0.103264,0.676726,0.706965,-0.177708 KneeLeft:-0.009107,0.717336,-0.046617,-0.695106 KneeRight:-0.014496,0.696918,0.024198,0.716596 Neck:0.034836,-0.019489,0.994550,-0.096316 ShoulderLeft:0.007273,0.777454,-0.621694,0.094911 ShoulderRight:0.053819,0.784935,0.616080,-0.037775 SpineBase:0.014663,-0.013230,0.998285,-0.055104 SpineMid:0.024638,-0.013780,0.998089,-0.054969 SpineShoulder:0.034817,-0.016832,0.996434,-0.074998 ThumbLeft:0.000000,0.000000,0.000000,0.000000 ThumbRight:0.000000,0.000000,0.000000,0.000000 WristLeft:-0.078115,0.324257,-0.131588,0.933510 WristRight:-0.005039,-0.264489,-0.099053,0.959275 END:
KINECT_DATA POSITION:22.624376,-4.270346,-5.019927 HEAD_JOINT1:0.979902,0.170404,-0.000000,0.103709 LARM_JOINT2:0.829919,0.000000,-0.053741,-0.555290 LARM_JOINT3:0.909245,0.000000,-0.327656,-0.256738 LLEG_JOINT2:0.998139,0.029464,0.000000,0.053390 LLEG_JOINT4:0.995652,0.087167,0.000000,-0.032861 RARM_JOINT2:0.793397,0.000000,-0.054832,0.606230 RARM_JOINT3:0.968229,0.000000,0.198777,0.151722 RLEG_JOINT2:0.999849,0.012634,0.000000,-0.011934 RLEG_JOINT4:0.994696,0.099830,0.000000,0.024757 WAIST:0.999848,0.000000,-0.015815,-0.007351 WAIST_JOINT0:0.999126,0.000000,-0.041317,0.006360 WAIST_JOINT1:0.996897,0.077728,0.000000,-0.012441 END:
KINECT_DATA_Sensor  AnkleLeft:0.073796,0.726951,-0.090784,-0.676650 AnkleRight:0.084364,0.688422,0.074259,0.716549 ElbowLeft:-0.046177,0.908428,-0.169052,-0.379537 ElbowRight:0.029050,0.836922,0.190235,0.512375 FootLeft:0.000000,0.000000,0.000000,0.000000 FootRight:0.000000,0.000000,0.000000,0.000000 HandLeft:-0.380009,0.455879,-0.140431,0.792494 HandRight:0.075896,-0.685465,-0.008449,0.724090 HandTipLeft:0.000000,0.000000,0.000000,0.000000 HandTipRight:0.000000,0.000000,0.000000,0.000000 Head:0.000000,0.000000,0.000000,0.000000 HipLeft:0.123383,-0.682996,0.697950,-0.176516 HipRight:-0.103767,0.673021,0.711184,-0.174620 KneeLeft:-0.012600,0.717985,-0.053134,-0.693913 KneeRight:-0.004402,0.696411,0.022564,0.717274 Neck:0.039771,-0.022795,0.994693,-0.092116 ShoulderLeft:0.002911,0.779361,-0.619074,0.096613 ShoulderRight:0.055846,0.785111,0.616020,-0.031662 SpineBase:0.015495,-0.019723,0.998398,-0.050721 SpineMid:0.027288,-0.020321,0.998145,-0.050485 SpineShoulder:0.039771,-0.019579,0.996367,-0.072720 ThumbLeft:0.000000,0.000000,0.000000,0.000000 ThumbRight:0.000000,0.000000,0.000000,0.000000 WristLeft:-0.204266,0.489321,-0.148571,0.834726 WristRight:0.045299,-0.686063,-0.091030,0.720402 END:
KINECT_DATA POSITION:22.155565,-4.366885,-4.759097 HEAD_JOINT1:0.978940,0.170848,-0.000000,0.111746 LARM_JOINT2:0.835739,0.000000,-0.082309,-0.542923 LARM_JOINT3:0.880831,0.000000,-0.374944,-0.289057 LLEG_JOINT2:0.996754,0.033621,0.000000,0.073154 LLEG_JOINT4:0.994682,0.087644,0.000000,-0.054095 RARM_JOINT2:0.787119,0.000000,-0.062133,0.613664 RARM_JOINT3:0.968357,0.000000,0.198603,0.151134 RLEG_JOINT2:0.999886,0.014480,0.000000,0.004249 RLEG_JOINT4:0.995097,0.097709,0.000000,0.015345 WAIST:0.999606,0.000000,-0.022123,-0.017261 WAIST_JOINT0:0.998612,0.000000,-0.052615,0.002582 WAIST_JOINT1:0.997180,0.074647,0.000000,-0.007702 END:
KINECT_DATA_Sensor  AnkleLeft:0.084412,0.731144,-0.086077,-0.671487 AnkleRight:0.086470,0.724657,0.070775,0.679990 ElbowLeft:-0.073608,0.914468,-0.162272,-0.363316 ElbowRight:0.032664,0.827234,0.187165,0.528759 FootLeft:0.000000,0.000000,0.000000,0.000000 FootRight:0.000000,0.000000,0.000000,0.000000 HandLeft:-0.449615,0.788435,0.153518,0.390702 HandRight:-0.072437,0.732783,-0.005196,-0.676576 HandTipLeft:0.000000,0.000000,0.000000,0.000000 HandTipRight:0.000000,0.000000,0.000000,0.000000 Head:0.000000,0.000000,0.000000,0.000000 HipLeft:0.131251,-0.689214,0.689744,-0.178913 HipRight:-0.103249,0.667560,0.717401,-0.170406 KneeLeft:-0.017307,0.722973,-0.062727,-0.687805 KneeRight:0.001205,0.691370,0.019142,0.722246 Neck:0.051127,-0.028803,0.994395,-0.087954 ShoulderLeft:-0.007501,0.782538,-0.613884,0.103562 ShoulderRight:0.060076,0.784511,0.616849,-0.020753 SpineBase:0.022474,-0.025413,0.998313,-0.047111 SpineMid:0.036355,-0.026065,0.997904,-0.046753 SpineShoulder:0.051186,-0.024221,0.995964,-0.069643 ThumbLeft:0.000000,0.000000,0.000000,0.000000 ThumbRight:0.000000,0.000000,0.000000,0.000000 WristLeft:-0.320135,0.876138,0.036292,0.358580 WristRight:-0.053335,0.742078,0.088921,-0.662245 END:
KINECT_DATA POSITION:22.128693,-4.431571,-4.683053 HEAD_JOINT1:0.978503,0.167867,-0.000000,0.119803 LARM_JOINT2:0.842471,0.000000,-0.094682,-0.530356 LARM_JOINT3:0.854609,0.000000,-0.413678,-0.313870 LLEG_JOINT2:0.996510,0.035486,0.000000,0.075552 LLEG_JOINT4:0.994376,0.087870,0.000000,-0.059118 RARM_JOINT2:0.782450,0.000000,-0.068587,0.618924 RARM_JOINT3:0.968897,0.000000,0.198956,0.147153 RLEG_JOINT2:0.999872,0.015288,0.000000,0.004773 RLEG_JOINT4:0.994974,0.098667,0.000000,0.017047 WAIST:0.999486,0.000000,-0.026548,-0.017979 WAIST_JOINT0:0.997904,0.000000,-0.064708,0.000561 WAIST_JOINT1:0.997263,0.073299,0.000000,-0.009708 END:
KINECT_DATA_Sensor  AnkleLeft:0.087014,0.727674,-0.086260,-0.674891 AnkleRight:0.084210,0.674919,0.076016,0.729119 ElbowLeft:-0.089970,0.915356,-0.165361,-0.355927 ElbowRight:0.035566,0.815170,0.185266,0.547640 FootLeft:0.000000,0.000000,0.000000,0.000000 FootRight:0.000000,0.000000,0.000000,0.000000 HandLeft:-0.514187,0.333572,-0.162132,0.773340 HandRight:-0.065707,0.754626,-0.016152,-0.652657 HandTipLeft:0.000000,0.000000,0.000000,0.000000 HandTipRight:0.000000,0.000000,0.000000,0.000000 Head:0.000000,0.000000,0.000000,0.000000 HipLeft:-0.135601,0.689019,-0.688500,0.181198 HipRight:-0.102050,0.667412,0.718131,-0.168625 KneeLeft:-0.017569,0.726117,-0.065099,-0.684257 KneeRight:0.001675,0.688116,0.019766,0.725330 Neck:0.063178,-0.032072,0.993700,-0.086833 ShoulderLeft:-0.016109,0.783713,-0.610886,0.111140 ShoulderRight:0.066883,0.783791,0.617341,-0.009408 SpineBase:0.026917,-0.026028,0.998218,-0.046472 SpineMid:0.044634,-0.026849,0.997582,-0.046003 SpineShoulder:0.063229,-0.027063,0.995315,-0.067954 ThumbLeft:0.000000,0.000000,0.000000,0.000000 ThumbRight:0.000000,0.000000,0.000000,0.000000 WristLeft:-0.302010,0.393516,-0.203705,0.844061 WristRight:-0.054260,0.763826,0.090634,-0.636719 END:
KINECT_DATA POSITION:22.235868,-4.446838,-4.657304 HEAD_JOINT1:0.978401,0.164113,-0.000000,0.125691 LARM_JOINT2:0.847245,0.000000,-0.115774,-0.518432 LARM_JOINT3:0.832860,0.000000,-0.451738,-0.319807 LLEG_JOINT2:0.996834,0.035217,0.000000,0.071293 LLEG_JOINT4:0.994293,0.090213,0.000000,-0.056954 RARM_JOINT2:0.780904,0.000000,-0.069954,0.620722 RARM_JOINT3:0.967269,0.000000,0.206719,0.147167 RLEG_JOINT2:0.999884,0.015115,0.000000,-0.001755 RLEG_JOINT4:0.995153,0.096289,0.000000,0.019965 WAIST:0.999413,0.000000,-0.031024,-0.014508 WAIST_JOINT0:0.997326,0.000000,-0.073074,-0.000112 WAIST_JOINT1:0.997253,0.072521,0.000000,-0.015047 END:
KINECT_DATA_Sensor  AnkleLeft:0.088584,0.741441,-0.087633,-0.659347 AnkleRight:0.086829,0.713417,0.069019,0.691906 ElbowLeft:-0.111260,0.916800,-0.163621,-0.346882 ElbowRight:0.036049,0.810262,0.184875,0.554975 FootLeft:0.000000,0.000000,0.000000,0.000000 FootRight:0.000000,0.000000,0.000000,0.000000 HandLeft:-0.498110,0.180900,-0.272206,0.803160 HandRight:-0.089812,0.749664,0.000695,-0.655696 HandTipLeft:0.000000,0.000000,0.000000,0.000000 HandTipRight:0.000000,0.000000,0.000000,0.000000 Head:0.000000,0.000000,0.000000,0.000000 HipLeft:0.138345,-0.686118,0.690126,-0.183926 HipRight:-0.100503,0.669962,0.716080,-0.168167 KneeLeft:-0.017460,0.728949,-0.064292,-0.681319 KneeRight:-0.000428,0.685110,0.021887,0.728111 Neck:0.071560,-0.033373,0.993103,-0.086677 ShoulderLeft:-0.021666,0.783272,-0.610314,0.116330 ShoulderRight:0.072042,0.782682,0.618237,-0.001584 SpineBase:0.031059,-0.025895,0.998092,-0.046653 SpineMid:0.050910,-0.026818,0.997277,-0.046128 SpineShoulder:0.071510,-0.029083,0.994762,-0.067007 ThumbLeft:0.000000,0.000000,0.000000,0.000000 ThumbRight:0.000000,0.000000,0.000000,0.000000 WristLeft:-0.313189,0.245125,-0.269109,0.877158 WristRight:-0.052932,0.760940,0.092976,-0.639941 END:
KINECT_DATA POSITION:22.402784,-4.356508,-4.645324 HEAD_JOINT1:0.978770,0.157105,-0.000000,0.131635 LARM_JOINT2:0.841535,0.000000,-0.245846,-0.481018 LARM_JOINT3:0.834412,0.000000,-0.481600,-0.267988 LLEG_JOINT2:0.997321,0.036053,0.000000,0.063647 LLEG_JOINT4:0.994061,0.092690,0.000000,-0.057028 RARM_JOINT2:0.781246,0.000000,-0.064711,0.620861 RARM_JOINT3:0.967789,0.000000,0.204006,0.147532 RLEG_JOINT2:0.999866,0.012526,0.000000,-0.010556 RLEG_JOINT4:0.994738,0.100372,0.000000,0.020534 WAIST:0.999137,0.000000,-0.040421,-0.009599 WAIST_JOINT0:0.996341,0.000000,-0.085467,-0.000869 WAIST_JOINT1:0.997252,0.070727,0.000000,-0.022042 END:
KINECT_DATA_Sensor  AnkleLeft:0.092876,0.752619,-0.088085,-0.645894 AnkleRight:0.082068,0.663114,0.076827,0.740028 ElbowLeft:-0.210563,0.926725,-0.116339,-0.288633 ElbowRight:0.032685,0.809298,0.183600,0.557009 FootLeft:0.000000,0.000000,0.000000,0.000000 FootRight:0.000000,0.000000,0.000000,0.000000 HandLeft:-0.373160,-0.219955,-0.512626,0.741340 HandRight:-0.083067,0.774459,-0.003819,-0.627135 HandTipLeft:0.000000,0.000000,0.000000,0.000000 HandTipRight:0.000000,0.000000,0.000000,0.000000 Head:0.000000,0.000000,0.000000,0.000000 HipLeft:0.145315,-0.680678,0.692958,-0.188067 HipRight:-0.095844,0.673003,0.714823,-0.164038 KneeLeft:-0.015452,0.735106,-0.062910,-0.674850 KneeRight:-0.004704,0.678663,0.023044,0.734073 Neck:0.084232,-0.034738,0.992154,-0.085606 ShoulderLeft:-0.033448,0.782378,-0.608931,0.126367 ShoulderRight:0.076545,0.781236,0.619474,0.007969 SpineBase:0.039961,-0.026052,0.997790,-0.046257 SpineMid:0.061712,-0.027055,0.996681,-0.045677 SpineShoulder:0.084118,-0.030868,0.993835,-0.065287 ThumbLeft:0.000000,0.000000,0.000000,0.000000 ThumbRight:0.000000,0.000000,0.000000,0.000000 WristLeft:-0.224581,-0.159453,-0.429489,0.860045 WristRight:-0.058713,0.783788,0.094389,-0.610999 END:
KINECT_DATA POSITION:22.340857,-4.047700,-4.749131 HEAD_JOINT1:0.979624,0.141888,-0.000000,0.142144 LARM_JOINT2:0.867406,0.000000,-0.293988,-0.401470 LARM_JOINT3:0.805428,0.000000,-0.516250,-0.291156 LLEG_JOINT2:0.997355,0.039506,0.000000,0.061005 LLEG_JOINT4:0.993781,0.090583,0.000000,-0.064758 RARM_JOINT2:0.780041,0.000000,-0.063005,0.622548 RARM_JOINT3:0.967488,0.000000,0.198522,0.156703 RLEG_JOINT2:0.999935,0.003235,0.000000,-0.010926 RLEG_JOINT4:0.994181,0.107069,0.000000,0.011830 WAIST:0.997787,0.000000,-0.066160,-0.006635 WAIST_JOINT0:0.994086,0.000000,-0.108577,-0.001808 WAIST_JOINT1:0.997248,0.067828,0.000000,-0.029921 END:
KINECT_DATA_Sensor  AnkleLeft:0.090546,0.722945,-0.092788,-0.678633 AnkleRight:0.078574,0.649801,0.076946,0.752106 ElbowLeft:-0.284655,0.924666,-0.148893,-0.204439 ElbowRight:0.035224,0.804098,0.182651,0.564646 FootLeft:0.000000,0.000000,0.000000,0.000000 FootRight:0.000000,0.000000,0.000000,0.000000 HandLeft:-0.312893,-0.282031,-0.503159,0.754578 HandRight:-0.071138,0.803160,-0.018635,-0.591208 HandTipLeft:0.000000,0.000000,0.000000,0.000000 HandTipRight:0.000000,0.000000,0.000000,0.000000 Head:0.000000,0.000000,0.000000,0.000000 HipLeft:0.162067,-0.673663,0.692944,-0.199350 HipRight:-0.078473,0.676442,0.717295,-0.147495 KneeLeft:-0.015050,0.752238,-0.065263,-0.655479 KneeRight:-0.009423,0.660233,0.015063,0.750851 Neck:0.107630,-0.038020,0.989926,-0.083770 ShoulderLeft:-0.055972,0.781802,-0.603433,0.146705 ShoulderRight:0.084095,0.781007,0.618354,0.024400 SpineBase:0.065231,-0.028706,0.996428,-0.045307 SpineMid:0.086055,-0.029648,0.994846,-0.044696 SpineShoulder:0.107523,-0.033813,0.991611,-0.063274 ThumbLeft:0.000000,0.000000,0.000000,0.000000 ThumbRight:0.000000,0.000000,0.000000,0.000000 WristLeft:-0.267593,-0.277670,-0.466698,0.795919 WristRight:-0.067256,0.810341,0.093185,-0.574578 END:
KINECT_DATA POSITION:22.267727,-3.937317,-4.901266 HEAD_JOINT1:0.979017,0.138836,-0.000000,0.149165 LARM_JOINT2:0.869676,0.000000,-0.314320,-0.380615 LARM_JOINT3:0.828426,0.000000,-0.490938,-0.269612 LLEG_JOINT2:0.997195,0.041234,0.000000,0.062465 LLEG_JOINT4:0.993713,0.089631,0.000000,-0.067091 RARM_JOINT2:0.777072,0.000000,-0.066798,0.625857 RARM_JOINT3:0.966747,0.000000,0.196149,0.164093 RLEG_JOINT2:0.999957,-0.001596,-0.000000,-0.009090 RLEG_JOINT4:0.993472,0.113900,0.000000,0.006321 WAIST:0.996600,0.000000,-0.082181,-0.005948 WAIST_JOINT0:0.992288,0.000000,-0.123954,-0.000537 WAIST_JOINT1:0.997218,0.066662,0.000000,-0.033367 END:
KINECT_DATA_Sensor  AnkleLeft:0.094372,0.766769,-0.089928,-0.628548 AnkleRight:0.087743,0.719033,0.069843,0.685867 ElbowLeft:-0.311136,0.921310,-0.141247,-0.185559 ElbowRight:0.042017,0.799700,0.180678,0.571025 FootLeft:0.000000,0.000000,0.000000,0.000000 FootRight:0.000000,0.000000,0.000000,0.000000 HandLeft:-0.254209,-0.315064,-0.478681,0.779088 HandRight:-0.080306,0.810861,-0.027013,-0.579074 HandTipLeft:0.000000,0.000000,0.000000,0.000000 HandTipRight:0.000000,0.000000,0.000000,0.000000 Head:0.000000,0.000000,0.000000,0.000000 HipLeft:0.170271,-0.672118,0.690501,-0.206092 HipRight:-0.066727,0.679990,0.717251,-0.136792 KneeLeft:-0.016627,0.762690,-0.067690,-0.642998 KneeRight:-0.011275,0.648448,0.010136,0.761108 Neck:0.123481,-0.039874,0.988031,-0.083405 ShoulderLeft:-0.075332,0.780462,-0.598591,0.163990 ShoulderRight:0.085292,0.782708,0.615674,0.032245 SpineBase:0.081081,-0.030049,0.995238,-0.044994 SpineMid:0.101900,-0.030984,0.993322,-0.044355 SpineShoulder:0.123386,-0.035465,0.989743,-0.062662 ThumbLeft:0.000000,0.000000,0.000000,0.000000 ThumbRight:0.000000,0.000000,0.000000,0.000000 WristLeft:-0.244475,-0.311830,-0.476815,0.784628 WristRight:-0.067913,0.820163,0.088044,-0.561220 END:
KINECT_DATA POSITION:22.266556,-3.822042,-5.109644 HEAD_JOINT1:0.978850,0.137637,-0.000000,0.151358 LARM_JOINT2:0.841021,0.000000,-0.416703,-0.345024 LARM_JOINT3:0.898195,0.000000,-0.383176,-0.215456 LLEG_JOINT2:0.997003,0.045079,0.000000,0.062878 LLEG_JOINT4:0.993521,0.084821,0.000000,-0.075640 RARM_JOINT2:0.776588,0.000000,-0.059366,0.627205 RARM_JOINT3:0.967703,0.000000,0.187951,0.168006 RLEG_JOINT2:0.999949,-0.005115,-0.000000,-0.008712 RLEG_JOINT4:0.993130,0.116994,0.000000,-0.002440 WAIST:0.994991,0.000000,-0.099853,-0.004670 WAIST_JOINT0:0.989920,0.000000,-0.141625,0.000115 WAIST_JOINT1:0.997145,0.065514,0.000000,-0.037548 END:
KINECT_DATA_Sensor  AnkleLeft:0.096987,0.775188,-0.086745,-0.618185 AnkleRight:0.076588,0.630143,0.082459,0.768280 ElbowLeft:-0.377433,0.917524,-0.089261,-0.087902 ElbowRight:0.041860,0.802217,0.177978,0.568347 FootLeft:0.000000,0.000000,0.000000,0.000000 FootRight:0.000000,0.000000,0.000000,0.000000 HandLeft:-0.271450,-0.175723,-0.402310,0.856494 HandRight:-0.077731,0.808693,-0.024034,-0.582578 HandTipLeft:0.000000,0.000000,0.000000,0.000000 HandTipRight:0.000000,0.000000,0.000000,0.000000 Head:0.000000,0.000000,0.000000,0.000000 HipLeft:0.180133,-0.669736,0.687681,-0.214711 HipRight:-0.055333,0.683852,0.716327,-0.127120 KneeLeft:-0.016642,0.774069,-0.071456,-0.628835 KneeRight:-0.012756,0.635236,0.006847,0.772182 Neck:0.141022,-0.041854,0.985625,-0.083089 ShoulderLeft:-0.092802,0.775536,-0.597812,0.180421 ShoulderRight:0.091093,0.781855,0.615254,0.043230 SpineBase:0.098506,-0.031428,0.993615,-0.045155 SpineMid:0.119401,-0.032372,0.991321,-0.044483 SpineShoulder:0.140955,-0.037159,0.987352,-0.062340 ThumbLeft:0.000000,0.000000,0.000000,0.000000 ThumbRight:0.000000,0.000000,0.000000,0.000000 WristLeft:-0.285911,-0.178285,-0.409369,0.847872 WristRight:-0.067138,0.817092,0.085772,-0.566124 END:
KINECT_DATA POSITION:22.326725,-3.673724,-5.242836 HEAD_JOINT1:0.979648,0.135732,-0.000000,0.147874 LARM_JOINT2:0.764514,0.000000,-0.513155,-0.390116 LARM_JOINT3:0.956268,0.000000,-0.267042,-0.119331 LLEG_JOINT2:0.997028,0.046823,0.000000,0.061177 LLEG_JOINT4:0.993507,0.080286,0.000000,-0.080611 RARM_JOINT2:0.778356,0.000000,-0.065547,0.624392 RARM_JOINT3:0.966673,0.000000,0.190290,0.171269 RLEG_JOINT2:0.999904,-0.006537,-0.000000,-0.012233 RLEG_JOINT4:0.993150,0.116754,0.000000,-0.004735 WAIST:0.994548,0.000000,-0.104259,-0.001957 WAIST_JOINT0:0.988920,0.000000,-0.148440,0.001499 WAIST_JOINT1:0.997026,0.065157,0.000000,-0.041166 END:
KINECT_DATA_Sensor  AnkleLeft:0.098038,0.778292,-0.082607,-0.614676 AnkleRight:0.073892,0.626464,0.083689,0.771414 ElbowLeft:-0.380573,0.920431,0.049728,-0.074142 ElbowRight:0.046734,0.802552,0.182836,0.565948 FootLeft:0.000000,0.000000,0.000000,0.000000 FootRight:0.000000,0.000000,0.000000,0.000000 HandLeft:-0.144668,-0.385839,-0.450108,0.792213 HandRight:-0.079467,0.828180,-0.014389,-0.554614 HandTipLeft:0.000000,0.000000,0.000000,0.000000 HandTipRight:0.000000,0.000000,0.000000,0.000000 Head:0.000000,0.000000,0.000000,0.000000 HipLeft:0.185168,-0.667105,0.687538,-0.219032 HipRight:-0.054806,0.686154,0.713952,-0.128302 KneeLeft:-0.016450,0.776748,-0.073565,-0.625284 KneeRight:-0.014140,0.632109,0.006820,0.774720 Neck:0.147738,-0.042914,0.984598,-0.083060 ShoulderLeft:-0.105151,0.769279,-0.600794,0.190261 ShoulderRight:0.088771,0.781042,0.616618,0.043302 SpineBase:0.102610,-0.031742,0.993160,-0.045792 SpineMid:0.124824,-0.032759,0.990613,-0.045070 SpineShoulder:0.147703,-0.037884,0.986335,-0.062393 ThumbLeft:0.000000,0.000000,0.000000,0.000000 ThumbRight:0.000000,0.000000,0.000000,0.000000 WristLeft:-0.143917,-0.374498,-0.479218,0.780634 WristRight:-0.065341,0.834563,0.080772,-0.541029 END:
KINECT_DATA POSITION:22.473139,-3.508698,-5.220866 HEAD_JOINT1:0.979853,0.136077,-0.000000,0.146187 LARM_JOINT2:0.735741,0.000000,-0.544619,-0.402587 LARM_JOINT3:0.969147,0.000000,-0.225615,-0.099260 LLEG_JOINT2:0.997322,0.046945,0.000000,0.056085 LLEG_JOINT4:0.993169,0.083191,0.000000,-0.081818 RARM_JOINT2:0.781434,0.000000,-0.055890,0.621480 RARM_JOINT3:0.966666,0.000000,0.187599,0.174251 RLEG_JOINT2:0.999805,-0.005843,-0.000000,-0.018872 RLEG_JOINT4:0.993406,0.114641,0.000000,-0.001103 WAIST:0.994641,0.000000,-0.103357,0.002351 WAIST_JOINT0:0.988279,0.000000,-0.152659,-0.000291 WAIST_JOINT1:0.996852,0.065160,0.000000,-0.045173 END:
KINECT_DATA_Sensor  AnkleLeft:0.102256,0.779739,-0.083372,-0.612045 AnkleRight:0.073504,0.623725,0.082453,0.773799 ElbowLeft:-0.377448,0.918145,0.095753,-0.073308 ElbowRight:0.042232,0.815438,0.183447,0.547380 FootLeft:0.000000,0.000000,0.000000,0.000000 FootRight:0.000000,0.000000,0.000000,0.000000 HandLeft:-0.168868,-0.308226,-0.400805,0.846071 HandRight:-0.108487,0.823168,-0.001256,-0.557336 HandTipLeft:0.000000,0.000000,0.000000,0.000000 HandTipRight:0.000000,0.000000,0.000000,0.000000 Head:0.000000,0.000000,0.000000,0.000000 HipLeft:0.187266,-0.664258,0.689487,-0.219773 HipRight:-0.058537,0.688682,0.710530,-0.132051 KneeLeft:-0.015402,0.775975,-0.073497,-0.626278 KneeRight:-0.014734,0.632940,0.009361,0.774004 Neck:0.151696,-0.043198,0.983939,-0.083589 ShoulderLeft:-0.104974,0.767175,-0.603146,0.191412 ShoulderRight:0.094438,0.777758,0.619595,0.047700 SpineBase:0.101383,-0.030714,0.993330,-0.045532 SpineMid:0.126217,-0.031844,0.990481,-0.044749 SpineShoulder:0.151681,-0.037959,0.985722,-0.062478 ThumbLeft:0.000000,0.000000,0.000000,0.000000 ThumbRight:0.000000,0.000000,0.000000,0.000000 WristLeft:-0.194074,-0.291921,-0.466539,0.812071 WristRight:-0.059445,0.833209,0.076527,-0.544402 END:
KINECT_DATA POSITION:22.462730,-3.373230,-5.241513 HEAD_JOINT1:0.980940,0.134108,-0.000000,0.140610 LARM_JOINT2:0.727648,0.000000,-0.569182,-0.382832 LARM_JOINT3:0.973513,0.000000,-0.220619,-0.060004 LLEG_JOINT2:0.997410,0.046723,0.000000,0.054677 LLEG_JOINT4:0.993354,0.082814,0.000000,-0.079937 RARM_JOINT2:0.782931,0.000000,-0.045041,0.620476 RARM_JOINT3:0.968988,0.000000,0.179880,0.169425 RLEG_JOINT2:0.999784,-0.006273,-0.000000,-0.019800 RLEG_JOINT4:0.993599,0.112950,0.000000,-0.002004 WAIST:0.994717,0.000000,-0.102599,0.003341 WAIST_JOINT0:0.988593,0.000000,-0.150612,0.000066 WAIST_JOINT1:0.996695,0.068184,0.000000,-0.044153 END:
KINECT_DATA_Sensor  AnkleLeft:0.100821,0.778897,-0.083957,-0.613275 AnkleRight:0.071444,0.625431,0.081800,0.772684 ElbowLeft:-0.391960,0.910091,0.111172,-0.075784 ElbowRight:0.039308,0.823715,0.181276,0.535806 FootLeft:0.000000,0.000000,0.000000,0.000000 FootRight:0.000000,0.000000,0.000000,0.000000 HandLeft:-0.196575,-0.132592,-0.456705,0.857437 HandRight:-0.088006,0.838237,-0.003378,-0.538148 HandTipLeft:0.000000,0.000000,0.000000,0.000000 HandTipRight:0.000000,0.000000,0.000000,0.000000 Head:0.000000,0.000000,0.000000,0.000000 HipLeft:0.186418,-0.663502,0.690065,-0.220963 HipRight:-0.058823,0.689282,0.709502,-0.134301 KneeLeft:-0.015111,0.775360,-0.073142,-0.627087 KneeRight:-0.014961,0.633664,0.009101,0.773410 Neck:0.149160,-0.040448,0.984094,-0.087603 ShoulderLeft:-0.093774,0.765710,-0.608425,0.186314 ShoulderRight:0.102278,0.775886,0.620612,0.048792 SpineBase:0.100491,-0.030029,0.993369,-0.047092 SpineMid:0.124482,-0.031159,0.990649,-0.046352 SpineShoulder:0.149127,-0.035889,0.986012,-0.065216 ThumbLeft:0.000000,0.000000,0.000000,0.000000 ThumbRight:0.000000,0.000000,0.000000,0.000000 WristLeft:-0.260219,-0.164835,-0.448164,0.839204 WristRight:-0.060888,0.844328,0.072091,-0.527452 END:
KINECT_DATA POSITION:22.234774,-3.155779,-5.492020 HEAD_JOINT1:0.980097,0.139064,-0.000000,0.141672 LARM_JOINT2:0.774332,0.000000,-0.545107,-0.321353 LARM_JOINT3:0.961147,0.000000,-0.258637,-0.096452 LLEG_JOINT2:0.997311,0.043489,0.000000,0.058989 LLEG_JOINT4:0.992670,0.087017,0.000000,-0.083867 RARM_JOINT2:0.778352,0.000000,-0.052220,0.625652 RARM_JOINT3:0.968550,0.000000,0.183106,0.168475 RLEG_JOINT2:0.999836,-0.008466,-0.000000,-0.016033 RLEG_JOINT4:0.993079,0.117349,0.000000,-0.004827 WAIST:0.994802,0.000000,-0.101797,0.002550 WAIST_JOINT0:0.987803,0.000000,-0.155653,0.004226 WAIST_JOINT1:0.996532,0.070109,0.000000,-0.044814 END:
KINECT_DATA_Sensor  AnkleLeft:0.102205,0.781045,-0.083740,-0.610336 AnkleRight:0.082988,0.718064,0.073256,0.687118 ElbowLeft:-0.431631,0.900613,0.024778,-0.044476 ElbowRight:0.045324,0.815654,0.179307,0.548182 FootLeft:0.000000,0.000000,0.000000,0.000000 FootRight:0.000000,0.000000,0.000000,0.000000 HandLeft:-0.078323,-0.323479,-0.493175,0.803745 HandRight:-0.082847,0.812895,-0.009527,-0.576409 HandTipLeft:0.000000,0.000000,0.000000,0.000000 HandTipRight:0.000000,0.000000,0.000000,0.000000 Head:0.000000,0.000000,0.000000,0.000000 HipLeft:0.184762,-0.663790,0.689754,-0.222452 HipRight:-0.056968,0.688359,0.709862,-0.137887 KneeLeft:-0.019919,0.774514,-0.072812,-0.628037 KneeRight:-0.014862,0.634768,0.005349,0.772541 Neck:0.155033,-0.041998,0.982988,-0.089080 ShoulderLeft:-0.112793,0.754569,-0.614196,0.201657 ShoulderRight:0.093858,0.774327,0.624437,0.041069 SpineBase:0.099481,-0.032224,0.993237,-0.050448 SpineMid:0.126817,-0.033602,0.990118,-0.049540 SpineShoulder:0.154947,-0.037882,0.984927,-0.066891 ThumbLeft:0.000000,0.000000,0.000000,0.000000 ThumbRight:0.000000,0.000000,0.000000,0.000000 WristLeft:-0.140801,-0.350065,-0.495258,0.782527 WristRight:-0.059647,0.819848,0.073830,-0.564659 END:
KINECT_DATA POSITION:22.089914,-3.068758,-5.560148 HEAD_JOINT1:0.980800,0.136689,-0.000000,0.139098 LARM_JOINT2:0.776532,0.000000,-0.549174,-0.308880 LARM_JOINT3:0.962763,0.000000,-0.251742,-0.098554 LLEG_JOINT2:0.997220,0.042662,0.000000,0.061090 LLEG_JOINT4:0.992754,0.085346,0.000000,-0.084590 RARM_JOINT2:0.776992,0.000000,-0.040921,0.628179 RARM_JOINT3:0.970088,0.000000,0.180599,0.162212 RLEG_JOINT2:0.999849,-0.008733,-0.000000,-0.014996 RLEG_JOINT4:0.993306,0.115458,0.000000,-0.003437 WAIST:0.994828,0.000000,-0.101553,0.001862 WAIST_JOINT0:0.986512,0.000000,-0.163672,0.002467 WAIST_JOINT1:0.996342,0.072991,0.000000,-0.044433 END:
KINECT_DATA_Sensor  AnkleLeft:0.091971,0.721234,-0.091157,-0.680480 AnkleRight:0.071531,0.617393,0.081209,0.779176 ElbowLeft:-0.438580,0.897831,0.017227,-0.035367 ElbowRight:0.041070,0.818906,0.175097,0.545020 FootLeft:0.000000,0.000000,0.000000,0.000000 FootRight:0.000000,0.000000,0.000000,0.000000 HandLeft:-0.033434,-0.384311,-0.489109,0.782278 HandRight:-0.077340,0.832799,-0.007347,-0.548097 HandTipLeft:0.000000,0.000000,0.000000,0.000000 HandTipRight:0.000000,0.000000,0.000000,0.000000 Head:0.000000,0.000000,0.000000,0.000000 HipLeft:0.183730,-0.663893,0.689487,-0.223824 HipRight:-0.056570,0.687669,0.710225,-0.139614 KneeLeft:-0.021579,0.774238,-0.073018,-0.628298 KneeRight:-0.014905,0.635035,0.004860,0.772325 Neck:0.162366,-0.043234,0.981488,-0.091919 ShoulderLeft:-0.110140,0.750537,-0.618751,0.204231 ShoulderRight:0.106946,0.769319,0.627924,0.049226 SpineBase:0.099223,-0.032118,0.993176,-0.052191 SpineMid:0.130382,-0.033742,0.989568,-0.051156 SpineShoulder:0.162358,-0.038498,0.983543,-0.069291 ThumbLeft:0.000000,0.000000,0.000000,0.000000 ThumbRight:0.000000,0.000000,0.000000,0.000000 WristLeft:-0.097099,-0.406190,-0.502582,0.756963 WristRight:-0.063256,0.837651,0.071898,-0.537746 END:
KINECT_DATA POSITION:21.973921,-3.000104,-5.633867 HEAD_JOINT1:0.981317,0.134666,-0.000000,0.137415 LARM_JOINT2:0.778614,0.000000,-0.551953,-0.298510 LARM_JOINT3:0.964068,0.000000,-0.248991,-0.092608 LLEG_JOINT2:0.997089,0.042098,0.000000,0.063568 LLEG_JOINT4:0.991988,0.091297,0.000000,-0.087314 RARM_JOINT2:0.777421,0.000000,-0.038376,0.627809 RARM_JOINT3:0.970339,0.000000,0.180821,0.160456 RLEG_JOINT2:0.999871,-0.008708,-0.000000,-0.013502 RLEG_JOINT4:0.992983,0.118203,0.000000,-0.003700 WAIST:0.994745,0.000000,-0.102381,0.001199 WAIST_JOINT0:0.985882,0.000000,-0.167429,0.002143 WAIST_JOINT1:0.996205,0.075287,0.000000,-0.043667 END:
KINECT_DATA_Sensor  AnkleLeft:0.104892,0.786288,-0.084744,-0.602965 AnkleRight:0.073845,0.614749,0.082624,0.780899 ElbowLeft:-0.444246,0.895351,0.011740,-0.029230 ElbowRight:0.040806,0.817188,0.175760,0.547400 FootLeft:0.000000,0.000000,0.000000,0.000000 FootRight:0.000000,0.000000,0.000000,0.000000 HandLeft:-0.057147,-0.319784,-0.498765,0.803558 HandRight:-0.071286,0.827379,-0.009420,-0.557022 HandTipLeft:0.000000,0.000000,0.000000,0.000000 HandTipRight:0.000000,0.000000,0.000000,0.000000 Head:0.000000,0.000000,0.000000,0.000000 HipLeft:0.182906,-0.663793,0.689196,-0.225684 HipRight:-0.055413,0.687208,0.710659,-0.140134 KneeLeft:-0.023454,0.774653,-0.073661,-0.627643 KneeRight:-0.014411,0.634400,0.004198,0.772859 Neck:0.165381,-0.043386,0.980773,-0.094084 ShoulderLeft:-0.107633,0.748493,-0.621224,0.205557 ShoulderRight:0.113779,0.767932,0.628142,0.052653 SpineBase:0.100076,-0.031338,0.993027,-0.053858 SpineMid:0.132365,-0.033076,0.989240,-0.052809 SpineShoulder:0.165434,-0.038333,0.982882,-0.071454 ThumbLeft:0.000000,0.000000,0.000000,0.000000 ThumbRight:0.000000,0.000000,0.000000,0.000000 WristLeft:-0.124916,-0.351904,-0.494499,0.784876 WristRight:-0.062344,0.831912,0.074016,-0.546403 END:
KINECT_DATA POSITION:21.857988,-2.940992,-5.710483 HEAD_JOINT1:0.981456,0.132589,-0.000000,0.138435 LARM_JOINT2:0.780240,0.000000,-0.554882,-0.288672 LARM_JOINT3:0.964228,0.000000,-0.248431,-0.092450 LLEG_JOINT2:0.997014,0.041304,0.000000,0.065251 LLEG_JOINT4:0.992083,0.090520,0.000000,-0.087049 RARM_JOINT2:0.776872,0.000000,-0.039015,0.628449 RARM_JOINT3:0.969932,0.000000,0.181554,0.162078 RLEG_JOINT2:0.999888,-0.009049,-0.000000,-0.011960 RLEG_JOINT4:0.993187,0.116458,0.000000,-0.004050 WAIST:0.994575,0.000000,-0.104019,0.000658 WAIST_JOINT0:0.985258,0.000000,-0.171059,0.002290 WAIST_JOINT1:0.996120,0.076331,0.000000,-0.043789 END:
KINECT_DATA_Sensor  AnkleLeft:0.102744,0.788353,-0.084489,-0.600671 AnkleRight:0.072634,0.612570,0.080745,0.782919 ElbowLeft:-0.450358,0.892175,0.012833,-0.032189 ElbowRight:0.042183,0.815063,0.176134,0.550336 FootLeft:0.000000,0.000000,0.000000,0.000000 FootRight:0.000000,0.000000,0.000000,0.000000 HandLeft:-0.131189,-0.231665,-0.481223,0.835191 HandRight:-0.075987,0.826741,-0.012090,-0.557297 HandTipLeft:0.000000,0.000000,0.000000,0.000000 HandTipRight:0.000000,0.000000,0.000000,0.000000 Head:0.000000,0.000000,0.000000,0.000000 HipLeft:0.182978,-0.663539,0.688821,-0.227508 HipRight:-0.053741,0.686818,0.711152,-0.140201 KneeLeft:-0.025010,0.775578,-0.073684,-0.626437 KneeRight:-0.014081,0.633216,0.003192,0.773840 Neck:0.168613,-0.044100,0.980112,-0.094892 ShoulderLeft:-0.107330,0.747154,-0.622373,0.207106 ShoulderRight:0.118566,0.767181,0.627864,0.056234 SpineBase:0.101693,-0.031360,0.992785,-0.055250 SpineMid:0.134816,-0.033189,0.988832,-0.054171 SpineShoulder:0.168687,-0.038921,0.982226,-0.072533 ThumbLeft:0.000000,0.000000,0.000000,0.000000 ThumbRight:0.000000,0.000000,0.000000,0.000000 WristLeft:-0.175634,-0.251895,-0.482350,0.820390 WristRight:-0.061509,0.832364,0.074053,-0.545804 END:
KINECT_DATA POSITION:21.784702,-2.912262,-5.737293 HEAD_JOINT1:0.981513,0.131080,-0.000000,0.139464 LARM_JOINT2:0.782821,0.000000,-0.545709,-0.298986 LARM_JOINT3:0.961241,0.000000,-0.261085,-0.088601 LLEG_JOINT2:0.997005,0.040656,0.000000,0.065785 LLEG_JOINT4:0.992418,0.087771,0.000000,-0.086045 RARM_JOINT2:0.776071,0.000000,-0.038935,0.629442 RARM_JOINT3:0.969117,0.000000,0.182657,0.165679 RLEG_JOINT2:0.999882,-0.009154,-0.000000,-0.012373 RLEG_JOINT4:0.993353,0.115069,0.000000,-0.002810 WAIST:0.994366,0.000000,-0.105998,0.001138 WAIST_JOINT0:0.983052,0.000000,-0.183255,0.005146 WAIST_JOINT1:0.996070,0.076391,0.000000,-0.044818 END:
KINECT_DATA_Sensor  AnkleLeft:0.099510,0.794683,-0.082755,-0.593068 AnkleRight:0.071888,0.604825,0.079256,0.789137 ElbowLeft:-0.440460,0.895076,0.025278,-0.064773 ElbowRight:0.042342,0.812509,0.175520,0.554282 FootLeft:0.000000,0.000000,0.000000,0.000000 FootRight:0.000000,0.000000,0.000000,0.000000 HandLeft:-0.101678,-0.288685,-0.477845,0.823399 HandRight:-0.085158,0.838354,-0.023868,-0.537904 HandTipLeft:0.000000,0.000000,0.000000,0.000000 HandTipRight:0.000000,0.000000,0.000000,0.000000 Head:0.000000,0.000000,0.000000,0.000000 HipLeft:0.184613,-0.662671,0.688707,-0.229061 HipRight:-0.052835,0.687195,0.710938,-0.139783 KneeLeft:-0.026324,0.776715,-0.073805,-0.624959 KneeRight:-0.014076,0.631750,0.003139,0.775038 Neck:0.180469,-0.045504,0.977971,-0.094519 ShoulderLeft:-0.123742,0.739004,-0.624571,0.220163 ShoulderRight:0.119581,0.766708,0.627820,0.060839 SpineBase:0.103594,-0.031395,0.992572,-0.055533 SpineMid:0.141659,-0.033506,0.987858,-0.054285 SpineShoulder:0.180581,-0.040037,0.980076,-0.072384 ThumbLeft:0.000000,0.000000,0.000000,0.000000 ThumbRight:0.000000,0.000000,0.000000,0.000000 WristLeft:-0.156921,-0.302970,-0.503474,0.793788 WristRight:-0.065013,0.846102,0.073703,-0.523883 END:
KINECT_DATA POSITION:21.735313,-2.890594,-5.759513 HEAD_JOINT1:0.981727,0.129477,-0.000000,0.139455 LARM_JOINT2:0.783933,0.000000,-0.548818,-0.290254 LARM_JOINT3:0.959978,0.000000,-0.266308,-0.086734 LLEG_JOINT2:0.996986,0.041119,0.000000,0.065784 LLEG_JOINT4:0.992105,0.089733,0.000000,-0.087605 RARM_JOINT2:0.776396,0.000000,-0.046460,0.628531 RARM_JOINT3:0.966322,0.000000,0.192201,0.171117 RLEG_JOINT2:0.999869,-0.010225,-0.000000,-0.012551 RLEG_JOINT4:0.993086,0.117368,0.000000,-0.002236 WAIST:0.994242,0.000000,-0.107154,0.001157 WAIST_JOINT0:0.984847,0.000000,-0.173278,0.007203 WAIST_JOINT1:0.996103,0.076170,0.000000,-0.044470 END:
KINECT_DATA_Sensor  AnkleLeft:0.101422,0.789631,-0.084545,-0.599206 AnkleRight:0.073906,0.610845,0.078992,0.784325 ElbowLeft:-0.447311,0.891817,0.024323,-0.063107 ElbowRight:0.046740,0.808208,0.178026,0.559395 FootLeft:0.000000,0.000000,0.000000,0.000000 FootRight:0.000000,0.000000,0.000000,0.000000 HandLeft:-0.143455,-0.225280,-0.476919,0.837388 HandRight:-0.103216,0.842354,-0.015155,-0.528731 HandTipLeft:0.000000,0.000000,0.000000,0.000000 HandTipRight:0.000000,0.000000,0.000000,0.000000 Head:0.000000,0.000000,0.000000,0.000000 HipLeft:0.184838,-0.662512,0.688691,-0.229384 HipRight:-0.052129,0.687366,0.711038,-0.138692 KneeLeft:-0.026124,0.777479,-0.074150,-0.623976 KneeRight:-0.015007,0.630847,0.002614,0.775757 Neck:0.170143,-0.043902,0.979880,-0.094657 ShoulderLeft:-0.114330,0.743078,-0.624386,0.211910 ShoulderRight:0.114204,0.771233,0.623839,0.054611 SpineBase:0.104774,-0.030963,0.992468,-0.055407 SpineMid:0.137130,-0.032756,0.988517,-0.054367 SpineShoulder:0.170228,-0.038751,0.981953,-0.072723 ThumbLeft:0.000000,0.000000,0.000000,0.000000 ThumbRight:0.000000,0.000000,0.000000,0.000000 WristLeft:-0.197768,-0.242653,-0.495153,0.810451 WristRight:-0.067643,0.851516,0.073216,-0.514767 END:
KINECT_DATA POSITION:21.716442,-2.894367,-5.753565 HEAD_JOINT1:0.981626,0.131422,-0.000000,0.138340 LARM_JOINT2:0.778111,0.000000,-0.556097,-0.292061 LARM_JOINT3:0.960445,0.000000,-0.266942,-0.079295 LLEG_JOINT2:0.997035,0.041275,0.000000,0.064943 LLEG_JOINT4:0.992346,0.089645,0.000000,-0.084932 RARM_JOINT2:0.777150,0.000000,-0.053384,0.627047 RARM_JOINT3:0.964474,0.000000,0.195442,0.177742 RLEG_JOINT2:0.999883,-0.010168,-0.000000,-0.011430 RLEG_JOINT4:0.993274,0.115743,0.000000,-0.003321 WAIST:0.994145,0.000000,-0.108048,0.001014 WAIST_JOINT0:0.985649,0.000000,-0.168304,0.013042 WAIST_JOINT1:0.996279,0.074335,0.000000,-0.043617 END:
KINECT_DATA_Sensor  AnkleLeft:0.094570,0.751513,-0.091871,-0.646409 AnkleRight:0.073057,0.614079,0.077658,0.782010 ElbowLeft:-0.449132,0.890632,0.035008,-0.061893 ElbowRight:0.049861,0.806640,0.179877,0.560793 FootLeft:0.000000,0.000000,0.000000,0.000000 FootRight:0.000000,0.000000,0.000000,0.000000 HandLeft:-0.145363,-0.265492,-0.498767,0.812167 HandRight:-0.106844,0.832697,-0.015248,-0.543110 HandTipLeft:0.000000,0.000000,0.000000,0.000000 HandTipRight:0.000000,0.000000,0.000000,0.000000 Head:0.000000,0.000000,0.000000,0.000000 HipLeft:0.185202,-0.662843,0.688424,-0.228936 HipRight:-0.051379,0.687781,0.711093,-0.136616 KneeLeft:-0.025332,0.778131,-0.073620,-0.623258 KneeRight:-0.014361,0.630066,0.001887,0.776407 Neck:0.164776,-0.042512,0.981049,-0.092652 ShoulderLeft:-0.116551,0.740895,-0.627189,0.210059 ShoulderRight:0.104963,0.776363,0.619539,0.049139 SpineBase:0.105741,-0.030706,0.992425,-0.054483 SpineMid:0.134925,-0.032298,0.988880,-0.053555 SpineShoulder:0.164837,-0.037625,0.983023,-0.071269 ThumbLeft:0.000000,0.000000,0.000000,0.000000 ThumbRight:0.000000,0.000000,0.000000,0.000000 WristLeft:-0.172515,-0.275807,-0.505738,0.798998 WristRight:-0.070159,0.842681,0.074118,-0.528651 END:
KINECT_DATA POSITION:21.652994,-2.924857,-5.798972 HEAD_JOINT1:0.981927,0.130229,-0.000000,0.137332 LARM_JOINT2:0.777866,0.000000,-0.559601,-0.285957 LARM_JOINT3:0.961816,0.000000,-0.263972,-0.072308 LLEG_JOINT2:0.996948,0.042751,0.000000,0.065321 LLEG_JOINT4:0.992280,0.086527,0.000000,-0.088844 RARM_JOINT2:0.778311,0.000000,-0.057015,0.625285 RARM_JOINT3:0.964243,0.000000,0.192508,0.182142 RLEG_JOINT2:0.999900,-0.010646,-0.000000,-0.009355 RLEG_JOINT4:0.993121,0.116892,0.000000,-0.006887 WAIST:0.993752,0.000000,-0.111603,0.000884 WAIST_JOINT0:0.986571,0.000000,-0.162524,0.016250 WAIST_JOINT1:0.996282,0.073980,0.000000,-0.044143 END:
KINECT_DATA_Sensor  AnkleLeft:0.100375,0.784545,-0.083851,-0.606121 AnkleRight:0.073462,0.617751,0.078484,0.778992 ElbowLeft:-0.453909,0.888232,0.038598,-0.059340 ElbowRight:0.052893,0.807143,0.182670,0.558886 FootLeft:0.000000,0.000000,0.000000,0.000000 FootRight:0.000000,0.000000,0.000000,0.000000 HandLeft:-0.142008,-0.257455,-0.507913,0.809676 HandRight:-0.087414,0.846369,-0.024995,-0.524780 HandTipLeft:0.000000,0.000000,0.000000,0.000000 HandTipRight:0.000000,0.000000,0.000000,0.000000 Head:0.000000,0.000000,0.000000,0.000000 HipLeft:0.186126,-0.662843,0.687990,-0.229492 HipRight:-0.047127,0.688720,0.711360,-0.131950 KneeLeft:-0.024854,0.780457,-0.074835,-0.620217 KneeRight:-0.013530,0.627321,0.000109,0.778643 Neck:0.158544,-0.042109,0.982064,-0.092962 ShoulderLeft:-0.114122,0.740979,-0.628605,0.206838 ShoulderRight:0.099045,0.780057,0.616271,0.043716 SpineBase:0.109307,-0.030816,0.992056,-0.054096 SpineMid:0.133631,-0.032135,0.989074,-0.053323 SpineShoulder:0.158590,-0.037281,0.984052,-0.071425 ThumbLeft:0.000000,0.000000,0.000000,0.000000 ThumbRight:0.000000,0.000000,0.000000,0.000000 WristLeft:-0.174425,-0.272985,-0.508708,0.797666 WristRight:-0.074910,0.853223,0.071553,-0.511155 END:
KINECT_DATA POSITION:21.587198,-2.911641,-5.863512 HEAD_JOINT1:0.981987,0.129378,-0.000000,0.137707 LARM_JOINT2:0.775583,0.000000,-0.564343,-0.282821 LARM_JOINT3:0.963702,0.000000,-0.256555,-0.073873 LLEG_JOINT2:0.996841,0.043666,0.000000,0.066338 LLEG_JOINT4:0.992669,0.083814,0.000000,-0.087081 RARM_JOINT2:0.774991,0.000000,-0.035586,0.630969 RARM_JOINT3:0.967910,0.000000,0.179627,0.175738 RLEG_JOINT2:0.999909,-0.011204,-0.000000,-0.007481 RLEG_JOINT4:0.993078,0.117238,0.000000,-0.007223 WAIST:0.993288,0.000000,-0.115666,0.000139 WAIST_JOINT0:0.984727,0.000000,-0.173392,0.015734 WAIST_JOINT1:0.996275,0.074041,0.000000,-0.044215 END:
KINECT_DATA_Sensor  AnkleLeft:0.097653,0.790234,-0.083687,-0.599158 AnkleRight:0.073658,0.610750,0.077757,0.784547 ElbowLeft:-0.456376,0.886780,0.046083,-0.056736 ElbowRight:0.041870,0.814065,0.171525,0.553286 FootLeft:0.000000,0.000000,0.000000,0.000000 FootRight:0.000000,0.000000,0.000000,0.000000 HandLeft:-0.135662,-0.291097,-0.500553,0.803931 HandRight:-0.094534,0.821884,-0.038806,-0.560414 HandTipLeft:0.000000,0.000000,0.000000,0.000000 HandTipRight:0.000000,0.000000,0.000000,0.000000 Head:0.000000,0.000000,0.000000,0.000000 HipLeft:0.188101,-0.662570,0.687031,-0.231535 HipRight:-0.044412,0.688605,0.712137,-0.129273 KneeLeft:-0.024846,0.783071,-0.075563,-0.616824 KneeRight:-0.013336,0.624144,-0.001123,0.781194 Neck:0.168873,-0.043348,0.980291,-0.092906 ShoulderLeft:-0.110858,0.740241,-0.630150,0.206552 ShoulderRight:0.115578,0.777218,0.615604,0.060052 SpineBase:0.113421,-0.030914,0.991587,-0.054173 SpineMid:0.140874,-0.032404,0.988061,-0.053295 SpineShoulder:0.168958,-0.038184,0.982294,-0.071363 ThumbLeft:0.000000,0.000000,0.000000,0.000000 ThumbRight:0.000000,0.000000,0.000000,0.000000 WristLeft:-0.155902,-0.295053,-0.515393,0.789309 WristRight:-0.072371,0.833539,0.074400,-0.542623 END:
KINECT_DATA POSITION:21.540869,-2.916594,-5.892360 HEAD_JOINT1:0.981895,0.130126,-0.000000,0.137660 LARM_JOINT2:0.773003,0.000000,-0.566178,-0.286197 LARM_JOINT3:0.965502,0.000000,-0.249807,-0.073501 LLEG_JOINT2:0.996742,0.044618,0.000000,0.067192 LLEG_JOINT4:0.992503,0.085256,0.000000,-0.087569 RARM_JOINT2:0.776334,0.000000,-0.044067,0.628779 RARM_JOINT3:0.965718,0.000000,0.185827,0.181264 RLEG_JOINT2:0.999905,-0.012451,-0.000000,-0.005919 RLEG_JOINT4:0.992508,0.121839,0.000000,-0.009138 WAIST:0.993050,0.000000,-0.117693,-0.000501 WAIST_JOINT0:0.986070,0.000000,-0.165555,0.016024 WAIST_JOINT1:0.996288,0.074119,0.000000,-0.043769 END:
KINECT_DATA_Sensor  AnkleLeft:0.098485,0.786336,-0.086256,-0.603768 AnkleRight:0.076427,0.615375,0.079814,0.780451 ElbowLeft:-0.453748,0.887340,0.054681,-0.061236 ElbowRight:0.047911,0.813012,0.175886,0.552974 FootLeft:0.000000,0.000000,0.000000,0.000000 FootRight:0.000000,0.000000,0.000000,0.000000 HandLeft:-0.123967,-0.299719,-0.488147,0.810255 HandRight:-0.095622,0.876741,-0.038188,-0.469813 HandTipLeft:0.000000,0.000000,0.000000,0.000000 HandTipRight:0.000000,0.000000,0.000000,0.000000 Head:0.000000,0.000000,0.000000,0.000000 HipLeft:0.189031,-0.662759,0.686189,-0.232729 HipRight:-0.043324,0.688579,0.712436,-0.128130 KneeLeft:-0.024615,0.784414,-0.076341,-0.615029 KneeRight:-0.013809,0.622568,-0.002639,0.782439 Neck:0.161154,-0.042488,0.981577,-0.093440 ShoulderLeft:-0.110135,0.740098,-0.630968,0.204952 ShoulderRight:0.106494,0.778411,0.616665,0.049588 SpineBase:0.115512,-0.030831,0.991348,-0.054188 SpineMid:0.138097,-0.032060,0.988454,-0.053471 SpineShoulder:0.161222,-0.037488,0.983586,-0.071832 ThumbLeft:0.000000,0.000000,0.000000,0.000000 ThumbRight:0.000000,0.000000,0.000000,0.000000 WristLeft:-0.154655,-0.301923,-0.518752,0.784742 WristRight:-0.080061,0.884450,0.064253,-0.455204 END:
KINECT_DATA POSITION:21.475386,-2.913871,-5.905104 HEAD_JOINT1:0.981546,0.131527,-0.000000,0.138806 LARM_JOINT2:0.774257,0.000000,-0.565500,-0.284141 LARM_JOINT3:0.964973,0.000000,-0.250239,-0.078786 LLEG_JOINT2:0.996687,0.044265,0.000000,0.068232 LLEG_JOINT4:0.992361,0.084689,0.000000,-0.089706 RARM_JOINT2:0.774345,0.000000,-0.034247,0.631836 RARM_JOINT3:0.967785,0.000000,0.179277,0.176785 RLEG_JOINT2:0.999887,-0.013718,-0.000000,-0.006073 RLEG_JOINT4:0.992551,0.121459,0.000000,-0.009535 WAIST:0.992903,0.000000,-0.118928,-0.000331 WAIST_JOINT0:0.985271,0.000000,-0.170330,0.015143 WAIST_JOINT1:0.996282,0.073939,0.000000,-0.044210 END:
KINECT_DATA_Sensor  AnkleLeft:0.098736,0.788595,-0.084835,-0.600976 AnkleRight:0.074827,0.612645,0.079196,0.782812 ElbowLeft:-0.455397,0.887109,0.050923,-0.055304 ElbowRight:0.042965,0.817097,0.170072,0.549165 FootLeft:0.000000,0.000000,0.000000,0.000000 FootRight:0.000000,0.000000,0.000000,0.000000 HandLeft:-0.203602,-0.168502,-0.455607,0.850044 HandRight:-0.094051,0.852926,-0.039314,-0.511983 HandTipLeft:0.000000,0.000000,0.000000,0.000000 HandTipRight:0.000000,0.000000,0.000000,0.000000 Head:0.000000,0.000000,0.000000,0.000000 HipLeft:0.190111,-0.662422,0.685997,-0.233375 HipRight:-0.043037,0.688748,0.712356,-0.127763 KneeLeft:-0.025865,0.785125,-0.076798,-0.614013 KneeRight:-0.014787,0.621674,-0.003398,0.783129 Neck:0.165877,-0.043023,0.980788,-0.093209 ShoulderLeft:-0.109396,0.739868,-0.631302,0.205147 ShoulderRight:0.113366,0.776506,0.617252,0.056452 SpineBase:0.116721,-0.030978,0.991209,-0.054043 SpineMid:0.141061,-0.032298,0.988039,-0.053265 SpineShoulder:0.165954,-0.037930,0.982799,-0.071599 ThumbLeft:0.000000,0.000000,0.000000,0.000000 ThumbRight:0.000000,0.000000,0.000000,0.000000 WristLeft:-0.237165,-0.172313,-0.484887,0.823981 WristRight:-0.077830,0.861988,0.067174,-0.496394 END:
KINECT_DATA POSITION:21.449606,-2.915375,-5.917287 HEAD_JOINT1:0.981160,0.132162,-0.000000,0.140921 LARM_JOINT2:0.773228,0.000000,-0.567012,-0.283931 LARM_JOINT3:0.965811,0.000000,-0.246967,-0.078849 LLEG_JOINT2:0.996652,0.044440,0.000000,0.068631 LLEG_JOINT4:0.992128,0.082634,0.000000,-0.094091 RARM_JOINT2:0.773483,0.000000,-0.028976,0.633155 RARM_JOINT3:0.968458,0.000000,0.175898,0.176490 RLEG_JOINT2:0.999885,-0.014261,-0.000000,-0.005246 RLEG_JOINT4:0.992359,0.123104,0.000000,-0.008274 WAIST:0.992830,0.000000,-0.119531,-0.000471 WAIST_JOINT0:0.984925,0.000000,-0.172306,0.015294 WAIST_JOINT1:0.996263,0.074206,0.000000,-0.044194 END:
KINECT_DATA_Sensor  AnkleLeft:0.100665,0.789112,-0.080785,-0.600536 AnkleRight:0.076814,0.610977,0.078416,0.784001 ElbowLeft:-0.455618,0.887148,0.051722,-0.052009 ElbowRight:0.040704,0.819926,0.167346,0.545948 FootLeft:0.000000,0.000000,0.000000,0.000000 FootRight:0.000000,0.000000,0.000000,0.000000 HandLeft:-0.139219,-0.282734,-0.478455,0.819610 HandRight:-0.100631,0.839360,-0.044114,-0.532356 HandTipLeft:0.000000,0.000000,0.000000,0.000000 HandTipRight:0.000000,0.000000,0.000000,0.000000 Head:0.000000,0.000000,0.000000,0.000000 HipLeft:0.190462,-0.662300,0.685825,-0.233937 HipRight:-0.042943,0.688609,0.712484,-0.127825 KneeLeft:-0.026015,0.785502,-0.077069,-0.613491 KneeRight:-0.014810,0.621230,-0.004276,0.783477 Neck:0.167691,-0.043205,0.980444,-0.093508 ShoulderLeft:-0.108568,0.739678,-0.631678,0.205115 ShoulderRight:0.116536,0.776199,0.616771,0.059391 SpineBase:0.117332,-0.030909,0.991131,-0.054205 SpineMid:0.142278,-0.032266,0.987858,-0.053408 SpineShoulder:0.167775,-0.038073,0.982469,-0.071812 ThumbLeft:0.000000,0.000000,0.000000,0.000000 ThumbRight:0.000000,0.000000,0.000000,0.000000 WristLeft:-0.168430,-0.283097,-0.511381,0.793711 WristRight:-0.075864,0.851180,0.067790,-0.514920 END:
KINECT_DATA POSITION:21.446608,-2.916816,-5.917764 HEAD_JOINT1:0.980882,0.131958,-0.000000,0.143029 LARM_JOINT2:0.776079,0.000000,-0.560072,-0.289864 LARM_JOINT3:0.963853,0.000000,-0.254645,-0.078375 LLEG_JOINT2:0.996658,0.044853,0.000000,0.068267 LLEG_JOINT4:0.991513,0.087353,0.000000,-0.096288 RARM_JOINT2:0.772392,0.000000,-0.025872,0.634619 RARM_JOINT3:0.969279,0.000000,0.175392,0.172441 RLEG_JOINT2:0.999888,-0.013791,-0.000000,-0.005858 RLEG_JOINT4:0.992298,0.123521,0.000000,-0.009342 WAIST:0.992791,0.000000,-0.119861,-0.000142 WAIST_JOINT0:0.983929,0.000000,-0.177774,0.016721 WAIST_JOINT1:0.996237,0.074417,0.000000,-0.044434 END:
KINECT_DATA_Sensor  AnkleLeft:0.105993,0.790915,-0.082887,-0.596950 AnkleRight:0.088358,0.726310,0.066963,0.678368 ElbowLeft:-0.450392,0.890228,0.045338,-0.050860 ElbowRight:0.039413,0.820402,0.164886,0.546077 FootLeft:0.000000,0.000000,0.000000,0.000000 FootRight:0.000000,0.000000,0.000000,0.000000 HandLeft:-0.145950,-0.263763,-0.485655,0.820528 HandRight:-0.100414,0.843625,-0.037331,-0.526137 HandTipLeft:0.000000,0.000000,0.000000,0.000000 HandTipRight:0.000000,0.000000,0.000000,0.000000 Head:0.000000,0.000000,0.000000,0.000000 HipLeft:0.190725,-0.661973,0.685951,-0.234280 HipRight:-0.042896,0.688817,0.712261,-0.127963 KneeLeft:-0.025728,0.785703,-0.077392,-0.613204 KneeRight:-0.014586,0.620970,-0.003732,0.783690 Neck:0.173139,-0.043597,0.979471,-0.093584 ShoulderLeft:-0.115490,0.735959,-0.632903,0.210857 ShoulderRight:0.117535,0.775683,0.616995,0.061785 SpineBase:0.117625,-0.030798,0.991092,-0.054342 SpineMid:0.145132,-0.032297,0.987439,-0.053464 SpineShoulder:0.173247,-0.038315,0.981506,-0.071852 ThumbLeft:0.000000,0.000000,0.000000,0.000000 ThumbRight:0.000000,0.000000,0.000000,0.000000 WristLeft:-0.179988,-0.272665,-0.502852,0.800249 WristRight:-0.075515,0.854113,0.067012,-0.510194 END:
KINECT_DATA POSITION:21.407873,-2.958648,-5.841386 HEAD_JOINT1:0.980783,0.130898,-0.000000,0.144672 LARM_JOINT2:0.808144,0.000000,-0.505987,-0.301463 LARM_JOINT3:0.926938,0.000000,-0.355392,-0.120345 LLEG_JOINT2:0.996829,0.044229,0.000000,0.066145 LLEG_JOINT4:0.991787,0.087299,0.000000,-0.093470 RARM_JOINT2:0.776408,0.000000,-0.043238,0.628745 RARM_JOINT3:0.964407,0.000000,0.189848,0.184055 RLEG_JOINT2:0.999881,-0.013358,-0.000000,-0.007711 RLEG_JOINT4:0.992563,0.121476,0.000000,-0.007862 WAIST:0.992999,0.000000,-0.118106,0.001834 WAIST_JOINT0:0.986503,0.000000,-0.162585,0.019441 WAIST_JOINT1:0.996292,0.073506,0.000000,-0.044711 END:
KINECT_DATA_Sensor  AnkleLeft:0.103001,0.784172,-0.085074,-0.605993 AnkleRight:0.076981,0.617058,0.077567,0.779293 ElbowLeft:-0.432106,0.895689,0.006579,-0.104794 ElbowRight:0.049327,0.818921,0.173852,0.544711 FootLeft:0.000000,0.000000,0.000000,0.000000 FootRight:0.000000,0.000000,0.000000,0.000000 HandLeft:-0.146632,-0.435443,-0.480713,0.746863 HandRight:-0.123813,0.838228,-0.014464,-0.530881 HandTipLeft:0.000000,0.000000,0.000000,0.000000 HandTipRight:0.000000,0.000000,0.000000,0.000000 Head:0.000000,0.000000,0.000000,0.000000 HipLeft:0.190224,-0.661458,0.687194,-0.232491 HipRight:-0.044473,0.690387,0.710640,-0.127978 KneeLeft:-0.025713,0.784528,-0.077025,-0.614754 KneeRight:-0.013986,0.622319,-0.003436,0.782631 Neck:0.158460,-0.040516,0.982161,-0.092779 ShoulderLeft:-0.114335,0.735794,-0.634620,0.206862 ShoulderRight:0.099541,0.779334,0.617142,0.043188 SpineBase:0.115775,-0.029925,0.991398,-0.053211 SpineMid:0.136869,-0.031052,0.988706,-0.052561 SpineShoulder:0.158505,-0.036006,0.984098,-0.071635 ThumbLeft:0.000000,0.000000,0.000000,0.000000 ThumbRight:0.000000,0.000000,0.000000,0.000000 WristLeft:-0.130462,-0.402328,-0.542483,0.725827 WristRight:-0.075035,0.849598,0.064227,-0.518100 END:
KINECT_DATA POSITION:21.202396,-3.104771,-5.342031 HEAD_JOINT1:0.979758,0.127081,-0.000000,0.154674 LARM_JOINT2:0.879125,0.000000,-0.334896,-0.339092 LARM_JOINT3:0.788563,0.000000,-0.565015,-0.242748 LLEG_JOINT2:0.997150,0.043117,0.000000,0.061914 LLEG_JOINT4:0.992379,0.088103,0.000000,-0.086146 RARM_JOINT2:0.774568,0.000000,-0.039671,0.631245 RARM_JOINT3:0.962998,0.000000,0.207617,0.171841 RLEG_JOINT2:0.999866,-0.009425,-0.000000,-0.013392 RLEG_JOINT4:0.992666,0.120798,0.000000,-0.004807 WAIST:0.994258,0.000000,-0.106767,0.007182 WAIST_JOINT0:0.986987,0.000000,-0.160254,0.013221 WAIST_JOINT1:0.996635,0.068372,0.000000,-0.045213 END:
KINECT_DATA_Sensor  AnkleLeft:0.098662,0.783992,-0.088405,-0.606471 AnkleRight:0.079944,0.617989,0.079487,0.778062 ElbowLeft:-0.352849,0.908279,-0.140748,-0.175262 ElbowRight:0.037350,0.807303,0.166063,0.565058 FootLeft:0.000000,0.000000,0.000000,0.000000 FootRight:0.000000,0.000000,0.000000,0.000000 HandLeft:-0.344507,-0.332512,-0.556867,0.678712 HandRight:-0.145096,0.826106,0.009295,-0.544436 HandTipLeft:0.000000,0.000000,0.000000,0.000000 HandTipRight:0.000000,0.000000,0.000000,0.000000 Head:0.000000,0.000000,0.000000,0.000000 HipLeft:0.189311,-0.661297,0.690811,-0.222774 HipRight:-0.057727,0.693356,0.706004,-0.132230 KneeLeft:-0.026006,0.777420,-0.077554,-0.623641 KneeRight:-0.010667,0.630752,-0.000521,0.775911 Neck:0.159148,-0.036873,0.982835,-0.085718 ShoulderLeft:-0.110709,0.748639,-0.622156,0.200512 ShoulderRight:0.100973,0.777426,0.618824,0.049700 SpineBase:0.104421,-0.028328,0.993054,-0.046237 SpineMid:0.131373,-0.029575,0.989849,-0.045450 SpineShoulder:0.159108,-0.033561,0.984459,-0.066324 ThumbLeft:0.000000,0.000000,0.000000,0.000000 ThumbRight:0.000000,0.000000,0.000000,0.000000 WristLeft:-0.285355,-0.329913,-0.506597,0.743700 WristRight:-0.087133,0.839109,0.081157,-0.530770 END:
KINECT_DATA POSITION:21.098167,-3.478398,-4.980338 HEAD_JOINT1:0.978604,0.129337,-0.000000,0.160021 LARM_JOINT2:0.862039,0.000000,-0.265445,-0.431772 LARM_JOINT3:0.762659,0.000000,-0.612457,-0.207962 LLEG_JOINT2:0.997438,0.041141,0.000000,0.058516 LLEG_JOINT4:0.992135,0.094466,0.000000,-0.082120 RARM_JOINT2:0.776974,0.000000,-0.043740,0.628011 RARM_JOINT3:0.963528,0.000000,0.208028,0.168338 RLEG_JOINT2:0.999853,-0.004375,-0.000000,-0.016587 RLEG_JOINT4:0.992657,0.120949,0.000000,0.001642 WAIST:0.996412,0.000000,-0.084098,0.009544 WAIST_JOINT0:0.992300,0.000000,-0.123816,0.003305 WAIST_JOINT1:0.997102,0.064766,0.000000,-0.039918 END:
KINECT_DATA_Sensor  AnkleLeft:0.093843,0.717636,-0.099139,-0.682908 AnkleRight:0.090983,0.685531,0.074388,0.718495 ElbowLeft:-0.272958,0.902383,-0.111826,-0.314156 ElbowRight:0.033581,0.816234,0.163569,0.553064 FootLeft:0.000000,0.000000,0.000000,0.000000 FootRight:0.000000,0.000000,0.000000,0.000000 HandLeft:0.228205,0.427562,0.647429,-0.588174 HandRight:-0.155429,0.824592,0.008360,-0.543894 HandTipLeft:0.000000,0.000000,0.000000,0.000000 HandTipRight:0.000000,0.000000,0.000000,0.000000 Head:0.000000,0.000000,0.000000,0.000000 HipLeft:0.179227,-0.663826,0.695051,-0.210041 HipRight:-0.075548,0.692999,0.702592,-0.142863 KneeLeft:-0.024710,0.763004,-0.075975,-0.641437 KneeRight:-0.007284,0.647591,0.003127,0.761947 Neck:0.124303,-0.029324,0.988495,-0.081034 ShoulderLeft:-0.078983,0.773363,-0.606441,0.167036 ShoulderRight:0.083118,0.780837,0.618497,0.029076 SpineBase:0.082039,-0.024373,0.995448,-0.041931 SpineMid:0.102758,-0.025241,0.993523,-0.041414 SpineShoulder:0.124209,-0.027035,0.989935,-0.062203 ThumbLeft:0.000000,0.000000,0.000000,0.000000 ThumbRight:0.000000,0.000000,0.000000,0.000000 WristLeft:0.143009,0.397246,0.612202,-0.668546 WristRight:-0.087531,0.839477,0.077588,-0.530657 END:
KINECT_DATA POSITION:21.063496,-3.804785,-4.699945 HEAD_JOINT1:0.981127,0.136998,-0.000000,0.136461 LARM_JOINT2:0.878095,0.000000,-0.174444,-0.445554 LARM_JOINT3:0.727650,0.000000,-0.654175,-0.206349 LLEG_JOINT2:0.997948,0.038089,0.000000,0.051464 LLEG_JOINT4:0.993352,0.092685,0.000000,-0.068272 RARM_JOINT2:0.784911,0.000000,-0.042878,0.618123 RARM_JOINT3:0.958636,0.000000,0.213471,0.188275 RLEG_JOINT2:0.999775,0.004529,0.000000,-0.020710 RLEG_JOINT4:0.993273,0.115441,0.000000,0.009093 WAIST:0.998715,0.000000,-0.048692,0.014017 WAIST_JOINT0:0.997693,0.000000,-0.066648,0.012921 WAIST_JOINT1:0.997542,0.063945,0.000000,-0.028664 END:
KINECT_DATA_Sensor  AnkleLeft:0.087257,0.706821,-0.097614,-0.695171 AnkleRight:0.095108,0.705126,0.074216,0.698745 ElbowLeft:-0.226119,0.871993,-0.182740,-0.393833 ElbowRight:0.029216,0.840772,0.161146,0.516025 FootLeft:0.000000,0.000000,0.000000,0.000000 FootRight:0.000000,0.000000,0.000000,0.000000 HandLeft:0.089015,0.365204,0.736215,-0.562752 HandRight:-0.215770,0.720157,-0.008166,-0.659356 HandTipLeft:0.000000,0.000000,0.000000,0.000000 HandTipRight:0.000000,0.000000,0.000000,0.000000 Head:0.000000,0.000000,0.000000,0.000000 HipLeft:0.158271,-0.666745,0.701573,-0.195439 HipRight:-0.099686,0.693535,0.694701,-0.162672 KneeLeft:-0.022289,0.739427,-0.072713,-0.668927 KneeRight:-0.000629,0.673576,0.008473,0.739069 Neck:0.066695,-0.014043,0.994469,-0.079909 ShoulderLeft:-0.031925,0.779328,-0.615082,0.115335 ShoulderRight:0.054419,0.790418,0.610087,-0.008537 SpineBase:0.046799,-0.014377,0.997931,-0.041676 SpineMid:0.056478,-0.014781,0.997430,-0.041534 SpineShoulder:0.066708,-0.012364,0.995877,-0.060213 ThumbLeft:0.000000,0.000000,0.000000,0.000000 ThumbRight:0.000000,0.000000,0.000000,0.000000 WristLeft:0.038854,0.408654,0.611926,-0.676047 WristRight:-0.090370,0.756338,0.078974,-0.643078 END:
KINECT_DATA POSITION:20.908741,-3.944176,-4.445171 HEAD_JOINT1:0.983611,0.144515,-0.000000,0.107813 LARM_JOINT2:0.876667,0.000000,-0.114216,-0.467342 LARM_JOINT3:0.716712,0.000000,-0.676175,-0.170619 LLEG_JOINT2:0.997989,0.038821,0.000000,0.050116 LLEG_JOINT4:0.995102,0.083063,0.000000,-0.053597 RARM_JOINT2:0.796615,0.000000,-0.060201,0.601482 RARM_JOINT3:0.940449,0.000000,0.232683,0.247820 RLEG_JOINT2:0.999809,0.007212,0.000000,-0.018167 RLEG_JOINT4:0.993050,0.116739,0.000000,0.014927 WAIST:0.999785,0.000000,-0.016536,0.012471 WAIST_JOINT0:0.999726,0.000000,-0.004798,0.022900 WAIST_JOINT1:0.997865,0.063362,0.000000,-0.015815 END:
KINECT_DATA_Sensor  AnkleLeft:0.078701,0.711009,-0.093167,-0.692526 AnkleRight:0.097043,0.702116,0.077909,0.701104 ElbowLeft:-0.188228,0.830050,-0.209053,-0.481544 ElbowRight:0.040071,0.876953,0.173504,0.446367 FootLeft:0.000000,0.000000,0.000000,0.000000 FootRight:0.000000,0.000000,0.000000,0.000000 HandLeft:-0.414360,0.542804,0.618859,-0.388178 HandRight:0.299599,-0.689293,0.034355,0.658738 HandTipLeft:0.000000,0.000000,0.000000,0.000000 HandTipRight:0.000000,0.000000,0.000000,0.000000 Head:0.000000,0.000000,0.000000,0.000000 HipLeft:0.136899,-0.670716,0.706306,-0.180360 HipRight:-0.120762,0.688252,0.693486,-0.175509 KneeLeft:-0.017690,0.717733,-0.071577,-0.692404 KneeRight:0.001381,0.696268,0.009251,0.717721 Neck:0.004583,-0.002491,0.996856,-0.079069 ShoulderLeft:0.010751,0.776473,-0.626753,0.064457 ShoulderRight:0.017234,0.795217,0.603602,-0.054761 SpineBase:0.015318,-0.003957,0.999043,-0.040774 SpineMid:0.009938,-0.003737,0.999111,-0.040795 SpineShoulder:0.004656,-0.001329,0.998267,-0.058647 ThumbLeft:0.000000,0.000000,0.000000,0.000000 ThumbRight:0.000000,0.000000,0.000000,0.000000 WristLeft:-0.327014,0.652055,0.533433,-0.428176 WristRight:-0.120558,0.752464,0.049313,-0.645625 END:
KINECT_DATA POSITION:20.882561,-3.980284,-4.423416 HEAD_JOINT1:0.985765,0.151055,-0.000000,0.073829 LARM_JOINT2:0.870752,0.000000,-0.031385,-0.490720 LARM_JOINT3:0.734824,0.000000,-0.663943,-0.138613 LLEG_JOINT2:0.998400,0.033609,0.000000,0.045468 LLEG_JOINT4:0.995848,0.081099,0.000000,-0.041343 RARM_JOINT2:0.810318,0.000000,-0.037674,0.584779 RARM_JOINT3:0.939739,0.000000,0.218720,0.262778 RLEG_JOINT2:0.999700,0.004794,0.000000,-0.024026 RLEG_JOINT4:0.991600,0.125855,0.000000,0.029850 WAIST:0.999692,-0.000000,0.020169,0.014425 WAIST_JOINT0:0.998039,-0.000000,0.051659,0.035338 WAIST_JOINT1:0.997947,0.064041,0.000000,-0.000765 END:
KINECT_DATA_Sensor  AnkleLeft:0.072148,0.703292,-0.090228,-0.701452 AnkleRight:0.103581,0.702536,0.081642,0.699321 ElbowLeft:-0.136919,0.765480,-0.247317,-0.578038 ElbowRight:0.024748,0.915596,0.170772,0.363193 FootLeft:0.000000,0.000000,0.000000,0.000000 FootRight:0.000000,0.000000,0.000000,0.000000 HandLeft:0.187059,-0.098950,-0.553650,0.805412 HandRight:0.307581,-0.670835,0.070857,0.671084 HandTipLeft:0.000000,0.000000,0.000000,0.000000 HandTipRight:0.000000,0.000000,0.000000,0.000000 Head:0.000000,0.000000,0.000000,0.000000 HipLeft:0.107717,-0.675757,0.711511,-0.159692 HipRight:-0.141122,0.687231,0.686864,-0.189781 KneeLeft:0.017343,-0.691756,0.066276,0.718875 KneeRight:-0.003804,0.721599,0.009903,0.692230 Neck:-0.052319,0.014554,0.995361,-0.079423 ShoulderLeft:0.053431,0.767082,-0.639109,0.016443 ShoulderRight:-0.013407,0.797205,0.595927,-0.095688 SpineBase:-0.020982,0.007794,0.998910,-0.040955 SpineMid:-0.036538,0.008431,0.998462,-0.040829 SpineShoulder:-0.052147,0.014259,0.996824,-0.058481 ThumbLeft:0.000000,0.000000,0.000000,0.000000 ThumbRight:0.000000,0.000000,0.000000,0.000000 WristLeft:0.031512,-0.189827,-0.606075,0.771781 WristRight:-0.133976,0.742397,0.024432,-0.655973 END:
KINECT_DATA POSITION:20.806995,-4.022834,-4.401028 HEAD_JOINT1:0.987912,0.152518,-0.000000,0.027702 LARM_JOINT2:0.812099,0.000000,0.101407,-0.574641 LARM_JOINT3:0.664330,0.000000,-0.747041,-0.024393 LLEG_JOINT2:0.999075,0.025221,0.000000,0.034819 LLEG_JOINT4:0.996571,0.078369,0.000000,-0.026552 RARM_JOINT2:0.821725,0.000000,-0.019037,0.569567 RARM_JOINT3:0.940568,0.000000,0.205761,0.270173 RLEG_JOINT2:0.999375,0.008743,0.000000,-0.034239 RLEG_JOINT4:0.991383,0.124601,0.000000,0.040416 WAIST:0.997625,-0.000000,0.065564,0.021133 WAIST_JOINT0:0.990753,-0.000000,0.124844,0.053122 WAIST_JOINT1:0.997744,0.065697,-0.000000,0.013814 END:
KINECT_DATA_Sensor  AnkleLeft:-0.062150,-0.690594,0.085917,0.715427 AnkleRight:0.111120,0.773191,0.076119,0.619705 ElbowLeft:0.028771,-0.613065,0.243248,0.751101 ElbowRight:0.010302,0.943868,0.163297,0.286953 FootLeft:0.000000,0.000000,0.000000,0.000000 FootRight:0.000000,0.000000,0.000000,0.000000 HandLeft:0.536168,-0.309702,-0.474326,0.625798 HandRight:0.295659,-0.628473,0.109361,0.711088 HandTipLeft:0.000000,0.000000,0.000000,0.000000 HandTipRight:0.000000,0.000000,0.000000,0.000000 Head:0.000000,0.000000,0.000000,0.000000 HipLeft:0.073522,-0.674986,0.721459,-0.135959 HipRight:-0.168547,0.685468,0.677219,-0.207605 KneeLeft:0.018850,-0.658418,0.057750,0.750197 KneeRight:-0.005048,0.751811,0.014204,0.659207 Neck:-0.126822,0.035556,0.987992,-0.080772 ShoulderLeft:0.112550,0.745075,-0.655695,-0.047540 ShoulderRight:-0.050582,0.795467,0.585717,-0.147000 SpineBase:-0.066047,0.026351,0.996589,-0.041873 SpineMid:-0.095985,0.027598,0.994153,-0.041061 SpineShoulder:-0.126468,0.034159,0.989611,-0.059236 ThumbLeft:0.000000,0.000000,0.000000,0.000000 ThumbRight:0.000000,0.000000,0.000000,0.000000 WristLeft:0.439099,-0.386082,-0.475895,0.657006 WristRight:0.147221,-0.639555,-0.017782,0.754307 END:
KINECT_DATA POSITION:20.292463,-4.079063,-4.230380 HEAD_JOINT1:0.987740,0.155870,-0.000000,0.008634 LARM_JOINT2:0.841353,0.000000,0.123392,-0.526212 LARM_JOINT3:0.733064,0.000000,-0.651428,0.195600 LLEG_JOINT2:0.999430,0.013889,0.000000,0.030772 LLEG_JOINT4:0.996135,0.086571,0.000000,-0.014851 RARM_JOINT2:0.826800,0.000000,-0.014939,0.562298 RARM_JOINT3:0.943426,0.000000,0.195877,0.267543 RLEG_JOINT2:0.999050,0.009491,0.000000,-0.042542 RLEG_JOINT4:0.989701,0.131519,0.000000,0.056524 WAIST:0.994785,-0.000000,0.098646,0.025931 WAIST_JOINT0:0.982682,-0.000000,0.172609,0.067395 WAIST_JOINT1:0.997680,0.064587,-0.000000,0.021515 END:
KINECT_DATA_Sensor  AnkleLeft:-0.056859,-0.687560,0.089625,0.718329 AnkleRight:0.109240,0.692710,0.093836,0.706693 ElbowLeft:0.101635,-0.431847,0.291157,0.847589 ElbowRight:0.003822,0.957826,0.157852,0.240077 FootLeft:0.000000,0.000000,0.000000,0.000000 FootRight:0.000000,0.000000,0.000000,0.000000 HandLeft:0.436856,0.064573,-0.614469,0.653769 HandRight:0.274041,-0.612957,0.120247,0.731250 HandTipLeft:0.000000,0.000000,0.000000,0.000000 HandTipRight:0.000000,0.000000,0.000000,0.000000 Head:0.000000,0.000000,0.000000,0.000000 HipLeft:0.052012,-0.672458,0.728392,-0.120581 HipRight:-0.193930,0.681637,0.669106,-0.223740 KneeLeft:0.027015,-0.633567,0.050956,0.771535 KneeRight:-0.008571,0.772928,0.015970,0.634234 Neck:-0.175698,0.047320,0.980105,-0.079277 ShoulderLeft:0.153257,0.723747,-0.666469,-0.092318 ShoulderRight:-0.073403,0.792912,0.578476,-0.176829 SpineBase:-0.098857,0.039469,0.993427,-0.042107 SpineMid:-0.136543,0.041041,0.988952,-0.040577 SpineShoulder:-0.175258,0.045361,0.981775,-0.057835 ThumbLeft:0.000000,0.000000,0.000000,0.000000 ThumbRight:0.000000,0.000000,0.000000,0.000000 WristLeft:0.380653,0.067628,-0.519673,0.761886 WristRight:0.149983,-0.626103,-0.002626,0.765176 END:
KINECT_DATA POSITION:19.634623,-4.168070,-3.879273 HEAD_JOINT1:0.987876,0.155134,-0.000000,0.005894 LARM_JOINT2:0.887702,0.000000,0.108583,-0.447432 LARM_JOINT3:0.841084,0.000000,-0.492662,0.223298 LLEG_JOINT2:0.999618,0.008987,0.000000,0.026137 LLEG_JOINT4:0.996015,0.089019,0.000000,-0.005473 RARM_JOINT2:0.828888,0.000000,-0.013945,0.559240 RARM_JOINT3:0.944165,0.000000,0.189159,0.269760 RLEG_JOINT2:0.998829,0.010398,0.000000,-0.047240 RLEG_JOINT4:0.989590,0.131273,0.000000,0.058980 WAIST:0.992812,-0.000000,0.115044,0.033010 WAIST_JOINT0:0.979038,-0.000000,0.189667,0.074231 WAIST_JOINT1:0.997748,0.062682,-0.000000,0.023877 END:
KINECT_DATA_Sensor  AnkleLeft:-0.038464,-0.595541,0.100935,0.796030 AnkleRight:0.124220,0.802459,0.074495,0.578861 ElbowLeft:0.194635,-0.368261,0.337738,0.844058 ElbowRight:0.000500,0.963223,0.151131,0.222171 FootLeft:0.000000,0.000000,0.000000,0.000000 FootRight:0.000000,0.000000,0.000000,0.000000 HandLeft:-0.316097,-0.392261,0.620562,-0.600930 HandRight:0.253267,-0.589718,0.137480,0.754446 HandTipLeft:0.000000,0.000000,0.000000,0.000000 HandTipRight:0.000000,0.000000,0.000000,0.000000 Head:0.000000,0.000000,0.000000,0.000000 HipLeft:0.041812,-0.667988,0.734483,-0.112151 HipRight:-0.208999,0.682329,0.660856,-0.232415 KneeLeft:0.032442,-0.620777,0.049433,0.781754 KneeRight:-0.007248,0.783363,0.014147,0.621362 Neck:-0.193076,0.055866,0.976554,-0.077086 ShoulderLeft:0.165435,0.713300,-0.672387,-0.108307 ShoulderRight:-0.084142,0.793275,0.573312,-0.186944 SpineBase:-0.115398,0.048370,0.991295,-0.040969 SpineMid:-0.153350,0.049906,0.986137,-0.039083 SpineShoulder:-0.192504,0.053769,0.978232,-0.055790 ThumbLeft:0.000000,0.000000,0.000000,0.000000 ThumbRight:0.000000,0.000000,0.000000,0.000000 WristLeft:0.284512,0.429050,-0.544474,0.662206 WristRight:0.158566,-0.607903,0.002731,0.778013 END:
KINECT_DATA POSITION:19.118176,-4.176839,-3.678823 HEAD_JOINT1:0.987660,0.156179,-0.000000,0.011612 LARM_JOINT2:0.928296,0.000000,0.022651,-0.371152 LARM_JOINT3:0.930858,0.000000,-0.323702,0.169472 LLEG_JOINT2:0.999623,0.008404,0.000000,0.026131 LLEG_JOINT4:0.996091,0.088322,0.000000,-0.001324 RARM_JOINT2:0.826163,0.000000,-0.013787,0.563262 RARM_JOINT3:0.946343,0.000000,0.184693,0.265185 RLEG_JOINT2:0.998900,0.008258,0.000000,-0.046156 RLEG_JOINT4:0.988714,0.136526,0.000000,0.061685 WAIST:0.992100,-0.000000,0.120492,0.034919 WAIST_JOINT0:0.979898,-0.000000,0.185073,0.074480 WAIST_JOINT1:0.997914,0.060526,-0.000000,0.022458 END:
KINECT_DATA_Sensor  AnkleLeft:0.051665,0.721936,-0.096732,-0.683215 AnkleRight:0.129125,0.799499,0.074855,0.581829 ElbowLeft:0.301528,-0.388264,0.335471,0.803611 ElbowRight:-0.001173,0.963776,0.145267,0.223680 FootLeft:0.000000,0.000000,0.000000,0.000000 FootRight:0.000000,0.000000,0.000000,0.000000 HandLeft:0.368926,0.465954,-0.520747,0.612864 HandRight:0.233485,-0.611854,0.160674,0.738446 HandTipLeft:0.000000,0.000000,0.000000,0.000000 HandTipRight:0.000000,0.000000,0.000000,0.000000 Head:0.000000,0.000000,0.000000,0.000000 HipLeft:0.038559,-0.667597,0.735960,-0.105787 HipRight:-0.212982,0.682965,0.658371,-0.233975 KneeLeft:0.034109,-0.616263,0.050463,0.785181 KneeRight:-0.006566,0.786755,0.010275,0.617145 Neck:-0.188524,0.055375,0.977607,-0.075344 ShoulderLeft:0.159001,0.714044,-0.673894,-0.103569 ShoulderRight:-0.084823,0.794430,0.572482,-0.184257 SpineBase:-0.120954,0.048864,0.990703,-0.038612 SpineMid:-0.153870,0.050122,0.986126,-0.036964 SpineShoulder:-0.187928,0.053433,0.979234,-0.054112 ThumbLeft:0.000000,0.000000,0.000000,0.000000 ThumbRight:0.000000,0.000000,0.000000,0.000000 WristLeft:0.331490,0.470635,-0.497234,0.649134 WristRight:0.161344,-0.635405,0.008293,0.755089 END:
KINECT_DATA POSITION:18.572880,-4.109457,-3.546000 HEAD_JOINT1:0.986579,0.161561,-0.000000,0.023679 LARM_JOINT2:0.946450,0.000000,-0.013164,-0.322583 LARM_JOINT3:0.970483,0.000000,-0.203640,0.129201 LLEG_JOINT2:0.999569,0.009744,0.000000,0.027677 LLEG_JOINT4:0.996150,0.087485,0.000000,-0.005546 RARM_JOINT2:0.822341,0.000000,-0.029302,0.568240 RARM_JOINT3:0.946477,0.000000,0.189951,0.260960 RLEG_JOINT2:0.999180,0.008696,0.000000,-0.039542 RLEG_JOINT4:0.989404,0.134890,0.000000,0.053707 WAIST:0.992989,-0.000000,0.112381,0.036652 WAIST_JOINT0:0.985252,-0.000000,0.154800,0.072908 WAIST_JOINT1:0.998119,0.058589,-0.000000,0.018074 END:
KINECT_DATA_Sensor  AnkleLeft:0.049744,0.712587,-0.097710,-0.692963 AnkleRight:0.122230,0.739971,0.084008,0.656083 ElbowLeft:0.363569,-0.388411,0.328350,0.780474 ElbowRight:0.006761,0.953275,0.147133,0.263767 FootLeft:0.000000,0.000000,0.000000,0.000000 FootRight:0.000000,0.000000,0.000000,0.000000 HandLeft:0.385574,0.531351,-0.494637,0.569503 HandRight:0.238159,-0.636082,0.181576,0.711133 HandTipLeft:0.000000,0.000000,0.000000,0.000000 HandTipRight:0.000000,0.000000,0.000000,0.000000 Head:0.000000,0.000000,0.000000,0.000000 HipLeft:0.043081,-0.666575,0.736627,-0.105838 HipRight:-0.206513,0.686503,0.659024,-0.227494 KneeLeft:0.035469,-0.622244,0.053642,0.780177 KneeRight:0.000402,0.781948,0.005524,0.623319 Neck:-0.158447,0.051495,0.983248,-0.073934 ShoulderLeft:0.131758,0.720171,-0.677046,-0.074852 ShoulderRight:-0.073519,0.798131,0.574616,-0.165523 SpineBase:-0.113050,0.047138,0.991810,-0.036209 SpineMid:-0.134942,0.047927,0.989069,-0.035159 SpineShoulder:-0.157795,0.050254,0.984772,-0.052906 ThumbLeft:0.000000,0.000000,0.000000,0.000000 ThumbRight:0.000000,0.000000,0.000000,0.000000 WristLeft:0.346625,0.547246,-0.469865,0.599667 WristRight:0.154675,-0.662027,0.000060,0.733346 END:
KINECT_DATA POSITION:18.427395,-4.077226,-3.634441 HEAD_JOINT1:0.985620,0.166019,-0.000000,0.031486 LARM_JOINT2:0.954032,0.000000,-0.042449,-0.296684 LARM_JOINT3:0.976164,0.000000,-0.186754,0.110577 LLEG_JOINT2:0.999484,0.010512,0.000000,0.030362 LLEG_JOINT4:0.996298,0.085645,0.000000,-0.007378 RARM_JOINT2:0.818599,0.000000,-0.031984,0.573474 RARM_JOINT3:0.946802,0.000000,0.191904,0.258339 RLEG_JOINT2:0.999399,0.008997,0.000000,-0.033490 RLEG_JOINT4:0.990378,0.130476,0.000000,0.046132 WAIST:0.994247,-0.000000,0.101112,0.035354 WAIST_JOINT0:0.988701,-0.000000,0.132439,0.070218 WAIST_JOINT1:0.998222,0.057553,-0.000000,0.015537 END:
KINECT_DATA_Sensor  AnkleLeft:0.050568,0.735692,-0.096542,-0.668490 AnkleRight:0.112986,0.686594,0.089279,0.712638 ElbowLeft:0.396690,-0.408271,0.316007,0.759007 ElbowRight:0.009261,0.946465,0.145609,0.287951 FootLeft:0.000000,0.000000,0.000000,0.000000 FootRight:0.000000,0.000000,0.000000,0.000000 HandLeft:0.408905,0.412718,-0.474905,0.661004 HandRight:0.252656,-0.609665,0.180246,0.729373 HandTipLeft:0.000000,0.000000,0.000000,0.000000 HandTipRight:0.000000,0.000000,0.000000,0.000000 Head:0.000000,0.000000,0.000000,0.000000 HipLeft:0.047971,-0.667141,0.735389,-0.108745 HipRight:-0.197157,0.688633,0.662542,-0.218980 KneeLeft:0.035965,-0.630952,0.055177,0.773021 KneeRight:0.004726,0.774877,0.003136,0.632087 Neck:-0.136242,0.046987,0.986860,-0.073057 ShoulderLeft:0.112117,0.724512,-0.677936,-0.053995 ShoulderRight:-0.064568,0.800406,0.576419,-0.151402 SpineBase:-0.101776,0.045301,0.993142,-0.035475 SpineMid:-0.118202,0.045882,0.991321,-0.034720 SpineShoulder:-0.135537,0.046790,0.988290,-0.052188 ThumbLeft:0.000000,0.000000,0.000000,0.000000 ThumbRight:0.000000,0.000000,0.000000,0.000000 WristLeft:0.408907,0.453800,-0.418264,0.672246 WristRight:0.153668,-0.634406,-0.014333,0.757436 END:
KINECT_DATA POSITION:18.522516,-4.012835,-3.852820 HEAD_JOINT1:0.983712,0.173279,-0.000000,0.047801 LARM_JOINT2:0.957849,0.000000,-0.059371,-0.281071 LARM_JOINT3:0.972839,0.000000,-0.204260,0.108916 LLEG_JOINT2:0.999393,0.011453,0.000000,0.032895 LLEG_JOINT4:0.995928,0.089069,0.000000,-0.013941 RARM_JOINT2:0.813191,0.000000,-0.036989,0.580821 RARM_JOINT3:0.946322,0.000000,0.195774,0.257190 RLEG_JOINT2:0.999473,0.008099,0.000000,-0.031431 RLEG_JOINT4:0.990724,0.129527,0.000000,0.041092 WAIST:0.995595,-0.000000,0.087546,0.033574 WAIST_JOINT0:0.991549,-0.000000,0.111529,0.066276 WAIST_JOINT1:0.998283,0.057995,-0.000000,0.008181 END:
KINECT_DATA_Sensor  AnkleLeft:-0.049757,-0.696788,0.098543,0.708731 AnkleRight:0.120234,0.764972,0.074337,0.628360 ElbowLeft:0.404725,-0.445323,0.313068,0.734761 ElbowRight:0.013966,0.938028,0.147875,0.313116 FootLeft:0.000000,0.000000,0.000000,0.000000 FootRight:0.000000,0.000000,0.000000,0.000000 HandLeft:-0.158673,-0.609224,0.613416,-0.476854 HandRight:0.250503,-0.650210,0.196301,0.689885 HandTipLeft:0.000000,0.000000,0.000000,0.000000 HandTipRight:0.000000,0.000000,0.000000,0.000000 Head:0.000000,0.000000,0.000000,0.000000 HipLeft:0.057654,-0.667658,0.733416,-0.114061 HipRight:-0.187720,0.689602,0.666405,-0.212402 KneeLeft:0.036033,-0.641223,0.056301,0.764438 KneeRight:0.004855,0.766316,0.002657,0.642440 Neck:-0.115154,0.037705,0.989893,-0.073684 ShoulderLeft:0.093496,0.731001,-0.675119,-0.033327 ShoulderRight:-0.055839,0.801378,0.579086,-0.139049 SpineBase:-0.088344,0.038850,0.994736,-0.034445 SpineMid:-0.100988,0.039285,0.993532,-0.033948 SpineShoulder:-0.114523,0.038177,0.991309,-0.052287 ThumbLeft:0.000000,0.000000,0.000000,0.000000 ThumbRight:0.000000,0.000000,0.000000,0.000000 WristLeft:0.181962,0.659472,-0.561110,0.465985 WristRight:-0.152924,0.749255,-0.002213,-0.644381 END:
KINECT_DATA POSITION:18.740744,-3.966367,-3.992879 HEAD_JOINT1:0.983038,0.175053,-0.000000,0.054697 LARM_JOINT2:0.958273,0.000000,-0.080693,-0.274228 LARM_JOINT3:0.973887,0.000000,-0.202536,0.102582 LLEG_JOINT2:0.999355,0.013157,0.000000,0.033421 LLEG_JOINT4:0.995771,0.089774,0.000000,-0.019529 RARM_JOINT2:0.810772,0.000000,-0.039759,0.584011 RARM_JOINT3:0.945572,0.000000,0.201742,0.255331 RLEG_JOINT2:0.999498,0.007053,0.000000,-0.030881 RLEG_JOINT4:0.990551,0.131921,0.000000,0.037489 WAIST:0.996430,-0.000000,0.077910,0.032528 WAIST_JOINT0:0.993243,-0.000000,0.097609,0.062776 WAIST_JOINT1:0.998259,0.058741,-0.000000,0.005368 END:
KINECT_DATA_Sensor  AnkleLeft:-0.047668,-0.651815,0.099353,0.750330 AnkleRight:0.117229,0.743890,0.079894,0.653071 ElbowLeft:0.415080,-0.469645,0.300436,0.718944 ElbowRight:0.016731,0.930828,0.149279,0.333159 FootLeft:0.000000,0.000000,0.000000,0.000000 FootRight:0.000000,0.000000,0.000000,0.000000 HandLeft:-0.267903,-0.481645,0.561078,-0.617607 HandRight:0.258237,-0.644566,0.178375,0.697159 HandTipLeft:0.000000,0.000000,0.000000,0.000000 HandTipRight:0.000000,0.000000,0.000000,0.000000 Head:0.000000,0.000000,0.000000,0.000000 HipLeft:0.064208,-0.667833,0.731926,-0.119004 HipRight:-0.181608,0.690156,0.668630,-0.208897 KneeLeft:0.034660,-0.648502,0.056944,0.758288 KneeRight:0.004111,0.760122,0.002426,0.649763 Neck:-0.100978,0.034128,0.991512,-0.074452 ShoulderLeft:0.082533,0.735696,-0.671946,-0.020699 ShoulderRight:-0.048327,0.801879,0.581172,-0.129978 SpineBase:-0.078802,0.034948,0.995676,-0.034624 SpineMid:-0.089208,0.035308,0.994797,-0.034256 SpineShoulder:-0.100398,0.034584,0.992932,-0.053013 ThumbLeft:0.000000,0.000000,0.000000,0.000000 ThumbRight:0.000000,0.000000,0.000000,0.000000 WristLeft:0.282736,0.524952,-0.516997,0.614166 WristRight:0.151810,-0.668947,-0.023003,0.727279 END:
KINECT_DATA POSITION:18.871721,-3.948016,-4.074967 HEAD_JOINT1:0.982106,0.177383,-0.000000,0.063268 LARM_JOINT2:0.956876,0.000000,-0.097673,-0.273585 LARM_JOINT3:0.977152,0.000000,-0.190378,0.094499 LLEG_JOINT2:0.999348,0.013985,0.000000,0.033292 LLEG_JOINT4:0.995815,0.089151,0.000000,-0.020109 RARM_JOINT2:0.807533,0.000000,-0.044374,0.588151 RARM_JOINT3:0.946074,0.000000,0.206482,0.249617 RLEG_JOINT2:0.999513,0.009707,0.000000,-0.029660 RLEG_JOINT4:0.991112,0.127984,0.000000,0.036300 WAIST:0.996942,-0.000000,0.071065,0.032500 WAIST_JOINT0:0.994809,-0.000000,0.082313,0.059823 WAIST_JOINT1:0.998235,0.059323,-0.000000,0.002802 END:
KINECT_DATA_Sensor  AnkleLeft:-0.048301,-0.660923,0.099148,0.742305 AnkleRight:0.111340,0.691946,0.086226,0.708081 ElbowLeft:0.418973,-0.490547,0.289239,0.707224 ElbowRight:0.020779,0.923131,0.149130,0.353777 FootLeft:0.000000,0.000000,0.000000,0.000000 FootRight:0.000000,0.000000,0.000000,0.000000 HandLeft:-0.231179,-0.525883,0.561057,-0.596001 HandRight:0.253731,-0.669256,0.172620,0.676698 HandTipLeft:0.000000,0.000000,0.000000,0.000000 HandTipRight:0.000000,0.000000,0.000000,0.000000 Head:0.000000,0.000000,0.000000,0.000000 HipLeft:0.068574,-0.667478,0.731236,-0.122738 HipRight:-0.176807,0.691150,0.669706,-0.206263 KneeLeft:0.034167,-0.653620,0.057284,0.753878 KneeRight:0.006927,0.755829,0.003778,0.654722 Neck:-0.085445,0.031171,0.993017,-0.075137 ShoulderLeft:0.070010,0.739575,-0.669393,-0.006382 ShoulderRight:-0.040752,0.802389,0.583137,-0.120257 SpineBase:-0.072060,0.032750,0.996247,-0.035031 SpineMid:-0.078114,0.032962,0.995790,-0.034831 SpineShoulder:-0.084871,0.031925,0.994429,-0.053742 ThumbLeft:0.000000,0.000000,0.000000,0.000000 ThumbRight:0.000000,0.000000,0.000000,0.000000 WristLeft:0.238092,0.552798,-0.531751,0.595791 WristRight:-0.151839,0.756691,0.009890,-0.635819 END:
KINECT_DATA POSITION:18.894032,-3.936557,-4.142225 HEAD_JOINT1:0.981511,0.178362,-0.000000,0.069446 LARM_JOINT2:0.957348,0.000000,-0.099327,-0.271327 LARM_JOINT3:0.981893,0.000000,-0.165973,0.091315 LLEG_JOINT2:0.999286,0.013129,0.000000,0.035418 LLEG_JOINT4:0.995493,0.091844,0.000000,-0.023624 RARM_JOINT2:0.804821,0.000000,-0.047206,0.591638 RARM_JOINT3:0.946910,0.000000,0.207381,0.245673 RLEG_JOINT2:0.999537,0.009646,0.000000,-0.028868 RLEG_JOINT4:0.991335,0.126976,0.000000,0.033644 WAIST:0.997431,-0.000000,0.064117,0.031943 WAIST_JOINT0:0.995942,-0.000000,0.069498,0.057188 WAIST_JOINT1:0.998157,0.060686,-0.000000,0.000789 END:
KINECT_DATA_Sensor  AnkleLeft:-0.050773,-0.668116,0.099176,0.735668 AnkleRight:0.113542,0.720648,0.080868,0.679143 ElbowLeft:0.422734,-0.491742,0.282782,0.706767 ElbowRight:0.024721,0.917107,0.149341,0.368784 FootLeft:0.000000,0.000000,0.000000,0.000000 FootRight:0.000000,0.000000,0.000000,0.000000 HandLeft:0.336294,0.454596,-0.496635,0.658485 HandRight:0.256704,-0.644391,0.156691,0.703073 HandTipLeft:0.000000,0.000000,0.000000,0.000000 HandTipRight:0.000000,0.000000,0.000000,0.000000 Head:0.000000,0.000000,0.000000,0.000000 HipLeft:0.071392,-0.667303,0.730545,-0.126150 HipRight:-0.170492,0.692016,0.671628,-0.202389 KneeLeft:0.036059,-0.658791,0.057841,0.749232 KneeRight:0.007275,0.751277,0.003714,0.659937 Neck:-0.072483,0.028195,0.994007,-0.076826 ShoulderLeft:0.060781,0.742352,-0.667224,0.005551 ShoulderRight:-0.033133,0.802173,0.585535,-0.112110 SpineBase:-0.065168,0.031239,0.996732,-0.036100 SpineMid:-0.068187,0.031349,0.996530,-0.036005 SpineShoulder:-0.071891,0.029458,0.995453,-0.055108 ThumbLeft:0.000000,0.000000,0.000000,0.000000 ThumbRight:0.000000,0.000000,0.000000,0.000000 WristLeft:0.318605,0.458493,-0.482733,0.674718 WristRight:0.145346,-0.664940,-0.033911,0.731833 END:
KINECT_DATA POSITION:18.897301,-3.936429,-4.227245 HEAD_JOINT1:0.981177,0.179847,-0.000000,0.070337 LARM_JOINT2:0.957752,0.000000,-0.094985,-0.271456 LARM_JOINT3:0.983793,0.000000,-0.155215,0.089770 LLEG_JOINT2:0.999194,0.013050,0.000000,0.037956 LLEG_JOINT4:0.995380,0.091467,0.000000,-0.029199 RARM_JOINT2:0.804497,0.000000,-0.045645,0.592201 RARM_JOINT3:0.946098,0.000000,0.211485,0.245300 RLEG_JOINT2:0.999557,0.008504,0.000000,-0.028516 RLEG_JOINT4:0.991582,0.124841,0.000000,0.034348 WAIST:0.997774,-0.000000,0.058812,0.031420 WAIST_JOINT0:0.996319,-0.000000,0.064907,0.055991 WAIST_JOINT1:0.998109,0.061462,-0.000000,0.000472 END:
KINECT_DATA_Sensor  AnkleLeft:-0.052143,-0.670525,0.096664,0.733712 AnkleRight:0.115201,0.741793,0.073386,0.656572 ElbowLeft:0.422263,-0.492003,0.282540,0.706964 ElbowRight:0.025791,0.916837,0.149163,0.369453 FootLeft:0.000000,0.000000,0.000000,0.000000 FootRight:0.000000,0.000000,0.000000,0.000000 HandLeft:0.397147,0.402296,-0.443026,0.695817 HandRight:0.268136,-0.673898,0.146877,0.672601 HandTipLeft:0.000000,0.000000,0.000000,0.000000 HandTipRight:0.000000,0.000000,0.000000,0.000000 Head:0.000000,0.000000,0.000000,0.000000 HipLeft:0.073913,-0.666932,0.730012,-0.129697 HipRight:-0.166127,0.692382,0.673135,-0.199746 KneeLeft:0.037616,-0.662699,0.059242,0.745591 KneeRight:0.006549,0.747720,0.003078,0.663975 Neck:-0.067896,0.027617,0.994289,-0.077564 ShoulderLeft:0.058901,0.742988,-0.666648,0.008937 ShoulderRight:-0.028995,0.801706,0.587066,-0.108538 SpineBase:-0.059889,0.030592,0.997043,-0.037194 SpineMid:-0.063261,0.030718,0.996834,-0.037090 SpineShoulder:-0.067300,0.028963,0.995746,-0.055869 ThumbLeft:0.000000,0.000000,0.000000,0.000000 ThumbRight:0.000000,0.000000,0.000000,0.000000 WristLeft:0.365381,0.391738,-0.445865,0.717107 WristRight:-0.146397,0.753529,0.014590,-0.640742 END:
KINECT_DATA POSITION:18.873320,-3.938147,-4.300058 HEAD_JOINT1:0.980847,0.181294,-0.000000,0.071208 LARM_JOINT2:0.957880,0.000000,-0.093390,-0.271557 LARM_JOINT3:0.986496,0.000000,-0.140732,0.083784 LLEG_JOINT2:0.999193,0.013435,0.000000,0.037859 LLEG_JOINT4:0.995450,0.091115,0.000000,-0.027874 RARM_JOINT2:0.804174,0.000000,-0.043331,0.592813 RARM_JOINT3:0.946616,0.000000,0.211067,0.243655 RLEG_JOINT2:0.999578,0.008656,0.000000,-0.027736 RLEG_JOINT4:0.991594,0.124880,0.000000,0.033859 WAIST:0.997892,-0.000000,0.056896,0.031200 WAIST_JOINT0:0.996511,-0.000000,0.062347,0.055483 WAIST_JOINT1:0.998097,0.061656,-0.000000,0.000392 END:
KINECT_DATA_Sensor  AnkleLeft:-0.051411,-0.672171,0.097588,0.732133 AnkleRight:0.108393,0.677405,0.083557,0.722767 ElbowLeft:0.421881,-0.492604,0.282716,0.706703 ElbowRight:0.025137,0.917136,0.148030,0.369210 FootLeft:0.000000,0.000000,0.000000,0.000000 FootRight:0.000000,0.000000,0.000000,0.000000 HandLeft:0.334547,0.524091,-0.482004,0.617316 HandRight:0.276582,-0.651673,0.136669,0.692926 HandTipLeft:0.000000,0.000000,0.000000,0.000000 HandTipRight:0.000000,0.000000,0.000000,0.000000 Head:0.000000,0.000000,0.000000,0.000000 HipLeft:0.075352,-0.666882,0.729589,-0.131494 HipRight:-0.165049,0.692412,0.673439,-0.199510 KneeLeft:0.037181,-0.664134,0.059241,0.744335 KneeRight:0.007125,0.746455,0.002858,0.665391 Neck:-0.065291,0.027412,0.994464,-0.077636 ShoulderLeft:0.057890,0.743222,-0.666451,0.010616 ShoulderRight:-0.026602,0.801382,0.588032,-0.106294 SpineBase:-0.057991,0.030079,0.997153,-0.037653 SpineMid:-0.061031,0.030194,0.996972,-0.037561 SpineShoulder:-0.064703,0.028720,0.995911,-0.056132 ThumbLeft:0.000000,0.000000,0.000000,0.000000 ThumbRight:0.000000,0.000000,0.000000,0.000000 WristLeft:0.293318,0.507388,-0.490839,0.644669 WristRight:0.142850,-0.667019,-0.032926,0.730476 END:
KINECT_DATA POSITION:18.864920,-3.940335,-4.364038 HEAD_JOINT1:0.980397,0.183325,-0.000000,0.072201 LARM_JOINT2:0.957850,0.000000,-0.091319,-0.272369 LARM_JOINT3:0.986981,0.000000,-0.134088,0.088818 LLEG_JOINT2:0.999188,0.013983,0.000000,0.037778 LLEG_JOINT4:0.995350,0.092104,0.000000,-0.028202 RARM_JOINT2:0.804082,0.000000,-0.042768,0.592978 RARM_JOINT3:0.947512,0.000000,0.208637,0.242264 RLEG_JOINT2:0.999594,0.006872,0.000000,-0.027657 RLEG_JOINT4:0.991511,0.126085,0.000000,0.031745 WAIST:0.997983,-0.000000,0.055261,0.031230 WAIST_JOINT0:0.996600,-0.000000,0.061125,0.055250 WAIST_JOINT1:0.998085,0.061859,-0.000000,0.000290 END:
KINECT_DATA_Sensor  AnkleLeft:-0.052635,-0.672712,0.098443,0.731435 AnkleRight:0.110094,0.706438,0.079559,0.694618 ElbowLeft:0.422975,-0.487571,0.279978,0.710619 ElbowRight:0.025284,0.916686,0.147799,0.370409 FootLeft:0.000000,0.000000,0.000000,0.000000 FootRight:0.000000,0.000000,0.000000,0.000000 HandLeft:0.313215,0.558675,-0.513088,0.571419 HandRight:0.260426,-0.675339,0.147115,0.674131 HandTipLeft:0.000000,0.000000,0.000000,0.000000 HandTipRight:0.000000,0.000000,0.000000,0.000000 Head:0.000000,0.000000,0.000000,0.000000 HipLeft:0.076724,-0.666694,0.729357,-0.132929 HipRight:-0.164357,0.692605,0.673508,-0.199177 KneeLeft:0.036800,-0.665342,0.059542,0.743250 KneeRight:0.006057,0.745312,0.001480,0.666687 Neck:-0.064005,0.027536,0.994532,-0.077787 ShoulderLeft:0.057077,0.743086,-0.666652,0.011865 ShoulderRight:-0.025815,0.800910,0.588844,-0.105547 SpineBase:-0.056375,0.029866,0.997246,-0.037814 SpineMid:-0.059589,0.029988,0.997059,-0.037717 SpineShoulder:-0.063424,0.028732,0.995981,-0.056337 ThumbLeft:0.000000,0.000000,0.000000,0.000000 ThumbRight:0.000000,0.000000,0.000000,0.000000 WristLeft:0.264100,0.554637,-0.504942,0.606352 WristRight:-0.146363,0.752647,0.015181,-0.641771 END:
KINECT_DATA POSITION:18.878237,-3.957369,-4.386795 HEAD_JOINT1:0.980088,0.184957,-0.000000,0.072233 LARM_JOINT2:0.958129,0.000000,-0.090441,-0.271677 LARM_JOINT3:0.986489,0.000000,-0.139002,0.086707 LLEG_JOINT2:0.999193,0.013767,0.000000,0.037738 LLEG_JOINT4:0.995198,0.092820,0.000000,-0.031061 RARM_JOINT2:0.804125,0.000000,-0.042601,0.592932 RARM_JOINT3:0.946382,0.000000,0.211161,0.244482 RLEG_JOINT2:0.999594,0.006459,0.000000,-0.027752 RLEG_JOINT4:0.991552,0.125963,0.000000,0.030955 WAIST:0.998032,-0.000000,0.054399,0.031201 WAIST_JOINT0:0.996644,-0.000000,0.060941,0.054648 WAIST_JOINT1:0.998086,0.061844,-0.000000,0.000113 END:
KINECT_DATA_Sensor  AnkleLeft:0.059481,0.708014,-0.093835,-0.697405 AnkleRight:0.111605,0.727530,0.076157,0.672640 ElbowLeft:0.424562,-0.484405,0.278527,0.712406 ElbowRight:0.025274,0.916592,0.147940,0.370585 FootLeft:0.000000,0.000000,0.000000,0.000000 FootRight:0.000000,0.000000,0.000000,0.000000 HandLeft:0.298500,0.548386,-0.516498,0.586004 HandRight:0.278614,-0.648117,0.134546,0.695856 HandTipLeft:0.000000,0.000000,0.000000,0.000000 HandTipRight:0.000000,0.000000,0.000000,0.000000 Head:0.000000,0.000000,0.000000,0.000000 HipLeft:0.077469,-0.666685,0.729185,-0.133489 HipRight:-0.163953,0.692747,0.673557,-0.198850 KneeLeft:0.036948,-0.665981,0.059335,0.742687 KneeRight:0.005712,0.744730,0.001269,0.667340 Neck:-0.063698,0.027439,0.994560,-0.077723 ShoulderLeft:0.056565,0.743655,-0.666054,0.012226 ShoulderRight:-0.025964,0.800567,0.589309,-0.105514 SpineBase:-0.055519,0.029667,0.997303,-0.037751 SpineMid:-0.059011,0.029799,0.997102,-0.037647 SpineShoulder:-0.063122,0.028610,0.996005,-0.056309 ThumbLeft:0.000000,0.000000,0.000000,0.000000 ThumbRight:0.000000,0.000000,0.000000,0.000000 WristLeft:0.269239,0.552088,-0.502779,0.608212 WristRight:0.143009,-0.663157,-0.034156,0.733897 END:
KINECT_DATA POSITION:18.899851,-3.977854,-4.400802 HEAD_JOINT1:0.979986,0.185856,-0.000000,0.071312 LARM_JOINT2:0.958314,0.000000,-0.091045,-0.270824 LARM_JOINT3:0.985230,0.000000,-0.143920,0.092788 LLEG_JOINT2:0.999189,0.013909,0.000000,0.037778 LLEG_JOINT4:0.995365,0.091363,0.000000,-0.030031 RARM_JOINT2:0.804453,0.000000,-0.042292,0.592509 RARM_JOINT3:0.946050,0.000000,0.214180,0.243140 RLEG_JOINT2:0.999583,0.006457,0.000000,-0.028128 RLEG_JOINT4:0.991540,0.125489,0.000000,0.033183 WAIST:0.998042,-0.000000,0.054299,0.031037 WAIST_JOINT0:0.996694,-0.000000,0.060728,0.053968 WAIST_JOINT1:0.998083,0.061884,-0.000000,0.000035 END:
KINECT_DATA_Sensor  AnkleLeft:-0.053165,-0.672788,0.096521,0.731583 AnkleRight:0.110779,0.711220,0.077340,0.689865 ElbowLeft:0.425663,-0.483622,0.277733,0.712590 ElbowRight:0.024977,0.917065,0.148495,0.369212 FootLeft:0.000000,0.000000,0.000000,0.000000 FootRight:0.000000,0.000000,0.000000,0.000000 HandLeft:0.353011,0.463139,-0.500035,0.640977 HandRight:0.281698,-0.653248,0.121755,0.692163 HandTipLeft:0.000000,0.000000,0.000000,0.000000 HandTipRight:0.000000,0.000000,0.000000,0.000000 Head:0.000000,0.000000,0.000000,0.000000 HipLeft:0.077661,-0.666832,0.729011,-0.133593 HipRight:-0.163969,0.692647,0.673620,-0.198974 KneeLeft:0.036756,-0.666059,0.059342,0.742626 KneeRight:0.005316,0.744669,0.001637,0.667410 Neck:-0.063398,0.027190,0.994583,-0.077762 ShoulderLeft:0.056275,0.744677,-0.664933,0.012394 ShoulderRight:-0.025822,0.800622,0.589268,-0.105358 SpineBase:-0.055417,0.029409,0.997316,-0.037748 SpineMid:-0.058815,0.029537,0.997121,-0.037648 SpineShoulder:-0.062826,0.028360,0.996029,-0.056353 ThumbLeft:0.000000,0.000000,0.000000,0.000000 ThumbRight:0.000000,0.000000,0.000000,0.000000 WristLeft:0.326532,0.476339,-0.468653,0.668463 WristRight:0.143496,-0.667101,-0.033200,0.730263 END:
KINECT_DATA POSITION:18.918896,-4.004074,-4.446363 HEAD_JOINT1:0.980160,0.186199,-0.000000,0.067948 LARM_JOINT2:0.958375,0.000000,-0.095427,-0.269093 LARM_JOINT3:0.985817,0.000000,-0.136791,0.097229 LLEG_JOINT2:0.999197,0.014215,0.000000,0.037449 LLEG_JOINT4:0.995386,0.091619,0.000000,-0.028522 RARM_JOINT2:0.804644,0.000000,-0.041800,0.592284 RARM_JOINT3:0.947581,0.000000,0.206818,0.243551 RLEG_JOINT2:0.999562,0.006698,0.000000,-0.028825 RLEG_JOINT4:0.991870,0.123177,0.000000,0.031952 WAIST:0.998132,-0.000000,0.052534,0.031180 WAIST_JOINT0:0.996604,-0.000000,0.062738,0.053325 WAIST_JOINT1:0.998033,0.062682,0.000000,-0.000854 END:
KINECT_DATA_Sensor  AnkleLeft:-0.052293,-0.671796,0.098172,0.732337 AnkleRight:0.108519,0.712563,0.076349,0.688947 ElbowLeft:0.432070,-0.476431,0.268380,0.717148 ElbowRight:0.025455,0.917144,0.149523,0.368566 FootLeft:0.000000,0.000000,0.000000,0.000000 FootRight:0.000000,0.000000,0.000000,0.000000 HandLeft:-0.330501,-0.500111,0.521852,-0.606900 HandRight:-0.249085,0.704727,-0.148539,-0.647497 HandTipLeft:0.000000,0.000000,0.000000,0.000000 HandTipRight:0.000000,0.000000,0.000000,0.000000 Head:0.000000,0.000000,0.000000,0.000000 HipLeft:0.078541,-0.666524,0.728932,-0.135035 HipRight:-0.162497,0.692898,0.673816,-0.198642 KneeLeft:0.036478,-0.667354,0.059376,0.741473 KneeRight:0.005102,0.743526,0.002210,0.668683 Neck:-0.065755,0.026721,0.994377,-0.078586 ShoulderLeft:0.060945,0.744323,-0.664976,0.008718 ShoulderRight:-0.023934,0.800402,0.589611,-0.105560 SpineBase:-0.053700,0.029001,0.997398,-0.038383 SpineMid:-0.059121,0.029209,0.997091,-0.038225 SpineShoulder:-0.065186,0.027960,0.995855,-0.056943 ThumbLeft:0.000000,0.000000,0.000000,0.000000 ThumbRight:0.000000,0.000000,0.000000,0.000000 WristLeft:0.295981,0.517611,-0.491810,0.634506 WristRight:-0.144172,0.773963,0.010313,-0.616514 END:
KINECT_DATA POSITION:18.938349,-4.025829,-4.499805 HEAD_JOINT1:0.980382,0.185212,-0.000000,0.067439 LARM_JOINT2:0.958909,0.000000,-0.095416,-0.267186 LARM_JOINT3:0.984780,0.000000,-0.145109,0.095662 LLEG_JOINT2:0.999200,0.014647,0.000000,0.037221 LLEG_JOINT4:0.995370,0.091673,0.000000,-0.028888 RARM_JOINT2:0.804975,0.000000,-0.042304,0.591799 RARM_JOINT3:0.948281,0.000000,0.205228,0.242168 RLEG_JOINT2:0.999527,0.006487,0.000000,-0.030078 RLEG_JOINT4:0.991337,0.126657,0.000000,0.034776 WAIST:0.998237,-0.000000,0.050332,0.031453 WAIST_JOINT0:0.996723,-0.000000,0.061121,0.052980 WAIST_JOINT1:0.997985,0.063436,0.000000,-0.001617 END:
KINECT_DATA_Sensor  AnkleLeft:0.057893,0.711587,-0.095432,-0.693675 AnkleRight:0.111109,0.700499,0.079081,0.700502 ElbowLeft:0.432267,-0.480833,0.270306,0.713358 ElbowRight:0.026388,0.916258,0.150948,0.370122 FootLeft:0.000000,0.000000,0.000000,0.000000 FootRight:0.000000,0.000000,0.000000,0.000000 HandLeft:-0.307533,-0.494530,0.533890,-0.613045 HandRight:0.252067,-0.661779,0.132502,0.693509 HandTipLeft:0.000000,0.000000,0.000000,0.000000 HandTipRight:0.000000,0.000000,0.000000,0.000000 Head:0.000000,0.000000,0.000000,0.000000 HipLeft:0.079501,-0.666052,0.728943,-0.136730 HipRight:-0.160631,0.693259,0.674039,-0.198145 KneeLeft:0.036281,-0.668954,0.059656,0.740017 KneeRight:0.004278,0.742081,0.002739,0.670292 Neck:-0.064179,0.026339,0.994429,-0.079358 ShoulderLeft:0.059898,0.744562,-0.664772,0.010813 ShoulderRight:-0.022954,0.800334,0.589816,-0.105145 SpineBase:-0.051562,0.028614,0.997491,-0.039177 SpineMid:-0.057266,0.028837,0.997179,-0.039013 SpineShoulder:-0.063609,0.027625,0.995926,-0.057634 ThumbLeft:0.000000,0.000000,0.000000,0.000000 ThumbRight:0.000000,0.000000,0.000000,0.000000 WristLeft:0.289500,0.521344,-0.496267,0.630959 WristRight:-0.141194,0.733276,0.020094,-0.664805 END:
KINECT_DATA POSITION:18.947054,-4.039157,-4.507554 HEAD_JOINT1:0.980510,0.184440,-0.000000,0.067690 LARM_JOINT2:0.959697,0.000000,-0.099894,-0.262682 LARM_JOINT3:0.983021,0.000000,-0.158055,0.093214 LLEG_JOINT2:0.999172,0.015586,0.000000,0.037574 LLEG_JOINT4:0.995507,0.090081,0.000000,-0.029164 RARM_JOINT2:0.804812,0.000000,-0.043992,0.591897 RARM_JOINT3:0.948102,0.000000,0.205068,0.242999 RLEG_JOINT2:0.999551,0.004333,0.000000,-0.029656 RLEG_JOINT4:0.991110,0.128475,0.000000,0.034559 WAIST:0.998335,-0.000000,0.048548,0.031146 WAIST_JOINT0:0.997030,-0.000000,0.056526,0.052308 WAIST_JOINT1:0.997966,0.063719,0.000000,-0.001785 END:
KINECT_DATA_Sensor  AnkleLeft:0.058483,0.720804,-0.094339,-0.684194 AnkleRight:0.112591,0.713332,0.076489,0.687481 ElbowLeft:0.431111,-0.499177,0.277906,0.698379 ElbowRight:0.027705,0.914541,0.151963,0.373838 FootLeft:0.000000,0.000000,0.000000,0.000000 FootRight:0.000000,0.000000,0.000000,0.000000 HandLeft:-0.296619,-0.467834,0.544936,-0.629439 HandRight:0.246976,-0.687803,0.144912,0.667030 HandTipLeft:0.000000,0.000000,0.000000,0.000000 HandTipRight:0.000000,0.000000,0.000000,0.000000 Head:0.000000,0.000000,0.000000,0.000000 HipLeft:0.080532,-0.666118,0.728554,-0.137881 HipRight:-0.159413,0.693335,0.674462,-0.197421 KneeLeft:0.035670,-0.670273,0.060307,0.738800 KneeRight:0.002971,0.740808,0.001110,0.671710 Neck:-0.059423,0.025746,0.994715,-0.079674 ShoulderLeft:0.055460,0.745658,-0.663826,0.015914 ShoulderRight:-0.021317,0.800408,0.590187,-0.102821 SpineBase:-0.049781,0.028216,0.997584,-0.039406 SpineMid:-0.054008,0.028383,0.997364,-0.039286 SpineShoulder:-0.058854,0.027076,0.996211,-0.058017 ThumbLeft:0.000000,0.000000,0.000000,0.000000 ThumbRight:0.000000,0.000000,0.000000,0.000000 WristLeft:0.294183,0.496527,-0.493654,0.650556 WristRight:-0.140444,0.759134,0.015611,-0.635411 END:
KINECT_DATA POSITION:18.966663,-4.052871,-4.518402 HEAD_JOINT1:0.980575,0.183438,-0.000000,0.069444 LARM_JOINT2:0.959478,0.000000,-0.109131,-0.259793 LARM_JOINT3:0.983743,0.000000,-0.156827,0.087498 LLEG_JOINT2:0.999167,0.015592,0.000000,0.037715 LLEG_JOINT4:0.995482,0.090399,0.000000,-0.029058 RARM_JOINT2:0.804234,0.000000,-0.046035,0.592528 RARM_JOINT3:0.947830,0.000000,0.209130,0.240590 RLEG_JOINT2:0.999551,0.005978,0.000000,-0.029368 RLEG_JOINT4:0.991815,0.124089,0.000000,0.030096 WAIST:0.998394,-0.000000,0.047266,0.031242 WAIST_JOINT0:0.997354,-0.000000,0.051443,0.051372 WAIST_JOINT1:0.997952,0.063931,0.000000,-0.002055 END:
KINECT_DATA_Sensor  AnkleLeft:0.058873,0.724747,-0.094632,-0.679941 AnkleRight:0.108888,0.722453,0.075413,0.678614 ElbowLeft:0.433349,-0.512016,0.277116,0.687936 ElbowRight:0.028993,0.911676,0.152316,0.380534 FootLeft:0.000000,0.000000,0.000000,0.000000 FootRight:0.000000,0.000000,0.000000,0.000000 HandLeft:0.305105,0.451533,-0.531714,0.648312 HandRight:-0.248824,0.696611,-0.137734,-0.658672 HandTipLeft:0.000000,0.000000,0.000000,0.000000 HandTipRight:0.000000,0.000000,0.000000,0.000000 Head:0.000000,0.000000,0.000000,0.000000 HipLeft:0.081267,-0.665935,0.728487,-0.138684 HipRight:-0.158517,0.693583,0.674570,-0.196900 KneeLeft:0.035877,-0.671200,0.060465,0.737934 KneeRight:0.004388,0.740019,0.002090,0.672569 Neck:-0.054145,0.025334,0.995005,-0.079949 ShoulderLeft:0.050997,0.747329,-0.662164,0.020916 ShoulderRight:-0.018965,0.800763,0.590317,-0.099723 SpineBase:-0.048520,0.028049,0.997644,-0.039562 SpineMid:-0.050746,0.028137,0.997533,-0.039499 SpineShoulder:-0.053568,0.026735,0.996500,-0.058341 ThumbLeft:0.000000,0.000000,0.000000,0.000000 ThumbRight:0.000000,0.000000,0.000000,0.000000 WristLeft:0.297273,0.475768,-0.491131,0.666382 WristRight:-0.140479,0.764509,0.016516,-0.628902 END:
