EastLYD/RoboCupatHomeSim/InteractiveCleanUp/JapanOpen2016/Motion_Data/File69.dat
KINECT_DATA POSITION:28.051626,0.808189,-21.015083 HEAD_JOINT1:0.978535,0.175438,-0.000000,0.108122 LARM_JOINT2:0.817847,0.000000,-0.021678,-0.575027 LARM_JOINT3:0.974983,0.000000,-0.132120,-0.178753 LLEG_JOINT2:0.998807,0.020880,0.000000,0.044150 LLEG_JOINT4:0.994097,0.096251,0.000000,-0.050067 RARM_JOINT2:0.783991,0.000000,-0.114120,0.610193 RARM_JOINT3:0.978444,0.000000,0.154981,0.136484 RLEG_JOINT2:0.999567,0.024303,0.000000,-0.016566 RLEG_JOINT4:0.994583,0.099643,0.000000,0.029581 WAIST:0.999989,0.000000,-0.000268,0.004770 WAIST_JOINT0:0.999657,0.000000,-0.023484,0.011569 WAIST_JOINT1:0.997658,0.066528,0.000000,-0.015866 END:
KINECT_DATA_Sensor  AnkleLeft:-0.081416,-0.679494,0.083853,0.724312 AnkleRight:0.102866,0.725747,0.071123,0.676500 ElbowLeft:-0.013881,0.922491,-0.166471,-0.348002 ElbowRight:0.068636,0.843366,0.188866,0.498350 FootLeft:0.000000,0.000000,0.000000,0.000000 FootRight:0.000000,0.000000,0.000000,0.000000 HandLeft:-0.086174,0.776705,0.072736,0.619687 HandRight:0.000088,0.782519,-0.020551,-0.622288 HandTipLeft:0.000000,0.000000,0.000000,0.000000 HandTipRight:0.000000,0.000000,0.000000,0.000000 Head:0.000000,0.000000,0.000000,0.000000 HipLeft:0.108981,-0.680059,0.707411,-0.158782 HipRight:-0.115234,0.682003,0.700636,-0.175220 KneeLeft:-0.019821,0.706428,-0.049353,-0.705784 KneeRight:0.008875,0.707410,0.025516,0.706287 Neck:0.022500,-0.014495,0.996341,-0.081173 ShoulderLeft:0.005956,0.785279,-0.614475,0.075648 ShoulderRight:0.035719,0.794244,0.605356,-0.038021 SpineBase:-0.000544,-0.008717,0.998975,-0.044418 SpineMid:0.010878,-0.009224,0.998916,-0.044315 SpineShoulder:0.022511,-0.011973,0.997785,-0.061439 ThumbLeft:0.000000,0.000000,0.000000,0.000000 ThumbRight:0.000000,0.000000,0.000000,0.000000 WristLeft:-0.073847,0.793756,-0.055582,0.601173 WristRight:-0.006517,0.783631,0.037665,-0.620050 END:
KINECT_DATA POSITION:28.017160,0.813060,-21.148550 HEAD_JOINT1:0.978584,0.175486,-0.000000,0.107602 LARM_JOINT2:0.817952,0.000000,-0.022174,-0.574859 LARM_JOINT3:0.975051,0.000000,-0.130626,-0.179480 LLEG_JOINT2:0.998809,0.020280,0.000000,0.044368 LLEG_JOINT4:0.994126,0.096064,0.000000,-0.049850 RARM_JOINT2:0.783491,0.000000,-0.119099,0.609883 RARM_JOINT3:0.977546,0.000000,0.159022,0.138260 RLEG_JOINT2:0.999586,0.023494,0.000000,-0.016592 RLEG_JOINT4:0.994444,0.101188,0.000000,0.029014 WAIST:0.999988,0.000000,-0.000430,0.004879 WAIST_JOINT0:0.999674,0.000000,-0.022672,0.011749 WAIST_JOINT1:0.997675,0.066216,0.000000,-0.016138 END:
KINECT_DATA_Sensor  AnkleLeft:-0.080744,-0.682055,0.083409,0.722028 AnkleRight:0.100644,0.702721,0.075347,0.700269 ElbowLeft:-0.014322,0.923114,-0.166252,-0.346434 ElbowRight:0.070662,0.839155,0.190702,0.504439 FootLeft:0.000000,0.000000,0.000000,0.000000 FootRight:0.000000,0.000000,0.000000,0.000000 HandLeft:-0.088916,0.721345,0.069527,0.683316 HandRight:-0.005476,0.800744,-0.021154,-0.598608 HandTipLeft:0.000000,0.000000,0.000000,0.000000 HandTipRight:0.000000,0.000000,0.000000,0.000000 Head:0.000000,0.000000,0.000000,0.000000 HipLeft:0.109366,-0.680016,0.707431,-0.158614 HipRight:-0.115387,0.682141,0.700545,-0.174945 KneeLeft:-0.020486,0.706514,-0.049157,-0.705692 KneeRight:0.008365,0.707313,0.024886,0.706413 Neck:0.021803,-0.014628,0.996379,-0.080867 ShoulderLeft:0.004604,0.785076,-0.614688,0.076106 ShoulderRight:0.033488,0.794165,0.605487,-0.039563 SpineBase:-0.000387,-0.008766,0.998991,-0.044038 SpineMid:0.010613,-0.009250,0.998935,-0.043939 SpineShoulder:0.021815,-0.012049,0.997818,-0.061138 ThumbLeft:0.000000,0.000000,0.000000,0.000000 ThumbRight:0.000000,0.000000,0.000000,0.000000 WristLeft:-0.069842,0.742676,-0.061118,0.663189 WristRight:-0.007621,0.802049,0.038299,-0.595980 END:
KINECT_DATA POSITION:27.965546,0.808143,-21.245956 HEAD_JOINT1:0.978678,0.175214,-0.000000,0.107186 LARM_JOINT2:0.818028,0.000000,-0.023155,-0.574713 LARM_JOINT3:0.975796,0.000000,-0.128505,-0.176942 LLEG_JOINT2:0.998793,0.019541,0.000000,0.045069 LLEG_JOINT4:0.994181,0.095697,0.000000,-0.049461 RARM_JOINT2:0.783120,0.000000,-0.123651,0.609454 RARM_JOINT3:0.977500,0.000000,0.160809,0.136505 RLEG_JOINT2:0.999571,0.024514,0.000000,-0.016047 RLEG_JOINT4:0.994695,0.098462,0.000000,0.029775 WAIST:0.999989,-0.000000,0.000545,0.004690 WAIST_JOINT0:0.999699,0.000000,-0.021243,0.012250 WAIST_JOINT1:0.997674,0.066208,0.000000,-0.016226 END:
KINECT_DATA_Sensor  AnkleLeft:-0.080212,-0.688424,0.082381,0.716136 AnkleRight:0.100131,0.703480,0.073461,0.699781 ElbowLeft:-0.014318,0.924018,-0.165883,-0.344194 ElbowRight:0.072868,0.837053,0.192678,0.506861 FootLeft:0.000000,0.000000,0.000000,0.000000 FootRight:0.000000,0.000000,0.000000,0.000000 HandLeft:-0.083307,0.674542,0.057812,0.731239 HandRight:0.003650,0.711918,-0.014299,-0.702108 HandTipLeft:0.000000,0.000000,0.000000,0.000000 HandTipRight:0.000000,0.000000,0.000000,0.000000 Head:0.000000,0.000000,0.000000,0.000000 HipLeft:0.108885,-0.680285,0.707397,-0.157941 HipRight:-0.115911,0.681850,0.700593,-0.175540 KneeLeft:-0.021328,0.705791,-0.049012,-0.706401 KneeRight:0.009309,0.707973,0.025360,0.705722 Neck:0.020500,-0.014958,0.996404,-0.080835 ShoulderLeft:0.003702,0.784986,-0.614779,0.076358 ShoulderRight:0.030948,0.794330,0.605256,-0.041809 SpineBase:-0.001359,-0.009167,0.998989,-0.043981 SpineMid:0.009466,-0.009643,0.998945,-0.043879 SpineShoulder:0.020505,-0.012362,0.997844,-0.061112 ThumbLeft:0.000000,0.000000,0.000000,0.000000 ThumbRight:0.000000,0.000000,0.000000,0.000000 WristLeft:-0.063627,0.679814,-0.066432,0.727593 WristRight:-0.002268,0.713114,0.038808,-0.699969 END:
KINECT_DATA POSITION:27.824390,0.781703,-21.325815 HEAD_JOINT1:0.978705,0.175191,-0.000000,0.106983 LARM_JOINT2:0.818358,0.000000,-0.023193,-0.574241 LARM_JOINT3:0.973719,0.000000,-0.137410,-0.181629 LLEG_JOINT2:0.998681,0.019086,0.000000,0.047660 LLEG_JOINT4:0.993995,0.096582,0.000000,-0.051431 RARM_JOINT2:0.782736,0.000000,-0.123319,0.610014 RARM_JOINT3:0.976904,0.000000,0.159664,0.142004 RLEG_JOINT2:0.999669,0.021744,0.000000,-0.013737 RLEG_JOINT4:0.994442,0.101682,0.000000,0.027330 WAIST:0.999993,0.000000,-0.000275,0.003640 WAIST_JOINT0:0.999684,0.000000,-0.022066,0.012001 WAIST_JOINT1:0.997652,0.066586,0.000000,-0.016048 END:
KINECT_DATA_Sensor  AnkleLeft:-0.080847,-0.689642,0.082355,0.714895 AnkleRight:0.099717,0.703255,0.074514,0.699955 ElbowLeft:-0.013690,0.925129,-0.165737,-0.341292 ElbowRight:0.072728,0.835909,0.192939,0.508665 FootLeft:0.000000,0.000000,0.000000,0.000000 FootRight:0.000000,0.000000,0.000000,0.000000 HandLeft:-0.112797,0.772164,0.060614,0.622387 HandRight:-0.008243,0.790693,-0.033059,-0.611264 HandTipLeft:0.000000,0.000000,0.000000,0.000000 HandTipRight:0.000000,0.000000,0.000000,0.000000 Head:0.000000,0.000000,0.000000,0.000000 HipLeft:0.109382,-0.680813,0.706652,-0.158658 HipRight:-0.115068,0.681073,0.701453,-0.175679 KneeLeft:-0.022778,0.706332,-0.049766,-0.705761 KneeRight:0.008262,0.707426,0.022506,0.706380 Neck:0.021248,-0.015589,0.996356,-0.081123 ShoulderLeft:0.003849,0.784727,-0.615035,0.076955 ShoulderRight:0.032091,0.794012,0.605655,-0.041207 SpineBase:-0.000510,-0.010346,0.998957,-0.044462 SpineMid:0.010232,-0.010823,0.998905,-0.044348 SpineShoulder:0.021220,-0.013234,0.997793,-0.061517 ThumbLeft:0.000000,0.000000,0.000000,0.000000 ThumbRight:0.000000,0.000000,0.000000,0.000000 WristLeft:-0.074378,0.791203,-0.053302,0.604669 WristRight:-0.006500,0.793383,0.038903,-0.607444 END:
KINECT_DATA POSITION:27.663521,0.781969,-21.231342 HEAD_JOINT1:0.978418,0.174696,-0.000000,0.110365 LARM_JOINT2:0.820344,0.000000,-0.023114,-0.571403 LARM_JOINT3:0.953959,0.000000,-0.207033,-0.217022 LLEG_JOINT2:0.998589,0.019627,0.000000,0.049339 LLEG_JOINT4:0.994215,0.096108,0.000000,-0.047958 RARM_JOINT2:0.782638,0.000000,-0.118293,0.611134 RARM_JOINT3:0.977130,0.000000,0.159088,0.141095 RLEG_JOINT2:0.999692,0.022345,0.000000,-0.010756 RLEG_JOINT4:0.994424,0.102267,0.000000,0.025733 WAIST:0.999996,0.000000,-0.000417,0.002779 WAIST_JOINT0:0.999587,0.000000,-0.026629,0.010801 WAIST_JOINT1:0.997680,0.066140,0.000000,-0.016157 END:
KINECT_DATA_Sensor  AnkleLeft:-0.078698,-0.697226,0.084589,0.707479 AnkleRight:0.100667,0.700742,0.075320,0.702249 ElbowLeft:-0.018250,0.918200,-0.167543,-0.358477 ElbowRight:0.069484,0.838658,0.190927,0.505342 FootLeft:0.000000,0.000000,0.000000,0.000000 FootRight:0.000000,0.000000,0.000000,0.000000 HandLeft:-0.243234,0.313837,-0.122734,0.909549 HandRight:-0.017940,0.787412,-0.027160,-0.615568 HandTipLeft:0.000000,0.000000,0.000000,0.000000 HandTipRight:0.000000,0.000000,0.000000,0.000000 Head:0.000000,0.000000,0.000000,0.000000 HipLeft:0.110218,-0.681564,0.706005,-0.157733 HipRight:-0.115226,0.680579,0.702052,-0.175097 KneeLeft:-0.022979,0.706460,-0.050726,-0.705558 KneeRight:0.010188,0.707261,0.021429,0.706554 Neck:0.025707,-0.016684,0.996259,-0.080806 ShoulderLeft:0.002832,0.785473,-0.613925,0.078229 ShoulderRight:0.036734,0.793590,0.606301,-0.035561 SpineBase:-0.000336,-0.011708,0.998986,-0.043477 SpineMid:0.012491,-0.012266,0.998908,-0.043323 SpineShoulder:0.025645,-0.014505,0.997708,-0.060922 ThumbLeft:0.000000,0.000000,0.000000,0.000000 ThumbRight:0.000000,0.000000,0.000000,0.000000 WristLeft:-0.077357,0.332700,-0.112064,0.933150 WristRight:-0.006007,0.790364,0.039651,-0.611323 END:
KINECT_DATA POSITION:26.592625,0.796424,-20.726061 HEAD_JOINT1:0.978168,0.172210,-0.000000,0.116318 LARM_JOINT2:0.826251,0.000000,-0.077293,-0.557973 LARM_JOINT3:0.921541,0.000000,-0.319203,-0.221069 LLEG_JOINT2:0.996993,0.023503,0.000000,0.073841 LLEG_JOINT4:0.993524,0.096227,0.000000,-0.060417 RARM_JOINT2:0.778531,0.000000,-0.114894,0.617000 RARM_JOINT3:0.977990,0.000000,0.155497,0.139125 RLEG_JOINT2:0.999468,0.028397,0.000000,0.016050 RLEG_JOINT4:0.995368,0.095113,0.000000,0.013987 WAIST:0.999966,0.000000,-0.000543,-0.008182 WAIST_JOINT0:0.999341,0.000000,-0.035393,0.008053 WAIST_JOINT1:0.997994,0.062174,0.000000,-0.011924 END:
KINECT_DATA_Sensor  AnkleLeft:-0.081239,-0.700547,0.087577,0.703537 AnkleRight:0.102127,0.695760,0.072505,0.707271 ElbowLeft:-0.071323,0.905810,-0.150213,-0.389690 ElbowRight:0.064696,0.841696,0.186865,0.502438 FootLeft:0.000000,0.000000,0.000000,0.000000 FootRight:0.000000,0.000000,0.000000,0.000000 HandLeft:-0.354362,0.547640,-0.172230,0.738143 HandRight:-0.016880,0.808113,-0.022979,-0.588337 HandTipLeft:0.000000,0.000000,0.000000,0.000000 HandTipRight:0.000000,0.000000,0.000000,0.000000 Head:0.000000,0.000000,0.000000,0.000000 HipLeft:0.115122,-0.689978,0.698253,-0.152050 HipRight:-0.117669,0.673775,0.709074,-0.171451 KneeLeft:-0.029774,0.706894,-0.063085,-0.703872 KneeRight:0.025647,0.706085,0.014502,0.707513 Neck:0.034521,-0.021845,0.996196,-0.076974 ShoulderLeft:-0.003090,0.786977,-0.611825,0.079548 ShoulderRight:0.041897,0.792093,0.608513,-0.023354 SpineBase:0.000367,-0.021072,0.999094,-0.036960 SpineMid:0.016880,-0.021680,0.998952,-0.036606 SpineShoulder:0.034108,-0.022195,0.997575,-0.056462 ThumbLeft:0.000000,0.000000,0.000000,0.000000 ThumbRight:0.000000,0.000000,0.000000,0.000000 WristLeft:-0.225331,0.576910,-0.146252,0.771370 WristRight:-0.009753,0.810275,0.040839,-0.584543 END:
KINECT_DATA POSITION:25.925022,0.704615,-20.519865 HEAD_JOINT1:0.978230,0.169553,-0.000000,0.119656 LARM_JOINT2:0.828738,0.000000,-0.111890,-0.548338 LARM_JOINT3:0.921315,0.000000,-0.325626,-0.212478 LLEG_JOINT2:0.995509,0.027190,0.000000,0.090673 LLEG_JOINT4:0.993153,0.092986,0.000000,-0.070711 RARM_JOINT2:0.774047,0.000000,-0.119591,0.621731 RARM_JOINT3:0.978944,0.000000,0.150059,0.138387 RLEG_JOINT2:0.999014,0.030504,0.000000,0.032265 RLEG_JOINT4:0.995580,0.093665,0.000000,0.006914 WAIST:0.999865,0.000000,-0.004630,-0.015789 WAIST_JOINT0:0.998895,0.000000,-0.046779,0.004437 WAIST_JOINT1:0.998224,0.058760,0.000000,-0.009756 END:
KINECT_DATA_Sensor  AnkleLeft:-0.080417,-0.691531,0.088684,0.712358 AnkleRight:0.102438,0.678761,0.073508,0.723454 ElbowLeft:-0.102012,0.907038,-0.136004,-0.385199 ElbowRight:0.065047,0.836054,0.185359,0.512274 FootLeft:0.000000,0.000000,0.000000,0.000000 FootRight:0.000000,0.000000,0.000000,0.000000 HandLeft:-0.381128,0.901211,0.143986,0.147741 HandRight:0.004710,0.802739,-0.037929,-0.595105 HandTipLeft:0.000000,0.000000,0.000000,0.000000 HandTipRight:0.000000,0.000000,0.000000,0.000000 Head:0.000000,0.000000,0.000000,0.000000 HipLeft:-0.120298,0.694823,-0.692483,0.152370 HipRight:-0.117492,0.669247,0.714237,-0.167838 KneeLeft:-0.033983,0.710078,-0.072090,-0.699598 KneeRight:0.033210,0.702409,0.009733,0.710932 Neck:0.046259,-0.027565,0.995850,-0.073372 ShoulderLeft:-0.017257,0.790638,-0.605605,0.088524 ShoulderRight:0.042557,0.791887,0.609023,-0.013957 SpineBase:0.004836,-0.025234,0.999091,-0.034003 SpineMid:0.024898,-0.025912,0.998793,-0.033490 SpineShoulder:0.045774,-0.027610,0.997180,-0.052670 ThumbLeft:0.000000,0.000000,0.000000,0.000000 ThumbRight:0.000000,0.000000,0.000000,0.000000 WristLeft:-0.290888,0.946682,0.061739,0.123960 WristRight:-0.012064,0.804760,0.042812,-0.591931 END:
KINECT_DATA POSITION:25.679504,0.674883,-20.509064 HEAD_JOINT1:0.977935,0.170358,-0.000000,0.120919 LARM_JOINT2:0.832054,0.000000,-0.164748,-0.529665 LARM_JOINT3:0.926068,0.000000,-0.321050,-0.198303 LLEG_JOINT2:0.995070,0.025571,0.000000,0.095826 LLEG_JOINT4:0.992287,0.099528,0.000000,-0.073891 RARM_JOINT2:0.772851,0.000000,-0.118859,0.623357 RARM_JOINT3:0.977699,0.000000,0.155850,0.140765 RLEG_JOINT2:0.998845,0.030722,0.000000,0.036957 RLEG_JOINT4:0.995483,0.094881,0.000000,0.003300 WAIST:0.999816,0.000000,-0.006764,-0.017966 WAIST_JOINT0:0.998423,0.000000,-0.056086,0.002357 WAIST_JOINT1:0.998354,0.056578,0.000000,-0.009431 END:
KINECT_DATA_Sensor  AnkleLeft:-0.082293,-0.680800,0.093467,0.721806 AnkleRight:0.107877,0.727615,0.067472,0.674082 ElbowLeft:-0.142979,0.921511,-0.127875,-0.337672 ElbowRight:0.063471,0.836460,0.183499,0.512478 FootLeft:0.000000,0.000000,0.000000,0.000000 FootRight:0.000000,0.000000,0.000000,0.000000 HandLeft:-0.428138,0.813189,0.001364,0.394234 HandRight:-0.015148,0.825296,-0.024012,-0.563986 HandTipLeft:0.000000,0.000000,0.000000,0.000000 HandTipRight:0.000000,0.000000,0.000000,0.000000 Head:0.000000,0.000000,0.000000,0.000000 HipLeft:-0.122269,0.695905,-0.690846,0.153293 HipRight:-0.117354,0.667943,0.715853,-0.166237 KneeLeft:-0.037435,0.711454,-0.072937,-0.697934 KneeRight:0.035120,0.700677,0.007996,0.712569 Neck:0.055476,-0.030789,0.995496,-0.070439 ShoulderLeft:-0.025474,0.791706,-0.603013,0.094485 ShoulderRight:0.046097,0.791211,0.609780,-0.005319 SpineBase:0.007087,-0.025774,0.999095,-0.033077 SpineMid:0.030677,-0.026547,0.998649,-0.032459 SpineShoulder:0.055098,-0.029271,0.996779,-0.050384 ThumbLeft:0.000000,0.000000,0.000000,0.000000 ThumbRight:0.000000,0.000000,0.000000,0.000000 WristLeft:-0.313883,0.860183,-0.020981,0.401401 WristRight:-0.017601,0.826982,0.043104,-0.560298 END:
KINECT_DATA POSITION:25.599730,0.665906,-20.519924 HEAD_JOINT1:0.977720,0.171093,-0.000000,0.121621 LARM_JOINT2:0.829546,0.000000,-0.213774,-0.515901 LARM_JOINT3:0.932676,0.000000,-0.311354,-0.182137 LLEG_JOINT2:0.994918,0.028321,0.000000,0.096628 LLEG_JOINT4:0.992794,0.094931,0.000000,-0.073133 RARM_JOINT2:0.772877,0.000000,-0.120853,0.622942 RARM_JOINT3:0.977575,0.000000,0.156659,0.140730 RLEG_JOINT2:0.998793,0.030752,0.000000,0.038289 RLEG_JOINT4:0.995416,0.095572,0.000000,0.003498 WAIST:0.999794,0.000000,-0.008031,-0.018636 WAIST_JOINT0:0.998133,0.000000,-0.061067,0.001468 WAIST_JOINT1:0.998500,0.053997,0.000000,-0.009026 END:
KINECT_DATA_Sensor  AnkleLeft:-0.080914,-0.687497,0.092234,0.715747 AnkleRight:0.103798,0.674966,0.075017,0.726650 ElbowLeft:-0.181409,0.925897,-0.113193,-0.311436 ElbowRight:0.062221,0.834491,0.183334,0.515890 FootLeft:0.000000,0.000000,0.000000,0.000000 FootRight:0.000000,0.000000,0.000000,0.000000 HandLeft:-0.365998,0.487045,-0.230893,0.758631 HandRight:-0.007459,0.820613,-0.021709,-0.571022 HandTipLeft:0.000000,0.000000,0.000000,0.000000 HandTipRight:0.000000,0.000000,0.000000,0.000000 Head:0.000000,0.000000,0.000000,0.000000 HipLeft:-0.123606,0.696235,-0.690219,0.153546 HipRight:-0.117544,0.667759,0.716329,-0.164787 KneeLeft:-0.035684,0.712577,-0.074934,-0.696668 KneeRight:0.035595,0.699705,0.007483,0.713505 Neck:0.060512,-0.031878,0.995399,-0.067100 ShoulderLeft:-0.031999,0.791587,-0.602324,0.097836 ShoulderRight:0.046012,0.790528,0.610694,-0.000803 SpineBase:0.008394,-0.025508,0.999126,-0.032032 SpineMid:0.033896,-0.026317,0.998586,-0.031370 SpineShoulder:0.060224,-0.029312,0.996604,-0.047898 ThumbLeft:0.000000,0.000000,0.000000,0.000000 ThumbRight:0.000000,0.000000,0.000000,0.000000 WristLeft:-0.275406,0.513798,-0.196020,0.788504 WristRight:-0.021521,0.821511,0.045690,-0.567951 END:
KINECT_DATA POSITION:25.707397,0.635861,-20.587862 HEAD_JOINT1:0.977468,0.172189,-0.000000,0.122097 LARM_JOINT2:0.836574,0.000000,-0.225419,-0.499331 LARM_JOINT3:0.912894,0.000000,-0.368913,-0.174723 LLEG_JOINT2:0.995206,0.028703,0.000000,0.093494 LLEG_JOINT4:0.993109,0.092372,0.000000,-0.072130 RARM_JOINT2:0.773130,0.000000,-0.123891,0.622029 RARM_JOINT3:0.976936,0.000000,0.158549,0.143035 RLEG_JOINT2:0.999016,0.031779,0.000000,0.030937 RLEG_JOINT4:0.995548,0.094030,0.000000,0.006449 WAIST:0.999798,0.000000,-0.012220,-0.015961 WAIST_JOINT0:0.997565,0.000000,-0.069737,-0.000310 WAIST_JOINT1:0.998583,0.052004,0.000000,-0.011277 END:
KINECT_DATA_Sensor  AnkleLeft:-0.078556,-0.690332,0.091387,0.713385 AnkleRight:0.106338,0.709303,0.069845,0.693328 ElbowLeft:-0.206208,0.907160,-0.110637,-0.349712 ElbowRight:0.061856,0.828117,0.183788,0.525945 FootLeft:0.000000,0.000000,0.000000,0.000000 FootRight:0.000000,0.000000,0.000000,0.000000 HandLeft:-0.348104,0.217942,-0.366390,0.834915 HandRight:-0.003618,0.811906,-0.032359,-0.582880 HandTipLeft:0.000000,0.000000,0.000000,0.000000 HandTipRight:0.000000,0.000000,0.000000,0.000000 Head:0.000000,0.000000,0.000000,0.000000 HipLeft:-0.127085,0.694460,-0.690787,0.156166 HipRight:-0.117071,0.670542,0.714103,-0.163479 KneeLeft:-0.035428,0.715426,-0.074693,-0.693781 KneeRight:0.033059,0.696913,0.011361,0.716303 Neck:0.069543,-0.031933,0.994965,-0.064714 ShoulderLeft:-0.041670,0.792813,-0.598839,0.105368 ShoulderRight:0.047722,0.789575,0.611770,0.005665 SpineBase:0.012449,-0.023969,0.999146,-0.031262 SpineMid:0.040484,-0.024837,0.998403,-0.030577 SpineShoulder:0.069327,-0.028685,0.996122,-0.045965 ThumbLeft:0.000000,0.000000,0.000000,0.000000 ThumbRight:0.000000,0.000000,0.000000,0.000000 WristLeft:-0.227522,0.264854,-0.314939,0.882553 WristRight:-0.025505,0.813446,0.050177,-0.578911 END:
KINECT_DATA POSITION:25.906029,0.661294,-20.760668 HEAD_JOINT1:0.977317,0.172236,-0.000000,0.123232 LARM_JOINT2:0.846157,0.000000,-0.208230,-0.490569 LARM_JOINT3:0.886194,0.000000,-0.431481,-0.168772 LLEG_JOINT2:0.996027,0.026860,0.000000,0.084907 LLEG_JOINT4:0.993040,0.093768,0.000000,-0.071267 RARM_JOINT2:0.773419,0.000000,-0.130626,0.620290 RARM_JOINT3:0.975819,0.000000,0.163507,0.145058 RLEG_JOINT2:0.999375,0.028794,0.000000,0.020527 RLEG_JOINT4:0.995409,0.095286,0.000000,0.009059 WAIST:0.999841,0.000000,-0.014668,-0.010165 WAIST_JOINT0:0.997641,0.000000,-0.068647,0.000375 WAIST_JOINT1:0.998460,0.053036,0.000000,-0.016250 END:
KINECT_DATA_Sensor  AnkleLeft:-0.077958,-0.679848,0.091304,0.723459 AnkleRight:0.100948,0.678267,0.074164,0.724060 ElbowLeft:-0.206579,0.890844,-0.123016,-0.385473 ElbowRight:0.066393,0.821937,0.187200,0.533824 FootLeft:0.000000,0.000000,0.000000,0.000000 FootRight:0.000000,0.000000,0.000000,0.000000 HandLeft:-0.203826,0.625794,0.524449,-0.540176 HandRight:-0.009821,0.811998,-0.031562,-0.582724 HandTipLeft:0.000000,0.000000,0.000000,0.000000 HandTipRight:0.000000,0.000000,0.000000,0.000000 Head:0.000000,0.000000,0.000000,0.000000 HipLeft:0.128080,-0.689980,0.694427,-0.159041 HipRight:-0.115133,0.674408,0.710658,-0.163965 KneeLeft:-0.034884,0.716827,-0.071333,-0.692715 KneeRight:0.027766,0.695772,0.012531,0.717617 Neck:0.068658,-0.031366,0.994993,-0.065512 ShoulderLeft:-0.042802,0.792544,-0.598715,0.107623 ShoulderRight:0.045621,0.789948,0.611471,0.002071 SpineBase:0.014587,-0.021995,0.999112,-0.032829 SpineMid:0.041204,-0.022862,0.998369,-0.032232 SpineShoulder:0.068521,-0.027482,0.996144,-0.047391 ThumbLeft:0.000000,0.000000,0.000000,0.000000 ThumbRight:0.000000,0.000000,0.000000,0.000000 WristLeft:-0.211877,0.676920,0.371717,-0.598928 WristRight:-0.022946,0.814091,0.050283,-0.578101 END:
KINECT_DATA POSITION:25.941940,0.604376,-20.684469 HEAD_JOINT1:0.976638,0.175115,-0.000000,0.124550 LARM_JOINT2:0.816025,0.000000,-0.310197,-0.487731 LARM_JOINT3:0.954926,0.000000,-0.275479,-0.110582 LLEG_JOINT2:0.995868,0.033805,0.000000,0.084284 LLEG_JOINT4:0.993351,0.090003,0.000000,-0.071786 RARM_JOINT2:0.775378,0.000000,-0.129780,0.618018 RARM_JOINT3:0.975547,0.000000,0.168213,0.141462 RLEG_JOINT2:0.999398,0.028166,0.000000,0.020260 RLEG_JOINT4:0.995210,0.097478,0.000000,0.007473 WAIST:0.999682,0.000000,-0.022815,-0.010744 WAIST_JOINT0:0.996905,0.000000,-0.078489,-0.004557 WAIST_JOINT1:0.998459,0.053036,0.000000,-0.016358 END:
KINECT_DATA_Sensor  AnkleLeft:-0.081341,-0.692018,0.092370,0.711310 AnkleRight:0.100961,0.672978,0.075993,0.728789 ElbowLeft:-0.257962,0.903502,-0.051065,-0.338427 ElbowRight:0.066893,0.821002,0.189162,0.534509 FootLeft:0.000000,0.000000,0.000000,0.000000 FootRight:0.000000,0.000000,0.000000,0.000000 HandLeft:-0.271137,0.228411,-0.317355,0.879545 HandRight:0.000186,0.802191,-0.000108,-0.597067 HandTipLeft:0.000000,0.000000,0.000000,0.000000 HandTipRight:0.000000,0.000000,0.000000,0.000000 Head:0.000000,0.000000,0.000000,0.000000 HipLeft:0.134646,-0.689175,0.692810,-0.164080 HipRight:-0.111785,0.675000,0.711621,-0.159604 KneeLeft:-0.029800,0.722951,-0.075183,-0.686150 KneeRight:0.026759,0.689925,0.012413,0.723280 Neck:0.079222,-0.032120,0.994157,-0.065916 ShoulderLeft:-0.057777,0.795375,-0.591031,0.121340 ShoulderRight:0.044190,0.788542,0.613376,0.004360 SpineBase:0.022752,-0.022213,0.998984,-0.031936 SpineMid:0.050542,-0.023093,0.997964,-0.031306 SpineShoulder:0.079122,-0.027749,0.995355,-0.047319 ThumbLeft:0.000000,0.000000,0.000000,0.000000 ThumbRight:0.000000,0.000000,0.000000,0.000000 WristLeft:-0.203420,0.256663,-0.341123,0.881124 WristRight:-0.022823,0.801388,0.051862,-0.595455 END:
KINECT_DATA POSITION:25.719595,0.553153,-20.484114 HEAD_JOINT1:0.976089,0.178729,-0.000000,0.123717 LARM_JOINT2:0.811326,0.000000,-0.327716,-0.484099 LARM_JOINT3:0.965016,0.000000,-0.244684,-0.094205 LLEG_JOINT2:0.995006,0.038603,0.000000,0.092043 LLEG_JOINT4:0.993735,0.083174,0.000000,-0.074651 RARM_JOINT2:0.775845,0.000000,-0.128286,0.617744 RARM_JOINT3:0.975975,0.000000,0.163642,0.143855 RLEG_JOINT2:0.999158,0.029302,0.000000,0.028729 RLEG_JOINT4:0.995176,0.097879,0.000000,0.006659 WAIST:0.999468,0.000000,-0.028789,-0.015354 WAIST_JOINT0:0.996044,0.000000,-0.088303,-0.009979 WAIST_JOINT1:0.998492,0.052991,0.000000,-0.014366 END:
KINECT_DATA_Sensor  AnkleLeft:-0.077770,-0.686827,0.092494,0.716704 AnkleRight:0.108317,0.706978,0.068423,0.695535 ElbowLeft:-0.267191,0.907508,-0.037911,-0.321871 ElbowRight:0.066071,0.819738,0.190627,0.536027 FootLeft:0.000000,0.000000,0.000000,0.000000 FootRight:0.000000,0.000000,0.000000,0.000000 HandLeft:-0.268287,0.820067,0.296617,-0.409305 HandRight:-0.000905,0.713843,-0.010000,-0.700234 HandTipLeft:0.000000,0.000000,0.000000,0.000000 HandTipRight:0.000000,0.000000,0.000000,0.000000 Head:0.000000,0.000000,0.000000,0.000000 HipLeft:-0.138845,0.691452,-0.689274,0.165883 HipRight:-0.107759,0.672491,0.715664,-0.154820 KneeLeft:-0.029319,0.727464,-0.080552,-0.680770 KneeRight:0.030167,0.685199,0.010096,0.727661 Neck:0.089068,-0.034790,0.993213,-0.066208 ShoulderLeft:-0.066968,0.797183,-0.585700,0.130267 ShoulderRight:0.047666,0.786025,0.616266,0.010389 SpineBase:0.028913,-0.025167,0.998785,-0.030961 SpineMid:0.058456,-0.026072,0.997492,-0.030203 SpineShoulder:0.088943,-0.030165,0.994475,-0.046883 ThumbLeft:0.000000,0.000000,0.000000,0.000000 ThumbRight:0.000000,0.000000,0.000000,0.000000 WristLeft:-0.291523,0.816932,0.256161,-0.426634 WristRight:-0.012151,0.715265,0.055235,-0.696561 END:
KINECT_DATA POSITION:25.711828,0.517121,-20.379103 HEAD_JOINT1:0.975947,0.180086,-0.000000,0.122867 LARM_JOINT2:0.829481,0.000000,-0.283407,-0.481293 LARM_JOINT3:0.941954,0.000000,-0.307494,-0.134796 LLEG_JOINT2:0.994946,0.038655,0.000000,0.092678 LLEG_JOINT4:0.993352,0.085360,0.000000,-0.077230 RARM_JOINT2:0.775691,0.000000,-0.127763,0.618046 RARM_JOINT3:0.973745,0.000000,0.172807,0.148185 RLEG_JOINT2:0.999106,0.030442,0.000000,0.029332 RLEG_JOINT4:0.995350,0.096200,0.000000,0.004843 WAIST:0.999492,0.000000,-0.027788,-0.015607 WAIST_JOINT0:0.996057,0.000000,-0.088164,-0.009901 WAIST_JOINT1:0.998463,0.053527,0.000000,-0.014338 END:
KINECT_DATA_Sensor  AnkleLeft:-0.080618,-0.682811,0.092966,0.720158 AnkleRight:0.104394,0.683015,0.072975,0.719213 ElbowLeft:-0.249532,0.901942,-0.072997,-0.344828 ElbowRight:0.065770,0.819669,0.190793,0.536111 FootLeft:0.000000,0.000000,0.000000,0.000000 FootRight:0.000000,0.000000,0.000000,0.000000 HandLeft:-0.235804,0.810204,0.363861,-0.394426 HandRight:-0.032609,0.740060,0.007739,-0.671705 HandTipLeft:0.000000,0.000000,0.000000,0.000000 HandTipRight:0.000000,0.000000,0.000000,0.000000 Head:0.000000,0.000000,0.000000,0.000000 HipLeft:-0.137711,0.691536,-0.689549,0.165335 HipRight:-0.107747,0.671949,0.716062,-0.155340 KneeLeft:-0.029473,0.726779,-0.080891,-0.681454 KneeRight:0.031232,0.685835,0.010663,0.727009 Neck:0.088885,-0.034997,0.993186,-0.066759 ShoulderLeft:-0.063909,0.796394,-0.587463,0.128685 ShoulderRight:0.050507,0.784872,0.617485,0.011660 SpineBase:0.027926,-0.025307,0.998795,-0.031448 SpineMid:0.057873,-0.026239,0.997508,-0.030674 SpineShoulder:0.088743,-0.030539,0.994460,-0.047339 ThumbLeft:0.000000,0.000000,0.000000,0.000000 ThumbRight:0.000000,0.000000,0.000000,0.000000 WristLeft:-0.291975,0.807990,0.275479,-0.431293 WristRight:-0.015220,0.742327,0.055354,-0.667573 END:
KINECT_DATA POSITION:26.051224,0.501944,-20.168341 HEAD_JOINT1:0.975423,0.184104,-0.000000,0.121060 LARM_JOINT2:0.839367,0.000000,-0.240249,-0.487590 LARM_JOINT3:0.914015,0.000000,-0.370674,-0.164856 LLEG_JOINT2:0.995761,0.036279,0.000000,0.084524 LLEG_JOINT4:0.993526,0.086969,0.000000,-0.073093 RARM_JOINT2:0.777767,0.000000,-0.118938,0.617197 RARM_JOINT3:0.973989,0.000000,0.174020,0.145127 RLEG_JOINT2:0.999299,0.031909,0.000000,0.019564 RLEG_JOINT4:0.995247,0.096842,0.000000,0.010249 WAIST:0.999775,0.000000,-0.018395,-0.010560 WAIST_JOINT0:0.997529,0.000000,-0.070207,-0.002510 WAIST_JOINT1:0.998390,0.054531,0.000000,-0.015643 END:
KINECT_DATA_Sensor  AnkleLeft:-0.080491,-0.676785,0.092414,0.725908 AnkleRight:0.106843,0.698524,0.073676,0.703719 ElbowLeft:-0.223571,0.897956,-0.105616,-0.364054 ElbowRight:0.060565,0.828998,0.187913,0.523243 FootLeft:0.000000,0.000000,0.000000,0.000000 FootRight:0.000000,0.000000,0.000000,0.000000 HandLeft:-0.306392,0.141372,-0.369723,0.865704 HandRight:-0.032524,0.785543,0.013759,-0.617798 HandTipLeft:0.000000,0.000000,0.000000,0.000000 HandTipRight:0.000000,0.000000,0.000000,0.000000 Head:0.000000,0.000000,0.000000,0.000000 HipLeft:0.132208,-0.689178,0.693776,-0.161959 HipRight:-0.114978,0.674132,0.711355,-0.162172 KneeLeft:-0.027993,0.720030,-0.077430,-0.689042 KneeRight:0.029078,0.692911,0.015538,0.720269 Neck:0.070642,-0.030891,0.994666,-0.068521 ShoulderLeft:-0.043205,0.791867,-0.599140,0.110054 ShoulderRight:0.047933,0.785902,0.616487,0.002045 SpineBase:0.018352,-0.021447,0.999091,-0.031937 SpineMid:0.044086,-0.022263,0.998287,-0.031374 SpineShoulder:0.070491,-0.027037,0.995963,-0.048553 ThumbLeft:0.000000,0.000000,0.000000,0.000000 ThumbRight:0.000000,0.000000,0.000000,0.000000 WristLeft:-0.204487,0.184226,-0.359851,0.891490 WristRight:-0.025187,0.786482,0.054158,-0.614718 END:
KINECT_DATA POSITION:25.913900,0.464974,-20.003021 HEAD_JOINT1:0.974869,0.186447,-0.000000,0.121934 LARM_JOINT2:0.816798,0.000000,-0.280231,-0.504293 LARM_JOINT3:0.947651,0.000000,-0.296702,-0.118010 LLEG_JOINT2:0.995259,0.038582,0.000000,0.089281 LLEG_JOINT4:0.993504,0.084644,0.000000,-0.076055 RARM_JOINT2:0.777906,0.000000,-0.118546,0.617097 RARM_JOINT3:0.976793,0.000000,0.159010,0.143497 RLEG_JOINT2:0.999201,0.031502,0.000000,0.024586 RLEG_JOINT4:0.995539,0.094242,0.000000,0.004545 WAIST:0.999683,0.000000,-0.021568,-0.012999 WAIST_JOINT0:0.997051,0.000000,-0.076501,-0.006124 WAIST_JOINT1:0.998378,0.055086,0.000000,-0.014402 END:
KINECT_DATA_Sensor  AnkleLeft:-0.080810,-0.680854,0.091960,0.722116 AnkleRight:0.100341,0.674354,0.076705,0.727526 ElbowLeft:-0.231918,0.900441,-0.056751,-0.363594 ElbowRight:0.061479,0.829423,0.188728,0.522168 FootLeft:0.000000,0.000000,0.000000,0.000000 FootRight:0.000000,0.000000,0.000000,0.000000 HandLeft:-0.338810,0.895355,0.245951,-0.151841 HandRight:-0.005760,-0.656532,0.021909,0.753958 HandTipLeft:0.000000,0.000000,0.000000,0.000000 HandTipRight:0.000000,0.000000,0.000000,0.000000 Head:0.000000,0.000000,0.000000,0.000000 HipLeft:0.133420,-0.690228,0.692170,-0.163355 HipRight:-0.111618,0.672733,0.713760,-0.159745 KneeLeft:-0.028347,0.722395,-0.080567,-0.686186 KneeRight:0.030558,0.690467,0.013241,0.722596 Neck:0.077205,-0.032145,0.994108,-0.068952 ShoulderLeft:-0.050163,0.793862,-0.594535,0.117453 ShoulderRight:0.049372,0.784702,0.617886,0.004633 SpineBase:0.021621,-0.023187,0.998972,-0.032399 SpineMid:0.048942,-0.024065,0.998007,-0.031753 SpineShoulder:0.077049,-0.028236,0.995423,-0.048974 ThumbLeft:0.000000,0.000000,0.000000,0.000000 ThumbRight:0.000000,0.000000,0.000000,0.000000 WristLeft:-0.352032,0.901092,0.178538,-0.179532 WristRight:0.012207,-0.656412,-0.056321,0.752199 END:
KINECT_DATA POSITION:25.603413,0.402019,-19.834686 HEAD_JOINT1:0.974962,0.185891,-0.000000,0.122040 LARM_JOINT2:0.811785,0.000000,-0.300098,-0.500946 LARM_JOINT3:0.957506,0.000000,-0.263715,-0.116780 LLEG_JOINT2:0.994324,0.042564,0.000000,0.097512 LLEG_JOINT4:0.993404,0.083313,0.000000,-0.078787 RARM_JOINT2:0.778022,0.000000,-0.123352,0.616008 RARM_JOINT3:0.976171,0.000000,0.162358,0.143982 RLEG_JOINT2:0.998786,0.035545,0.000000,0.034091 RLEG_JOINT4:0.995743,0.092110,0.000000,0.003304 WAIST:0.999471,0.000000,-0.026904,-0.018284 WAIST_JOINT0:0.996452,0.000000,-0.083497,-0.010541 WAIST_JOINT1:0.998453,0.054356,0.000000,-0.011733 END:
KINECT_DATA_Sensor  AnkleLeft:-0.082275,-0.688789,0.093873,0.714135 AnkleRight:0.103976,0.669785,0.075287,0.731375 ElbowLeft:-0.241784,0.912611,-0.047565,-0.326219 ElbowRight:0.063634,0.825530,0.192225,0.526783 FootLeft:0.000000,0.000000,0.000000,0.000000 FootRight:0.000000,0.000000,0.000000,0.000000 HandLeft:-0.350664,0.475426,-0.210858,0.778809 HandRight:-0.005555,-0.668468,0.006461,0.743692 HandTipLeft:0.000000,0.000000,0.000000,0.000000 HandTipRight:0.000000,0.000000,0.000000,0.000000 Head:0.000000,0.000000,0.000000,0.000000 HipLeft:-0.136486,0.693107,-0.688347,0.164783 HipRight:-0.107425,0.669724,0.718196,-0.155319 KneeLeft:-0.028264,0.726479,-0.085221,-0.681297 KneeRight:0.036312,0.685923,0.012663,0.726657 Neck:0.084335,-0.034494,0.993505,-0.068159 ShoulderLeft:-0.057506,0.796661,-0.588846,0.123627 ShoulderRight:0.051048,0.783491,0.619233,0.009335 SpineBase:0.027183,-0.026337,0.998775,-0.031859 SpineMid:0.055201,-0.027220,0.997619,-0.031108 SpineShoulder:0.084136,-0.030613,0.994825,-0.048025 ThumbLeft:0.000000,0.000000,0.000000,0.000000 ThumbRight:0.000000,0.000000,0.000000,0.000000 WristLeft:-0.280891,0.502522,-0.247688,0.779245 WristRight:0.009237,-0.667760,-0.056271,0.742190 END:
KINECT_DATA POSITION:25.623438,0.389394,-19.827820 HEAD_JOINT1:0.975033,0.186777,-0.000000,0.120104 LARM_JOINT2:0.830587,0.000000,-0.241233,-0.501928 LARM_JOINT3:0.930908,0.000000,-0.332895,-0.150302 LLEG_JOINT2:0.994610,0.042231,0.000000,0.094692 LLEG_JOINT4:0.994048,0.079386,0.000000,-0.074611 RARM_JOINT2:0.777830,0.000000,-0.137133,0.613330 RARM_JOINT3:0.972163,0.000000,0.179262,0.150880 RLEG_JOINT2:0.998838,0.035334,0.000000,0.032768 RLEG_JOINT4:0.995719,0.092421,0.000000,0.001629 WAIST:0.999608,0.000000,-0.022384,-0.016844 WAIST_JOINT0:0.997472,0.000000,-0.070838,-0.005565 WAIST_JOINT1:0.998430,0.054816,0.000000,-0.011523 END:
KINECT_DATA_Sensor  AnkleLeft:-0.079428,-0.698367,0.090974,0.705477 AnkleRight:0.106327,0.707961,0.071910,0.694489 ElbowLeft:-0.215318,0.897036,-0.085813,-0.376298 ElbowRight:0.070724,0.818909,0.197634,0.534161 FootLeft:0.000000,0.000000,0.000000,0.000000 FootRight:0.000000,0.000000,0.000000,0.000000 HandLeft:-0.227922,0.801173,0.368231,-0.413012 HandRight:-0.021895,0.721075,0.014921,-0.692350 HandTipLeft:0.000000,0.000000,0.000000,0.000000 HandTipRight:0.000000,0.000000,0.000000,0.000000 Head:0.000000,0.000000,0.000000,0.000000 HipLeft:-0.132698,0.692821,-0.690045,0.161952 HipRight:-0.109627,0.670194,0.716921,-0.157625 KneeLeft:-0.027043,0.723324,-0.084221,-0.684820 KneeRight:0.036265,0.689286,0.012676,0.723470 Neck:0.071913,-0.032239,0.994510,-0.068838 ShoulderLeft:-0.050859,0.795419,-0.592720,0.115776 ShoulderRight:0.041912,0.786481,0.616188,-0.002064 SpineBase:0.022619,-0.025180,0.998907,-0.032248 SpineMid:0.046740,-0.025952,0.998069,-0.031630 SpineShoulder:0.071689,-0.028947,0.995814,-0.048766 ThumbLeft:0.000000,0.000000,0.000000,0.000000 ThumbRight:0.000000,0.000000,0.000000,0.000000 WristLeft:-0.279322,0.801051,0.281011,-0.448697 WristRight:-0.014518,0.722127,0.055238,-0.689399 END:
KINECT_DATA POSITION:25.743711,0.407156,-19.858051 HEAD_JOINT1:0.974978,0.188090,-0.000000,0.118492 LARM_JOINT2:0.825078,0.000000,-0.245980,-0.508665 LARM_JOINT3:0.934213,0.000000,-0.327808,-0.140673 LLEG_JOINT2:0.995161,0.039577,0.000000,0.089937 LLEG_JOINT4:0.994126,0.081890,0.000000,-0.070770 RARM_JOINT2:0.778662,0.000000,-0.128000,0.614249 RARM_JOINT3:0.973885,0.000000,0.174059,0.145780 RLEG_JOINT2:0.998976,0.034772,0.000000,0.028938 RLEG_JOINT4:0.995668,0.092972,0.000000,0.001595 WAIST:0.999749,0.000000,-0.017275,-0.014241 WAIST_JOINT0:0.997528,0.000000,-0.070122,-0.004623 WAIST_JOINT1:0.998373,0.055864,0.000000,-0.011387 END:
KINECT_DATA_Sensor  AnkleLeft:-0.079435,-0.700657,0.091041,0.703194 AnkleRight:0.101561,0.677638,0.078425,0.724114 ElbowLeft:-0.212523,0.897494,-0.080716,-0.377920 ElbowRight:0.065938,0.824633,0.193517,0.527431 FootLeft:0.000000,0.000000,0.000000,0.000000 FootRight:0.000000,0.000000,0.000000,0.000000 HandLeft:-0.426795,0.842916,0.047255,0.324201 HandRight:0.011337,-0.683897,-0.008590,0.729440 HandTipLeft:0.000000,0.000000,0.000000,0.000000 HandTipRight:0.000000,0.000000,0.000000,0.000000 Head:0.000000,0.000000,0.000000,0.000000 HipLeft:0.128139,-0.691470,0.692729,-0.159927 HipRight:-0.112393,0.671187,0.714878,-0.160704 KneeLeft:-0.026859,0.719555,-0.081022,-0.689170 KneeRight:0.035037,0.693198,0.013442,0.719770 Neck:0.071016,-0.029638,0.994582,-0.069892 ShoulderLeft:-0.045448,0.793355,-0.596429,0.113109 ShoulderRight:0.046125,0.785195,0.617527,-0.000862 SpineBase:0.017436,-0.022659,0.999040,-0.033195 SpineMid:0.043722,-0.023525,0.998235,-0.032587 SpineShoulder:0.070794,-0.026899,0.995887,-0.049741 ThumbLeft:0.000000,0.000000,0.000000,0.000000 ThumbRight:0.000000,0.000000,0.000000,0.000000 WristLeft:-0.393529,0.869746,-0.019164,0.297169 WristRight:0.014150,-0.683277,-0.056428,0.727838 END:
KINECT_DATA POSITION:25.623232,0.381582,-19.824636 HEAD_JOINT1:0.975208,0.186888,-0.000000,0.118496 LARM_JOINT2:0.813696,0.000000,-0.274996,-0.512128 LARM_JOINT3:0.950374,0.000000,-0.286382,-0.121553 LLEG_JOINT2:0.994730,0.039866,0.000000,0.094457 LLEG_JOINT4:0.993626,0.084724,0.000000,-0.074352 RARM_JOINT2:0.778687,0.000000,-0.128076,0.614201 RARM_JOINT3:0.975149,0.000000,0.169512,0.142655 RLEG_JOINT2:0.998783,0.035142,0.000000,0.034614 RLEG_JOINT4:0.995734,0.092266,0.000000,-0.001044 WAIST:0.999669,0.000000,-0.018944,-0.017426 WAIST_JOINT0:0.997053,0.000000,-0.076360,-0.007375 WAIST_JOINT1:0.998399,0.055791,0.000000,-0.009285 END:
KINECT_DATA_Sensor  AnkleLeft:-0.080880,-0.685261,0.093677,0.717705 AnkleRight:0.106469,0.725328,0.070835,0.676422 ElbowLeft:-0.223127,0.904034,-0.056968,-0.360128 ElbowRight:0.065503,0.823103,0.194348,0.529566 FootLeft:0.000000,0.000000,0.000000,0.000000 FootRight:0.000000,0.000000,0.000000,0.000000 HandLeft:-0.347060,0.485452,-0.213776,0.773424 HandRight:0.011237,0.723495,-0.001383,-0.690237 HandTipLeft:0.000000,0.000000,0.000000,0.000000 HandTipRight:0.000000,0.000000,0.000000,0.000000 Head:0.000000,0.000000,0.000000,0.000000 HipLeft:-0.129315,0.693381,-0.690375,0.160882 HipRight:-0.110920,0.669374,0.717139,-0.159207 KneeLeft:-0.027808,0.720841,-0.082072,-0.687662 KneeRight:0.036993,0.691727,0.011792,0.721115 Neck:0.077331,-0.031085,0.994085,-0.069624 ShoulderLeft:-0.050693,0.794569,-0.593350,0.118433 ShoulderRight:0.048951,0.783961,0.618867,0.003526 SpineBase:0.019278,-0.023789,0.998978,-0.033248 SpineMid:0.047765,-0.024727,0.998022,-0.032556 SpineShoulder:0.077116,-0.028052,0.995400,-0.049456 ThumbLeft:0.000000,0.000000,0.000000,0.000000 ThumbRight:0.000000,0.000000,0.000000,0.000000 WristLeft:-0.286195,0.510340,-0.249137,0.771736 WristRight:-0.016834,0.722954,0.056946,-0.688339 END:
KINECT_DATA POSITION:25.509634,0.375309,-19.785797 HEAD_JOINT1:0.975644,0.184370,-0.000000,0.118859 LARM_JOINT2:0.815159,0.000000,-0.269676,-0.512631 LARM_JOINT3:0.948918,0.000000,-0.291038,-0.121868 LLEG_JOINT2:0.994361,0.041528,0.000000,0.097575 LLEG_JOINT4:0.993620,0.084546,0.000000,-0.074645 RARM_JOINT2:0.778843,0.000000,-0.127064,0.614214 RARM_JOINT3:0.973849,0.000000,0.174226,0.145816 RLEG_JOINT2:0.998647,0.035121,0.000000,0.038358 RLEG_JOINT4:0.995703,0.092595,0.000000,-0.001226 WAIST:0.999590,0.000000,-0.020740,-0.019758 WAIST_JOINT0:0.996777,0.000000,-0.079661,-0.009469 WAIST_JOINT1:0.998406,0.055839,0.000000,-0.008247 END:
KINECT_DATA_Sensor  AnkleLeft:-0.081159,-0.685690,0.095286,0.717052 AnkleRight:0.102144,0.672319,0.077577,0.729065 ElbowLeft:-0.220203,0.902907,-0.057859,-0.364585 ElbowRight:0.064569,0.822417,0.195057,0.530484 FootLeft:0.000000,0.000000,0.000000,0.000000 FootRight:0.000000,0.000000,0.000000,0.000000 HandLeft:-0.407225,0.873530,0.075692,0.255704 HandRight:0.012673,-0.687667,-0.011200,0.725829 HandTipLeft:0.000000,0.000000,0.000000,0.000000 HandTipRight:0.000000,0.000000,0.000000,0.000000 Head:0.000000,0.000000,0.000000,0.000000 HipLeft:-0.130268,0.694597,-0.688733,0.161900 HipRight:-0.109501,0.667936,0.718972,-0.157956 KneeLeft:-0.027409,0.722270,-0.083723,-0.685978 KneeRight:0.037923,0.690268,0.010639,0.722481 Neck:0.080534,-0.032541,0.993791,-0.069526 ShoulderLeft:-0.051157,0.795800,-0.591401,0.119704 ShoulderRight:0.052493,0.782937,0.619841,0.007252 SpineBase:0.021189,-0.024914,0.998909,-0.033328 SpineMid:0.050307,-0.025876,0.997867,-0.032587 SpineShoulder:0.080320,-0.029248,0.995115,-0.049396 ThumbLeft:0.000000,0.000000,0.000000,0.000000 ThumbRight:0.000000,0.000000,0.000000,0.000000 WristLeft:-0.378523,0.896961,0.006668,0.228334 WristRight:0.011979,-0.686953,-0.058528,0.724242 END:
KINECT_DATA POSITION:25.663483,0.387693,-19.721245 HEAD_JOINT1:0.975854,0.184531,-0.000000,0.116863 LARM_JOINT2:0.827917,0.000000,-0.245344,-0.504341 LARM_JOINT3:0.927590,0.000000,-0.343658,-0.146545 LLEG_JOINT2:0.994873,0.040797,0.000000,0.092534 LLEG_JOINT4:0.994241,0.082727,0.000000,-0.068128 RARM_JOINT2:0.779399,0.000000,-0.121518,0.614631 RARM_JOINT3:0.971929,0.000000,0.182637,0.148319 RLEG_JOINT2:0.998798,0.036928,0.000000,0.032217 RLEG_JOINT4:0.995748,0.092031,0.000000,0.003933 WAIST:0.999760,0.000000,-0.013953,-0.016895 WAIST_JOINT0:0.997613,0.000000,-0.068815,-0.005753 WAIST_JOINT1:0.998398,0.055706,0.000000,-0.009867 END:
KINECT_DATA_Sensor  AnkleLeft:0.080342,0.706225,-0.093156,-0.697218 AnkleRight:0.104065,0.677944,0.077783,0.723541 ElbowLeft:-0.214310,0.896622,-0.085386,-0.377955 ElbowRight:0.060644,0.829247,0.192713,0.521088 FootLeft:0.000000,0.000000,0.000000,0.000000 FootRight:0.000000,0.000000,0.000000,0.000000 HandLeft:-0.382447,0.393354,-0.261716,0.794047 HandRight:-0.048557,0.726914,0.032981,-0.684216 HandTipLeft:0.000000,0.000000,0.000000,0.000000 HandTipRight:0.000000,0.000000,0.000000,0.000000 Head:0.000000,0.000000,0.000000,0.000000 HipLeft:-0.127087,0.693639,-0.691024,0.158745 HipRight:-0.115884,0.669004,0.715829,-0.163072 KneeLeft:-0.025681,0.717457,-0.081963,-0.691288 KneeRight:0.036977,0.695285,0.014626,0.717633 Neck:0.069272,-0.031532,0.994677,-0.069457 ShoulderLeft:-0.037926,0.793207,-0.598286,0.106949 ShoulderRight:0.051397,0.783133,0.619721,0.002625 SpineBase:0.014294,-0.022662,0.999100,-0.032870 SpineMid:0.041325,-0.023543,0.998348,-0.032244 SpineShoulder:0.069071,-0.028117,0.995989,-0.049445 ThumbLeft:0.000000,0.000000,0.000000,0.000000 ThumbRight:0.000000,0.000000,0.000000,0.000000 WristLeft:-0.276578,0.434314,-0.284470,0.808674 WristRight:-0.018867,0.729209,0.057663,-0.681596 END:
KINECT_DATA POSITION:26.104168,0.417487,-19.628334 HEAD_JOINT1:0.977068,0.182631,-0.000000,0.109475 LARM_JOINT2:0.836826,0.000000,-0.272478,-0.474845 LARM_JOINT3:0.909249,0.000000,-0.396101,-0.127950 LLEG_JOINT2:0.996204,0.037095,0.000000,0.078755 LLEG_JOINT4:0.994174,0.087613,0.000000,-0.062792 RARM_JOINT2:0.782834,0.000000,-0.122449,0.610064 RARM_JOINT3:0.970963,0.000000,0.184179,0.152672 RLEG_JOINT2:0.999148,0.037086,0.000000,0.018081 RLEG_JOINT4:0.995765,0.091278,0.000000,0.010987 WAIST:0.999935,0.000000,-0.007081,-0.008976 WAIST_JOINT0:0.998272,0.000000,-0.058714,-0.002507 WAIST_JOINT1:0.998409,0.054529,0.000000,-0.014378 END:
KINECT_DATA_Sensor  AnkleLeft:-0.081753,-0.696635,0.093715,0.706564 AnkleRight:0.106609,0.708496,0.073758,0.693706 ElbowLeft:-0.249931,0.885706,-0.093975,-0.379775 ElbowRight:0.059531,0.836166,0.194719,0.509281 FootLeft:0.000000,0.000000,0.000000,0.000000 FootRight:0.000000,0.000000,0.000000,0.000000 HandLeft:-0.180669,-0.107091,-0.519536,0.828234 HandRight:0.035842,-0.636604,-0.035811,0.769525 HandTipLeft:0.000000,0.000000,0.000000,0.000000 HandTipRight:0.000000,0.000000,0.000000,0.000000 Head:0.000000,0.000000,0.000000,0.000000 HipLeft:0.123240,-0.689425,0.696909,-0.154349 HipRight:-0.121465,0.673885,0.709659,-0.165858 KneeLeft:-0.023482,0.712243,-0.075454,-0.697470 KneeRight:0.032745,0.700784,0.019528,0.712354 Neck:0.059482,-0.028772,0.995512,-0.067750 ShoulderLeft:-0.038203,0.793621,-0.598368,0.103255 ShoulderRight:0.038658,0.787071,0.615586,-0.008849 SpineBase:0.007083,-0.017566,0.999327,-0.031416 SpineMid:0.032955,-0.018373,0.998808,-0.030951 SpineShoulder:0.059379,-0.024783,0.996738,-0.048706 ThumbLeft:0.000000,0.000000,0.000000,0.000000 ThumbRight:0.000000,0.000000,0.000000,0.000000 WristLeft:-0.086239,-0.060920,-0.429837,0.896712 WristRight:0.019248,-0.636769,-0.060897,0.768405 END:
KINECT_DATA POSITION:26.328405,0.476258,-19.679726 HEAD_JOINT1:0.977954,0.181966,-0.000000,0.102447 LARM_JOINT2:0.845266,0.000000,-0.353726,-0.400504 LARM_JOINT3:0.931451,0.000000,-0.360116,-0.052114 LLEG_JOINT2:0.997254,0.033246,0.000000,0.066170 LLEG_JOINT4:0.994558,0.087088,0.000000,-0.057178 RARM_JOINT2:0.785960,0.000000,-0.122775,0.605964 RARM_JOINT3:0.970453,0.000000,0.186216,0.153442 RLEG_JOINT2:0.999407,0.033318,0.000000,0.008712 RLEG_JOINT4:0.994874,0.099651,0.000000,0.017177 WAIST:0.999992,0.000000,-0.003035,-0.002629 WAIST_JOINT0:0.998621,0.000000,-0.052479,0.001697 WAIST_JOINT1:0.998569,0.051055,0.000000,-0.015921 END:
KINECT_DATA_Sensor  AnkleLeft:-0.077811,-0.680365,0.091466,0.722968 AnkleRight:0.109147,0.686061,0.079020,0.714957 ElbowLeft:-0.344776,0.852701,-0.078543,-0.384527 ElbowRight:0.055678,0.837421,0.194023,0.507918 FootLeft:0.000000,0.000000,0.000000,0.000000 FootRight:0.000000,0.000000,0.000000,0.000000 HandLeft:-0.389793,0.332933,-0.422047,0.747725 HandRight:0.039201,-0.669741,-0.034723,0.740746 HandTipLeft:0.000000,0.000000,0.000000,0.000000 HandTipRight:0.000000,0.000000,0.000000,0.000000 Head:0.000000,0.000000,0.000000,0.000000 HipLeft:0.119961,-0.685883,0.701977,-0.149676 HipRight:-0.122984,0.677896,0.705583,-0.165784 KneeLeft:-0.021482,0.709099,-0.068422,-0.701453 KneeRight:0.027907,0.704233,0.019177,0.709162 Neck:0.053264,-0.022552,0.996279,-0.063894 ShoulderLeft:-0.036955,0.791114,-0.602777,0.097121 ShoulderRight:0.031699,0.789356,0.612990,-0.012465 SpineBase:0.002743,-0.014718,0.999431,-0.030233 SpineMid:0.027661,-0.015467,0.999052,-0.029857 SpineShoulder:0.053108,-0.020400,0.997335,-0.045666 ThumbLeft:0.000000,0.000000,0.000000,0.000000 ThumbRight:0.000000,0.000000,0.000000,0.000000 WristLeft:-0.268584,0.397437,-0.407810,0.776915 WristRight:0.026634,-0.669839,-0.064074,0.739257 END:
KINECT_DATA POSITION:26.413589,0.527149,-19.845236 HEAD_JOINT1:0.978995,0.178510,-0.000000,0.098506 LARM_JOINT2:0.865285,0.000000,-0.411805,-0.285830 LARM_JOINT3:0.959152,0.000000,-0.279706,-0.042337 LLEG_JOINT2:0.997966,0.026537,0.000000,0.057970 LLEG_JOINT4:0.994042,0.096089,0.000000,-0.051454 RARM_JOINT2:0.786798,0.000000,-0.120368,0.605360 RARM_JOINT3:0.972812,0.000000,0.180897,0.144610 RLEG_JOINT2:0.999474,0.032387,0.000000,0.001788 RLEG_JOINT4:0.994897,0.098723,0.000000,0.020843 WAIST:0.999967,-0.000000,0.007485,0.003159 WAIST_JOINT0:0.998763,0.000000,-0.049201,0.007186 WAIST_JOINT1:0.998631,0.050164,0.000000,-0.014854 END:
KINECT_DATA_Sensor  AnkleLeft:-0.079984,-0.687544,0.092900,0.715720 AnkleRight:0.108225,0.687941,0.077956,0.713406 ElbowLeft:-0.433574,0.846935,-0.156543,-0.264969 ElbowRight:0.051935,0.838279,0.189200,0.508718 FootLeft:0.000000,0.000000,0.000000,0.000000 FootRight:0.000000,0.000000,0.000000,0.000000 HandLeft:-0.012039,-0.132021,-0.605649,0.784611 HandRight:0.023964,-0.695876,-0.019104,0.717508 HandTipLeft:0.000000,0.000000,0.000000,0.000000 HandTipRight:0.000000,0.000000,0.000000,0.000000 Head:0.000000,0.000000,0.000000,0.000000 HipLeft:0.112089,-0.683088,0.707662,-0.141568 HipRight:-0.128395,0.680458,0.701357,-0.169087 KneeLeft:0.023917,-0.701220,0.062184,0.709825 KneeRight:0.026233,0.711971,0.019588,0.701446 Neck:0.049692,-0.016475,0.996588,-0.063803 ShoulderLeft:-0.031886,0.786554,-0.609861,0.091579 ShoulderRight:0.032081,0.790691,0.611252,-0.012267 SpineBase:-0.007980,-0.010904,0.999479,-0.029311 SpineMid:0.020514,-0.011735,0.999300,-0.028989 SpineShoulder:0.049621,-0.014422,0.997668,-0.044582 ThumbLeft:0.000000,0.000000,0.000000,0.000000 ThumbRight:0.000000,0.000000,0.000000,0.000000 WristLeft:0.083008,-0.053213,-0.475781,0.874020 WristRight:0.030145,-0.695310,-0.064350,0.715189 END:
KINECT_DATA POSITION:26.435343,0.551500,-19.975424 HEAD_JOINT1:0.978731,0.182928,-0.000000,0.092863 LARM_JOINT2:0.877126,0.000000,-0.378564,-0.295534 LARM_JOINT3:0.963943,0.000000,-0.265385,0.019619 LLEG_JOINT2:0.998306,0.023014,0.000000,0.053440 LLEG_JOINT4:0.994056,0.098175,0.000000,-0.047059 RARM_JOINT2:0.789503,0.000000,-0.117284,0.602437 RARM_JOINT3:0.972012,0.000000,0.184346,0.145636 RLEG_JOINT2:0.999518,0.030979,0.000000,-0.002200 RLEG_JOINT4:0.994588,0.099888,0.000000,0.028575 WAIST:0.999890,-0.000000,0.013509,0.006060 WAIST_JOINT0:0.998822,0.000000,-0.047694,0.008971 WAIST_JOINT1:0.998667,0.049887,0.000000,-0.013243 END:
KINECT_DATA_Sensor  AnkleLeft:-0.078261,-0.688806,0.092774,0.714713 AnkleRight:0.111380,0.681970,0.075448,0.718901 ElbowLeft:-0.445182,0.755964,-0.083729,-0.472568 ElbowRight:0.049797,0.844775,0.187838,0.498591 FootLeft:0.000000,0.000000,0.000000,0.000000 FootRight:0.000000,0.000000,0.000000,0.000000 HandLeft:0.043534,-0.034945,-0.543168,0.837766 HandRight:0.039311,-0.676340,-0.034047,0.734751 HandTipLeft:0.000000,0.000000,0.000000,0.000000 HandTipRight:0.000000,0.000000,0.000000,0.000000 Head:0.000000,0.000000,0.000000,0.000000 HipLeft:0.108096,-0.681976,0.710103,-0.137756 HipRight:-0.132702,0.682032,0.698490,-0.171271 KneeLeft:0.024996,-0.696747,0.058651,0.714478 KneeRight:0.024314,0.716381,0.019451,0.697014 Neck:0.048346,-0.012728,0.996706,-0.063864 ShoulderLeft:-0.033073,0.786353,-0.610002,0.091936 ShoulderRight:0.029046,0.792364,0.609181,-0.014630 SpineBase:-0.014055,-0.007604,0.999466,-0.028486 SpineMid:0.016825,-0.008480,0.999424,-0.028238 SpineShoulder:0.048367,-0.010362,0.997791,-0.044351 ThumbLeft:0.000000,0.000000,0.000000,0.000000 ThumbRight:0.000000,0.000000,0.000000,0.000000 WristLeft:0.127221,0.018972,-0.540214,0.831639 WristRight:0.030759,-0.676397,-0.063470,0.733152 END:
KINECT_DATA POSITION:26.503342,0.579131,-20.121765 HEAD_JOINT1:0.978915,0.183327,-0.000000,0.090092 LARM_JOINT2:0.882190,0.000000,-0.369553,-0.291840 LARM_JOINT3:0.963452,0.000000,-0.264519,0.042318 LLEG_JOINT2:0.998544,0.022737,0.000000,0.048911 LLEG_JOINT4:0.994272,0.097186,0.000000,-0.044471 RARM_JOINT2:0.791086,0.000000,-0.116110,0.600585 RARM_JOINT3:0.973555,0.000000,0.176703,0.144797 RLEG_JOINT2:0.999496,0.031193,0.000000,-0.005880 RLEG_JOINT4:0.994471,0.100704,0.000000,0.029762 WAIST:0.999803,-0.000000,0.017837,0.008657 WAIST_JOINT0:0.999033,0.000000,-0.042383,0.011652 WAIST_JOINT1:0.998666,0.049887,0.000000,-0.013341 END:
KINECT_DATA_Sensor  AnkleLeft:-0.077882,-0.690914,0.091462,0.712886 AnkleRight:0.113768,0.703833,0.073562,0.697326 ElbowLeft:-0.443632,0.763129,-0.109688,-0.456939 ElbowRight:0.048698,0.848500,0.187578,0.492433 FootLeft:0.000000,0.000000,0.000000,0.000000 FootRight:0.000000,0.000000,0.000000,0.000000 HandLeft:0.086606,0.017180,-0.597830,0.796746 HandRight:-0.018466,0.735936,0.011635,-0.676699 HandTipLeft:0.000000,0.000000,0.000000,0.000000 HandTipRight:0.000000,0.000000,0.000000,0.000000 Head:0.000000,0.000000,0.000000,0.000000 HipLeft:0.105247,-0.680925,0.711927,-0.135735 HipRight:-0.135510,0.683627,0.695851,-0.173444 KneeLeft:0.023658,-0.693598,0.057118,0.717704 KneeRight:0.023548,0.719523,0.020408,0.693769 Neck:0.042798,-0.010421,0.996983,-0.063918 ShoulderLeft:-0.027363,0.784268,-0.613769,0.086388 ShoulderRight:0.027676,0.793141,0.608154,-0.017623 SpineBase:-0.018453,-0.005125,0.999412,-0.028441 SpineMid:0.011910,-0.005986,0.999511,-0.028272 SpineShoulder:0.042858,-0.008021,0.998060,-0.044451 ThumbLeft:0.000000,0.000000,0.000000,0.000000 ThumbRight:0.000000,0.000000,0.000000,0.000000 WristLeft:0.116119,0.050700,-0.532751,0.836733 WristRight:-0.037628,0.735547,0.059744,-0.673785 END:
KINECT_DATA POSITION:26.509428,0.649715,-20.395660 HEAD_JOINT1:0.979172,0.181006,-0.000000,0.091974 LARM_JOINT2:0.892905,0.000000,-0.366414,-0.261652 LARM_JOINT3:0.962888,0.000000,-0.263291,0.059374 LLEG_JOINT2:0.998728,0.018538,0.000000,0.046899 LLEG_JOINT4:0.994049,0.100386,0.000000,-0.042310 RARM_JOINT2:0.790650,0.000000,-0.116977,0.600989 RARM_JOINT3:0.974598,0.000000,0.170145,0.145637 RLEG_JOINT2:0.999540,0.029026,0.000000,-0.008823 RLEG_JOINT4:0.994316,0.101316,0.000000,0.032709 WAIST:0.999757,-0.000000,0.019085,0.011037 WAIST_JOINT0:0.998948,0.000000,-0.044441,0.011280 WAIST_JOINT1:0.998566,0.051366,0.000000,-0.015073 END:
KINECT_DATA_Sensor  AnkleLeft:-0.076182,-0.695138,0.091933,0.708892 AnkleRight:0.112768,0.689617,0.073357,0.711569 ElbowLeft:-0.462620,0.754549,-0.133282,-0.445953 ElbowRight:0.050157,0.847274,0.187803,0.494309 FootLeft:0.000000,0.000000,0.000000,0.000000 FootRight:0.000000,0.000000,0.000000,0.000000 HandLeft:0.140884,0.004650,-0.633092,0.761134 HandRight:0.007601,-0.590029,0.014976,0.807207 HandTipLeft:0.000000,0.000000,0.000000,0.000000 HandTipRight:0.000000,0.000000,0.000000,0.000000 Head:0.000000,0.000000,0.000000,0.000000 HipLeft:0.103845,-0.679902,0.712941,-0.136616 HipRight:-0.135726,0.685538,0.693409,-0.175499 KneeLeft:0.026930,-0.692444,0.054451,0.718910 KneeRight:0.021578,0.720589,0.019223,0.692760 Neck:0.044801,-0.010397,0.996814,-0.065162 ShoulderLeft:-0.026518,0.783969,-0.613931,0.088191 ShoulderRight:0.031145,0.792331,0.609078,-0.016310 SpineBase:-0.019825,-0.003567,0.999352,-0.029816 SpineMid:0.012269,-0.004522,0.999474,-0.029687 SpineShoulder:0.044899,-0.007642,0.997905,-0.045939 ThumbLeft:0.000000,0.000000,0.000000,0.000000 ThumbRight:0.000000,0.000000,0.000000,0.000000 WristLeft:0.150791,0.033096,-0.536028,0.829964 WristRight:0.024026,-0.590280,-0.064885,0.804228 END:
KINECT_DATA POSITION:26.487598,0.679550,-20.551277 HEAD_JOINT1:0.979328,0.179392,-0.000000,0.093460 LARM_JOINT2:0.895934,0.000000,-0.373150,-0.240958 LARM_JOINT3:0.963298,0.000000,-0.264416,0.046267 LLEG_JOINT2:0.998753,0.017444,0.000000,0.046785 LLEG_JOINT4:0.993939,0.100708,0.000000,-0.044093 RARM_JOINT2:0.789806,0.000000,-0.115745,0.602337 RARM_JOINT3:0.973464,0.000000,0.176598,0.145538 RLEG_JOINT2:0.999559,0.027996,0.000000,-0.009888 RLEG_JOINT4:0.994432,0.100540,0.000000,0.031559 WAIST:0.999773,-0.000000,0.017482,0.012175 WAIST_JOINT0:0.998761,0.000000,-0.048555,0.010906 WAIST_JOINT1:0.998539,0.051641,0.000000,-0.015936 END:
KINECT_DATA_Sensor  AnkleLeft:-0.076501,-0.700220,0.090538,0.704018 AnkleRight:0.110778,0.687696,0.072723,0.713803 ElbowLeft:-0.474041,0.764455,-0.154742,-0.408593 ElbowRight:0.050529,0.846478,0.185913,0.496345 FootLeft:0.000000,0.000000,0.000000,0.000000 FootRight:0.000000,0.000000,0.000000,0.000000 HandLeft:0.152279,-0.041146,-0.636218,0.755212 HandRight:0.028606,-0.693967,-0.003891,0.719427 HandTipLeft:0.000000,0.000000,0.000000,0.000000 HandTipRight:0.000000,0.000000,0.000000,0.000000 Head:0.000000,0.000000,0.000000,0.000000 HipLeft:0.104900,-0.679231,0.713211,-0.137738 HipRight:-0.134875,0.686835,0.692489,-0.174719 KneeLeft:0.028522,-0.693492,0.054381,0.717842 KneeRight:0.020944,0.719548,0.018394,0.693883 Neck:0.048986,-0.010388,0.996596,-0.065497 ShoulderLeft:-0.030033,0.783799,-0.613370,0.092382 ShoulderRight:0.032996,0.791996,0.609475,-0.013945 SpineBase:-0.018272,-0.002902,0.999385,-0.029790 SpineMid:0.015151,-0.003896,0.999437,-0.029676 SpineShoulder:0.049113,-0.007386,0.997696,-0.046208 ThumbLeft:0.000000,0.000000,0.000000,0.000000 ThumbRight:0.000000,0.000000,0.000000,0.000000 WristLeft:0.172615,-0.001886,-0.527590,0.831775 WristRight:0.032590,-0.693920,-0.060404,0.716774 END:
KINECT_DATA POSITION:26.492262,0.677463,-20.618904 HEAD_JOINT1:0.979580,0.177178,-0.000000,0.095032 LARM_JOINT2:0.891321,0.000000,-0.398541,-0.216130 LARM_JOINT3:0.971296,0.000000,-0.233341,0.046214 LLEG_JOINT2:0.998800,0.017096,0.000000,0.045888 LLEG_JOINT4:0.993844,0.100740,0.000000,-0.046097 RARM_JOINT2:0.793067,0.000000,-0.132289,0.594596 RARM_JOINT3:0.969980,0.000000,0.186569,0.155985 RLEG_JOINT2:0.999597,0.026181,0.000000,-0.010953 RLEG_JOINT4:0.994078,0.103737,0.000000,0.032369 WAIST:0.999793,-0.000000,0.015685,0.012986 WAIST_JOINT0:0.998979,0.000000,-0.042975,0.013929 WAIST_JOINT1:0.998543,0.051432,0.000000,-0.016316 END:
KINECT_DATA_Sensor  AnkleLeft:-0.075137,-0.682515,0.090969,0.721285 AnkleRight:0.112680,0.690417,0.072535,0.710891 ElbowLeft:-0.498618,0.762562,-0.146488,-0.385253 ElbowRight:0.058660,0.841162,0.197682,0.499927 FootLeft:0.000000,0.000000,0.000000,0.000000 FootRight:0.000000,0.000000,0.000000,0.000000 HandLeft:0.155887,-0.032966,-0.637945,0.753418 HandRight:0.023888,-0.657073,-0.008169,0.753404 HandTipLeft:0.000000,0.000000,0.000000,0.000000 HandTipRight:0.000000,0.000000,0.000000,0.000000 Head:0.000000,0.000000,0.000000,0.000000 HipLeft:0.105794,-0.678783,0.713333,-0.138627 HipRight:-0.133600,0.687986,0.691907,-0.173470 KneeLeft:0.028806,-0.694747,0.054030,0.716643 KneeRight:0.019540,0.718378,0.017234,0.695165 Neck:0.043820,-0.009406,0.996854,-0.065379 ShoulderLeft:-0.036730,0.784452,-0.611713,0.095362 ShoulderRight:0.019591,0.796549,0.603760,-0.024487 SpineBase:-0.016509,-0.002427,0.999419,-0.029718 SpineMid:0.013448,-0.003316,0.999465,-0.029632 SpineShoulder:0.043947,-0.006526,0.997948,-0.046116 ThumbLeft:0.000000,0.000000,0.000000,0.000000 ThumbRight:0.000000,0.000000,0.000000,0.000000 WristLeft:0.177749,0.007823,-0.536766,0.824758 WristRight:0.030595,-0.656861,-0.062835,0.750766 END:
KINECT_DATA POSITION:26.463037,0.660718,-20.640064 HEAD_JOINT1:0.979321,0.176865,-0.000000,0.098227 LARM_JOINT2:0.887621,0.000000,-0.415310,-0.199113 LARM_JOINT3:0.973148,0.000000,-0.225962,0.043871 LLEG_JOINT2:0.998846,0.017434,0.000000,0.044758 LLEG_JOINT4:0.993773,0.101561,0.000000,-0.045833 RARM_JOINT2:0.792140,0.000000,-0.131045,0.596105 RARM_JOINT3:0.970876,0.000000,0.183429,0.154120 RLEG_JOINT2:0.999634,0.024512,0.000000,-0.011472 RLEG_JOINT4:0.994181,0.103511,0.000000,0.029840 WAIST:0.999804,-0.000000,0.014068,0.013946 WAIST_JOINT0:0.998701,0.000000,-0.049439,0.012353 WAIST_JOINT1:0.998535,0.051238,0.000000,-0.017390 END:
KINECT_DATA_Sensor  AnkleLeft:-0.076743,-0.691261,0.091143,0.712714 AnkleRight:0.109452,0.684290,0.073198,0.717223 ElbowLeft:-0.513225,0.764918,-0.145730,-0.360920 ElbowRight:0.058401,0.840086,0.195748,0.502521 FootLeft:0.000000,0.000000,0.000000,0.000000 FootRight:0.000000,0.000000,0.000000,0.000000 HandLeft:0.197402,-0.110604,-0.636590,0.737260 HandRight:0.020900,-0.683373,-0.001827,0.729768 HandTipLeft:0.000000,0.000000,0.000000,0.000000 HandTipRight:0.000000,0.000000,0.000000,0.000000 Head:0.000000,0.000000,0.000000,0.000000 HipLeft:0.106679,-0.678249,0.713611,-0.139128 HipRight:-0.132281,0.689159,0.691293,-0.172265 KneeLeft:0.028527,-0.695885,0.054100,0.715544 KneeRight:0.018725,0.717317,0.015703,0.696318 Neck:0.050738,-0.009837,0.996538,-0.065128 ShoulderLeft:-0.043637,0.786042,-0.608120,0.102091 ShoulderRight:0.021495,0.796107,0.604425,-0.020542 SpineBase:-0.014943,-0.002349,0.999449,-0.029529 SpineMid:0.017664,-0.003311,0.999405,-0.029437 SpineShoulder:0.050881,-0.006772,0.997626,-0.045901 ThumbLeft:0.000000,0.000000,0.000000,0.000000 ThumbRight:0.000000,0.000000,0.000000,0.000000 WristLeft:0.223982,-0.064086,-0.525404,0.818337 WristRight:0.031919,-0.683170,-0.061554,0.726960 END:
KINECT_DATA POSITION:26.400185,0.642948,-20.640528 HEAD_JOINT1:0.978979,0.177203,-0.000000,0.100988 LARM_JOINT2:0.885160,0.000000,-0.426379,-0.186257 LARM_JOINT3:0.979320,0.000000,-0.199671,0.032616 LLEG_JOINT2:0.998835,0.017038,0.000000,0.045150 LLEG_JOINT4:0.993494,0.104100,0.000000,-0.046181 RARM_JOINT2:0.790159,0.000000,-0.126221,0.599764 RARM_JOINT3:0.972217,0.000000,0.181753,0.147510 RLEG_JOINT2:0.999659,0.023466,0.000000,-0.011439 RLEG_JOINT4:0.994286,0.102531,0.000000,0.029713 WAIST:0.999829,-0.000000,0.011473,0.014503 WAIST_JOINT0:0.998215,0.000000,-0.058732,0.010851 WAIST_JOINT1:0.998542,0.051180,0.000000,-0.017169 END:
KINECT_DATA_Sensor  AnkleLeft:-0.078226,-0.697080,0.092785,0.706648 AnkleRight:0.108642,0.682577,0.071144,0.719183 ElbowLeft:-0.521889,0.771120,-0.153853,-0.330657 ElbowRight:0.057045,0.838371,0.190077,0.507692 FootLeft:0.000000,0.000000,0.000000,0.000000 FootRight:0.000000,0.000000,0.000000,0.000000 HandLeft:0.184229,-0.059797,-0.624790,0.756388 HandRight:0.017818,-0.665354,-0.005705,0.746293 HandTipLeft:0.000000,0.000000,0.000000,0.000000 HandTipRight:0.000000,0.000000,0.000000,0.000000 Head:0.000000,0.000000,0.000000,0.000000 HipLeft:0.108431,-0.677588,0.713639,-0.140844 HipRight:-0.131025,0.689982,0.691103,-0.170686 KneeLeft:0.029593,-0.697690,0.054449,0.713715 KneeRight:0.018478,0.715534,0.014514,0.698183 Neck:0.060310,-0.009378,0.996008,-0.065136 ShoulderLeft:-0.050478,0.786919,-0.605070,0.110004 ShoulderRight:0.026824,0.795400,0.605338,-0.013606 SpineBase:-0.012361,-0.001660,0.999489,-0.029417 SpineMid:0.023715,-0.002720,0.999285,-0.029338 SpineShoulder:0.060486,-0.006189,0.997094,-0.045903 ThumbLeft:0.000000,0.000000,0.000000,0.000000 ThumbRight:0.000000,0.000000,0.000000,0.000000 WristLeft:0.200796,-0.026286,-0.534573,0.820501 WristRight:0.030866,-0.664991,-0.062428,0.743597 END:
KINECT_DATA POSITION:26.333511,0.627921,-20.592642 HEAD_JOINT1:0.979073,0.176562,-0.000000,0.101204 LARM_JOINT2:0.886132,0.000000,-0.424903,-0.185005 LARM_JOINT3:0.981164,0.000000,-0.191022,0.028769 LLEG_JOINT2:0.998861,0.017932,0.000000,0.044209 LLEG_JOINT4:0.993371,0.105132,0.000000,-0.046492 RARM_JOINT2:0.791716,0.000000,-0.134522,0.595894 RARM_JOINT3:0.970758,0.000000,0.186411,0.151261 RLEG_JOINT2:0.999653,0.023212,0.000000,-0.012485 RLEG_JOINT4:0.993926,0.106066,0.000000,0.029338 WAIST:0.999833,-0.000000,0.009489,0.015626 WAIST_JOINT0:0.998342,0.000000,-0.056238,0.012239 WAIST_JOINT1:0.998526,0.051230,0.000000,-0.017935 END:
KINECT_DATA_Sensor  AnkleLeft:0.080446,0.705030,-0.093394,-0.698383 AnkleRight:0.111053,0.683636,0.073146,0.717606 ElbowLeft:-0.522851,0.770470,-0.154363,-0.330417 ElbowRight:0.061818,0.835709,0.195735,0.509370 FootLeft:0.000000,0.000000,0.000000,0.000000 FootRight:0.000000,0.000000,0.000000,0.000000 HandLeft:0.184187,-0.037937,-0.613309,0.767130 HandRight:-0.015261,0.723193,0.010679,-0.690395 HandTipLeft:0.000000,0.000000,0.000000,0.000000 HandTipRight:0.000000,0.000000,0.000000,0.000000 Head:0.000000,0.000000,0.000000,0.000000 HipLeft:0.110020,-0.676426,0.714207,-0.142309 HipRight:-0.130359,0.690819,0.690600,-0.169846 KneeLeft:0.029174,-0.699093,0.055158,0.712303 KneeRight:0.018397,0.714190,0.014256,0.699565 Neck:0.057716,-0.008749,0.996156,-0.065306 ShoulderLeft:-0.052390,0.786626,-0.605182,0.110589 ShoulderRight:0.021577,0.797467,0.602709,-0.017950 SpineBase:-0.010425,-0.000998,0.999514,-0.029375 SpineMid:0.023412,-0.001991,0.999294,-0.029324 SpineShoulder:0.057907,-0.005496,0.997245,-0.046032 ThumbLeft:0.000000,0.000000,0.000000,0.000000 ThumbRight:0.000000,0.000000,0.000000,0.000000 WristLeft:0.194443,-0.012778,-0.537530,0.820421 WristRight:-0.034589,0.722889,0.059027,-0.687568 END:
KINECT_DATA POSITION:26.322016,0.608321,-20.553959 HEAD_JOINT1:0.978883,0.177948,-0.000000,0.100613 LARM_JOINT2:0.886823,0.000000,-0.422916,-0.186245 LARM_JOINT3:0.979334,0.000000,-0.199703,0.031999 LLEG_JOINT2:0.998883,0.018242,0.000000,0.043591 LLEG_JOINT4:0.993787,0.101274,0.000000,-0.046155 RARM_JOINT2:0.791964,0.000000,-0.135684,0.595301 RARM_JOINT3:0.969250,0.000000,0.191326,0.154752 RLEG_JOINT2:0.999651,0.023116,0.000000,-0.012795 RLEG_JOINT4:0.993871,0.107041,0.000000,0.027608 WAIST:0.999838,-0.000000,0.008441,0.015929 WAIST_JOINT0:0.998395,0.000000,-0.055337,0.012036 WAIST_JOINT1:0.998532,0.051057,0.000000,-0.018073 END:
KINECT_DATA_Sensor  AnkleLeft:-0.075602,-0.689744,0.092891,0.714079 AnkleRight:0.111402,0.691999,0.073445,0.709459 ElbowLeft:-0.522516,0.769284,-0.152673,-0.334469 ElbowRight:0.062602,0.835131,0.196320,0.509995 FootLeft:0.000000,0.000000,0.000000,0.000000 FootRight:0.000000,0.000000,0.000000,0.000000 HandLeft:0.173110,-0.051368,-0.625476,0.759061 HandRight:0.033560,-0.657094,-0.021227,0.752762 HandTipLeft:0.000000,0.000000,0.000000,0.000000 HandTipRight:0.000000,0.000000,0.000000,0.000000 Head:0.000000,0.000000,0.000000,0.000000 HipLeft:0.110735,-0.676120,0.714302,-0.142732 HipRight:-0.129942,0.691222,0.690493,-0.168957 KneeLeft:0.028779,-0.699857,0.055131,0.711570 KneeRight:0.018349,0.713462,0.014183,0.700310 Neck:0.056818,-0.008433,0.996218,-0.065195 ShoulderLeft:-0.052628,0.786781,-0.605011,0.110308 ShoulderRight:0.020188,0.797559,0.602600,-0.019108 SpineBase:-0.009377,-0.000626,0.999532,-0.029095 SpineMid:0.023503,-0.001583,0.999300,-0.029059 SpineShoulder:0.057014,-0.005165,0.997304,-0.045898 ThumbLeft:0.000000,0.000000,0.000000,0.000000 ThumbRight:0.000000,0.000000,0.000000,0.000000 WristLeft:0.195379,-0.013210,-0.537704,0.820077 WristRight:0.028858,-0.657022,-0.061749,0.750784 END:
KINECT_DATA POSITION:26.303747,0.590356,-20.573771 HEAD_JOINT1:0.978569,0.179217,-0.000000,0.101412 LARM_JOINT2:0.884884,0.000000,-0.426256,-0.187847 LARM_JOINT3:0.977034,0.000000,-0.207799,0.047168 LLEG_JOINT2:0.998860,0.017865,0.000000,0.044278 LLEG_JOINT4:0.993618,0.102885,0.000000,-0.046238 RARM_JOINT2:0.793468,0.000000,-0.138740,0.592587 RARM_JOINT3:0.969055,0.000000,0.188341,0.159565 RLEG_JOINT2:0.999668,0.022586,0.000000,-0.012360 RLEG_JOINT4:0.993855,0.107687,0.000000,0.025627 WAIST:0.999845,-0.000000,0.007759,0.015806 WAIST_JOINT0:0.998389,0.000000,-0.055463,0.011995 WAIST_JOINT1:0.998406,0.053532,0.000000,-0.017909 END:
KINECT_DATA_Sensor  AnkleLeft:-0.077521,-0.700863,0.092972,0.702949 AnkleRight:0.110488,0.693121,0.074371,0.708409 ElbowLeft:-0.520453,0.772455,-0.149833,-0.331651 ElbowRight:0.065662,0.833870,0.201137,0.509798 FootLeft:0.000000,0.000000,0.000000,0.000000 FootRight:0.000000,0.000000,0.000000,0.000000 HandLeft:0.208339,-0.078878,-0.641663,0.733922 HandRight:0.020659,-0.699612,0.004414,0.714211 HandTipLeft:0.000000,0.000000,0.000000,0.000000 HandTipRight:0.000000,0.000000,0.000000,0.000000 Head:0.000000,0.000000,0.000000,0.000000 HipLeft:0.110353,-0.676069,0.714238,-0.143589 HipRight:-0.128803,0.691177,0.690741,-0.169000 KneeLeft:0.029475,-0.700298,0.055255,0.711098 KneeRight:0.018218,0.713004,0.013581,0.700791 Neck:0.056814,-0.008719,0.995994,-0.068496 ShoulderLeft:-0.055164,0.787113,-0.603579,0.114465 ShoulderRight:0.017725,0.798873,0.600797,-0.023038 SpineBase:-0.008718,-0.000634,0.999511,-0.030028 SpineMid:0.023834,-0.001611,0.999265,-0.029991 SpineShoulder:0.057042,-0.005173,0.997198,-0.048123 ThumbLeft:0.000000,0.000000,0.000000,0.000000 ThumbRight:0.000000,0.000000,0.000000,0.000000 WristLeft:0.208323,-0.057695,-0.532326,0.818475 WristRight:0.032203,-0.699568,-0.059872,0.711325 END:
KINECT_DATA POSITION:26.321674,0.600915,-20.610714 HEAD_JOINT1:0.977678,0.181180,-0.000000,0.106394 LARM_JOINT2:0.864731,0.000000,-0.462941,-0.194748 LARM_JOINT3:0.992185,0.000000,-0.117609,0.041675 LLEG_JOINT2:0.998769,0.018367,0.000000,0.046072 LLEG_JOINT4:0.993696,0.100318,0.000000,-0.050042 RARM_JOINT2:0.792320,0.000000,-0.130590,0.595966 RARM_JOINT3:0.971832,0.000000,0.180886,0.151075 RLEG_JOINT2:0.999690,0.021563,0.000000,-0.012444 RLEG_JOINT4:0.993467,0.110792,0.000000,0.027361 WAIST:0.999882,-0.000000,0.003141,0.015057 WAIST_JOINT0:0.997611,0.000000,-0.068673,0.007456 WAIST_JOINT1:0.998160,0.057076,0.000000,-0.020444 END:
KINECT_DATA_Sensor  AnkleLeft:0.081326,0.733413,-0.086585,-0.669324 AnkleRight:0.113584,0.695306,0.073869,0.705827 ElbowLeft:-0.533032,0.721468,-0.018469,-0.441610 ElbowRight:0.064544,0.835234,0.199718,0.508262 FootLeft:0.000000,0.000000,0.000000,0.000000 FootRight:0.000000,0.000000,0.000000,0.000000 HandLeft:0.282595,-0.119292,-0.497034,0.811706 HandRight:0.000250,-0.695732,0.000581,0.718301 HandTipLeft:0.000000,0.000000,0.000000,0.000000 HandTipRight:0.000000,0.000000,0.000000,0.000000 Head:0.000000,0.000000,0.000000,0.000000 HipLeft:0.111300,-0.675758,0.713692,-0.146991 HipRight:-0.123841,0.690810,0.692285,-0.167889 KneeLeft:0.030058,-0.703504,0.056266,0.707823 KneeRight:0.017024,0.709841,0.013410,0.704028 Neck:0.069399,-0.012884,0.994920,-0.071780 ShoulderLeft:-0.057246,0.785668,-0.603400,0.123924 ShoulderRight:0.032150,0.794568,0.606183,-0.013088 SpineBase:-0.004188,-0.002219,0.999460,-0.032511 SpineMid:0.032400,-0.003407,0.998944,-0.032408 SpineShoulder:0.069634,-0.008771,0.996205,-0.051475 ThumbLeft:0.000000,0.000000,0.000000,0.000000 ThumbRight:0.000000,0.000000,0.000000,0.000000 WristLeft:0.281705,-0.125988,-0.521783,0.795306 WristRight:0.025610,-0.694977,-0.057806,0.716247 END:
KINECT_DATA POSITION:26.327736,0.588262,-20.603371 HEAD_JOINT1:0.977580,0.181827,-0.000000,0.106188 LARM_JOINT2:0.884879,0.000000,-0.416384,-0.208838 LARM_JOINT3:0.967818,0.000000,-0.236280,0.086608 LLEG_JOINT2:0.998753,0.018601,0.000000,0.046325 LLEG_JOINT4:0.993604,0.101426,0.000000,-0.049637 RARM_JOINT2:0.791304,0.000000,-0.128231,0.597825 RARM_JOINT3:0.969498,0.000000,0.191801,0.152599 RLEG_JOINT2:0.999682,0.022394,0.000000,-0.011566 RLEG_JOINT4:0.993458,0.110541,0.000000,0.028673 WAIST:0.999894,-0.000000,0.002494,0.014318 WAIST_JOINT0:0.997146,0.000000,-0.075383,0.004235 WAIST_JOINT1:0.998150,0.056954,0.000000,-0.021268 END:
KINECT_DATA_Sensor  AnkleLeft:-0.077194,-0.694244,0.092044,0.709644 AnkleRight:0.115965,0.703333,0.071786,0.697654 ElbowLeft:-0.503719,0.774022,-0.129988,-0.360916 ElbowRight:0.062376,0.833629,0.198584,0.511602 FootLeft:0.000000,0.000000,0.000000,0.000000 FootRight:0.000000,0.000000,0.000000,0.000000 HandLeft:-0.271046,0.192503,0.699797,-0.632267 HandRight:-0.044354,0.710966,0.028157,-0.701261 HandTipLeft:0.000000,0.000000,0.000000,0.000000 HandTipRight:0.000000,0.000000,0.000000,0.000000 Head:0.000000,0.000000,0.000000,0.000000 HipLeft:0.111665,-0.676178,0.713075,-0.147779 HipRight:-0.123000,0.690283,0.692846,-0.168356 KneeLeft:0.029580,-0.703979,0.056076,0.707386 KneeRight:0.017726,0.709365,0.013898,0.704481 Neck:0.076410,-0.014884,0.994427,-0.071103 ShoulderLeft:-0.061073,0.787702,-0.599394,0.128539 ShoulderRight:0.037296,0.792737,0.608380,-0.007081 SpineBase:-0.003552,-0.003389,0.999438,-0.033164 SpineMid:0.036176,-0.004705,0.998789,-0.033003 SpineShoulder:0.076631,-0.010597,0.995682,-0.051304 ThumbLeft:0.000000,0.000000,0.000000,0.000000 ThumbRight:0.000000,0.000000,0.000000,0.000000 WristLeft:0.274941,-0.157165,-0.485307,0.814975 WristRight:-0.025386,0.712887,0.059036,-0.698328 END:
KINECT_DATA POSITION:26.407629,0.585153,-20.570396 HEAD_JOINT1:0.977900,0.181024,-0.000000,0.104601 LARM_JOINT2:0.892543,0.000000,-0.375147,-0.250263 LARM_JOINT3:0.936820,0.000000,-0.323098,0.134075 LLEG_JOINT2:0.998780,0.018362,0.000000,0.045845 LLEG_JOINT4:0.993500,0.102491,0.000000,-0.049528 RARM_JOINT2:0.792719,0.000000,-0.130154,0.595530 RARM_JOINT3:0.967197,0.000000,0.200104,0.156487 RLEG_JOINT2:0.999672,0.023019,0.000000,-0.011201 RLEG_JOINT4:0.993670,0.108764,0.000000,0.028096 WAIST:0.999887,-0.000000,0.004913,0.014211 WAIST_JOINT0:0.997915,0.000000,-0.064201,0.006687 WAIST_JOINT1:0.998192,0.056550,0.000000,-0.020347 END:
KINECT_DATA_Sensor  AnkleLeft:0.079488,0.701498,-0.091065,-0.702345 AnkleRight:0.108641,0.647181,0.080405,0.750260 ElbowLeft:-0.477420,0.730533,-0.093583,-0.479202 ElbowRight:0.061304,0.832316,0.201008,0.512920 FootLeft:0.000000,0.000000,0.000000,0.000000 FootRight:0.000000,0.000000,0.000000,0.000000 HandLeft:-0.236279,0.189467,0.738096,-0.602901 HandRight:0.040818,-0.607647,-0.038002,0.792247 HandTipLeft:0.000000,0.000000,0.000000,0.000000 HandTipRight:0.000000,0.000000,0.000000,0.000000 Head:0.000000,0.000000,0.000000,0.000000 HipLeft:0.110491,-0.676398,0.713246,-0.146823 HipRight:-0.124938,0.689732,0.692625,-0.170091 KneeLeft:0.029226,-0.702284,0.055537,0.709125 KneeRight:0.018291,0.711040,0.014178,0.702770 Neck:0.065074,-0.013511,0.995271,-0.070842 ShoulderLeft:-0.052599,0.787013,-0.603125,0.118679 ShoulderRight:0.031212,0.793916,0.607045,-0.014805 SpineBase:-0.005953,-0.003150,0.999426,-0.033187 SpineMid:0.029351,-0.004320,0.999013,-0.033055 SpineShoulder:0.065283,-0.009435,0.996518,-0.050993 ThumbLeft:0.000000,0.000000,0.000000,0.000000 ThumbRight:0.000000,0.000000,0.000000,0.000000 WristLeft:0.254359,-0.144227,-0.538255,0.790431 WristRight:0.024440,-0.607898,-0.068213,0.790702 END:
KINECT_DATA POSITION:26.466799,0.570142,-20.556831 HEAD_JOINT1:0.977874,0.180654,-0.000000,0.105483 LARM_JOINT2:0.881714,0.000000,-0.418561,-0.217689 LARM_JOINT3:0.966922,0.000000,-0.244662,0.072123 LLEG_JOINT2:0.998774,0.017473,0.000000,0.046326 LLEG_JOINT4:0.993458,0.102619,0.000000,-0.050098 RARM_JOINT2:0.792695,0.000000,-0.128142,0.595998 RARM_JOINT3:0.968693,0.000000,0.193407,0.155650 RLEG_JOINT2:0.999650,0.023805,0.000000,-0.011500 RLEG_JOINT4:0.993701,0.108875,0.000000,0.026539 WAIST:0.999885,-0.000000,0.005677,0.014083 WAIST_JOINT0:0.997849,0.000000,-0.065288,0.005924 WAIST_JOINT1:0.998197,0.056529,0.000000,-0.020186 END:
KINECT_DATA_Sensor  AnkleLeft:-0.078541,-0.696219,0.090852,0.707712 AnkleRight:0.111037,0.678958,0.077794,0.721551 ElbowLeft:-0.501774,0.766231,-0.112050,-0.385431 ElbowRight:0.059956,0.833323,0.200036,0.511824 FootLeft:0.000000,0.000000,0.000000,0.000000 FootRight:0.000000,0.000000,0.000000,0.000000 HandLeft:0.168669,-0.112482,-0.681642,0.703038 HandRight:0.031693,-0.674024,-0.015098,0.737875 HandTipLeft:0.000000,0.000000,0.000000,0.000000 HandTipRight:0.000000,0.000000,0.000000,0.000000 Head:0.000000,0.000000,0.000000,0.000000 HipLeft:0.109907,-0.676521,0.713277,-0.146545 HipRight:-0.125114,0.689463,0.692697,-0.170758 KneeLeft:0.030076,-0.701693,0.055177,0.709702 KneeRight:0.018522,0.711572,0.015045,0.702208 Neck:0.066392,-0.013532,0.995195,-0.070675 ShoulderLeft:-0.053340,0.787628,-0.602078,0.119581 ShoulderRight:0.032144,0.793266,0.607869,-0.013820 SpineBase:-0.006726,-0.003434,0.999411,-0.033489 SpineMid:0.029598,-0.004649,0.998995,-0.033342 SpineShoulder:0.066590,-0.009590,0.996432,-0.050970 ThumbLeft:0.000000,0.000000,0.000000,0.000000 ThumbRight:0.000000,0.000000,0.000000,0.000000 WristLeft:0.196029,-0.060209,-0.533690,0.820441 WristRight:0.030203,-0.673806,-0.066049,0.735330 END:
KINECT_DATA POSITION:26.497681,0.555363,-20.556259 HEAD_JOINT1:0.977960,0.179847,-0.000000,0.106067 LARM_JOINT2:0.860614,0.000000,-0.475964,-0.181111 LARM_JOINT3:0.992376,0.000000,-0.123068,0.006699 LLEG_JOINT2:0.998752,0.017862,0.000000,0.046643 LLEG_JOINT4:0.993205,0.104571,0.000000,-0.051069 RARM_JOINT2:0.791958,0.000000,-0.123767,0.597900 RARM_JOINT3:0.971404,0.000000,0.183045,0.151222 RLEG_JOINT2:0.999662,0.023427,0.000000,-0.011304 RLEG_JOINT4:0.993883,0.107277,0.000000,0.026233 WAIST:0.999894,-0.000000,0.005029,0.013698 WAIST_JOINT0:0.997195,0.000000,-0.074678,0.005039 WAIST_JOINT1:0.998173,0.056926,0.000000,-0.020244 END:
KINECT_DATA_Sensor  AnkleLeft:-0.080053,-0.689934,0.092522,0.713458 AnkleRight:0.113291,0.715821,0.070736,0.685392 ElbowLeft:-0.523333,0.804975,-0.147100,-0.237697 ElbowRight:0.058270,0.834682,0.197433,0.510814 FootLeft:0.000000,0.000000,0.000000,0.000000 FootRight:0.000000,0.000000,0.000000,0.000000 HandLeft:0.230124,-0.085792,-0.553566,0.795768 HandRight:0.011724,-0.636866,0.004739,0.770870 HandTipLeft:0.000000,0.000000,0.000000,0.000000 HandTipRight:0.000000,0.000000,0.000000,0.000000 Head:0.000000,0.000000,0.000000,0.000000 HipLeft:0.110042,-0.676646,0.713028,-0.147081 HipRight:-0.124330,0.689212,0.693121,-0.170624 KneeLeft:0.029779,-0.702168,0.055392,0.709229 KneeRight:0.018140,0.711127,0.014905,0.702672 Neck:0.076040,-0.014556,0.994472,-0.070937 ShoulderLeft:-0.060681,0.787252,-0.600113,0.128128 ShoulderRight:0.037240,0.792299,0.608951,-0.007344 SpineBase:-0.006080,-0.003839,0.999399,-0.033906 SpineMid:0.034692,-0.005219,0.998815,-0.033721 SpineShoulder:0.076245,-0.010507,0.995715,-0.051254 ThumbLeft:0.000000,0.000000,0.000000,0.000000 ThumbRight:0.000000,0.000000,0.000000,0.000000 WristLeft:0.219227,-0.083959,-0.504229,0.831050 WristRight:0.024794,-0.636614,-0.066262,0.767930 END:
KINECT_DATA POSITION:26.514351,0.535708,-20.535088 HEAD_JOINT1:0.978117,0.178396,-0.000000,0.107058 LARM_JOINT2:0.868209,0.000000,-0.452257,-0.204149 LARM_JOINT3:0.986760,0.000000,-0.157441,0.038949 LLEG_JOINT2:0.998724,0.017914,0.000000,0.047215 LLEG_JOINT4:0.993178,0.104459,0.000000,-0.051826 RARM_JOINT2:0.791655,0.000000,-0.127254,0.597570 RARM_JOINT3:0.970408,0.000000,0.188363,0.151086 RLEG_JOINT2:0.999674,0.022698,0.000000,-0.011682 RLEG_JOINT4:0.993869,0.107532,0.000000,0.025719 WAIST:0.999901,-0.000000,0.004206,0.013465 WAIST_JOINT0:0.997089,0.000000,-0.076064,0.005311 WAIST_JOINT1:0.998155,0.057207,0.000000,-0.020366 END:
KINECT_DATA_Sensor  AnkleLeft:-0.079644,-0.685901,0.092769,0.717349 AnkleRight:0.107850,0.673585,0.077620,0.727067 ElbowLeft:-0.519958,0.759731,-0.072677,-0.383629 ElbowRight:0.060410,0.832134,0.199132,0.514052 FootLeft:0.000000,0.000000,0.000000,0.000000 FootRight:0.000000,0.000000,0.000000,0.000000 HandLeft:0.250809,-0.132492,-0.547594,0.787199 HandRight:-0.020834,0.746638,0.008138,-0.664854 HandTipLeft:0.000000,0.000000,0.000000,0.000000 HandTipRight:0.000000,0.000000,0.000000,0.000000 Head:0.000000,0.000000,0.000000,0.000000 HipLeft:0.110536,-0.676656,0.712764,-0.147938 HipRight:-0.123669,0.689088,0.693364,-0.170617 KneeLeft:0.030017,-0.702737,0.055653,0.708634 KneeRight:0.017215,0.710580,0.014813,0.703250 Neck:0.077629,-0.014922,0.994327,-0.071171 ShoulderLeft:-0.063791,0.787648,-0.598653,0.130983 ShoulderRight:0.036184,0.793012,0.608083,-0.007640 SpineBase:-0.005266,-0.004182,0.999389,-0.034309 SpineMid:0.035870,-0.005590,0.998759,-0.034108 SpineShoulder:0.077830,-0.010886,0.995575,-0.051523 ThumbLeft:0.000000,0.000000,0.000000,0.000000 ThumbRight:0.000000,0.000000,0.000000,0.000000 WristLeft:0.252565,-0.124489,-0.514315,0.810058 WristRight:-0.032598,0.746961,0.061462,-0.661218 END:
KINECT_DATA POSITION:26.492865,0.522262,-20.476234 HEAD_JOINT1:0.978060,0.178632,-0.000000,0.107186 LARM_JOINT2:0.873295,0.000000,-0.440995,-0.207074 LARM_JOINT3:0.976937,0.000000,-0.205467,0.058111 LLEG_JOINT2:0.998746,0.017799,0.000000,0.046798 LLEG_JOINT4:0.993270,0.104536,0.000000,-0.049865 RARM_JOINT2:0.790844,0.000000,-0.123409,0.599447 RARM_JOINT3:0.968843,0.000000,0.197481,0.149479 RLEG_JOINT2:0.999696,0.021985,0.000000,-0.011160 RLEG_JOINT4:0.993981,0.106177,0.000000,0.026998 WAIST:0.999898,-0.000000,0.004961,0.013412 WAIST_JOINT0:0.997114,0.000000,-0.075776,0.004720 WAIST_JOINT1:0.998169,0.056961,0.000000,-0.020357 END:
KINECT_DATA_Sensor  AnkleLeft:-0.078876,-0.687378,0.093515,0.715923 AnkleRight:0.107630,0.673694,0.075085,0.727265 ElbowLeft:-0.511662,0.774888,-0.105697,-0.355778 ElbowRight:0.058218,0.833494,0.196158,0.513245 FootLeft:0.000000,0.000000,0.000000,0.000000 FootRight:0.000000,0.000000,0.000000,0.000000 HandLeft:0.292727,-0.227319,-0.618207,0.693150 HandRight:0.047681,-0.702500,-0.041068,0.708896 HandTipLeft:0.000000,0.000000,0.000000,0.000000 HandTipRight:0.000000,0.000000,0.000000,0.000000 Head:0.000000,0.000000,0.000000,0.000000 HipLeft:0.110141,-0.676757,0.712840,-0.147404 HipRight:-0.124036,0.688920,0.693377,-0.170975 KneeLeft:0.029735,-0.702211,0.055253,0.709199 KneeRight:0.017028,0.711118,0.013980,0.702727 Neck:0.077525,-0.014995,0.994358,-0.070834 ShoulderLeft:-0.062326,0.787967,-0.598665,0.129704 ShoulderRight:0.037506,0.791949,0.609398,-0.006721 SpineBase:-0.006021,-0.004371,0.999386,-0.034249 SpineMid:0.035438,-0.005788,0.998775,-0.034038 SpineShoulder:0.077720,-0.010994,0.995596,-0.051267 ThumbLeft:0.000000,0.000000,0.000000,0.000000 ThumbRight:0.000000,0.000000,0.000000,0.000000 WristLeft:0.290609,-0.209351,-0.483503,0.798714 WristRight:-0.030763,0.706553,0.063770,-0.704109 END:
KINECT_DATA POSITION:26.467451,0.510821,-20.377743 HEAD_JOINT1:0.977921,0.180558,-0.000000,0.105206 LARM_JOINT2:0.882078,0.000000,-0.404434,-0.241604 LARM_JOINT3:0.950522,0.000000,-0.287949,0.116593 LLEG_JOINT2:0.998792,0.018886,0.000000,0.045363 LLEG_JOINT4:0.993308,0.102938,0.000000,-0.052378 RARM_JOINT2:0.792427,0.000000,-0.124177,0.597194 RARM_JOINT3:0.969032,0.000000,0.194376,0.152297 RLEG_JOINT2:0.999655,0.023311,0.000000,-0.012072 RLEG_JOINT4:0.994079,0.105482,0.000000,0.026107 WAIST:0.999865,-0.000000,0.007802,0.014458 WAIST_JOINT0:0.997802,0.000000,-0.065593,0.009424 WAIST_JOINT1:0.998225,0.056313,0.000000,-0.019394 END:
KINECT_DATA_Sensor  AnkleLeft:-0.078979,-0.671064,0.092425,0.731364 AnkleRight:0.107607,0.679283,0.075807,0.721975 ElbowLeft:-0.484417,0.761809,-0.104028,-0.417332 ElbowRight:0.058029,0.836523,0.196750,0.508085 FootLeft:0.000000,0.000000,0.000000,0.000000 FootRight:0.000000,0.000000,0.000000,0.000000 HandLeft:-0.271948,0.202553,0.731521,-0.591518 HandRight:0.041365,-0.659013,-0.032495,0.750290 HandTipLeft:0.000000,0.000000,0.000000,0.000000 HandTipRight:0.000000,0.000000,0.000000,0.000000 Head:0.000000,0.000000,0.000000,0.000000 HipLeft:0.108868,-0.676522,0.713643,-0.145532 HipRight:-0.126379,0.689438,0.692153,-0.172124 KneeLeft:0.028558,-0.700232,0.055792,0.711158 KneeRight:0.017980,0.713095,0.014847,0.700679 Neck:0.067266,-0.012090,0.995184,-0.070266 ShoulderLeft:-0.055733,0.785831,-0.603835,0.121434 ShoulderRight:0.030852,0.794199,0.606709,-0.014140 SpineBase:-0.008873,-0.003410,0.999394,-0.033501 SpineMid:0.028905,-0.004673,0.999015,-0.033348 SpineShoulder:0.067427,-0.008868,0.996389,-0.050832 ThumbLeft:0.000000,0.000000,0.000000,0.000000 ThumbRight:0.000000,0.000000,0.000000,0.000000 WristLeft:0.267278,-0.189228,-0.501305,0.800905 WristRight:0.028089,-0.659165,-0.064812,0.748674 END:
KINECT_DATA POSITION:26.428213,0.505961,-20.364834 HEAD_JOINT1:0.977780,0.181092,-0.000000,0.105607 LARM_JOINT2:0.874674,0.000000,-0.438150,-0.207289 LARM_JOINT3:0.975614,0.000000,-0.207753,0.070818 LLEG_JOINT2:0.998774,0.020047,0.000000,0.045268 LLEG_JOINT4:0.993653,0.100279,0.000000,-0.050977 RARM_JOINT2:0.791350,0.000000,-0.122918,0.598879 RARM_JOINT3:0.971634,0.000000,0.182750,0.150101 RLEG_JOINT2:0.999633,0.024319,0.000000,-0.011916 RLEG_JOINT4:0.994096,0.105122,0.000000,0.026875 WAIST:0.999860,-0.000000,0.007934,0.014717 WAIST_JOINT0:0.997775,0.000000,-0.066037,0.009150 WAIST_JOINT1:0.998220,0.056476,0.000000,-0.019182 END:
KINECT_DATA_Sensor  AnkleLeft:-0.076880,-0.671696,0.092371,0.731014 AnkleRight:0.108847,0.678846,0.075568,0.722226 ElbowLeft:-0.513383,0.767495,-0.103960,-0.369570 ElbowRight:0.058076,0.836229,0.194421,0.509459 FootLeft:0.000000,0.000000,0.000000,0.000000 FootRight:0.000000,0.000000,0.000000,0.000000 HandLeft:0.292710,-0.183015,-0.628522,0.696984 HandRight:0.014569,-0.605979,0.002965,0.795341 HandTipLeft:0.000000,0.000000,0.000000,0.000000 HandTipRight:0.000000,0.000000,0.000000,0.000000 Head:0.000000,0.000000,0.000000,0.000000 HipLeft:0.108583,-0.676300,0.713866,-0.145685 HipRight:-0.126414,0.689553,0.691987,-0.172308 KneeLeft:0.027835,-0.700163,0.056726,0.711182 KneeRight:0.018978,0.713169,0.015273,0.700568 Neck:0.067746,-0.011731,0.995142,-0.070459 ShoulderLeft:-0.055553,0.785972,-0.603611,0.121721 ShoulderRight:0.031633,0.793955,0.606997,-0.013734 SpineBase:-0.009016,-0.003027,0.999386,-0.033738 SpineMid:0.029079,-0.004311,0.999003,-0.033598 SpineShoulder:0.067921,-0.008438,0.996349,-0.051022 ThumbLeft:0.000000,0.000000,0.000000,0.000000 ThumbRight:0.000000,0.000000,0.000000,0.000000 WristLeft:0.274860,-0.179422,-0.501090,0.800730 WristRight:0.024644,-0.605846,-0.066232,0.792437 END:
KINECT_DATA POSITION:26.404884,0.496624,-20.357811 HEAD_JOINT1:0.977658,0.181030,-0.000000,0.106830 LARM_JOINT2:0.866802,0.000000,-0.458984,-0.194904 LARM_JOINT3:0.990203,0.000000,-0.134735,0.036671 LLEG_JOINT2:0.998786,0.020089,0.000000,0.044971 LLEG_JOINT4:0.993527,0.102199,0.000000,-0.049589 RARM_JOINT2:0.791930,0.000000,-0.123627,0.597966 RARM_JOINT3:0.971317,0.000000,0.183172,0.151629 RLEG_JOINT2:0.999639,0.023954,0.000000,-0.012141 RLEG_JOINT4:0.994008,0.105921,0.000000,0.027000 WAIST:0.999869,-0.000000,0.006407,0.014847 WAIST_JOINT0:0.997471,0.000000,-0.070665,0.007602 WAIST_JOINT1:0.998222,0.056305,0.000000,-0.019539 END:
KINECT_DATA_Sensor  AnkleLeft:-0.079095,-0.686893,0.093207,0.716404 AnkleRight:0.109151,0.676338,0.075922,0.724492 ElbowLeft:-0.530090,0.750206,-0.064343,-0.389942 ElbowRight:0.058978,0.837389,0.195348,0.507090 FootLeft:0.000000,0.000000,0.000000,0.000000 FootRight:0.000000,0.000000,0.000000,0.000000 HandLeft:0.316417,-0.157711,-0.491325,0.795995 HandRight:0.016740,-0.692320,0.000242,0.721396 HandTipLeft:0.000000,0.000000,0.000000,0.000000 HandTipRight:0.000000,0.000000,0.000000,0.000000 Head:0.000000,0.000000,0.000000,0.000000 HipLeft:0.109528,-0.676108,0.713736,-0.146502 HipRight:-0.125335,0.689966,0.692024,-0.171290 KneeLeft:0.027759,-0.701248,0.056608,0.710124 KneeRight:0.018693,0.712115,0.015065,0.701653 Neck:0.072673,-0.012185,0.994806,-0.070224 ShoulderLeft:-0.062221,0.787418,-0.599850,0.127597 ShoulderRight:0.031278,0.794168,0.606773,-0.012018 SpineBase:-0.007500,-0.003052,0.999399,-0.033704 SpineMid:0.032269,-0.004391,0.998906,-0.033556 SpineShoulder:0.072863,-0.008713,0.996007,-0.050849 ThumbLeft:0.000000,0.000000,0.000000,0.000000 ThumbRight:0.000000,0.000000,0.000000,0.000000 WristLeft:0.291193,-0.177695,-0.507670,0.791140 WristRight:0.031233,-0.692010,-0.061654,0.718572 END:
KINECT_DATA POSITION:26.371616,0.479673,-20.346714 HEAD_JOINT1:0.977534,0.180910,-0.000000,0.108161 LARM_JOINT2:0.876231,0.000000,-0.435883,-0.205488 LARM_JOINT3:0.979934,0.000000,-0.193060,0.049577 LLEG_JOINT2:0.998756,0.020573,0.000000,0.045415 LLEG_JOINT4:0.993687,0.101252,0.000000,-0.048312 RARM_JOINT2:0.791573,0.000000,-0.122479,0.598674 RARM_JOINT3:0.971641,0.000000,0.182769,0.150032 RLEG_JOINT2:0.999651,0.023576,0.000000,-0.011875 RLEG_JOINT4:0.993854,0.107641,0.000000,0.025829 WAIST:0.999879,-0.000000,0.004747,0.014796 WAIST_JOINT0:0.997210,0.000000,-0.074359,0.006510 WAIST_JOINT1:0.998229,0.056075,0.000000,-0.019845 END:
KINECT_DATA_Sensor  AnkleLeft:0.079779,0.705829,-0.092238,-0.697806 AnkleRight:0.109419,0.674403,0.077496,0.726087 ElbowLeft:-0.517925,0.753695,-0.086245,-0.395296 ElbowRight:0.058871,0.837803,0.194291,0.506825 FootLeft:0.000000,0.000000,0.000000,0.000000 FootRight:0.000000,0.000000,0.000000,0.000000 HandLeft:0.280885,-0.177102,-0.565744,0.754766 HandRight:0.016776,-0.706039,-0.005743,0.707951 HandTipLeft:0.000000,0.000000,0.000000,0.000000 HandTipRight:0.000000,0.000000,0.000000,0.000000 Head:0.000000,0.000000,0.000000,0.000000 HipLeft:0.110722,-0.675975,0.713504,-0.147346 HipRight:-0.124391,0.690158,0.692226,-0.170386 KneeLeft:0.027766,-0.702430,0.057201,0.708908 KneeRight:0.018622,0.710953,0.014632,0.702840 Neck:0.076368,-0.012586,0.994544,-0.069941 ShoulderLeft:-0.063769,0.787843,-0.598690,0.129641 ShoulderRight:0.034431,0.793458,0.607592,-0.008375 SpineBase:-0.005847,-0.003358,0.999413,-0.033597 SpineMid:0.034930,-0.004726,0.998819,-0.033432 SpineShoulder:0.076560,-0.009059,0.995738,-0.050626 ThumbLeft:0.000000,0.000000,0.000000,0.000000 ThumbRight:0.000000,0.000000,0.000000,0.000000 WristLeft:0.274521,-0.173152,-0.516703,0.792259 WristRight:-0.031716,0.706656,0.060210,-0.704277 END:
KINECT_DATA POSITION:26.349821,0.486262,-20.332670 HEAD_JOINT1:0.977563,0.179334,-0.000000,0.110499 LARM_JOINT2:0.907588,0.000000,-0.351605,-0.229471 LARM_JOINT3:0.940299,0.000000,-0.340260,0.007814 LLEG_JOINT2:0.998770,0.019186,0.000000,0.045724 LLEG_JOINT4:0.993407,0.104288,0.000000,-0.047614 RARM_JOINT2:0.790516,0.000000,-0.122685,0.600028 RARM_JOINT3:0.969711,0.000000,0.193163,0.149494 RLEG_JOINT2:0.999659,0.023303,0.000000,-0.011754 RLEG_JOINT4:0.993821,0.108035,0.000000,0.025463 WAIST:0.999869,-0.000000,0.005377,0.015276 WAIST_JOINT0:0.997542,0.000000,-0.069254,0.010643 WAIST_JOINT1:0.998239,0.055855,0.000000,-0.020001 END:
KINECT_DATA_Sensor  AnkleLeft:-0.079251,-0.699505,0.095010,0.703836 AnkleRight:0.110702,0.685131,0.075930,0.715944 ElbowLeft:-0.474929,0.758046,-0.170011,-0.413407 ElbowRight:0.058718,0.835865,0.192786,0.510604 FootLeft:0.000000,0.000000,0.000000,0.000000 FootRight:0.000000,0.000000,0.000000,0.000000 HandLeft:0.212458,-0.197965,-0.517117,0.805147 HandRight:0.041043,-0.678564,-0.033076,0.732647 HandTipLeft:0.000000,0.000000,0.000000,0.000000 HandTipRight:0.000000,0.000000,0.000000,0.000000 Head:0.000000,0.000000,0.000000,0.000000 HipLeft:0.110348,-0.675688,0.713947,-0.146795 HipRight:-0.124837,0.690359,0.691905,-0.170549 KneeLeft:0.029284,-0.701901,0.056792,0.709403 KneeRight:0.018839,0.711405,0.014019,0.702390 Neck:0.070933,-0.011973,0.994966,-0.069766 ShoulderLeft:-0.055848,0.785048,-0.604650,0.122389 ShoulderRight:0.035374,0.794100,0.606687,-0.009205 SpineBase:-0.006492,-0.003072,0.999415,-0.033425 SpineMid:0.031945,-0.004355,0.998926,-0.033283 SpineShoulder:0.071122,-0.008501,0.996154,-0.050466 ThumbLeft:0.000000,0.000000,0.000000,0.000000 ThumbRight:0.000000,0.000000,0.000000,0.000000 WristLeft:0.206395,-0.205567,-0.564681,0.772191 WristRight:0.030937,-0.678694,-0.062575,0.731096 END:
KINECT_DATA POSITION:26.350420,0.513930,-20.327759 HEAD_JOINT1:0.977353,0.176821,-0.000000,0.116254 LARM_JOINT2:0.935840,0.000000,-0.292333,-0.196835 LARM_JOINT3:0.881922,0.000000,-0.444845,-0.155966 LLEG_JOINT2:0.998840,0.019278,0.000000,0.044133 LLEG_JOINT4:0.993590,0.102169,0.000000,-0.048376 RARM_JOINT2:0.790120,0.000000,-0.122146,0.600659 RARM_JOINT3:0.970214,0.000000,0.192467,0.147111 RLEG_JOINT2:0.999598,0.025118,0.000000,-0.013182 RLEG_JOINT4:0.993733,0.108327,0.000000,0.027565 WAIST:0.999846,-0.000000,0.005722,0.016564 WAIST_JOINT0:0.998009,0.000000,-0.061086,0.015697 WAIST_JOINT1:0.998235,0.056222,0.000000,-0.019149 END:
KINECT_DATA_Sensor  AnkleLeft:-0.078092,-0.695993,0.093203,0.707678 AnkleRight:0.116156,0.710100,0.072069,0.690704 ElbowLeft:-0.427296,0.793955,-0.319052,-0.291993 ElbowRight:0.059143,0.834202,0.190673,0.514055 FootLeft:0.000000,0.000000,0.000000,0.000000 FootRight:0.000000,0.000000,0.000000,0.000000 HandLeft:0.006580,-0.179751,-0.488390,0.853886 HandRight:0.033674,-0.670310,-0.026916,0.740828 HandTipLeft:0.000000,0.000000,0.000000,0.000000 HandTipRight:0.000000,0.000000,0.000000,0.000000 Head:0.000000,0.000000,0.000000,0.000000 HipLeft:0.109804,-0.674626,0.715031,-0.146809 HipRight:-0.125141,0.690999,0.691176,-0.170694 KneeLeft:0.028996,-0.701626,0.056641,0.709699 KneeRight:0.020001,0.711659,0.015406,0.702072 Neck:0.062022,-0.009096,0.995542,-0.070470 ShoulderLeft:-0.042595,0.781629,-0.612285,0.111125 ShoulderRight:0.037154,0.795271,0.605006,-0.011479 SpineBase:-0.006889,-0.001824,0.999409,-0.033634 SpineMid:0.027359,-0.002975,0.999058,-0.033551 SpineShoulder:0.062217,-0.006047,0.996740,-0.051015 ThumbLeft:0.000000,0.000000,0.000000,0.000000 ThumbRight:0.000000,0.000000,0.000000,0.000000 WristLeft:0.043997,-0.157082,-0.519818,0.838557 WristRight:0.032441,-0.670129,-0.063432,0.738817 END:
KINECT_DATA POSITION:26.284746,0.600928,-20.319820 HEAD_JOINT1:0.977654,0.172519,-0.000000,0.120125 LARM_JOINT2:0.961198,0.000000,-0.141873,-0.236580 LARM_JOINT3:0.775052,0.000000,-0.560792,-0.291216 LLEG_JOINT2:0.998944,0.018811,0.000000,0.041927 LLEG_JOINT4:0.993554,0.103184,0.000000,-0.046949 RARM_JOINT2:0.787975,0.000000,-0.116992,0.604490 RARM_JOINT3:0.971967,0.000000,0.185901,0.143950 RLEG_JOINT2:0.999425,0.030063,0.000000,-0.015700 RLEG_JOINT4:0.994669,0.098637,0.000000,0.030062 WAIST:0.999789,-0.000000,0.005893,0.019675 WAIST_JOINT0:0.998296,0.000000,-0.053969,0.022196 WAIST_JOINT1:0.998113,0.057939,0.000000,-0.020349 END:
KINECT_DATA_Sensor  AnkleLeft:-0.077478,-0.700278,0.094706,0.703306 AnkleRight:0.112391,0.684610,0.070740,0.716710 ElbowLeft:-0.307833,0.789006,-0.403825,-0.345882 ElbowRight:0.058923,0.833252,0.184892,0.517720 FootLeft:0.000000,0.000000,0.000000,0.000000 FootRight:0.000000,0.000000,0.000000,0.000000 HandLeft:-0.216871,0.690163,0.390116,-0.569607 HandRight:0.034225,-0.667588,-0.005180,0.743726 HandTipLeft:0.000000,0.000000,0.000000,0.000000 HandTipRight:0.000000,0.000000,0.000000,0.000000 Head:0.000000,0.000000,0.000000,0.000000 HipLeft:0.109018,-0.672178,0.717190,-0.148088 HipRight:-0.125135,0.692676,0.689151,-0.172082 KneeLeft:0.029977,-0.701318,0.056938,0.709938 KneeRight:0.023880,0.711819,0.018492,0.701713 Neck:0.053057,-0.006850,0.995932,-0.072513 ShoulderLeft:-0.022832,0.774555,-0.624704,0.096373 ShoulderRight:0.045832,0.795748,0.603803,-0.010310 SpineBase:-0.007254,0.000223,0.999360,-0.035016 SpineMid:0.022818,-0.000831,0.999126,-0.035007 SpineShoulder:0.053290,-0.003785,0.997173,-0.052829 ThumbLeft:0.000000,0.000000,0.000000,0.000000 ThumbRight:0.000000,0.000000,0.000000,0.000000 WristLeft:-0.263567,0.661497,0.416921,-0.564917 WristRight:0.031859,-0.667718,-0.061700,0.741168 END:
KINECT_DATA POSITION:26.225685,0.745377,-20.283401 HEAD_JOINT1:0.977592,0.171883,-0.000000,0.121533 LARM_JOINT2:0.962582,0.000000,-0.055029,-0.265343 LARM_JOINT3:0.746636,0.000000,-0.529255,-0.403020 LLEG_JOINT2:0.998992,0.019316,0.000000,0.040518 LLEG_JOINT4:0.993557,0.102453,0.000000,-0.048455 RARM_JOINT2:0.787690,0.000000,-0.112406,0.605731 RARM_JOINT3:0.971384,0.000000,0.190623,0.141690 RLEG_JOINT2:0.999414,0.029884,0.000000,-0.016689 RLEG_JOINT4:0.994821,0.098400,0.000000,0.025479 WAIST:0.999748,-0.000000,0.007239,0.021234 WAIST_JOINT0:0.998533,0.000000,-0.047226,0.026474 WAIST_JOINT1:0.997964,0.060350,0.000000,-0.020640 END:
KINECT_DATA_Sensor  AnkleLeft:-0.078565,-0.700918,0.093258,0.702741 AnkleRight:0.109352,0.688854,0.072843,0.712893 ElbowLeft:-0.193887,0.811804,-0.450576,-0.316803 ElbowRight:0.058679,0.835155,0.182677,0.515462 FootLeft:0.000000,0.000000,0.000000,0.000000 FootRight:0.000000,0.000000,0.000000,0.000000 HandLeft:-0.416616,0.785748,0.411811,-0.198603 HandRight:0.049975,-0.681619,-0.022013,0.729666 HandTipLeft:0.000000,0.000000,0.000000,0.000000 HandTipRight:0.000000,0.000000,0.000000,0.000000 Head:0.000000,0.000000,0.000000,0.000000 HipLeft:0.106878,-0.671167,0.718324,-0.148736 HipRight:-0.125219,0.693386,0.687880,-0.174234 KneeLeft:0.029676,-0.700273,0.057409,0.710944 KneeRight:0.024110,0.712871,0.017966,0.700650 Neck:0.044856,-0.005386,0.996141,-0.075243 ShoulderLeft:-0.006972,0.769490,-0.632948,0.084934 ShoulderRight:0.051712,0.796511,0.602299,-0.011485 SpineBase:-0.008735,0.001518,0.999282,-0.036843 SpineMid:0.018050,0.000530,0.999157,-0.036871 SpineShoulder:0.045111,-0.002373,0.997452,-0.055210 ThumbLeft:0.000000,0.000000,0.000000,0.000000 ThumbRight:0.000000,0.000000,0.000000,0.000000 WristLeft:-0.316508,0.877476,0.236043,-0.272290 WristRight:0.032945,-0.682038,-0.059204,0.728171 END:
KINECT_DATA POSITION:26.204872,0.824022,-20.248772 HEAD_JOINT1:0.976915,0.173973,-0.000000,0.123981 LARM_JOINT2:0.914046,0.000000,0.028433,-0.404612 LARM_JOINT3:0.835298,0.000000,-0.447381,-0.319575 LLEG_JOINT2:0.998998,0.018214,0.000000,0.040872 LLEG_JOINT4:0.993266,0.104096,0.000000,-0.050867 RARM_JOINT2:0.786538,0.000000,-0.106968,0.608207 RARM_JOINT3:0.971388,0.000000,0.190637,0.141646 RLEG_JOINT2:0.999433,0.029259,0.000000,-0.016640 RLEG_JOINT4:0.994877,0.097972,0.000000,0.024910 WAIST:0.999731,-0.000000,0.007423,0.021953 WAIST_JOINT0:0.998767,0.000000,-0.040655,0.028488 WAIST_JOINT1:0.997890,0.061465,0.000000,-0.020909 END:
KINECT_DATA_Sensor  AnkleLeft:-0.077892,-0.685354,0.094321,0.717862 AnkleRight:0.109077,0.692317,0.071476,0.709711 ElbowLeft:-0.095779,0.820827,-0.357320,-0.435193 ElbowRight:0.057732,0.837823,0.178662,0.512640 FootLeft:0.000000,0.000000,0.000000,0.000000 FootRight:0.000000,0.000000,0.000000,0.000000 HandLeft:-0.304144,0.852138,0.243596,-0.349311 HandRight:0.065665,-0.655970,-0.027583,0.751419 HandTipLeft:0.000000,0.000000,0.000000,0.000000 HandTipRight:0.000000,0.000000,0.000000,0.000000 Head:0.000000,0.000000,0.000000,0.000000 HipLeft:0.106029,-0.670634,0.718777,-0.149559 HipRight:-0.124949,0.693760,0.687304,-0.175209 KneeLeft:0.031216,-0.700028,0.057394,0.711120 KneeRight:0.024208,0.713055,0.016979,0.700484 Neck:0.037718,-0.004584,0.996355,-0.076378 ShoulderLeft:0.002461,0.767139,-0.636820,0.077153 ShoulderRight:0.052297,0.796763,0.601842,-0.014851 SpineBase:-0.008991,0.002224,0.999237,-0.037951 SpineMid:0.014401,0.001335,0.999173,-0.037993 SpineShoulder:0.037979,-0.001587,0.997687,-0.056362 ThumbLeft:0.000000,0.000000,0.000000,0.000000 ThumbRight:0.000000,0.000000,0.000000,0.000000 WristLeft:-0.302014,0.860623,0.154637,-0.379740 WristRight:0.031258,-0.656852,-0.058006,0.751135 END:
KINECT_DATA POSITION:26.196884,0.843163,-20.219076 HEAD_JOINT1:0.976730,0.174775,-0.000000,0.124304 LARM_JOINT2:0.897651,0.000000,0.046174,-0.438282 LARM_JOINT3:0.878192,0.000000,-0.363040,-0.311417 LLEG_JOINT2:0.998974,0.017854,0.000000,0.041623 LLEG_JOINT4:0.993242,0.104359,0.000000,-0.050797 RARM_JOINT2:0.786003,0.000000,-0.104200,0.609378 RARM_JOINT3:0.972239,0.000000,0.188865,0.138138 RLEG_JOINT2:0.999444,0.029769,0.000000,-0.015037 RLEG_JOINT4:0.994744,0.099851,0.000000,0.022653 WAIST:0.999735,-0.000000,0.008567,0.021379 WAIST_JOINT0:0.998947,0.000000,-0.035531,0.029021 WAIST_JOINT1:0.997878,0.061741,0.000000,-0.020680 END:
KINECT_DATA_Sensor  AnkleLeft:-0.077874,-0.685530,0.094218,0.717710 AnkleRight:0.108966,0.685905,0.075260,0.715540 ElbowLeft:-0.055793,0.839103,-0.334644,-0.425214 ElbowRight:0.056313,0.839156,0.177123,0.511149 FootLeft:0.000000,0.000000,0.000000,0.000000 FootRight:0.000000,0.000000,0.000000,0.000000 HandLeft:-0.222773,0.882146,0.188295,-0.369779 HandRight:0.055692,-0.617332,-0.032474,0.784057 HandTipLeft:0.000000,0.000000,0.000000,0.000000 HandTipRight:0.000000,0.000000,0.000000,0.000000 Head:0.000000,0.000000,0.000000,0.000000 HipLeft:0.105162,-0.671017,0.718596,-0.149321 HipRight:-0.125565,0.693071,0.687638,-0.176182 KneeLeft:0.031546,-0.699216,0.057290,0.711913 KneeRight:0.025264,0.713802,0.016634,0.699695 Neck:0.032462,-0.004810,0.996522,-0.076592 ShoulderLeft:0.007138,0.767036,-0.637460,0.072451 ShoulderRight:0.050322,0.797228,0.601298,-0.018331 SpineBase:-0.010109,0.002127,0.999211,-0.038356 SpineMid:0.011230,0.001308,0.999199,-0.038393 SpineShoulder:0.032717,-0.001741,0.997858,-0.056615 ThumbLeft:0.000000,0.000000,0.000000,0.000000 ThumbRight:0.000000,0.000000,0.000000,0.000000 WristLeft:-0.240436,0.883230,0.097350,-0.390664 WristRight:0.028948,-0.618108,-0.059649,0.783292 END:
KINECT_DATA POSITION:26.216417,0.852453,-20.194031 HEAD_JOINT1:0.976871,0.176021,-0.000000,0.121409 LARM_JOINT2:0.866741,0.000000,0.051411,-0.496101 LARM_JOINT3:0.937116,0.000000,-0.248916,-0.244652 LLEG_JOINT2:0.998911,0.017449,0.000000,0.043267 LLEG_JOINT4:0.992975,0.106949,0.000000,-0.050631 RARM_JOINT2:0.786151,0.000000,-0.103996,0.609222 RARM_JOINT3:0.971482,0.000000,0.189930,0.141946 RLEG_JOINT2:0.999419,0.031522,0.000000,-0.012951 RLEG_JOINT4:0.994889,0.098433,0.000000,0.022521 WAIST:0.999755,-0.000000,0.009775,0.019869 WAIST_JOINT0:0.999167,0.000000,-0.030937,0.026609 WAIST_JOINT1:0.997858,0.061966,0.000000,-0.020954 END:
KINECT_DATA_Sensor  AnkleLeft:-0.080466,-0.692926,0.094900,0.710192 AnkleRight:0.111931,0.710826,0.071529,0.690710 ElbowLeft:-0.019560,0.859182,-0.279061,-0.428426 ElbowRight:0.054983,0.839175,0.178935,0.510630 FootLeft:0.000000,0.000000,0.000000,0.000000 FootRight:0.000000,0.000000,0.000000,0.000000 HandLeft:-0.122361,0.972176,0.002653,0.199734 HandRight:0.054871,-0.544640,-0.028231,0.836397 HandTipLeft:0.000000,0.000000,0.000000,0.000000 HandTipRight:0.000000,0.000000,0.000000,0.000000 Head:0.000000,0.000000,0.000000,0.000000 HipLeft:0.104453,-0.671979,0.717882,-0.148929 HipRight:-0.126156,0.691625,0.688709,-0.177255 KneeLeft:0.031868,-0.698385,0.057133,0.712726 KneeRight:0.026874,0.714528,0.017508,0.698872 Neck:0.027815,-0.006645,0.996650,-0.076622 ShoulderLeft:0.011987,0.770177,-0.634130,0.067559 ShoulderRight:0.049195,0.798140,0.600103,-0.020730 SpineBase:-0.011248,0.001155,0.999186,-0.038717 SpineMid:0.008345,0.000396,0.999215,-0.038732 SpineShoulder:0.028050,-0.003327,0.997987,-0.056782 ThumbLeft:0.000000,0.000000,0.000000,0.000000 ThumbRight:0.000000,0.000000,0.000000,0.000000 WristLeft:-0.157845,0.966493,-0.065549,0.191516 WristRight:0.025945,-0.545350,-0.065420,0.835249 END:
KINECT_DATA POSITION:26.327982,0.816750,-20.160686 HEAD_JOINT1:0.976968,0.175205,-0.000000,0.121808 LARM_JOINT2:0.846122,0.000000,0.048473,-0.530781 LARM_JOINT3:0.962316,0.000000,-0.185927,-0.198442 LLEG_JOINT2:0.998818,0.019667,0.000000,0.044457 LLEG_JOINT4:0.993330,0.103284,0.000000,-0.051267 RARM_JOINT2:0.787919,0.000000,-0.106125,0.606564 RARM_JOINT3:0.970594,0.000000,0.189844,0.148007 RLEG_JOINT2:0.999422,0.032011,0.000000,-0.011432 RLEG_JOINT4:0.995086,0.096482,0.000000,0.022258 WAIST:0.999810,-0.000000,0.008403,0.017576 WAIST_JOINT0:0.999316,0.000000,-0.027545,0.024660 WAIST_JOINT1:0.997868,0.061725,0.000000,-0.021207 END:
KINECT_DATA_Sensor  AnkleLeft:-0.079824,-0.688864,0.093414,0.714400 AnkleRight:0.110502,0.711818,0.070790,0.689995 ElbowLeft:-0.003392,0.871046,-0.240395,-0.428344 ElbowRight:0.055057,0.841180,0.183920,0.505528 FootLeft:0.000000,0.000000,0.000000,0.000000 FootRight:0.000000,0.000000,0.000000,0.000000 HandLeft:-0.039332,0.653494,-0.012299,0.755809 HandRight:0.054132,-0.625961,-0.017957,0.777766 HandTipLeft:0.000000,0.000000,0.000000,0.000000 HandTipRight:0.000000,0.000000,0.000000,0.000000 Head:0.000000,0.000000,0.000000,0.000000 HipLeft:0.105335,-0.673661,0.716052,-0.149514 HipRight:-0.124879,0.690452,0.690233,-0.176807 KneeLeft:0.029548,-0.699529,0.057900,0.711642 KneeRight:0.026723,0.713475,0.018398,0.699929 Neck:0.024530,-0.008715,0.996750,-0.076240 ShoulderLeft:0.013634,0.772949,-0.630982,0.065007 ShoulderRight:0.046573,0.799085,0.598958,-0.023292 SpineBase:-0.009787,-0.000909,0.999196,-0.038860 SpineMid:0.007406,-0.001577,0.999217,-0.038839 SpineShoulder:0.024708,-0.005499,0.998079,-0.056540 ThumbLeft:0.000000,0.000000,0.000000,0.000000 ThumbRight:0.000000,0.000000,0.000000,0.000000 WristLeft:-0.042896,0.652361,-0.113605,0.748117 WristRight:0.032890,-0.626549,-0.063528,0.776092 END:
