EastLYD/RoboCupatHomeSim/InteractiveCleanUp/JapanOpen2016/Motion_Data/File36.dat
KINECT_DATA POSITION:9.049299,-0.544440,-4.590654 HEAD_JOINT1:0.974022,0.202109,-0.000000,0.102146 LARM_JOINT2:0.823050,0.000000,-0.029485,-0.567203 LARM_JOINT3:0.962664,0.000000,-0.188559,-0.194228 LLEG_JOINT2:0.997569,0.032705,0.000000,0.061532 LLEG_JOINT4:0.995679,0.088678,0.000000,-0.027568 RARM_JOINT2:0.796228,0.000000,-0.016668,0.604766 RARM_JOINT3:0.964892,0.000000,0.206091,0.162820 RLEG_JOINT2:0.998942,0.007870,0.000000,-0.045314 RLEG_JOINT4:0.993936,0.103420,0.000000,0.037358 WAIST:0.999767,0.000000,-0.019817,-0.008615 WAIST_JOINT0:0.999382,0.000000,-0.034925,0.004089 WAIST_JOINT1:0.997574,0.069202,0.000000,-0.007567 END:
KINECT_DATA_Sensor  AnkleLeft:0.072729,0.758180,-0.099826,-0.640241 AnkleRight:0.073154,0.720444,0.084946,0.684393 ElbowLeft:-0.027904,0.918839,-0.167340,-0.356306 ElbowRight:0.000491,0.852457,0.171655,0.493813 FootLeft:0.000000,0.000000,0.000000,0.000000 FootRight:0.000000,0.000000,0.000000,0.000000 HandLeft:-0.147281,0.461037,-0.031466,0.874508 HandRight:0.133870,-0.540511,-0.034630,0.829896 HandTipLeft:0.000000,0.000000,0.000000,0.000000 HandTipRight:0.000000,0.000000,0.000000,0.000000 Head:0.000000,0.000000,0.000000,0.000000 HipLeft:0.126372,-0.684175,0.696275,-0.176454 HipRight:-0.095311,0.676943,0.712572,-0.157812 KneeLeft:-0.015511,0.721054,-0.060168,-0.690087 KneeRight:-0.031772,0.692501,0.044235,0.719358 Neck:0.034389,-0.016022,0.995710,-0.084399 ShoulderLeft:0.003943,0.781609,-0.618050,0.084176 ShoulderRight:0.048968,0.783305,0.619022,-0.029092 SpineBase:0.019877,-0.014499,0.998647,-0.045817 SpineMid:0.026868,-0.014820,0.998483,-0.045714 SpineShoulder:0.034173,-0.015661,0.997229,-0.064190 ThumbLeft:0.000000,0.000000,0.000000,0.000000 ThumbRight:0.000000,0.000000,0.000000,0.000000 WristLeft:-0.095623,0.468072,-0.107460,0.871905 WristRight:0.060044,-0.544217,-0.120584,0.828059 END:
KINECT_DATA POSITION:9.046857,-0.544339,-4.577780 HEAD_JOINT1:0.973968,0.202398,-0.000000,0.102086 LARM_JOINT2:0.822737,0.000000,-0.028818,-0.567692 LARM_JOINT3:0.963450,0.000000,-0.186757,-0.192057 LLEG_JOINT2:0.997576,0.032892,0.000000,0.061326 LLEG_JOINT4:0.995590,0.089494,0.000000,-0.028142 RARM_JOINT2:0.795822,0.000000,-0.015920,0.605322 RARM_JOINT3:0.967094,0.000000,0.200537,0.156569 RLEG_JOINT2:0.998928,0.006983,0.000000,-0.045756 RLEG_JOINT4:0.993865,0.103375,0.000000,0.039322 WAIST:0.999761,0.000000,-0.020132,-0.008532 WAIST_JOINT0:0.999357,0.000000,-0.035586,0.004354 WAIST_JOINT1:0.997577,0.069166,0.000000,-0.007469 END:
KINECT_DATA_Sensor  AnkleLeft:0.069406,0.729183,-0.103172,-0.672927 AnkleRight:0.072657,0.713111,0.083866,0.692214 ElbowLeft:-0.027341,0.918912,-0.167214,-0.356221 ElbowRight:0.000617,0.853126,0.170610,0.493019 FootLeft:0.000000,0.000000,0.000000,0.000000 FootRight:0.000000,0.000000,0.000000,0.000000 HandLeft:-0.134214,0.482582,-0.026310,0.865106 HandRight:0.102730,-0.550527,-0.029206,0.827957 HandTipLeft:0.000000,0.000000,0.000000,0.000000 HandTipRight:0.000000,0.000000,0.000000,0.000000 Head:0.000000,0.000000,0.000000,0.000000 HipLeft:0.126495,-0.684074,0.696321,-0.176577 HipRight:-0.095097,0.677044,0.712565,-0.157542 KneeLeft:-0.015312,0.721277,-0.060212,-0.689855 KneeRight:-0.032649,0.692252,0.043890,0.719579 Neck:0.034997,-0.015812,0.995696,-0.084347 ShoulderLeft:0.004088,0.781449,-0.618248,0.084203 ShoulderRight:0.049884,0.783421,0.618847,-0.028148 SpineBase:0.020189,-0.014391,0.998643,-0.045796 SpineMid:0.027327,-0.014718,0.998473,-0.045692 SpineShoulder:0.034782,-0.015489,0.997213,-0.064157 ThumbLeft:0.000000,0.000000,0.000000,0.000000 ThumbRight:0.000000,0.000000,0.000000,0.000000 WristLeft:-0.098890,0.489018,-0.104649,0.860308 WristRight:0.061754,-0.553343,-0.119069,0.822083 END:
KINECT_DATA POSITION:9.044269,-0.545713,-4.554319 HEAD_JOINT1:0.973833,0.203123,-0.000000,0.101932 LARM_JOINT2:0.822573,0.000000,-0.028321,-0.567954 LARM_JOINT3:0.962813,0.000000,-0.189295,-0.192764 LLEG_JOINT2:0.997580,0.032956,0.000000,0.061215 LLEG_JOINT4:0.995672,0.088345,0.000000,-0.028850 RARM_JOINT2:0.795591,0.000000,-0.015840,0.605627 RARM_JOINT3:0.966568,0.000000,0.202673,0.157065 RLEG_JOINT2:0.998906,0.006869,0.000000,-0.046260 RLEG_JOINT4:0.993903,0.103845,0.000000,0.037068 WAIST:0.999755,0.000000,-0.020469,-0.008424 WAIST_JOINT0:0.999341,0.000000,-0.036010,0.004579 WAIST_JOINT1:0.997577,0.069189,0.000000,-0.007320 END:
KINECT_DATA_Sensor  AnkleLeft:0.074463,0.764550,-0.098084,-0.632691 AnkleRight:0.068577,0.691647,0.088160,0.713547 ElbowLeft:-0.026934,0.919099,-0.167367,-0.355696 ElbowRight:0.000824,0.852718,0.170035,0.493922 FootLeft:0.000000,0.000000,0.000000,0.000000 FootRight:0.000000,0.000000,0.000000,0.000000 HandLeft:-0.140947,0.433496,-0.041310,0.889106 HandRight:0.112253,-0.544580,-0.035391,0.830409 HandTipLeft:0.000000,0.000000,0.000000,0.000000 HandTipRight:0.000000,0.000000,0.000000,0.000000 Head:0.000000,0.000000,0.000000,0.000000 HipLeft:0.126621,-0.683950,0.696378,-0.176738 HipRight:-0.094895,0.677171,0.712535,-0.157252 KneeLeft:-0.015286,0.721508,-0.060251,-0.689610 KneeRight:-0.032990,0.691992,0.044106,0.719801 Neck:0.035385,-0.015510,0.995685,-0.084378 ShoulderLeft:0.004189,0.781206,-0.618544,0.084278 ShoulderRight:0.050479,0.783461,0.618772,-0.027608 SpineBase:0.020524,-0.014204,0.998640,-0.045774 SpineMid:0.027689,-0.014532,0.998467,-0.045671 SpineShoulder:0.035174,-0.015221,0.997202,-0.064181 ThumbLeft:0.000000,0.000000,0.000000,0.000000 ThumbRight:0.000000,0.000000,0.000000,0.000000 WristLeft:-0.092843,0.440140,-0.109478,0.886381 WristRight:0.060783,-0.547753,-0.119331,0.825853 END:
KINECT_DATA POSITION:9.026690,-0.548023,-4.528236 HEAD_JOINT1:0.973616,0.203727,-0.000000,0.102798 LARM_JOINT2:0.822688,0.000000,-0.027208,-0.567842 LARM_JOINT3:0.962763,0.000000,-0.189469,-0.192845 LLEG_JOINT2:0.997590,0.033195,0.000000,0.060936 LLEG_JOINT4:0.995627,0.088873,0.000000,-0.028799 RARM_JOINT2:0.795126,0.000000,-0.015366,0.606249 RARM_JOINT3:0.967298,0.000000,0.201124,0.154540 RLEG_JOINT2:0.998918,0.006386,0.000000,-0.046070 RLEG_JOINT4:0.993668,0.106098,0.000000,0.036962 WAIST:0.999745,0.000000,-0.021005,-0.008270 WAIST_JOINT0:0.999306,0.000000,-0.036978,0.004588 WAIST_JOINT1:0.997557,0.069460,0.000000,-0.007431 END:
KINECT_DATA_Sensor  AnkleLeft:0.074468,0.761197,-0.098998,-0.636579 AnkleRight:0.073548,0.718714,0.086318,0.685996 ElbowLeft:-0.026073,0.919148,-0.168048,-0.355313 ElbowRight:0.001329,0.852965,0.169273,0.493756 FootLeft:0.000000,0.000000,0.000000,0.000000 FootRight:0.000000,0.000000,0.000000,0.000000 HandLeft:-0.142303,0.788848,0.025376,0.597349 HandRight:0.102381,-0.558619,-0.035101,0.822333 HandTipLeft:0.000000,0.000000,0.000000,0.000000 HandTipRight:0.000000,0.000000,0.000000,0.000000 Head:0.000000,0.000000,0.000000,0.000000 HipLeft:0.126721,-0.683714,0.696477,-0.177191 HipRight:-0.094362,0.677297,0.712525,-0.157073 KneeLeft:-0.015064,0.721877,-0.060326,-0.689222 KneeRight:-0.033080,0.691619,0.043540,0.720189 Neck:0.036306,-0.015510,0.995628,-0.084658 ShoulderLeft:0.004188,0.781110,-0.618585,0.084865 ShoulderRight:0.051669,0.783413,0.618773,-0.026734 SpineBase:0.021050,-0.014093,0.998618,-0.046054 SpineMid:0.028417,-0.014432,0.998435,-0.045949 SpineShoulder:0.036104,-0.015151,0.997153,-0.064449 ThumbLeft:0.000000,0.000000,0.000000,0.000000 ThumbRight:0.000000,0.000000,0.000000,0.000000 WristLeft:-0.132485,0.799074,-0.053772,0.583984 WristRight:0.062903,-0.561437,-0.117444,0.816725 END:
KINECT_DATA POSITION:9.038692,-0.560799,-4.395652 HEAD_JOINT1:0.973098,0.205603,-0.000000,0.103956 LARM_JOINT2:0.822405,0.000000,-0.025813,-0.568317 LARM_JOINT3:0.962271,0.000000,-0.192378,-0.192419 LLEG_JOINT2:0.997620,0.033539,0.000000,0.060238 LLEG_JOINT4:0.995769,0.088273,0.000000,-0.025531 RARM_JOINT2:0.795104,0.000000,-0.016477,0.606249 RARM_JOINT3:0.957865,0.000000,0.242169,0.154430 RLEG_JOINT2:0.998907,0.007766,0.000000,-0.046099 RLEG_JOINT4:0.993772,0.105110,0.000000,0.036992 WAIST:0.999766,0.000000,-0.020028,-0.008150 WAIST_JOINT0:0.999310,0.000000,-0.036865,0.004594 WAIST_JOINT1:0.997601,0.068835,0.000000,-0.007320 END:
KINECT_DATA_Sensor  AnkleLeft:0.073490,0.766366,-0.100110,-0.630286 AnkleRight:0.070258,0.690909,0.089492,0.713932 ElbowLeft:-0.025663,0.917937,-0.168015,-0.358475 ElbowRight:-0.000603,0.847138,0.169186,0.503720 FootLeft:0.000000,0.000000,0.000000,0.000000 FootRight:0.000000,0.000000,0.000000,0.000000 HandLeft:-0.148355,0.817452,0.026721,0.555923 HandRight:0.173808,-0.541535,-0.143224,0.809949 HandTipLeft:0.000000,0.000000,0.000000,0.000000 HandTipRight:0.000000,0.000000,0.000000,0.000000 Head:0.000000,0.000000,0.000000,0.000000 HipLeft:0.126485,-0.683857,0.696635,-0.176180 HipRight:-0.095359,0.677341,0.712342,-0.157115 KneeLeft:-0.014341,0.721225,-0.060195,-0.689932 KneeRight:-0.032055,0.692334,0.044407,0.719495 Neck:0.036238,-0.015453,0.995683,-0.084043 ShoulderLeft:0.003747,0.781610,-0.618023,0.084377 ShoulderRight:0.051093,0.783705,0.618467,-0.026367 SpineBase:0.020071,-0.013942,0.998671,-0.045384 SpineMid:0.027893,-0.014297,0.998483,-0.045273 SpineShoulder:0.036041,-0.015043,0.997198,-0.063796 ThumbLeft:0.000000,0.000000,0.000000,0.000000 ThumbRight:0.000000,0.000000,0.000000,0.000000 WristLeft:-0.135586,0.827025,-0.047876,0.543464 WristRight:0.072133,-0.555053,-0.128506,0.818657 END:
KINECT_DATA POSITION:9.156527,-0.528944,-4.161823 HEAD_JOINT1:0.974281,0.202931,-0.000000,0.097956 LARM_JOINT2:0.820962,0.000000,-0.026171,-0.570383 LARM_JOINT3:0.963024,0.000000,-0.193935,-0.187012 LLEG_JOINT2:0.997613,0.035860,0.000000,0.059004 LLEG_JOINT4:0.995691,0.089376,0.000000,-0.024712 RARM_JOINT2:0.805304,0.000000,-0.007193,0.592818 RARM_JOINT3:0.935222,0.000000,0.317815,0.156056 RLEG_JOINT2:0.998854,0.010146,0.000000,-0.046772 RLEG_JOINT4:0.994010,0.102429,0.000000,0.038102 WAIST:0.999793,0.000000,-0.018402,-0.008693 WAIST_JOINT0:0.999465,0.000000,-0.032590,0.002594 WAIST_JOINT1:0.997730,0.067030,0.000000,-0.006475 END:
KINECT_DATA_Sensor  AnkleLeft:0.076002,0.759844,-0.102164,-0.637514 AnkleRight:0.069973,0.693359,0.089339,0.711601 ElbowLeft:-0.026607,0.916970,-0.165209,-0.362165 ElbowRight:-0.022535,0.830867,0.178478,0.526590 FootLeft:0.000000,0.000000,0.000000,0.000000 FootRight:0.000000,0.000000,0.000000,0.000000 HandLeft:-0.140021,0.474650,-0.061734,0.866770 HandRight:0.187885,-0.506954,-0.246490,0.804326 HandTipLeft:0.000000,0.000000,0.000000,0.000000 HandTipRight:0.000000,0.000000,0.000000,0.000000 Head:0.000000,0.000000,0.000000,0.000000 HipLeft:0.127128,-0.684823,0.696147,-0.173882 HipRight:-0.098539,0.677276,0.712231,-0.155935 KneeLeft:-0.011339,0.720266,-0.060655,-0.690948 KneeRight:-0.031254,0.693382,0.046880,0.718364 Neck:0.032161,-0.015574,0.995994,-0.081965 ShoulderLeft:0.003379,0.781421,-0.618642,0.081558 ShoulderRight:0.045524,0.782079,0.620781,-0.030174 SpineBase:0.018539,-0.012984,0.998839,-0.042521 SpineMid:0.025146,-0.013265,0.998695,-0.042434 SpineShoulder:0.032018,-0.014543,0.997450,-0.062095 ThumbLeft:0.000000,0.000000,0.000000,0.000000 ThumbRight:0.000000,0.000000,0.000000,0.000000 WristLeft:-0.098037,0.480525,-0.106733,0.864923 WristRight:0.116748,-0.526636,-0.191310,0.820015 END:
KINECT_DATA POSITION:9.265911,-0.513665,-3.957987 HEAD_JOINT1:0.976254,0.198691,-0.000000,0.086317 LARM_JOINT2:0.818609,0.000000,-0.026963,-0.573718 LARM_JOINT3:0.964116,0.000000,-0.189469,-0.185961 LLEG_JOINT2:0.997613,0.036543,0.000000,0.058590 LLEG_JOINT4:0.995583,0.091147,0.000000,-0.022490 RARM_JOINT2:0.811625,0.000000,-0.003258,0.584170 RARM_JOINT3:0.924618,0.000000,0.342670,0.166307 RLEG_JOINT2:0.998845,0.011769,0.000000,-0.046593 RLEG_JOINT4:0.993877,0.103023,0.000000,0.039930 WAIST:0.999818,0.000000,-0.016167,-0.010085 WAIST_JOINT0:0.999606,0.000000,-0.028049,0.001015 WAIST_JOINT1:0.997877,0.064963,0.000000,-0.004657 END:
KINECT_DATA_Sensor  AnkleLeft:0.077312,0.755436,-0.104281,-0.642234 AnkleRight:0.071933,0.695644,0.090437,0.709032 ElbowLeft:-0.027545,0.915617,-0.160850,-0.367442 ElbowRight:-0.033313,0.829351,0.184305,0.526401 FootLeft:0.000000,0.000000,0.000000,0.000000 FootRight:0.000000,0.000000,0.000000,0.000000 HandLeft:-0.140629,0.544086,-0.035357,0.826404 HandRight:0.231269,-0.566217,-0.239032,0.754173 HandTipLeft:0.000000,0.000000,0.000000,0.000000 HandTipRight:0.000000,0.000000,0.000000,0.000000 Head:0.000000,0.000000,0.000000,0.000000 HipLeft:0.127022,-0.686350,0.695280,-0.171393 HipRight:-0.101619,0.676459,0.712711,-0.155306 KneeLeft:-0.009432,0.718853,-0.059911,-0.692511 KneeRight:-0.031040,0.694849,0.048805,0.716826 Neck:0.027717,-0.015360,0.996321,-0.079621 ShoulderLeft:0.003890,0.781959,-0.618474,0.077561 ShoulderRight:0.040280,0.781453,0.621771,-0.033310 SpineBase:0.016433,-0.012542,0.998981,-0.040130 SpineMid:0.021893,-0.012762,0.998876,-0.040061 SpineShoulder:0.027598,-0.014056,0.997711,-0.060111 ThumbLeft:0.000000,0.000000,0.000000,0.000000 ThumbRight:0.000000,0.000000,0.000000,0.000000 WristLeft:-0.107890,0.550090,-0.099923,0.822056 WristRight:0.156546,-0.586994,-0.202230,0.768137 END:
KINECT_DATA POSITION:9.323412,-0.510889,-3.858554 HEAD_JOINT1:0.976743,0.197811,-0.000000,0.082723 LARM_JOINT2:0.818701,0.000000,-0.025989,-0.573632 LARM_JOINT3:0.964917,0.000000,-0.192830,-0.178193 LLEG_JOINT2:0.997612,0.036436,0.000000,0.058667 LLEG_JOINT4:0.995689,0.090177,0.000000,-0.021707 RARM_JOINT2:0.814115,0.000000,-0.004303,0.580687 RARM_JOINT3:0.907223,0.000000,0.390233,0.157051 RLEG_JOINT2:0.998873,0.012101,0.000000,-0.045902 RLEG_JOINT4:0.993629,0.104785,0.000000,0.041495 WAIST:0.999814,0.000000,-0.015861,-0.010951 WAIST_JOINT0:0.999631,0.000000,-0.027164,0.000602 WAIST_JOINT1:0.998041,0.062345,0.000000,-0.005200 END:
KINECT_DATA_Sensor  AnkleLeft:0.076057,0.752464,-0.103895,-0.645925 AnkleRight:0.074391,0.695700,0.090847,0.708670 ElbowLeft:-0.029163,0.914348,-0.158921,-0.371296 ElbowRight:-0.042743,0.814451,0.187123,0.547566 FootLeft:0.000000,0.000000,0.000000,0.000000 FootRight:0.000000,0.000000,0.000000,0.000000 HandLeft:-0.144327,0.836925,-0.004957,0.527923 HandRight:-0.032657,0.106884,-0.392385,0.912986 HandTipLeft:0.000000,0.000000,0.000000,0.000000 HandTipRight:0.000000,0.000000,0.000000,0.000000 Head:0.000000,0.000000,0.000000,0.000000 HipLeft:0.127687,-0.687242,0.694560,-0.170238 HipRight:-0.102304,0.676030,0.713147,-0.154720 KneeLeft:-0.008931,0.718695,-0.059279,-0.692737 KneeRight:-0.030945,0.695049,0.049142,0.716613 Neck:0.027014,-0.016683,0.996560,-0.076551 ShoulderLeft:0.001937,0.783532,-0.616715,0.075742 ShoulderRight:0.037373,0.781837,0.621505,-0.032653 SpineBase:0.016150,-0.013516,0.999021,-0.038912 SpineMid:0.021393,-0.013720,0.998922,-0.038840 SpineShoulder:0.026859,-0.015499,0.997856,-0.057639 ThumbLeft:0.000000,0.000000,0.000000,0.000000 ThumbRight:0.000000,0.000000,0.000000,0.000000 WristLeft:-0.141657,0.840298,-0.048184,0.521067 WristRight:-0.031623,0.108176,-0.300980,0.946947 END:
KINECT_DATA POSITION:9.351221,-0.503938,-3.816617 HEAD_JOINT1:0.977937,0.192478,-0.000000,0.081194 LARM_JOINT2:0.820599,0.000000,-0.027777,-0.570829 LARM_JOINT3:0.962286,0.000000,-0.200108,-0.184287 LLEG_JOINT2:0.997596,0.037429,0.000000,0.058325 LLEG_JOINT4:0.995671,0.090415,0.000000,-0.021566 RARM_JOINT2:0.837741,0.000000,0.041786,0.544466 RARM_JOINT3:0.875496,0.000000,0.466968,0.124285 RLEG_JOINT2:0.998901,0.010963,0.000000,-0.045576 RLEG_JOINT4:0.993971,0.101960,0.000000,0.040335 WAIST:0.999765,0.000000,-0.018348,-0.011540 WAIST_JOINT0:0.999616,0.000000,-0.027694,-0.000497 WAIST_JOINT1:0.998140,0.060729,0.000000,-0.005333 END:
KINECT_DATA_Sensor  AnkleLeft:0.076780,0.751401,-0.104620,-0.646958 AnkleRight:0.070914,0.695882,0.088835,0.709104 ElbowLeft:-0.033347,0.915462,-0.159889,-0.367767 ElbowRight:-0.105922,0.791666,0.197065,0.568517 FootLeft:0.000000,0.000000,0.000000,0.000000 FootRight:0.000000,0.000000,0.000000,0.000000 HandLeft:-0.174899,0.734221,-0.027672,0.655412 HandRight:-0.072217,0.148188,-0.481472,0.860819 HandTipLeft:0.000000,0.000000,0.000000,0.000000 HandTipRight:0.000000,0.000000,0.000000,0.000000 Head:0.000000,0.000000,0.000000,0.000000 HipLeft:0.129757,-0.687537,0.693714,-0.170927 HipRight:-0.101233,0.676107,0.713637,-0.152817 KneeLeft:-0.007744,0.720484,-0.059299,-0.690888 KneeRight:-0.031854,0.693234,0.048591,0.718367 Neck:0.027734,-0.016869,0.996655,-0.074997 ShoulderLeft:-0.000788,0.784511,-0.615436,0.076025 ShoulderRight:0.035491,0.781525,0.622041,-0.032001 SpineBase:0.018645,-0.014205,0.999002,-0.038029 SpineMid:0.022984,-0.014370,0.998911,-0.037967 SpineShoulder:0.027539,-0.016059,0.997919,-0.056053 ThumbLeft:0.000000,0.000000,0.000000,0.000000 ThumbRight:0.000000,0.000000,0.000000,0.000000 WristLeft:-0.135781,0.745531,-0.072313,0.648473 WristRight:-0.074578,0.146843,-0.401705,0.900838 END:
KINECT_DATA POSITION:9.387493,-0.471368,-3.822279 HEAD_JOINT1:0.979964,0.182492,-0.000000,0.079799 LARM_JOINT2:0.820769,0.000000,-0.028592,-0.570544 LARM_JOINT3:0.963904,0.000000,-0.192172,-0.184279 LLEG_JOINT2:0.997596,0.038046,0.000000,0.057916 LLEG_JOINT4:0.995558,0.091507,0.000000,-0.022158 RARM_JOINT2:0.856474,0.000000,0.136857,0.497717 RARM_JOINT3:0.874433,0.000000,0.483302,0.042266 RLEG_JOINT2:0.998888,0.010180,0.000000,-0.046044 RLEG_JOINT4:0.993785,0.104486,0.000000,0.038405 WAIST:0.999716,0.000000,-0.020588,-0.011967 WAIST_JOINT0:0.999663,0.000000,-0.025780,-0.003020 WAIST_JOINT1:0.998304,0.057911,0.000000,-0.005871 END:
KINECT_DATA_Sensor  AnkleLeft:0.079250,0.755864,-0.104488,-0.641461 AnkleRight:0.070854,0.697128,0.091577,0.707535 ElbowLeft:-0.036354,0.916914,-0.157840,-0.364738 ElbowRight:-0.203142,0.774019,0.174333,0.573791 FootLeft:0.000000,0.000000,0.000000,0.000000 FootRight:0.000000,0.000000,0.000000,0.000000 HandLeft:-0.154907,0.759594,-0.007116,0.631641 HandRight:-0.158624,0.201082,-0.496490,0.829399 HandTipLeft:0.000000,0.000000,0.000000,0.000000 HandTipRight:0.000000,0.000000,0.000000,0.000000 Head:0.000000,0.000000,0.000000,0.000000 HipLeft:0.132137,-0.687737,0.693136,-0.170649 HipRight:-0.100484,0.676166,0.714198,-0.150410 KneeLeft:-0.006869,0.722083,-0.059120,-0.689241 KneeRight:-0.032953,0.691596,0.048742,0.719885 Neck:0.026209,-0.017243,0.996893,-0.072252 ShoulderLeft:-0.003217,0.785480,-0.614426,0.074105 ShoulderRight:0.031031,0.779343,0.624963,-0.032926 SpineBase:0.020860,-0.015284,0.999003,-0.036386 SpineMid:0.023312,-0.015373,0.998949,-0.036349 SpineShoulder:0.025968,-0.016792,0.998099,-0.053317 ThumbLeft:0.000000,0.000000,0.000000,0.000000 ThumbRight:0.000000,0.000000,0.000000,0.000000 WristLeft:-0.140215,0.768211,-0.067732,0.620971 WristRight:-0.140765,0.211611,-0.487051,0.835576 END:
KINECT_DATA POSITION:9.422421,-0.427134,-3.868210 HEAD_JOINT1:0.981689,0.176596,-0.000000,0.071422 LARM_JOINT2:0.818313,0.000000,-0.021750,-0.574361 LARM_JOINT3:0.965818,0.000000,-0.188375,-0.178076 LLEG_JOINT2:0.997684,0.037815,0.000000,0.056541 LLEG_JOINT4:0.995848,0.089071,0.000000,-0.018806 RARM_JOINT2:0.879341,0.000000,0.269496,0.392595 RARM_JOINT3:0.909312,0.000000,0.416001,0.009739 RLEG_JOINT2:0.998829,0.010383,0.000000,-0.047247 RLEG_JOINT4:0.993367,0.107267,0.000000,0.041416 WAIST:0.999737,0.000000,-0.019525,-0.012027 WAIST_JOINT0:0.999932,0.000000,-0.010731,-0.004482 WAIST_JOINT1:0.998505,0.054409,0.000000,-0.005301 END:
KINECT_DATA_Sensor  AnkleLeft:0.076302,0.756801,-0.103916,-0.640805 AnkleRight:0.075133,0.704951,0.091570,0.699296 ElbowLeft:-0.035060,0.910466,-0.154934,-0.381862 ElbowRight:-0.338203,0.787959,0.162668,0.488138 FootLeft:0.000000,0.000000,0.000000,0.000000 FootRight:0.000000,0.000000,0.000000,0.000000 HandLeft:-0.122444,0.638343,-0.022573,0.759616 HandRight:-0.200666,0.246173,-0.508859,0.800121 HandTipLeft:0.000000,0.000000,0.000000,0.000000 HandTipRight:0.000000,0.000000,0.000000,0.000000 Head:0.000000,0.000000,0.000000,0.000000 HipLeft:0.133092,-0.688526,0.692864,-0.167805 HipRight:-0.102537,0.676522,0.713890,-0.148883 KneeLeft:-0.005930,0.721374,-0.057972,-0.690090 KneeRight:-0.033723,0.692311,0.049766,0.719091 Neck:0.011795,-0.015669,0.997422,-0.069033 ShoulderLeft:0.001426,0.786769,-0.614078,0.062458 ShoulderRight:0.017027,0.777369,0.627248,-0.044350 SpineBase:0.019772,-0.015666,0.999121,-0.033483 SpineMid:0.015559,-0.015524,0.999195,-0.033548 SpineShoulder:0.011506,-0.015812,0.998558,-0.049994 ThumbLeft:0.000000,0.000000,0.000000,0.000000 ThumbRight:0.000000,0.000000,0.000000,0.000000 WristLeft:-0.126223,0.642275,-0.097036,0.749756 WristRight:-0.179113,0.259802,-0.514426,0.797363 END:
KINECT_DATA POSITION:9.444889,-0.383207,-3.939950 HEAD_JOINT1:0.981467,0.180358,-0.000000,0.064760 LARM_JOINT2:0.817238,0.000000,-0.015319,-0.576096 LARM_JOINT3:0.964639,0.000000,-0.195430,-0.176858 LLEG_JOINT2:0.997817,0.036278,0.000000,0.055176 LLEG_JOINT4:0.995805,0.089776,0.000000,-0.017687 RARM_JOINT2:0.873224,0.000000,0.348312,0.340821 RARM_JOINT3:0.936673,0.000000,0.349289,-0.025307 RLEG_JOINT2:0.998728,0.010984,0.000000,-0.049215 RLEG_JOINT4:0.993251,0.108203,0.000000,0.041776 WAIST:0.999825,0.000000,-0.014920,-0.011263 WAIST_JOINT0:0.999960,0.000000,0.006033,-0.006550 WAIST_JOINT1:0.998570,0.053300,0.000000,-0.004041 END:
KINECT_DATA_Sensor  AnkleLeft:0.075365,0.750727,-0.103812,-0.648037 AnkleRight:0.076178,0.714246,0.092905,0.689506 ElbowLeft:-0.032066,0.904460,-0.156774,-0.395405 ElbowRight:-0.403831,0.791925,0.129975,0.439183 FootLeft:0.000000,0.000000,0.000000,0.000000 FootRight:0.000000,0.000000,0.000000,0.000000 HandLeft:-0.131536,0.758832,-0.015098,0.637687 HandRight:-0.275524,0.279100,-0.524613,0.755626 HandTipLeft:0.000000,0.000000,0.000000,0.000000 HandTipRight:0.000000,0.000000,0.000000,0.000000 Head:0.000000,0.000000,0.000000,0.000000 HipLeft:0.130273,-0.689022,0.693858,-0.163825 HipRight:-0.105692,0.676928,0.712857,-0.149776 KneeLeft:-0.006263,0.718117,-0.056523,-0.693595 KneeRight:-0.034312,0.695571,0.050942,0.715827 Neck:-0.004277,-0.012940,0.997583,-0.068139 ShoulderLeft:0.003250,0.787944,-0.613275,0.055021 ShoulderRight:-0.001882,0.775067,0.628765,-0.062635 SpineBase:0.015151,-0.014565,0.999264,-0.032090 SpineMid:0.005235,-0.014246,0.999365,-0.032233 SpineShoulder:-0.004583,-0.013575,0.998698,-0.048953 ThumbLeft:0.000000,0.000000,0.000000,0.000000 ThumbRight:0.000000,0.000000,0.000000,0.000000 WristLeft:-0.141136,0.762539,-0.077438,0.626592 WristRight:-0.228769,0.310424,-0.506077,0.771484 END:
KINECT_DATA POSITION:9.444831,-0.353036,-3.960216 HEAD_JOINT1:0.981918,0.179491,-0.000000,0.060174 LARM_JOINT2:0.815892,0.000000,-0.015867,-0.577987 LARM_JOINT3:0.964086,0.000000,-0.199434,-0.175399 LLEG_JOINT2:0.997866,0.035551,0.000000,0.054761 LLEG_JOINT4:0.995583,0.092410,0.000000,-0.016552 RARM_JOINT2:0.856394,0.000000,0.420961,0.298968 RARM_JOINT3:0.965394,0.000000,0.258935,-0.031095 RLEG_JOINT2:0.998580,0.010360,0.000000,-0.052261 RLEG_JOINT4:0.993041,0.106652,0.000000,0.049948 WAIST:0.999870,0.000000,-0.011489,-0.011272 WAIST_JOINT0:0.999792,0.000000,0.018920,-0.007560 WAIST_JOINT1:0.998626,0.052353,0.000000,-0.002425 END:
KINECT_DATA_Sensor  AnkleLeft:0.077944,0.755997,-0.104448,-0.641471 AnkleRight:0.078239,0.720901,0.087435,0.683034 ElbowLeft:-0.033363,0.900632,-0.155480,-0.404445 ElbowRight:-0.453516,0.798172,0.092641,0.385567 FootLeft:0.000000,0.000000,0.000000,0.000000 FootRight:0.000000,0.000000,0.000000,0.000000 HandLeft:-0.149195,0.719014,-0.027654,0.678230 HandRight:-0.326485,0.289369,-0.520816,0.733774 HandTipLeft:0.000000,0.000000,0.000000,0.000000 HandTipRight:0.000000,0.000000,0.000000,0.000000 Head:0.000000,0.000000,0.000000,0.000000 HipLeft:0.128484,-0.689329,0.694479,-0.161299 HipRight:-0.108471,0.676450,0.712702,-0.150684 KneeLeft:-0.006251,0.715715,-0.055755,-0.696135 KneeRight:-0.037040,0.697870,0.052598,0.713329 Neck:-0.016832,-0.010833,0.997534,-0.067268 ShoulderLeft:0.004745,0.787991,-0.613709,0.049081 ShoulderRight:-0.016636,0.773057,0.629475,-0.076600 SpineBase:0.011748,-0.013660,0.999353,-0.031140 SpineMid:-0.002717,-0.013208,0.999418,-0.031334 SpineShoulder:-0.017143,-0.011776,0.998628,-0.048048 ThumbLeft:0.000000,0.000000,0.000000,0.000000 ThumbRight:0.000000,0.000000,0.000000,0.000000 WristLeft:-0.135159,0.727616,-0.089519,0.666553 WristRight:-0.264413,0.330277,-0.483425,0.766358 END:
KINECT_DATA POSITION:9.473416,-0.312231,-4.019153 HEAD_JOINT1:0.982248,0.178925,-0.000000,0.056349 LARM_JOINT2:0.814463,0.000000,-0.014968,-0.580023 LARM_JOINT3:0.966747,0.000000,-0.192105,-0.168807 LLEG_JOINT2:0.997957,0.033864,0.000000,0.054172 LLEG_JOINT4:0.995737,0.091322,0.000000,-0.012983 RARM_JOINT2:0.841928,0.000000,0.440531,0.311592 RARM_JOINT3:0.969539,0.000000,0.233601,-0.073660 RLEG_JOINT2:0.998510,0.011056,0.000000,-0.053437 RLEG_JOINT4:0.992821,0.106507,0.000000,0.054428 WAIST:0.999912,0.000000,-0.007164,-0.011157 WAIST_JOINT0:0.999459,0.000000,0.032042,-0.007385 WAIST_JOINT1:0.998646,0.052019,0.000000,-0.001053 END:
KINECT_DATA_Sensor  AnkleLeft:0.074283,0.753306,-0.104687,-0.645022 AnkleRight:0.081071,0.727539,0.085156,0.675917 ElbowLeft:-0.032930,0.895941,-0.154742,-0.415044 ElbowRight:-0.453570,0.754741,0.007927,0.473896 FootLeft:0.000000,0.000000,0.000000,0.000000 FootRight:0.000000,0.000000,0.000000,0.000000 HandLeft:-0.117010,0.816679,-0.004555,0.565086 HandRight:-0.349532,0.380315,-0.445618,0.731172 HandTipLeft:0.000000,0.000000,0.000000,0.000000 HandTipRight:0.000000,0.000000,0.000000,0.000000 Head:0.000000,0.000000,0.000000,0.000000 HipLeft:0.125706,-0.690096,0.694845,-0.158606 HipRight:-0.111476,0.676396,0.711914,-0.152449 KneeLeft:-0.006831,0.712650,-0.054282,-0.699383 KneeRight:-0.037481,0.700892,0.053716,0.710253 Neck:-0.030065,-0.008927,0.997260,-0.066994 ShoulderLeft:0.006827,0.788009,-0.614112,0.043151 ShoulderRight:-0.031728,0.772815,0.627224,-0.091325 SpineBase:0.007452,-0.012570,0.999425,-0.030611 SpineMid:-0.011440,-0.011989,0.999387,-0.030843 SpineShoulder:-0.030381,-0.010124,0.998346,-0.047741 ThumbLeft:0.000000,0.000000,0.000000,0.000000 ThumbRight:0.000000,0.000000,0.000000,0.000000 WristLeft:-0.144402,0.816782,-0.073278,0.553755 WristRight:-0.341267,0.389453,-0.484771,0.704883 END:
KINECT_DATA POSITION:9.508907,-0.292248,-4.073822 HEAD_JOINT1:0.982199,0.179813,-0.000000,0.054334 LARM_JOINT2:0.814006,0.000000,-0.012430,-0.580723 LARM_JOINT3:0.966733,0.000000,-0.193916,-0.166806 LLEG_JOINT2:0.998013,0.032545,0.000000,0.053952 LLEG_JOINT4:0.995930,0.089002,0.000000,-0.014189 RARM_JOINT2:0.838837,0.000000,0.451529,0.304095 RARM_JOINT3:0.975369,0.000000,0.205512,-0.080123 RLEG_JOINT2:0.998511,0.011525,0.000000,-0.053315 RLEG_JOINT4:0.992806,0.106827,0.000000,0.054070 WAIST:0.999926,0.000000,-0.004643,-0.011202 WAIST_JOINT0:0.999196,0.000000,0.039500,-0.006856 WAIST_JOINT1:0.998627,0.052373,0.000000,-0.000435 END:
KINECT_DATA_Sensor  AnkleLeft:0.072478,0.750054,-0.101269,-0.649547 AnkleRight:0.081578,0.731514,0.085823,0.671466 ElbowLeft:-0.031319,0.891870,-0.155503,-0.423562 ElbowRight:-0.459823,0.745891,-0.010570,0.481766 FootLeft:0.000000,0.000000,0.000000,0.000000 FootRight:0.000000,0.000000,0.000000,0.000000 HandLeft:-0.115103,0.755474,-0.019146,0.644705 HandRight:-0.405221,0.439408,-0.397415,0.696260 HandTipLeft:0.000000,0.000000,0.000000,0.000000 HandTipRight:0.000000,0.000000,0.000000,0.000000 Head:0.000000,0.000000,0.000000,0.000000 HipLeft:0.123896,-0.690436,0.695032,-0.157728 HipRight:-0.113037,0.676133,0.711566,-0.154079 KneeLeft:-0.007420,0.710853,-0.053195,-0.701287 KneeRight:-0.037210,0.702671,0.053916,0.708492 Neck:-0.037695,-0.008104,0.996985,-0.067344 ShoulderLeft:0.007068,0.787967,-0.614303,0.041102 ShoulderRight:-0.041425,0.773034,0.624889,-0.101076 SpineBase:0.004962,-0.011875,0.999437,-0.030973 SpineMid:-0.016461,-0.011208,0.999314,-0.031220 SpineShoulder:-0.038017,-0.009427,0.998073,-0.048129 ThumbLeft:0.000000,0.000000,0.000000,0.000000 ThumbRight:0.000000,0.000000,0.000000,0.000000 WristLeft:-0.134366,0.757642,-0.089950,0.632324 WristRight:-0.395540,0.450904,-0.439560,0.668596 END:
KINECT_DATA POSITION:9.528903,-0.269958,-4.083872 HEAD_JOINT1:0.981376,0.184509,-0.000000,0.053461 LARM_JOINT2:0.813771,0.000000,-0.011053,-0.581081 LARM_JOINT3:0.966348,0.000000,-0.197729,-0.164544 LLEG_JOINT2:0.998020,0.031807,0.000000,0.054271 LLEG_JOINT4:0.995858,0.090137,0.000000,-0.011918 RARM_JOINT2:0.842903,0.000000,0.444858,0.302681 RARM_JOINT3:0.977792,0.000000,0.192926,-0.081872 RLEG_JOINT2:0.998491,0.011595,0.000000,-0.053686 RLEG_JOINT4:0.993142,0.103166,0.000000,0.055000 WAIST:0.999927,0.000000,-0.003338,-0.011592 WAIST_JOINT0:0.999073,0.000000,0.042544,-0.006526 WAIST_JOINT1:0.998612,0.052660,-0.000000,0.000327 END:
KINECT_DATA_Sensor  AnkleLeft:0.072192,0.753656,-0.102598,-0.645185 AnkleRight:0.078983,0.733490,0.083362,0.669929 ElbowLeft:-0.030517,0.889379,-0.156014,-0.428641 ElbowRight:-0.460039,0.741171,-0.007469,0.488850 FootLeft:0.000000,0.000000,0.000000,0.000000 FootRight:0.000000,0.000000,0.000000,0.000000 HandLeft:-0.129716,0.782544,-0.022767,0.608506 HandRight:-0.365724,0.324481,-0.418506,0.765383 HandTipLeft:0.000000,0.000000,0.000000,0.000000 HandTipRight:0.000000,0.000000,0.000000,0.000000 Head:0.000000,0.000000,0.000000,0.000000 HipLeft:0.123156,-0.690696,0.694969,-0.157447 HipRight:-0.114140,0.675599,0.711690,-0.155037 KneeLeft:-0.007814,0.709937,-0.052642,-0.702252 KneeRight:-0.037757,0.703541,0.054465,0.707558 Neck:-0.040696,-0.007591,0.996841,-0.067785 ShoulderLeft:0.007860,0.787637,-0.614793,0.039957 ShoulderRight:-0.044589,0.772666,0.624552,-0.104568 SpineBase:0.003696,-0.011528,0.999442,-0.031125 SpineMid:-0.018587,-0.010832,0.999276,-0.031374 SpineShoulder:-0.041028,-0.009051,0.997946,-0.048364 ThumbLeft:0.000000,0.000000,0.000000,0.000000 ThumbRight:0.000000,0.000000,0.000000,0.000000 WristLeft:-0.134810,0.785967,-0.085720,0.597272 WristRight:-0.337429,0.351072,-0.487063,0.725024 END:
KINECT_DATA POSITION:9.526152,-0.267038,-4.086566 HEAD_JOINT1:0.980880,0.187297,-0.000000,0.052867 LARM_JOINT2:0.813765,0.000000,-0.011104,-0.581088 LARM_JOINT3:0.964412,0.000000,-0.205787,-0.166018 LLEG_JOINT2:0.998025,0.031168,0.000000,0.054534 LLEG_JOINT4:0.995677,0.091840,0.000000,-0.013896 RARM_JOINT2:0.853620,0.000000,0.426625,0.298869 RARM_JOINT3:0.975274,0.000000,0.203445,-0.086319 RLEG_JOINT2:0.998548,0.011651,0.000000,-0.052596 RLEG_JOINT4:0.992895,0.105342,0.000000,0.055343 WAIST:0.999925,0.000000,-0.003323,-0.011823 WAIST_JOINT0:0.999109,0.000000,0.041797,-0.005895 WAIST_JOINT1:0.998510,0.054537,-0.000000,0.001875 END:
KINECT_DATA_Sensor  AnkleLeft:0.073211,0.746791,-0.102574,-0.653009 AnkleRight:0.081380,0.732680,0.084007,0.670447 ElbowLeft:-0.029701,0.888661,-0.157920,-0.429488 ElbowRight:-0.459634,0.734909,0.010340,0.498536 FootLeft:0.000000,0.000000,0.000000,0.000000 FootRight:0.000000,0.000000,0.000000,0.000000 HandLeft:-0.153135,0.773376,-0.034962,0.614179 HandRight:-0.563771,0.744965,-0.061066,0.351370 HandTipLeft:0.000000,0.000000,0.000000,0.000000 HandTipRight:0.000000,0.000000,0.000000,0.000000 Head:0.000000,0.000000,0.000000,0.000000 HipLeft:0.122714,-0.690722,0.694847,-0.158215 HipRight:-0.114071,0.675403,0.711801,-0.155426 KneeLeft:-0.008290,0.709921,-0.052212,-0.702294 KneeRight:-0.037117,0.703556,0.053892,0.707621 Neck:-0.040142,-0.006144,0.996722,-0.069975 ShoulderLeft:0.008267,0.786846,-0.615669,0.041916 ShoulderRight:-0.043579,0.773019,0.624017,-0.105568 SpineBase:0.003723,-0.010902,0.999429,-0.031765 SpineMid:-0.018313,-0.010199,0.999268,-0.031998 SpineShoulder:-0.040464,-0.007697,0.997897,-0.050046 ThumbLeft:0.000000,0.000000,0.000000,0.000000 ThumbRight:0.000000,0.000000,0.000000,0.000000 WristLeft:-0.133664,0.780547,-0.087385,0.604354 WristRight:-0.580149,0.744793,-0.119423,0.307325 END:
KINECT_DATA POSITION:9.522842,-0.264762,-4.072177 HEAD_JOINT1:0.980201,0.189573,-0.000000,0.057173 LARM_JOINT2:0.815887,0.000000,-0.015211,-0.578012 LARM_JOINT3:0.964042,0.000000,-0.205373,-0.168655 LLEG_JOINT2:0.998056,0.030727,0.000000,0.054224 LLEG_JOINT4:0.995647,0.092698,0.000000,-0.009679 RARM_JOINT2:0.863406,0.000000,0.427926,0.267224 RARM_JOINT3:0.980785,0.000000,0.186486,-0.057295 RLEG_JOINT2:0.998579,0.011447,0.000000,-0.052051 RLEG_JOINT4:0.992898,0.106892,0.000000,0.052220 WAIST:0.999925,0.000000,-0.003954,-0.011574 WAIST_JOINT0:0.999282,0.000000,0.037732,-0.003560 WAIST_JOINT1:0.998418,0.056184,-0.000000,0.002214 END:
KINECT_DATA_Sensor  AnkleLeft:0.073881,0.766469,-0.103822,-0.629514 AnkleRight:0.080703,0.730666,0.086764,0.672374 ElbowLeft:-0.031248,0.894068,-0.161222,-0.416742 ElbowRight:-0.480781,0.754477,0.052995,0.443628 FootLeft:0.000000,0.000000,0.000000,0.000000 FootRight:0.000000,0.000000,0.000000,0.000000 HandLeft:-0.159667,0.770352,-0.042648,0.615829 HandRight:-0.572136,0.777279,0.007131,0.261625 HandTipLeft:0.000000,0.000000,0.000000,0.000000 HandTipRight:0.000000,0.000000,0.000000,0.000000 Head:0.000000,0.000000,0.000000,0.000000 HipLeft:0.122447,-0.690235,0.695056,-0.159624 HipRight:-0.113271,0.675474,0.711766,-0.155864 KneeLeft:-0.008596,0.710345,-0.051846,-0.701889 KneeRight:-0.036674,0.703128,0.053202,0.708121 Neck:-0.036057,-0.005811,0.996766,-0.071580 ShoulderLeft:0.006731,0.785527,-0.617048,0.046407 ShoulderRight:-0.039855,0.774471,0.622834,-0.103358 SpineBase:0.004369,-0.010316,0.999396,-0.032906 SpineMid:-0.015948,-0.009645,0.999278,-0.033109 SpineShoulder:-0.036350,-0.007135,0.997979,-0.051632 ThumbLeft:0.000000,0.000000,0.000000,0.000000 ThumbRight:0.000000,0.000000,0.000000,0.000000 WristLeft:-0.131381,0.778220,-0.085409,0.608126 WristRight:-0.571220,0.785798,-0.031589,0.235013 END:
KINECT_DATA POSITION:9.492247,-0.271320,-4.029393 HEAD_JOINT1:0.979967,0.189320,-0.000000,0.061824 LARM_JOINT2:0.818404,0.000000,-0.020071,-0.574292 LARM_JOINT3:0.964209,0.000000,-0.201144,-0.172745 LLEG_JOINT2:0.998025,0.031411,0.000000,0.054396 LLEG_JOINT4:0.995668,0.091999,0.000000,-0.013490 RARM_JOINT2:0.872443,0.000000,0.402518,0.277167 RARM_JOINT3:0.970131,0.000000,0.231106,-0.073731 RLEG_JOINT2:0.998591,0.011249,0.000000,-0.051865 RLEG_JOINT4:0.993189,0.103709,0.000000,0.053104 WAIST:0.999921,0.000000,-0.005310,-0.011354 WAIST_JOINT0:0.999506,0.000000,0.031386,-0.001525 WAIST_JOINT1:0.998376,0.056928,-0.000000,0.002214 END:
KINECT_DATA_Sensor  AnkleLeft:0.073596,0.752974,-0.102958,-0.645765 AnkleRight:0.078787,0.727406,0.083792,0.676499 ElbowLeft:-0.034166,0.900092,-0.164248,-0.402107 ElbowRight:-0.469899,0.741024,0.062396,0.475590 FootLeft:0.000000,0.000000,0.000000,0.000000 FootRight:0.000000,0.000000,0.000000,0.000000 HandLeft:-0.163641,0.822314,-0.024399,0.544451 HandRight:-0.579928,0.742188,-0.061866,0.330171 HandTipLeft:0.000000,0.000000,0.000000,0.000000 HandTipRight:0.000000,0.000000,0.000000,0.000000 Head:0.000000,0.000000,0.000000,0.000000 HipLeft:0.122773,-0.689717,0.695087,-0.161466 HipRight:-0.112240,0.675685,0.711738,-0.155824 KneeLeft:-0.008471,0.711302,-0.052585,-0.700865 KneeRight:-0.036471,0.702164,0.052813,0.709116 Neck:-0.029946,-0.005986,0.996925,-0.072163 ShoulderLeft:0.004426,0.784098,-0.618515,0.051080 ShoulderRight:-0.034215,0.776215,0.621844,-0.098128 SpineBase:0.005745,-0.009619,0.999363,-0.033876 SpineMid:-0.012193,-0.009010,0.999305,-0.034043 SpineShoulder:-0.030204,-0.007005,0.998147,-0.052366 ThumbLeft:0.000000,0.000000,0.000000,0.000000 ThumbRight:0.000000,0.000000,0.000000,0.000000 WristLeft:-0.136255,0.830086,-0.071356,0.536004 WristRight:-0.581817,0.748466,-0.100258,0.302052 END:
KINECT_DATA POSITION:9.467965,-0.267366,-3.955674 HEAD_JOINT1:0.979033,0.193794,-0.000000,0.062760 LARM_JOINT2:0.819084,0.000000,-0.020040,-0.573324 LARM_JOINT3:0.963387,0.000000,-0.201627,-0.176726 LLEG_JOINT2:0.997978,0.032610,0.000000,0.054566 LLEG_JOINT4:0.995935,0.088775,0.000000,-0.015276 RARM_JOINT2:0.900295,0.000000,0.308421,0.307156 RARM_JOINT3:0.898591,0.000000,0.420673,-0.124776 RLEG_JOINT2:0.998641,0.010780,0.000000,-0.050985 RLEG_JOINT4:0.992989,0.106379,0.000000,0.051537 WAIST:0.999908,0.000000,-0.006979,-0.011604 WAIST_JOINT0:0.999738,0.000000,0.022802,-0.001859 WAIST_JOINT1:0.998254,0.059013,-0.000000,0.002478 END:
KINECT_DATA_Sensor  AnkleLeft:0.072836,0.752630,-0.100540,-0.646634 AnkleRight:0.079512,0.722689,0.086195,0.681152 ElbowLeft:-0.033365,0.900080,-0.166056,-0.401458 ElbowRight:-0.425797,0.722925,0.130915,0.528145 FootLeft:0.000000,0.000000,0.000000,0.000000 FootRight:0.000000,0.000000,0.000000,0.000000 HandLeft:-0.161546,0.740619,-0.031190,0.651470 HandRight:-0.592197,0.686250,0.344405,-0.244438 HandTipLeft:0.000000,0.000000,0.000000,0.000000 HandTipRight:0.000000,0.000000,0.000000,0.000000 Head:0.000000,0.000000,0.000000,0.000000 HipLeft:0.122614,-0.689502,0.694858,-0.163481 HipRight:-0.110317,0.675617,0.712128,-0.155709 KneeLeft:-0.007670,0.712513,-0.053354,-0.699585 KneeRight:-0.036292,0.700966,0.052079,0.710364 Neck:-0.021597,-0.006348,0.996975,-0.074399 ShoulderLeft:0.007509,0.783178,-0.619422,0.053769 ShoulderRight:-0.020251,0.776156,0.624069,-0.087806 SpineBase:0.007458,-0.009288,0.999303,-0.035388 SpineMid:-0.007184,-0.008769,0.999305,-0.035520 SpineShoulder:-0.021834,-0.007146,0.998259,-0.054325 ThumbLeft:0.000000,0.000000,0.000000,0.000000 ThumbRight:0.000000,0.000000,0.000000,0.000000 WristLeft:-0.125756,0.752170,-0.088404,0.640789 WristRight:-0.580415,0.703804,0.287488,-0.291767 END:
KINECT_DATA POSITION:9.428291,-0.277954,-3.918481 HEAD_JOINT1:0.977153,0.203695,-0.000000,0.060660 LARM_JOINT2:0.815320,0.000000,-0.016638,-0.578771 LARM_JOINT3:0.966177,0.000000,-0.191049,-0.173214 LLEG_JOINT2:0.997916,0.033976,0.000000,0.054862 LLEG_JOINT4:0.996033,0.087609,0.000000,-0.015582 RARM_JOINT2:0.902116,0.000000,0.249492,0.352051 RARM_JOINT3:0.854511,0.000000,0.502397,-0.131944 RLEG_JOINT2:0.998616,0.009696,0.000000,-0.051701 RLEG_JOINT4:0.992880,0.108063,0.000000,0.050116 WAIST:0.999917,0.000000,-0.006036,-0.011375 WAIST_JOINT0:0.999664,-0.000000,0.025928,0.000041 WAIST_JOINT1:0.997991,0.063258,-0.000000,0.003546 END:
KINECT_DATA_Sensor  AnkleLeft:0.072745,0.750744,-0.100914,-0.648774 AnkleRight:0.078793,0.724593,0.087929,0.678988 ElbowLeft:-0.027920,0.891776,-0.163919,-0.420817 ElbowRight:-0.375174,0.703015,0.144096,0.586728 FootLeft:0.000000,0.000000,0.000000,0.000000 FootRight:0.000000,0.000000,0.000000,0.000000 HandLeft:-0.117035,0.541630,-0.015860,0.832279 HandRight:-0.314252,0.289534,-0.582659,0.691321 HandTipLeft:0.000000,0.000000,0.000000,0.000000 HandTipRight:0.000000,0.000000,0.000000,0.000000 Head:0.000000,0.000000,0.000000,0.000000 HipLeft:0.119505,-0.689000,0.695505,-0.165136 HipRight:-0.108851,0.675324,0.712155,-0.157872 KneeLeft:-0.007016,0.711882,-0.054711,-0.700130 KneeRight:-0.037453,0.701546,0.051634,0.709764 Neck:-0.024718,-0.004756,0.996569,-0.078850 ShoulderLeft:0.017784,0.780515,-0.622832,0.050598 ShoulderRight:-0.014134,0.775033,0.625425,-0.089263 SpineBase:0.006588,-0.008114,0.999199,-0.038622 SpineMid:-0.009175,-0.007504,0.999179,-0.038745 SpineShoulder:-0.024945,-0.005630,0.997962,-0.058461 ThumbLeft:0.000000,0.000000,0.000000,0.000000 ThumbRight:0.000000,0.000000,0.000000,0.000000 WristLeft:-0.092690,0.547185,-0.121154,0.822994 WristRight:-0.301498,0.301635,-0.606322,0.671185 END:
KINECT_DATA POSITION:9.349495,-0.283240,-3.966844 HEAD_JOINT1:0.977113,0.203833,-0.000000,0.060845 LARM_JOINT2:0.813024,0.000000,-0.009000,-0.582160 LARM_JOINT3:0.964101,0.000000,-0.204883,-0.168915 LLEG_JOINT2:0.997974,0.033707,0.000000,0.053960 LLEG_JOINT4:0.995934,0.088819,0.000000,-0.015081 RARM_JOINT2:0.879318,0.000000,0.381731,0.284748 RARM_JOINT3:0.949191,0.000000,0.306734,-0.070360 RLEG_JOINT2:0.998536,0.009652,0.000000,-0.053232 RLEG_JOINT4:0.992760,0.108369,0.000000,0.051813 WAIST:0.999935,0.000000,-0.005097,-0.010237 WAIST_JOINT0:0.999459,-0.000000,0.032723,0.003185 WAIST_JOINT1:0.997910,0.064370,-0.000000,0.005592 END:
KINECT_DATA_Sensor  AnkleLeft:0.072794,0.748155,-0.102223,-0.651548 AnkleRight:0.080158,0.728033,0.086880,0.675274 ElbowLeft:-0.023036,0.885131,-0.166301,-0.434001 ElbowRight:-0.449246,0.761151,0.096625,0.457702 FootLeft:0.000000,0.000000,0.000000,0.000000 FootRight:0.000000,0.000000,0.000000,0.000000 HandLeft:-0.145463,0.749307,-0.012729,0.645924 HandRight:-0.325102,0.316843,-0.523786,0.720810 HandTipLeft:0.000000,0.000000,0.000000,0.000000 HandTipRight:0.000000,0.000000,0.000000,0.000000 Head:0.000000,0.000000,0.000000,0.000000 HipLeft:0.117411,-0.688198,0.696550,-0.165578 HipRight:-0.108888,0.676048,0.711341,-0.158420 KneeLeft:-0.007309,0.711179,-0.054703,-0.700841 KneeRight:-0.037802,0.702151,0.051857,0.709131 Neck:-0.031610,-0.000946,0.996306,-0.079842 ShoulderLeft:0.022170,0.777960,-0.626166,0.046931 ShoulderRight:-0.018924,0.775513,0.623706,-0.095978 SpineBase:0.005673,-0.005675,0.999177,-0.039764 SpineMid:-0.013044,-0.004930,0.999108,-0.039863 SpineShoulder:-0.031809,-0.002175,0.997720,-0.059487 ThumbLeft:0.000000,0.000000,0.000000,0.000000 ThumbRight:0.000000,0.000000,0.000000,0.000000 WristLeft:-0.119481,0.761473,-0.091665,0.630460 WristRight:-0.305304,0.329769,-0.500570,0.739913 END:
KINECT_DATA POSITION:9.239367,-0.300286,-4.095507 HEAD_JOINT1:0.977655,0.201612,-0.000000,0.059520 LARM_JOINT2:0.811005,0.000000,-0.007305,-0.584994 LARM_JOINT3:0.966262,0.000000,-0.199505,-0.162894 LLEG_JOINT2:0.998073,0.031205,0.000000,0.053640 LLEG_JOINT4:0.995866,0.089364,0.000000,-0.016249 RARM_JOINT2:0.865981,0.000000,0.421156,0.269637 RARM_JOINT3:0.972715,0.000000,0.226568,-0.049925 RLEG_JOINT2:0.998474,0.010598,0.000000,-0.054203 RLEG_JOINT4:0.992738,0.108134,0.000000,0.052718 WAIST:0.999963,0.000000,-0.000312,-0.008602 WAIST_JOINT0:0.998975,-0.000000,0.044765,0.006711 WAIST_JOINT1:0.997856,0.065087,-0.000000,0.006934 END:
KINECT_DATA_Sensor  AnkleLeft:-0.062743,-0.685295,0.106577,0.717687 AnkleRight:0.081743,0.734270,0.086242,0.668377 ElbowLeft:-0.022149,0.877314,-0.166728,-0.449480 ElbowRight:-0.467963,0.759315,0.054401,0.448878 FootLeft:0.000000,0.000000,0.000000,0.000000 FootRight:0.000000,0.000000,0.000000,0.000000 HandLeft:-0.117432,0.768230,-0.003214,0.629303 HandRight:-0.539634,0.743965,-0.167393,0.356780 HandTipLeft:0.000000,0.000000,0.000000,0.000000 HandTipRight:0.000000,0.000000,0.000000,0.000000 Head:0.000000,0.000000,0.000000,0.000000 HipLeft:0.113091,-0.687321,0.698543,-0.163820 HipRight:-0.111418,0.676275,0.710045,-0.161476 KneeLeft:-0.009714,0.707715,-0.053934,-0.704370 KneeRight:-0.036878,0.705563,0.051911,0.705780 Neck:-0.044069,0.002430,0.995784,-0.080409 ShoulderLeft:0.028138,0.775822,-0.629052,0.040026 ShoulderRight:-0.029361,0.776905,0.619609,-0.107896 SpineBase:0.000885,-0.003232,0.999153,-0.041024 SpineMid:-0.021612,-0.002308,0.998919,-0.041086 SpineShoulder:-0.044250,0.000952,0.997208,-0.060144 ThumbLeft:0.000000,0.000000,0.000000,0.000000 ThumbRight:0.000000,0.000000,0.000000,0.000000 WristLeft:-0.117176,0.775981,-0.094840,0.612478 WristRight:-0.550338,0.734440,-0.145702,0.369454 END:
KINECT_DATA POSITION:9.209076,-0.321079,-4.337275 HEAD_JOINT1:0.977846,0.200349,-0.000000,0.060639 LARM_JOINT2:0.811511,0.000000,-0.004057,-0.584323 LARM_JOINT3:0.965944,0.000000,-0.203395,-0.159944 LLEG_JOINT2:0.998242,0.029657,0.000000,0.051311 LLEG_JOINT4:0.996030,0.088530,0.000000,-0.009346 RARM_JOINT2:0.861022,0.000000,0.430556,0.270671 RARM_JOINT3:0.979947,0.000000,0.191524,-0.054982 RLEG_JOINT2:0.998424,0.011872,0.000000,-0.054859 RLEG_JOINT4:0.992771,0.107675,0.000000,0.053024 WAIST:0.999980,0.000000,0.001268,-0.006215 WAIST_JOINT0:0.998722,-0.000000,0.049742,0.008972 WAIST_JOINT1:0.997834,0.065499,-0.000000,0.006096 END:
KINECT_DATA_Sensor  AnkleLeft:0.069941,0.771296,-0.101432,-0.624438 AnkleRight:0.083724,0.736549,0.085274,0.665743 ElbowLeft:-0.020694,0.874907,-0.170249,-0.452906 ElbowRight:-0.468444,0.753154,0.033260,0.460667 FootLeft:0.000000,0.000000,0.000000,0.000000 FootRight:0.000000,0.000000,0.000000,0.000000 HandLeft:-0.110366,0.662110,-0.037967,0.740262 HandRight:-0.301823,0.278627,-0.463596,0.785078 HandTipLeft:0.000000,0.000000,0.000000,0.000000 HandTipRight:0.000000,0.000000,0.000000,0.000000 Head:0.000000,0.000000,0.000000,0.000000 HipLeft:0.110752,-0.685878,0.700393,-0.163568 HipRight:-0.111557,0.677681,0.708363,-0.162866 KneeLeft:-0.010764,0.706477,-0.052903,-0.705674 KneeRight:-0.034825,0.706832,0.051547,0.704641 Neck:-0.049561,0.004166,0.995505,-0.080595 ShoulderLeft:0.030365,0.774253,-0.631030,0.037568 ShoulderRight:-0.034397,0.778246,0.616658,-0.113507 SpineBase:-0.000799,-0.001409,0.999104,-0.042279 SpineMid:-0.025143,-0.000379,0.998788,-0.042301 SpineShoulder:-0.049721,0.002646,0.996923,-0.060542 ThumbLeft:0.000000,0.000000,0.000000,0.000000 ThumbRight:0.000000,0.000000,0.000000,0.000000 WristLeft:-0.097262,0.664889,-0.114094,0.731741 WristRight:-0.307001,0.276991,-0.474365,0.777177 END:
KINECT_DATA POSITION:9.299010,-0.338044,-4.647517 HEAD_JOINT1:0.977374,0.202469,-0.000000,0.061211 LARM_JOINT2:0.812727,0.000000,-0.005754,-0.582616 LARM_JOINT3:0.965934,0.000000,-0.200526,-0.163591 LLEG_JOINT2:0.998382,0.028197,0.000000,0.049387 LLEG_JOINT4:0.995853,0.090154,0.000000,-0.012184 RARM_JOINT2:0.859984,0.000000,0.428324,0.277427 RARM_JOINT3:0.984163,0.000000,0.160693,-0.074845 RLEG_JOINT2:0.998289,0.011217,0.000000,-0.057388 RLEG_JOINT4:0.993405,0.101914,0.000000,0.052542 WAIST:0.999987,0.000000,0.002415,-0.004419 WAIST_JOINT0:0.998461,-0.000000,0.054085,0.012289 WAIST_JOINT1:0.997742,0.066954,-0.000000,0.005323 END:
KINECT_DATA_Sensor  AnkleLeft:0.070208,0.758877,-0.100437,-0.639600 AnkleRight:0.078223,0.739662,0.081851,0.663387 ElbowLeft:-0.021271,0.875682,-0.173056,-0.450312 ElbowRight:-0.462389,0.733666,0.010225,0.497822 FootLeft:0.000000,0.000000,0.000000,0.000000 FootRight:0.000000,0.000000,0.000000,0.000000 HandLeft:-0.107479,0.758613,-0.009213,0.642550 HandRight:-0.039616,-0.260879,-0.549967,0.792407 HandTipLeft:0.000000,0.000000,0.000000,0.000000 HandTipRight:0.000000,0.000000,0.000000,0.000000 Head:0.000000,0.000000,0.000000,0.000000 HipLeft:0.108129,-0.684525,0.701933,-0.164386 HipRight:-0.110922,0.678550,0.707231,-0.164593 KneeLeft:-0.011651,0.705594,-0.051794,-0.706625 KneeRight:-0.035868,0.707602,0.051563,0.703814 Neck:-0.054354,0.005335,0.995157,-0.081730 ShoulderLeft:0.032839,0.772206,-0.633466,0.036604 ShoulderRight:-0.038273,0.779832,0.613318,-0.119327 SpineBase:-0.001997,0.000409,0.999007,-0.044505 SpineMid:-0.028070,0.001571,0.998615,-0.044479 SpineShoulder:-0.054492,0.003919,0.996578,-0.062025 ThumbLeft:0.000000,0.000000,0.000000,0.000000 ThumbRight:0.000000,0.000000,0.000000,0.000000 WristLeft:-0.112191,0.764886,-0.099237,0.626510 WristRight:0.008401,-0.226651,-0.567430,0.791570 END:
KINECT_DATA POSITION:9.395090,-0.337557,-4.820943 HEAD_JOINT1:0.977068,0.203712,-0.000000,0.061964 LARM_JOINT2:0.813061,0.000000,-0.007534,-0.582130 LARM_JOINT3:0.966127,0.000000,-0.201868,-0.160771 LLEG_JOINT2:0.998466,0.026843,0.000000,0.048435 LLEG_JOINT4:0.995765,0.090707,0.000000,-0.014965 RARM_JOINT2:0.868769,0.000000,0.408573,0.279837 RARM_JOINT3:0.986539,0.000000,0.141332,-0.082253 RLEG_JOINT2:0.998245,0.010420,0.000000,-0.058290 RLEG_JOINT4:0.993577,0.100801,0.000000,0.051418 WAIST:0.999993,0.000000,0.002286,-0.003082 WAIST_JOINT0:0.998340,-0.000000,0.055727,0.014557 WAIST_JOINT1:0.997709,0.067478,-0.000000,0.004793 END:
KINECT_DATA_Sensor  AnkleLeft:0.069517,0.748552,-0.099221,-0.651914 AnkleRight:0.076459,0.740761,0.080994,0.662471 ElbowLeft:-0.021506,0.878830,-0.173975,-0.443766 ElbowRight:-0.458666,0.706898,0.007898,0.538385 FootLeft:0.000000,0.000000,0.000000,0.000000 FootRight:0.000000,0.000000,0.000000,0.000000 HandLeft:-0.116360,0.770477,-0.028435,0.626112 HandRight:-0.061850,-0.335570,-0.531625,0.775205 HandTipLeft:0.000000,0.000000,0.000000,0.000000 HandTipRight:0.000000,0.000000,0.000000,0.000000 Head:0.000000,0.000000,0.000000,0.000000 HipLeft:0.107750,-0.683572,0.702847,-0.164696 HipRight:-0.110622,0.679475,0.706379,-0.164636 KneeLeft:-0.012895,0.705606,-0.051107,-0.706641 KneeRight:-0.036120,0.707533,0.050694,0.703934 Neck:-0.056288,0.006234,0.995004,-0.082222 ShoulderLeft:0.033015,0.770891,-0.635046,0.036790 ShoulderRight:-0.040709,0.781110,0.610993,-0.122056 SpineBase:-0.001941,0.001382,0.998989,-0.044891 SpineMid:-0.028974,0.002597,0.998571,-0.044837 SpineShoulder:-0.056403,0.004913,0.996439,-0.062485 ThumbLeft:0.000000,0.000000,0.000000,0.000000 ThumbRight:0.000000,0.000000,0.000000,0.000000 WristLeft:-0.110212,0.775405,-0.095390,0.614412 WristRight:0.010244,-0.282829,-0.569573,0.771679 END:
KINECT_DATA POSITION:9.444184,-0.339492,-4.894888 HEAD_JOINT1:0.976686,0.204794,-0.000000,0.064375 LARM_JOINT2:0.813809,0.000000,-0.009290,-0.581058 LARM_JOINT3:0.966356,0.000000,-0.200343,-0.161305 LLEG_JOINT2:0.998475,0.026773,0.000000,0.048273 LLEG_JOINT4:0.995893,0.088654,0.000000,-0.018383 RARM_JOINT2:0.874305,0.000000,0.395437,0.281461 RARM_JOINT3:0.986178,0.000000,0.143417,-0.082979 RLEG_JOINT2:0.998244,0.009407,0.000000,-0.058491 RLEG_JOINT4:0.993251,0.103444,0.000000,0.052456 WAIST:0.999996,0.000000,0.001359,-0.002508 WAIST_JOINT0:0.998405,-0.000000,0.054515,0.014678 WAIST_JOINT1:0.997690,0.067780,-0.000000,0.004510 END:
KINECT_DATA_Sensor  AnkleLeft:0.069442,0.747175,-0.095862,-0.654001 AnkleRight:0.078668,0.739711,0.080970,0.663387 ElbowLeft:-0.022612,0.881139,-0.174904,-0.438738 ElbowRight:-0.456242,0.696589,0.014431,0.553533 FootLeft:0.000000,0.000000,0.000000,0.000000 FootRight:0.000000,0.000000,0.000000,0.000000 HandLeft:-0.117465,0.763293,-0.029396,0.634603 HandRight:-0.098361,-0.292425,-0.522271,0.795013 HandTipLeft:0.000000,0.000000,0.000000,0.000000 HandTipRight:0.000000,0.000000,0.000000,0.000000 Head:0.000000,0.000000,0.000000,0.000000 HipLeft:0.107861,-0.683032,0.703170,-0.165484 HipRight:-0.109731,0.679993,0.706114,-0.164232 KneeLeft:-0.013285,0.706233,-0.051335,-0.705991 KneeRight:-0.036531,0.706864,0.049743,0.704652 Neck:-0.055067,0.006574,0.995050,-0.082457 ShoulderLeft:0.032162,0.770521,-0.635455,0.038208 ShoulderRight:-0.040031,0.780946,0.611351,-0.121538 SpineBase:-0.001042,0.001902,0.998970,-0.045322 SpineMid:-0.027902,0.003120,0.998581,-0.045255 SpineShoulder:-0.055174,0.005259,0.996487,-0.062781 ThumbLeft:0.000000,0.000000,0.000000,0.000000 ThumbRight:0.000000,0.000000,0.000000,0.000000 WristLeft:-0.107634,0.768928,-0.095925,0.622867 WristRight:-0.037685,-0.246091,-0.566874,0.785285 END:
KINECT_DATA POSITION:9.467205,-0.342750,-4.924548 HEAD_JOINT1:0.976499,0.204137,-0.000000,0.069127 LARM_JOINT2:0.815129,0.000000,-0.011051,-0.579174 LARM_JOINT3:0.964145,0.000000,-0.208423,-0.164272 LLEG_JOINT2:0.998519,0.026929,0.000000,0.047273 LLEG_JOINT4:0.995984,0.088215,0.000000,-0.015304 RARM_JOINT2:0.882288,0.000000,0.374721,0.284873 RARM_JOINT3:0.980812,0.000000,0.171309,-0.093059 RLEG_JOINT2:0.998258,0.009651,0.000000,-0.058199 RLEG_JOINT4:0.993448,0.103596,0.000000,0.048253 WAIST:0.999998,0.000000,-0.000669,-0.001851 WAIST_JOINT0:0.998675,-0.000000,0.049079,0.015485 WAIST_JOINT1:0.997724,0.067301,-0.000000,0.004067 END:
KINECT_DATA_Sensor  AnkleLeft:-0.057718,-0.683723,0.103785,0.720014 AnkleRight:0.076816,0.737204,0.083654,0.666056 ElbowLeft:-0.024780,0.884364,-0.176299,-0.431515 ElbowRight:-0.451416,0.697955,0.039179,0.554570 FootLeft:0.000000,0.000000,0.000000,0.000000 FootRight:0.000000,0.000000,0.000000,0.000000 HandLeft:-0.154680,0.762641,-0.046201,0.626354 HandRight:-0.104466,-0.276571,-0.545086,0.784523 HandTipLeft:0.000000,0.000000,0.000000,0.000000 HandTipRight:0.000000,0.000000,0.000000,0.000000 Head:0.000000,0.000000,0.000000,0.000000 HipLeft:0.109071,-0.682520,0.703283,-0.166322 HipRight:-0.108547,0.680894,0.705742,-0.162876 KneeLeft:-0.013041,0.707628,-0.051170,-0.704609 KneeRight:-0.035589,0.705516,0.049317,0.706080 Neck:-0.049701,0.006673,0.995379,-0.081891 ShoulderLeft:0.029590,0.770559,-0.635361,0.040991 ShoulderRight:-0.035494,0.782686,0.610486,-0.115973 SpineBase:0.000926,0.002145,0.998981,-0.045061 SpineMid:-0.024242,0.003280,0.998688,-0.044992 SpineShoulder:-0.049795,0.005350,0.996799,-0.062320 ThumbLeft:0.000000,0.000000,0.000000,0.000000 ThumbRight:0.000000,0.000000,0.000000,0.000000 WristLeft:-0.108286,0.773604,-0.094704,0.617124 WristRight:-0.047066,-0.234504,-0.570300,0.785844 END:
KINECT_DATA POSITION:9.520658,-0.355744,-4.721320 HEAD_JOINT1:0.975532,0.202534,-0.000000,0.085539 LARM_JOINT2:0.823748,0.000000,-0.022213,-0.566520 LARM_JOINT3:0.960109,0.000000,-0.212797,-0.181404 LLEG_JOINT2:0.998392,0.030859,0.000000,0.047542 LLEG_JOINT4:0.995935,0.088025,0.000000,-0.019108 RARM_JOINT2:0.925628,0.000000,0.192286,0.325942 RARM_JOINT3:0.866862,0.000000,0.484666,-0.116827 RLEG_JOINT2:0.998460,0.008832,0.000000,-0.054776 RLEG_JOINT4:0.994007,0.101372,0.000000,0.040916 WAIST:0.999880,0.000000,-0.015169,-0.003283 WAIST_JOINT0:0.999903,-0.000000,0.011783,0.007432 WAIST_JOINT1:0.998055,0.062319,0.000000,-0.001401 END:
KINECT_DATA_Sensor  AnkleLeft:0.071947,0.758321,-0.097524,-0.640517 AnkleRight:0.070938,0.717895,0.085648,0.687211 ElbowLeft:-0.036569,0.906737,-0.178006,-0.380532 ElbowRight:-0.373140,0.676061,0.206485,0.600893 FootLeft:0.000000,0.000000,0.000000,0.000000 FootRight:0.000000,0.000000,0.000000,0.000000 HandLeft:-0.190095,0.771296,-0.052634,0.605141 HandRight:-0.362438,0.237290,-0.540081,0.721557 HandTipLeft:0.000000,0.000000,0.000000,0.000000 HandTipRight:0.000000,0.000000,0.000000,0.000000 Head:0.000000,0.000000,0.000000,0.000000 HipLeft:0.122591,-0.682265,0.699654,-0.173118 HipRight:-0.103124,0.682261,0.707161,-0.154301 KneeLeft:-0.010239,0.717821,-0.052950,-0.694136 KneeRight:-0.034100,0.695354,0.047796,0.716265 Neck:-0.012153,-0.002277,0.996996,-0.076460 ShoulderLeft:0.009083,0.774833,-0.629172,0.060782 ShoulderRight:-0.006485,0.781690,0.618682,-0.078435 SpineBase:0.015353,-0.001150,0.999032,-0.041212 SpineMid:0.001736,-0.000588,0.999148,-0.041223 SpineShoulder:-0.012182,-0.001926,0.998248,-0.057876 ThumbLeft:0.000000,0.000000,0.000000,0.000000 ThumbRight:0.000000,0.000000,0.000000,0.000000 WristLeft:-0.128590,0.784478,-0.080699,0.601287 WristRight:-0.333329,0.262743,-0.555333,0.715167 END:
KINECT_DATA POSITION:9.584677,-0.396758,-4.546559 HEAD_JOINT1:0.974951,0.199822,-0.000000,0.097687 LARM_JOINT2:0.826333,0.000000,-0.026168,-0.562573 LARM_JOINT3:0.958874,0.000000,-0.206346,-0.194892 LLEG_JOINT2:0.998143,0.036997,0.000000,0.048398 LLEG_JOINT4:0.995925,0.087102,0.000000,-0.023381 RARM_JOINT2:0.919591,0.000000,0.164620,0.356726 RARM_JOINT3:0.845926,0.000000,0.525352,-0.091729 RLEG_JOINT2:0.998582,0.007041,0.000000,-0.052760 RLEG_JOINT4:0.994004,0.102876,0.000000,0.037057 WAIST:0.999657,0.000000,-0.025625,-0.005382 WAIST_JOINT0:0.999969,0.000000,-0.007576,0.001916 WAIST_JOINT1:0.998054,0.062218,0.000000,-0.004245 END:
KINECT_DATA_Sensor  AnkleLeft:0.072787,0.727923,-0.101877,-0.674131 AnkleRight:0.068591,0.707610,0.087924,0.697748 ElbowLeft:-0.039484,0.915305,-0.176186,-0.360022 ElbowRight:-0.337364,0.675201,0.220508,0.617791 FootLeft:0.000000,0.000000,0.000000,0.000000 FootRight:0.000000,0.000000,0.000000,0.000000 HandLeft:-0.174799,0.747280,-0.015491,0.640920 HandRight:-0.319306,0.218632,-0.525401,0.757758 HandTipLeft:0.000000,0.000000,0.000000,0.000000 HandTipRight:0.000000,0.000000,0.000000,0.000000 Head:0.000000,0.000000,0.000000,0.000000 HipLeft:0.130499,-0.682364,0.696901,-0.177984 HipRight:-0.096192,0.681980,0.709642,-0.148522 KneeLeft:-0.005707,0.725193,-0.056368,-0.686211 KneeRight:-0.035013,0.687868,0.046916,0.723471 Neck:0.007868,-0.007221,0.996976,-0.076978 ShoulderLeft:-0.000752,0.778259,-0.623669,0.073143 ShoulderRight:0.009816,0.779090,0.623917,-0.060421 SpineBase:0.025774,-0.005525,0.998831,-0.040526 SpineMid:0.016863,-0.005163,0.999021,-0.040574 SpineShoulder:0.007786,-0.006782,0.998278,-0.057748 ThumbLeft:0.000000,0.000000,0.000000,0.000000 ThumbRight:0.000000,0.000000,0.000000,0.000000 WristLeft:-0.137729,0.760650,-0.076730,0.629726 WristRight:-0.297359,0.242645,-0.580620,0.718040 END:
KINECT_DATA POSITION:9.570889,-0.413782,-4.497230 HEAD_JOINT1:0.975069,0.201649,-0.000000,0.092615 LARM_JOINT2:0.822322,0.000000,-0.013147,-0.568870 LARM_JOINT3:0.964628,0.000000,-0.190067,-0.182670 LLEG_JOINT2:0.998204,0.036621,0.000000,0.047416 LLEG_JOINT4:0.995967,0.086592,0.000000,-0.023499 RARM_JOINT2:0.886036,0.000000,0.342572,0.312386 RARM_JOINT3:0.956215,0.000000,0.283944,-0.070912 RLEG_JOINT2:0.998489,0.006123,0.000000,-0.054601 RLEG_JOINT4:0.993764,0.104459,0.000000,0.039003 WAIST:0.999678,0.000000,-0.024932,-0.004648 WAIST_JOINT0:0.999954,-0.000000,0.002674,0.009185 WAIST_JOINT1:0.998021,0.062873,0.000000,-0.000548 END:
KINECT_DATA_Sensor  AnkleLeft:0.073287,0.732691,-0.100399,-0.669114 AnkleRight:0.070252,0.713056,0.087266,0.692099 ElbowLeft:-0.032097,0.905490,-0.178046,-0.383872 ElbowRight:-0.422276,0.732141,0.109695,0.523087 FootLeft:0.000000,0.000000,0.000000,0.000000 FootRight:0.000000,0.000000,0.000000,0.000000 HandLeft:-0.084895,0.742771,0.007167,0.664103 HandRight:-0.045462,-0.178534,-0.578192,0.794829 HandTipLeft:0.000000,0.000000,0.000000,0.000000 HandTipRight:0.000000,0.000000,0.000000,0.000000 Head:0.000000,0.000000,0.000000,0.000000 HipLeft:0.129413,-0.682006,0.697648,-0.177222 HipRight:-0.096441,0.682521,0.709187,-0.148045 KneeLeft:-0.005734,0.724680,-0.055943,-0.686787 KneeRight:-0.036461,0.688281,0.047075,0.722996 Neck:-0.002200,-0.001008,0.996963,-0.077839 ShoulderLeft:0.002958,0.776188,-0.626799,0.068158 ShoulderRight:0.000166,0.783601,0.617245,-0.070549 SpineBase:0.025076,-0.004222,0.998862,-0.040344 SpineMid:0.011419,-0.003670,0.999112,-0.040398 SpineShoulder:-0.002336,-0.002171,0.998304,-0.058135 ThumbLeft:0.000000,0.000000,0.000000,0.000000 ThumbRight:0.000000,0.000000,0.000000,0.000000 WristLeft:-0.126687,0.744712,-0.085691,0.649624 WristRight:-0.038368,-0.176151,-0.565574,0.804752 END:
KINECT_DATA POSITION:9.523574,-0.439610,-4.501462 HEAD_JOINT1:0.976242,0.201519,-0.000000,0.079635 LARM_JOINT2:0.817407,0.000000,-0.005404,-0.576035 LARM_JOINT3:0.964448,0.000000,-0.198960,-0.173938 LLEG_JOINT2:0.998388,0.034166,0.000000,0.045319 LLEG_JOINT4:0.996147,0.085586,0.000000,-0.019156 RARM_JOINT2:0.868646,0.000000,0.390034,0.305495 RARM_JOINT3:0.978988,0.000000,0.188314,-0.078226 RLEG_JOINT2:0.998315,0.006297,0.000000,-0.057676 RLEG_JOINT4:0.993172,0.108030,0.000000,0.044024 WAIST:0.999841,0.000000,-0.017713,-0.002216 WAIST_JOINT0:0.999354,-0.000000,0.030691,0.018692 WAIST_JOINT1:0.997910,0.064434,-0.000000,0.004832 END:
KINECT_DATA_Sensor  AnkleLeft:-0.063185,-0.693321,0.104134,0.710260 AnkleRight:0.076627,0.727374,0.085888,0.676520 ElbowLeft:-0.028300,0.890610,-0.180456,-0.416472 ElbowRight:-0.437355,0.702584,0.026226,0.560722 FootLeft:0.000000,0.000000,0.000000,0.000000 FootRight:0.000000,0.000000,0.000000,0.000000 HandLeft:-0.098320,0.800776,0.006012,0.590809 HandRight:-0.058766,-0.217445,-0.534245,0.814768 HandTipLeft:0.000000,0.000000,0.000000,0.000000 HandTipRight:0.000000,0.000000,0.000000,0.000000 Head:0.000000,0.000000,0.000000,0.000000 HipLeft:0.123035,-0.681243,0.700224,-0.174517 HipRight:-0.100713,0.683817,0.706747,-0.150860 KneeLeft:-0.007229,0.719590,-0.054503,-0.692219 KneeRight:-0.037081,0.693311,0.047443,0.718119 Neck:-0.030829,0.008004,0.996351,-0.079190 ShoulderLeft:0.015119,0.771176,-0.634229,0.053042 ShoulderRight:-0.025349,0.787791,0.607468,-0.098615 SpineBase:0.017913,0.001502,0.998994,-0.041073 SpineMid:-0.006348,0.002499,0.999135,-0.041024 SpineShoulder:-0.030871,0.006535,0.997747,-0.059199 ThumbLeft:0.000000,0.000000,0.000000,0.000000 ThumbRight:0.000000,0.000000,0.000000,0.000000 WristLeft:-0.125682,0.802982,-0.086130,0.576199 WristRight:-0.057130,-0.211166,-0.557049,0.801150 END:
KINECT_DATA POSITION:9.455475,-0.485889,-4.501283 HEAD_JOINT1:0.976628,0.202448,-0.000000,0.072192 LARM_JOINT2:0.812736,0.000000,0.001182,-0.582631 LARM_JOINT3:0.965521,0.000000,-0.198894,-0.167957 LLEG_JOINT2:0.998441,0.033521,0.000000,0.044625 LLEG_JOINT4:0.996284,0.084375,0.000000,-0.017288 RARM_JOINT2:0.866248,0.000000,0.397899,0.302144 RARM_JOINT3:0.982241,0.000000,0.171201,-0.076767 RLEG_JOINT2:0.998213,0.006641,0.000000,-0.059378 RLEG_JOINT4:0.992942,0.109268,0.000000,0.046118 WAIST:0.999942,0.000000,-0.010669,-0.001363 WAIST_JOINT0:0.998632,-0.000000,0.047262,0.022387 WAIST_JOINT1:0.997858,0.065053,-0.000000,0.006946 END:
KINECT_DATA_Sensor  AnkleLeft:0.069842,0.747123,-0.098119,-0.653684 AnkleRight:0.078588,0.736050,0.086030,0.666823 ElbowLeft:-0.021424,0.882637,-0.178784,-0.434199 ElbowRight:-0.439080,0.705271,0.013393,0.556437 FootLeft:0.000000,0.000000,0.000000,0.000000 FootRight:0.000000,0.000000,0.000000,0.000000 HandLeft:-0.109797,0.786808,-0.001266,0.607351 HandRight:-0.055260,-0.248359,-0.523355,0.813243 HandTipLeft:0.000000,0.000000,0.000000,0.000000 HandTipRight:0.000000,0.000000,0.000000,0.000000 Head:0.000000,0.000000,0.000000,0.000000 HipLeft:0.117397,-0.681640,0.701580,-0.171379 HipRight:-0.104887,0.683882,0.705347,-0.154239 KneeLeft:-0.007392,0.714684,-0.054220,-0.697304 KneeRight:-0.037752,0.698208,0.048040,0.713283 Neck:-0.048041,0.011220,0.995604,-0.079623 ShoulderLeft:0.024425,0.769053,-0.637327,0.042135 ShoulderRight:-0.038648,0.789146,0.602342,-0.113751 SpineBase:0.010951,0.004699,0.999062,-0.041643 SpineMid:-0.018327,0.005917,0.998953,-0.041487 SpineShoulder:-0.048054,0.009732,0.997017,-0.059607 ThumbLeft:0.000000,0.000000,0.000000,0.000000 ThumbRight:0.000000,0.000000,0.000000,0.000000 WristLeft:-0.112363,0.792919,-0.090299,0.592031 WristRight:-0.036846,-0.230285,-0.556671,0.797325 END:
KINECT_DATA POSITION:9.418900,-0.519376,-4.507589 HEAD_JOINT1:0.976253,0.204592,-0.000000,0.071223 LARM_JOINT2:0.811960,0.000000,0.000723,-0.583712 LARM_JOINT3:0.963682,0.000000,-0.209868,-0.165144 LLEG_JOINT2:0.998500,0.032590,0.000000,0.043994 LLEG_JOINT4:0.996246,0.085521,0.000000,-0.013454 RARM_JOINT2:0.866388,0.000000,0.396874,0.303088 RARM_JOINT3:0.981594,0.000000,0.172641,-0.081664 RLEG_JOINT2:0.998145,0.006728,0.000000,-0.060503 RLEG_JOINT4:0.993050,0.107550,0.000000,0.047807 WAIST:0.999973,0.000000,-0.007302,-0.000875 WAIST_JOINT0:0.998480,-0.000000,0.050103,0.022967 WAIST_JOINT1:0.997838,0.065359,-0.000000,0.006843 END:
KINECT_DATA_Sensor  AnkleLeft:0.071340,0.767232,-0.098350,-0.629756 AnkleRight:0.077652,0.737705,0.084532,0.665294 ElbowLeft:-0.020998,0.879884,-0.177942,-0.440114 ElbowRight:-0.437822,0.707161,0.012282,0.555052 FootLeft:0.000000,0.000000,0.000000,0.000000 FootRight:0.000000,0.000000,0.000000,0.000000 HandLeft:-0.137987,0.687240,-0.049906,0.711457 HandRight:0.044319,-0.405385,-0.529486,0.743871 HandTipLeft:0.000000,0.000000,0.000000,0.000000 HandTipRight:0.000000,0.000000,0.000000,0.000000 Head:0.000000,0.000000,0.000000,0.000000 HipLeft:0.114760,-0.681578,0.702551,-0.169421 HipRight:-0.106644,0.683572,0.704957,-0.156179 KneeLeft:-0.007758,0.712314,-0.053487,-0.699777 KneeRight:-0.038294,0.700580,0.048433,0.710898 Neck:-0.051066,0.011367,0.995424,-0.079959 ShoulderLeft:0.026398,0.768365,-0.638191,0.040378 ShoulderRight:-0.040650,0.789068,0.601784,-0.116515 SpineBase:0.007576,0.005213,0.999074,-0.042032 SpineMid:-0.021516,0.006435,0.998871,-0.041863 SpineShoulder:-0.051080,0.009900,0.996846,-0.059929 ThumbLeft:0.000000,0.000000,0.000000,0.000000 ThumbRight:0.000000,0.000000,0.000000,0.000000 WristLeft:-0.096405,0.691725,-0.108212,0.707469 WristRight:0.078800,-0.378922,-0.554480,0.736723 END:
KINECT_DATA POSITION:9.392941,-0.555263,-4.354894 HEAD_JOINT1:0.976050,0.203967,-0.000000,0.075656 LARM_JOINT2:0.815491,0.000000,-0.003930,-0.578757 LARM_JOINT3:0.961520,0.000000,-0.215577,-0.170311 LLEG_JOINT2:0.998498,0.032789,0.000000,0.043895 LLEG_JOINT4:0.996289,0.085020,0.000000,-0.013440 RARM_JOINT2:0.885020,0.000000,0.316390,0.341520 RARM_JOINT3:0.933991,0.000000,0.337234,-0.118040 RLEG_JOINT2:0.998197,0.008906,0.000000,-0.059357 RLEG_JOINT4:0.993006,0.107647,0.000000,0.048496 WAIST:0.999960,0.000000,-0.008902,-0.000793 WAIST_JOINT0:0.999141,-0.000000,0.036674,0.019275 WAIST_JOINT1:0.998030,0.062721,-0.000000,0.001458 END:
KINECT_DATA_Sensor  AnkleLeft:0.069736,0.760478,-0.099135,-0.637952 AnkleRight:0.079940,0.730069,0.085204,0.673312 ElbowLeft:-0.025679,0.885030,-0.175784,-0.430304 ElbowRight:-0.396621,0.715399,0.085965,0.568776 FootLeft:0.000000,0.000000,0.000000,0.000000 FootRight:0.000000,0.000000,0.000000,0.000000 HandLeft:-0.157117,0.662981,-0.063574,0.729197 HandRight:-0.302968,0.200394,-0.563454,0.742006 HandTipLeft:0.000000,0.000000,0.000000,0.000000 HandTipRight:0.000000,0.000000,0.000000,0.000000 Head:0.000000,0.000000,0.000000,0.000000 HipLeft:0.117387,-0.681530,0.702415,-0.168378 HipRight:-0.106750,0.683692,0.705157,-0.154671 KneeLeft:-0.007696,0.713391,-0.053603,-0.698671 KneeRight:-0.035788,0.699696,0.049155,0.711849 Neck:-0.037672,0.003628,0.996337,-0.076677 ShoulderLeft:0.022235,0.770364,-0.635650,0.044659 ShoulderRight:-0.026649,0.788467,0.606245,-0.100382 SpineBase:0.009074,0.003296,0.999150,-0.040073 SpineMid:-0.014020,0.004221,0.999093,-0.039986 SpineShoulder:-0.037602,0.004316,0.997597,-0.058030 ThumbLeft:0.000000,0.000000,0.000000,0.000000 ThumbRight:0.000000,0.000000,0.000000,0.000000 WristLeft:-0.103300,0.669071,-0.111338,0.727515 WristRight:-0.281306,0.211095,-0.522116,0.776982 END:
KINECT_DATA POSITION:9.452288,-0.614623,-4.113078 HEAD_JOINT1:0.975223,0.205062,-0.000000,0.083006 LARM_JOINT2:0.819912,0.000000,-0.012017,-0.572363 LARM_JOINT3:0.961309,0.000000,-0.211851,-0.176083 LLEG_JOINT2:0.998188,0.037958,0.000000,0.046687 LLEG_JOINT4:0.996518,0.082631,0.000000,-0.011117 RARM_JOINT2:0.892912,0.000000,0.164995,0.418909 RARM_JOINT3:0.815627,0.000000,0.563419,-0.131571 RLEG_JOINT2:0.998441,0.008139,0.000000,-0.055221 RLEG_JOINT4:0.993122,0.107772,0.000000,0.045769 WAIST:0.999829,0.000000,-0.017961,-0.004339 WAIST_JOINT0:0.999820,-0.000000,0.014687,0.012052 WAIST_JOINT1:0.998164,0.060405,0.000000,-0.004546 END:
KINECT_DATA_Sensor  AnkleLeft:0.072021,0.779668,-0.101199,-0.613751 AnkleRight:0.078075,0.718392,0.086280,0.685838 ElbowLeft:-0.030343,0.899874,-0.170403,-0.400336 ElbowRight:-0.294967,0.681774,0.171066,0.647237 FootLeft:0.000000,0.000000,0.000000,0.000000 FootRight:0.000000,0.000000,0.000000,0.000000 HandLeft:-0.150764,0.562861,-0.084634,0.808267 HandRight:-0.256325,0.166345,-0.640078,0.704931 HandTipLeft:0.000000,0.000000,0.000000,0.000000 HandTipRight:0.000000,0.000000,0.000000,0.000000 Head:0.000000,0.000000,0.000000,0.000000 HipLeft:0.125282,-0.683361,0.698580,-0.171199 HipRight:-0.100706,0.682381,0.708317,-0.150005 KneeLeft:-0.004082,0.719874,-0.056677,-0.691775 KneeRight:-0.035521,0.693357,0.048474,0.718085 Neck:-0.015005,-0.006075,0.997057,-0.074937 ShoulderLeft:0.013069,0.775100,-0.629320,0.054815 ShoulderRight:-0.005890,0.785609,0.613970,-0.076321 SpineBase:0.018095,-0.004146,0.999081,-0.038638 SpineMid:0.001667,-0.003510,0.999243,-0.038701 SpineShoulder:-0.015105,-0.005674,0.998294,-0.056109 ThumbLeft:0.000000,0.000000,0.000000,0.000000 ThumbRight:0.000000,0.000000,0.000000,0.000000 WristLeft:-0.102666,0.569214,-0.115849,0.807486 WristRight:-0.234551,0.184420,-0.619915,0.725727 END:
KINECT_DATA POSITION:9.556600,-0.645170,-4.021990 HEAD_JOINT1:0.973199,0.213972,-0.000000,0.084261 LARM_JOINT2:0.820526,0.000000,-0.013666,-0.571446 LARM_JOINT3:0.963048,0.000000,-0.203873,-0.175996 LLEG_JOINT2:0.998063,0.040566,0.000000,0.047158 LLEG_JOINT4:0.996409,0.083320,0.000000,-0.015045 RARM_JOINT2:0.893884,0.000000,0.134137,0.427761 RARM_JOINT3:0.804507,0.000000,0.585683,-0.098715 RLEG_JOINT2:0.998485,0.009169,0.000000,-0.054262 RLEG_JOINT4:0.993425,0.105639,0.000000,0.044125 WAIST:0.999751,0.000000,-0.021559,-0.005767 WAIST_JOINT0:0.999964,-0.000000,0.003697,0.007700 WAIST_JOINT1:0.998116,0.061102,0.000000,-0.005528 END:
KINECT_DATA_Sensor  AnkleLeft:0.074385,0.763862,-0.101997,-0.632912 AnkleRight:0.075709,0.712736,0.087203,0.691861 ElbowLeft:-0.030005,0.904064,-0.168954,-0.391438 ElbowRight:-0.274737,0.676433,0.192991,0.655524 FootLeft:0.000000,0.000000,0.000000,0.000000 FootRight:0.000000,0.000000,0.000000,0.000000 HandLeft:-0.140186,0.774004,-0.028103,0.616827 HandRight:-0.260157,0.206949,-0.583208,0.741187 HandTipLeft:0.000000,0.000000,0.000000,0.000000 HandTipRight:0.000000,0.000000,0.000000,0.000000 Head:0.000000,0.000000,0.000000,0.000000 HipLeft:0.127896,-0.683808,0.697313,-0.172637 HipRight:-0.097273,0.681482,0.709910,-0.148823 KneeLeft:-0.001816,0.722465,-0.057848,-0.688980 KneeRight:-0.034948,0.690871,0.049624,0.720426 Neck:-0.003553,-0.008458,0.997058,-0.076098 ShoulderLeft:0.008557,0.776972,-0.626432,0.061844 ShoulderRight:0.004451,0.782491,0.619121,-0.066161 SpineBase:0.021649,-0.007917,0.998968,-0.039123 SpineMid:0.009039,-0.007422,0.999162,-0.039219 SpineShoulder:-0.003713,-0.008375,0.998349,-0.056711 ThumbLeft:0.000000,0.000000,0.000000,0.000000 ThumbRight:0.000000,0.000000,0.000000,0.000000 WristLeft:-0.133826,0.778429,-0.076332,0.608532 WristRight:-0.255920,0.213677,-0.615254,0.714360 END:
KINECT_DATA POSITION:9.528047,-0.673318,-3.980124 HEAD_JOINT1:0.974320,0.212465,-0.000000,0.074567 LARM_JOINT2:0.817877,0.000000,-0.010854,-0.575291 LARM_JOINT3:0.964796,0.000000,-0.195616,-0.175794 LLEG_JOINT2:0.998069,0.040042,0.000000,0.047496 LLEG_JOINT4:0.996372,0.083221,0.000000,-0.017778 RARM_JOINT2:0.892080,0.000000,0.273716,0.359545 RARM_JOINT3:0.902782,0.000000,0.426405,-0.056241 RLEG_JOINT2:0.998469,0.007056,0.000000,-0.054866 RLEG_JOINT4:0.993229,0.107874,0.000000,0.043127 WAIST:0.999799,0.000000,-0.019218,-0.005653 WAIST_JOINT0:0.999884,-0.000000,0.011615,0.009876 WAIST_JOINT1:0.998124,0.061229,0.000000,-0.000642 END:
KINECT_DATA_Sensor  AnkleLeft:0.074214,0.752954,-0.100822,-0.646056 AnkleRight:0.075028,0.717309,0.088250,0.687059 ElbowLeft:-0.029827,0.897373,-0.170109,-0.406072 ElbowRight:-0.365422,0.743678,0.148587,0.539752 FootLeft:0.000000,0.000000,0.000000,0.000000 FootRight:0.000000,0.000000,0.000000,0.000000 HandLeft:-0.102466,0.755186,0.003137,0.647445 HandRight:-0.233161,0.218847,-0.543860,0.775860 HandTipLeft:0.000000,0.000000,0.000000,0.000000 HandTipRight:0.000000,0.000000,0.000000,0.000000 Head:0.000000,0.000000,0.000000,0.000000 HipLeft:0.126007,-0.683871,0.697841,-0.171641 HipRight:-0.099160,0.681313,0.709663,-0.149527 KneeLeft:-0.002360,0.720834,-0.057800,-0.690689 KneeRight:-0.036927,0.692397,0.048434,0.718942 Neck:-0.011604,-0.002255,0.997029,-0.076108 ShoulderLeft:0.013661,0.774932,-0.629425,0.055832 ShoulderRight:-0.001181,0.783177,0.617533,-0.072695 SpineBase:0.019381,-0.005979,0.999033,-0.039007 SpineMid:0.003829,-0.005371,0.999214,-0.039096 SpineShoulder:-0.011784,-0.003487,0.998321,-0.056598 ThumbLeft:0.000000,0.000000,0.000000,0.000000 ThumbRight:0.000000,0.000000,0.000000,0.000000 WristLeft:-0.130006,0.758846,-0.087064,0.632196 WristRight:-0.221662,0.227651,-0.551930,0.770983 END:
KINECT_DATA POSITION:9.386230,-0.702228,-4.012609 HEAD_JOINT1:0.976211,0.208170,-0.000000,0.060646 LARM_JOINT2:0.814408,0.000000,-0.004425,-0.580275 LARM_JOINT3:0.965102,0.000000,-0.197417,-0.172058 LLEG_JOINT2:0.998054,0.038905,0.000000,0.048735 LLEG_JOINT4:0.996501,0.082299,0.000000,-0.014611 RARM_JOINT2:0.874135,0.000000,0.365833,0.319459 RARM_JOINT3:0.957319,0.000000,0.287573,-0.029029 RLEG_JOINT2:0.998464,0.007737,0.000000,-0.054866 RLEG_JOINT4:0.993000,0.109147,0.000000,0.045143 WAIST:0.999920,0.000000,-0.011497,-0.005334 WAIST_JOINT0:0.999368,-0.000000,0.032173,0.015141 WAIST_JOINT1:0.998033,0.062302,-0.000000,0.006957 END:
KINECT_DATA_Sensor  AnkleLeft:0.072094,0.759187,-0.101168,-0.638907 AnkleRight:0.078124,0.728040,0.087753,0.675392 ElbowLeft:-0.026234,0.887064,-0.174564,-0.426564 ElbowRight:-0.415155,0.776813,0.099903,0.462846 FootLeft:0.000000,0.000000,0.000000,0.000000 FootRight:0.000000,0.000000,0.000000,0.000000 HandLeft:-0.102275,0.622159,-0.015238,0.776032 HandRight:-0.335157,0.431675,-0.425578,0.721255 HandTipLeft:0.000000,0.000000,0.000000,0.000000 HandTipRight:0.000000,0.000000,0.000000,0.000000 Head:0.000000,0.000000,0.000000,0.000000 HipLeft:0.119240,-0.684200,0.699497,-0.168393 HipRight:-0.104634,0.680815,0.708855,-0.151882 KneeLeft:-0.003788,0.715447,-0.058128,-0.696234 KneeRight:-0.036574,0.697685,0.048416,0.713830 Neck:-0.032724,0.006334,0.996459,-0.077196 ShoulderLeft:0.024904,0.770365,-0.635680,0.042762 ShoulderRight:-0.017740,0.784505,0.613023,-0.091870 SpineBase:0.011897,0.000211,0.999163,-0.039134 SpineMid:-0.010369,0.001083,0.999180,-0.039119 SpineShoulder:-0.032810,0.004736,0.997814,-0.057162 ThumbLeft:0.000000,0.000000,0.000000,0.000000 ThumbRight:0.000000,0.000000,0.000000,0.000000 WristLeft:-0.099310,0.625977,-0.115906,0.764759 WristRight:-0.347898,0.422690,-0.419449,0.724129 END:
KINECT_DATA POSITION:9.154077,-0.715518,-4.289627 HEAD_JOINT1:0.975812,0.211822,-0.000000,0.054063 LARM_JOINT2:0.810469,0.000000,-0.003945,-0.585769 LARM_JOINT3:0.966576,0.000000,-0.191733,-0.170203 LLEG_JOINT2:0.998229,0.033271,0.000000,0.049318 LLEG_JOINT4:0.996292,0.084511,0.000000,-0.016111 RARM_JOINT2:0.848627,0.000000,0.418917,0.323018 RARM_JOINT3:0.985278,0.000000,0.164105,-0.047924 RLEG_JOINT2:0.998313,0.008588,0.000000,-0.057418 RLEG_JOINT4:0.992581,0.110652,0.000000,0.050388 WAIST:0.999983,0.000000,0.004638,-0.003470 WAIST_JOINT0:0.997992,-0.000000,0.059746,0.021021 WAIST_JOINT1:0.997662,0.067129,-0.000000,0.012836 END:
KINECT_DATA_Sensor  AnkleLeft:0.069593,0.742272,-0.099242,-0.659045 AnkleRight:0.082043,0.742247,0.086765,0.659402 ElbowLeft:-0.019053,0.879777,-0.178198,-0.440312 ElbowRight:-0.420302,0.755720,0.000914,0.502227 FootLeft:0.000000,0.000000,0.000000,0.000000 FootRight:0.000000,0.000000,0.000000,0.000000 HandLeft:-0.091346,0.760413,0.009230,0.642917 HandRight:-0.246474,0.214639,-0.412985,0.850073 HandTipLeft:0.000000,0.000000,0.000000,0.000000 HandTipRight:0.000000,0.000000,0.000000,0.000000 Head:0.000000,0.000000,0.000000,0.000000 HipLeft:0.104826,-0.684083,0.703519,-0.161563 HipRight:-0.113072,0.679406,0.706709,-0.161813 KneeLeft:0.008524,-0.704068,0.056016,0.707868 KneeRight:-0.037202,0.708894,0.048955,0.702630 Neck:-0.061212,0.014511,0.994616,-0.082355 ShoulderLeft:0.041372,0.763245,-0.644128,0.029043 ShoulderRight:-0.039212,0.782666,0.609285,-0.121114 SpineBase:-0.004071,0.006043,0.999058,-0.042784 SpineMid:-0.032518,0.007259,0.998537,-0.042594 SpineShoulder:-0.061255,0.012348,0.996151,-0.061463 ThumbLeft:0.000000,0.000000,0.000000,0.000000 ThumbRight:0.000000,0.000000,0.000000,0.000000 WristLeft:-0.107238,0.766886,-0.095249,0.625551 WristRight:-0.251765,0.219422,-0.462375,0.821388 END:
KINECT_DATA POSITION:9.098160,-0.755023,-4.555809 HEAD_JOINT1:0.975542,0.215338,-0.000000,0.044136 LARM_JOINT2:0.807531,0.000000,-0.012612,-0.589690 LARM_JOINT3:0.968198,0.000000,-0.186480,-0.166786 LLEG_JOINT2:0.998575,0.026066,0.000000,0.046578 LLEG_JOINT4:0.995900,0.090108,0.000000,-0.007963 RARM_JOINT2:0.846151,0.000000,0.443004,0.296270 RARM_JOINT3:0.995550,0.000000,0.091618,-0.022053 RLEG_JOINT2:0.998049,0.013157,0.000000,-0.061041 RLEG_JOINT4:0.993018,0.104392,0.000000,0.054927 WAIST:0.999795,0.000000,0.020221,-0.000235 WAIST_JOINT0:0.995870,-0.000000,0.085660,0.030082 WAIST_JOINT1:0.997227,0.072330,-0.000000,0.017508 END:
KINECT_DATA_Sensor  AnkleLeft:0.069012,0.761325,-0.100697,-0.636775 AnkleRight:0.082599,0.755800,0.083444,0.644190 ElbowLeft:-0.016745,0.878654,-0.180456,-0.441726 ElbowRight:-0.436487,0.777280,-0.006637,0.453069 FootLeft:0.000000,0.000000,0.000000,0.000000 FootRight:0.000000,0.000000,0.000000,0.000000 HandLeft:-0.073316,0.813003,0.002394,0.577620 HandRight:-0.245798,0.189994,-0.390000,0.866825 HandTipLeft:0.000000,0.000000,0.000000,0.000000 HandTipRight:0.000000,0.000000,0.000000,0.000000 Head:0.000000,0.000000,0.000000,0.000000 HipLeft:0.090331,-0.682588,0.708434,-0.155034 HipRight:-0.120000,0.678495,0.704074,-0.171827 KneeLeft:0.013206,-0.692945,0.051506,0.719027 KneeRight:-0.035082,0.719808,0.051935,0.691339 Neck:-0.088847,0.022914,0.991913,-0.087690 ShoulderLeft:0.055936,0.755718,-0.652255,0.018048 ShoulderRight:-0.062020,0.783592,0.599525,-0.150690 SpineBase:-0.019595,0.011296,0.998625,-0.047292 SpineMid:-0.054030,0.012921,0.997355,-0.046874 SpineShoulder:-0.088862,0.020091,0.993642,-0.066144 ThumbLeft:0.000000,0.000000,0.000000,0.000000 ThumbRight:0.000000,0.000000,0.000000,0.000000 WristLeft:-0.107705,0.812683,-0.086981,0.566021 WristRight:-0.246072,0.195647,-0.424084,0.849308 END:
KINECT_DATA POSITION:9.189001,-0.761726,-4.730606 HEAD_JOINT1:0.974455,0.220453,-0.000000,0.042862 LARM_JOINT2:0.807706,0.000000,-0.012981,-0.589442 LARM_JOINT3:0.967150,0.000000,-0.196891,-0.160796 LLEG_JOINT2:0.998785,0.023476,0.000000,0.043328 LLEG_JOINT4:0.996062,0.088643,0.000000,-0.001816 RARM_JOINT2:0.849293,0.000000,0.443912,0.285733 RARM_JOINT3:0.997967,0.000000,0.051463,-0.037604 RLEG_JOINT2:0.997874,0.013613,0.000000,-0.063727 RLEG_JOINT4:0.993050,0.103139,0.000000,0.056690 WAIST:0.999676,-0.000000,0.025335,0.002258 WAIST_JOINT0:0.995348,-0.000000,0.090529,0.032956 WAIST_JOINT1:0.997101,0.073952,-0.000000,0.017897 END:
KINECT_DATA_Sensor  AnkleLeft:-0.048052,-0.660965,0.110008,0.740753 AnkleRight:0.076652,0.712598,0.087709,0.691835 ElbowLeft:-0.016354,0.874956,-0.183857,-0.447639 ElbowRight:-0.441919,0.762369,-0.020867,0.472298 FootLeft:0.000000,0.000000,0.000000,0.000000 FootRight:0.000000,0.000000,0.000000,0.000000 HandLeft:-0.093385,0.677129,-0.059053,0.727522 HandRight:-0.309843,0.132551,-0.388240,0.857728 HandTipLeft:0.000000,0.000000,0.000000,0.000000 HandTipRight:0.000000,0.000000,0.000000,0.000000 Head:0.000000,0.000000,0.000000,0.000000 HipLeft:0.085754,-0.680914,0.710626,-0.154962 HipRight:-0.122669,0.679038,0.701909,-0.176589 KneeLeft:0.014346,-0.689268,0.049198,0.722692 KneeRight:-0.035223,0.723304,0.052176,0.687654 Neck:-0.094450,0.025571,0.991201,-0.089141 ShoulderLeft:0.060468,0.752505,-0.655615,0.015764 ShoulderRight:-0.065219,0.783788,0.597486,-0.156311 SpineBase:-0.024744,0.014383,0.998343,-0.049922 SpineMid:-0.059352,0.016106,0.996884,-0.049393 SpineShoulder:-0.094438,0.022670,0.992968,-0.067699 ThumbLeft:0.000000,0.000000,0.000000,0.000000 ThumbRight:0.000000,0.000000,0.000000,0.000000 WristLeft:-0.079852,0.678409,-0.109866,0.722021 WristRight:-0.251893,0.164698,-0.411994,0.860050 END:
KINECT_DATA POSITION:9.258319,-0.756215,-4.774165 HEAD_JOINT1:0.973851,0.222629,-0.000000,0.045285 LARM_JOINT2:0.808899,0.000000,-0.015234,-0.587750 LARM_JOINT3:0.964458,0.000000,-0.201368,-0.171089 LLEG_JOINT2:0.998835,0.023350,0.000000,0.042236 LLEG_JOINT4:0.996149,0.087470,0.000000,-0.005997 RARM_JOINT2:0.861850,0.000000,0.429015,0.270482 RARM_JOINT3:0.997788,0.000000,0.056499,-0.035019 RLEG_JOINT2:0.997846,0.013566,0.000000,-0.064185 RLEG_JOINT4:0.993250,0.101992,0.000000,0.055254 WAIST:0.999689,-0.000000,0.024738,0.003250 WAIST_JOINT0:0.995591,-0.000000,0.087937,0.032642 WAIST_JOINT1:0.997089,0.074391,-0.000000,0.016732 END:
KINECT_DATA_Sensor  AnkleLeft:0.064278,0.757650,-0.098141,-0.642030 AnkleRight:0.074132,0.703853,0.088331,0.700923 ElbowLeft:-0.017828,0.876844,-0.184951,-0.443419 ElbowRight:-0.452875,0.763682,0.009273,0.460009 FootLeft:0.000000,0.000000,0.000000,0.000000 FootRight:0.000000,0.000000,0.000000,0.000000 HandLeft:-0.138340,0.775876,-0.025724,0.614993 HandRight:-0.317991,0.138758,-0.399277,0.848649 HandTipLeft:0.000000,0.000000,0.000000,0.000000 HandTipRight:0.000000,0.000000,0.000000,0.000000 Head:0.000000,0.000000,0.000000,0.000000 HipLeft:0.085849,-0.680229,0.710955,-0.156401 HipRight:-0.122386,0.679882,0.701015,-0.177088 KneeLeft:0.014414,-0.689682,0.049013,0.722307 KneeRight:-0.034855,0.722913,0.051778,0.688114 Neck:-0.092070,0.025119,0.991403,-0.089509 ShoulderLeft:0.059583,0.752213,-0.655980,0.017754 ShoulderRight:-0.062950,0.783798,0.598170,-0.154565 SpineBase:-0.024188,0.015397,0.998303,-0.050689 SpineMid:-0.057839,0.017097,0.996919,-0.050141 SpineShoulder:-0.092035,0.022483,0.993164,-0.068180 ThumbLeft:0.000000,0.000000,0.000000,0.000000 ThumbRight:0.000000,0.000000,0.000000,0.000000 WristLeft:-0.098074,0.787132,-0.095400,0.601418 WristRight:-0.275567,0.160357,-0.400922,0.858842 END:
KINECT_DATA POSITION:9.299513,-0.778394,-4.757154 HEAD_JOINT1:0.973375,0.223410,-0.000000,0.051268 LARM_JOINT2:0.810652,0.000000,-0.017762,-0.585259 LARM_JOINT3:0.963039,0.000000,-0.206035,-0.173510 LLEG_JOINT2:0.998863,0.023831,0.000000,0.041292 LLEG_JOINT4:0.996145,0.087306,0.000000,-0.008494 RARM_JOINT2:0.876935,0.000000,0.382612,0.290848 RARM_JOINT3:0.989624,0.000000,0.114588,-0.086688 RLEG_JOINT2:0.997889,0.012889,0.000000,-0.063653 RLEG_JOINT4:0.993446,0.101203,0.000000,0.053132 WAIST:0.999782,-0.000000,0.020575,0.003492 WAIST_JOINT0:0.996395,-0.000000,0.078748,0.031552 WAIST_JOINT1:0.997161,0.073872,-0.000000,0.014601 END:
KINECT_DATA_Sensor  AnkleLeft:-0.052470,-0.667011,0.104121,0.735869 AnkleRight:0.079003,0.752728,0.082112,0.648395 ElbowLeft:-0.019774,0.882668,-0.184933,-0.431632 ElbowRight:-0.434422,0.711418,0.008897,0.552342 FootLeft:0.000000,0.000000,0.000000,0.000000 FootRight:0.000000,0.000000,0.000000,0.000000 HandLeft:-0.129024,0.628824,-0.067656,0.763777 HandRight:-0.328974,0.036509,-0.429198,0.840376 HandTipLeft:0.000000,0.000000,0.000000,0.000000 HandTipRight:0.000000,0.000000,0.000000,0.000000 Head:0.000000,0.000000,0.000000,0.000000 HipLeft:0.089001,-0.679843,0.710359,-0.159003 HipRight:-0.120658,0.680780,0.700857,-0.175441 KneeLeft:0.013782,-0.692650,0.048782,0.719490 KneeRight:-0.034544,0.720078,0.050905,0.691161 Neck:-0.082859,0.022430,0.992359,-0.088627 ShoulderLeft:0.053684,0.753672,-0.654612,0.024078 ShoulderRight:-0.056365,0.785207,0.598927,-0.146829 SpineBase:-0.020084,0.015108,0.998411,-0.050436 SpineMid:-0.051133,0.016669,0.997303,-0.049941 SpineShoulder:-0.082759,0.020727,0.994036,-0.067924 ThumbLeft:0.000000,0.000000,0.000000,0.000000 ThumbRight:0.000000,0.000000,0.000000,0.000000 WristLeft:-0.084408,0.633250,-0.113505,0.760912 WristRight:-0.249549,0.085816,-0.467157,0.843875 END:
KINECT_DATA POSITION:9.330098,-0.787402,-4.728556 HEAD_JOINT1:0.973008,0.224272,-0.000000,0.054392 LARM_JOINT2:0.811824,0.000000,-0.015441,-0.583698 LARM_JOINT3:0.965279,0.000000,-0.194520,-0.174354 LLEG_JOINT2:0.998933,0.022620,0.000000,0.040255 LLEG_JOINT4:0.995561,0.093854,0.000000,-0.007028 RARM_JOINT2:0.886964,0.000000,0.366912,0.280483 RARM_JOINT3:0.991022,0.000000,0.107068,-0.080077 RLEG_JOINT2:0.997830,0.012385,0.000000,-0.064664 RLEG_JOINT4:0.993404,0.102309,0.000000,0.051788 WAIST:0.999821,-0.000000,0.018479,0.004131 WAIST_JOINT0:0.996766,-0.000000,0.074442,0.030271 WAIST_JOINT1:0.997194,0.073631,-0.000000,0.013523 END:
KINECT_DATA_Sensor  AnkleLeft:0.069075,0.758696,-0.100535,-0.639923 AnkleRight:0.078373,0.750619,0.083688,0.650711 ElbowLeft:-0.018608,0.884878,-0.187031,-0.426221 ElbowRight:-0.442804,0.682507,0.012615,0.581334 FootLeft:0.000000,0.000000,0.000000,0.000000 FootRight:0.000000,0.000000,0.000000,0.000000 HandLeft:-0.090991,0.574360,-0.047097,0.812166 HandRight:-0.318707,0.001295,-0.418654,0.850384 HandTipLeft:0.000000,0.000000,0.000000,0.000000 HandTipRight:0.000000,0.000000,0.000000,0.000000 Head:0.000000,0.000000,0.000000,0.000000 HipLeft:0.090625,-0.679209,0.710527,-0.160040 HipRight:-0.119670,0.681555,0.700583,-0.174200 KneeLeft:0.014489,-0.694119,0.047624,0.718137 KneeRight:-0.035058,0.718636,0.050870,0.692637 Neck:-0.078312,0.021848,0.992769,-0.088314 ShoulderLeft:0.050281,0.754523,-0.653768,0.027450 ShoulderRight:-0.053788,0.784812,0.600509,-0.143405 SpineBase:-0.018058,0.015227,0.998465,-0.050090 SpineMid:-0.047836,0.016714,0.997482,-0.049613 SpineShoulder:-0.078201,0.020277,0.994427,-0.067738 ThumbLeft:0.000000,0.000000,0.000000,0.000000 ThumbRight:0.000000,0.000000,0.000000,0.000000 WristLeft:-0.074417,0.576535,-0.116647,0.805272 WristRight:-0.264871,0.040448,-0.463823,0.844438 END:
KINECT_DATA POSITION:9.332252,-0.792323,-4.725862 HEAD_JOINT1:0.972352,0.226325,-0.000000,0.057523 LARM_JOINT2:0.812371,0.000000,-0.015801,-0.582926 LARM_JOINT3:0.963739,0.000000,-0.200697,-0.175861 LLEG_JOINT2:0.998929,0.023393,0.000000,0.039911 LLEG_JOINT4:0.995632,0.092984,0.000000,-0.008456 RARM_JOINT2:0.888192,0.000000,0.362127,0.282807 RARM_JOINT3:0.992419,0.000000,0.103899,-0.065642 RLEG_JOINT2:0.997766,0.012502,0.000000,-0.065626 RLEG_JOINT4:0.993101,0.104040,0.000000,0.054101 WAIST:0.999833,-0.000000,0.017690,0.004591 WAIST_JOINT0:0.996878,-0.000000,0.072939,0.030242 WAIST_JOINT1:0.997209,0.073480,-0.000000,0.013250 END:
KINECT_DATA_Sensor  AnkleLeft:0.070463,0.764023,-0.098962,-0.633648 AnkleRight:0.080965,0.749389,0.083579,0.651825 ElbowLeft:-0.018894,0.886741,-0.187907,-0.421930 ElbowRight:-0.440424,0.684155,0.018576,0.581046 FootLeft:0.000000,0.000000,0.000000,0.000000 FootRight:0.000000,0.000000,0.000000,0.000000 HandLeft:-0.127797,0.733092,-0.044125,0.666556 HandRight:-0.328934,0.071201,-0.367417,0.867028 HandTipLeft:0.000000,0.000000,0.000000,0.000000 HandTipRight:0.000000,0.000000,0.000000,0.000000 Head:0.000000,0.000000,0.000000,0.000000 HipLeft:0.091121,-0.678904,0.710659,-0.160470 HipRight:-0.119138,0.682088,0.700273,-0.173723 KneeLeft:0.014054,-0.694650,0.048227,0.717592 KneeRight:-0.035299,0.718104,0.051331,0.693142 Neck:-0.076675,0.022106,0.992915,-0.088051 ShoulderLeft:0.048764,0.754580,-0.653756,0.028871 ShoulderRight:-0.053222,0.784778,0.600860,-0.142330 SpineBase:-0.017310,0.015392,0.998478,-0.050045 SpineMid:-0.046649,0.016856,0.997538,-0.049571 SpineShoulder:-0.076569,0.020420,0.994560,-0.067608 ThumbLeft:0.000000,0.000000,0.000000,0.000000 ThumbRight:0.000000,0.000000,0.000000,0.000000 WristLeft:-0.096978,0.741137,-0.096150,0.657318 WristRight:-0.301575,0.102562,-0.432624,0.843428 END:
KINECT_DATA POSITION:9.321443,-0.798830,-4.688740 HEAD_JOINT1:0.971875,0.227709,-0.000000,0.060064 LARM_JOINT2:0.813578,0.000000,-0.014738,-0.581269 LARM_JOINT3:0.965863,0.000000,-0.192762,-0.173064 LLEG_JOINT2:0.998940,0.023301,0.000000,0.039709 LLEG_JOINT4:0.995688,0.091994,0.000000,-0.011921 RARM_JOINT2:0.889560,0.000000,0.364417,0.275468 RARM_JOINT3:0.994696,0.000000,0.084040,-0.059301 RLEG_JOINT2:0.997730,0.012430,0.000000,-0.066191 RLEG_JOINT4:0.993152,0.104287,0.000000,0.052665 WAIST:0.999837,-0.000000,0.017344,0.005088 WAIST_JOINT0:0.996877,-0.000000,0.072589,0.031091 WAIST_JOINT1:0.997178,0.073853,-0.000000,0.013494 END:
KINECT_DATA_Sensor  AnkleLeft:0.066484,0.730907,-0.099349,-0.671927 AnkleRight:0.073305,0.696494,0.090711,0.708021 ElbowLeft:-0.018878,0.886694,-0.190916,-0.420677 ElbowRight:-0.445688,0.691647,0.025844,0.567731 FootLeft:0.000000,0.000000,0.000000,0.000000 FootRight:0.000000,0.000000,0.000000,0.000000 HandLeft:-0.088844,0.766648,-0.031882,0.635091 HandRight:-0.345960,0.051284,-0.376522,0.857854 HandTipLeft:0.000000,0.000000,0.000000,0.000000 HandTipRight:0.000000,0.000000,0.000000,0.000000 Head:0.000000,0.000000,0.000000,0.000000 HipLeft:0.091047,-0.678491,0.710934,-0.161037 HipRight:-0.118831,0.682510,0.699940,-0.173621 KneeLeft:0.014345,-0.694891,0.048365,0.717343 KneeRight:-0.035387,0.717850,0.051332,0.693400 Neck:-0.076408,0.022976,0.992887,-0.088364 ShoulderLeft:0.047844,0.753351,-0.655170,0.030424 ShoulderRight:-0.054049,0.784408,0.601070,-0.143173 SpineBase:-0.016976,0.016079,0.998458,-0.050355 SpineMid:-0.046342,0.017553,0.997526,-0.049860 SpineShoulder:-0.076298,0.021175,0.994542,-0.067940 ThumbLeft:0.000000,0.000000,0.000000,0.000000 ThumbRight:0.000000,0.000000,0.000000,0.000000 WristLeft:-0.099206,0.767774,-0.092870,0.626144 WristRight:-0.300323,0.083593,-0.415379,0.854564 END:
KINECT_DATA POSITION:9.238855,-0.828245,-4.480267 HEAD_JOINT1:0.972708,0.225003,-0.000000,0.056684 LARM_JOINT2:0.815856,0.000000,-0.012183,-0.578127 LARM_JOINT3:0.959725,0.000000,-0.214777,-0.181103 LLEG_JOINT2:0.998606,0.030620,0.000000,0.043002 LLEG_JOINT4:0.996325,0.085163,0.000000,-0.009158 RARM_JOINT2:0.894709,0.000000,0.128738,0.427695 RARM_JOINT3:0.817515,0.000000,0.539647,-0.201120 RLEG_JOINT2:0.997969,0.009565,0.000000,-0.062973 RLEG_JOINT4:0.992932,0.107222,0.000000,0.050894 WAIST:0.999979,-0.000000,0.006177,0.001723 WAIST_JOINT0:0.998394,-0.000000,0.050774,0.025120 WAIST_JOINT1:0.997362,0.072472,-0.000000,0.004008 END:
KINECT_DATA_Sensor  AnkleLeft:0.068410,0.766778,-0.099609,-0.630436 AnkleRight:0.079416,0.738022,0.085830,0.664568 ElbowLeft:-0.019878,0.885531,-0.182698,-0.426685 ElbowRight:-0.274415,0.638258,0.161219,0.700951 FootLeft:0.000000,0.000000,0.000000,0.000000 FootRight:0.000000,0.000000,0.000000,0.000000 HandLeft:-0.168556,0.656455,-0.050506,0.733556 HandRight:-0.263962,0.121547,-0.646687,0.705227 HandTipLeft:0.000000,0.000000,0.000000,0.000000 HandTipRight:0.000000,0.000000,0.000000,0.000000 Head:0.000000,0.000000,0.000000,0.000000 HipLeft:0.101411,-0.679858,0.706786,-0.167218 HipRight:-0.113002,0.681855,0.702681,-0.168948 KneeLeft:0.009563,-0.702819,0.053344,0.709302 KneeRight:-0.036869,0.710048,0.049839,0.701419 Neck:-0.053162,0.008128,0.994764,-0.086909 ShoulderLeft:0.042413,0.760661,-0.646622,0.038404 ShoulderRight:-0.026950,0.785612,0.607004,-0.116759 SpineBase:-0.005831,0.010008,0.998727,-0.049103 SpineMid:-0.029060,0.011147,0.998321,-0.048857 SpineShoulder:-0.053031,0.008849,0.996276,-0.067402 ThumbLeft:0.000000,0.000000,0.000000,0.000000 ThumbRight:0.000000,0.000000,0.000000,0.000000 WristLeft:-0.096290,0.663117,-0.107958,0.734404 WristRight:-0.261754,0.115436,-0.607875,0.740707 END:
KINECT_DATA POSITION:9.149960,-0.848111,-4.344904 HEAD_JOINT1:0.971159,0.231402,-0.000000,0.057472 LARM_JOINT2:0.813953,0.000000,-0.010924,-0.580829 LARM_JOINT3:0.963355,0.000000,-0.203944,-0.174225 LLEG_JOINT2:0.998261,0.035618,0.000000,0.046978 LLEG_JOINT4:0.996553,0.082130,0.000000,-0.011698 RARM_JOINT2:0.891684,0.000000,0.180190,0.415248 RARM_JOINT3:0.876821,0.000000,0.457216,-0.148788 RLEG_JOINT2:0.998245,0.008077,0.000000,-0.058674 RLEG_JOINT4:0.992565,0.110452,0.000000,0.051144 WAIST:0.999997,0.000000,-0.000384,-0.002342 WAIST_JOINT0:0.999103,-0.000000,0.038297,0.018050 WAIST_JOINT1:0.997200,0.074749,-0.000000,0.002027 END:
KINECT_DATA_Sensor  AnkleLeft:0.068980,0.758684,-0.100611,-0.639936 AnkleRight:0.081321,0.731021,0.086384,0.671962 ElbowLeft:-0.014790,0.887921,-0.175691,-0.424864 ElbowRight:-0.298574,0.668775,0.144770,0.665308 FootLeft:0.000000,0.000000,0.000000,0.000000 FootRight:0.000000,0.000000,0.000000,0.000000 HandLeft:-0.130671,0.807666,0.003303,0.574969 HandRight:-0.242683,0.129215,-0.576372,0.769548 HandTipLeft:0.000000,0.000000,0.000000,0.000000 HandTipRight:0.000000,0.000000,0.000000,0.000000 Head:0.000000,0.000000,0.000000,0.000000 HipLeft:0.105615,-0.681856,0.703292,-0.171168 HipRight:-0.106737,0.679697,0.706164,-0.167186 KneeLeft:-0.006296,0.707602,-0.056760,-0.704300 KneeRight:-0.037416,0.705436,0.048864,0.706096 Neck:-0.039769,0.002629,0.995155,-0.089883 ShoulderLeft:0.043875,0.763231,-0.643193,0.043098 ShoulderRight:-0.007602,0.780257,0.617040,-0.101998 SpineBase:0.000823,0.003974,0.998707,-0.050679 SpineMid:-0.019206,0.004989,0.998522,-0.050589 SpineShoulder:-0.039780,0.002780,0.996764,-0.069792 ThumbLeft:0.000000,0.000000,0.000000,0.000000 ThumbRight:0.000000,0.000000,0.000000,0.000000 WristLeft:-0.120072,0.815366,-0.074544,0.561431 WristRight:-0.252100,0.116756,-0.551962,0.786226 END:
KINECT_DATA POSITION:9.170805,-0.951155,-3.991544 HEAD_JOINT1:0.974806,0.212493,-0.000000,0.067828 LARM_JOINT2:0.814446,0.000000,-0.007814,-0.580187 LARM_JOINT3:0.960966,0.000000,-0.220268,-0.167410 LLEG_JOINT2:0.998347,0.034774,0.000000,0.045768 LLEG_JOINT4:0.996195,0.086359,0.000000,-0.011770 RARM_JOINT2:0.878103,0.000000,0.313828,0.361175 RARM_JOINT3:0.963430,0.000000,0.246445,-0.105199 RLEG_JOINT2:0.998251,0.009452,0.000000,-0.058355 RLEG_JOINT4:0.992636,0.110102,0.000000,0.050520 WAIST:0.999985,0.000000,-0.004871,-0.002301 WAIST_JOINT0:0.999080,-0.000000,0.037397,0.021015 WAIST_JOINT1:0.997558,0.069765,-0.000000,0.003256 END:
KINECT_DATA_Sensor  AnkleLeft:0.071999,0.761778,-0.102071,-0.635682 AnkleRight:0.082582,0.730266,0.086602,0.672601 ElbowLeft:-0.019500,0.887301,-0.176384,-0.425682 ElbowRight:-0.378873,0.692322,0.059414,0.611241 FootLeft:0.000000,0.000000,0.000000,0.000000 FootRight:0.000000,0.000000,0.000000,0.000000 HandLeft:-0.152163,0.723924,-0.074251,0.668781 HandRight:-0.275730,0.126443,-0.464063,0.832244 HandTipLeft:0.000000,0.000000,0.000000,0.000000 HandTipRight:0.000000,0.000000,0.000000,0.000000 Head:0.000000,0.000000,0.000000,0.000000 HipLeft:0.110761,-0.681749,0.703151,-0.168906 HipRight:-0.106343,0.680821,0.706851,-0.159796 KneeLeft:-0.006331,0.710704,-0.055300,-0.701286 KneeRight:-0.035963,0.702401,0.049743,0.709130 Neck:-0.038899,0.005676,0.995873,-0.081805 ShoulderLeft:0.037705,0.764397,-0.642219,0.042780 ShoulderRight:-0.012782,0.785177,0.610962,-0.100292 SpineBase:0.005238,0.003922,0.998959,-0.045154 SpineMid:-0.016643,0.004910,0.998834,-0.045058 SpineShoulder:-0.039032,0.003956,0.997069,-0.065683 ThumbLeft:0.000000,0.000000,0.000000,0.000000 ThumbRight:0.000000,0.000000,0.000000,0.000000 WristLeft:-0.115677,0.731014,-0.094783,0.665772 WristRight:-0.276392,0.127642,-0.470683,0.828114 END:
KINECT_DATA POSITION:9.339001,-1.043637,-3.355813 HEAD_JOINT1:0.978526,0.196363,-0.000000,0.062672 LARM_JOINT2:0.817849,0.000000,0.001790,-0.575430 LARM_JOINT3:0.961997,0.000000,-0.216912,-0.165866 LLEG_JOINT2:0.998148,0.039994,0.000000,0.045845 LLEG_JOINT4:0.996444,0.082696,0.000000,-0.016166 RARM_JOINT2:0.884220,0.000000,0.286386,0.368968 RARM_JOINT3:0.941625,0.000000,0.322659,-0.096088 RLEG_JOINT2:0.998386,0.011086,0.000000,-0.055703 RLEG_JOINT4:0.992695,0.111744,0.000000,0.045501 WAIST:0.999967,0.000000,-0.007285,-0.003678 WAIST_JOINT0:0.999237,-0.000000,0.033346,0.020323 WAIST_JOINT1:0.998430,0.056011,-0.000000,0.000868 END:
KINECT_DATA_Sensor  AnkleLeft:0.072181,0.734908,-0.102167,-0.666530 AnkleRight:0.082697,0.727957,0.091402,0.674452 ElbowLeft:-0.028232,0.882079,-0.175384,-0.436326 ElbowRight:-0.375479,0.704557,0.089960,0.595417 FootLeft:0.000000,0.000000,0.000000,0.000000 FootRight:0.000000,0.000000,0.000000,0.000000 HandLeft:-0.128169,0.652032,-0.085331,0.742391 HandRight:-0.241939,0.181658,-0.549153,0.779036 HandTipLeft:0.000000,0.000000,0.000000,0.000000 HandTipRight:0.000000,0.000000,0.000000,0.000000 Head:0.000000,0.000000,0.000000,0.000000 HipLeft:0.118754,-0.683857,0.701200,-0.162957 HipRight:-0.110810,0.681572,0.707344,-0.151149 KneeLeft:-0.001880,0.712381,-0.058072,-0.699384 KneeRight:-0.033784,0.700866,0.050063,0.710732 Neck:-0.034389,0.000844,0.997169,-0.066862 ShoulderLeft:0.021679,0.770435,-0.635930,0.039418 ShoulderRight:-0.022698,0.790579,0.605258,-0.090180 SpineBase:0.007614,0.002554,0.999366,-0.034690 SpineMid:-0.013145,0.003274,0.999308,-0.034629 SpineShoulder:-0.034508,-0.000327,0.998021,-0.052566 ThumbLeft:0.000000,0.000000,0.000000,0.000000 ThumbRight:0.000000,0.000000,0.000000,0.000000 WristLeft:-0.107637,0.655118,-0.118535,0.738366 WristRight:-0.271528,0.146590,-0.487769,0.816618 END:
KINECT_DATA POSITION:9.489986,-1.046614,-3.219306 HEAD_JOINT1:0.980801,0.188063,-0.000000,0.051591 LARM_JOINT2:0.816553,0.000000,-0.001659,-0.577267 LARM_JOINT3:0.963270,0.000000,-0.204786,-0.173703 LLEG_JOINT2:0.998037,0.041150,0.000000,0.047214 LLEG_JOINT4:0.996041,0.088151,0.000000,-0.011512 RARM_JOINT2:0.881960,0.000000,0.261306,0.392257 RARM_JOINT3:0.872625,0.000000,0.485432,-0.053673 RLEG_JOINT2:0.998419,0.013330,0.000000,-0.054612 RLEG_JOINT4:0.992907,0.109750,0.000000,0.045729 WAIST:0.999951,0.000000,-0.008081,-0.005652 WAIST_JOINT0:0.999412,-0.000000,0.032257,0.011585 WAIST_JOINT1:0.998818,0.048587,0.000000,-0.001149 END:
KINECT_DATA_Sensor  AnkleLeft:0.078113,0.758570,-0.106869,-0.638004 AnkleRight:0.082501,0.727382,0.091960,0.675020 ElbowLeft:-0.032648,0.888184,-0.165620,-0.427356 ElbowRight:-0.344846,0.762372,0.134986,0.530705 FootLeft:0.000000,0.000000,0.000000,0.000000 FootRight:0.000000,0.000000,0.000000,0.000000 HandLeft:-0.143725,0.699289,-0.040710,0.699057 HandRight:0.123141,-0.213720,0.721837,-0.646615 HandTipLeft:0.000000,0.000000,0.000000,0.000000 HandTipRight:0.000000,0.000000,0.000000,0.000000 Head:0.000000,0.000000,0.000000,0.000000 HipLeft:0.124463,-0.686160,0.698945,-0.158649 HipRight:-0.112606,0.680751,0.708395,-0.148574 KneeLeft:-0.000691,0.713078,-0.058458,-0.698643 KneeRight:-0.032755,0.700465,0.052288,0.711014 Neck:-0.032514,-0.003386,0.997544,-0.061952 ShoulderLeft:0.016105,0.776666,-0.628811,0.033564 ShoulderRight:-0.025744,0.786854,0.611017,-0.082804 SpineBase:0.008285,-0.003886,0.999533,-0.029160 SpineMid:-0.012037,-0.003292,0.999495,-0.029233 SpineShoulder:-0.032717,-0.004729,0.998459,-0.044582 ThumbLeft:0.000000,0.000000,0.000000,0.000000 ThumbRight:0.000000,0.000000,0.000000,0.000000 WristLeft:-0.122513,0.709998,-0.106068,0.685305 WristRight:-0.151634,0.185695,-0.566072,0.788725 END:
KINECT_DATA POSITION:9.667255,-1.072317,-3.241599 HEAD_JOINT1:0.981257,0.188307,-0.000000,0.040937 LARM_JOINT2:0.812996,0.000000,0.003310,-0.582260 LARM_JOINT3:0.966275,0.000000,-0.196814,-0.166065 LLEG_JOINT2:0.997904,0.040670,0.000000,0.050344 LLEG_JOINT4:0.995969,0.088857,0.000000,-0.012232 RARM_JOINT2:0.881439,0.000000,0.335510,0.332414 RARM_JOINT3:0.763791,0.000000,0.643838,0.045776 RLEG_JOINT2:0.998469,0.017066,0.000000,-0.052615 RLEG_JOINT4:0.993285,0.105491,0.000000,0.047508 WAIST:0.999958,0.000000,0.001132,-0.009132 WAIST_JOINT0:0.998382,-0.000000,0.056757,0.003433 WAIST_JOINT1:0.999021,0.044214,-0.000000,0.001274 END:
KINECT_DATA_Sensor  AnkleLeft:0.079992,0.752750,-0.105523,-0.644852 AnkleRight:0.082453,0.740606,0.091292,0.660584 ElbowLeft:-0.029887,0.879852,-0.159215,-0.446785 ElbowRight:-0.406441,0.806961,0.145637,0.403000 FootLeft:0.000000,0.000000,0.000000,0.000000 FootRight:0.000000,0.000000,0.000000,0.000000 HandLeft:-0.106906,0.794135,-0.016448,0.598039 HandRight:-0.143700,-0.329012,0.723125,-0.590077 HandTipLeft:0.000000,0.000000,0.000000,0.000000 HandTipRight:0.000000,0.000000,0.000000,0.000000 Head:0.000000,0.000000,0.000000,0.000000 HipLeft:0.121948,-0.690644,0.697032,-0.149285 HipRight:-0.120963,0.677868,0.709190,-0.151369 KneeLeft:-0.000208,0.706793,-0.057918,-0.705046 KneeRight:-0.031590,0.706961,0.055717,0.704347 Neck:-0.056237,-0.004212,0.996698,-0.058415 ShoulderLeft:0.016809,0.781531,-0.623310,0.020276 ShoulderRight:-0.055950,0.779413,0.614689,-0.107435 SpineBase:-0.000864,-0.007299,0.999677,-0.024334 SpineMid:-0.028496,-0.006624,0.999271,-0.024527 SpineShoulder:-0.056503,-0.005809,0.997579,-0.040131 ThumbLeft:0.000000,0.000000,0.000000,0.000000 ThumbRight:0.000000,0.000000,0.000000,0.000000 WristLeft:-0.138137,0.793479,-0.092264,0.585489 WristRight:-0.074669,-0.285988,0.685274,-0.665608 END:
KINECT_DATA POSITION:9.847115,-1.093271,-3.339934 HEAD_JOINT1:0.981213,0.190469,-0.000000,0.030703 LARM_JOINT2:0.809553,0.000000,0.005312,-0.587023 LARM_JOINT3:0.967532,0.000000,-0.197577,-0.157622 LLEG_JOINT2:0.998008,0.036237,0.000000,0.051640 LLEG_JOINT4:0.995673,0.092142,0.000000,-0.012021 RARM_JOINT2:0.874317,0.000000,0.366255,0.318478 RARM_JOINT3:0.770532,0.000000,0.630882,0.090929 RLEG_JOINT2:0.998322,0.020776,0.000000,-0.054049 RLEG_JOINT4:0.993534,0.102141,0.000000,0.049572 WAIST:0.999863,0.000000,0.013621,-0.009434 WAIST_JOINT0:0.996466,-0.000000,0.083925,0.003466 WAIST_JOINT1:0.999085,0.042470,-0.000000,0.005065 END:
