EastLYD/RoboCupatHomeSim/InteractiveCleanUp/JapanOpen2016/Motion_Data/File51.dat
KINECT_DATA POSITION:-4.258159,-0.422660,-5.075955 HEAD_JOINT1:0.976007,0.184254,-0.000000,0.116023 LARM_JOINT2:0.828193,0.000000,-0.026582,-0.559812 LARM_JOINT3:0.976684,0.000000,-0.163475,-0.139159 LLEG_JOINT2:0.997276,0.029897,0.000000,0.067427 LLEG_JOINT4:0.995158,0.088853,0.000000,-0.042007 RARM_JOINT2:0.793695,0.000000,-0.058858,0.605462 RARM_JOINT3:0.970121,0.000000,0.196709,0.142026 RLEG_JOINT2:0.998975,0.013343,0.000000,-0.043244 RLEG_JOINT4:0.994055,0.102910,0.000000,0.035552 WAIST:0.999814,0.000000,-0.019079,-0.002874 WAIST_JOINT0:0.999112,0.000000,-0.041806,0.005151 WAIST_JOINT1:0.997437,0.069843,0.000000,-0.015533 END:
KINECT_DATA_Sensor  AnkleLeft:0.068417,0.727297,-0.099099,-0.675676 AnkleRight:0.077307,0.692279,0.087097,0.712171 ElbowLeft:-0.034178,0.903972,-0.173599,-0.389269 ElbowRight:0.027204,0.838458,0.187057,0.511134 FootLeft:0.000000,0.000000,0.000000,0.000000 FootRight:0.000000,0.000000,0.000000,0.000000 HandLeft:-0.079644,0.642203,-0.061349,0.759914 HandRight:0.074580,-0.678781,-0.056368,0.728366 HandTipLeft:0.000000,0.000000,0.000000,0.000000 HandTipRight:0.000000,0.000000,0.000000,0.000000 Head:0.000000,0.000000,0.000000,0.000000 HipLeft:0.129917,-0.679774,0.699462,-0.178273 HipRight:-0.109395,0.676646,0.707260,-0.173110 KneeLeft:-0.025713,0.719811,-0.066314,-0.690517 KneeRight:-0.022344,0.693697,0.042471,0.718666 Neck:0.040513,-0.020368,0.995328,-0.085246 ShoulderLeft:-0.002174,0.784034,-0.614029,0.090855 ShoulderRight:0.050922,0.788732,0.612111,-0.025095 SpineBase:0.018580,-0.015125,0.998641,-0.046276 SpineMid:0.029347,-0.015623,0.998383,-0.046110 SpineShoulder:0.040434,-0.017966,0.996921,-0.064744 ThumbLeft:0.000000,0.000000,0.000000,0.000000 ThumbRight:0.000000,0.000000,0.000000,0.000000 WristLeft:-0.054226,0.643532,-0.102962,0.756522 WristRight:0.036532,-0.680077,-0.088344,0.726881 END:
KINECT_DATA POSITION:-4.216315,-0.433315,-4.989338 HEAD_JOINT1:0.975538,0.185827,-0.000000,0.117451 LARM_JOINT2:0.828372,0.000000,-0.026432,-0.559554 LARM_JOINT3:0.977181,0.000000,-0.159330,-0.140467 LLEG_JOINT2:0.997258,0.030526,0.000000,0.067409 LLEG_JOINT4:0.995273,0.087406,0.000000,-0.042339 RARM_JOINT2:0.793433,0.000000,-0.059328,0.605759 RARM_JOINT3:0.970733,0.000000,0.194531,0.140839 RLEG_JOINT2:0.998975,0.013835,0.000000,-0.043108 RLEG_JOINT4:0.993834,0.104115,0.000000,0.038125 WAIST:0.999797,0.000000,-0.019877,-0.003377 WAIST_JOINT0:0.999098,0.000000,-0.042196,0.004778 WAIST_JOINT1:0.997463,0.069468,0.000000,-0.015562 END:
KINECT_DATA_Sensor  AnkleLeft:0.072470,0.756199,-0.094966,-0.643345 AnkleRight:0.080119,0.691504,0.086567,0.712678 ElbowLeft:-0.034614,0.903992,-0.173240,-0.389345 ElbowRight:0.027444,0.838394,0.187092,0.511214 FootLeft:0.000000,0.000000,0.000000,0.000000 FootRight:0.000000,0.000000,0.000000,0.000000 HandLeft:-0.080031,0.760662,-0.033784,0.643310 HandRight:0.040695,-0.377884,-0.073725,0.922015 HandTipLeft:0.000000,0.000000,0.000000,0.000000 HandTipRight:0.000000,0.000000,0.000000,0.000000 Head:0.000000,0.000000,0.000000,0.000000 HipLeft:0.130660,-0.680033,0.699015,-0.178499 HipRight:-0.109119,0.676463,0.707654,-0.172387 KneeLeft:-0.024959,0.720437,-0.066379,-0.689885 KneeRight:-0.022219,0.693086,0.043085,0.719223 Neck:0.040963,-0.020898,0.995332,-0.084850 ShoulderLeft:-0.002645,0.784744,-0.613117,0.090870 ShoulderRight:0.050997,0.788747,0.612112,-0.024424 SpineBase:0.019416,-0.015368,0.998639,-0.045904 SpineMid:0.029996,-0.015853,0.998377,-0.045739 SpineShoulder:0.040885,-0.018387,0.996918,-0.064386 ThumbLeft:0.000000,0.000000,0.000000,0.000000 ThumbRight:0.000000,0.000000,0.000000,0.000000 WristLeft:-0.070712,0.763849,-0.092449,0.634812 WristRight:0.002969,-0.379593,-0.095350,0.920222 END:
KINECT_DATA POSITION:-4.175205,-0.435475,-4.907846 HEAD_JOINT1:0.974820,0.188747,-0.000000,0.118745 LARM_JOINT2:0.828194,0.000000,-0.026230,-0.559828 LARM_JOINT3:0.977452,0.000000,-0.157131,-0.141058 LLEG_JOINT2:0.997271,0.030300,0.000000,0.067320 LLEG_JOINT4:0.995082,0.088524,0.000000,-0.044446 RARM_JOINT2:0.792987,0.000000,-0.060601,0.606217 RARM_JOINT3:0.970898,0.000000,0.192097,0.143024 RLEG_JOINT2:0.998970,0.014750,0.000000,-0.042906 RLEG_JOINT4:0.994217,0.101207,0.000000,0.035911 WAIST:0.999803,0.000000,-0.019581,-0.003367 WAIST_JOINT0:0.999087,0.000000,-0.042490,0.004463 WAIST_JOINT1:0.997456,0.069398,0.000000,-0.016300 END:
KINECT_DATA_Sensor  AnkleLeft:0.070491,0.727295,-0.097062,-0.675760 AnkleRight:0.082014,0.730947,0.082214,0.672482 ElbowLeft:-0.033898,0.904250,-0.172397,-0.389182 ElbowRight:0.028529,0.839314,0.187507,0.509489 FootLeft:0.000000,0.000000,0.000000,0.000000 FootRight:0.000000,0.000000,0.000000,0.000000 HandLeft:-0.076299,0.768585,-0.026456,0.634630 HandRight:0.042685,-0.379782,-0.064043,0.921869 HandTipLeft:0.000000,0.000000,0.000000,0.000000 HandTipRight:0.000000,0.000000,0.000000,0.000000 Head:0.000000,0.000000,0.000000,0.000000 HipLeft:0.130674,-0.680082,0.699037,-0.178213 HipRight:-0.109151,0.676378,0.707658,-0.172681 KneeLeft:-0.025041,0.720212,-0.066169,-0.690137 KneeRight:-0.021421,0.693328,0.043560,0.718985 Neck:0.041310,-0.021766,0.995312,-0.084701 ShoulderLeft:-0.003095,0.784884,-0.612887,0.091202 ShoulderRight:0.051033,0.788312,0.612677,-0.024229 SpineBase:0.019095,-0.015886,0.998638,-0.045893 SpineMid:0.030006,-0.016387,0.998369,-0.045716 SpineShoulder:0.041226,-0.019157,0.996893,-0.064319 ThumbLeft:0.000000,0.000000,0.000000,0.000000 ThumbRight:0.000000,0.000000,0.000000,0.000000 WristLeft:-0.071694,0.771496,-0.090592,0.625657 WristRight:0.003406,-0.381054,-0.093954,0.919760 END:
KINECT_DATA POSITION:-4.168115,-0.456198,-4.833114 HEAD_JOINT1:0.974501,0.189382,-0.000000,0.120340 LARM_JOINT2:0.828641,0.000000,-0.026766,-0.559140 LARM_JOINT3:0.962715,0.000000,-0.206915,-0.174260 LLEG_JOINT2:0.997249,0.030881,0.000000,0.067382 LLEG_JOINT4:0.995345,0.086577,0.000000,-0.042334 RARM_JOINT2:0.792406,0.000000,-0.060923,0.606945 RARM_JOINT3:0.970806,0.000000,0.192246,0.143447 RLEG_JOINT2:0.998985,0.012528,0.000000,-0.043262 RLEG_JOINT4:0.994031,0.103556,0.000000,0.034324 WAIST:0.999783,0.000000,-0.020509,-0.003714 WAIST_JOINT0:0.999048,0.000000,-0.043435,0.004159 WAIST_JOINT1:0.997453,0.069368,0.000000,-0.016580 END:
KINECT_DATA_Sensor  AnkleLeft:0.068143,0.728209,-0.097466,-0.674958 AnkleRight:0.075924,0.691634,0.088323,0.712795 ElbowLeft:-0.033410,0.907288,-0.172521,-0.382033 ElbowRight:0.029121,0.839059,0.187275,0.509961 FootLeft:0.000000,0.000000,0.000000,0.000000 FootRight:0.000000,0.000000,0.000000,0.000000 HandLeft:-0.231685,0.929895,0.068969,0.277238 HandRight:0.063621,-0.662227,-0.047028,0.745115 HandTipLeft:0.000000,0.000000,0.000000,0.000000 HandTipRight:0.000000,0.000000,0.000000,0.000000 Head:0.000000,0.000000,0.000000,0.000000 HipLeft:0.131331,-0.680203,0.698688,-0.178635 HipRight:-0.108487,0.676254,0.707993,-0.172213 KneeLeft:-0.024498,0.720899,-0.066361,-0.689421 KneeRight:-0.023480,0.692645,0.042544,0.719640 Neck:0.042279,-0.022335,0.995259,-0.084696 ShoulderLeft:-0.003313,0.785033,-0.612636,0.091592 ShoulderRight:0.052063,0.787910,0.613149,-0.023127 SpineBase:0.020031,-0.016378,0.998612,-0.045879 SpineMid:0.030952,-0.016879,0.998333,-0.045697 SpineShoulder:0.042186,-0.019716,0.996844,-0.064290 ThumbLeft:0.000000,0.000000,0.000000,0.000000 ThumbRight:0.000000,0.000000,0.000000,0.000000 WristLeft:-0.125788,0.958908,-0.035348,0.251838 WristRight:0.033936,-0.662873,-0.087036,0.742881 END:
KINECT_DATA POSITION:-4.761272,-0.546257,-4.385841 HEAD_JOINT1:0.974310,0.188686,-0.000000,0.122955 LARM_JOINT2:0.833828,0.000000,-0.028697,-0.551278 LARM_JOINT3:0.903875,0.000000,-0.336804,-0.263765 LLEG_JOINT2:0.996004,0.035346,0.000000,0.082014 LLEG_JOINT4:0.995485,0.083932,0.000000,-0.044334 RARM_JOINT2:0.788168,0.000000,-0.064587,0.612062 RARM_JOINT3:0.970610,0.000000,0.192142,0.144906 RLEG_JOINT2:0.999462,0.019974,0.000000,-0.026021 RLEG_JOINT4:0.994658,0.099792,0.000000,0.026400 WAIST:0.999739,0.000000,-0.019591,-0.011793 WAIST_JOINT0:0.998837,0.000000,-0.048135,0.002833 WAIST_JOINT1:0.997707,0.066597,0.000000,-0.012052 END:
KINECT_DATA_Sensor  AnkleLeft:0.066709,0.730971,-0.101446,-0.671520 AnkleRight:0.078717,0.688521,0.090382,0.715244 ElbowLeft:-0.041005,0.904608,-0.175365,-0.386329 ElbowRight:0.029335,0.836075,0.184491,0.515831 FootLeft:0.000000,0.000000,0.000000,0.000000 FootRight:0.000000,0.000000,0.000000,0.000000 HandLeft:-0.158183,0.786257,0.369121,-0.469603 HandRight:0.076259,-0.688983,-0.037178,0.719795 HandTipLeft:0.000000,0.000000,0.000000,0.000000 HandTipRight:0.000000,0.000000,0.000000,0.000000 Head:0.000000,0.000000,0.000000,0.000000 HipLeft:0.133291,-0.686368,0.693349,-0.174354 HipRight:-0.109958,0.670992,0.713314,-0.169889 KneeLeft:-0.026104,0.720801,-0.074086,-0.688677 KneeRight:-0.011930,0.693050,0.040945,0.719627 Neck:0.047225,-0.024957,0.995155,-0.082539 ShoulderLeft:-0.009174,0.786470,-0.610509,0.093058 ShoulderRight:0.052322,0.787543,0.613796,-0.017083 SpineBase:0.019580,-0.022498,0.998677,-0.041888 SpineMid:0.032924,-0.023056,0.998326,-0.041583 SpineShoulder:0.046881,-0.024069,0.996751,-0.060914 ThumbLeft:0.000000,0.000000,0.000000,0.000000 ThumbRight:0.000000,0.000000,0.000000,0.000000 WristLeft:-0.148808,0.824446,0.216152,-0.501421 WristRight:0.037750,-0.689740,-0.086356,0.717897 END:
KINECT_DATA POSITION:-5.367394,-0.590392,-3.999949 HEAD_JOINT1:0.974484,0.184644,-0.000000,0.127625 LARM_JOINT2:0.839711,0.000000,-0.040064,-0.541554 LARM_JOINT3:0.880063,0.000000,-0.385722,-0.276963 LLEG_JOINT2:0.994305,0.040431,0.000000,0.098609 LLEG_JOINT4:0.994565,0.087610,0.000000,-0.056251 RARM_JOINT2:0.782938,0.000000,-0.066215,0.618566 RARM_JOINT3:0.972000,0.000000,0.186493,0.142956 RLEG_JOINT2:0.999661,0.022861,0.000000,-0.012438 RLEG_JOINT4:0.994835,0.098579,0.000000,0.024199 WAIST:0.999537,0.000000,-0.023118,-0.019759 WAIST_JOINT0:0.998423,0.000000,-0.056105,0.001698 WAIST_JOINT1:0.997942,0.063433,0.000000,-0.009381 END:
KINECT_DATA_Sensor  AnkleLeft:0.080530,0.768917,-0.100836,-0.626190 AnkleRight:0.087668,0.728533,0.083438,0.674235 ElbowLeft:-0.058857,0.899559,-0.173206,-0.396648 ElbowRight:0.028832,0.832098,0.180597,0.523610 FootLeft:0.000000,0.000000,0.000000,0.000000 FootRight:0.000000,0.000000,0.000000,0.000000 HandLeft:-0.114529,0.695875,0.437027,-0.558255 HandRight:0.064548,-0.697531,-0.023272,0.713262 HandTipLeft:0.000000,0.000000,0.000000,0.000000 HandTipRight:0.000000,0.000000,0.000000,0.000000 Head:0.000000,0.000000,0.000000,0.000000 HipLeft:-0.138075,0.691347,-0.687362,0.174667 HipRight:-0.110096,0.665926,0.718641,-0.167259 KneeLeft:-0.029158,0.723760,-0.083548,-0.684355 KneeRight:-0.006002,0.690103,0.038750,0.722648 Neck:0.055098,-0.030106,0.994894,-0.079015 ShoulderLeft:-0.015897,0.787635,-0.608424,0.095908 ShoulderRight:0.055643,0.787260,0.614060,-0.007466 SpineBase:0.023555,-0.026940,0.998585,-0.039335 SpineMid:0.038759,-0.027536,0.998111,-0.038920 SpineShoulder:0.054641,-0.029380,0.996416,-0.057499 ThumbLeft:0.000000,0.000000,0.000000,0.000000 ThumbRight:0.000000,0.000000,0.000000,0.000000 WristLeft:-0.139111,0.734738,0.292386,-0.596087 WristRight:0.039823,-0.697743,-0.087399,0.709881 END:
KINECT_DATA POSITION:-5.632116,-0.616523,-3.879893 HEAD_JOINT1:0.974200,0.181683,-0.000000,0.133885 LARM_JOINT2:0.844249,0.000000,-0.049254,-0.533683 LARM_JOINT3:0.866375,0.000000,-0.408415,-0.287389 LLEG_JOINT2:0.993727,0.041773,0.000000,0.103735 LLEG_JOINT4:0.994039,0.097399,0.000000,-0.048984 RARM_JOINT2:0.779615,0.000000,-0.068482,0.622504 RARM_JOINT3:0.972749,0.000000,0.186851,0.137278 RLEG_JOINT2:0.999658,0.024725,0.000000,-0.008488 RLEG_JOINT4:0.995253,0.094982,0.000000,0.021231 WAIST:0.999414,0.000000,-0.026139,-0.022117 WAIST_JOINT0:0.997945,0.000000,-0.064072,0.000576 WAIST_JOINT1:0.998012,0.062291,0.000000,-0.009565 END:
KINECT_DATA_Sensor  AnkleLeft:0.076032,0.737711,-0.119650,-0.660064 AnkleRight:0.079767,0.679121,0.088682,0.724271 ElbowLeft:-0.071448,0.898038,-0.173459,-0.397912 ElbowRight:0.029645,0.826348,0.178501,0.533299 FootLeft:0.000000,0.000000,0.000000,0.000000 FootRight:0.000000,0.000000,0.000000,0.000000 HandLeft:-0.285582,0.850180,0.387101,-0.213986 HandRight:-0.051902,0.724328,0.027614,-0.686945 HandTipLeft:0.000000,0.000000,0.000000,0.000000 HandTipRight:0.000000,0.000000,0.000000,0.000000 Head:0.000000,0.000000,0.000000,0.000000 HipLeft:-0.140979,0.692280,-0.685378,0.176437 HipRight:-0.109467,0.664360,0.720429,-0.166207 KneeLeft:-0.030550,0.725967,-0.086281,-0.681612 KneeRight:-0.003530,0.687757,0.038806,0.724895 Neck:0.062979,-0.033341,0.994466,-0.077192 ShoulderLeft:-0.021345,0.788459,-0.606421,0.100652 ShoulderRight:0.060296,0.786543,0.614585,0.000303 SpineBase:0.026686,-0.028472,0.998485,-0.038788 SpineMid:0.044273,-0.029151,0.997860,-0.038281 SpineShoulder:0.062561,-0.031821,0.995943,-0.056313 ThumbLeft:0.000000,0.000000,0.000000,0.000000 ThumbRight:0.000000,0.000000,0.000000,0.000000 WristLeft:-0.260712,0.898703,0.235851,-0.262175 WristRight:-0.043807,0.727077,0.087436,-0.679555 END:
KINECT_DATA POSITION:-5.611314,-0.624338,-3.856480 HEAD_JOINT1:0.974158,0.178708,-0.000000,0.138125 LARM_JOINT2:0.845740,0.000000,-0.063928,-0.529752 LARM_JOINT3:0.852956,0.000000,-0.434890,-0.288681 LLEG_JOINT2:0.993821,0.041410,0.000000,0.102978 LLEG_JOINT4:0.994486,0.086572,0.000000,-0.059180 RARM_JOINT2:0.778450,0.000000,-0.069735,0.623821 RARM_JOINT3:0.972499,0.000000,0.189897,0.134854 RLEG_JOINT2:0.999654,0.024176,0.000000,-0.010362 RLEG_JOINT4:0.995247,0.094628,0.000000,0.023010 WAIST:0.999346,0.000000,-0.029042,-0.021557 WAIST_JOINT0:0.997619,0.000000,-0.068968,0.000602 WAIST_JOINT1:0.998018,0.062048,0.000000,-0.010457 END:
KINECT_DATA_Sensor  AnkleLeft:0.075400,0.744100,-0.104358,-0.655546 AnkleRight:0.079564,0.676232,0.087541,0.727129 ElbowLeft:-0.084922,0.898518,-0.169316,-0.395962 ElbowRight:0.030180,0.821005,0.177629,0.541745 FootLeft:0.000000,0.000000,0.000000,0.000000 FootRight:0.000000,0.000000,0.000000,0.000000 HandLeft:-0.237919,0.785991,0.464815,-0.330999 HandRight:-0.052851,0.731406,0.032462,-0.679115 HandTipLeft:0.000000,0.000000,0.000000,0.000000 HandTipRight:0.000000,0.000000,0.000000,0.000000 Head:0.000000,0.000000,0.000000,0.000000 HipLeft:-0.142839,0.691492,-0.685327,0.178219 HipRight:-0.108499,0.665025,0.720217,-0.165097 KneeLeft:-0.030946,0.727892,-0.085756,-0.679604 KneeRight:-0.004748,0.685686,0.039362,0.726817 Neck:0.067734,-0.033900,0.994168,-0.076766 ShoulderLeft:-0.023208,0.787996,-0.606534,0.103151 ShoulderRight:0.064527,0.785908,0.614944,0.005338 SpineBase:0.029557,-0.027980,0.998421,-0.038719 SpineMid:0.048122,-0.028695,0.997699,-0.038192 SpineShoulder:0.067355,-0.031997,0.995636,-0.056104 ThumbLeft:0.000000,0.000000,0.000000,0.000000 ThumbRight:0.000000,0.000000,0.000000,0.000000 WristLeft:-0.236077,0.840769,0.297338,-0.385960 WristRight:-0.044815,0.733735,0.089250,-0.672055 END:
KINECT_DATA POSITION:-5.495614,-0.588729,-3.988385 HEAD_JOINT1:0.974711,0.174625,-0.000000,0.139440 LARM_JOINT2:0.846873,0.000000,-0.068492,-0.527367 LARM_JOINT3:0.838321,0.000000,-0.460155,-0.292361 LLEG_JOINT2:0.994173,0.041919,0.000000,0.099312 LLEG_JOINT4:0.994754,0.084844,0.000000,-0.057153 RARM_JOINT2:0.778664,0.000000,-0.068734,0.623665 RARM_JOINT3:0.971780,0.000000,0.194121,0.134016 RLEG_JOINT2:0.999611,0.023055,0.000000,-0.015714 RLEG_JOINT4:0.995110,0.095669,0.000000,0.024568 WAIST:0.999208,0.000000,-0.034829,-0.019219 WAIST_JOINT0:0.997406,0.000000,-0.071985,0.000020 WAIST_JOINT1:0.997966,0.062414,0.000000,-0.012938 END:
KINECT_DATA_Sensor  AnkleLeft:0.074506,0.754878,-0.103643,-0.643324 AnkleRight:0.079320,0.674574,0.087746,0.728670 ElbowLeft:-0.092612,0.894677,-0.167487,-0.403639 ElbowRight:0.029904,0.815913,0.177754,0.549359 FootLeft:0.000000,0.000000,0.000000,0.000000 FootRight:0.000000,0.000000,0.000000,0.000000 HandLeft:-0.476478,0.813696,0.278053,0.183178 HandRight:-0.057894,0.729991,0.040136,-0.679817 HandTipLeft:0.000000,0.000000,0.000000,0.000000 HandTipRight:0.000000,0.000000,0.000000,0.000000 Head:0.000000,0.000000,0.000000,0.000000 HipLeft:-0.145771,0.689179,-0.685963,0.182311 HipRight:-0.105026,0.667341,0.718998,-0.163300 KneeLeft:-0.030154,0.731746,-0.084993,-0.675585 KneeRight:-0.007416,0.681614,0.040800,0.730536 Neck:0.070637,-0.033899,0.993939,-0.077117 ShoulderLeft:-0.023710,0.787350,-0.606997,0.105228 ShoulderRight:0.067823,0.784901,0.615849,0.007815 SpineBase:0.035197,-0.026945,0.998223,-0.039834 SpineMid:0.052476,-0.027631,0.997464,-0.039361 SpineShoulder:0.070321,-0.031501,0.995409,-0.056782 ThumbLeft:0.000000,0.000000,0.000000,0.000000 ThumbRight:0.000000,0.000000,0.000000,0.000000 WristLeft:-0.383169,0.905625,0.133603,0.123184 WristRight:-0.044888,0.732578,0.092599,-0.672860 END:
KINECT_DATA POSITION:-5.245183,-0.500064,-4.240179 HEAD_JOINT1:0.975511,0.167924,-0.000000,0.142053 LARM_JOINT2:0.851292,0.000000,-0.093830,-0.516234 LARM_JOINT3:0.823035,0.000000,-0.482669,-0.299406 LLEG_JOINT2:0.995191,0.039569,0.000000,0.089608 LLEG_JOINT4:0.994282,0.090980,0.000000,-0.055913 RARM_JOINT2:0.779458,0.000000,-0.066086,0.622959 RARM_JOINT3:0.972743,0.000000,0.189595,0.133509 RLEG_JOINT2:0.999436,0.019924,0.000000,-0.027044 RLEG_JOINT4:0.994422,0.101313,0.000000,0.029345 WAIST:0.999133,0.000000,-0.039683,-0.012615 WAIST_JOINT0:0.997344,0.000000,-0.072800,0.002450 WAIST_JOINT1:0.997806,0.063543,0.000000,-0.018604 END:
KINECT_DATA_Sensor  AnkleLeft:0.075765,0.742583,-0.107105,-0.656778 AnkleRight:0.090401,0.741422,0.080339,0.660050 ElbowLeft:-0.115213,0.898749,-0.166028,-0.389117 ElbowRight:0.028981,0.810721,0.177680,0.557065 FootLeft:0.000000,0.000000,0.000000,0.000000 FootRight:0.000000,0.000000,0.000000,0.000000 HandLeft:-0.151611,0.707086,0.581659,-0.372448 HandRight:0.033437,-0.354011,-0.036379,0.933935 HandTipLeft:0.000000,0.000000,0.000000,0.000000 HandTipRight:0.000000,0.000000,0.000000,0.000000 Head:0.000000,0.000000,0.000000,0.000000 HipLeft:0.148290,-0.683748,0.689742,-0.186427 HipRight:-0.101734,0.672020,0.715260,-0.162610 KneeLeft:-0.029810,0.734582,-0.081088,-0.672997 KneeRight:-0.012580,0.678466,0.042313,0.733304 Neck:0.070925,-0.032940,0.993854,-0.078345 ShoulderLeft:-0.015463,0.786445,-0.609086,0.101385 ShoulderRight:0.076482,0.783620,0.616393,0.012247 SpineBase:0.039578,-0.025044,0.998045,-0.041379 SpineMid:0.054920,-0.025678,0.997319,-0.040989 SpineShoulder:0.070713,-0.029842,0.995334,-0.058473 ThumbLeft:0.000000,0.000000,0.000000,0.000000 ThumbRight:0.000000,0.000000,0.000000,0.000000 WristLeft:-0.225343,0.783567,0.365105,-0.449379 WristRight:-0.003690,-0.352990,-0.105638,0.929637 END:
KINECT_DATA POSITION:-5.111921,-0.423871,-4.412556 HEAD_JOINT1:0.975353,0.166068,-0.000000,0.145285 LARM_JOINT2:0.848683,0.000000,-0.092947,-0.520670 LARM_JOINT3:0.822460,0.000000,-0.483868,-0.299052 LLEG_JOINT2:0.995585,0.038415,0.000000,0.085648 LLEG_JOINT4:0.994610,0.089982,0.000000,-0.051521 RARM_JOINT2:0.779508,0.000000,-0.064633,0.623049 RARM_JOINT3:0.972217,0.000000,0.192391,0.133344 RLEG_JOINT2:0.999333,0.017455,0.000000,-0.032073 RLEG_JOINT4:0.994555,0.099126,0.000000,0.032150 WAIST:0.998931,0.000000,-0.045065,-0.010315 WAIST_JOINT0:0.996744,0.000000,-0.080625,0.000746 WAIST_JOINT1:0.997734,0.063984,0.000000,-0.020792 END:
KINECT_DATA_Sensor  AnkleLeft:0.071913,0.747294,-0.107824,-0.651732 AnkleRight:0.084401,0.714291,0.080078,0.690110 ElbowLeft:-0.112910,0.900157,-0.161621,-0.388391 ElbowRight:0.029759,0.809154,0.177095,0.559484 FootLeft:0.000000,0.000000,0.000000,0.000000 FootRight:0.000000,0.000000,0.000000,0.000000 HandLeft:-0.505716,0.769685,0.310068,0.235996 HandRight:-0.051969,0.733859,0.029857,-0.676652 HandTipLeft:0.000000,0.000000,0.000000,0.000000 HandTipRight:0.000000,0.000000,0.000000,0.000000 Head:0.000000,0.000000,0.000000,0.000000 HipLeft:0.151815,-0.681503,0.690267,-0.189836 HipRight:-0.098549,0.674294,0.714039,-0.160510 KneeLeft:-0.029799,0.738043,-0.078963,-0.669455 KneeRight:-0.015978,0.674663,0.042760,0.736713 Neck:0.078857,-0.032838,0.993214,-0.078931 ShoulderLeft:-0.022582,0.786110,-0.607867,0.109629 ShoulderRight:0.079510,0.783049,0.616637,0.016439 SpineBase:0.044765,-0.024682,0.997817,-0.041802 SpineMid:0.061489,-0.025380,0.996927,-0.041382 SpineShoulder:0.078688,-0.029503,0.994713,-0.059022 ThumbLeft:0.000000,0.000000,0.000000,0.000000 ThumbRight:0.000000,0.000000,0.000000,0.000000 WristLeft:-0.413649,0.884309,0.145444,0.160432 WristRight:-0.044766,0.736584,0.095790,-0.668030 END:
KINECT_DATA POSITION:-5.059850,-0.322222,-4.606473 HEAD_JOINT1:0.974998,0.165256,-0.000000,0.148557 LARM_JOINT2:0.847457,0.000000,-0.094671,-0.522355 LARM_JOINT3:0.812348,0.000000,-0.492845,-0.311761 LLEG_JOINT2:0.995979,0.036894,0.000000,0.081643 LLEG_JOINT4:0.994493,0.092580,0.000000,-0.049118 RARM_JOINT2:0.778687,0.000000,-0.064184,0.624120 RARM_JOINT3:0.972322,0.000000,0.191376,0.134033 RLEG_JOINT2:0.999247,0.015843,0.000000,-0.035414 RLEG_JOINT4:0.994337,0.101557,0.000000,0.031304 WAIST:0.998751,0.000000,-0.049316,-0.007969 WAIST_JOINT0:0.996306,0.000000,-0.085876,-0.000196 WAIST_JOINT1:0.997686,0.063804,0.000000,-0.023480 END:
KINECT_DATA_Sensor  AnkleLeft:0.072152,0.752345,-0.109183,-0.645639 AnkleRight:0.085253,0.719235,0.080721,0.684775 ElbowLeft:-0.113472,0.902264,-0.158265,-0.384703 ElbowRight:0.030618,0.807273,0.175869,0.562532 FootLeft:0.000000,0.000000,0.000000,0.000000 FootRight:0.000000,0.000000,0.000000,0.000000 HandLeft:-0.515768,0.744696,0.309901,0.288744 HandRight:-0.053595,0.711308,0.027721,-0.700286 HandTipLeft:0.000000,0.000000,0.000000,0.000000 HandTipRight:0.000000,0.000000,0.000000,0.000000 Head:0.000000,0.000000,0.000000,0.000000 HipLeft:0.154866,-0.679430,0.691024,-0.192035 HipRight:-0.095828,0.676362,0.712832,-0.158813 KneeLeft:-0.029903,0.740711,-0.076627,-0.666769 KneeRight:-0.017599,0.671699,0.042539,0.739392 Neck:0.084150,-0.033008,0.992775,-0.078913 ShoulderLeft:-0.026945,0.785615,-0.607459,0.114356 ShoulderRight:0.081944,0.782241,0.617241,0.019943 SpineBase:0.048791,-0.024994,0.997615,-0.041945 SpineMid:0.066142,-0.025720,0.996615,-0.041503 SpineShoulder:0.083989,-0.029656,0.994276,-0.059013 ThumbLeft:0.000000,0.000000,0.000000,0.000000 ThumbRight:0.000000,0.000000,0.000000,0.000000 WristLeft:-0.435475,0.864164,0.141723,0.208558 WristRight:-0.041336,0.715389,0.096744,-0.690761 END:
KINECT_DATA POSITION:-5.033265,-0.276124,-4.686618 HEAD_JOINT1:0.974569,0.166912,-0.000000,0.149516 LARM_JOINT2:0.847446,0.000000,-0.095706,-0.522183 LARM_JOINT3:0.807630,0.000000,-0.497783,-0.316143 LLEG_JOINT2:0.996135,0.037007,0.000000,0.079656 LLEG_JOINT4:0.994629,0.090911,0.000000,-0.049482 RARM_JOINT2:0.778571,0.000000,-0.063328,0.624353 RARM_JOINT3:0.972229,0.000000,0.191425,0.134639 RLEG_JOINT2:0.999210,0.014889,0.000000,-0.036852 RLEG_JOINT4:0.994279,0.102221,0.000000,0.030971 WAIST:0.998641,0.000000,-0.051653,-0.006905 WAIST_JOINT0:0.996143,0.000000,-0.087748,-0.000451 WAIST_JOINT1:0.997657,0.063802,0.000000,-0.024702 END:
KINECT_DATA_Sensor  AnkleLeft:0.071258,0.751044,-0.107720,-0.647497 AnkleRight:0.084212,0.712533,0.081556,0.691775 ElbowLeft:-0.114146,0.904031,-0.157711,-0.380561 ElbowRight:0.030730,0.806879,0.175414,0.563233 FootLeft:0.000000,0.000000,0.000000,0.000000 FootRight:0.000000,0.000000,0.000000,0.000000 HandLeft:-0.599199,0.400126,-0.075269,0.689343 HandRight:-0.056607,0.726425,0.026746,-0.684389 HandTipLeft:0.000000,0.000000,0.000000,0.000000 HandTipRight:0.000000,0.000000,0.000000,0.000000 Head:0.000000,0.000000,0.000000,0.000000 HipLeft:0.156309,-0.678463,0.691329,-0.193183 HipRight:-0.094224,0.677414,0.712314,-0.157611 KneeLeft:-0.029300,0.742244,-0.076043,-0.665157 KneeRight:-0.018429,0.670048,0.042247,0.740886 Neck:0.086027,-0.033025,0.992602,-0.079057 ShoulderLeft:-0.028452,0.785403,-0.607324,0.116143 ShoulderRight:0.082854,0.782023,0.617357,0.021088 SpineBase:0.051032,-0.024993,0.997500,-0.042012 SpineMid:0.068207,-0.025713,0.996473,-0.041576 SpineShoulder:0.085873,-0.029633,0.994108,-0.059126 ThumbLeft:0.000000,0.000000,0.000000,0.000000 ThumbRight:0.000000,0.000000,0.000000,0.000000 WristLeft:-0.425145,0.480486,-0.192555,0.742501 WristRight:-0.043592,0.730440,0.095772,-0.674822 END:
KINECT_DATA POSITION:-5.067252,-0.216879,-4.773438 HEAD_JOINT1:0.974110,0.168690,-0.000000,0.150512 LARM_JOINT2:0.847660,0.000000,-0.096171,-0.521751 LARM_JOINT3:0.799236,0.000000,-0.502983,-0.328984 LLEG_JOINT2:0.996388,0.035626,0.000000,0.077080 LLEG_JOINT4:0.995020,0.090273,0.000000,-0.042271 RARM_JOINT2:0.778151,0.000000,-0.062585,0.624952 RARM_JOINT3:0.971102,0.000000,0.195993,0.136190 RLEG_JOINT2:0.999192,0.013646,0.000000,-0.037812 RLEG_JOINT4:0.994461,0.100635,0.000000,0.030339 WAIST:0.998574,0.000000,-0.053101,-0.005541 WAIST_JOINT0:0.995982,0.000000,-0.089548,-0.001130 WAIST_JOINT1:0.997591,0.064103,0.000000,-0.026503 END:
KINECT_DATA_Sensor  AnkleLeft:0.065525,0.752819,-0.110521,-0.645566 AnkleRight:0.082295,0.714365,0.079642,0.690338 ElbowLeft:-0.113554,0.906651,-0.158119,-0.374284 ElbowRight:0.030833,0.806034,0.175054,0.564548 FootLeft:0.000000,0.000000,0.000000,0.000000 FootRight:0.000000,0.000000,0.000000,0.000000 HandLeft:-0.327395,-0.297269,-0.517530,0.732534 HandRight:-0.075536,0.731652,0.036488,-0.676497 HandTipLeft:0.000000,0.000000,0.000000,0.000000 HandTipRight:0.000000,0.000000,0.000000,0.000000 Head:0.000000,0.000000,0.000000,0.000000 HipLeft:0.157320,-0.677311,0.691986,-0.194051 HipRight:-0.092879,0.678337,0.711621,-0.157569 KneeLeft:-0.029413,0.743068,-0.074195,-0.664440 KneeRight:-0.018973,0.669129,0.041190,0.741762 Neck:0.087919,-0.033380,0.992393,-0.079451 ShoulderLeft:-0.030703,0.785366,-0.606748,0.118802 ShoulderRight:0.083069,0.781714,0.617711,0.021360 SpineBase:0.052325,-0.025538,0.997397,-0.042535 SpineMid:0.069787,-0.026279,0.996327,-0.042081 SpineShoulder:0.087762,-0.030017,0.993908,-0.059527 ThumbLeft:0.000000,0.000000,0.000000,0.000000 ThumbRight:0.000000,0.000000,0.000000,0.000000 WristLeft:-0.161245,-0.218318,-0.446972,0.852381 WristRight:-0.044087,0.737426,0.095358,-0.667207 END:
KINECT_DATA POSITION:-5.098158,-0.187869,-4.792154 HEAD_JOINT1:0.973833,0.169126,-0.000000,0.151809 LARM_JOINT2:0.846792,0.000000,-0.101823,-0.522088 LARM_JOINT3:0.799609,0.000000,-0.503345,-0.327520 LLEG_JOINT2:0.996284,0.036517,0.000000,0.078002 LLEG_JOINT4:0.994650,0.087437,0.000000,-0.055004 RARM_JOINT2:0.777846,0.000000,-0.062120,0.625377 RARM_JOINT3:0.972055,0.000000,0.191985,0.135092 RLEG_JOINT2:0.999176,0.012716,0.000000,-0.038540 RLEG_JOINT4:0.994329,0.101662,0.000000,0.031215 WAIST:0.998531,0.000000,-0.053976,-0.004783 WAIST_JOINT0:0.995892,0.000000,-0.090541,-0.001275 WAIST_JOINT1:0.997562,0.064105,0.000000,-0.027594 END:
KINECT_DATA_Sensor  AnkleLeft:0.071907,0.752375,-0.101674,-0.646857 AnkleRight:0.077326,0.663872,0.084527,0.739020 ElbowLeft:-0.115819,0.909879,-0.154973,-0.367001 ElbowRight:0.030855,0.805928,0.174709,0.564804 FootLeft:0.000000,0.000000,0.000000,0.000000 FootRight:0.000000,0.000000,0.000000,0.000000 HandLeft:-0.602896,0.348437,-0.108801,0.709416 HandRight:0.044591,-0.374555,-0.050788,0.924738 HandTipLeft:0.000000,0.000000,0.000000,0.000000 HandTipRight:0.000000,0.000000,0.000000,0.000000 Head:0.000000,0.000000,0.000000,0.000000 HipLeft:0.158147,-0.676590,0.692401,-0.194413 HipRight:-0.092310,0.678750,0.711340,-0.157395 KneeLeft:-0.030092,0.743609,-0.075985,-0.663601 KneeRight:-0.019581,0.668560,0.040592,0.742291 Neck:0.088952,-0.033631,0.992286,-0.079527 ShoulderLeft:-0.032097,0.785444,-0.606305,0.120172 ShoulderRight:0.083001,0.781802,0.617599,0.021626 SpineBase:0.053117,-0.025884,0.997344,-0.042586 SpineMid:0.070690,-0.026631,0.996253,-0.042123 SpineShoulder:0.088787,-0.030321,0.993804,-0.059590 ThumbLeft:0.000000,0.000000,0.000000,0.000000 ThumbRight:0.000000,0.000000,0.000000,0.000000 WristLeft:-0.432589,0.427833,-0.206215,0.766355 WristRight:-0.001385,-0.374626,-0.105183,0.921189 END:
KINECT_DATA POSITION:-5.124679,-0.162578,-4.790151 HEAD_JOINT1:0.973014,0.171873,-0.000000,0.153956 LARM_JOINT2:0.847607,0.000000,-0.100604,-0.521000 LARM_JOINT3:0.787085,0.000000,-0.523833,-0.325725 LLEG_JOINT2:0.996333,0.036408,0.000000,0.077424 LLEG_JOINT4:0.994545,0.090198,0.000000,-0.052384 RARM_JOINT2:0.777572,0.000000,-0.062126,0.625717 RARM_JOINT3:0.971180,0.000000,0.195692,0.136066 RLEG_JOINT2:0.999134,0.012507,0.000000,-0.039680 RLEG_JOINT4:0.993993,0.104561,0.000000,0.032319 WAIST:0.998507,0.000000,-0.054488,-0.003789 WAIST_JOINT0:0.995762,0.000000,-0.091953,-0.001522 WAIST_JOINT1:0.997523,0.064167,0.000000,-0.028833 END:
KINECT_DATA_Sensor  AnkleLeft:0.071668,0.753164,-0.105636,-0.645328 AnkleRight:0.085452,0.709832,0.080193,0.694555 ElbowLeft:-0.115709,0.909566,-0.156418,-0.367197 ElbowRight:0.031261,0.806142,0.174554,0.564525 FootLeft:0.000000,0.000000,0.000000,0.000000 FootRight:0.000000,0.000000,0.000000,0.000000 HandLeft:-0.561202,0.703914,0.349629,0.259456 HandRight:-0.074720,0.735686,0.036944,-0.672174 HandTipLeft:0.000000,0.000000,0.000000,0.000000 HandTipRight:0.000000,0.000000,0.000000,0.000000 Head:0.000000,0.000000,0.000000,0.000000 HipLeft:0.158806,-0.675833,0.692941,-0.194588 HipRight:-0.092018,0.679336,0.710791,-0.157513 KneeLeft:-0.030479,0.743873,-0.076201,-0.663263 KneeRight:-0.019772,0.668257,0.040609,0.742558 Neck:0.090433,-0.033910,0.992130,-0.079685 ShoulderLeft:-0.034066,0.785569,-0.605646,0.122127 ShoulderRight:0.082930,0.781867,0.617513,0.022003 SpineBase:0.053529,-0.026172,0.997313,-0.042617 SpineMid:0.071624,-0.026941,0.996177,-0.042135 SpineShoulder:0.090264,-0.030602,0.993657,-0.059673 ThumbLeft:0.000000,0.000000,0.000000,0.000000 ThumbRight:0.000000,0.000000,0.000000,0.000000 WristLeft:-0.445544,0.854086,0.191251,0.188284 WristRight:-0.044887,0.741070,0.094550,-0.663220 END:
KINECT_DATA POSITION:-5.126633,-0.130630,-4.769313 HEAD_JOINT1:0.972753,0.173847,-0.000000,0.153388 LARM_JOINT2:0.849243,0.000000,-0.097557,-0.518912 LARM_JOINT3:0.773958,0.000000,-0.540746,-0.329520 LLEG_JOINT2:0.996359,0.036516,0.000000,0.077042 LLEG_JOINT4:0.994476,0.092235,0.000000,-0.050110 RARM_JOINT2:0.777495,0.000000,-0.061722,0.625853 RARM_JOINT3:0.970894,0.000000,0.198419,0.134142 RLEG_JOINT2:0.999138,0.011137,0.000000,-0.039982 RLEG_JOINT4:0.994090,0.103945,0.000000,0.031314 WAIST:0.998513,0.000000,-0.054419,-0.003322 WAIST_JOINT0:0.995771,0.000000,-0.091858,-0.001614 WAIST_JOINT1:0.997484,0.064516,0.000000,-0.029397 END:
KINECT_DATA_Sensor  AnkleLeft:0.071890,0.755299,-0.108533,-0.642321 AnkleRight:0.085537,0.728845,0.077362,0.674895 ElbowLeft:-0.114605,0.909297,-0.160328,-0.366524 ElbowRight:0.031359,0.806399,0.174546,0.564155 FootLeft:0.000000,0.000000,0.000000,0.000000 FootRight:0.000000,0.000000,0.000000,0.000000 HandLeft:-0.610397,0.301531,-0.197003,0.705467 HandRight:-0.073101,0.719560,0.050812,-0.688700 HandTipLeft:0.000000,0.000000,0.000000,0.000000 HandTipRight:0.000000,0.000000,0.000000,0.000000 Head:0.000000,0.000000,0.000000,0.000000 HipLeft:0.158698,-0.675572,0.693256,-0.194456 HipRight:-0.091856,0.679651,0.710496,-0.157583 KneeLeft:-0.030446,0.743804,-0.076357,-0.663324 KneeRight:-0.020667,0.668369,0.039591,0.742488 Neck:0.090368,-0.034056,0.992085,-0.080256 ShoulderLeft:-0.034116,0.785747,-0.605333,0.122516 ShoulderRight:0.082800,0.781917,0.617484,0.021526 SpineBase:0.053418,-0.026198,0.997315,-0.042700 SpineMid:0.071535,-0.026970,0.996179,-0.042217 SpineShoulder:0.090200,-0.030685,0.993642,-0.059984 ThumbLeft:0.000000,0.000000,0.000000,0.000000 ThumbRight:0.000000,0.000000,0.000000,0.000000 WristLeft:-0.465014,0.371094,-0.230511,0.770010 WristRight:-0.043059,0.724049,0.095639,-0.681727 END:
KINECT_DATA POSITION:-5.131067,-0.109123,-4.743528 HEAD_JOINT1:0.973003,0.174026,-0.000000,0.151595 LARM_JOINT2:0.849953,0.000000,-0.097326,-0.517790 LARM_JOINT3:0.775365,0.000000,-0.557066,-0.297467 LLEG_JOINT2:0.996411,0.035918,0.000000,0.076649 LLEG_JOINT4:0.994570,0.091560,0.000000,-0.049469 RARM_JOINT2:0.777947,0.000000,-0.060994,0.625362 RARM_JOINT3:0.969510,0.000000,0.203391,0.136684 RLEG_JOINT2:0.999145,0.011339,0.000000,-0.039762 RLEG_JOINT4:0.994147,0.103694,0.000000,0.030333 WAIST:0.998559,0.000000,-0.053580,-0.002914 WAIST_JOINT0:0.995911,0.000000,-0.090337,-0.001230 WAIST_JOINT1:0.997445,0.064966,0.000000,-0.029725 END:
KINECT_DATA_Sensor  AnkleLeft:0.070255,0.752569,-0.108292,-0.645737 AnkleRight:0.077693,0.664019,0.085258,0.738765 ElbowLeft:-0.121841,0.891339,-0.156577,-0.407620 ElbowRight:0.030846,0.806906,0.175088,0.563290 FootLeft:0.000000,0.000000,0.000000,0.000000 FootRight:0.000000,0.000000,0.000000,0.000000 HandLeft:0.666247,-0.429410,0.043242,-0.608155 HandRight:-0.089190,0.718871,0.057391,-0.687005 HandTipLeft:0.000000,0.000000,0.000000,0.000000 HandTipRight:0.000000,0.000000,0.000000,0.000000 Head:0.000000,0.000000,0.000000,0.000000 HipLeft:0.158008,-0.675493,0.693619,-0.194001 HipRight:-0.092046,0.679880,0.710133,-0.158119 KneeLeft:-0.030783,0.743179,-0.075963,-0.664053 KneeRight:-0.020112,0.669033,0.039259,0.741922 Neck:0.088861,-0.033999,0.992175,-0.080846 ShoulderLeft:-0.033355,0.785812,-0.605392,0.122019 ShoulderRight:0.081657,0.782394,0.617092,0.019718 SpineBase:0.052542,-0.026167,0.997354,-0.042901 SpineMid:0.070343,-0.026929,0.996256,-0.042427 SpineShoulder:0.088693,-0.030607,0.993754,-0.060412 ThumbLeft:0.000000,0.000000,0.000000,0.000000 ThumbRight:0.000000,0.000000,0.000000,0.000000 WristLeft:-0.478005,0.525246,-0.183080,0.679786 WristRight:-0.044653,0.725265,0.096496,-0.680210 END:
KINECT_DATA POSITION:-5.119462,-0.118392,-4.706252 HEAD_JOINT1:0.973296,0.174260,-0.000000,0.149427 LARM_JOINT2:0.882068,0.000000,-0.130339,-0.452734 LARM_JOINT3:0.728044,0.000000,-0.598521,-0.334251 LLEG_JOINT2:0.996442,0.036031,0.000000,0.076194 LLEG_JOINT4:0.994394,0.092716,0.000000,-0.050828 RARM_JOINT2:0.778865,0.000000,-0.059145,0.624397 RARM_JOINT3:0.970182,0.000000,0.202362,0.133405 RLEG_JOINT2:0.999152,0.011362,0.000000,-0.039566 RLEG_JOINT4:0.994268,0.102681,0.000000,0.029778 WAIST:0.998607,0.000000,-0.052707,-0.002509 WAIST_JOINT0:0.995929,0.000000,-0.090126,-0.001727 WAIST_JOINT1:0.997442,0.064913,0.000000,-0.029929 END:
KINECT_DATA_Sensor  AnkleLeft:0.072576,0.753678,-0.107965,-0.644241 AnkleRight:0.085559,0.740137,0.075922,0.662656 ElbowLeft:-0.166757,0.912702,-0.210227,-0.308175 ElbowRight:0.028719,0.807082,0.175530,0.563012 FootLeft:0.000000,0.000000,0.000000,0.000000 FootRight:0.000000,0.000000,0.000000,0.000000 HandLeft:-0.584597,0.742508,0.308060,0.109671 HandRight:-0.073706,0.712483,0.060216,-0.695204 HandTipLeft:0.000000,0.000000,0.000000,0.000000 HandTipRight:0.000000,0.000000,0.000000,0.000000 Head:0.000000,0.000000,0.000000,0.000000 HipLeft:0.157518,-0.675472,0.693909,-0.193432 HipRight:-0.092559,0.680187,0.709697,-0.158457 KneeLeft:-0.030586,0.742591,-0.076056,-0.664709 KneeRight:-0.019711,0.669702,0.038825,0.741352 Neck:0.088830,-0.033928,0.992188,-0.080752 ShoulderLeft:-0.034652,0.786693,-0.603991,0.122914 ShoulderRight:0.080239,0.782659,0.616972,0.018743 SpineBase:0.051650,-0.025954,0.997412,-0.042766 SpineMid:0.069880,-0.026732,0.996300,-0.042284 SpineShoulder:0.088666,-0.030516,0.993764,-0.060327 ThumbLeft:0.000000,0.000000,0.000000,0.000000 ThumbRight:0.000000,0.000000,0.000000,0.000000 WristLeft:-0.467644,0.807934,0.314048,0.172990 WristRight:-0.044569,0.716585,0.099426,-0.688937 END:
KINECT_DATA POSITION:-5.107726,-0.135033,-4.620337 HEAD_JOINT1:0.973742,0.173448,-0.000000,0.147455 LARM_JOINT2:0.883276,0.000000,-0.156319,-0.442027 LARM_JOINT3:0.741264,0.000000,-0.590857,-0.318457 LLEG_JOINT2:0.996464,0.035769,0.000000,0.076021 LLEG_JOINT4:0.994127,0.093555,0.000000,-0.054396 RARM_JOINT2:0.779390,0.000000,-0.059591,0.623699 RARM_JOINT3:0.970730,0.000000,0.198095,0.135800 RLEG_JOINT2:0.999150,0.011964,0.000000,-0.039446 RLEG_JOINT4:0.994040,0.105008,0.000000,0.029291 WAIST:0.998574,0.000000,-0.053352,-0.001917 WAIST_JOINT0:0.996260,0.000000,-0.086408,-0.000528 WAIST_JOINT1:0.997441,0.064710,0.000000,-0.030403 END:
KINECT_DATA_Sensor  AnkleLeft:0.073143,0.741439,-0.107669,-0.658275 AnkleRight:0.087019,0.729795,0.078659,0.673528 ElbowLeft:-0.189574,0.912858,-0.204566,-0.298168 ElbowRight:0.028885,0.807377,0.176202,0.562370 FootLeft:0.000000,0.000000,0.000000,0.000000 FootRight:0.000000,0.000000,0.000000,0.000000 HandLeft:-0.469578,0.127177,-0.453791,0.746590 HandRight:-0.069380,0.716291,0.043101,-0.693005 HandTipLeft:0.000000,0.000000,0.000000,0.000000 HandTipRight:0.000000,0.000000,0.000000,0.000000 Head:0.000000,0.000000,0.000000,0.000000 HipLeft:0.157475,-0.675177,0.694272,-0.193195 HipRight:-0.091736,0.680843,0.709398,-0.157453 KneeLeft:-0.031103,0.742967,-0.076141,-0.664255 KneeRight:-0.018741,0.669247,0.038730,0.741793 Neck:0.085306,-0.033443,0.992517,-0.080714 ShoulderLeft:-0.029660,0.788782,-0.602437,0.118377 ShoulderRight:0.080440,0.782669,0.616965,0.017724 SpineBase:0.052257,-0.025739,0.997393,-0.042590 SpineMid:0.068439,-0.026427,0.996413,-0.042166 SpineShoulder:0.085136,-0.030110,0.994087,-0.060304 ThumbLeft:0.000000,0.000000,0.000000,0.000000 ThumbRight:0.000000,0.000000,0.000000,0.000000 WristLeft:-0.445368,0.091642,-0.343189,0.821870 WristRight:-0.044662,0.720961,0.098941,-0.684420 END:
KINECT_DATA POSITION:-5.133768,-0.157949,-4.531252 HEAD_JOINT1:0.973869,0.174196,-0.000000,0.145723 LARM_JOINT2:0.880940,0.000000,-0.159906,-0.445394 LARM_JOINT3:0.744603,0.000000,-0.589667,-0.312824 LLEG_JOINT2:0.996400,0.037440,0.000000,0.076061 LLEG_JOINT4:0.994213,0.093190,0.000000,-0.053451 RARM_JOINT2:0.781092,0.000000,-0.065286,0.620994 RARM_JOINT3:0.969427,0.000000,0.201770,0.139642 RLEG_JOINT2:0.999154,0.012792,0.000000,-0.039088 RLEG_JOINT4:0.994250,0.103512,0.000000,0.027436 WAIST:0.998600,0.000000,-0.052863,-0.001928 WAIST_JOINT0:0.996671,0.000000,-0.081533,0.000318 WAIST_JOINT1:0.997429,0.064802,0.000000,-0.030601 END:
KINECT_DATA_Sensor  AnkleLeft:0.074421,0.747361,-0.108528,-0.651256 AnkleRight:0.078328,0.669130,0.086641,0.733909 ElbowLeft:-0.190485,0.912576,-0.198428,-0.302568 ElbowRight:0.031561,0.807230,0.181006,0.560911 FootLeft:0.000000,0.000000,0.000000,0.000000 FootRight:0.000000,0.000000,0.000000,0.000000 HandLeft:-0.619549,0.426460,-0.211991,0.623979 HandRight:-0.070479,0.721657,0.046727,-0.687066 HandTipLeft:0.000000,0.000000,0.000000,0.000000 HandTipRight:0.000000,0.000000,0.000000,0.000000 Head:0.000000,0.000000,0.000000,0.000000 HipLeft:0.156997,-0.675306,0.694362,-0.192806 HipRight:-0.091615,0.680834,0.709399,-0.157557 KneeLeft:-0.029950,0.742739,-0.077423,-0.664416 KneeRight:-0.017911,0.669611,0.039014,0.741470 Neck:0.080490,-0.033359,0.992904,-0.080928 ShoulderLeft:-0.027824,0.788280,-0.603683,0.115793 ShoulderRight:0.076265,0.783518,0.616538,0.012779 SpineBase:0.051759,-0.025913,0.997410,-0.042691 SpineMid:0.065793,-0.026511,0.996583,-0.042322 SpineShoulder:0.080308,-0.030075,0.994476,-0.060522 ThumbLeft:0.000000,0.000000,0.000000,0.000000 ThumbRight:0.000000,0.000000,0.000000,0.000000 WristLeft:-0.548528,0.430318,-0.128839,0.705226 WristRight:-0.044596,0.726052,0.098349,-0.679107 END:
KINECT_DATA POSITION:-5.150276,-0.168208,-4.457843 HEAD_JOINT1:0.973994,0.174506,-0.000000,0.144510 LARM_JOINT2:0.879333,0.000000,-0.155190,-0.450210 LARM_JOINT3:0.743928,0.000000,-0.587786,-0.317929 LLEG_JOINT2:0.996386,0.038346,0.000000,0.075787 LLEG_JOINT4:0.994482,0.091544,0.000000,-0.051239 RARM_JOINT2:0.780594,0.000000,-0.063171,0.621838 RARM_JOINT3:0.969591,0.000000,0.202378,0.137610 RLEG_JOINT2:0.999158,0.013195,0.000000,-0.038843 RLEG_JOINT4:0.994219,0.103892,0.000000,0.027103 WAIST:0.998648,0.000000,-0.051952,-0.002037 WAIST_JOINT0:0.996224,0.000000,-0.086793,-0.001990 WAIST_JOINT1:0.997389,0.065295,0.000000,-0.030847 END:
KINECT_DATA_Sensor  AnkleLeft:0.073236,0.750273,-0.108821,-0.647985 AnkleRight:0.078270,0.666104,0.087763,0.736530 ElbowLeft:-0.184506,0.912401,-0.196540,-0.307985 ElbowRight:0.030619,0.808109,0.180048,0.560005 FootLeft:0.000000,0.000000,0.000000,0.000000 FootRight:0.000000,0.000000,0.000000,0.000000 HandLeft:-0.345633,-0.082535,-0.553090,0.753536 HandRight:0.070647,-0.681624,-0.058346,0.725943 HandTipLeft:0.000000,0.000000,0.000000,0.000000 HandTipRight:0.000000,0.000000,0.000000,0.000000 Head:0.000000,0.000000,0.000000,0.000000 HipLeft:0.156123,-0.675510,0.694503,-0.192297 HipRight:-0.091600,0.680625,0.709478,-0.158112 KneeLeft:-0.028983,0.742190,-0.077864,-0.665020 KneeRight:-0.017559,0.670300,0.039165,0.740848 Neck:0.085875,-0.034347,0.992395,-0.081226 ShoulderLeft:-0.033490,0.788691,-0.601673,0.121799 ShoulderRight:0.077510,0.782905,0.617108,0.015165 SpineBase:0.050837,-0.026217,0.997435,-0.043037 SpineMid:0.068003,-0.026954,0.996412,-0.042579 SpineShoulder:0.085708,-0.030841,0.993986,-0.060782 ThumbLeft:0.000000,0.000000,0.000000,0.000000 ThumbRight:0.000000,0.000000,0.000000,0.000000 WristLeft:-0.333784,-0.123196,-0.453573,0.817118 WristRight:0.037607,-0.682359,-0.100443,0.723106 END:
KINECT_DATA POSITION:-5.153309,-0.177399,-4.377615 HEAD_JOINT1:0.973606,0.177337,-0.000000,0.143673 LARM_JOINT2:0.877773,0.000000,-0.156222,-0.452891 LARM_JOINT3:0.744794,0.000000,-0.588920,-0.313777 LLEG_JOINT2:0.996394,0.038361,0.000000,0.075686 LLEG_JOINT4:0.994960,0.088157,0.000000,-0.047776 RARM_JOINT2:0.780007,0.000000,-0.063400,0.622550 RARM_JOINT3:0.970161,0.000000,0.199580,0.137680 RLEG_JOINT2:0.999177,0.012416,0.000000,-0.038625 RLEG_JOINT4:0.993952,0.106171,0.000000,0.028074 WAIST:0.998714,0.000000,-0.050650,-0.002353 WAIST_JOINT0:0.996350,0.000000,-0.085352,-0.001245 WAIST_JOINT1:0.997412,0.065250,0.000000,-0.030204 END:
KINECT_DATA_Sensor  AnkleLeft:0.068873,0.750181,-0.108411,-0.648638 AnkleRight:0.079832,0.666705,0.088211,0.735765 ElbowLeft:-0.184147,0.911635,-0.193366,-0.312444 ElbowRight:0.030393,0.806813,0.179152,0.562169 FootLeft:0.000000,0.000000,0.000000,0.000000 FootRight:0.000000,0.000000,0.000000,0.000000 HandLeft:-0.262926,-0.186301,-0.599396,0.732726 HandRight:-0.073807,0.715617,0.041601,-0.693335 HandTipLeft:0.000000,0.000000,0.000000,0.000000 HandTipRight:0.000000,0.000000,0.000000,0.000000 Head:0.000000,0.000000,0.000000,0.000000 HipLeft:0.155141,-0.675933,0.694529,-0.191508 HipRight:-0.092237,0.680335,0.709596,-0.158461 KneeLeft:-0.028573,0.741356,-0.077624,-0.665996 KneeRight:-0.018264,0.671247,0.038683,0.739998 Neck:0.084434,-0.034053,0.992537,-0.081127 ShoulderLeft:-0.031543,0.788456,-0.602475,0.119859 ShoulderRight:0.077616,0.782677,0.617392,0.014805 SpineBase:0.049577,-0.026027,0.997506,-0.042963 SpineMid:0.066654,-0.026759,0.996511,-0.042511 SpineShoulder:0.084263,-0.030601,0.994123,-0.060682 ThumbLeft:0.000000,0.000000,0.000000,0.000000 ThumbRight:0.000000,0.000000,0.000000,0.000000 WristLeft:-0.263597,-0.236658,-0.500028,0.790242 WristRight:-0.042138,0.721353,0.098376,-0.684249 END:
KINECT_DATA POSITION:-5.180994,-0.193179,-4.302156 HEAD_JOINT1:0.973253,0.179213,-0.000000,0.143742 LARM_JOINT2:0.878189,0.000000,-0.149924,-0.454209 LARM_JOINT3:0.741805,0.000000,-0.588620,-0.321328 LLEG_JOINT2:0.996392,0.038183,0.000000,0.075802 LLEG_JOINT4:0.994399,0.091920,0.000000,-0.052173 RARM_JOINT2:0.779198,0.000000,-0.062358,0.623669 RARM_JOINT3:0.970397,0.000000,0.197260,0.139352 RLEG_JOINT2:0.999198,0.013434,0.000000,-0.037711 RLEG_JOINT4:0.994175,0.104902,0.000000,0.024714 WAIST:0.998740,0.000000,-0.050130,-0.002468 WAIST_JOINT0:0.996171,0.000000,-0.087405,-0.001821 WAIST_JOINT1:0.997420,0.065148,0.000000,-0.030156 END:
KINECT_DATA_Sensor  AnkleLeft:0.074520,0.748948,-0.107910,-0.649522 AnkleRight:0.086416,0.736752,0.081842,0.665606 ElbowLeft:-0.179724,0.910734,-0.195739,-0.316149 ElbowRight:0.029957,0.806993,0.177649,0.562411 FootLeft:0.000000,0.000000,0.000000,0.000000 FootRight:0.000000,0.000000,0.000000,0.000000 HandLeft:-0.145319,0.600221,0.634821,-0.464348 HandRight:-0.079389,0.723848,0.029208,-0.684754 HandTipLeft:0.000000,0.000000,0.000000,0.000000 HandTipRight:0.000000,0.000000,0.000000,0.000000 Head:0.000000,0.000000,0.000000,0.000000 HipLeft:0.154525,-0.676202,0.694589,-0.190838 HipRight:-0.092128,0.680313,0.709678,-0.158253 KneeLeft:-0.028657,0.741007,-0.077504,-0.666394 KneeRight:-0.016998,0.671619,0.038758,0.739687 Neck:0.086586,-0.034335,0.992361,-0.080890 ShoulderLeft:-0.034838,0.788392,-0.601819,0.122625 ShoulderRight:0.077107,0.782709,0.617401,0.015387 SpineBase:0.049066,-0.026127,0.997533,-0.042864 SpineMid:0.067461,-0.026914,0.996458,-0.042375 SpineShoulder:0.086415,-0.030878,0.993942,-0.060486 ThumbLeft:0.000000,0.000000,0.000000,0.000000 ThumbRight:0.000000,0.000000,0.000000,0.000000 WristLeft:-0.099067,0.669994,0.556167,-0.481635 WristRight:-0.043878,0.731438,0.097406,-0.673487 END:
KINECT_DATA POSITION:-5.203003,-0.193401,-4.303896 HEAD_JOINT1:0.973345,0.178415,-0.000000,0.144110 LARM_JOINT2:0.883231,0.000000,-0.147846,-0.445021 LARM_JOINT3:0.737398,0.000000,-0.592811,-0.323759 LLEG_JOINT2:0.996398,0.038373,0.000000,0.075617 LLEG_JOINT4:0.994369,0.092337,0.000000,-0.052003 RARM_JOINT2:0.778897,0.000000,-0.061953,0.624085 RARM_JOINT3:0.971056,0.000000,0.195394,0.137372 RLEG_JOINT2:0.999184,0.015398,0.000000,-0.037328 RLEG_JOINT4:0.994030,0.105681,0.000000,0.027107 WAIST:0.998720,0.000000,-0.050530,-0.002459 WAIST_JOINT0:0.996712,0.000000,-0.081022,0.000776 WAIST_JOINT1:0.997429,0.064985,0.000000,-0.030216 END:
KINECT_DATA_Sensor  AnkleLeft:0.074553,0.747060,-0.108609,-0.651573 AnkleRight:0.088417,0.720832,0.083199,0.682394 ElbowLeft:-0.184501,0.907706,-0.204692,-0.316434 ElbowRight:0.030069,0.807683,0.176979,0.561626 FootLeft:0.000000,0.000000,0.000000,0.000000 FootRight:0.000000,0.000000,0.000000,0.000000 HandLeft:-0.549600,0.755672,0.339376,0.108279 HandRight:-0.067676,0.734325,0.028168,-0.674828 HandTipLeft:0.000000,0.000000,0.000000,0.000000 HandTipRight:0.000000,0.000000,0.000000,0.000000 Head:0.000000,0.000000,0.000000,0.000000 HipLeft:0.154472,-0.676222,0.694625,-0.190676 HipRight:-0.091429,0.680456,0.709786,-0.157557 KneeLeft:-0.028429,0.741292,-0.077515,-0.666086 KneeRight:-0.015263,0.671289,0.039786,0.739970 Neck:0.079811,-0.033746,0.992946,-0.080927 ShoulderLeft:-0.024361,0.788793,-0.603664,0.113145 ShoulderRight:0.078779,0.782927,0.616938,0.014379 SpineBase:0.049461,-0.026253,0.997513,-0.042808 SpineMid:0.064290,-0.026886,0.996667,-0.042413 SpineShoulder:0.079620,-0.030478,0.994516,-0.060577 ThumbLeft:0.000000,0.000000,0.000000,0.000000 ThumbRight:0.000000,0.000000,0.000000,0.000000 WristLeft:-0.466089,0.813325,0.320416,0.136375 WristRight:-0.046293,0.739520,0.096490,-0.664572 END:
KINECT_DATA POSITION:-5.224363,-0.202837,-4.321647 HEAD_JOINT1:0.973159,0.179685,-0.000000,0.143784 LARM_JOINT2:0.881156,0.000000,-0.147678,-0.449171 LARM_JOINT3:0.740807,0.000000,-0.590177,-0.320775 LLEG_JOINT2:0.996401,0.038834,0.000000,0.075351 LLEG_JOINT4:0.994614,0.090828,0.000000,-0.049938 RARM_JOINT2:0.779668,0.000000,-0.065698,0.622737 RARM_JOINT3:0.970498,0.000000,0.196563,0.139631 RLEG_JOINT2:0.999194,0.015284,0.000000,-0.037119 RLEG_JOINT4:0.994196,0.104014,0.000000,0.027473 WAIST:0.998724,0.000000,-0.050454,-0.002231 WAIST_JOINT0:0.996569,0.000000,-0.082758,-0.000750 WAIST_JOINT1:0.997459,0.064455,0.000000,-0.030335 END:
KINECT_DATA_Sensor  AnkleLeft:0.072556,0.748239,-0.109148,-0.650355 AnkleRight:0.089103,0.734618,0.079741,0.667861 ElbowLeft:-0.182222,0.908887,-0.201153,-0.316633 ElbowRight:0.031752,0.807649,0.179152,0.560891 FootLeft:0.000000,0.000000,0.000000,0.000000 FootRight:0.000000,0.000000,0.000000,0.000000 HandLeft:-0.319524,-0.125779,-0.565311,0.750005 HandRight:-0.065370,0.730309,0.028434,-0.679387 HandTipLeft:0.000000,0.000000,0.000000,0.000000 HandTipRight:0.000000,0.000000,0.000000,0.000000 Head:0.000000,0.000000,0.000000,0.000000 HipLeft:0.154220,-0.676270,0.694773,-0.190173 HipRight:-0.090959,0.680842,0.709627,-0.156875 KneeLeft:-0.028071,0.741265,-0.077842,-0.666092 KneeRight:-0.015049,0.671359,0.039392,0.739932 Neck:0.081888,-0.033804,0.992834,-0.080199 ShoulderLeft:-0.030597,0.790228,-0.600632,0.117662 ShoulderRight:0.075077,0.784418,0.615531,0.013183 SpineBase:0.049372,-0.026242,0.997527,-0.042582 SpineMid:0.065271,-0.026918,0.996613,-0.042159 SpineShoulder:0.081702,-0.030525,0.994379,-0.060029 ThumbLeft:0.000000,0.000000,0.000000,0.000000 ThumbRight:0.000000,0.000000,0.000000,0.000000 WristLeft:-0.304454,-0.160017,-0.473833,0.810669 WristRight:-0.045949,0.735236,0.096476,-0.669335 END:
KINECT_DATA POSITION:-5.231950,-0.199489,-4.342616 HEAD_JOINT1:0.972977,0.180666,-0.000000,0.143790 LARM_JOINT2:0.893239,0.000000,-0.102358,-0.437774 LARM_JOINT3:0.710617,0.000000,-0.618834,-0.334766 LLEG_JOINT2:0.996432,0.038229,0.000000,0.075251 LLEG_JOINT4:0.994544,0.092845,0.000000,-0.047560 RARM_JOINT2:0.779872,0.000000,-0.065958,0.622454 RARM_JOINT3:0.969715,0.000000,0.198444,0.142380 RLEG_JOINT2:0.999206,0.014340,0.000000,-0.037183 RLEG_JOINT4:0.994350,0.102851,0.000000,0.026255 WAIST:0.998713,0.000000,-0.050692,-0.001797 WAIST_JOINT0:0.996886,0.000000,-0.078844,0.000999 WAIST_JOINT1:0.997478,0.063988,0.000000,-0.030711 END:
KINECT_DATA_Sensor  AnkleLeft:0.071271,0.746433,-0.112246,-0.652043 AnkleRight:0.087138,0.736379,0.078969,0.666271 ElbowLeft:-0.165280,0.893724,-0.233866,-0.345320 ElbowRight:0.031886,0.808825,0.179197,0.559172 FootLeft:0.000000,0.000000,0.000000,0.000000 FootRight:0.000000,0.000000,0.000000,0.000000 HandLeft:-0.602928,0.394777,-0.227723,0.654806 HandRight:0.076988,-0.701261,-0.035032,0.707870 HandTipLeft:0.000000,0.000000,0.000000,0.000000 HandTipRight:0.000000,0.000000,0.000000,0.000000 Head:0.000000,0.000000,0.000000,0.000000 HipLeft:0.154131,-0.676186,0.695008,-0.189686 HipRight:-0.090551,0.681381,0.709329,-0.156121 KneeLeft:-0.028733,0.741367,-0.077625,-0.665976 KneeRight:-0.015478,0.671220,0.038504,0.740096 Neck:0.077759,-0.033400,0.993206,-0.079870 ShoulderLeft:-0.025469,0.789855,-0.602376,0.112355 ShoulderRight:0.074924,0.784737,0.615165,0.012076 SpineBase:0.049586,-0.026153,0.997533,-0.042247 SpineMid:0.063331,-0.026733,0.996755,-0.041883 SpineShoulder:0.077564,-0.030199,0.994738,-0.059735 ThumbLeft:0.000000,0.000000,0.000000,0.000000 ThumbRight:0.000000,0.000000,0.000000,0.000000 WristLeft:-0.541184,0.409219,-0.181088,0.711946 WristRight:-0.042308,0.709509,0.097360,-0.696655 END:
KINECT_DATA POSITION:-5.242728,-0.200721,-4.353106 HEAD_JOINT1:0.972999,0.181011,-0.000000,0.143204 LARM_JOINT2:0.884833,0.000000,-0.143722,-0.443188 LARM_JOINT3:0.721392,0.000000,-0.641243,-0.261536 LLEG_JOINT2:0.996450,0.038454,0.000000,0.074893 LLEG_JOINT4:0.994491,0.090900,0.000000,-0.052205 RARM_JOINT2:0.779293,0.000000,-0.063863,0.623397 RARM_JOINT3:0.970869,0.000000,0.196237,0.137495 RLEG_JOINT2:0.999235,0.013794,0.000000,-0.036595 RLEG_JOINT4:0.994235,0.103783,0.000000,0.026946 WAIST:0.998698,0.000000,-0.050989,-0.001803 WAIST_JOINT0:0.996748,0.000000,-0.080572,0.000957 WAIST_JOINT1:0.997517,0.063419,0.000000,-0.030610 END:
KINECT_DATA_Sensor  AnkleLeft:0.076024,0.761024,-0.105938,-0.635484 AnkleRight:0.080383,0.669362,0.086189,0.733529 ElbowLeft:-0.195965,0.887351,-0.197636,-0.367623 ElbowRight:0.030473,0.808946,0.177213,0.559708 FootLeft:0.000000,0.000000,0.000000,0.000000 FootRight:0.000000,0.000000,0.000000,0.000000 HandLeft:-0.334573,-0.084814,-0.629724,0.695928 HandRight:-0.067494,0.732945,0.037049,-0.675917 HandTipLeft:0.000000,0.000000,0.000000,0.000000 HandTipRight:0.000000,0.000000,0.000000,0.000000 Head:0.000000,0.000000,0.000000,0.000000 HipLeft:0.153955,-0.676307,0.695077,-0.189141 HipRight:-0.089914,0.681595,0.709453,-0.154982 KneeLeft:-0.028334,0.741603,-0.077539,-0.665740 KneeRight:-0.015485,0.671004,0.037710,0.740332 Neck:0.079562,-0.033429,0.993119,-0.079167 ShoulderLeft:-0.026875,0.789992,-0.601964,0.113264 ShoulderRight:0.075771,0.784300,0.615579,0.013934 SpineBase:0.049896,-0.026110,0.997534,-0.041878 SpineMid:0.064385,-0.026716,0.996704,-0.041494 SpineShoulder:0.079373,-0.030185,0.994630,-0.059155 ThumbLeft:0.000000,0.000000,0.000000,0.000000 ThumbRight:0.000000,0.000000,0.000000,0.000000 WristLeft:-0.305649,-0.115471,-0.514691,0.792678 WristRight:-0.046138,0.737208,0.095750,-0.667254 END:
KINECT_DATA POSITION:-5.255622,-0.213831,-4.390776 HEAD_JOINT1:0.973696,0.179658,-0.000000,0.140140 LARM_JOINT2:0.887729,0.000000,-0.147761,-0.436009 LARM_JOINT3:0.694486,0.000000,-0.682807,-0.226857 LLEG_JOINT2:0.996436,0.039610,0.000000,0.074477 LLEG_JOINT4:0.994895,0.088022,0.000000,-0.049353 RARM_JOINT2:0.779386,0.000000,-0.062435,0.623426 RARM_JOINT3:0.971306,0.000000,0.195662,0.135204 RLEG_JOINT2:0.999289,0.012755,0.000000,-0.035488 RLEG_JOINT4:0.994145,0.105352,0.000000,0.024003 WAIST:0.998615,0.000000,-0.052584,-0.001823 WAIST_JOINT0:0.996854,0.000000,-0.079209,0.002878 WAIST_JOINT1:0.997545,0.063088,0.000000,-0.030385 END:
KINECT_DATA_Sensor  AnkleLeft:0.070321,0.746796,-0.108293,-0.652398 AnkleRight:0.086812,0.727737,0.080779,0.675528 ElbowLeft:-0.211873,0.870494,-0.192180,-0.400520 ElbowRight:0.029579,0.808382,0.176403,0.560825 FootLeft:0.000000,0.000000,0.000000,0.000000 FootRight:0.000000,0.000000,0.000000,0.000000 HandLeft:-0.326542,-0.103319,-0.619374,0.706450 HandRight:-0.064195,0.725182,0.043117,-0.684201 HandTipLeft:0.000000,0.000000,0.000000,0.000000 HandTipRight:0.000000,0.000000,0.000000,0.000000 Head:0.000000,0.000000,0.000000,0.000000 HipLeft:0.154200,-0.676322,0.694968,-0.189289 HipRight:-0.088204,0.682092,0.709648,-0.152871 KneeLeft:-0.027350,0.742755,-0.078059,-0.664435 KneeRight:-0.015477,0.669842,0.036229,0.741458 Neck:0.077949,-0.032842,0.993278,-0.079018 ShoulderLeft:-0.024306,0.787683,-0.605585,0.110597 ShoulderRight:0.076478,0.783827,0.616092,0.014029 SpineBase:0.051505,-0.025871,0.997469,-0.041634 SpineMid:0.064399,-0.026408,0.996720,-0.041296 SpineShoulder:0.077755,-0.029706,0.994785,-0.058950 ThumbLeft:0.000000,0.000000,0.000000,0.000000 ThumbRight:0.000000,0.000000,0.000000,0.000000 WristLeft:-0.313869,-0.120834,-0.567513,0.751541 WristRight:-0.044176,0.728808,0.096760,-0.676405 END:
KINECT_DATA POSITION:-5.272444,-0.221939,-4.424620 HEAD_JOINT1:0.974074,0.179536,-0.000000,0.137647 LARM_JOINT2:0.894621,0.000000,-0.125268,-0.428907 LARM_JOINT3:0.682658,0.000000,-0.690442,-0.239308 LLEG_JOINT2:0.996414,0.040325,0.000000,0.074381 LLEG_JOINT4:0.994628,0.089777,0.000000,-0.051525 RARM_JOINT2:0.779716,0.000000,-0.061727,0.623083 RARM_JOINT3:0.970839,0.000000,0.194243,0.140505 RLEG_JOINT2:0.999327,0.012593,0.000000,-0.034444 RLEG_JOINT4:0.994165,0.105218,0.000000,0.023784 WAIST:0.998550,0.000000,-0.053798,-0.001755 WAIST_JOINT0:0.996899,0.000000,-0.078610,0.003649 WAIST_JOINT1:0.997544,0.063154,0.000000,-0.030276 END:
KINECT_DATA_Sensor  AnkleLeft:0.073279,0.746034,-0.108781,-0.652863 AnkleRight:0.086410,0.720292,0.080649,0.683527 ElbowLeft:-0.205593,0.863190,-0.211118,-0.409956 ElbowRight:0.029653,0.809128,0.176370,0.559756 FootLeft:0.000000,0.000000,0.000000,0.000000 FootRight:0.000000,0.000000,0.000000,0.000000 HandLeft:-0.273080,-0.153836,-0.622444,0.717164 HandRight:-0.074741,0.720515,0.029397,-0.688773 HandTipLeft:0.000000,0.000000,0.000000,0.000000 HandTipRight:0.000000,0.000000,0.000000,0.000000 Head:0.000000,0.000000,0.000000,0.000000 HipLeft:0.154421,-0.676204,0.694925,-0.189689 HipRight:-0.086993,0.682450,0.709722,-0.151625 KneeLeft:-0.026937,0.743599,-0.078541,-0.663450 KneeRight:-0.014811,0.668958,0.035312,0.742313 Neck:0.077230,-0.032435,0.993331,-0.079223 ShoulderLeft:-0.023184,0.786672,-0.607102,0.109708 ShoulderRight:0.076771,0.783758,0.616148,0.013792 SpineBase:0.052719,-0.025635,0.997410,-0.041666 SpineMid:0.064658,-0.026132,0.996708,-0.041356 SpineShoulder:0.077039,-0.029335,0.994843,-0.059092 ThumbLeft:0.000000,0.000000,0.000000,0.000000 ThumbRight:0.000000,0.000000,0.000000,0.000000 WristLeft:-0.272067,-0.169195,-0.592047,0.739481 WristRight:-0.044646,0.727230,0.096603,-0.678093 END:
KINECT_DATA POSITION:-5.302726,-0.238468,-4.442608 HEAD_JOINT1:0.974062,0.180205,-0.000000,0.136855 LARM_JOINT2:0.886911,0.000000,-0.152073,-0.436191 LARM_JOINT3:0.705687,0.000000,-0.672473,-0.223128 LLEG_JOINT2:0.996346,0.040866,0.000000,0.074994 LLEG_JOINT4:0.994551,0.088831,0.000000,-0.054565 RARM_JOINT2:0.779460,0.000000,-0.061243,0.623451 RARM_JOINT3:0.970119,0.000000,0.195749,0.143356 RLEG_JOINT2:0.999353,0.012495,0.000000,-0.033718 RLEG_JOINT4:0.994210,0.105058,0.000000,0.022570 WAIST:0.998507,0.000000,-0.054595,-0.001677 WAIST_JOINT0:0.996846,0.000000,-0.079297,0.003144 WAIST_JOINT1:0.997540,0.063076,0.000000,-0.030573 END:
KINECT_DATA_Sensor  AnkleLeft:0.074564,0.746178,-0.106979,-0.652851 AnkleRight:0.088791,0.743279,0.077708,0.658493 ElbowLeft:-0.215177,0.870507,-0.187944,-0.400741 ElbowRight:0.029970,0.810313,0.175872,0.558178 FootLeft:0.000000,0.000000,0.000000,0.000000 FootRight:0.000000,0.000000,0.000000,0.000000 HandLeft:-0.317229,-0.092391,-0.593017,0.734276 HandRight:0.083955,-0.686934,-0.034552,0.721027 HandTipLeft:0.000000,0.000000,0.000000,0.000000 HandTipRight:0.000000,0.000000,0.000000,0.000000 Head:0.000000,0.000000,0.000000,0.000000 HipLeft:0.154708,-0.676198,0.694834,-0.189809 HipRight:-0.086086,0.682780,0.709698,-0.150761 KneeLeft:-0.027140,0.744140,-0.079389,-0.662734 KneeRight:-0.014319,0.668388,0.034661,0.742867 Neck:0.077955,-0.032635,0.993273,-0.079157 ShoulderLeft:-0.024522,0.786720,-0.606781,0.110848 ShoulderRight:0.076371,0.783885,0.616037,0.013806 SpineBase:0.053503,-0.025792,0.997368,-0.041589 SpineMid:0.065412,-0.026287,0.996658,-0.041278 SpineShoulder:0.077766,-0.029491,0.994784,-0.059057 ThumbLeft:0.000000,0.000000,0.000000,0.000000 ThumbRight:0.000000,0.000000,0.000000,0.000000 WristLeft:-0.320297,-0.109791,-0.564293,0.752947 WristRight:0.040265,-0.687500,-0.098268,0.718377 END:
KINECT_DATA POSITION:-5.315967,-0.239985,-4.449022 HEAD_JOINT1:0.974095,0.180561,-0.000000,0.136151 LARM_JOINT2:0.884545,0.000000,-0.166144,-0.435863 LARM_JOINT3:0.713690,0.000000,-0.666242,-0.216262 LLEG_JOINT2:0.996392,0.040704,0.000000,0.074467 LLEG_JOINT4:0.994168,0.096923,0.000000,-0.047291 RARM_JOINT2:0.779294,0.000000,-0.060901,0.623692 RARM_JOINT3:0.970387,0.000000,0.193139,0.145076 RLEG_JOINT2:0.999336,0.013217,0.000000,-0.033961 RLEG_JOINT4:0.994623,0.101328,0.000000,0.021406 WAIST:0.998498,0.000000,-0.054776,-0.001491 WAIST_JOINT0:0.997152,0.000000,-0.075254,0.004880 WAIST_JOINT1:0.997539,0.062992,0.000000,-0.030777 END:
KINECT_DATA_Sensor  AnkleLeft:0.074672,0.743878,-0.117612,-0.653633 AnkleRight:0.077403,0.672931,0.085265,0.730686 ElbowLeft:-0.222313,0.874118,-0.179628,-0.392718 ElbowRight:0.029953,0.810723,0.175459,0.557715 FootLeft:0.000000,0.000000,0.000000,0.000000 FootRight:0.000000,0.000000,0.000000,0.000000 HandLeft:-0.297214,-0.096688,-0.595263,0.740255 HandRight:-0.082735,0.713546,0.019063,-0.695445 HandTipLeft:0.000000,0.000000,0.000000,0.000000 HandTipRight:0.000000,0.000000,0.000000,0.000000 Head:0.000000,0.000000,0.000000,0.000000 HipLeft:0.154734,-0.676072,0.694984,-0.189686 HipRight:-0.085881,0.682927,0.709644,-0.150465 KneeLeft:-0.027005,0.744254,-0.079041,-0.662654 KneeRight:-0.013805,0.668243,0.035193,0.742982 Neck:0.073578,-0.032299,0.993611,-0.079242 ShoulderLeft:-0.018375,0.786280,-0.608587,0.105110 ShoulderRight:0.076949,0.783986,0.615859,0.012725 SpineBase:0.053671,-0.025776,0.997363,-0.041502 SpineMid:0.063322,-0.026176,0.996797,-0.041250 SpineShoulder:0.073380,-0.029224,0.995121,-0.059122 ThumbLeft:0.000000,0.000000,0.000000,0.000000 ThumbRight:0.000000,0.000000,0.000000,0.000000 WristLeft:-0.317955,-0.126339,-0.568176,0.748411 WristRight:-0.046320,0.722990,0.096093,-0.682573 END:
KINECT_DATA POSITION:-5.347021,-0.246631,-4.440749 HEAD_JOINT1:0.973986,0.181589,-0.000000,0.135558 LARM_JOINT2:0.883583,0.000000,-0.161866,-0.439410 LARM_JOINT3:0.712403,0.000000,-0.666579,-0.219440 LLEG_JOINT2:0.996342,0.040599,0.000000,0.075198 LLEG_JOINT4:0.994333,0.089597,0.000000,-0.057220 RARM_JOINT2:0.778953,0.000000,-0.060358,0.624171 RARM_JOINT3:0.969769,0.000000,0.196568,0.144598 RLEG_JOINT2:0.999345,0.013399,0.000000,-0.033620 RLEG_JOINT4:0.994375,0.103296,0.000000,0.023394 WAIST:0.998505,0.000000,-0.054629,-0.001624 WAIST_JOINT0:0.996958,0.000000,-0.077821,0.004209 WAIST_JOINT1:0.997544,0.062947,0.000000,-0.030730 END:
KINECT_DATA_Sensor  AnkleLeft:0.076494,0.745075,-0.105814,-0.654076 AnkleRight:0.080227,0.670927,0.085217,0.732228 ElbowLeft:-0.218578,0.872107,-0.178314,-0.399820 ElbowRight:0.029843,0.811310,0.174803,0.557072 FootLeft:0.000000,0.000000,0.000000,0.000000 FootRight:0.000000,0.000000,0.000000,0.000000 HandLeft:-0.312043,-0.100615,-0.582279,0.743947 HandRight:-0.090012,0.722834,0.030658,-0.684448 HandTipLeft:0.000000,0.000000,0.000000,0.000000 HandTipRight:0.000000,0.000000,0.000000,0.000000 Head:0.000000,0.000000,0.000000,0.000000 HipLeft:0.154731,-0.676224,0.694883,-0.189516 HipRight:-0.086119,0.682821,0.709688,-0.150609 KneeLeft:-0.027511,0.744145,-0.079363,-0.662716 KneeRight:-0.013542,0.668344,0.035152,0.742898 Neck:0.076315,-0.032585,0.993410,-0.079065 ShoulderLeft:-0.022127,0.786210,-0.607958,0.108496 ShoulderRight:0.076713,0.783948,0.615918,0.013622 SpineBase:0.053532,-0.025920,0.997371,-0.041390 SpineMid:0.064607,-0.026378,0.996715,-0.041100 SpineShoulder:0.076117,-0.029504,0.994915,-0.058994 ThumbLeft:0.000000,0.000000,0.000000,0.000000 ThumbRight:0.000000,0.000000,0.000000,0.000000 WristLeft:-0.320388,-0.113886,-0.568417,0.749188 WristRight:-0.048383,0.731438,0.095256,-0.673486 END:
KINECT_DATA POSITION:-5.378476,-0.246986,-4.417586 HEAD_JOINT1:0.973843,0.182535,-0.000000,0.135315 LARM_JOINT2:0.882985,0.000000,-0.158215,-0.441935 LARM_JOINT3:0.714858,0.000000,-0.662764,-0.222985 LLEG_JOINT2:0.996315,0.040375,0.000000,0.075666 LLEG_JOINT4:0.994208,0.090780,0.000000,-0.057531 RARM_JOINT2:0.778625,0.000000,-0.060017,0.624613 RARM_JOINT3:0.970156,0.000000,0.195490,0.143460 RLEG_JOINT2:0.999373,0.012699,0.000000,-0.033057 RLEG_JOINT4:0.994368,0.103595,0.000000,0.022367 WAIST:0.998500,0.000000,-0.054726,-0.001777 WAIST_JOINT0:0.996779,0.000000,-0.080134,0.003221 WAIST_JOINT1:0.997554,0.062786,0.000000,-0.030733 END:
KINECT_DATA_Sensor  AnkleLeft:0.077322,0.746160,-0.106368,-0.652650 AnkleRight:0.087852,0.742365,0.076821,0.659753 ElbowLeft:-0.214541,0.873188,-0.178978,-0.399353 ElbowRight:0.029864,0.812034,0.174226,0.556196 FootLeft:0.000000,0.000000,0.000000,0.000000 FootRight:0.000000,0.000000,0.000000,0.000000 HandLeft:-0.311050,-0.086328,-0.573332,0.753051 HandRight:0.067512,-0.428202,-0.060042,0.899155 HandTipLeft:0.000000,0.000000,0.000000,0.000000 HandTipRight:0.000000,0.000000,0.000000,0.000000 Head:0.000000,0.000000,0.000000,0.000000 HipLeft:0.155092,-0.676366,0.694705,-0.189369 HipRight:-0.086324,0.682729,0.709768,-0.150527 KneeLeft:-0.027909,0.744208,-0.079400,-0.662625 KneeRight:-0.013794,0.668283,0.034375,0.742985 Neck:0.078835,-0.032944,0.993219,-0.078834 ShoulderLeft:-0.026359,0.786281,-0.607054,0.112041 ShoulderRight:0.075721,0.783994,0.615974,0.014005 SpineBase:0.053640,-0.026192,0.997371,-0.041083 SpineMid:0.065905,-0.026696,0.996636,-0.040757 SpineShoulder:0.078641,-0.029798,0.994724,-0.058758 ThumbLeft:0.000000,0.000000,0.000000,0.000000 ThumbRight:0.000000,0.000000,0.000000,0.000000 WristLeft:-0.327157,-0.103671,-0.561715,0.752793 WristRight:0.010280,-0.429626,-0.106090,0.896694 END:
KINECT_DATA POSITION:-5.384041,-0.254695,-4.409230 HEAD_JOINT1:0.973740,0.183325,-0.000000,0.134993 LARM_JOINT2:0.888462,0.000000,-0.148774,-0.434168 LARM_JOINT3:0.731992,0.000000,-0.642010,-0.228060 LLEG_JOINT2:0.996307,0.040672,0.000000,0.075618 LLEG_JOINT4:0.994511,0.089147,0.000000,-0.054782 RARM_JOINT2:0.778419,0.000000,-0.060408,0.624832 RARM_JOINT3:0.969782,0.000000,0.196234,0.144969 RLEG_JOINT2:0.999387,0.012346,0.000000,-0.032772 RLEG_JOINT4:0.994150,0.106118,0.000000,0.020115 WAIST:0.998518,0.000000,-0.054389,-0.001817 WAIST_JOINT0:0.997066,0.000000,-0.076431,0.004222 WAIST_JOINT1:0.997550,0.062917,0.000000,-0.030588 END:
KINECT_DATA_Sensor  AnkleLeft:0.074018,0.743240,-0.107537,-0.656165 AnkleRight:0.089698,0.752708,0.078323,0.647496 ElbowLeft:-0.212383,0.874344,-0.194253,-0.390744 ElbowRight:0.030081,0.811268,0.174113,0.557337 FootLeft:0.000000,0.000000,0.000000,0.000000 FootRight:0.000000,0.000000,0.000000,0.000000 HandLeft:-0.565627,0.407630,-0.283448,0.658454 HandRight:-0.090668,0.717027,0.028260,-0.690545 HandTipLeft:0.000000,0.000000,0.000000,0.000000 HandTipRight:0.000000,0.000000,0.000000,0.000000 Head:0.000000,0.000000,0.000000,0.000000 HipLeft:0.154840,-0.676467,0.694704,-0.189216 HipRight:-0.086485,0.682708,0.709735,-0.150685 KneeLeft:-0.027616,0.744005,-0.079570,-0.662845 KneeRight:-0.013907,0.668542,0.033953,0.742769 Neck:0.075013,-0.032544,0.993505,-0.079129 ShoulderLeft:-0.021642,0.787044,-0.607030,0.107744 ShoulderRight:0.075450,0.784462,0.615446,0.012358 SpineBase:0.053308,-0.026138,0.997389,-0.041103 SpineMid:0.063834,-0.026571,0.996771,-0.040825 SpineShoulder:0.074807,-0.029515,0.995016,-0.058957 ThumbLeft:0.000000,0.000000,0.000000,0.000000 ThumbRight:0.000000,0.000000,0.000000,0.000000 WristLeft:-0.570396,0.387620,-0.246943,0.680748 WristRight:-0.048338,0.726213,0.095373,-0.679104 END:
KINECT_DATA POSITION:-5.427738,-0.301962,-4.315114 HEAD_JOINT1:0.973324,0.184577,-0.000000,0.136281 LARM_JOINT2:0.896864,0.000000,-0.121580,-0.425268 LARM_JOINT3:0.761097,0.000000,-0.591453,-0.266297 LLEG_JOINT2:0.996335,0.040200,0.000000,0.075497 LLEG_JOINT4:0.994293,0.090907,0.000000,-0.055830 RARM_JOINT2:0.777625,0.000000,-0.062742,0.625590 RARM_JOINT3:0.969967,0.000000,0.198874,0.140044 RLEG_JOINT2:0.999351,0.014876,0.000000,-0.032803 RLEG_JOINT4:0.994404,0.103158,0.000000,0.022785 WAIST:0.998774,0.000000,-0.049462,-0.001743 WAIST_JOINT0:0.996816,0.000000,-0.079723,0.001576 WAIST_JOINT1:0.997583,0.062531,0.000000,-0.030301 END:
KINECT_DATA_Sensor  AnkleLeft:0.077233,0.745884,-0.106642,-0.652932 AnkleRight:0.080287,0.669953,0.086964,0.732908 ElbowLeft:-0.195698,0.877190,-0.225854,-0.375805 ElbowRight:0.030022,0.810127,0.173747,0.559111 FootLeft:0.000000,0.000000,0.000000,0.000000 FootRight:0.000000,0.000000,0.000000,0.000000 HandLeft:-0.547642,0.492683,-0.205307,0.644360 HandRight:-0.085764,0.720156,0.038188,-0.687431 HandTipLeft:0.000000,0.000000,0.000000,0.000000 HandTipRight:0.000000,0.000000,0.000000,0.000000 Head:0.000000,0.000000,0.000000,0.000000 HipLeft:0.153252,-0.677118,0.695207,-0.186313 HipRight:-0.090899,0.681997,0.709206,-0.153767 KneeLeft:-0.027499,0.740731,-0.079334,-0.666534 KneeRight:-0.012161,0.672097,0.035553,0.739509 Neck:0.078751,-0.033068,0.993261,-0.078337 ShoulderLeft:-0.029145,0.788485,-0.603806,0.113401 ShoulderRight:0.072603,0.784880,0.615253,0.012488 SpineBase:0.048413,-0.026296,0.997677,-0.040067 SpineMid:0.063201,-0.026887,0.996849,-0.039673 SpineShoulder:0.078540,-0.030026,0.994760,-0.058157 ThumbLeft:0.000000,0.000000,0.000000,0.000000 ThumbRight:0.000000,0.000000,0.000000,0.000000 WristLeft:-0.521808,0.499688,-0.183788,0.666521 WristRight:-0.048372,0.727277,0.095804,-0.677902 END:
KINECT_DATA POSITION:-5.481197,-0.342488,-4.278445 HEAD_JOINT1:0.973162,0.185077,-0.000000,0.136755 LARM_JOINT2:0.899557,0.000000,-0.120118,-0.419962 LARM_JOINT3:0.763058,0.000000,-0.583810,-0.277323 LLEG_JOINT2:0.996221,0.039869,0.000000,0.077157 LLEG_JOINT4:0.994427,0.090641,0.000000,-0.053851 RARM_JOINT2:0.777522,0.000000,-0.063582,0.625633 RARM_JOINT3:0.970278,0.000000,0.197202,0.140257 RLEG_JOINT2:0.999370,0.016097,0.000000,-0.031632 RLEG_JOINT4:0.994353,0.103397,0.000000,0.023908 WAIST:0.998867,0.000000,-0.047501,-0.002913 WAIST_JOINT0:0.996940,0.000000,-0.078155,0.001451 WAIST_JOINT1:0.997628,0.062285,0.000000,-0.029293 END:
KINECT_DATA_Sensor  AnkleLeft:0.075318,0.745375,-0.107665,-0.653569 AnkleRight:0.081840,0.670634,0.087278,0.732075 ElbowLeft:-0.193949,0.881028,-0.234607,-0.362124 ElbowRight:0.029700,0.810152,0.174031,0.559003 FootLeft:0.000000,0.000000,0.000000,0.000000 FootRight:0.000000,0.000000,0.000000,0.000000 HandLeft:-0.361416,0.048776,-0.484542,0.795121 HandRight:-0.083409,0.729366,0.030800,-0.678321 HandTipLeft:0.000000,0.000000,0.000000,0.000000 HandTipRight:0.000000,0.000000,0.000000,0.000000 Head:0.000000,0.000000,0.000000,0.000000 HipLeft:0.152152,-0.678223,0.694710,-0.185046 HipRight:-0.092237,0.681002,0.709804,-0.154616 KneeLeft:-0.027963,0.739459,-0.079441,-0.667913 KneeRight:-0.011367,0.673446,0.036311,0.738257 Neck:0.077148,-0.033370,0.993404,-0.077990 ShoulderLeft:-0.027567,0.789095,-0.603468,0.111336 ShoulderRight:0.072074,0.785028,0.615135,0.012049 SpineBase:0.046543,-0.026672,0.997768,-0.039760 SpineMid:0.061451,-0.027263,0.996961,-0.039357 SpineShoulder:0.076926,-0.030331,0.994898,-0.057788 ThumbLeft:0.000000,0.000000,0.000000,0.000000 ThumbRight:0.000000,0.000000,0.000000,0.000000 WristLeft:-0.320258,0.053335,-0.422268,0.846334 WristRight:-0.049235,0.736587,0.095362,-0.667774 END:
KINECT_DATA POSITION:-5.489366,-0.363566,-4.288828 HEAD_JOINT1:0.972995,0.185967,-0.000000,0.136741 LARM_JOINT2:0.900356,0.000000,-0.119394,-0.418454 LARM_JOINT3:0.765382,0.000000,-0.579734,-0.279463 LLEG_JOINT2:0.996190,0.039769,0.000000,0.077611 LLEG_JOINT4:0.994734,0.088506,0.000000,-0.051677 RARM_JOINT2:0.777482,0.000000,-0.064203,0.625620 RARM_JOINT3:0.971060,0.000000,0.193710,0.139713 RLEG_JOINT2:0.999402,0.014112,0.000000,-0.031553 RLEG_JOINT4:0.994233,0.104544,0.000000,0.023905 WAIST:0.998896,0.000000,-0.046851,-0.003423 WAIST_JOINT0:0.996961,0.000000,-0.077894,0.001057 WAIST_JOINT1:0.997679,0.061751,0.000000,-0.028681 END:
KINECT_DATA_Sensor  AnkleLeft:0.072362,0.745694,-0.107444,-0.653574 AnkleRight:0.080845,0.670974,0.087100,0.731896 ElbowLeft:-0.194237,0.880994,-0.236734,-0.360664 ElbowRight:0.029334,0.809593,0.173923,0.559866 FootLeft:0.000000,0.000000,0.000000,0.000000 FootRight:0.000000,0.000000,0.000000,0.000000 HandLeft:-0.336312,0.014196,-0.495983,0.800433 HandRight:-0.073937,0.722299,0.020465,-0.687313 HandTipLeft:0.000000,0.000000,0.000000,0.000000 HandTipRight:0.000000,0.000000,0.000000,0.000000 Head:0.000000,0.000000,0.000000,0.000000 HipLeft:0.151822,-0.678694,0.694414,-0.184697 HipRight:-0.092892,0.680663,0.710004,-0.154802 KneeLeft:-0.027954,0.739052,-0.079333,-0.668376 KneeRight:-0.013166,0.673930,0.035273,0.737835 Neck:0.076945,-0.033358,0.993480,-0.077231 ShoulderLeft:-0.027984,0.789649,-0.602790,0.110971 ShoulderRight:0.071331,0.785141,0.615077,0.012070 SpineBase:0.045947,-0.026534,0.997808,-0.039538 SpineMid:0.061056,-0.027130,0.996998,-0.039132 SpineShoulder:0.076725,-0.030298,0.994946,-0.057250 ThumbLeft:0.000000,0.000000,0.000000,0.000000 ThumbRight:0.000000,0.000000,0.000000,0.000000 WristLeft:-0.297742,0.017147,-0.433380,0.850434 WristRight:-0.048116,0.729603,0.096413,-0.675329 END:
KINECT_DATA POSITION:-5.506807,-0.376879,-4.400003 HEAD_JOINT1:0.973605,0.183704,-0.000000,0.135450 LARM_JOINT2:0.897198,0.000000,-0.124884,-0.423603 LARM_JOINT3:0.769297,0.000000,-0.578047,-0.272109 LLEG_JOINT2:0.996179,0.039377,0.000000,0.077950 LLEG_JOINT4:0.994866,0.087371,0.000000,-0.051063 RARM_JOINT2:0.780068,0.000000,-0.070219,0.621742 RARM_JOINT3:0.969848,0.000000,0.194815,0.146433 RLEG_JOINT2:0.999414,0.015260,0.000000,-0.030637 RLEG_JOINT4:0.994552,0.101324,0.000000,0.024481 WAIST:0.998959,0.000000,-0.045461,-0.003811 WAIST_JOINT0:0.997410,0.000000,-0.071902,0.001744 WAIST_JOINT1:0.997791,0.060292,0.000000,-0.027901 END:
KINECT_DATA_Sensor  AnkleLeft:0.070680,0.742820,-0.106880,-0.657114 AnkleRight:0.085119,0.717142,0.079785,0.687093 ElbowLeft:-0.196955,0.880186,-0.227873,-0.366817 ElbowRight:0.030850,0.811523,0.178786,0.555441 FootLeft:0.000000,0.000000,0.000000,0.000000 FootRight:0.000000,0.000000,0.000000,0.000000 HandLeft:-0.499374,0.301941,-0.338332,0.738234 HandRight:-0.074196,0.708236,0.015596,-0.701893 HandTipLeft:0.000000,0.000000,0.000000,0.000000 HandTipRight:0.000000,0.000000,0.000000,0.000000 Head:0.000000,0.000000,0.000000,0.000000 HipLeft:0.151145,-0.679306,0.694375,-0.183145 HipRight:-0.094185,0.680408,0.710150,-0.154467 KneeLeft:-0.028082,0.738151,-0.079042,-0.669400 KneeRight:-0.012024,0.674860,0.035627,0.736987 Neck:0.071120,-0.032793,0.994042,-0.075815 ShoulderLeft:-0.026457,0.789557,-0.603784,0.106513 ShoulderRight:0.065441,0.785925,0.614806,0.007285 SpineBase:0.044630,-0.026171,0.997917,-0.038524 SpineMid:0.057509,-0.026666,0.997258,-0.038183 SpineShoulder:0.070894,-0.029746,0.995473,-0.055877 ThumbLeft:0.000000,0.000000,0.000000,0.000000 ThumbRight:0.000000,0.000000,0.000000,0.000000 WristLeft:-0.434465,0.326688,-0.302148,0.783085 WristRight:-0.047059,0.716926,0.097365,-0.688711 END:
KINECT_DATA POSITION:-5.516252,-0.401934,-4.558372 HEAD_JOINT1:0.973920,0.182590,-0.000000,0.134686 LARM_JOINT2:0.899745,0.000000,-0.120195,-0.419538 LARM_JOINT3:0.778602,0.000000,-0.569379,-0.263792 LLEG_JOINT2:0.996199,0.037560,0.000000,0.078594 LLEG_JOINT4:0.994582,0.089596,0.000000,-0.052711 RARM_JOINT2:0.778746,0.000000,-0.066765,0.623776 RARM_JOINT3:0.969859,0.000000,0.197601,0.142575 RLEG_JOINT2:0.999391,0.016247,0.000000,-0.030888 RLEG_JOINT4:0.994456,0.101544,0.000000,0.027304 WAIST:0.999071,0.000000,-0.042924,-0.003860 WAIST_JOINT0:0.997001,0.000000,-0.077390,0.000665 WAIST_JOINT1:0.997879,0.059168,0.000000,-0.027143 END:
KINECT_DATA_Sensor  AnkleLeft:0.072712,0.745361,-0.105769,-0.654189 AnkleRight:0.081925,0.670914,0.084485,0.732138 ElbowLeft:-0.194786,0.880855,-0.236751,-0.360696 ElbowRight:0.027945,0.812157,0.174580,0.556006 FootLeft:0.000000,0.000000,0.000000,0.000000 FootRight:0.000000,0.000000,0.000000,0.000000 HandLeft:-0.522242,0.800288,0.293445,-0.026320 HandRight:-0.085094,0.713520,0.029895,-0.694805 HandTipLeft:0.000000,0.000000,0.000000,0.000000 HandTipRight:0.000000,0.000000,0.000000,0.000000 Head:0.000000,0.000000,0.000000,0.000000 HipLeft:0.150119,-0.679742,0.694657,-0.181292 HipRight:-0.096515,0.680117,0.709947,-0.155245 KneeLeft:-0.029559,0.736354,-0.078183,-0.671414 KneeRight:-0.011586,0.676646,0.036487,0.735313 Neck:0.076616,-0.032805,0.993748,-0.074290 ShoulderLeft:-0.031476,0.789685,-0.602722,0.110153 ShoulderRight:0.067330,0.785557,0.614994,0.012218 SpineBase:0.042144,-0.025680,0.998074,-0.037582 SpineMid:0.058992,-0.026311,0.997220,-0.037143 SpineShoulder:0.076404,-0.029669,0.995147,-0.054452 ThumbLeft:0.000000,0.000000,0.000000,0.000000 ThumbRight:0.000000,0.000000,0.000000,0.000000 WristLeft:-0.433320,0.857268,0.277943,-0.008512 WristRight:-0.049464,0.721754,0.097827,-0.683414 END:
KINECT_DATA POSITION:-5.470395,-0.444014,-4.687083 HEAD_JOINT1:0.974597,0.184633,-0.000000,0.126777 LARM_JOINT2:0.898892,0.000000,-0.175634,-0.401430 LARM_JOINT3:0.828774,0.000000,-0.526719,-0.188947 LLEG_JOINT2:0.996427,0.034577,0.000000,0.077056 LLEG_JOINT4:0.994613,0.089102,0.000000,-0.052973 RARM_JOINT2:0.781453,0.000000,-0.069118,0.620124 RARM_JOINT3:0.967889,0.000000,0.206825,0.142881 RLEG_JOINT2:0.999362,0.016284,0.000000,-0.031783 RLEG_JOINT4:0.995080,0.095412,0.000000,0.026673 WAIST:0.999301,0.000000,-0.037250,-0.003050 WAIST_JOINT0:0.997472,0.000000,-0.070994,0.002946 WAIST_JOINT1:0.998022,0.057816,0.000000,-0.024701 END:
KINECT_DATA_Sensor  AnkleLeft:0.071647,0.742166,-0.102232,-0.658487 AnkleRight:0.076479,0.675428,0.081436,0.728915 ElbowLeft:-0.248238,0.867292,-0.212725,-0.375408 ElbowRight:0.027714,0.817339,0.175947,0.547933 FootLeft:0.000000,0.000000,0.000000,0.000000 FootRight:0.000000,0.000000,0.000000,0.000000 HandLeft:-0.443773,0.545514,-0.307002,0.641272 HandRight:0.095383,-0.685618,-0.064566,0.718791 HandTipLeft:0.000000,0.000000,0.000000,0.000000 HandTipRight:0.000000,0.000000,0.000000,0.000000 Head:0.000000,0.000000,0.000000,0.000000 HipLeft:0.145859,-0.680241,0.696221,-0.176844 HipRight:-0.100087,0.680328,0.709027,-0.156257 KneeLeft:-0.030607,0.732365,-0.075695,-0.676000 KneeRight:-0.011791,0.680748,0.036544,0.731510 Neck:0.070214,-0.029505,0.994435,-0.072789 ShoulderLeft:-0.030202,0.787994,-0.605791,0.105693 ShoulderRight:0.060423,0.787582,0.613204,0.006608 SpineBase:0.036527,-0.023605,0.998390,-0.036409 SpineMid:0.052986,-0.024202,0.997652,-0.036015 SpineShoulder:0.070005,-0.026835,0.995776,-0.052997 ThumbLeft:0.000000,0.000000,0.000000,0.000000 ThumbRight:0.000000,0.000000,0.000000,0.000000 WristLeft:-0.467465,0.513996,-0.238040,0.678691 WristRight:0.048111,-0.687871,-0.099129,0.717421 END:
KINECT_DATA POSITION:-5.429660,-0.481658,-4.750824 HEAD_JOINT1:0.975007,0.186793,-0.000000,0.120286 LARM_JOINT2:0.881319,0.000000,-0.120603,-0.456872 LARM_JOINT3:0.865139,0.000000,-0.501167,-0.019152 LLEG_JOINT2:0.996826,0.029727,0.000000,0.073856 LLEG_JOINT4:0.994456,0.093708,0.000000,-0.047710 RARM_JOINT2:0.787774,0.000000,-0.076018,0.611255 RARM_JOINT3:0.965134,0.000000,0.213269,0.151767 RLEG_JOINT2:0.999288,0.017204,0.000000,-0.033573 RLEG_JOINT4:0.994715,0.097854,0.000000,0.031100 WAIST:0.999672,0.000000,-0.025574,-0.001454 WAIST_JOINT0:0.998454,0.000000,-0.055294,0.005588 WAIST_JOINT1:0.998008,0.058946,0.000000,-0.022502 END:
KINECT_DATA_Sensor  AnkleLeft:0.070132,0.734077,-0.103900,-0.667396 AnkleRight:0.080950,0.683777,0.081564,0.720585 ElbowLeft:-0.212559,0.783789,-0.172325,-0.557492 ElbowRight:0.029436,0.825305,0.185215,0.532635 FootLeft:0.000000,0.000000,0.000000,0.000000 FootRight:0.000000,0.000000,0.000000,0.000000 HandLeft:-0.143444,0.232646,-0.555529,0.785295 HandRight:0.105092,-0.701543,-0.065091,0.701824 HandTipLeft:0.000000,0.000000,0.000000,0.000000 HandTipRight:0.000000,0.000000,0.000000,0.000000 Head:0.000000,0.000000,0.000000,0.000000 HipLeft:0.137297,-0.681409,0.698473,-0.170199 HipRight:-0.106539,0.680725,0.706362,-0.162223 KneeLeft:-0.031903,0.724100,-0.071460,-0.685241 KneeRight:-0.011629,0.689246,0.037233,0.723476 Neck:0.054840,-0.025679,0.995417,-0.074017 ShoulderLeft:-0.024535,0.786166,-0.609663,0.098247 ShoulderRight:0.046605,0.789354,0.612082,-0.010199 SpineBase:0.024840,-0.021377,0.998792,-0.036627 SpineMid:0.039453,-0.021910,0.998321,-0.036311 SpineShoulder:0.054615,-0.023672,0.996769,-0.053921 ThumbLeft:0.000000,0.000000,0.000000,0.000000 ThumbRight:0.000000,0.000000,0.000000,0.000000 WristLeft:-0.146138,0.231118,-0.495335,0.824543 WristRight:-0.052687,0.709341,0.095701,-0.696348 END:
KINECT_DATA POSITION:-5.418219,-0.512949,-4.684973 HEAD_JOINT1:0.975669,0.187716,-0.000000,0.113282 LARM_JOINT2:0.869122,0.000000,-0.070928,-0.489486 LARM_JOINT3:0.857431,0.000000,-0.507692,0.084031 LLEG_JOINT2:0.997053,0.027995,0.000000,0.071422 LLEG_JOINT4:0.994536,0.094487,0.000000,-0.044391 RARM_JOINT2:0.792429,0.000000,-0.075784,0.605238 RARM_JOINT3:0.963448,0.000000,0.216768,0.157413 RLEG_JOINT2:0.999203,0.018751,0.000000,-0.035229 RLEG_JOINT4:0.994569,0.098957,0.000000,0.032263 WAIST:0.999846,0.000000,-0.017567,0.000612 WAIST_JOINT0:0.998959,0.000000,-0.044803,0.008536 WAIST_JOINT1:0.997983,0.059582,0.000000,-0.021931 END:
KINECT_DATA_Sensor  AnkleLeft:0.073337,0.760950,-0.101337,-0.636638 AnkleRight:0.083342,0.689474,0.082915,0.714706 ElbowLeft:-0.182753,0.698072,-0.162443,-0.672986 ElbowRight:0.027621,0.833288,0.189891,0.518468 FootLeft:0.000000,0.000000,0.000000,0.000000 FootRight:0.000000,0.000000,0.000000,0.000000 HandLeft:-0.044352,0.263286,-0.591663,0.760689 HandRight:0.111666,-0.690072,-0.070384,0.711602 HandTipLeft:0.000000,0.000000,0.000000,0.000000 HandTipRight:0.000000,0.000000,0.000000,0.000000 Head:0.000000,0.000000,0.000000,0.000000 HipLeft:0.134063,-0.680943,0.700134,-0.167799 HipRight:-0.112789,0.681138,0.703598,-0.168165 KneeLeft:-0.032252,0.718408,-0.070233,-0.691316 KneeRight:-0.010493,0.695054,0.037951,0.717878 Neck:0.044229,-0.023292,0.995964,-0.074551 ShoulderLeft:-0.017100,0.784494,-0.613252,0.090546 ShoulderRight:0.040536,0.790742,0.610510,-0.018985 SpineBase:0.016764,-0.019522,0.998992,-0.036773 SpineMid:0.030134,-0.020012,0.998678,-0.036508 SpineShoulder:0.044023,-0.021397,0.997313,-0.054506 ThumbLeft:0.000000,0.000000,0.000000,0.000000 ThumbRight:0.000000,0.000000,0.000000,0.000000 WristLeft:-0.054573,0.264334,-0.537202,0.799101 WristRight:0.053817,-0.693501,-0.096202,0.711973 END:
KINECT_DATA POSITION:-5.396530,-0.543498,-4.537320 HEAD_JOINT1:0.976327,0.190478,-0.000000,0.102492 LARM_JOINT2:0.878187,0.000000,-0.049990,-0.475699 LARM_JOINT3:0.843828,0.000000,-0.514480,0.152530 LLEG_JOINT2:0.997140,0.026174,0.000000,0.070898 LLEG_JOINT4:0.994615,0.094690,0.000000,-0.042126 RARM_JOINT2:0.795515,0.000000,-0.067675,0.602143 RARM_JOINT3:0.965261,0.000000,0.210635,0.154612 RLEG_JOINT2:0.999125,0.021942,0.000000,-0.035603 RLEG_JOINT4:0.994564,0.098445,0.000000,0.033919 WAIST:0.999979,0.000000,-0.006281,0.001371 WAIST_JOINT0:0.999301,0.000000,-0.036185,0.009373 WAIST_JOINT1:0.998045,0.059627,0.000000,-0.018717 END:
KINECT_DATA_Sensor  AnkleLeft:0.067036,0.724322,-0.104435,-0.678201 AnkleRight:0.088354,0.719332,0.081490,0.684189 ElbowLeft:0.198657,-0.631647,0.177173,0.728126 ElbowRight:0.022035,0.846496,0.187628,0.497750 FootLeft:0.000000,0.000000,0.000000,0.000000 FootRight:0.000000,0.000000,0.000000,0.000000 HandLeft:0.025655,-0.269149,0.661829,-0.699201 HandRight:-0.109060,0.708173,0.069447,-0.694100 HandTipLeft:0.000000,0.000000,0.000000,0.000000 HandTipRight:0.000000,0.000000,0.000000,0.000000 Head:0.000000,0.000000,0.000000,0.000000 HipLeft:0.128430,-0.681243,0.701996,-0.163142 HipRight:-0.121460,0.679786,0.701880,-0.174651 KneeLeft:-0.032918,0.710455,-0.069457,-0.699533 KneeRight:-0.008383,0.703024,0.039792,0.710002 Neck:0.035395,-0.019960,0.996411,-0.074251 ShoulderLeft:-0.009153,0.784524,-0.614572,0.082100 ShoulderRight:0.037054,0.792002,0.608904,-0.024425 SpineBase:0.005556,-0.016711,0.999183,-0.036387 SpineMid:0.020128,-0.017240,0.998995,-0.036139 SpineShoulder:0.035219,-0.018302,0.997731,-0.054375 ThumbLeft:0.000000,0.000000,0.000000,0.000000 ThumbRight:0.000000,0.000000,0.000000,0.000000 WristLeft:0.000572,0.317889,-0.563691,0.762364 WristRight:-0.058803,0.715113,0.090337,-0.690648 END:
KINECT_DATA POSITION:-5.407687,-0.504262,-4.424369 HEAD_JOINT1:0.977537,0.189925,-0.000000,0.091383 LARM_JOINT2:0.941745,0.000000,-0.091420,-0.323663 LARM_JOINT3:0.882273,0.000000,-0.420750,0.211100 LLEG_JOINT2:0.997316,0.023547,0.000000,0.069333 LLEG_JOINT4:0.994440,0.098379,0.000000,-0.037544 RARM_JOINT2:0.797081,0.000000,-0.068993,0.599919 RARM_JOINT3:0.967117,0.000000,0.207713,0.146764 RLEG_JOINT2:0.999083,0.023246,0.000000,-0.035964 RLEG_JOINT4:0.994786,0.096635,0.000000,0.032585 WAIST:0.999991,-0.000000,0.003877,0.001848 WAIST_JOINT0:0.999459,0.000000,-0.030339,0.012666 WAIST_JOINT1:0.998181,0.058632,0.000000,-0.014039 END:
KINECT_DATA_Sensor  AnkleLeft:0.067122,0.721133,-0.106633,-0.681243 AnkleRight:0.082828,0.698002,0.086386,0.706024 ElbowLeft:0.360368,-0.561335,0.219138,0.712051 ElbowRight:0.020146,0.848241,0.185928,0.495491 FootLeft:0.000000,0.000000,0.000000,0.000000 FootRight:0.000000,0.000000,0.000000,0.000000 HandLeft:-0.178474,-0.194642,0.686854,-0.677122 HandRight:0.080157,-0.661215,-0.074930,0.742129 HandTipLeft:0.000000,0.000000,0.000000,0.000000 HandTipRight:0.000000,0.000000,0.000000,0.000000 Head:0.000000,0.000000,0.000000,0.000000 HipLeft:0.121909,-0.681845,0.703696,-0.158233 HipRight:-0.128857,0.678826,0.700392,-0.179003 KneeLeft:0.033337,-0.703261,0.067147,0.706968 KneeRight:-0.007801,0.710114,0.040536,0.702876 Neck:0.029225,-0.015657,0.996782,-0.072988 ShoulderLeft:-0.004948,0.783137,-0.617152,0.076123 ShoulderRight:0.033262,0.794956,0.605112,-0.027890 SpineBase:-0.004459,-0.012768,0.999265,-0.035863 SpineMid:0.012077,-0.013360,0.999202,-0.035646 SpineShoulder:0.029128,-0.013940,0.998054,-0.053341 ThumbLeft:0.000000,0.000000,0.000000,0.000000 ThumbRight:0.000000,0.000000,0.000000,0.000000 WristLeft:0.179801,0.229346,-0.616363,0.731552 WristRight:0.053779,-0.663083,-0.094720,0.740579 END:
KINECT_DATA POSITION:-5.512354,-0.388423,-4.397559 HEAD_JOINT1:0.978410,0.182749,-0.000000,0.096527 LARM_JOINT2:0.963426,0.000000,-0.171377,-0.206012 LARM_JOINT3:0.936739,0.000000,-0.299625,0.180955 LLEG_JOINT2:0.997370,0.021854,0.000000,0.069105 LLEG_JOINT4:0.994502,0.097884,0.000000,-0.037197 RARM_JOINT2:0.795192,0.000000,-0.066952,0.602650 RARM_JOINT3:0.967991,0.000000,0.205655,0.143875 RLEG_JOINT2:0.999081,0.023643,0.000000,-0.035743 RLEG_JOINT4:0.993903,0.104129,0.000000,0.036253 WAIST:0.999976,-0.000000,0.006530,0.002430 WAIST_JOINT0:0.999322,0.000000,-0.034276,0.013413 WAIST_JOINT1:0.998242,0.057713,0.000000,-0.013482 END:
KINECT_DATA_Sensor  AnkleLeft:0.065921,0.723434,-0.105126,-0.679151 AnkleRight:0.093979,0.720161,0.086258,0.681979 ElbowLeft:0.484986,-0.545396,0.198029,0.654306 ElbowRight:0.019003,0.848766,0.181042,0.496446 FootLeft:0.000000,0.000000,0.000000,0.000000 FootRight:0.000000,0.000000,0.000000,0.000000 HandLeft:-0.186408,-0.227420,0.690954,-0.660389 HandRight:0.087456,-0.674637,-0.069898,0.729610 HandTipLeft:0.000000,0.000000,0.000000,0.000000 HandTipRight:0.000000,0.000000,0.000000,0.000000 Head:0.000000,0.000000,0.000000,0.000000 HipLeft:0.118765,-0.682070,0.704722,-0.155056 HipRight:-0.130062,0.679371,0.699887,-0.178037 KneeLeft:0.034626,-0.701307,0.066289,0.708925 KneeRight:-0.007068,0.711956,0.040226,0.701035 Neck:0.032971,-0.015305,0.996736,-0.072081 ShoulderLeft:-0.010791,0.780657,-0.619664,0.080461 ShoulderRight:0.032262,0.794910,0.605303,-0.026172 SpineBase:-0.007066,-0.010796,0.999306,-0.034932 SpineMid:0.012686,-0.011484,0.999251,-0.034712 SpineShoulder:0.032919,-0.013194,0.998001,-0.052303 ThumbLeft:0.000000,0.000000,0.000000,0.000000 ThumbRight:0.000000,0.000000,0.000000,0.000000 WristLeft:0.203509,0.269415,-0.641744,0.688596 WristRight:0.056060,-0.676789,-0.092704,0.728162 END:
KINECT_DATA POSITION:-5.529432,-0.299998,-4.441655 HEAD_JOINT1:0.979024,0.176520,-0.000000,0.101745 LARM_JOINT2:0.965775,0.000000,-0.183765,-0.183054 LARM_JOINT3:0.947759,0.000000,-0.275319,0.161096 LLEG_JOINT2:0.997364,0.022209,0.000000,0.069082 LLEG_JOINT4:0.994577,0.096632,0.000000,-0.038456 RARM_JOINT2:0.794413,0.000000,-0.064744,0.603917 RARM_JOINT3:0.970181,0.000000,0.195459,0.143335 RLEG_JOINT2:0.999106,0.021778,0.000000,-0.036233 RLEG_JOINT4:0.994164,0.101423,0.000000,0.036746 WAIST:0.999985,-0.000000,0.004735,0.002856 WAIST_JOINT0:0.999048,0.000000,-0.041444,0.013622 WAIST_JOINT1:0.998209,0.058185,0.000000,-0.013891 END:
KINECT_DATA_Sensor  AnkleLeft:0.067760,0.738524,-0.102643,-0.662914 AnkleRight:0.087687,0.690856,0.086301,0.712447 ElbowLeft:0.504331,-0.550774,0.199896,0.634302 ElbowRight:0.018707,0.847791,0.179206,0.498785 FootLeft:0.000000,0.000000,0.000000,0.000000 FootRight:0.000000,0.000000,0.000000,0.000000 HandLeft:-0.164803,-0.251686,0.689847,-0.658487 HandRight:0.067285,-0.609068,-0.044603,0.788999 HandTipLeft:0.000000,0.000000,0.000000,0.000000 HandTipRight:0.000000,0.000000,0.000000,0.000000 Head:0.000000,0.000000,0.000000,0.000000 HipLeft:0.118639,-0.681397,0.705237,-0.155769 HipRight:-0.128085,0.679782,0.700222,-0.176576 KneeLeft:0.034772,-0.702559,0.066764,0.707633 KneeRight:-0.008353,0.710733,0.038962,0.702332 Neck:0.040013,-0.015587,0.996437,-0.072586 ShoulderLeft:-0.015741,0.777894,-0.622180,0.086750 ShoulderRight:0.036474,0.793291,0.607373,-0.021403 SpineBase:-0.005295,-0.010291,0.999303,-0.035504 SpineMid:0.017102,-0.011084,0.999170,-0.035265 SpineShoulder:0.039976,-0.013377,0.997720,-0.052702 ThumbLeft:0.000000,0.000000,0.000000,0.000000 ThumbRight:0.000000,0.000000,0.000000,0.000000 WristLeft:-0.188546,-0.300837,0.643439,-0.678184 WristRight:0.045644,-0.609912,-0.096760,0.785214 END:
KINECT_DATA POSITION:-5.538696,-0.247649,-4.432917 HEAD_JOINT1:0.979570,0.173051,-0.000000,0.102453 LARM_JOINT2:0.966034,0.000000,-0.197720,-0.166388 LARM_JOINT3:0.954028,0.000000,-0.257659,0.153112 LLEG_JOINT2:0.997399,0.022262,0.000000,0.068560 LLEG_JOINT4:0.994682,0.096966,0.000000,-0.034708 RARM_JOINT2:0.794824,0.000000,-0.064780,0.603373 RARM_JOINT3:0.969514,0.000000,0.200867,0.140340 RLEG_JOINT2:0.999105,0.021002,0.000000,-0.036709 RLEG_JOINT4:0.994272,0.100772,0.000000,0.035605 WAIST:0.999990,-0.000000,0.002811,0.003512 WAIST_JOINT0:0.998964,0.000000,-0.043316,0.013984 WAIST_JOINT1:0.998150,0.059063,0.000000,-0.014431 END:
KINECT_DATA_Sensor  AnkleLeft:0.067845,0.755385,-0.104350,-0.643352 AnkleRight:0.090717,0.727505,0.080968,0.675242 ElbowLeft:0.518190,-0.560357,0.199862,0.614439 ElbowRight:0.019335,0.846179,0.180141,0.501156 FootLeft:0.000000,0.000000,0.000000,0.000000 FootRight:0.000000,0.000000,0.000000,0.000000 HandLeft:-0.189107,-0.214229,0.701345,-0.653039 HandRight:0.064533,-0.606807,-0.066343,0.789443 HandTipLeft:0.000000,0.000000,0.000000,0.000000 HandTipRight:0.000000,0.000000,0.000000,0.000000 Head:0.000000,0.000000,0.000000,0.000000 HipLeft:0.119412,-0.680715,0.705476,-0.157069 HipRight:-0.126745,0.680453,0.700001,-0.175836 KneeLeft:0.034955,-0.703880,0.066829,0.706303 KneeRight:-0.008695,0.709423,0.038305,0.703688 Neck:0.041857,-0.015433,0.996279,-0.073743 ShoulderLeft:-0.016708,0.776526,-0.623536,0.089060 ShoulderRight:0.037966,0.792529,0.608295,-0.020815 SpineBase:-0.003418,-0.009969,0.999298,-0.035941 SpineMid:0.018977,-0.010772,0.999124,-0.035709 SpineShoulder:0.041831,-0.013183,0.997602,-0.053537 ThumbLeft:0.000000,0.000000,0.000000,0.000000 ThumbRight:0.000000,0.000000,0.000000,0.000000 WristLeft:0.215641,0.278489,-0.630254,0.691898 WristRight:0.045527,-0.607781,-0.097812,0.786742 END:
KINECT_DATA POSITION:-5.528404,-0.202923,-4.378831 HEAD_JOINT1:0.979721,0.172197,-0.000000,0.102448 LARM_JOINT2:0.964315,0.000000,-0.223489,-0.141948 LARM_JOINT3:0.965236,0.000000,-0.229447,0.125197 LLEG_JOINT2:0.997420,0.023674,0.000000,0.067775 LLEG_JOINT4:0.994654,0.095948,0.000000,-0.038170 RARM_JOINT2:0.797273,0.000000,-0.066463,0.599949 RARM_JOINT3:0.968015,0.000000,0.203187,0.147180 RLEG_JOINT2:0.999109,0.019547,0.000000,-0.037400 RLEG_JOINT4:0.994259,0.100892,0.000000,0.035639 WAIST:0.999992,-0.000000,0.000580,0.003832 WAIST_JOINT0:0.998791,0.000000,-0.047094,0.014125 WAIST_JOINT1:0.998131,0.059240,0.000000,-0.014996 END:
KINECT_DATA_Sensor  AnkleLeft:0.069371,0.750215,-0.102463,-0.649513 AnkleRight:0.091087,0.737808,0.078540,0.664209 ElbowLeft:0.542367,-0.566237,0.186780,0.591884 ElbowRight:0.020208,0.847831,0.184481,0.496730 FootLeft:0.000000,0.000000,0.000000,0.000000 FootRight:0.000000,0.000000,0.000000,0.000000 HandLeft:0.213826,0.186507,-0.659593,0.696010 HandRight:0.072218,-0.586884,-0.069082,0.803479 HandTipLeft:0.000000,0.000000,0.000000,0.000000 HandTipRight:0.000000,0.000000,0.000000,0.000000 Head:0.000000,0.000000,0.000000,0.000000 HipLeft:0.120481,-0.680368,0.705379,-0.158189 HipRight:-0.125269,0.681133,0.699948,-0.174464 KneeLeft:-0.033762,0.705526,-0.067428,-0.704660 KneeRight:-0.009896,0.707868,0.037565,0.705276 Neck:0.045363,-0.015752,0.996105,-0.073956 ShoulderLeft:-0.022652,0.774686,-0.624798,0.094736 ShoulderRight:0.036624,0.792733,0.608113,-0.020795 SpineBase:-0.001206,-0.009757,0.999304,-0.035971 SpineMid:0.021846,-0.010584,0.999066,-0.035737 SpineShoulder:0.045352,-0.013346,0.997437,-0.053714 ThumbLeft:0.000000,0.000000,0.000000,0.000000 ThumbRight:0.000000,0.000000,0.000000,0.000000 WristLeft:0.251301,0.238540,-0.620708,0.703326 WristRight:0.043062,-0.588563,-0.098618,0.801258 END:
KINECT_DATA POSITION:-5.504921,-0.192238,-4.284370 HEAD_JOINT1:0.979941,0.171640,-0.000000,0.101269 LARM_JOINT2:0.954659,0.000000,-0.272866,-0.119041 LARM_JOINT3:0.975946,0.000000,-0.195565,0.096356 LLEG_JOINT2:0.997443,0.024459,0.000000,0.067147 LLEG_JOINT4:0.994734,0.095042,0.000000,-0.038354 RARM_JOINT2:0.797733,0.000000,-0.068156,0.599147 RARM_JOINT3:0.966870,0.000000,0.205831,0.150986 RLEG_JOINT2:0.999085,0.019291,0.000000,-0.038160 RLEG_JOINT4:0.994028,0.103041,0.000000,0.035940 WAIST:0.999991,0.000000,-0.000643,0.004309 WAIST_JOINT0:0.998631,0.000000,-0.050363,0.014167 WAIST_JOINT1:0.998133,0.059096,0.000000,-0.015408 END:
KINECT_DATA_Sensor  AnkleLeft:0.066396,0.732051,-0.104178,-0.669955 AnkleRight:0.091381,0.726487,0.081079,0.676234 ElbowLeft:0.565206,-0.594982,0.166963,0.546500 ElbowRight:0.021159,0.847057,0.185700,0.497556 FootLeft:0.000000,0.000000,0.000000,0.000000 FootRight:0.000000,0.000000,0.000000,0.000000 HandLeft:0.219326,0.158822,-0.641893,0.717388 HandRight:0.085907,-0.612079,-0.066728,0.783279 HandTipLeft:0.000000,0.000000,0.000000,0.000000 HandTipRight:0.000000,0.000000,0.000000,0.000000 Head:0.000000,0.000000,0.000000,0.000000 HipLeft:0.121004,-0.680030,0.705533,-0.158559 HipRight:-0.124485,0.681800,0.699714,-0.173356 KneeLeft:-0.033174,0.706417,-0.067839,-0.703756 KneeRight:-0.010227,0.707013,0.037600,0.706126 Neck:0.048649,-0.015866,0.995959,-0.073804 ShoulderLeft:-0.027825,0.774166,-0.624520,0.099335 ShoulderRight:0.035688,0.792866,0.608015,-0.020178 SpineBase:0.000000,-0.009319,0.999317,-0.035759 SpineMid:0.024100,-0.010179,0.999026,-0.035524 SpineShoulder:0.048658,-0.013283,0.997290,-0.053568 ThumbLeft:0.000000,0.000000,0.000000,0.000000 ThumbRight:0.000000,0.000000,0.000000,0.000000 WristLeft:0.256684,0.203884,-0.611760,0.719927 WristRight:0.046536,-0.614372,-0.097396,0.781598 END:
KINECT_DATA POSITION:-5.485414,-0.199059,-4.197490 HEAD_JOINT1:0.980003,0.171590,-0.000000,0.100750 LARM_JOINT2:0.941401,0.000000,-0.320956,-0.103686 LARM_JOINT3:0.980597,0.000000,-0.179101,0.079707 LLEG_JOINT2:0.997445,0.025375,0.000000,0.066774 LLEG_JOINT4:0.994583,0.095775,0.000000,-0.040400 RARM_JOINT2:0.801786,0.000000,-0.069038,0.593610 RARM_JOINT3:0.966211,0.000000,0.205375,0.155747 RLEG_JOINT2:0.999113,0.017754,0.000000,-0.038174 RLEG_JOINT4:0.993769,0.105777,0.000000,0.035136 WAIST:0.999986,0.000000,-0.002554,0.004600 WAIST_JOINT0:0.998413,0.000000,-0.054196,0.015279 WAIST_JOINT1:0.998165,0.058465,0.000000,-0.015731 END:
KINECT_DATA_Sensor  AnkleLeft:0.069476,0.737173,-0.103409,-0.664120 AnkleRight:0.087055,0.683681,0.087418,0.719278 ElbowLeft:0.578234,-0.634516,0.157712,0.488018 ElbowRight:0.020413,0.850512,0.191425,0.489458 FootLeft:0.000000,0.000000,0.000000,0.000000 FootRight:0.000000,0.000000,0.000000,0.000000 HandLeft:0.228898,0.138578,-0.634572,0.725066 HandRight:0.073312,-0.580821,-0.072108,0.807510 HandTipLeft:0.000000,0.000000,0.000000,0.000000 HandTipRight:0.000000,0.000000,0.000000,0.000000 Head:0.000000,0.000000,0.000000,0.000000 HipLeft:0.122467,-0.679797,0.705430,-0.158894 HipRight:-0.123798,0.682498,0.699620,-0.171471 KneeLeft:-0.032585,0.707813,-0.068376,-0.702327 KneeRight:-0.011046,0.705659,0.036346,0.707532 Neck:0.052383,-0.015931,0.995815,-0.073181 ShoulderLeft:-0.035209,0.773430,-0.624123,0.105059 ShoulderRight:0.033071,0.794365,0.606217,-0.019759 SpineBase:0.001915,-0.009013,0.999350,-0.034840 SpineMid:0.026920,-0.009882,0.998990,-0.034604 SpineShoulder:0.052403,-0.013263,0.997133,-0.052945 ThumbLeft:0.000000,0.000000,0.000000,0.000000 ThumbRight:0.000000,0.000000,0.000000,0.000000 WristLeft:0.236055,0.152556,-0.617063,0.735009 WristRight:0.043125,-0.582659,-0.099781,0.805414 END:
KINECT_DATA POSITION:-5.516595,-0.211896,-4.091167 HEAD_JOINT1:0.978967,0.174123,-0.000000,0.106327 LARM_JOINT2:0.930492,0.000000,-0.352756,-0.098729 LARM_JOINT3:0.986491,0.000000,-0.145700,0.074876 LLEG_JOINT2:0.997439,0.027377,0.000000,0.066070 LLEG_JOINT4:0.994702,0.094362,0.000000,-0.040789 RARM_JOINT2:0.799744,0.000000,-0.072397,0.595960 RARM_JOINT3:0.968923,0.000000,0.193435,0.154179 RLEG_JOINT2:0.999091,0.015671,0.000000,-0.039640 RLEG_JOINT4:0.993766,0.105382,0.000000,0.036389 WAIST:0.999955,0.000000,-0.007952,0.005203 WAIST_JOINT0:0.998310,0.000000,-0.055914,0.015836 WAIST_JOINT1:0.998132,0.058865,0.000000,-0.016367 END:
KINECT_DATA_Sensor  AnkleLeft:0.068748,0.734680,-0.104463,-0.666788 AnkleRight:0.086422,0.682685,0.084608,0.720634 ElbowLeft:0.592288,-0.628765,0.106018,0.492554 ElbowRight:0.024399,0.844562,0.190089,0.499987 FootLeft:0.000000,0.000000,0.000000,0.000000 FootRight:0.000000,0.000000,0.000000,0.000000 HandLeft:0.217264,0.149751,-0.623574,0.735884 HandRight:-0.046082,0.708670,0.018207,-0.703798 HandTipLeft:0.000000,0.000000,0.000000,0.000000 HandTipRight:0.000000,0.000000,0.000000,0.000000 Head:0.000000,0.000000,0.000000,0.000000 HipLeft:0.125900,-0.678503,0.705177,-0.162815 HipRight:-0.120880,0.683436,0.699750,-0.169272 KneeLeft:-0.031442,0.711648,-0.069577,-0.698374 KneeRight:-0.012919,0.701857,0.035583,0.711311 Neck:0.054702,-0.015574,0.995656,-0.073713 ShoulderLeft:-0.030110,0.774934,-0.622935,0.102583 ShoulderRight:0.041085,0.793236,0.607366,-0.013940 SpineBase:0.007262,-0.008635,0.999310,-0.035393 SpineMid:0.030792,-0.009466,0.998862,-0.035180 SpineShoulder:0.054744,-0.012800,0.996984,-0.053491 ThumbLeft:0.000000,0.000000,0.000000,0.000000 ThumbRight:0.000000,0.000000,0.000000,0.000000 WristLeft:0.224362,0.154204,-0.625449,0.731229 WristRight:-0.057465,0.710766,0.090658,-0.695191 END:
KINECT_DATA POSITION:-5.563326,-0.220311,-4.074872 HEAD_JOINT1:0.978619,0.175025,-0.000000,0.108032 LARM_JOINT2:0.928948,0.000000,-0.356896,-0.098390 LARM_JOINT3:0.985707,0.000000,-0.150430,0.075849 LLEG_JOINT2:0.997428,0.028032,0.000000,0.065967 LLEG_JOINT4:0.994660,0.094379,0.000000,-0.041774 RARM_JOINT2:0.802630,0.000000,-0.076514,0.591550 RARM_JOINT3:0.966024,0.000000,0.204793,0.157665 RLEG_JOINT2:0.999089,0.016318,0.000000,-0.039442 RLEG_JOINT4:0.993856,0.105237,0.000000,0.034282 WAIST:0.999933,0.000000,-0.010234,0.005404 WAIST_JOINT0:0.998188,0.000000,-0.058225,0.015198 WAIST_JOINT1:0.998094,0.059354,0.000000,-0.016880 END:
KINECT_DATA_Sensor  AnkleLeft:0.069554,0.735755,-0.104465,-0.665517 AnkleRight:0.085820,0.681547,0.085920,0.721628 ElbowLeft:0.592653,-0.632328,0.101988,0.488388 ElbowRight:0.027116,0.845868,0.196294,0.495218 FootLeft:0.000000,0.000000,0.000000,0.000000 FootRight:0.000000,0.000000,0.000000,0.000000 HandLeft:0.264667,0.064477,-0.607382,0.746245 HandRight:0.066518,-0.675079,-0.062332,0.732092 HandTipLeft:0.000000,0.000000,0.000000,0.000000 HandTipRight:0.000000,0.000000,0.000000,0.000000 Head:0.000000,0.000000,0.000000,0.000000 HipLeft:0.126734,-0.678145,0.705069,-0.164121 HipRight:-0.118794,0.683968,0.699894,-0.168001 KneeLeft:-0.031199,0.713244,-0.070051,-0.696708 KneeRight:-0.012085,0.700263,0.035790,0.712885 Neck:0.056775,-0.015831,0.995495,-0.074261 ShoulderLeft:-0.032664,0.774575,-0.622739,0.105653 ShoulderRight:0.041236,0.793469,0.607058,-0.013658 SpineBase:0.009512,-0.008748,0.999273,-0.035871 SpineMid:0.032957,-0.009587,0.998775,-0.035656 SpineShoulder:0.056827,-0.012965,0.996838,-0.054007 ThumbLeft:0.000000,0.000000,0.000000,0.000000 ThumbRight:0.000000,0.000000,0.000000,0.000000 WristLeft:0.278868,0.077328,-0.603260,0.743190 WristRight:0.050170,-0.675841,-0.091604,0.729610 END:
KINECT_DATA POSITION:-5.572499,-0.222715,-4.092145 HEAD_JOINT1:0.978546,0.175453,-0.000000,0.107997 LARM_JOINT2:0.924921,0.000000,-0.366614,-0.100574 LARM_JOINT3:0.985105,0.000000,-0.152948,0.078582 LLEG_JOINT2:0.997454,0.027816,0.000000,0.065667 LLEG_JOINT4:0.994570,0.094810,0.000000,-0.042903 RARM_JOINT2:0.797179,0.000000,-0.070635,0.599597 RARM_JOINT3:0.968658,0.000000,0.197181,0.151069 RLEG_JOINT2:0.999087,0.015963,0.000000,-0.039638 RLEG_JOINT4:0.993385,0.109470,0.000000,0.034684 WAIST:0.999913,0.000000,-0.011813,0.005878 WAIST_JOINT0:0.997708,0.000000,-0.065751,0.015994 WAIST_JOINT1:0.998090,0.059223,0.000000,-0.017573 END:
KINECT_DATA_Sensor  AnkleLeft:0.070649,0.739564,-0.103725,-0.661283 AnkleRight:0.088791,0.676750,0.088450,0.725467 ElbowLeft:0.592885,-0.634324,0.087818,0.488270 ElbowRight:0.025655,0.842443,0.186209,0.504933 FootLeft:0.000000,0.000000,0.000000,0.000000 FootRight:0.000000,0.000000,0.000000,0.000000 HandLeft:0.177730,0.147812,-0.636286,0.736005 HandRight:0.066363,-0.692105,-0.037476,0.717762 HandTipLeft:0.000000,0.000000,0.000000,0.000000 HandTipRight:0.000000,0.000000,0.000000,0.000000 Head:0.000000,0.000000,0.000000,0.000000 HipLeft:0.127238,-0.677821,0.705166,-0.164649 HipRight:-0.117317,0.684662,0.699716,-0.166952 KneeLeft:-0.031577,0.714302,-0.069976,-0.695614 KneeRight:-0.012078,0.699169,0.035373,0.713978 Neck:0.064787,-0.016445,0.995016,-0.073998 ShoulderLeft:-0.036304,0.774511,-0.621799,0.110360 ShoulderRight:0.047897,0.792335,0.608174,-0.005967 SpineBase:0.011049,-0.008842,0.999252,-0.035998 SpineMid:0.037716,-0.009799,0.998601,-0.035749 SpineShoulder:0.064854,-0.013435,0.996351,-0.053835 ThumbLeft:0.000000,0.000000,0.000000,0.000000 ThumbRight:0.000000,0.000000,0.000000,0.000000 WristLeft:0.192519,0.158230,-0.638629,0.728047 WristRight:0.052694,-0.692554,-0.090344,0.713743 END:
