EastLYD/RoboCupatHomeSim/InteractiveCleanUp/JapanOpen2016/Motion_Data/File8.dat
KINECT_DATA POSITION:0.712287,0.368652,-4.951608 HEAD_JOINT1:0.980687,0.165035,-0.000000,0.104960 LARM_JOINT2:0.828036,0.000000,-0.028683,-0.559941 LARM_JOINT3:0.963451,0.000000,-0.195626,-0.183011 LLEG_JOINT2:0.999028,0.015202,0.000000,0.041369 LLEG_JOINT4:0.995619,0.087446,0.000000,-0.033105 RARM_JOINT2:0.804067,0.000000,-0.061193,0.591381 RARM_JOINT3:0.962459,0.000000,0.229229,0.145352 RLEG_JOINT2:0.999580,0.022503,0.000000,-0.018273 RLEG_JOINT4:0.995865,0.080934,0.000000,0.041256 WAIST:0.999872,0.000000,0.015960,-0.001233 WAIST_JOINT0:0.999939,-0.000000,0.001838,0.010893 WAIST_JOINT1:0.997835,0.064341,0.000000,-0.013616 END:
KINECT_DATA_Sensor  AnkleLeft:0.072419,0.722701,-0.072894,-0.683480 AnkleRight:0.091078,0.754497,0.053452,0.647752 ElbowLeft:-0.034570,0.892203,-0.175062,-0.414889 ElbowRight:0.006179,0.842560,0.198149,0.500791 FootLeft:0.000000,0.000000,0.000000,0.000000 FootRight:0.000000,0.000000,0.000000,0.000000 HandLeft:-0.016509,-0.495364,-0.149830,0.855508 HandRight:0.049387,-0.375661,-0.109812,0.918902 HandTipLeft:0.000000,0.000000,0.000000,0.000000 HandTipRight:0.000000,0.000000,0.000000,0.000000 Head:0.000000,0.000000,0.000000,0.000000 HipLeft:0.108098,-0.684137,0.705266,-0.151233 HipRight:-0.131549,0.673221,0.703255,-0.186818 KneeLeft:0.016991,-0.695109,0.039422,0.717622 KneeRight:0.001684,0.718559,0.029746,0.694827 Neck:-0.002698,-0.017996,0.996683,-0.079322 ShoulderLeft:0.028221,0.787710,-0.613486,0.048494 ShoulderRight:0.025976,0.793520,0.605850,-0.050963 SpineBase:-0.016390,-0.014005,0.998939,-0.040706 SpineMid:-0.009784,-0.014274,0.999025,-0.040612 SpineShoulder:-0.002897,-0.016289,0.998125,-0.058924 ThumbLeft:0.000000,0.000000,0.000000,0.000000 ThumbRight:0.000000,0.000000,0.000000,0.000000 WristLeft:0.073954,-0.477986,-0.133483,0.865010 WristRight:0.020470,-0.378066,-0.132227,0.916058 END:
KINECT_DATA POSITION:0.701290,0.362699,-4.942632 HEAD_JOINT1:0.980959,0.164552,-0.000000,0.103164 LARM_JOINT2:0.827297,0.000000,-0.028593,-0.561037 LARM_JOINT3:0.963620,0.000000,-0.196649,-0.181013 LLEG_JOINT2:0.999041,0.015398,0.000000,0.040978 LLEG_JOINT4:0.995542,0.088241,0.000000,-0.033317 RARM_JOINT2:0.804856,0.000000,-0.058179,0.590611 RARM_JOINT3:0.962288,0.000000,0.230422,0.144597 RLEG_JOINT2:0.999580,0.022085,0.000000,-0.018787 RLEG_JOINT4:0.995719,0.082266,0.000000,0.042134 WAIST:0.999867,0.000000,0.016283,-0.001085 WAIST_JOINT0:0.999943,-0.000000,0.000219,0.010695 WAIST_JOINT1:0.997820,0.064783,0.000000,-0.012591 END:
KINECT_DATA_Sensor  AnkleLeft:0.074909,0.735702,-0.071719,-0.669318 AnkleRight:0.092221,0.756282,0.053472,0.645503 ElbowLeft:-0.034216,0.891445,-0.175112,-0.416522 ElbowRight:0.004932,0.844392,0.197175,0.498096 FootLeft:0.000000,0.000000,0.000000,0.000000 FootRight:0.000000,0.000000,0.000000,0.000000 HandLeft:-0.011426,-0.486566,-0.147682,0.860995 HandRight:0.054831,-0.378967,-0.120851,0.915845 HandTipLeft:0.000000,0.000000,0.000000,0.000000 HandTipRight:0.000000,0.000000,0.000000,0.000000 Head:0.000000,0.000000,0.000000,0.000000 HipLeft:0.107592,-0.684032,0.705406,-0.151416 HipRight:-0.131735,0.673303,0.703083,-0.187040 KneeLeft:0.016669,-0.694900,0.039387,0.717834 KneeRight:0.001120,0.718788,0.029701,0.694593 Neck:-0.001235,-0.016933,0.996668,-0.079782 ShoulderLeft:0.029335,0.786671,-0.614751,0.048684 ShoulderRight:0.028935,0.792947,0.606638,-0.048861 SpineBase:-0.016700,-0.013355,0.998931,-0.040993 SpineMid:-0.009211,-0.013662,0.999028,-0.040892 SpineShoulder:-0.001414,-0.015279,0.998119,-0.059358 ThumbLeft:0.000000,0.000000,0.000000,0.000000 ThumbRight:0.000000,0.000000,0.000000,0.000000 WristLeft:0.073149,-0.470664,-0.134325,0.868954 WristRight:0.021584,-0.382430,-0.131766,0.914286 END:
KINECT_DATA POSITION:0.689329,0.356294,-4.902720 HEAD_JOINT1:0.980829,0.165466,-0.000000,0.102938 LARM_JOINT2:0.826970,0.000000,-0.028413,-0.561527 LARM_JOINT3:0.963403,0.000000,-0.198459,-0.180192 LLEG_JOINT2:0.999047,0.015737,0.000000,0.040722 LLEG_JOINT4:0.995609,0.088085,0.000000,-0.031668 RARM_JOINT2:0.805070,0.000000,-0.056315,0.590501 RARM_JOINT3:0.961603,0.000000,0.232376,0.146019 RLEG_JOINT2:0.999581,0.021926,0.000000,-0.018880 RLEG_JOINT4:0.995542,0.084546,0.000000,0.041804 WAIST:0.999863,0.000000,0.016544,-0.000690 WAIST_JOINT0:0.999944,0.000000,-0.000261,0.010595 WAIST_JOINT1:0.997825,0.064714,0.000000,-0.012557 END:
KINECT_DATA_Sensor  AnkleLeft:-0.070273,-0.702169,0.076677,0.704373 AnkleRight:0.093255,0.750441,0.055776,0.651944 ElbowLeft:-0.034077,0.891184,-0.175013,-0.417133 ElbowRight:0.004180,0.846204,0.196242,0.495389 FootLeft:0.000000,0.000000,0.000000,0.000000 FootRight:0.000000,0.000000,0.000000,0.000000 HandLeft:-0.000423,-0.519087,-0.152882,0.840938 HandRight:0.055363,-0.283250,-0.139248,0.947267 HandTipLeft:0.000000,0.000000,0.000000,0.000000 HandTipRight:0.000000,0.000000,0.000000,0.000000 Head:0.000000,0.000000,0.000000,0.000000 HipLeft:0.107392,-0.683778,0.705694,-0.151360 HipRight:-0.132011,0.673540,0.702773,-0.187157 KneeLeft:0.016515,-0.694715,0.039723,0.717997 KneeRight:0.001214,0.718983,0.029373,0.694406 Neck:-0.000832,-0.016620,0.996683,-0.079664 ShoulderLeft:0.030085,0.786082,-0.615505,0.048211 ShoulderRight:0.030199,0.792560,0.607170,-0.047758 SpineBase:-0.016974,-0.012905,0.998932,-0.040992 SpineMid:-0.009136,-0.013226,0.999034,-0.040889 SpineShoulder:-0.000997,-0.014894,0.998129,-0.059295 ThumbLeft:0.000000,0.000000,0.000000,0.000000 ThumbRight:0.000000,0.000000,0.000000,0.000000 WristLeft:0.078366,-0.503807,-0.131388,0.850161 WristRight:0.008985,-0.289450,-0.132550,0.947929 END:
KINECT_DATA POSITION:0.693364,0.323406,-4.809868 HEAD_JOINT1:0.980893,0.166258,-0.000000,0.101031 LARM_JOINT2:0.826112,0.000000,-0.028128,-0.562804 LARM_JOINT3:0.964539,0.000000,-0.195199,-0.177659 LLEG_JOINT2:0.999076,0.016199,0.000000,0.039818 LLEG_JOINT4:0.995636,0.087850,0.000000,-0.031496 RARM_JOINT2:0.805710,0.000000,-0.050372,0.590165 RARM_JOINT3:0.956245,0.000000,0.250609,0.150965 RLEG_JOINT2:0.999552,0.022457,0.000000,-0.019789 RLEG_JOINT4:0.995514,0.084782,0.000000,0.041995 WAIST:0.999833,-0.000000,0.018249,0.000160 WAIST_JOINT0:0.999929,-0.000000,0.002082,0.011718 WAIST_JOINT1:0.997856,0.064228,0.000000,-0.012577 END:
KINECT_DATA_Sensor  AnkleLeft:0.075620,0.748053,-0.071729,-0.655403 AnkleRight:0.090368,0.712439,0.061699,0.693151 ElbowLeft:-0.034219,0.889196,-0.174268,-0.421652 ElbowRight:0.000592,0.850939,0.193562,0.488299 FootLeft:0.000000,0.000000,0.000000,0.000000 FootRight:0.000000,0.000000,0.000000,0.000000 HandLeft:-0.045497,0.773392,0.130781,-0.618621 HandRight:0.160196,-0.637998,-0.146963,0.738713 HandTipLeft:0.000000,0.000000,0.000000,0.000000 HandTipRight:0.000000,0.000000,0.000000,0.000000 Head:0.000000,0.000000,0.000000,0.000000 HipLeft:0.106802,-0.683514,0.706322,-0.150037 HipRight:-0.133655,0.674014,0.701875,-0.187651 KneeLeft:0.016085,-0.693498,0.040022,0.719167 KneeRight:0.001480,0.720172,0.029787,0.693155 Neck:-0.003237,-0.015698,0.996734,-0.079149 ShoulderLeft:0.031440,0.786147,-0.615531,0.045881 ShoulderRight:0.028497,0.794012,0.605239,-0.049175 SpineBase:-0.018706,-0.012191,0.998941,-0.040239 SpineMid:-0.011201,-0.012493,0.999053,-0.040147 SpineShoulder:-0.003407,-0.014164,0.998163,-0.058815 ThumbLeft:0.000000,0.000000,0.000000,0.000000 ThumbRight:0.000000,0.000000,0.000000,0.000000 WristLeft:-0.120568,0.766761,0.095474,-0.623238 WristRight:0.075175,-0.648754,-0.119797,0.747740 END:
KINECT_DATA POSITION:0.759491,0.256553,-4.565406 HEAD_JOINT1:0.982032,0.164226,-0.000000,0.092972 LARM_JOINT2:0.823415,0.000000,-0.023108,-0.566969 LARM_JOINT3:0.966388,0.000000,-0.196508,-0.165767 LLEG_JOINT2:0.999128,0.017497,0.000000,0.037901 LLEG_JOINT4:0.996033,0.083509,0.000000,-0.030729 RARM_JOINT2:0.808423,0.000000,-0.030177,0.587828 RARM_JOINT3:0.952285,0.000000,0.264334,0.152581 RLEG_JOINT2:0.999553,0.021560,0.000000,-0.020701 RLEG_JOINT4:0.995206,0.088239,0.000000,0.042168 WAIST:0.999701,-0.000000,0.024428,0.001248 WAIST_JOINT0:0.999829,-0.000000,0.012593,0.013540 WAIST_JOINT1:0.997942,0.063336,0.000000,-0.009990 END:
KINECT_DATA_Sensor  AnkleLeft:-0.068534,-0.695116,0.074419,0.711743 AnkleRight:0.092122,0.717995,0.063652,0.686983 ElbowLeft:-0.032895,0.878041,-0.174273,-0.444512 ElbowRight:-0.013227,0.861596,0.185078,0.472465 FootLeft:0.000000,0.000000,0.000000,0.000000 FootRight:0.000000,0.000000,0.000000,0.000000 HandLeft:-0.058185,0.760998,0.116501,-0.635550 HandRight:-0.241297,0.969697,-0.028352,0.025664 HandTipLeft:0.000000,0.000000,0.000000,0.000000 HandTipRight:0.000000,0.000000,0.000000,0.000000 Head:0.000000,0.000000,0.000000,0.000000 HipLeft:0.103988,-0.683452,0.707538,-0.146527 HipRight:-0.139446,0.674067,0.700063,-0.189999 KneeLeft:0.014339,-0.689152,0.040398,0.723348 KneeRight:0.000782,0.724421,0.029005,0.688747 Neck:-0.013847,-0.011425,0.996772,-0.078253 ShoulderLeft:0.042499,0.785157,-0.616930,0.033472 ShoulderRight:0.026022,0.795685,0.602763,-0.053716 SpineBase:-0.024833,-0.009430,0.998898,-0.038688 SpineMid:-0.019555,-0.009634,0.999015,-0.038637 SpineShoulder:-0.014039,-0.010795,0.998158,-0.058025 ThumbLeft:0.000000,0.000000,0.000000,0.000000 ThumbRight:0.000000,0.000000,0.000000,0.000000 WristLeft:-0.125429,0.753971,0.088601,-0.638706 WristRight:-0.165875,0.985610,-0.001800,0.032484 END:
KINECT_DATA POSITION:0.886503,0.190157,-4.352772 HEAD_JOINT1:0.983030,0.164024,-0.000000,0.082146 LARM_JOINT2:0.820651,0.000000,-0.012735,-0.571288 LARM_JOINT3:0.965868,0.000000,-0.205089,-0.158232 LLEG_JOINT2:0.999236,0.017957,0.000000,0.034722 LLEG_JOINT4:0.996206,0.082854,0.000000,-0.026635 RARM_JOINT2:0.813751,0.000000,-0.016334,0.580984 RARM_JOINT3:0.939321,0.000000,0.298214,0.169544 RLEG_JOINT2:0.999420,0.024385,0.000000,-0.023753 RLEG_JOINT4:0.995121,0.088024,0.000000,0.044556 WAIST:0.999479,-0.000000,0.032126,0.003258 WAIST_JOINT0:0.999416,-0.000000,0.030062,0.016235 WAIST_JOINT1:0.998144,0.060464,0.000000,-0.007258 END:
KINECT_DATA_Sensor  AnkleLeft:-0.066516,-0.685675,0.076253,0.720840 AnkleRight:0.096116,0.741661,0.062614,0.660894 ElbowLeft:-0.030934,0.861381,-0.176078,-0.475460 ElbowRight:-0.027129,0.870360,0.181227,0.457050 FootLeft:0.000000,0.000000,0.000000,0.000000 FootRight:0.000000,0.000000,0.000000,0.000000 HandLeft:-0.068501,0.727423,0.113512,-0.673260 HandRight:-0.289187,0.925961,-0.130061,0.205065 HandTipLeft:0.000000,0.000000,0.000000,0.000000 HandTipRight:0.000000,0.000000,0.000000,0.000000 Head:0.000000,0.000000,0.000000,0.000000 HipLeft:0.101288,-0.683123,0.709244,-0.141624 HipRight:-0.147087,0.674753,0.697111,-0.192639 KneeLeft:0.012941,-0.683613,0.039917,0.728637 KneeRight:0.001681,0.729671,0.031731,0.683059 Neck:-0.031131,-0.005529,0.996730,-0.074364 ShoulderLeft:0.055896,0.783225,-0.619031,0.015354 ShoulderRight:0.017404,0.797249,0.600077,-0.063237 SpineBase:-0.032520,-0.006181,0.998807,-0.035903 SpineMid:-0.032010,-0.006200,0.998823,-0.035900 SpineShoulder:-0.031340,-0.006156,0.997941,-0.055622 ThumbLeft:0.000000,0.000000,0.000000,0.000000 ThumbRight:0.000000,0.000000,0.000000,0.000000 WristLeft:-0.131900,0.719874,0.089696,-0.675528 WristRight:-0.190915,0.953922,-0.066502,0.221725 END:
KINECT_DATA POSITION:1.011609,0.177316,-4.303551 HEAD_JOINT1:0.983057,0.166402,-0.000000,0.076869 LARM_JOINT2:0.820089,0.000000,-0.007441,-0.572187 LARM_JOINT3:0.966526,0.000000,-0.202260,-0.157852 LLEG_JOINT2:0.999302,0.018647,0.000000,0.032371 LLEG_JOINT4:0.996352,0.081624,0.000000,-0.024894 RARM_JOINT2:0.820376,0.000000,0.015001,0.571627 RARM_JOINT3:0.928720,0.000000,0.325739,0.177124 RLEG_JOINT2:0.999376,0.024633,0.000000,-0.025309 RLEG_JOINT4:0.995002,0.088978,0.000000,0.045330 WAIST:0.999369,-0.000000,0.035281,0.004167 WAIST_JOINT0:0.999032,-0.000000,0.039969,0.018371 WAIST_JOINT1:0.998343,0.057252,0.000000,-0.005714 END:
KINECT_DATA_Sensor  AnkleLeft:0.071838,0.737825,-0.070491,-0.667446 AnkleRight:0.096338,0.738625,0.064373,0.664085 ElbowLeft:-0.030609,0.857406,-0.177915,-0.481937 ElbowRight:-0.053806,0.880812,0.174200,0.436955 FootLeft:0.000000,0.000000,0.000000,0.000000 FootRight:0.000000,0.000000,0.000000,0.000000 HandLeft:-0.074815,0.795852,0.094862,-0.593316 HandRight:-0.337698,0.939645,-0.049686,-0.023639 HandTipLeft:0.000000,0.000000,0.000000,0.000000 HandTipRight:0.000000,0.000000,0.000000,0.000000 Head:0.000000,0.000000,0.000000,0.000000 HipLeft:0.099733,-0.682956,0.710084,-0.139304 HipRight:-0.150277,0.675262,0.695835,-0.193008 KneeLeft:0.011355,-0.681367,0.039343,0.730796 KneeRight:0.001246,0.731818,0.032329,0.680731 Neck:-0.040918,-0.002737,0.996629,-0.071062 ShoulderLeft:0.060791,0.781289,-0.621181,0.005098 ShoulderRight:0.009856,0.798103,0.598532,-0.068506 SpineBase:-0.035643,-0.003973,0.998760,-0.034525 SpineMid:-0.038402,-0.003877,0.998658,-0.034535 SpineShoulder:-0.041090,-0.003416,0.997769,-0.052506 ThumbLeft:0.000000,0.000000,0.000000,0.000000 ThumbRight:0.000000,0.000000,0.000000,0.000000 WristLeft:-0.143044,0.787664,0.071633,-0.594972 WristRight:-0.250178,0.966628,-0.047588,-0.027863 END:
KINECT_DATA POSITION:1.140454,0.177877,-4.349244 HEAD_JOINT1:0.983357,0.167389,-0.000000,0.070632 LARM_JOINT2:0.819630,0.000000,-0.006142,-0.572860 LARM_JOINT3:0.965231,0.000000,-0.209430,-0.156426 LLEG_JOINT2:0.999356,0.019094,0.000000,0.030366 LLEG_JOINT4:0.996318,0.082432,0.000000,-0.023565 RARM_JOINT2:0.826217,0.000000,0.068412,0.559183 RARM_JOINT3:0.924098,0.000000,0.344308,0.165814 RLEG_JOINT2:0.999344,0.024333,0.000000,-0.026842 RLEG_JOINT4:0.994588,0.093323,0.000000,0.045660 WAIST:0.999322,-0.000000,0.036494,0.004780 WAIST_JOINT0:0.998746,-0.000000,0.045561,0.020760 WAIST_JOINT1:0.998458,0.055397,0.000000,-0.003605 END:
KINECT_DATA_Sensor  AnkleLeft:0.073722,0.744394,-0.070289,-0.659925 AnkleRight:0.099509,0.747586,0.066477,0.653294 ElbowLeft:-0.032121,0.855788,-0.179302,-0.484195 ElbowRight:-0.097382,0.883727,0.157054,0.429973 FootLeft:0.000000,0.000000,0.000000,0.000000 FootRight:0.000000,0.000000,0.000000,0.000000 HandLeft:-0.097127,0.755200,0.120999,-0.636866 HandRight:-0.349322,0.922076,-0.131772,0.101909 HandTipLeft:0.000000,0.000000,0.000000,0.000000 HandTipRight:0.000000,0.000000,0.000000,0.000000 Head:0.000000,0.000000,0.000000,0.000000 HipLeft:0.098376,-0.682704,0.710745,-0.138124 HipRight:-0.151545,0.675898,0.695218,-0.192009 KneeLeft:0.010050,-0.680533,0.038623,0.731629 KneeRight:0.000309,0.732635,0.032719,0.679835 Neck:-0.046529,0.000087,0.996472,-0.069847 ShoulderLeft:0.061046,0.778373,-0.624826,0.001122 ShoulderRight:0.002901,0.798878,0.597020,-0.073165 SpineBase:-0.036805,-0.001475,0.998751,-0.033750 SpineMid:-0.041727,-0.001309,0.998558,-0.033756 SpineShoulder:-0.046645,-0.000428,0.997633,-0.050517 ThumbLeft:0.000000,0.000000,0.000000,0.000000 ThumbRight:0.000000,0.000000,0.000000,0.000000 WristLeft:-0.140295,0.750888,0.075435,-0.640932 WristRight:-0.287347,0.946070,-0.102646,0.108847 END:
KINECT_DATA POSITION:1.248400,0.191873,-4.371321 HEAD_JOINT1:0.983741,0.166691,-0.000000,0.066847 LARM_JOINT2:0.819514,0.000000,-0.006788,-0.573019 LARM_JOINT3:0.966352,0.000000,-0.204244,-0.156361 LLEG_JOINT2:0.999406,0.019102,0.000000,0.028687 LLEG_JOINT4:0.996592,0.078983,0.000000,-0.023803 RARM_JOINT2:0.831355,0.000000,0.105371,0.545662 RARM_JOINT3:0.924736,0.000000,0.343551,0.163818 RLEG_JOINT2:0.999303,0.024344,0.000000,-0.028302 RLEG_JOINT4:0.994607,0.091640,0.000000,0.048564 WAIST:0.999283,-0.000000,0.037493,0.005339 WAIST_JOINT0:0.998517,-0.000000,0.049816,0.021961 WAIST_JOINT1:0.998525,0.054229,0.000000,-0.002623 END:
KINECT_DATA_Sensor  AnkleLeft:0.071172,0.737456,-0.067775,-0.668207 AnkleRight:0.100371,0.755476,0.062852,0.644385 ElbowLeft:-0.033346,0.856961,-0.179920,-0.481803 ElbowRight:-0.127285,0.890958,0.149416,0.409473 FootLeft:0.000000,0.000000,0.000000,0.000000 FootRight:0.000000,0.000000,0.000000,0.000000 HandLeft:-0.085773,0.729156,0.112712,-0.669530 HandRight:-0.334610,0.898911,-0.194099,0.205720 HandTipLeft:0.000000,0.000000,0.000000,0.000000 HandTipRight:0.000000,0.000000,0.000000,0.000000 Head:0.000000,0.000000,0.000000,0.000000 HipLeft:0.097461,-0.682476,0.711263,-0.137234 HipRight:-0.152618,0.676434,0.694633,-0.191391 KneeLeft:0.009262,-0.679828,0.037798,0.732338 KneeRight:-0.000394,0.733313,0.033323,0.679074 Neck:-0.050743,0.001809,0.996338,-0.068794 ShoulderLeft:0.061095,0.777041,-0.626476,-0.001436 ShoulderRight:-0.002506,0.799150,0.596156,-0.077139 SpineBase:-0.037774,0.000352,0.998737,-0.033123 SpineMid:-0.044272,0.000568,0.998470,-0.033120 SpineShoulder:-0.050836,0.001250,0.997487,-0.049329 ThumbLeft:0.000000,0.000000,0.000000,0.000000 ThumbRight:0.000000,0.000000,0.000000,0.000000 WristLeft:-0.137146,0.723199,0.080402,-0.672094 WristRight:-0.289585,0.919580,-0.150315,0.218904 END:
KINECT_DATA POSITION:1.360255,0.197451,-4.405761 HEAD_JOINT1:0.984214,0.166302,-0.000000,0.060543 LARM_JOINT2:0.819333,0.000000,-0.004288,-0.573302 LARM_JOINT3:0.965942,0.000000,-0.204969,-0.157933 LLEG_JOINT2:0.999448,0.018826,0.000000,0.027391 LLEG_JOINT4:0.996337,0.081862,0.000000,-0.024712 RARM_JOINT2:0.832474,0.000000,0.163591,0.529362 RARM_JOINT3:0.927484,0.000000,0.343130,0.148444 RLEG_JOINT2:0.999294,0.023043,0.000000,-0.029688 RLEG_JOINT4:0.994421,0.093601,0.000000,0.048631 WAIST:0.999256,-0.000000,0.038171,0.005588 WAIST_JOINT0:0.997924,-0.000000,0.059818,0.023849 WAIST_JOINT1:0.998581,0.053256,0.000000,-0.000753 END:
KINECT_DATA_Sensor  AnkleLeft:0.074728,0.739405,-0.067463,-0.665691 AnkleRight:0.098904,0.744394,0.065876,0.657081 ElbowLeft:-0.033049,0.856055,-0.182019,-0.482645 ElbowRight:-0.171108,0.894295,0.127476,0.393329 FootLeft:0.000000,0.000000,0.000000,0.000000 FootRight:0.000000,0.000000,0.000000,0.000000 HandLeft:-0.093484,0.763639,0.113609,-0.628657 HandRight:0.252465,-0.232348,-0.335444,0.877356 HandTipLeft:0.000000,0.000000,0.000000,0.000000 HandTipRight:0.000000,0.000000,0.000000,0.000000 Head:0.000000,0.000000,0.000000,0.000000 HipLeft:0.096959,-0.682398,0.711516,-0.136667 HipRight:-0.153950,0.676873,0.694184,-0.190396 KneeLeft:0.008736,-0.679375,0.036840,0.732814 KneeRight:-0.002146,0.733749,0.033132,0.678609 Neck:-0.060702,0.004328,0.995826,-0.068024 ShoulderLeft:0.061017,0.774966,-0.629030,-0.005152 ShoulderRight:-0.015518,0.799237,0.594227,-0.088728 SpineBase:-0.038388,0.002583,0.998739,-0.032246 SpineMid:-0.049482,0.002941,0.998251,-0.032216 SpineShoulder:-0.060751,0.003874,0.996976,-0.048300 ThumbLeft:0.000000,0.000000,0.000000,0.000000 ThumbRight:0.000000,0.000000,0.000000,0.000000 WristLeft:-0.141594,0.758613,0.069873,-0.632119 WristRight:0.179262,-0.258665,-0.309154,0.897430 END:
KINECT_DATA POSITION:1.453573,0.205022,-4.437554 HEAD_JOINT1:0.984538,0.166163,-0.000000,0.055442 LARM_JOINT2:0.818278,0.000000,-0.005302,-0.574798 LARM_JOINT3:0.967283,0.000000,-0.199329,-0.156944 LLEG_JOINT2:0.999488,0.018716,0.000000,0.025962 LLEG_JOINT4:0.996427,0.081737,0.000000,-0.021260 RARM_JOINT2:0.830486,0.000000,0.212318,0.514989 RARM_JOINT3:0.934356,0.000000,0.328842,0.137268 RLEG_JOINT2:0.999246,0.022557,0.000000,-0.031605 RLEG_JOINT4:0.994410,0.093734,0.000000,0.048598 WAIST:0.999204,-0.000000,0.039381,0.006417 WAIST_JOINT0:0.997226,-0.000000,0.069496,0.026642 WAIST_JOINT1:0.998605,0.052795,-0.000000,0.000263 END:
KINECT_DATA_Sensor  AnkleLeft:0.074495,0.754302,-0.067723,-0.648763 AnkleRight:0.098189,0.749520,0.065851,0.651339 ElbowLeft:-0.033846,0.855862,-0.181540,-0.483113 ElbowRight:-0.204873,0.900167,0.108169,0.368818 FootLeft:0.000000,0.000000,0.000000,0.000000 FootRight:0.000000,0.000000,0.000000,0.000000 HandLeft:-0.078328,0.724995,0.112847,-0.674917 HandRight:-0.082636,0.516624,-0.404672,0.750008 HandTipLeft:0.000000,0.000000,0.000000,0.000000 HandTipRight:0.000000,0.000000,0.000000,0.000000 Head:0.000000,0.000000,0.000000,0.000000 HipLeft:0.096049,-0.681938,0.712183,-0.136127 HipRight:-0.155253,0.677404,0.693346,-0.190503 KneeLeft:0.008393,-0.678488,0.036308,0.733665 KneeRight:-0.003343,0.734577,0.033484,0.677691 Neck:-0.070415,0.006865,0.995201,-0.067603 ShoulderLeft:0.063437,0.772824,-0.631361,-0.010100 ShoulderRight:-0.025666,0.799896,0.591404,-0.098736 SpineBase:-0.039592,0.004371,0.998695,-0.031956 SpineMid:-0.054890,0.004860,0.997971,-0.031885 SpineShoulder:-0.070464,0.006009,0.996352,-0.047755 ThumbLeft:0.000000,0.000000,0.000000,0.000000 ThumbRight:0.000000,0.000000,0.000000,0.000000 WristLeft:-0.136977,0.718873,0.074682,-0.677408 WristRight:-0.116018,0.507000,-0.360289,0.774392 END:
KINECT_DATA POSITION:1.802877,0.216816,-4.409075 HEAD_JOINT1:0.984744,0.166541,-0.000000,0.050437 LARM_JOINT2:0.816353,0.000000,-0.001715,-0.577550 LARM_JOINT3:0.967624,0.000000,-0.196422,-0.158502 LLEG_JOINT2:0.999653,0.018205,0.000000,0.019040 LLEG_JOINT4:0.996411,0.081722,0.000000,-0.022076 RARM_JOINT2:0.822676,0.000000,0.283852,0.492576 RARM_JOINT3:0.947264,0.000000,0.294151,0.127143 RLEG_JOINT2:0.998897,0.024306,0.000000,-0.040176 RLEG_JOINT4:0.994092,0.094064,0.000000,0.054151 WAIST:0.998925,-0.000000,0.045317,0.009800 WAIST_JOINT0:0.995597,-0.000000,0.087832,0.032741 WAIST_JOINT1:0.998611,0.052687,0.000000,-0.000076 END:
KINECT_DATA_Sensor  AnkleLeft:0.075464,0.736279,-0.064986,-0.669310 AnkleRight:0.099321,0.752399,0.067564,0.647662 ElbowLeft:-0.030647,0.851387,-0.182552,-0.490791 ElbowRight:-0.250241,0.915777,0.081488,0.303468 FootLeft:0.000000,0.000000,0.000000,0.000000 FootRight:0.000000,0.000000,0.000000,0.000000 HandLeft:0.033081,-0.500229,-0.123329,0.856427 HandRight:-0.249655,0.798524,-0.335998,0.432593 HandTipLeft:0.000000,0.000000,0.000000,0.000000 HandTipRight:0.000000,0.000000,0.000000,0.000000 Head:0.000000,0.000000,0.000000,0.000000 HipLeft:0.093260,-0.680148,0.714654,-0.134056 HipRight:-0.161625,0.679077,0.689524,-0.193103 KneeLeft:0.006311,-0.674093,0.033265,0.737870 KneeRight:-0.006317,0.738669,0.038122,0.672959 Neck:-0.088683,0.011139,0.993739,-0.067042 ShoulderLeft:0.066103,0.770690,-0.633540,-0.017128 ShoulderRight:-0.046726,0.802183,0.583077,-0.119754 SpineBase:-0.045553,0.009838,0.998437,-0.030855 SpineMid:-0.066846,0.010494,0.997238,-0.030639 SpineShoulder:-0.088780,0.009085,0.994877,-0.047495 ThumbLeft:0.000000,0.000000,0.000000,0.000000 ThumbRight:0.000000,0.000000,0.000000,0.000000 WristLeft:0.109801,-0.485520,-0.108074,0.860543 WristRight:-0.262073,0.803008,-0.285510,0.452747 END:
KINECT_DATA POSITION:2.190080,0.152317,-4.300511 HEAD_JOINT1:0.984886,0.167931,-0.000000,0.042419 LARM_JOINT2:0.813550,0.000000,0.002391,-0.581491 LARM_JOINT3:0.967381,0.000000,-0.199522,-0.156092 LLEG_JOINT2:0.999804,0.017764,0.000000,0.008685 LLEG_JOINT4:0.996714,0.079768,0.000000,-0.014114 RARM_JOINT2:0.817389,0.000000,0.333732,0.469571 RARM_JOINT3:0.954955,0.000000,0.268077,0.127264 RLEG_JOINT2:0.998268,0.028185,0.000000,-0.051634 RLEG_JOINT4:0.993950,0.092502,0.000000,0.059217 WAIST:0.998341,-0.000000,0.055206,0.016346 WAIST_JOINT0:0.993379,-0.000000,0.107976,0.039244 WAIST_JOINT1:0.998646,0.051984,0.000000,-0.001950 END:
KINECT_DATA_Sensor  AnkleLeft:0.070166,0.717779,-0.067166,-0.689463 AnkleRight:0.099855,0.756961,0.069979,0.641983 ElbowLeft:-0.027945,0.842437,-0.183471,-0.505823 ElbowRight:-0.285207,0.925368,0.065894,0.240852 FootLeft:0.000000,0.000000,0.000000,0.000000 FootRight:0.000000,0.000000,0.000000,0.000000 HandLeft:-0.076900,0.732989,0.101044,-0.668284 HandRight:-0.237842,0.804160,-0.341327,0.424563 HandTipLeft:0.000000,0.000000,0.000000,0.000000 HandTipRight:0.000000,0.000000,0.000000,0.000000 Head:0.000000,0.000000,0.000000,0.000000 HipLeft:0.089931,-0.676894,0.718927,-0.129891 HipRight:-0.171597,0.682248,0.682363,-0.198681 KneeLeft:0.004109,-0.666593,0.029873,0.744812 KneeRight:-0.008067,0.745576,0.043906,0.664924 Neck:-0.108533,0.017644,0.991780,-0.065433 ShoulderLeft:0.070427,0.768744,-0.635095,-0.026969 ShoulderRight:-0.068294,0.804750,0.572661,-0.140614 SpineBase:-0.055624,0.015760,0.997914,-0.028733 SpineMid:-0.081678,0.016505,0.996120,-0.028311 SpineShoulder:-0.108742,0.013133,0.992896,-0.046489 ThumbLeft:0.000000,0.000000,0.000000,0.000000 ThumbRight:0.000000,0.000000,0.000000,0.000000 WristLeft:-0.141307,0.725974,0.066413,-0.669764 WristRight:-0.256358,0.805028,-0.301589,0.441876 END:
KINECT_DATA POSITION:2.526407,0.109070,-4.158843 HEAD_JOINT1:0.985380,0.168364,-0.000000,0.026086 LARM_JOINT2:0.808071,0.000000,0.009941,-0.589002 LARM_JOINT3:0.969155,0.000000,-0.194568,-0.151268 LLEG_JOINT2:0.999822,0.018777,0.000000,-0.001870 LLEG_JOINT4:0.996902,0.077959,0.000000,-0.010415 RARM_JOINT2:0.809182,0.000000,0.378595,0.449322 RARM_JOINT3:0.963262,0.000000,0.234007,0.131785 RLEG_JOINT2:0.997589,0.032670,0.000000,-0.061226 RLEG_JOINT4:0.994198,0.088548,0.000000,0.061073 WAIST:0.997610,-0.000000,0.065090,0.023173 WAIST_JOINT0:0.990718,-0.000000,0.128784,0.043495 WAIST_JOINT1:0.998633,0.052260,0.000000,-0.000993 END:
KINECT_DATA_Sensor  AnkleLeft:-0.061885,-0.627966,0.073050,0.772330 AnkleRight:0.098573,0.764952,0.071296,0.632495 ElbowLeft:-0.023252,0.827788,-0.184399,-0.529361 ElbowRight:-0.312929,0.933944,0.053344,0.164250 FootLeft:0.000000,0.000000,0.000000,0.000000 FootRight:0.000000,0.000000,0.000000,0.000000 HandLeft:-0.063076,0.731847,0.090585,-0.672470 HandRight:-0.211873,0.800284,-0.353410,0.435611 HandTipLeft:0.000000,0.000000,0.000000,0.000000 HandTipRight:0.000000,0.000000,0.000000,0.000000 Head:0.000000,0.000000,0.000000,0.000000 HipLeft:0.085307,-0.673000,0.723968,-0.125156 HipRight:-0.179759,0.685223,0.675791,-0.203623 KneeLeft:0.001041,-0.658966,0.027359,0.751674 KneeRight:-0.008022,0.752493,0.048592,0.656757 Neck:-0.129427,0.026147,0.989095,-0.065244 ShoulderLeft:0.079503,0.763939,-0.639131,-0.039851 ShoulderRight:-0.086782,0.803457,0.566913,-0.159796 SpineBase:-0.065713,0.021048,0.997238,-0.027475 SpineMid:-0.097064,0.021903,0.994676,-0.026799 SpineShoulder:-0.129591,0.020699,0.990279,-0.046103 ThumbLeft:0.000000,0.000000,0.000000,0.000000 ThumbRight:0.000000,0.000000,0.000000,0.000000 WristLeft:-0.143303,0.724094,0.053185,-0.672550 WristRight:-0.235958,0.800424,-0.311577,0.454494 END:
KINECT_DATA POSITION:2.864936,0.083512,-4.023826 HEAD_JOINT1:0.985079,0.171403,-0.000000,0.015509 LARM_JOINT2:0.805161,0.000000,0.013715,-0.592897 LARM_JOINT3:0.968374,0.000000,-0.196464,-0.153797 LLEG_JOINT2:0.999704,0.019945,0.000000,-0.013904 LLEG_JOINT4:0.996746,0.080573,0.000000,-0.002464 RARM_JOINT2:0.801644,0.000000,0.401892,0.442549 RARM_JOINT3:0.963967,0.000000,0.227871,0.137270 RLEG_JOINT2:0.996388,0.040564,0.000000,-0.074601 RLEG_JOINT4:0.994323,0.083150,0.000000,0.066385 WAIST:0.996465,-0.000000,0.077760,0.031802 WAIST_JOINT0:0.988104,-0.000000,0.146307,0.047384 WAIST_JOINT1:0.998615,0.052511,0.000000,-0.003218 END:
KINECT_DATA_Sensor  AnkleLeft:0.072511,0.725445,-0.067591,-0.681104 AnkleRight:0.100473,0.785170,0.071302,0.606901 ElbowLeft:-0.018902,0.821295,-0.187014,-0.538649 ElbowRight:-0.325763,0.935850,0.034539,0.129883 FootLeft:0.000000,0.000000,0.000000,0.000000 FootRight:0.000000,0.000000,0.000000,0.000000 HandLeft:0.043465,-0.522441,-0.108733,0.844596 HandRight:0.383841,-0.478341,-0.155165,0.774455 HandTipLeft:0.000000,0.000000,0.000000,0.000000 HandTipRight:0.000000,0.000000,0.000000,0.000000 Head:0.000000,0.000000,0.000000,0.000000 HipLeft:0.079439,-0.668187,0.729973,-0.119812 HipRight:-0.189638,0.688434,0.667192,-0.212015 KneeLeft:-0.001694,-0.649047,0.024877,0.760339 KneeRight:-0.007740,0.761356,0.056892,0.645786 Neck:-0.146875,0.032051,0.986491,-0.065092 ShoulderLeft:0.088093,0.760311,-0.641458,-0.051957 ShoulderRight:-0.100996,0.802535,0.561487,-0.174557 SpineBase:-0.078685,0.026317,0.996192,-0.026783 SpineMid:-0.112150,0.027203,0.992982,-0.025882 SpineShoulder:-0.146952,0.026638,0.987737,-0.045513 ThumbLeft:0.000000,0.000000,0.000000,0.000000 ThumbRight:0.000000,0.000000,0.000000,0.000000 WristLeft:0.123934,-0.506575,-0.086490,0.848847 WristRight:0.349009,-0.499263,-0.199108,0.767649 END:
KINECT_DATA POSITION:3.716803,0.222179,-3.898966 HEAD_JOINT1:0.985109,0.171925,-0.000000,0.001500 LARM_JOINT2:0.799771,0.000000,0.016599,-0.600075 LARM_JOINT3:0.967813,0.000000,-0.196499,-0.157246 LLEG_JOINT2:0.998972,0.020980,0.000000,-0.040181 LLEG_JOINT4:0.996934,0.077495,0.000000,0.010819 RARM_JOINT2:0.800753,0.000000,0.416763,0.430237 RARM_JOINT3:0.963374,0.000000,0.225095,0.145750 RLEG_JOINT2:0.993780,0.051856,0.000000,-0.098552 RLEG_JOINT4:0.993914,0.076660,0.000000,0.079105 WAIST:0.993768,-0.000000,0.101408,0.046269 WAIST_JOINT0:0.985793,-0.000000,0.159825,0.051647 WAIST_JOINT1:0.998593,0.052731,0.000000,-0.005644 END:
KINECT_DATA_Sensor  AnkleLeft:0.069777,0.709777,-0.064710,-0.697969 AnkleRight:0.101710,0.791455,0.074798,0.598047 ElbowLeft:-0.013984,0.810427,-0.190246,-0.553913 ElbowRight:-0.338185,0.937661,0.022948,0.076786 FootLeft:0.000000,0.000000,0.000000,0.000000 FootRight:0.000000,0.000000,0.000000,0.000000 HandLeft:0.054898,-0.511211,-0.118351,0.849496 HandRight:0.426259,-0.611409,-0.050379,0.664788 HandTipLeft:0.000000,0.000000,0.000000,0.000000 HandTipRight:0.000000,0.000000,0.000000,0.000000 Head:0.000000,0.000000,0.000000,0.000000 HipLeft:0.062113,-0.658878,0.742276,-0.105109 HipRight:-0.204025,0.693613,0.654533,-0.221046 KneeLeft:-0.008904,-0.630284,0.014814,0.776172 KneeRight:-0.010738,0.777624,0.069883,0.624742 Neck:-0.160564,0.043730,0.983896,-0.065230 ShoulderLeft:0.100427,0.752857,-0.647102,-0.066180 ShoulderRight:-0.106777,0.801079,0.560269,-0.181577 SpineBase:-0.102696,0.039158,0.993614,-0.025519 SpineMid:-0.130864,0.039867,0.990298,-0.024397 SpineShoulder:-0.160605,0.036376,0.985334,-0.044718 ThumbLeft:0.000000,0.000000,0.000000,0.000000 ThumbRight:0.000000,0.000000,0.000000,0.000000 WristLeft:0.125941,-0.495463,-0.077714,0.855930 WristRight:0.394044,-0.633866,-0.098536,0.658206 END:
KINECT_DATA POSITION:3.890466,0.294571,-3.941298 HEAD_JOINT1:0.985449,0.169840,0.000000,-0.006728 LARM_JOINT2:0.796482,0.000000,0.021159,-0.604292 LARM_JOINT3:0.968420,0.000000,-0.195942,-0.154172 LLEG_JOINT2:0.998836,0.020683,0.000000,-0.043587 LLEG_JOINT4:0.996953,0.076686,0.000000,0.014316 RARM_JOINT2:0.799341,0.000000,0.417215,0.432419 RARM_JOINT3:0.964149,0.000000,0.221608,0.145971 RLEG_JOINT2:0.993488,0.054245,0.000000,-0.100194 RLEG_JOINT4:0.993923,0.078024,0.000000,0.077649 WAIST:0.992627,-0.000000,0.111609,0.047285 WAIST_JOINT0:0.982469,-0.000000,0.178076,0.055169 WAIST_JOINT1:0.998568,0.053488,0.000000,-0.000269 END:
KINECT_DATA_Sensor  AnkleLeft:-0.058851,-0.597586,0.072911,0.796311 AnkleRight:0.101761,0.800128,0.079133,0.585814 ElbowLeft:-0.009896,0.800937,-0.192561,-0.566852 ElbowRight:-0.335174,0.939865,0.013426,0.064281 FootLeft:0.000000,0.000000,0.000000,0.000000 FootRight:0.000000,0.000000,0.000000,0.000000 HandLeft:0.061551,-0.496899,-0.105843,0.859127 HandRight:0.437493,-0.686694,0.029441,0.579814 HandTipLeft:0.000000,0.000000,0.000000,0.000000 HandTipRight:0.000000,0.000000,0.000000,0.000000 Head:0.000000,0.000000,0.000000,0.000000 HipLeft:0.055594,-0.657848,0.744220,-0.101402 HipRight:-0.211131,0.691580,0.652408,-0.226945 KneeLeft:-0.009896,-0.622286,0.012258,0.782631 KneeRight:-0.010834,0.784248,0.071616,0.616205 Neck:-0.179085,0.049457,0.980408,-0.065446 ShoulderLeft:0.112156,0.746600,-0.650968,-0.079056 ShoulderRight:-0.119700,0.797740,0.557336,-0.196622 SpineBase:-0.112897,0.042222,0.992355,-0.026506 SpineMid:-0.145161,0.043063,0.988151,-0.025116 SpineShoulder:-0.179009,0.042751,0.981871,-0.045352 ThumbLeft:0.000000,0.000000,0.000000,0.000000 ThumbRight:0.000000,0.000000,0.000000,0.000000 WristLeft:0.127393,-0.483197,-0.072855,0.863125 WristRight:-0.399880,0.725775,0.032495,-0.558830 END:
KINECT_DATA POSITION:3.639210,0.320797,-4.062462 HEAD_JOINT1:0.985624,0.168421,0.000000,-0.013382 LARM_JOINT2:0.798553,0.000000,0.027441,-0.601299 LARM_JOINT3:0.966165,0.000000,-0.200168,-0.162660 LLEG_JOINT2:0.999119,0.017159,0.000000,-0.038290 LLEG_JOINT4:0.996633,0.080160,0.000000,0.017226 RARM_JOINT2:0.797479,0.000000,0.424072,0.429175 RARM_JOINT3:0.965564,0.000000,0.217453,0.142830 RLEG_JOINT2:0.993982,0.055388,0.000000,-0.094514 RLEG_JOINT4:0.993975,0.078790,0.000000,0.076203 WAIST:0.991213,-0.000000,0.124131,0.045706 WAIST_JOINT0:0.981835,-0.000000,0.181724,0.054566 WAIST_JOINT1:0.998580,0.053176,-0.000000,0.003262 END:
KINECT_DATA_Sensor  AnkleLeft:-0.056067,-0.595867,0.076365,0.797476 AnkleRight:0.100971,0.787529,0.083318,0.602214 ElbowLeft:-0.004033,0.796420,-0.199196,-0.570982 ElbowRight:-0.340176,0.939246,0.005888,0.045420 FootLeft:0.000000,0.000000,0.000000,0.000000 FootRight:0.000000,0.000000,0.000000,0.000000 HandLeft:0.069924,-0.515135,-0.111340,0.846965 HandRight:0.439014,-0.600447,-0.027853,0.667798 HandTipLeft:0.000000,0.000000,0.000000,0.000000 HandTipRight:0.000000,0.000000,0.000000,0.000000 Head:0.000000,0.000000,0.000000,0.000000 HipLeft:0.047347,-0.659241,0.744311,-0.095717 HipRight:-0.216284,0.688019,0.652066,-0.233795 KneeLeft:-0.004709,-0.612729,0.012616,0.790179 KneeRight:-0.008089,0.791985,0.069550,0.606513 Neck:-0.183026,0.048020,0.979726,-0.065815 ShoulderLeft:0.119487,0.744129,-0.651661,-0.085630 ShoulderRight:-0.116939,0.796189,0.560277,-0.196211 SpineBase:-0.125407,0.041429,0.990838,-0.028227 SpineMid:-0.153448,0.042213,0.986884,-0.027041 SpineShoulder:-0.182710,0.044345,0.981102,-0.045706 ThumbLeft:0.000000,0.000000,0.000000,0.000000 ThumbRight:0.000000,0.000000,0.000000,0.000000 WristLeft:0.129172,-0.501490,-0.066506,0.852877 WristRight:0.395511,-0.628247,-0.083512,0.664757 END:
KINECT_DATA POSITION:3.607632,0.344497,-4.202902 HEAD_JOINT1:0.985231,0.170347,0.000000,-0.017368 LARM_JOINT2:0.799003,0.000000,0.026990,-0.600721 LARM_JOINT3:0.965183,0.000000,-0.203840,-0.163925 LLEG_JOINT2:0.999057,0.016439,0.000000,-0.040189 LLEG_JOINT4:0.996364,0.082927,0.000000,0.019519 RARM_JOINT2:0.798566,0.000000,0.429998,0.421182 RARM_JOINT3:0.967315,0.000000,0.217231,0.130810 RLEG_JOINT2:0.993885,0.056504,0.000000,-0.094872 RLEG_JOINT4:0.994170,0.076605,0.000000,0.075879 WAIST:0.990874,-0.000000,0.126545,0.046416 WAIST_JOINT0:0.982323,-0.000000,0.179293,0.053804 WAIST_JOINT1:0.998599,0.052769,-0.000000,0.003822 END:
KINECT_DATA_Sensor  AnkleLeft:-0.057349,-0.597330,0.077991,0.796131 AnkleRight:0.101569,0.800786,0.080619,0.584745 ElbowLeft:-0.004183,0.797482,-0.200710,-0.568964 ElbowRight:-0.347841,0.937024,0.009286,0.030099 FootLeft:0.000000,0.000000,0.000000,0.000000 FootRight:0.000000,0.000000,0.000000,0.000000 HandLeft:0.082868,-0.511354,-0.118679,0.847092 HandRight:0.447797,-0.536959,-0.110470,0.706364 HandTipLeft:0.000000,0.000000,0.000000,0.000000 HandTipRight:0.000000,0.000000,0.000000,0.000000 Head:0.000000,0.000000,0.000000,0.000000 HipLeft:0.044482,-0.658945,0.744906,-0.094492 HipRight:-0.217033,0.688005,0.651281,-0.235327 KneeLeft:-0.004754,-0.610844,0.011085,0.791659 KneeRight:-0.007427,0.793570,0.070050,0.604388 Neck:-0.180693,0.048650,0.980139,-0.065658 ShoulderLeft:0.120457,0.743585,-0.652012,-0.086324 ShoulderRight:-0.112711,0.796463,0.562162,-0.192139 SpineBase:-0.127868,0.042313,0.990459,-0.029149 SpineMid:-0.153543,0.043056,0.986805,-0.028040 SpineShoulder:-0.180323,0.045358,0.981506,-0.045512 ThumbLeft:0.000000,0.000000,0.000000,0.000000 ThumbRight:0.000000,0.000000,0.000000,0.000000 WristLeft:0.129255,-0.499579,-0.067333,0.853920 WristRight:0.387140,-0.559492,-0.120363,0.722913 END:
KINECT_DATA POSITION:3.466589,0.330540,-4.446590 HEAD_JOINT1:0.985086,0.171118,0.000000,-0.018013 LARM_JOINT2:0.798958,0.000000,0.024317,-0.600895 LARM_JOINT3:0.964037,0.000000,-0.207994,-0.165442 LLEG_JOINT2:0.999209,0.014539,0.000000,-0.037002 LLEG_JOINT4:0.996951,0.076003,0.000000,0.017658 RARM_JOINT2:0.814472,0.000000,0.420432,0.399840 RARM_JOINT3:0.960674,0.000000,0.246940,0.126987 RLEG_JOINT2:0.993936,0.056880,0.000000,-0.094104 RLEG_JOINT4:0.994032,0.070682,0.000000,0.083095 WAIST:0.990987,-0.000000,0.126299,0.044636 WAIST_JOINT0:0.983037,-0.000000,0.175568,0.053042 WAIST_JOINT1:0.998557,0.053404,-0.000000,0.005601 END:
KINECT_DATA_Sensor  AnkleLeft:-0.051093,-0.600249,0.072183,0.794909 AnkleRight:0.102743,0.798747,0.072911,0.588329 ElbowLeft:-0.005575,0.797428,-0.200179,-0.569215 ElbowRight:-0.357932,0.931104,0.023096,0.066303 FootLeft:0.000000,0.000000,0.000000,0.000000 FootRight:0.000000,0.000000,0.000000,0.000000 HandLeft:0.085772,-0.511077,-0.139623,0.843771 HandRight:0.464845,-0.606053,-0.093165,0.638701 HandTipLeft:0.000000,0.000000,0.000000,0.000000 HandTipRight:0.000000,0.000000,0.000000,0.000000 Head:0.000000,0.000000,0.000000,0.000000 HipLeft:0.045417,-0.660100,0.743466,-0.097280 HipRight:-0.217745,0.686565,0.652063,-0.236705 KneeLeft:-0.002567,-0.611262,0.011195,0.791345 KneeRight:-0.007804,0.793370,0.071149,0.604517 Neck:-0.177282,0.047919,0.980716,-0.066860 ShoulderLeft:0.119359,0.743625,-0.652565,-0.083268 ShoulderRight:-0.109419,0.796652,0.563368,-0.189710 SpineBase:-0.127556,0.042204,0.990468,-0.030369 SpineMid:-0.151688,0.042932,0.987060,-0.029331 SpineShoulder:-0.176856,0.045326,0.982094,-0.046459 ThumbLeft:0.000000,0.000000,0.000000,0.000000 ThumbRight:0.000000,0.000000,0.000000,0.000000 WristLeft:0.129936,-0.497889,-0.066780,0.854847 WristRight:0.417185,-0.623491,-0.092332,0.654745 END:
KINECT_DATA POSITION:3.469744,0.325398,-4.530406 HEAD_JOINT1:0.984977,0.171830,0.000000,-0.017155 LARM_JOINT2:0.798184,0.000000,0.023216,-0.601966 LARM_JOINT3:0.962771,0.000000,-0.211223,-0.168694 LLEG_JOINT2:0.999160,0.015017,0.000000,-0.038139 LLEG_JOINT4:0.997012,0.075482,0.000000,0.016405 RARM_JOINT2:0.808779,0.000000,0.431472,0.399635 RARM_JOINT3:0.966910,0.000000,0.221443,0.126681 RLEG_JOINT2:0.993803,0.056700,0.000000,-0.095604 RLEG_JOINT4:0.994118,0.071532,0.000000,0.081316 WAIST:0.991042,-0.000000,0.125634,0.045305 WAIST_JOINT0:0.983013,-0.000000,0.175643,0.053246 WAIST_JOINT1:0.998562,0.053252,-0.000000,0.006197 END:
KINECT_DATA_Sensor  AnkleLeft:0.063820,0.732767,-0.060402,-0.674783 AnkleRight:0.098592,0.778188,0.078329,0.615278 ElbowLeft:-0.006810,0.797588,-0.199755,-0.569127 ElbowRight:-0.361889,0.930439,0.015321,0.055536 FootLeft:0.000000,0.000000,0.000000,0.000000 FootRight:0.000000,0.000000,0.000000,0.000000 HandLeft:0.097854,-0.592202,-0.146270,0.786338 HandRight:0.421720,-0.603918,-0.108673,0.667552 HandTipLeft:0.000000,0.000000,0.000000,0.000000 HandTipRight:0.000000,0.000000,0.000000,0.000000 Head:0.000000,0.000000,0.000000,0.000000 HipLeft:0.045647,-0.659503,0.743889,-0.097984 HipRight:-0.217640,0.687067,0.651690,-0.236374 KneeLeft:-0.003181,-0.611750,0.011085,0.790967 KneeRight:-0.008555,0.793003,0.071487,0.604948 Neck:-0.177533,0.049289,0.980612,-0.066722 ShoulderLeft:0.118216,0.743156,-0.653389,-0.082625 ShoulderRight:-0.111124,0.796725,0.562668,-0.190488 SpineBase:-0.126908,0.043108,0.990508,-0.030507 SpineMid:-0.151477,0.043853,0.987049,-0.029426 SpineShoulder:-0.177080,0.046674,0.982000,-0.046260 ThumbLeft:0.000000,0.000000,0.000000,0.000000 ThumbRight:0.000000,0.000000,0.000000,0.000000 WristLeft:0.137063,-0.579298,-0.055751,0.801573 WristRight:0.413288,-0.606122,-0.104404,0.671498 END:
KINECT_DATA POSITION:3.633019,0.308608,-4.577506 HEAD_JOINT1:0.984995,0.171819,0.000000,-0.016230 LARM_JOINT2:0.797544,0.000000,0.021439,-0.602879 LARM_JOINT3:0.963637,0.000000,-0.203214,-0.173518 LLEG_JOINT2:0.998779,0.015036,0.000000,-0.047068 LLEG_JOINT4:0.997034,0.074515,0.000000,0.019256 RARM_JOINT2:0.794600,0.000000,0.436078,0.422429 RARM_JOINT3:0.981176,0.000000,0.172114,0.087578 RLEG_JOINT2:0.992804,0.058599,0.000000,-0.104431 RLEG_JOINT4:0.993970,0.071271,0.000000,0.083328 WAIST:0.990193,-0.000000,0.130031,0.051086 WAIST_JOINT0:0.978002,-0.000000,0.199429,0.061153 WAIST_JOINT1:0.998430,0.055837,-0.000000,0.004485 END:
KINECT_DATA_Sensor  AnkleLeft:-0.049978,-0.584793,0.069920,0.806616 AnkleRight:0.095421,0.763241,0.082743,0.633649 ElbowLeft:-0.004640,0.800320,-0.202583,-0.564294 ElbowRight:-0.345209,0.934817,-0.022755,0.080182 FootLeft:0.000000,0.000000,0.000000,0.000000 FootRight:0.000000,0.000000,0.000000,0.000000 HandLeft:0.053585,-0.453213,-0.134168,0.879617 HandRight:0.305929,-0.403771,-0.251073,0.824827 HandTipLeft:0.000000,0.000000,0.000000,0.000000 HandTipRight:0.000000,0.000000,0.000000,0.000000 Head:0.000000,0.000000,0.000000,0.000000 HipLeft:0.041700,-0.655616,0.747837,-0.095754 HipRight:-0.220285,0.689328,0.647076,-0.239988 KneeLeft:-0.004453,-0.608052,0.007945,0.793845 KneeRight:-0.010757,0.796048,0.074140,0.600579 Neck:-0.200874,0.055153,0.975668,-0.068414 ShoulderLeft:0.119477,0.740191,-0.655949,-0.087025 ShoulderRight:-0.142555,0.793471,0.549339,-0.219791 SpineBase:-0.131613,0.046023,0.989740,-0.031235 SpineMid:-0.165348,0.047063,0.984666,-0.029645 SpineShoulder:-0.200503,0.050885,0.977229,-0.047251 ThumbLeft:0.000000,0.000000,0.000000,0.000000 ThumbRight:0.000000,0.000000,0.000000,0.000000 WristLeft:0.123702,-0.436110,-0.080136,0.887741 WristRight:0.343280,-0.383790,-0.232918,0.824993 END:
KINECT_DATA POSITION:3.652853,0.292245,-4.578328 HEAD_JOINT1:0.984286,0.176028,0.000000,-0.013942 LARM_JOINT2:0.797885,0.000000,0.021224,-0.602436 LARM_JOINT3:0.962458,0.000000,-0.205572,-0.177244 LLEG_JOINT2:0.998633,0.015115,0.000000,-0.050046 LLEG_JOINT4:0.996823,0.075988,0.000000,0.023871 RARM_JOINT2:0.803754,0.000000,0.443787,0.396275 RARM_JOINT3:0.979153,0.000000,0.163743,0.120198 RLEG_JOINT2:0.992380,0.059766,0.000000,-0.107747 RLEG_JOINT4:0.993770,0.070611,0.000000,0.086224 WAIST:0.989770,-0.000000,0.132224,0.053587 WAIST_JOINT0:0.976171,-0.000000,0.206672,0.066166 WAIST_JOINT1:0.998312,0.057921,-0.000000,0.004382 END:
KINECT_DATA_Sensor  AnkleLeft:0.062776,0.739122,-0.061925,-0.667775 AnkleRight:0.095887,0.756644,0.083027,0.641407 ElbowLeft:-0.002157,0.802956,-0.205800,-0.559378 ElbowRight:-0.363069,0.931124,0.026072,-0.022581 FootLeft:0.000000,0.000000,0.000000,0.000000 FootRight:0.000000,0.000000,0.000000,0.000000 HandLeft:0.069524,-0.510380,-0.131853,0.846932 HandRight:0.314885,-0.476734,-0.238442,0.785313 HandTipLeft:0.000000,0.000000,0.000000,0.000000 HandTipRight:0.000000,0.000000,0.000000,0.000000 Head:0.000000,0.000000,0.000000,0.000000 HipLeft:0.039197,-0.654141,0.749263,-0.095749 HipRight:-0.220553,0.690394,0.645010,-0.242227 KneeLeft:-0.004492,-0.606216,0.007304,0.795254 KneeRight:-0.011151,0.797574,0.075223,0.598408 Neck:-0.208138,0.057086,0.973929,-0.069868 ShoulderLeft:0.122392,0.737255,-0.658570,-0.088096 ShoulderRight:-0.149919,0.793270,0.544023,-0.228661 SpineBase:-0.133994,0.047419,0.989305,-0.032753 SpineMid:-0.170097,0.048586,0.983741,-0.030996 SpineShoulder:-0.207705,0.053426,0.975505,-0.048928 ThumbLeft:0.000000,0.000000,0.000000,0.000000 ThumbRight:0.000000,0.000000,0.000000,0.000000 WristLeft:0.126701,-0.495707,-0.072001,0.856176 WristRight:0.353313,-0.446050,-0.175933,0.803279 END:
KINECT_DATA POSITION:3.613167,0.278006,-4.549432 HEAD_JOINT1:0.983884,0.178488,0.000000,-0.010705 LARM_JOINT2:0.798434,0.000000,0.018269,-0.601805 LARM_JOINT3:0.960792,0.000000,-0.213219,-0.177248 LLEG_JOINT2:0.998661,0.015803,0.000000,-0.049269 LLEG_JOINT4:0.997084,0.073207,0.000000,0.021559 RARM_JOINT2:0.804866,0.000000,0.434287,0.404457 RARM_JOINT3:0.976622,0.000000,0.195604,0.089151 RLEG_JOINT2:0.992534,0.059300,0.000000,-0.106580 RLEG_JOINT4:0.993726,0.066431,0.000000,0.089975 WAIST:0.990284,-0.000000,0.128469,0.053232 WAIST_JOINT0:0.981571,-0.000000,0.180810,0.061861 WAIST_JOINT1:0.998291,0.058284,-0.000000,0.004234 END:
KINECT_DATA_Sensor  AnkleLeft:0.060841,0.731695,-0.060580,-0.676204 AnkleRight:0.102957,0.801146,0.068845,0.585513 ElbowLeft:-0.002969,0.810016,-0.205622,-0.549167 ElbowRight:-0.354644,0.932135,-0.004088,0.073039 FootLeft:0.000000,0.000000,0.000000,0.000000 FootRight:0.000000,0.000000,0.000000,0.000000 HandLeft:0.092432,-0.489864,-0.166032,0.850837 HandRight:0.401329,-0.585231,-0.188761,0.678829 HandTipLeft:0.000000,0.000000,0.000000,0.000000 HandTipRight:0.000000,0.000000,0.000000,0.000000 Head:0.000000,0.000000,0.000000,0.000000 HipLeft:0.041051,-0.654203,0.748739,-0.098602 HipRight:-0.217569,0.691116,0.646021,-0.240164 KneeLeft:-0.004928,-0.609181,0.008249,0.792973 KneeRight:-0.010340,0.795280,0.074568,0.601550 Neck:-0.183497,0.054983,0.978878,-0.071440 ShoulderLeft:0.122701,0.736971,-0.659741,-0.080998 ShoulderRight:-0.115311,0.798296,0.556361,-0.199722 SpineBase:-0.130250,0.047547,0.989773,-0.033526 SpineMid:-0.156046,0.048406,0.986035,-0.032273 SpineShoulder:-0.182978,0.052144,0.980437,-0.050437 ThumbLeft:0.000000,0.000000,0.000000,0.000000 ThumbRight:0.000000,0.000000,0.000000,0.000000 WristLeft:0.121556,-0.479235,-0.072634,0.866189 WristRight:0.394697,-0.578048,-0.141222,0.700094 END:
KINECT_DATA POSITION:3.214957,0.123207,-4.377413 HEAD_JOINT1:0.983123,0.182829,0.000000,-0.006571 LARM_JOINT2:0.798528,0.000000,0.010437,-0.601867 LARM_JOINT3:0.961690,0.000000,-0.212861,-0.172747 LLEG_JOINT2:0.999316,0.016344,0.000000,-0.033162 LLEG_JOINT4:0.997126,0.074963,0.000000,0.010932 RARM_JOINT2:0.826888,0.000000,0.408808,0.386177 RARM_JOINT3:0.956378,0.000000,0.262981,0.127213 RLEG_JOINT2:0.994151,0.052780,0.000000,-0.094227 RLEG_JOINT4:0.994134,0.072600,0.000000,0.080172 WAIST:0.993146,-0.000000,0.108204,0.044196 WAIST_JOINT0:0.983257,-0.000000,0.172010,0.060147 WAIST_JOINT1:0.998277,0.058317,-0.000000,0.006569 END:
KINECT_DATA_Sensor  AnkleLeft:-0.051978,-0.602332,0.072413,0.793253 AnkleRight:0.098145,0.767313,0.075574,0.629196 ElbowLeft:-0.010233,0.819590,-0.198114,-0.537512 ElbowRight:-0.357683,0.925971,0.041069,0.113815 FootLeft:0.000000,0.000000,0.000000,0.000000 FootRight:0.000000,0.000000,0.000000,0.000000 HandLeft:0.098098,-0.605545,-0.153692,0.774643 HandRight:0.452634,-0.635997,-0.096172,0.617561 HandTipLeft:0.000000,0.000000,0.000000,0.000000 HandTipRight:0.000000,0.000000,0.000000,0.000000 Head:0.000000,0.000000,0.000000,0.000000 HipLeft:0.058012,-0.659478,0.740913,-0.113009 HipRight:-0.207759,0.689128,0.654519,-0.231396 KneeLeft:-0.002242,-0.625438,0.015633,0.780114 KneeRight:-0.008935,0.781972,0.069044,0.619414 Neck:-0.175047,0.048218,0.980741,-0.071976 ShoulderLeft:0.110728,0.741532,-0.658124,-0.068864 ShoulderRight:-0.116540,0.799556,0.554989,-0.197778 SpineBase:-0.109608,0.041106,0.992563,-0.033396 SpineMid:-0.141430,0.042157,0.988530,-0.032059 SpineShoulder:-0.174376,0.047975,0.982219,-0.050365 ThumbLeft:0.000000,0.000000,0.000000,0.000000 ThumbRight:0.000000,0.000000,0.000000,0.000000 WristLeft:0.129980,-0.595665,-0.067402,0.789776 WristRight:0.424625,-0.648722,-0.102384,0.623194 END:
KINECT_DATA POSITION:3.194803,0.077736,-4.350471 HEAD_JOINT1:0.982395,0.186679,0.000000,-0.007079 LARM_JOINT2:0.798709,0.000000,0.011052,-0.601615 LARM_JOINT3:0.963714,0.000000,-0.207054,-0.168474 LLEG_JOINT2:0.999378,0.015339,0.000000,-0.031753 LLEG_JOINT4:0.996972,0.076878,0.000000,0.011685 RARM_JOINT2:0.821761,0.000000,0.415324,0.390147 RARM_JOINT3:0.959388,0.000000,0.251060,0.128623 RLEG_JOINT2:0.994351,0.051271,0.000000,-0.092933 RLEG_JOINT4:0.994053,0.072887,0.000000,0.080909 WAIST:0.993463,-0.000000,0.105725,0.043060 WAIST_JOINT0:0.982868,-0.000000,0.174021,0.060718 WAIST_JOINT1:0.998257,0.058745,-0.000000,0.005589 END:
KINECT_DATA_Sensor  AnkleLeft:-0.051708,-0.601250,0.074274,0.793919 AnkleRight:0.098191,0.763612,0.074310,0.633824 ElbowLeft:-0.009832,0.819030,-0.196812,-0.538849 ElbowRight:-0.357300,0.927040,0.037219,0.107464 FootLeft:0.000000,0.000000,0.000000,0.000000 FootRight:0.000000,0.000000,0.000000,0.000000 HandLeft:0.085819,-0.611616,-0.123814,0.776679 HandRight:0.422533,-0.586582,-0.133526,0.677908 HandTipLeft:0.000000,0.000000,0.000000,0.000000 HandTipRight:0.000000,0.000000,0.000000,0.000000 Head:0.000000,0.000000,0.000000,0.000000 HipLeft:0.059037,-0.659830,0.740315,-0.114335 HipRight:-0.206106,0.688547,0.656022,-0.230345 KneeLeft:-0.001418,-0.627480,0.015379,0.778480 KneeRight:-0.009440,0.780286,0.067957,0.621648 Neck:-0.177076,0.046516,0.980461,-0.071942 ShoulderLeft:0.109150,0.742015,-0.658024,-0.067115 ShoulderRight:-0.121194,0.799045,0.553172,-0.202088 SpineBase:-0.107100,0.040285,0.992853,-0.033903 SpineMid:-0.141154,0.041426,0.988586,-0.032499 SpineShoulder:-0.176458,0.046248,0.981914,-0.050688 ThumbLeft:0.000000,0.000000,0.000000,0.000000 ThumbRight:0.000000,0.000000,0.000000,0.000000 WristLeft:0.130430,-0.600513,-0.069448,0.785843 WristRight:0.412205,-0.591615,-0.136947,0.679209 END:
KINECT_DATA POSITION:3.363930,0.070019,-4.306352 HEAD_JOINT1:0.981957,0.188970,0.000000,-0.007143 LARM_JOINT2:0.798462,0.000000,0.012567,-0.601914 LARM_JOINT3:0.965766,0.000000,-0.196411,-0.169468 LLEG_JOINT2:0.999142,0.015654,0.000000,-0.038351 LLEG_JOINT4:0.997016,0.075519,0.000000,0.016015 RARM_JOINT2:0.797358,0.000000,0.449483,0.402723 RARM_JOINT3:0.975804,0.000000,0.193589,0.101638 RLEG_JOINT2:0.993794,0.052265,0.000000,-0.098195 RLEG_JOINT4:0.994203,0.073215,0.000000,0.078736 WAIST:0.992926,-0.000000,0.109158,0.046728 WAIST_JOINT0:0.983212,-0.000000,0.172389,0.059806 WAIST_JOINT1:0.998158,0.060580,-0.000000,0.003410 END:
KINECT_DATA_Sensor  AnkleLeft:-0.050214,-0.602478,0.073872,0.793122 AnkleRight:0.099337,0.797939,0.072526,0.590055 ElbowLeft:-0.006393,0.818837,-0.198716,-0.538495 ElbowRight:-0.359741,0.929521,-0.002005,0.081080 FootLeft:0.000000,0.000000,0.000000,0.000000 FootRight:0.000000,0.000000,0.000000,0.000000 HandLeft:0.054577,-0.541793,-0.107294,0.831847 HandRight:0.396495,-0.621269,-0.131583,0.662950 HandTipLeft:0.000000,0.000000,0.000000,0.000000 HandTipRight:0.000000,0.000000,0.000000,0.000000 Head:0.000000,0.000000,0.000000,0.000000 HipLeft:0.053475,-0.657098,0.743697,-0.110806 HipRight:-0.206173,0.689746,0.654140,-0.232045 KneeLeft:-0.003143,-0.624636,0.012911,0.780803 KneeRight:-0.010664,0.782654,0.069314,0.618494 Neck:-0.175632,0.048172,0.980509,-0.073721 ShoulderLeft:0.114542,0.739811,-0.659410,-0.068829 ShoulderRight:-0.113810,0.797757,0.557859,-0.198558 SpineBase:-0.110781,0.041975,0.992332,-0.035246 SpineMid:-0.142323,0.043076,0.988302,-0.033892 SpineShoulder:-0.175082,0.046901,0.982038,-0.052411 ThumbLeft:0.000000,0.000000,0.000000,0.000000 ThumbRight:0.000000,0.000000,0.000000,0.000000 WristLeft:0.121243,-0.528263,-0.074799,0.837045 WristRight:0.403386,-0.617608,-0.128019,0.662912 END:
KINECT_DATA POSITION:3.734019,0.168030,-4.250038 HEAD_JOINT1:0.981616,0.190673,0.000000,-0.008580 LARM_JOINT2:0.796758,0.000000,0.010889,-0.604200 LARM_JOINT3:0.965115,0.000000,-0.196093,-0.173493 LLEG_JOINT2:0.998541,0.016662,0.000000,-0.051356 LLEG_JOINT4:0.996823,0.076457,0.000000,0.022313 RARM_JOINT2:0.790453,0.000000,0.459273,0.405280 RARM_JOINT3:0.979274,0.000000,0.174857,0.102212 RLEG_JOINT2:0.992517,0.057285,0.000000,-0.107836 RLEG_JOINT4:0.994147,0.072170,0.000000,0.080391 WAIST:0.991627,-0.000000,0.117336,0.053926 WAIST_JOINT0:0.982649,-0.000000,0.175190,0.060907 WAIST_JOINT1:0.998082,0.061896,-0.000000,0.000522 END:
KINECT_DATA_Sensor  AnkleLeft:0.064044,0.734321,-0.063411,-0.672793 AnkleRight:0.099354,0.799328,0.076599,0.587653 ElbowLeft:-0.004165,0.819856,-0.199663,-0.536614 ElbowRight:-0.360371,0.931639,-0.010243,0.045565 FootLeft:0.000000,0.000000,0.000000,0.000000 FootRight:0.000000,0.000000,0.000000,0.000000 HandLeft:0.051434,-0.478664,-0.130519,0.866718 HandRight:0.387106,-0.578814,-0.141305,0.703673 HandTipLeft:0.000000,0.000000,0.000000,0.000000 HandTipRight:0.000000,0.000000,0.000000,0.000000 Head:0.000000,0.000000,0.000000,0.000000 HipLeft:0.044978,-0.652263,0.749381,-0.104677 HipRight:-0.209432,0.692864,0.648733,-0.234995 KneeLeft:-0.006730,-0.617891,0.008113,0.786193 KneeRight:-0.010841,0.788396,0.073809,0.610628 Neck:-0.178471,0.052575,0.979657,-0.075209 ShoulderLeft:0.120558,0.735213,-0.663047,-0.072768 ShoulderRight:-0.112100,0.795233,0.561745,-0.198697 SpineBase:-0.119301,0.047306,0.991086,-0.035752 SpineMid:-0.147964,0.048322,0.987214,-0.034367 SpineShoulder:-0.177962,0.049945,0.981327,-0.053220 ThumbLeft:0.000000,0.000000,0.000000,0.000000 ThumbRight:0.000000,0.000000,0.000000,0.000000 WristLeft:0.113174,-0.464437,-0.077219,0.874944 WristRight:0.388314,-0.578329,-0.141251,0.703417 END:
KINECT_DATA POSITION:3.951564,0.274955,-4.204977 HEAD_JOINT1:0.981772,0.189876,0.000000,-0.008469 LARM_JOINT2:0.795001,0.000000,0.013084,-0.606466 LARM_JOINT3:0.964848,0.000000,-0.198228,-0.172552 LLEG_JOINT2:0.998138,0.017928,0.000000,-0.058309 LLEG_JOINT4:0.996783,0.075950,0.000000,0.025581 RARM_JOINT2:0.787924,0.000000,0.465674,0.402894 RARM_JOINT3:0.982367,0.000000,0.161710,0.093833 RLEG_JOINT2:0.991904,0.061324,0.000000,-0.111203 RLEG_JOINT4:0.994093,0.071313,0.000000,0.081810 WAIST:0.991075,-0.000000,0.120396,0.057226 WAIST_JOINT0:0.983262,-0.000000,0.171634,0.061137 WAIST_JOINT1:0.998077,0.061992,0.000000,-0.000088 END:
KINECT_DATA_Sensor  AnkleLeft:0.064793,0.734313,-0.062747,-0.672791 AnkleRight:0.101278,0.797369,0.078697,0.589705 ElbowLeft:-0.002409,0.817398,-0.199874,-0.540282 ElbowRight:-0.364168,0.931008,-0.010628,0.022212 FootLeft:0.000000,0.000000,0.000000,0.000000 FootRight:0.000000,0.000000,0.000000,0.000000 HandLeft:0.061088,-0.482952,-0.131932,0.863493 HandRight:0.388728,-0.582987,-0.161840,0.694855 HandTipLeft:0.000000,0.000000,0.000000,0.000000 HandTipRight:0.000000,0.000000,0.000000,0.000000 Head:0.000000,0.000000,0.000000,0.000000 HipLeft:0.040750,-0.650164,0.751860,-0.101647 HipRight:-0.209748,0.694946,0.646406,-0.234980 KneeLeft:-0.009593,-0.615249,0.005612,0.788255 KneeRight:-0.008980,0.790730,0.076586,0.607289 Neck:-0.175121,0.054748,0.980112,-0.075597 ShoulderLeft:0.121462,0.732954,-0.665426,-0.072345 ShoulderRight:-0.106926,0.795210,0.564471,-0.193859 SpineBase:-0.122494,0.050316,0.990543,-0.035882 SpineMid:-0.147864,0.051220,0.987075,-0.034579 SpineShoulder:-0.174564,0.052005,0.981823,-0.053360 ThumbLeft:0.000000,0.000000,0.000000,0.000000 ThumbRight:0.000000,0.000000,0.000000,0.000000 WristLeft:0.113771,-0.470319,-0.075358,0.871881 WristRight:0.382907,-0.580595,-0.139870,0.704789 END:
KINECT_DATA POSITION:3.966060,0.298041,-4.253817 HEAD_JOINT1:0.982202,0.187609,0.000000,-0.009008 LARM_JOINT2:0.795602,0.000000,0.011152,-0.605717 LARM_JOINT3:0.965791,0.000000,-0.194072,-0.172000 LLEG_JOINT2:0.998022,0.017758,0.000000,-0.060307 LLEG_JOINT4:0.996466,0.079443,0.000000,0.027289 RARM_JOINT2:0.788050,0.000000,0.454491,0.415230 RARM_JOINT3:0.984933,0.000000,0.153495,0.079670 RLEG_JOINT2:0.991537,0.061814,0.000000,-0.114165 RLEG_JOINT4:0.993809,0.070930,0.000000,0.085518 WAIST:0.990493,-0.000000,0.124399,0.058728 WAIST_JOINT0:0.979929,-0.000000,0.188327,0.065356 WAIST_JOINT1:0.998089,0.061786,-0.000000,0.001231 END:
KINECT_DATA_Sensor  AnkleLeft:0.067316,0.734249,-0.064614,-0.672437 AnkleRight:0.096745,0.756396,0.084466,0.641382 ElbowLeft:-0.003314,0.818832,-0.202688,-0.537048 ElbowRight:-0.351253,0.934578,-0.024445,0.050875 FootLeft:0.000000,0.000000,0.000000,0.000000 FootRight:0.000000,0.000000,0.000000,0.000000 HandLeft:0.064520,-0.476515,-0.120549,0.868469 HandRight:0.354477,-0.558513,-0.199673,0.722869 HandTipLeft:0.000000,0.000000,0.000000,0.000000 HandTipRight:0.000000,0.000000,0.000000,0.000000 Head:0.000000,0.000000,0.000000,0.000000 HipLeft:0.037903,-0.649001,0.753251,-0.099874 HipRight:-0.211646,0.694989,0.645019,-0.236951 KneeLeft:-0.009482,-0.612048,0.004788,0.790749 KneeRight:-0.010420,0.793296,0.077548,0.603787 Neck:-0.191397,0.058439,0.976946,-0.074359 ShoulderLeft:0.122461,0.730350,-0.667594,-0.076877 ShoulderRight:-0.129177,0.791270,0.558626,-0.212466 SpineBase:-0.126576,0.051599,0.989949,-0.036300 SpineMid:-0.158008,0.052727,0.985420,-0.034640 SpineShoulder:-0.190861,0.055185,0.978654,-0.052560 ThumbLeft:0.000000,0.000000,0.000000,0.000000 ThumbRight:0.000000,0.000000,0.000000,0.000000 WristLeft:0.114273,-0.465271,-0.073272,0.874698 WristRight:0.372131,-0.543082,-0.161824,0.735115 END:
KINECT_DATA POSITION:3.938709,0.303300,-4.357541 HEAD_JOINT1:0.982389,0.186761,0.000000,-0.005657 LARM_JOINT2:0.796098,0.000000,0.010659,-0.605074 LARM_JOINT3:0.964281,0.000000,-0.196585,-0.177531 LLEG_JOINT2:0.997945,0.017147,0.000000,-0.061742 LLEG_JOINT4:0.996565,0.078904,0.000000,0.025165 RARM_JOINT2:0.792156,0.000000,0.446220,0.416384 RARM_JOINT3:0.984067,0.000000,0.159912,0.077725 RLEG_JOINT2:0.991395,0.061576,0.000000,-0.115516 RLEG_JOINT4:0.993947,0.071119,0.000000,0.083737 WAIST:0.990328,-0.000000,0.124889,0.060447 WAIST_JOINT0:0.979462,-0.000000,0.190300,0.066631 WAIST_JOINT1:0.998113,0.061400,-0.000000,0.000508 END:
KINECT_DATA_Sensor  AnkleLeft:-0.053723,-0.590431,0.074041,0.801887 AnkleRight:0.101892,0.805918,0.077197,0.578061 ElbowLeft:-0.003690,0.821034,-0.204051,-0.533154 ElbowRight:-0.347641,0.935180,-0.022566,0.063839 FootLeft:0.000000,0.000000,0.000000,0.000000 FootRight:0.000000,0.000000,0.000000,0.000000 HandLeft:0.076965,-0.561447,-0.133128,0.813099 HandRight:0.350225,-0.542383,-0.213809,0.733109 HandTipLeft:0.000000,0.000000,0.000000,0.000000 HandTipRight:0.000000,0.000000,0.000000,0.000000 Head:0.000000,0.000000,0.000000,0.000000 HipLeft:0.037671,-0.647885,0.754170,-0.100267 HipRight:-0.211793,0.695853,0.643669,-0.237954 KneeLeft:-0.008645,-0.611647,0.004470,0.791071 KneeRight:-0.010489,0.793675,0.076950,0.603364 Neck:-0.193283,0.059306,0.976602,-0.073300 ShoulderLeft:0.121452,0.730248,-0.667866,-0.077094 ShoulderRight:-0.132866,0.791718,0.556204,-0.214863 SpineBase:-0.127202,0.052120,0.989826,-0.036710 SpineMid:-0.159263,0.053284,0.985176,-0.034999 SpineShoulder:-0.192720,0.056309,0.978252,-0.052078 ThumbLeft:0.000000,0.000000,0.000000,0.000000 ThumbRight:0.000000,0.000000,0.000000,0.000000 WristLeft:0.120484,-0.549815,-0.061203,0.824282 WristRight:0.369143,-0.525424,-0.171365,0.747193 END:
KINECT_DATA POSITION:3.805257,0.280867,-4.379976 HEAD_JOINT1:0.982258,0.187486,0.000000,-0.004354 LARM_JOINT2:0.796226,0.000000,0.008440,-0.604940 LARM_JOINT3:0.963023,0.000000,-0.202670,-0.177516 LLEG_JOINT2:0.998090,0.017004,0.000000,-0.059398 LLEG_JOINT4:0.996993,0.073902,0.000000,0.023295 RARM_JOINT2:0.804249,0.000000,0.434353,0.405612 RARM_JOINT3:0.975901,0.000000,0.196498,0.094904 RLEG_JOINT2:0.991636,0.060020,0.000000,-0.114260 RLEG_JOINT4:0.993985,0.070405,0.000000,0.083883 WAIST:0.990731,-0.000000,0.121909,0.059921 WAIST_JOINT0:0.979968,-0.000000,0.187881,0.066055 WAIST_JOINT1:0.998180,0.060310,-0.000000,0.000004 END:
KINECT_DATA_Sensor  AnkleLeft:-0.049688,-0.592439,0.071104,0.800932 AnkleRight:0.096911,0.768590,0.080647,0.627195 ElbowLeft:-0.006112,0.824074,-0.202480,-0.529024 ElbowRight:-0.351836,0.933691,0.000266,0.066573 FootLeft:0.000000,0.000000,0.000000,0.000000 FootRight:0.000000,0.000000,0.000000,0.000000 HandLeft:0.096255,-0.584653,-0.147272,0.791976 HandRight:0.392782,-0.540760,-0.205113,0.715004 HandTipLeft:0.000000,0.000000,0.000000,0.000000 HandTipRight:0.000000,0.000000,0.000000,0.000000 Head:0.000000,0.000000,0.000000,0.000000 HipLeft:0.041186,-0.648218,0.753401,-0.102491 HipRight:-0.210991,0.696079,0.644116,-0.236794 KneeLeft:-0.007573,-0.614041,0.006014,0.789215 KneeRight:-0.010490,0.791718,0.075474,0.606116 Neck:-0.190829,0.058250,0.977255,-0.071855 ShoulderLeft:0.118152,0.731392,-0.667428,-0.075141 ShoulderRight:-0.132903,0.792399,0.555934,-0.213021 SpineBase:-0.124187,0.051252,0.990278,-0.036055 SpineMid:-0.156531,0.052404,0.985683,-0.034359 SpineShoulder:-0.190246,0.055665,0.978825,-0.051086 ThumbLeft:0.000000,0.000000,0.000000,0.000000 ThumbRight:0.000000,0.000000,0.000000,0.000000 WristLeft:0.122550,-0.576232,-0.061474,0.805704 WristRight:0.381913,-0.535935,-0.160470,0.735639 END:
KINECT_DATA POSITION:3.589565,0.233867,-4.362118 HEAD_JOINT1:0.982089,0.188403,0.000000,-0.002532 LARM_JOINT2:0.795745,0.000000,0.004276,-0.605617 LARM_JOINT3:0.962447,0.000000,-0.205552,-0.177322 LLEG_JOINT2:0.998486,0.017499,0.000000,-0.052145 LLEG_JOINT4:0.996911,0.075800,0.000000,0.020583 RARM_JOINT2:0.813948,0.000000,0.426149,0.394823 RARM_JOINT3:0.964912,0.000000,0.232887,0.121281 RLEG_JOINT2:0.992377,0.057311,0.000000,-0.109099 RLEG_JOINT4:0.994197,0.070988,0.000000,0.080832 WAIST:0.991697,-0.000000,0.115756,0.056007 WAIST_JOINT0:0.981490,-0.000000,0.180561,0.063834 WAIST_JOINT1:0.998220,0.059622,-0.000000,0.001653 END:
KINECT_DATA_Sensor  AnkleLeft:-0.051281,-0.597114,0.073986,0.797089 AnkleRight:0.097106,0.779183,0.077829,0.614319 ElbowLeft:-0.010309,0.825972,-0.198580,-0.527475 ElbowRight:-0.356299,0.931314,0.021318,0.072467 FootLeft:0.000000,0.000000,0.000000,0.000000 FootRight:0.000000,0.000000,0.000000,0.000000 HandLeft:0.103453,-0.646837,-0.147496,0.741043 HandRight:0.432694,-0.583475,-0.139441,0.672970 HandTipLeft:0.000000,0.000000,0.000000,0.000000 HandTipRight:0.000000,0.000000,0.000000,0.000000 Head:0.000000,0.000000,0.000000,0.000000 HipLeft:0.047674,-0.650807,0.750078,-0.107523 HipRight:-0.208748,0.694719,0.647127,-0.234555 KneeLeft:-0.006448,-0.618999,0.009554,0.785307 KneeRight:-0.010178,0.787549,0.073218,0.611802 Neck:-0.183742,0.056216,0.978772,-0.071300 ShoulderLeft:0.115527,0.732891,-0.666609,-0.071809 ShoulderRight:-0.125727,0.793536,0.558620,-0.206003 SpineBase:-0.117837,0.048415,0.991210,-0.035689 SpineMid:-0.149886,0.049546,0.986872,-0.034101 SpineShoulder:-0.183174,0.053828,0.980285,-0.050908 ThumbLeft:0.000000,0.000000,0.000000,0.000000 ThumbRight:0.000000,0.000000,0.000000,0.000000 WristLeft:0.129418,-0.638861,-0.058614,0.756090 WristRight:0.407866,-0.588903,-0.120838,0.687195 END:
KINECT_DATA POSITION:3.468499,0.217947,-4.329920 HEAD_JOINT1:0.981895,0.189397,0.000000,-0.003211 LARM_JOINT2:0.795711,0.000000,0.006949,-0.605636 LARM_JOINT3:0.964792,0.000000,-0.197589,-0.173597 LLEG_JOINT2:0.998782,0.016977,0.000000,-0.046334 LLEG_JOINT4:0.996679,0.078851,0.000000,0.020331 RARM_JOINT2:0.843774,0.000000,0.368231,0.390450 RARM_JOINT3:0.937823,0.000000,0.311881,0.152377 RLEG_JOINT2:0.992901,0.053857,0.000000,-0.106056 RLEG_JOINT4:0.993607,0.074025,0.000000,0.085240 WAIST:0.992482,-0.000000,0.110714,0.052170 WAIST_JOINT0:0.982767,-0.000000,0.174031,0.062305 WAIST_JOINT1:0.998194,0.059966,-0.000000,0.003663 END:
KINECT_DATA_Sensor  AnkleLeft:0.068749,0.767796,-0.063541,-0.633819 AnkleRight:0.099282,0.764918,0.076892,0.631768 ElbowLeft:-0.009600,0.823933,-0.197814,-0.530953 ElbowRight:-0.335862,0.931124,0.069212,0.124159 FootLeft:0.000000,0.000000,0.000000,0.000000 FootRight:0.000000,0.000000,0.000000,0.000000 HandLeft:0.071879,-0.624718,-0.116722,0.768724 HandRight:0.451236,-0.526754,-0.169552,0.700120 HandTipLeft:0.000000,0.000000,0.000000,0.000000 HandTipRight:0.000000,0.000000,0.000000,0.000000 Head:0.000000,0.000000,0.000000,0.000000 HipLeft:0.051724,-0.653183,0.747191,-0.111276 HipRight:-0.206394,0.693270,0.650299,-0.232141 KneeLeft:-0.005278,-0.623164,0.011290,0.781992 KneeRight:-0.012110,0.784018,0.071583,0.616478 Neck:-0.177360,0.054019,0.979983,-0.072517 ShoulderLeft:0.113846,0.734585,-0.665370,-0.068607 ShoulderRight:-0.118366,0.794976,0.560387,-0.199920 SpineBase:-0.112588,0.046612,0.991901,-0.035833 SpineMid:-0.144073,0.047728,0.987819,-0.034332 SpineShoulder:-0.176731,0.052419,0.981510,-0.051532 ThumbLeft:0.000000,0.000000,0.000000,0.000000 ThumbRight:0.000000,0.000000,0.000000,0.000000 WristLeft:0.128039,-0.611686,-0.065280,0.777936 WristRight:0.417104,-0.532670,-0.138007,0.723354 END:
KINECT_DATA POSITION:3.002240,0.140615,-4.201996 HEAD_JOINT1:0.981801,0.189898,0.000000,-0.002150 LARM_JOINT2:0.797694,0.000000,0.010521,-0.602971 LARM_JOINT3:0.963345,0.000000,-0.206738,-0.170953 LLEG_JOINT2:0.999290,0.017048,0.000000,-0.033589 LLEG_JOINT4:0.997153,0.074610,0.000000,0.010882 RARM_JOINT2:0.832165,0.000000,0.384966,0.399128 RARM_JOINT3:0.949322,0.000000,0.287634,0.126705 RLEG_JOINT2:0.994304,0.050809,0.000000,-0.093689 RLEG_JOINT4:0.993964,0.075190,0.000000,0.079884 WAIST:0.993689,-0.000000,0.102581,0.045390 WAIST_JOINT0:0.983459,-0.000000,0.170149,0.062107 WAIST_JOINT1:0.998175,0.060124,-0.000000,0.005695 END:
KINECT_DATA_Sensor  AnkleLeft:0.065172,0.752916,-0.061741,-0.651965 AnkleRight:0.103990,0.796067,0.069288,0.592167 ElbowLeft:-0.008671,0.823897,-0.197827,-0.531021 ElbowRight:-0.338193,0.928881,0.048790,0.142919 FootLeft:0.000000,0.000000,0.000000,0.000000 FootRight:0.000000,0.000000,0.000000,0.000000 HandLeft:0.060366,-0.456314,-0.147714,0.875394 HandRight:0.456936,-0.637112,-0.115489,0.609885 HandTipLeft:0.000000,0.000000,0.000000,0.000000 HandTipRight:0.000000,0.000000,0.000000,0.000000 Head:0.000000,0.000000,0.000000,0.000000 HipLeft:0.057267,-0.657425,0.742409,-0.115506 HipRight:-0.201627,0.690070,0.656304,-0.228942 KneeLeft:-0.002297,-0.629733,0.016779,0.776627 KneeRight:-0.008377,0.778427,0.066548,0.624142 Neck:-0.173427,0.050696,0.980783,-0.073602 ShoulderLeft:0.111225,0.736711,-0.663829,-0.064942 ShoulderRight:-0.115474,0.796614,0.559426,-0.197772 SpineBase:-0.104188,0.041164,0.993043,-0.036266 SpineMid:-0.138016,0.042378,0.988909,-0.034841 SpineShoulder:-0.172924,0.048237,0.982390,-0.051776 ThumbLeft:0.000000,0.000000,0.000000,0.000000 ThumbRight:0.000000,0.000000,0.000000,0.000000 WristLeft:0.111648,-0.443582,-0.089745,0.884712 WristRight:0.428266,-0.644370,-0.095871,0.626247 END:
KINECT_DATA POSITION:2.982725,0.083575,-4.074395 HEAD_JOINT1:0.981678,0.190546,0.000000,-0.000320 LARM_JOINT2:0.797832,0.000000,0.010739,-0.602784 LARM_JOINT3:0.964816,0.000000,-0.200479,-0.170115 LLEG_JOINT2:0.999278,0.016564,0.000000,-0.034194 LLEG_JOINT4:0.997108,0.075697,0.000000,0.006738 RARM_JOINT2:0.813498,0.000000,0.413150,0.409301 RARM_JOINT3:0.963696,0.000000,0.242864,0.110939 RLEG_JOINT2:0.994263,0.051300,0.000000,-0.093854 RLEG_JOINT4:0.994070,0.075551,0.000000,0.078212 WAIST:0.993518,-0.000000,0.103789,0.046365 WAIST_JOINT0:0.983162,-0.000000,0.171300,0.063625 WAIST_JOINT1:0.998212,0.059626,-0.000000,0.004113 END:
KINECT_DATA_Sensor  AnkleLeft:0.065401,0.729028,-0.060867,-0.678628 AnkleRight:0.097724,0.746890,0.078614,0.653012 ElbowLeft:-0.008877,0.822879,-0.197309,-0.532785 ElbowRight:-0.342621,0.932123,0.021875,0.115238 FootLeft:0.000000,0.000000,0.000000,0.000000 FootRight:0.000000,0.000000,0.000000,0.000000 HandLeft:0.053659,-0.490887,-0.123216,0.860795 HandRight:0.418513,-0.589414,-0.167909,0.670257 HandTipLeft:0.000000,0.000000,0.000000,0.000000 HandTipRight:0.000000,0.000000,0.000000,0.000000 Head:0.000000,0.000000,0.000000,0.000000 HipLeft:0.056710,-0.656858,0.743116,-0.114457 HipRight:-0.202702,0.690481,0.655380,-0.229403 KneeLeft:-0.001594,-0.628789,0.016652,0.777396 KneeRight:-0.007628,0.779266,0.066292,0.623130 Neck:-0.174547,0.049909,0.980690,-0.072731 ShoulderLeft:0.110176,0.736819,-0.663907,-0.064707 ShoulderRight:-0.117995,0.797639,0.556824,-0.199490 SpineBase:-0.105428,0.041702,0.992908,-0.035783 SpineMid:-0.139154,0.042895,0.988745,-0.034343 SpineShoulder:-0.174052,0.047608,0.982249,-0.051250 ThumbLeft:0.000000,0.000000,0.000000,0.000000 ThumbRight:0.000000,0.000000,0.000000,0.000000 WristLeft:0.115694,-0.477764,-0.086570,0.866523 WristRight:0.408237,-0.585647,-0.132480,0.687611 END:
KINECT_DATA POSITION:3.065564,0.073020,-3.978932 HEAD_JOINT1:0.981571,0.191093,-0.000000,0.000998 LARM_JOINT2:0.797608,0.000000,0.011463,-0.603067 LARM_JOINT3:0.965637,0.000000,-0.199219,-0.166906 LLEG_JOINT2:0.999176,0.017423,0.000000,-0.036651 LLEG_JOINT4:0.996738,0.079801,0.000000,0.012021 RARM_JOINT2:0.812968,0.000000,0.413592,0.409907 RARM_JOINT3:0.963106,0.000000,0.245497,0.110266 RLEG_JOINT2:0.993997,0.052128,0.000000,-0.096191 RLEG_JOINT4:0.994015,0.075891,0.000000,0.078582 WAIST:0.993337,-0.000000,0.104986,0.047539 WAIST_JOINT0:0.982934,-0.000000,0.172427,0.064107 WAIST_JOINT1:0.998229,0.059406,-0.000000,0.003094 END:
KINECT_DATA_Sensor  AnkleLeft:-0.055228,-0.601932,0.077161,0.792890 AnkleRight:0.098403,0.754357,0.078977,0.644225 ElbowLeft:-0.008368,0.822206,-0.197181,-0.533879 ElbowRight:-0.342717,0.932292,0.020392,0.113841 FootLeft:0.000000,0.000000,0.000000,0.000000 FootRight:0.000000,0.000000,0.000000,0.000000 HandLeft:0.063138,-0.506632,-0.116000,0.851987 HandRight:0.425106,-0.569238,-0.174637,0.681729 HandTipLeft:0.000000,0.000000,0.000000,0.000000 HandTipRight:0.000000,0.000000,0.000000,0.000000 Head:0.000000,0.000000,0.000000,0.000000 HipLeft:0.056154,-0.656128,0.743973,-0.113347 HipRight:-0.203916,0.691090,0.654299,-0.229578 KneeLeft:-0.002955,-0.627759,0.016069,0.778237 KneeRight:-0.008205,0.780117,0.067537,0.621923 Neck:-0.175654,0.049871,0.980527,-0.072292 ShoulderLeft:0.110848,0.736786,-0.663707,-0.065964 ShoulderRight:-0.118602,0.798110,0.555822,-0.200041 SpineBase:-0.106645,0.042677,0.992760,-0.035124 SpineMid:-0.140269,0.043844,0.988569,-0.033656 SpineShoulder:-0.175148,0.047726,0.982064,-0.050956 ThumbLeft:0.000000,0.000000,0.000000,0.000000 ThumbRight:0.000000,0.000000,0.000000,0.000000 WristLeft:0.117306,-0.495368,-0.081928,0.856818 WristRight:0.405230,-0.569932,-0.140955,0.700784 END:
KINECT_DATA POSITION:3.160666,0.087243,-3.894484 HEAD_JOINT1:0.981926,0.189263,-0.000000,0.000339 LARM_JOINT2:0.797094,0.000000,0.010619,-0.603762 LARM_JOINT3:0.964893,0.000000,-0.203503,-0.166035 LLEG_JOINT2:0.999139,0.017924,0.000000,-0.037421 LLEG_JOINT4:0.996742,0.079449,0.000000,0.013893 RARM_JOINT2:0.828552,0.000000,0.392416,0.399388 RARM_JOINT3:0.948738,0.000000,0.288535,0.129008 RLEG_JOINT2:0.993857,0.052640,0.000000,-0.097354 RLEG_JOINT4:0.993798,0.075548,0.000000,0.081594 WAIST:0.993180,-0.000000,0.106470,0.047514 WAIST_JOINT0:0.982609,-0.000000,0.174100,0.064565 WAIST_JOINT1:0.998259,0.058889,-0.000000,0.003302 END:
KINECT_DATA_Sensor  AnkleLeft:0.069134,0.746798,-0.065490,-0.658198 AnkleRight:0.100189,0.758498,0.077559,0.639240 ElbowLeft:-0.009612,0.819909,-0.196099,-0.537776 ElbowRight:-0.342164,0.930227,0.044794,0.124884 FootLeft:0.000000,0.000000,0.000000,0.000000 FootRight:0.000000,0.000000,0.000000,0.000000 HandLeft:0.093799,-0.639841,-0.119823,0.753291 HandRight:0.468941,-0.570615,-0.142182,0.658997 HandTipLeft:0.000000,0.000000,0.000000,0.000000 HandTipRight:0.000000,0.000000,0.000000,0.000000 Head:0.000000,0.000000,0.000000,0.000000 HipLeft:0.055980,-0.656147,0.744066,-0.112708 HipRight:-0.205854,0.690803,0.653832,-0.230041 KneeLeft:-0.003821,-0.626581,0.015712,0.779189 KneeRight:-0.008946,0.781077,0.068629,0.620588 Neck:-0.177183,0.049871,0.980295,-0.071691 ShoulderLeft:0.111870,0.737017,-0.663071,-0.068031 ShoulderRight:-0.119284,0.798664,0.554674,-0.200607 SpineBase:-0.108068,0.043453,0.992595,-0.034463 SpineMid:-0.141707,0.044598,0.988354,-0.032968 SpineShoulder:-0.176666,0.047883,0.981809,-0.050476 ThumbLeft:0.000000,0.000000,0.000000,0.000000 ThumbRight:0.000000,0.000000,0.000000,0.000000 WristLeft:0.130851,-0.630253,-0.059334,0.762980 WristRight:0.417952,-0.586986,-0.125557,0.681908 END:
KINECT_DATA POSITION:2.478091,0.279679,-4.014266 HEAD_JOINT1:0.984440,0.175711,0.000000,-0.002000 LARM_JOINT2:0.799832,0.000000,0.006637,-0.600187 LARM_JOINT3:0.964960,0.000000,-0.202571,-0.166782 LLEG_JOINT2:0.999797,0.011580,0.000000,-0.016518 LLEG_JOINT4:0.996456,0.083786,0.000000,0.007404 RARM_JOINT2:0.844359,0.000000,0.384728,0.372884 RARM_JOINT3:0.903200,0.000000,0.392337,0.174070 RLEG_JOINT2:0.995720,0.047238,0.000000,-0.079433 RLEG_JOINT4:0.993827,0.081284,0.000000,0.075507 WAIST:0.992281,-0.000000,0.118132,0.037725 WAIST_JOINT0:0.982430,-0.000000,0.176574,0.060434 WAIST_JOINT1:0.998372,0.056145,-0.000000,0.010038 END:
KINECT_DATA_Sensor  AnkleLeft:-0.052500,-0.599950,0.079349,0.794360 AnkleRight:0.105646,0.798866,0.072592,0.587693 ElbowLeft:-0.013506,0.812273,-0.195677,-0.549309 ElbowRight:-0.360963,0.921743,0.065930,0.125491 FootLeft:0.000000,0.000000,0.000000,0.000000 FootRight:0.000000,0.000000,0.000000,0.000000 HandLeft:0.064576,-0.497929,-0.136499,0.853970 HandRight:0.590172,-0.546154,0.008159,0.594429 HandTipLeft:0.000000,0.000000,0.000000,0.000000 HandTipRight:0.000000,0.000000,0.000000,0.000000 Head:0.000000,0.000000,0.000000,0.000000 HipLeft:0.052313,-0.664024,0.738149,-0.107105 HipRight:-0.214930,0.682591,0.657360,-0.236120 KneeLeft:0.007368,-0.618152,0.020859,0.785748 KneeRight:-0.006373,0.787633,0.059653,0.613217 Neck:-0.179650,0.046020,0.980170,-0.069822 ShoulderLeft:0.111687,0.740470,-0.658982,-0.070524 ShoulderRight:-0.122204,0.797912,0.554350,-0.202727 SpineBase:-0.119125,0.039123,0.991556,-0.033090 SpineMid:-0.148631,0.040092,0.987564,-0.031909 SpineShoulder:-0.179248,0.043791,0.981590,-0.049331 ThumbLeft:0.000000,0.000000,0.000000,0.000000 ThumbRight:0.000000,0.000000,0.000000,0.000000 WristLeft:0.125647,-0.482706,-0.081836,0.862850 WristRight:0.487319,-0.600222,-0.048385,0.632386 END:
KINECT_DATA POSITION:2.061896,0.535055,-4.091787 HEAD_JOINT1:0.985913,0.166913,0.000000,-0.010742 LARM_JOINT2:0.803184,0.000000,0.014854,-0.595545 LARM_JOINT3:0.962920,0.000000,-0.213330,-0.165154 LLEG_JOINT2:0.999919,0.011019,0.000000,-0.006383 LLEG_JOINT4:0.996421,0.084358,0.000000,0.005448 RARM_JOINT2:0.839052,0.000000,0.403086,0.365394 RARM_JOINT3:0.896369,0.000000,0.407972,0.173441 RLEG_JOINT2:0.996506,0.047114,0.000000,-0.068962 RLEG_JOINT4:0.993918,0.082468,0.000000,0.072977 WAIST:0.989870,-0.000000,0.137902,0.033775 WAIST_JOINT0:0.979020,-0.000000,0.194360,0.061187 WAIST_JOINT1:0.998395,0.053912,-0.000000,0.017374 END:
KINECT_DATA_Sensor  AnkleLeft:0.066112,0.728218,-0.069980,-0.678550 AnkleRight:0.107332,0.806875,0.073536,0.576216 ElbowLeft:-0.011767,0.790631,-0.205435,-0.576680 ElbowRight:-0.375328,0.919697,0.041967,0.107357 FootLeft:0.000000,0.000000,0.000000,0.000000 FootRight:0.000000,0.000000,0.000000,0.000000 HandLeft:0.086801,-0.491212,-0.105513,0.860258 HandRight:0.587139,-0.537917,0.047637,0.603028 HandTipLeft:0.000000,0.000000,0.000000,0.000000 HandTipRight:0.000000,0.000000,0.000000,0.000000 Head:0.000000,0.000000,0.000000,0.000000 HipLeft:0.039611,-0.667040,0.737890,-0.094907 HipRight:-0.227261,0.676497,0.656954,-0.243137 KneeLeft:0.011239,-0.602603,0.025433,0.797557 KneeRight:-0.002610,0.799634,0.055327,0.597928 Neck:-0.196694,0.048628,0.976839,-0.068787 ShoulderLeft:0.120129,0.738413,-0.658320,-0.083245 ShoulderRight:-0.136445,0.793360,0.552450,-0.216245 SpineBase:-0.138489,0.041145,0.988988,-0.032093 SpineMid:-0.166847,0.042050,0.984601,-0.030898 SpineShoulder:-0.196301,0.045992,0.978282,-0.048110 ThumbLeft:0.000000,0.000000,0.000000,0.000000 ThumbRight:0.000000,0.000000,0.000000,0.000000 WristLeft:0.141490,-0.479914,-0.084976,0.861651 WristRight:0.512183,-0.589871,-0.016986,0.624045 END:
KINECT_DATA POSITION:1.777193,1.157816,-4.227650 HEAD_JOINT1:0.987278,0.157616,0.000000,-0.020963 LARM_JOINT2:0.808463,0.000000,0.025659,-0.587987 LARM_JOINT3:0.964480,0.000000,-0.206614,-0.164586 LLEG_JOINT2:0.999956,0.009301,0.000000,-0.000669 LLEG_JOINT4:0.996685,0.081211,0.000000,0.004914 RARM_JOINT2:0.827617,0.000000,0.414675,0.378279 RARM_JOINT3:0.872960,0.000000,0.462521,0.154971 RLEG_JOINT2:0.996516,0.048580,0.000000,-0.067797 RLEG_JOINT4:0.993300,0.083276,0.000000,0.080122 WAIST:0.984740,-0.000000,0.170422,0.035270 WAIST_JOINT0:0.970020,-0.000000,0.233472,0.067475 WAIST_JOINT1:0.998353,0.052551,-0.000000,0.023034 END:
KINECT_DATA_Sensor  AnkleLeft:-0.045919,-0.564002,0.080812,0.820526 AnkleRight:0.112913,0.823690,0.072229,0.550970 ElbowLeft:-0.003087,0.770649,-0.222440,-0.597169 ElbowRight:-0.370434,0.922971,-0.008001,0.104113 FootLeft:0.000000,0.000000,0.000000,0.000000 FootRight:0.000000,0.000000,0.000000,0.000000 HandLeft:0.106253,-0.519672,-0.054441,0.845983 HandRight:0.648012,-0.506060,0.140847,0.551494 HandTipLeft:0.000000,0.000000,0.000000,0.000000 HandTipRight:0.000000,0.000000,0.000000,0.000000 Head:0.000000,0.000000,0.000000,0.000000 HipLeft:0.019707,-0.667175,0.740588,-0.077583 HipRight:-0.247204,0.670722,0.649313,-0.259644 KneeLeft:0.016937,-0.576111,0.029758,0.816654 KneeRight:-0.002345,0.819090,0.053876,0.571125 Neck:-0.233865,0.055676,0.968230,-0.068836 ShoulderLeft:0.136934,0.728624,-0.662957,-0.104136 ShoulderRight:-0.171972,0.779908,0.547743,-0.249292 SpineBase:-0.170899,0.044995,0.983733,-0.032227 SpineMid:-0.201658,0.045983,0.977891,-0.030800 SpineShoulder:-0.233555,0.051282,0.969842,-0.047213 ThumbLeft:0.000000,0.000000,0.000000,0.000000 ThumbRight:0.000000,0.000000,0.000000,0.000000 WristLeft:0.152795,-0.513243,-0.055461,0.842710 WristRight:0.562773,-0.567611,0.068426,0.597011 END:
KINECT_DATA POSITION:1.782435,1.683748,-4.595447 HEAD_JOINT1:0.987899,0.150459,0.000000,-0.037638 LARM_JOINT2:0.799765,0.000000,0.025459,-0.599773 LARM_JOINT3:0.963643,0.000000,-0.200452,-0.176667 LLEG_JOINT2:0.999976,0.006967,0.000000,-0.000117 LLEG_JOINT4:0.996914,0.078170,0.000000,0.007223 RARM_JOINT2:0.832586,0.000000,0.410513,0.371859 RARM_JOINT3:0.849846,0.000000,0.505776,0.148166 RLEG_JOINT2:0.996558,0.048060,0.000000,-0.067547 RLEG_JOINT4:0.992851,0.084213,0.000000,0.084586 WAIST:0.981034,-0.000000,0.190622,0.035136 WAIST_JOINT0:0.967927,-0.000000,0.242193,0.066790 WAIST_JOINT1:0.998025,0.053863,-0.000000,0.032310 END:
KINECT_DATA_Sensor  AnkleLeft:-0.042148,-0.558404,0.078021,0.824816 AnkleRight:0.113924,0.827498,0.073202,0.544894 ElbowLeft:0.010254,0.777683,-0.217074,-0.589900 ElbowRight:-0.369214,0.922919,-0.021362,0.106983 FootLeft:0.000000,0.000000,0.000000,0.000000 FootRight:0.000000,0.000000,0.000000,0.000000 HandLeft:0.102125,-0.506647,-0.074456,0.852840 HandRight:0.684234,-0.427753,0.110248,0.580256 HandTipLeft:0.000000,0.000000,0.000000,0.000000 HandTipRight:0.000000,0.000000,0.000000,0.000000 Head:0.000000,0.000000,0.000000,0.000000 HipLeft:0.001065,-0.669484,0.739735,-0.067699 HipRight:-0.257322,0.667740,0.644274,-0.269851 KneeLeft:0.018970,-0.559776,0.028665,0.827931 KneeRight:-0.004136,0.830679,0.052827,0.554225 Neck:-0.244494,0.063989,0.964775,-0.073055 ShoulderLeft:0.135296,0.724258,-0.668846,-0.098949 ShoulderRight:-0.192758,0.772170,0.543774,-0.266283 SpineBase:-0.190786,0.051292,0.979616,-0.036353 SpineMid:-0.216982,0.052249,0.974149,-0.034965 SpineShoulder:-0.244205,0.058154,0.966667,-0.050364 ThumbLeft:0.000000,0.000000,0.000000,0.000000 ThumbRight:0.000000,0.000000,0.000000,0.000000 WristLeft:0.134612,-0.500520,-0.056451,0.853331 WristRight:0.599968,-0.484158,0.055959,0.634427 END:
KINECT_DATA POSITION:1.907806,1.868559,-4.725051 HEAD_JOINT1:0.988057,0.148426,0.000000,-0.041391 LARM_JOINT2:0.776775,0.000000,0.032802,-0.628924 LARM_JOINT3:0.968045,0.000000,-0.215856,-0.127654 LLEG_JOINT2:0.999958,0.007715,0.000000,0.005020 LLEG_JOINT4:0.997215,0.073926,0.000000,0.009899 RARM_JOINT2:0.827698,0.000000,0.432539,0.357528 RARM_JOINT3:0.847139,0.000000,0.514400,0.133223 RLEG_JOINT2:0.996871,0.045774,0.000000,-0.064438 RLEG_JOINT4:0.992484,0.088092,0.000000,0.084937 WAIST:0.978564,-0.000000,0.203457,0.031899 WAIST_JOINT0:0.967699,-0.000000,0.243592,0.064977 WAIST_JOINT1:0.997875,0.052721,-0.000000,0.038283 END:
KINECT_DATA_Sensor  AnkleLeft:0.055542,0.727765,-0.068352,-0.680148 AnkleRight:0.113313,0.828269,0.077295,0.543283 ElbowLeft:0.002325,0.691422,-0.186874,-0.697860 ElbowRight:-0.384521,0.917552,-0.042563,0.091818 FootLeft:0.000000,0.000000,0.000000,0.000000 FootRight:0.000000,0.000000,0.000000,0.000000 HandLeft:0.089705,-0.543756,-0.080315,0.830561 HandRight:0.696080,-0.388617,0.087219,0.597363 HandTipLeft:0.000000,0.000000,0.000000,0.000000 HandTipRight:0.000000,0.000000,0.000000,0.000000 Head:0.000000,0.000000,0.000000,0.000000 HipLeft:-0.009098,-0.672269,0.737810,-0.060070 HipRight:-0.266291,0.663716,0.642850,-0.274434 KneeLeft:0.018806,-0.549160,0.031010,0.834930 KneeRight:-0.006097,0.837694,0.051114,0.543709 Neck:-0.247825,0.065293,0.963802,-0.073513 ShoulderLeft:0.137462,0.721859,-0.670948,-0.099260 ShoulderRight:-0.196286,0.769370,0.544736,-0.269823 SpineBase:-0.203152,0.055017,0.976904,-0.036903 SpineMid:-0.224811,0.055823,0.972148,-0.035672 SpineShoulder:-0.247505,0.059788,0.965677,-0.051329 ThumbLeft:0.000000,0.000000,0.000000,0.000000 ThumbRight:0.000000,0.000000,0.000000,0.000000 WristLeft:0.168432,-0.524158,-0.034670,0.834079 WristRight:0.623867,-0.432922,0.054474,0.648383 END:
KINECT_DATA POSITION:2.162354,1.980187,-4.875839 HEAD_JOINT1:0.987820,0.153108,0.000000,-0.027738 LARM_JOINT2:0.781201,0.000000,0.032199,-0.623448 LARM_JOINT3:0.966134,0.000000,-0.224706,-0.126856 LLEG_JOINT2:0.999938,0.009301,0.000000,0.006109 LLEG_JOINT4:0.997492,0.070304,0.000000,0.008225 RARM_JOINT2:0.816016,0.000000,0.469750,0.336827 RARM_JOINT3:0.856593,0.000000,0.503261,0.113913 RLEG_JOINT2:0.996822,0.044092,0.000000,-0.066346 RLEG_JOINT4:0.991647,0.093065,0.000000,0.089304 WAIST:0.976954,-0.000000,0.211136,0.031351 WAIST_JOINT0:0.965665,-0.000000,0.248760,0.074895 WAIST_JOINT1:0.997981,0.051838,-0.000000,0.036702 END:
KINECT_DATA_Sensor  AnkleLeft:0.053119,0.709229,-0.067144,-0.699760 AnkleRight:0.106465,0.767164,0.092129,0.625809 ElbowLeft:0.002162,0.690672,-0.190840,-0.697529 ElbowRight:-0.409295,0.907609,-0.067196,0.064877 FootLeft:0.000000,0.000000,0.000000,0.000000 FootRight:0.000000,0.000000,0.000000,0.000000 HandLeft:0.134030,-0.546665,-0.078881,0.822783 HandRight:0.698197,-0.404292,0.142375,0.573408 HandTipLeft:0.000000,0.000000,0.000000,0.000000 HandTipRight:0.000000,0.000000,0.000000,0.000000 Head:0.000000,0.000000,0.000000,0.000000 HipLeft:-0.013377,-0.673671,0.736872,-0.054850 HipRight:-0.270414,0.662527,0.640917,-0.277776 KneeLeft:0.017610,-0.542444,0.032363,0.839284 KneeRight:-0.009578,0.841837,0.050907,0.537241 Neck:-0.252370,0.062378,0.962909,-0.072280 ShoulderLeft:0.156220,0.711422,-0.675779,-0.113124 ShoulderRight:-0.180742,0.773175,0.547621,-0.263899 SpineBase:-0.210780,0.054898,0.975322,-0.036132 SpineMid:-0.230904,0.055633,0.970754,-0.034989 SpineShoulder:-0.252076,0.057311,0.964673,-0.050795 ThumbLeft:0.000000,0.000000,0.000000,0.000000 ThumbRight:0.000000,0.000000,0.000000,0.000000 WristLeft:0.171266,-0.534793,-0.031170,0.826857 WristRight:0.625502,-0.459761,0.100760,0.622266 END:
KINECT_DATA POSITION:2.342612,2.027361,-4.910886 HEAD_JOINT1:0.988169,0.151788,0.000000,-0.021959 LARM_JOINT2:0.784532,0.000000,0.036424,-0.619018 LARM_JOINT3:0.964595,0.000000,-0.227445,-0.133510 LLEG_JOINT2:0.999906,0.010847,0.000000,0.008356 LLEG_JOINT4:0.997708,0.067058,0.000000,0.009030 RARM_JOINT2:0.806419,0.000000,0.483931,0.339852 RARM_JOINT3:0.859743,0.000000,0.499292,0.107464 RLEG_JOINT2:0.996848,0.042861,0.000000,-0.066756 RLEG_JOINT4:0.991540,0.094154,0.000000,0.089348 WAIST:0.975501,-0.000000,0.217928,0.030078 WAIST_JOINT0:0.961733,-0.000000,0.264559,0.071269 WAIST_JOINT1:0.997931,0.051629,-0.000000,0.038303 END:
KINECT_DATA_Sensor  AnkleLeft:-0.050343,-0.692897,0.068707,0.715988 AnkleRight:0.114314,0.837217,0.081005,0.528619 ElbowLeft:0.007963,0.696820,-0.197084,-0.689591 ElbowRight:-0.408366,0.907052,-0.086928,0.054188 FootLeft:0.000000,0.000000,0.000000,0.000000 FootRight:0.000000,0.000000,0.000000,0.000000 HandLeft:0.142868,-0.509427,-0.065447,0.846043 HandRight:0.717136,-0.326326,0.089310,0.609304 HandTipLeft:0.000000,0.000000,0.000000,0.000000 HandTipRight:0.000000,0.000000,0.000000,0.000000 Head:0.000000,0.000000,0.000000,0.000000 HipLeft:-0.014273,-0.674636,0.736044,-0.053869 HipRight:-0.277426,0.659699,0.638842,-0.282336 KneeLeft:0.016537,-0.536514,0.034155,0.843038 KneeRight:-0.011991,0.845456,0.050772,0.531490 Neck:-0.267273,0.062293,0.958897,-0.072123 ShoulderLeft:0.161067,0.708415,-0.676855,-0.118632 ShoulderRight:-0.199473,0.760271,0.552245,-0.277894 SpineBase:-0.217438,0.055436,0.973847,-0.035630 SpineMid:-0.241591,0.056305,0.968138,-0.034240 SpineShoulder:-0.266942,0.057902,0.960640,-0.050605 ThumbLeft:0.000000,0.000000,0.000000,0.000000 ThumbRight:0.000000,0.000000,0.000000,0.000000 WristLeft:0.167478,-0.502881,-0.041204,0.846973 WristRight:0.635990,-0.382729,0.039585,0.668931 END:
KINECT_DATA POSITION:2.433179,2.035967,-4.803610 HEAD_JOINT1:0.990233,0.136318,0.000000,-0.029246 LARM_JOINT2:0.784682,0.000000,0.051245,-0.617777 LARM_JOINT3:0.955042,0.000000,-0.258047,-0.145970 LLEG_JOINT2:0.999897,0.011598,0.000000,0.008459 LLEG_JOINT4:0.997862,0.064160,0.000000,0.012477 RARM_JOINT2:0.794097,0.000000,0.521788,0.311685 RARM_JOINT3:0.880405,0.000000,0.466272,0.086471 RLEG_JOINT2:0.996779,0.042871,0.000000,-0.067779 RLEG_JOINT4:0.990874,0.098050,0.000000,0.092495 WAIST:0.974016,-0.000000,0.224402,0.030617 WAIST_JOINT0:0.959893,-0.000000,0.271825,0.068677 WAIST_JOINT1:0.997737,0.049060,-0.000000,0.045973 END:
KINECT_DATA_Sensor  AnkleLeft:0.048798,0.705295,-0.070148,-0.703745 AnkleRight:0.117847,0.839688,0.083436,0.523522 ElbowLeft:0.017310,0.697707,-0.207535,-0.685445 ElbowRight:-0.433273,0.892903,-0.118547,0.030752 FootLeft:0.000000,0.000000,0.000000,0.000000 FootRight:0.000000,0.000000,0.000000,0.000000 HandLeft:0.228284,-0.520029,-0.079460,0.819233 HandRight:0.706455,-0.363422,0.103854,0.598382 HandTipLeft:0.000000,0.000000,0.000000,0.000000 HandTipRight:0.000000,0.000000,0.000000,0.000000 Head:0.000000,0.000000,0.000000,0.000000 HipLeft:-0.017900,-0.674709,0.736163,-0.050114 HipRight:-0.282473,0.659706,0.636057,-0.283599 KneeLeft:0.016250,-0.530836,0.034987,0.846596 KneeRight:-0.012941,0.849077,0.050726,0.525669 Neck:-0.275273,0.071274,0.956134,-0.070367 ShoulderLeft:0.160302,0.706190,-0.678823,-0.121648 ShoulderRight:-0.213983,0.754445,0.551124,-0.285107 SpineBase:-0.223785,0.059071,0.972236,-0.034462 SpineMid:-0.248822,0.059941,0.966132,-0.032925 SpineShoulder:-0.274905,0.065907,0.957923,-0.049666 ThumbLeft:0.000000,0.000000,0.000000,0.000000 ThumbRight:0.000000,0.000000,0.000000,0.000000 WristLeft:0.172113,-0.524621,-0.047334,0.832412 WristRight:0.642889,-0.404473,0.073028,0.646345 END:
KINECT_DATA POSITION:2.398974,1.872434,-4.639208 HEAD_JOINT1:0.992172,0.122895,0.000000,-0.022178 LARM_JOINT2:0.787052,0.000000,0.049483,-0.614899 LARM_JOINT3:0.955437,0.000000,-0.254688,-0.149245 LLEG_JOINT2:0.999900,0.012629,0.000000,0.006361 LLEG_JOINT4:0.997744,0.065643,0.000000,0.014071 RARM_JOINT2:0.782122,0.000000,0.545856,0.300543 RARM_JOINT3:0.898697,0.000000,0.433889,0.063910 RLEG_JOINT2:0.996617,0.043046,0.000000,-0.070005 RLEG_JOINT4:0.990901,0.097815,0.000000,0.092449 WAIST:0.973042,-0.000000,0.228163,0.033613 WAIST_JOINT0:0.958788,-0.000000,0.276275,0.066317 WAIST_JOINT1:0.997837,0.048117,-0.000000,0.044790 END:
KINECT_DATA_Sensor  AnkleLeft:-0.049868,-0.701636,0.072799,0.707050 AnkleRight:0.117534,0.841587,0.082926,0.520615 ElbowLeft:0.016975,0.705290,-0.211442,-0.676440 ElbowRight:-0.442690,0.884562,-0.145040,0.023214 FootLeft:0.000000,0.000000,0.000000,0.000000 FootRight:0.000000,0.000000,0.000000,0.000000 HandLeft:0.235868,-0.505832,-0.067194,0.827034 HandRight:0.709019,-0.331756,0.029355,0.621585 HandTipLeft:0.000000,0.000000,0.000000,0.000000 HandTipRight:0.000000,0.000000,0.000000,0.000000 Head:0.000000,0.000000,0.000000,0.000000 HipLeft:-0.021298,-0.672664,0.738246,-0.045415 HipRight:-0.283791,0.661363,0.633603,-0.283918 KneeLeft:0.016344,-0.527287,0.035840,0.848774 KneeRight:-0.012904,0.851273,0.049799,0.522196 Neck:-0.279928,0.072567,0.954787,-0.068961 ShoulderLeft:0.162998,0.701511,-0.682550,-0.124254 ShoulderRight:-0.220372,0.746705,0.558186,-0.286873 SpineBase:-0.227698,0.060793,0.971265,-0.033212 SpineMid:-0.253054,0.061642,0.964969,-0.031609 SpineShoulder:-0.279469,0.067885,0.956522,-0.048516 ThumbLeft:0.000000,0.000000,0.000000,0.000000 ThumbRight:0.000000,0.000000,0.000000,0.000000 WristLeft:0.169520,-0.512512,-0.050745,0.840250 WristRight:0.650612,-0.359005,0.018689,0.668932 END:
KINECT_DATA POSITION:2.338204,1.823586,-4.623854 HEAD_JOINT1:0.992792,0.117490,0.000000,-0.023681 LARM_JOINT2:0.791301,0.000000,0.032847,-0.610544 LARM_JOINT3:0.961329,0.000000,-0.233887,-0.145408 LLEG_JOINT2:0.999909,0.012154,0.000000,0.005786 LLEG_JOINT4:0.997680,0.067139,0.000000,0.011289 RARM_JOINT2:0.778841,0.000000,0.551686,0.298411 RARM_JOINT3:0.904613,0.000000,0.422098,0.059239 RLEG_JOINT2:0.996506,0.045172,0.000000,-0.070245 RLEG_JOINT4:0.990963,0.096485,0.000000,0.093185 WAIST:0.972566,-0.000000,0.230004,0.034838 WAIST_JOINT0:0.954616,-0.000000,0.287092,0.079289 WAIST_JOINT1:0.997816,0.048286,-0.000000,0.045078 END:
KINECT_DATA_Sensor  AnkleLeft:-0.034709,-0.529477,0.080318,0.843800 AnkleRight:0.119557,0.845906,0.081856,0.513273 ElbowLeft:0.007422,0.719992,-0.215219,-0.659725 ElbowRight:-0.442900,0.882755,-0.154855,0.024568 FootLeft:0.000000,0.000000,0.000000,0.000000 FootRight:0.000000,0.000000,0.000000,0.000000 HandLeft:0.215137,-0.507511,-0.047236,0.833017 HandRight:0.699999,-0.374689,0.074399,0.603385 HandTipLeft:0.000000,0.000000,0.000000,0.000000 HandTipRight:0.000000,0.000000,0.000000,0.000000 Head:0.000000,0.000000,0.000000,0.000000 HipLeft:-0.022972,-0.671717,0.739100,-0.044723 HipRight:-0.284969,0.661914,0.632330,-0.284291 KneeLeft:0.017287,-0.525714,0.035957,0.849725 KneeRight:-0.011247,0.852463,0.050796,0.520192 Neck:-0.291396,0.074250,0.951248,-0.068568 ShoulderLeft:-0.176810,-0.680546,0.697566,0.137825 ShoulderRight:-0.220610,0.742951,0.561649,-0.289666 SpineBase:-0.229525,0.062819,0.970699,-0.033400 SpineMid:-0.259637,0.063828,0.963082,-0.031428 SpineShoulder:-0.290889,0.069858,0.952995,-0.047996 ThumbLeft:0.000000,0.000000,0.000000,0.000000 ThumbRight:0.000000,0.000000,0.000000,0.000000 WristLeft:0.166117,-0.512414,-0.041169,0.841512 WristRight:0.649153,-0.406265,0.057554,0.640498 END:
KINECT_DATA POSITION:2.234802,1.799191,-4.600418 HEAD_JOINT1:0.993034,0.115750,0.000000,-0.022035 LARM_JOINT2:0.792209,0.000000,0.031810,-0.609420 LARM_JOINT3:0.960035,0.000000,-0.240026,-0.143946 LLEG_JOINT2:0.999901,0.012583,0.000000,0.006236 LLEG_JOINT4:0.997631,0.068032,0.000000,0.010157 RARM_JOINT2:0.771419,0.000000,0.555959,0.309551 RARM_JOINT3:0.913519,0.000000,0.404089,0.046850 RLEG_JOINT2:0.996367,0.044937,0.000000,-0.072337 RLEG_JOINT4:0.990833,0.098941,0.000000,0.091982 WAIST:0.972940,-0.000000,0.228124,0.036712 WAIST_JOINT0:0.953855,-0.000000,0.291513,0.071974 WAIST_JOINT1:0.997827,0.049482,-0.000000,0.043515 END:
KINECT_DATA_Sensor  AnkleLeft:-0.034371,-0.526669,0.082027,0.845405 AnkleRight:0.119956,0.847658,0.083305,0.510046 ElbowLeft:0.006752,0.721577,-0.216887,-0.657451 ElbowRight:-0.431525,0.885261,-0.169776,0.035716 FootLeft:0.000000,0.000000,0.000000,0.000000 FootRight:0.000000,0.000000,0.000000,0.000000 HandLeft:0.236481,-0.498893,-0.059061,0.831682 HandRight:0.697952,-0.342415,0.004472,0.628964 HandTipLeft:0.000000,0.000000,0.000000,0.000000 HandTipRight:0.000000,0.000000,0.000000,0.000000 Head:0.000000,0.000000,0.000000,0.000000 HipLeft:-0.020968,-0.669893,0.740594,-0.048213 HipRight:-0.284330,0.662828,0.631635,-0.284346 KneeLeft:0.018503,-0.527265,0.037906,0.848653 KneeRight:-0.011687,0.851482,0.050446,0.521821 Neck:-0.295377,0.074714,0.949957,-0.068938 ShoulderLeft:-0.179576,-0.677963,0.699166,0.138874 ShoulderRight:-0.227563,0.730428,0.574307,-0.291310 SpineBase:-0.227731,0.063792,0.971032,-0.034140 SpineMid:-0.260673,0.064918,0.962712,-0.031948 SpineShoulder:-0.294857,0.070436,0.951718,-0.048277 ThumbLeft:0.000000,0.000000,0.000000,0.000000 ThumbRight:0.000000,0.000000,0.000000,0.000000 WristLeft:0.165960,-0.505212,-0.041783,0.845856 WristRight:0.650485,-0.364238,-0.001316,0.666482 END:
KINECT_DATA POSITION:2.088963,1.762635,-4.576015 HEAD_JOINT1:0.993340,0.114188,0.000000,-0.015403 LARM_JOINT2:0.793241,0.000000,0.028454,-0.608242 LARM_JOINT3:0.960694,0.000000,-0.235543,-0.146925 LLEG_JOINT2:0.999909,0.012052,0.000000,0.006137 LLEG_JOINT4:0.997730,0.066954,0.000000,0.007176 RARM_JOINT2:0.755022,0.000000,0.580757,0.304406 RARM_JOINT3:0.943374,0.000000,0.331348,0.015936 RLEG_JOINT2:0.996296,0.045031,0.000000,-0.073257 RLEG_JOINT4:0.990930,0.098104,0.000000,0.091838 WAIST:0.973331,-0.000000,0.226116,0.038706 WAIST_JOINT0:0.951672,-0.000000,0.300203,0.064800 WAIST_JOINT1:0.997700,0.052322,-0.000000,0.043097 END:
KINECT_DATA_Sensor  AnkleLeft:-0.032375,-0.520819,0.080395,0.849256 AnkleRight:0.120950,0.851132,0.080628,0.504425 ElbowLeft:0.005619,0.723730,-0.219856,-0.654100 ElbowRight:-0.428683,0.879281,-0.202804,0.044338 FootLeft:0.000000,0.000000,0.000000,0.000000 FootRight:0.000000,0.000000,0.000000,0.000000 HandLeft:0.214571,-0.451231,-0.071516,0.863270 HandRight:0.662409,-0.456675,0.012834,0.593715 HandTipLeft:0.000000,0.000000,0.000000,0.000000 HandTipRight:0.000000,0.000000,0.000000,0.000000 Head:0.000000,0.000000,0.000000,0.000000 HipLeft:-0.019728,-0.668076,0.742028,-0.051777 HipRight:-0.283131,0.663630,0.631040,-0.284994 KneeLeft:0.020332,-0.529042,0.038969,0.847456 KneeRight:-0.010863,0.850437,0.049676,0.523614 Neck:-0.303248,0.076745,0.947147,-0.071156 ShoulderLeft:-0.185706,-0.672576,0.702409,0.140628 ShoulderRight:-0.238710,0.713349,0.588520,-0.296302 SpineBase:-0.225832,0.064423,0.971380,-0.035637 SpineMid:-0.263604,0.065766,0.961817,-0.033094 SpineShoulder:-0.302743,0.072149,0.949026,-0.049908 ThumbLeft:0.000000,0.000000,0.000000,0.000000 ThumbRight:0.000000,0.000000,0.000000,0.000000 WristLeft:0.164105,-0.455223,-0.050197,0.873683 WristRight:0.638401,-0.455401,0.031300,0.619738 END:
KINECT_DATA POSITION:1.884881,1.447289,-4.769397 HEAD_JOINT1:0.993833,0.110878,-0.000000,0.001673 LARM_JOINT2:0.796318,0.000000,0.008737,-0.604816 LARM_JOINT3:0.967226,0.000000,-0.212806,-0.138520 LLEG_JOINT2:0.999926,0.011539,0.000000,-0.003946 LLEG_JOINT4:0.997314,0.072923,0.000000,0.006891 RARM_JOINT2:0.715734,0.000000,0.652764,0.248241 RARM_JOINT3:0.971970,0.000000,0.235091,-0.002494 RLEG_JOINT2:0.995348,0.044727,0.000000,-0.085329 RLEG_JOINT4:0.990720,0.100280,0.000000,0.091753 WAIST:0.975631,-0.000000,0.213586,0.050248 WAIST_JOINT0:0.945323,-0.000000,0.305444,0.114321 WAIST_JOINT1:0.997602,0.060554,-0.000000,0.033508 END:
KINECT_DATA_Sensor  AnkleLeft:0.051289,0.703741,-0.074032,-0.704725 AnkleRight:0.122639,0.853848,0.077304,0.499928 ElbowLeft:-0.005001,0.741105,-0.223649,-0.633024 ElbowRight:-0.464731,0.849937,-0.248205,0.005147 FootLeft:0.000000,0.000000,0.000000,0.000000 FootRight:0.000000,0.000000,0.000000,0.000000 HandLeft:0.191031,-0.468206,-0.069679,0.859904 HandRight:0.660137,-0.433794,-0.034627,0.612245 HandTipLeft:0.000000,0.000000,0.000000,0.000000 HandTipRight:0.000000,0.000000,0.000000,0.000000 Head:0.000000,0.000000,0.000000,0.000000 HipLeft:-0.015466,-0.659423,0.749006,-0.062553 HipRight:-0.271310,0.670955,0.628353,-0.285277 KneeLeft:0.023654,-0.539559,0.038456,0.840737 KneeRight:-0.012088,0.843830,0.048276,0.534297 Neck:-0.313239,0.079854,0.943300,-0.075434 ShoulderLeft:-0.224187,-0.629435,0.729332,0.147057 ShoulderRight:-0.214178,0.738343,0.566532,-0.296681 SpineBase:-0.214323,0.064235,0.973788,-0.040953 SpineMid:-0.262848,0.066206,0.961825,-0.037683 SpineShoulder:-0.312744,0.075011,0.945359,-0.053487 ThumbLeft:0.000000,0.000000,0.000000,0.000000 ThumbRight:0.000000,0.000000,0.000000,0.000000 WristLeft:0.160528,-0.467563,-0.029798,0.868750 WristRight:0.625350,-0.449159,-0.042895,0.636674 END:
KINECT_DATA POSITION:1.837651,1.131128,-4.933560 HEAD_JOINT1:0.993730,0.111304,-0.000000,0.010625 LARM_JOINT2:0.796412,0.000000,0.009337,-0.604682 LARM_JOINT3:0.968242,0.000000,-0.206016,-0.141650 LLEG_JOINT2:0.999888,0.012016,0.000000,-0.008889 LLEG_JOINT4:0.997278,0.073484,0.000000,0.006005 RARM_JOINT2:0.704038,0.000000,0.672176,0.229151 RARM_JOINT3:0.976404,0.000000,0.215940,-0.002178 RLEG_JOINT2:0.994839,0.043361,0.000000,-0.091735 RLEG_JOINT4:0.990727,0.101169,0.000000,0.090695 WAIST:0.976610,-0.000000,0.207844,0.055076 WAIST_JOINT0:0.944016,-0.000000,0.303142,0.130151 WAIST_JOINT1:0.997598,0.063009,-0.000000,0.028785 END:
KINECT_DATA_Sensor  AnkleLeft:0.051153,0.704350,-0.073719,-0.704159 AnkleRight:0.120612,0.853754,0.076580,0.500691 ElbowLeft:-0.005656,0.740462,-0.224389,-0.633510 ElbowRight:-0.477457,0.840066,-0.257425,-0.007464 FootLeft:0.000000,0.000000,0.000000,0.000000 FootRight:0.000000,0.000000,0.000000,0.000000 HandLeft:0.152282,-0.505185,-0.060689,0.847299 HandRight:0.657481,-0.482899,0.015912,0.578164 HandTipLeft:0.000000,0.000000,0.000000,0.000000 HandTipRight:0.000000,0.000000,0.000000,0.000000 Head:0.000000,0.000000,0.000000,0.000000 HipLeft:-0.013064,-0.654440,0.752922,-0.068171 HipRight:-0.267032,0.673282,0.627859,-0.284917 KneeLeft:0.024004,-0.544285,0.038052,0.837693 KneeRight:-0.014322,0.840693,0.047499,0.539235 Neck:-0.312963,0.080718,0.943270,-0.076031 ShoulderLeft:-0.230788,-0.621723,0.733535,0.148743 ShoulderRight:-0.203441,0.752042,0.552501,-0.296289 SpineBase:-0.209052,0.064895,0.974781,-0.043452 SpineMid:-0.260051,0.067092,0.962431,-0.039977 SpineShoulder:-0.312527,0.075415,0.945344,-0.054443 ThumbLeft:0.000000,0.000000,0.000000,0.000000 ThumbRight:0.000000,0.000000,0.000000,0.000000 WristLeft:0.162101,-0.499230,-0.021739,0.850894 WristRight:0.630083,-0.503513,0.006150,0.591128 END:
KINECT_DATA POSITION:1.741098,1.155210,-4.971087 HEAD_JOINT1:0.993739,0.111300,-0.000000,0.009730 LARM_JOINT2:0.794765,0.000000,0.014630,-0.606741 LARM_JOINT3:0.967719,0.000000,-0.204257,-0.147644 LLEG_JOINT2:0.999915,0.009273,0.000000,-0.009176 LLEG_JOINT4:0.997166,0.074841,0.000000,0.007698 RARM_JOINT2:0.709268,0.000000,0.661357,0.244021 RARM_JOINT3:0.977801,0.000000,0.209485,0.004506 RLEG_JOINT2:0.994802,0.044351,0.000000,-0.091665 RLEG_JOINT4:0.990774,0.100335,0.000000,0.091102 WAIST:0.976198,-0.000000,0.209737,0.055206 WAIST_JOINT0:0.944371,-0.000000,0.305130,0.122712 WAIST_JOINT1:0.997638,0.061736,-0.000000,0.030132 END:
KINECT_DATA_Sensor  AnkleLeft:0.049818,0.707475,-0.074196,-0.701065 AnkleRight:0.120868,0.854239,0.076609,0.499797 ElbowLeft:-0.000407,0.743859,-0.224031,-0.629670 ElbowRight:-0.463676,0.846498,-0.261269,0.013615 FootLeft:0.000000,0.000000,0.000000,0.000000 FootRight:0.000000,0.000000,0.000000,0.000000 HandLeft:0.146982,-0.529554,-0.060274,0.833268 HandRight:0.625987,-0.448331,-0.042666,0.636647 HandTipLeft:0.000000,0.000000,0.000000,0.000000 HandTipRight:0.000000,0.000000,0.000000,0.000000 Head:0.000000,0.000000,0.000000,0.000000 HipLeft:-0.014140,-0.653870,0.753459,-0.067483 HipRight:-0.269314,0.672907,0.627254,-0.284989 KneeLeft:0.026238,-0.542976,0.036397,0.838549 KneeRight:-0.013793,0.841830,0.048097,0.537419 Neck:-0.314265,0.082075,0.942858,-0.074294 ShoulderLeft:-0.227282,-0.622163,0.734805,0.146006 ShoulderRight:-0.213181,0.742265,0.561217,-0.297711 SpineBase:-0.210835,0.066838,0.974279,-0.043137 SpineMid:-0.261575,0.069006,0.961900,-0.039577 SpineShoulder:-0.313811,0.076891,0.944847,-0.053626 ThumbLeft:0.000000,0.000000,0.000000,0.000000 ThumbRight:0.000000,0.000000,0.000000,0.000000 WristLeft:0.157191,-0.523522,-0.018950,0.837172 WristRight:0.624778,-0.455444,-0.053530,0.631947 END:
KINECT_DATA POSITION:1.610024,1.323216,-4.923129 HEAD_JOINT1:0.993670,0.112085,-0.000000,0.007578 LARM_JOINT2:0.794032,0.000000,0.015953,-0.607667 LARM_JOINT3:0.965690,0.000000,-0.212659,-0.149057 LLEG_JOINT2:0.999960,0.005195,0.000000,-0.007305 LLEG_JOINT4:0.996767,0.079779,0.000000,0.009531 RARM_JOINT2:0.743337,0.000000,0.604329,0.286770 RARM_JOINT3:0.950629,0.000000,0.310291,0.004922 RLEG_JOINT2:0.995108,0.046141,0.000000,-0.087353 RLEG_JOINT4:0.991166,0.095757,0.000000,0.091769 WAIST:0.975516,-0.000000,0.213483,0.052853 WAIST_JOINT0:0.946262,-0.000000,0.306512,0.103143 WAIST_JOINT1:0.997757,0.058028,-0.000000,0.033364 END:
KINECT_DATA_Sensor  AnkleLeft:0.050712,0.704465,-0.075698,-0.703866 AnkleRight:0.120922,0.854137,0.074079,0.500340 ElbowLeft:-0.000359,0.745355,-0.223128,-0.628220 ElbowRight:-0.433698,0.868976,-0.228838,0.066489 FootLeft:0.000000,0.000000,0.000000,0.000000 FootRight:0.000000,0.000000,0.000000,0.000000 HandLeft:0.184948,-0.504289,-0.085970,0.839104 HandRight:0.669472,-0.484525,0.110111,0.552194 HandTipLeft:0.000000,0.000000,0.000000,0.000000 HandTipRight:0.000000,0.000000,0.000000,0.000000 Head:0.000000,0.000000,0.000000,0.000000 HipLeft:-0.015066,-0.655852,0.751992,-0.064330 HipRight:-0.273361,0.671459,0.627075,-0.284943 KneeLeft:0.029013,-0.540211,0.034074,0.840339 KneeRight:-0.011173,0.844001,0.048722,0.534007 Neck:-0.313430,0.082771,0.943324,-0.071071 ShoulderLeft:-0.218228,-0.626709,0.734503,0.141836 ShoulderRight:-0.229060,0.720915,0.583385,-0.295761 SpineBase:-0.214276,0.067610,0.973564,-0.041086 SpineMid:-0.262916,0.069589,0.961570,-0.037637 SpineShoulder:-0.312944,0.077721,0.945201,-0.051191 ThumbLeft:0.000000,0.000000,0.000000,0.000000 ThumbRight:0.000000,0.000000,0.000000,0.000000 WristLeft:0.156367,-0.502283,-0.026174,0.850045 WristRight:0.635691,-0.535514,0.064490,0.552234 END:
