EastLYD/RoboCupatHomeSim/InteractiveCleanUp/JapanOpen2016/Motion_Data/File17.dat
KINECT_DATA POSITION:11.293966,0.311659,-20.031811 HEAD_JOINT1:0.981750,0.161379,-0.000000,0.100614 LARM_JOINT2:0.826263,0.000000,-0.031907,-0.562380 LARM_JOINT3:0.963849,0.000000,-0.196243,-0.180235 LLEG_JOINT2:0.997820,0.018161,0.000000,0.063440 LLEG_JOINT4:0.994530,0.093007,0.000000,-0.047532 RARM_JOINT2:0.797497,0.000000,-0.074310,0.598729 RARM_JOINT3:0.980710,0.000000,0.171024,0.094649 RLEG_JOINT2:0.999144,0.012187,0.000000,-0.039521 RLEG_JOINT4:0.995020,0.091296,0.000000,0.040010 WAIST:0.999820,0.000000,-0.017442,-0.007473 WAIST_JOINT0:0.999497,0.000000,-0.031703,0.000019 WAIST_JOINT1:0.998343,0.056407,0.000000,-0.011406 END:
KINECT_DATA_Sensor  AnkleLeft:-0.069344,-0.696992,0.086789,0.708422 AnkleRight:0.070617,0.697812,0.075534,0.708778 ElbowLeft:-0.044525,0.912044,-0.163602,-0.373401 ElbowRight:0.012568,0.808868,0.193670,0.555037 FootLeft:0.000000,0.000000,0.000000,0.000000 FootRight:0.000000,0.000000,0.000000,0.000000 HandLeft:-0.178363,0.862635,0.009822,0.473234 HandRight:-0.084573,0.921024,0.043988,0.377660 HandTipLeft:0.000000,0.000000,0.000000,0.000000 HandTipRight:0.000000,0.000000,0.000000,0.000000 Head:0.000000,0.000000,0.000000,0.000000 HipLeft:0.141172,-0.682081,0.696745,-0.171410 HipRight:-0.115377,0.674009,0.711514,-0.161706 KneeLeft:-0.027700,0.718765,-0.051882,-0.692761 KneeRight:-0.023928,0.694439,0.042195,0.717915 Neck:0.031706,-0.019306,0.996706,-0.072102 ShoulderLeft:-0.012252,0.786047,-0.612880,0.079735 ShoulderRight:0.029077,0.784569,0.618666,-0.029314 SpineBase:0.017331,-0.017392,0.999151,-0.033077 SpineMid:0.024196,-0.017619,0.999008,-0.032957 SpineShoulder:0.031443,-0.018444,0.998020,-0.051261 ThumbLeft:0.000000,0.000000,0.000000,0.000000 ThumbRight:0.000000,0.000000,0.000000,0.000000 WristLeft:-0.144391,0.873851,-0.055530,0.460926 WristRight:-0.087953,0.920367,0.049993,0.377742 END:
KINECT_DATA POSITION:11.254142,0.345019,-20.058977 HEAD_JOINT1:0.981438,0.160568,-0.000000,0.104869 LARM_JOINT2:0.828048,0.000000,-0.033318,-0.559666 LARM_JOINT3:0.963312,0.000000,-0.198667,-0.180445 LLEG_JOINT2:0.997804,0.017620,0.000000,0.063847 LLEG_JOINT4:0.994596,0.092567,0.000000,-0.047006 RARM_JOINT2:0.797648,0.000000,-0.072298,0.598775 RARM_JOINT3:0.980050,0.000000,0.173878,0.096277 RLEG_JOINT2:0.999143,0.012157,0.000000,-0.039578 RLEG_JOINT4:0.995192,0.089443,0.000000,0.039910 WAIST:0.999801,0.000000,-0.018468,-0.007539 WAIST_JOINT0:0.999415,0.000000,-0.034189,0.000341 WAIST_JOINT1:0.998306,0.057092,0.000000,-0.011197 END:
KINECT_DATA_Sensor  AnkleLeft:0.071315,0.725173,-0.083981,-0.679695 AnkleRight:0.069108,0.696776,0.074388,0.710066 ElbowLeft:-0.045773,0.913985,-0.166496,-0.367172 ElbowRight:0.011152,0.806221,0.193266,0.559045 FootLeft:0.000000,0.000000,0.000000,0.000000 FootRight:0.000000,0.000000,0.000000,0.000000 HandLeft:-0.184226,0.861481,-0.001994,0.473188 HandRight:-0.091807,0.921184,0.027176,0.377164 HandTipLeft:0.000000,0.000000,0.000000,0.000000 HandTipRight:0.000000,0.000000,0.000000,0.000000 Head:0.000000,0.000000,0.000000,0.000000 HipLeft:0.141652,-0.681864,0.696584,-0.172527 HipRight:-0.114714,0.673993,0.711653,-0.161630 KneeLeft:-0.028384,0.719434,-0.051695,-0.692053 KneeRight:-0.023997,0.693702,0.042281,0.718619 Neck:0.034238,-0.019219,0.996563,-0.072945 ShoulderLeft:-0.014405,0.785117,-0.613612,0.082845 ShoulderRight:0.030229,0.784057,0.619299,-0.028466 SpineBase:0.018359,-0.017299,0.999118,-0.033573 SpineMid:0.025973,-0.017554,0.998949,-0.033440 SpineShoulder:0.033983,-0.018314,0.997907,-0.051869 ThumbLeft:0.000000,0.000000,0.000000,0.000000 ThumbRight:0.000000,0.000000,0.000000,0.000000 WristLeft:-0.143878,0.872632,-0.055698,0.463369 WristRight:-0.089140,0.919702,0.051582,0.378870 END:
KINECT_DATA POSITION:11.274778,0.335814,-19.850206 HEAD_JOINT1:0.982135,0.157339,-0.000000,0.103224 LARM_JOINT2:0.827804,0.000000,-0.033232,-0.560032 LARM_JOINT3:0.964742,0.000000,-0.193984,-0.177887 LLEG_JOINT2:0.997980,0.017048,0.000000,0.061205 LLEG_JOINT4:0.994532,0.093409,0.000000,-0.046707 RARM_JOINT2:0.796962,0.000000,0.004181,0.604015 RARM_JOINT3:0.968362,0.000000,0.213202,0.129693 RLEG_JOINT2:0.999025,0.012932,0.000000,-0.042207 RLEG_JOINT4:0.994960,0.091187,0.000000,0.041717 WAIST:0.999862,0.000000,-0.015873,-0.004969 WAIST_JOINT0:0.999615,0.000000,-0.027241,0.005223 WAIST_JOINT1:0.998407,0.055395,0.000000,-0.010690 END:
KINECT_DATA_Sensor  AnkleLeft:0.069693,0.707728,-0.085778,-0.697787 AnkleRight:0.072215,0.700514,0.074836,0.706021 ElbowLeft:-0.048116,0.911762,-0.168283,-0.371560 ElbowRight:-0.028139,0.852645,0.157709,0.497325 FootLeft:0.000000,0.000000,0.000000,0.000000 FootRight:0.000000,0.000000,0.000000,0.000000 HandLeft:-0.141203,0.610267,-0.069753,0.776383 HandRight:-0.078969,0.514036,-0.195226,0.831515 HandTipLeft:0.000000,0.000000,0.000000,0.000000 HandTipRight:0.000000,0.000000,0.000000,0.000000 Head:0.000000,0.000000,0.000000,0.000000 HipLeft:0.141759,-0.680861,0.698068,-0.170391 HipRight:-0.118516,0.675805,0.709166,-0.162247 KneeLeft:-0.028553,0.717570,-0.051344,-0.694004 KneeRight:-0.023548,0.695594,0.042845,0.716770 Neck:0.027283,-0.015275,0.997026,-0.070436 ShoulderLeft:-0.013727,0.784146,-0.615403,0.078781 ShoulderRight:0.021814,0.788162,0.614090,-0.034911 SpineBase:0.015677,-0.015375,0.999265,-0.031415 SpineMid:0.021153,-0.015547,0.999164,-0.031330 SpineShoulder:0.027015,-0.015412,0.998238,-0.050538 ThumbLeft:0.000000,0.000000,0.000000,0.000000 ThumbRight:0.000000,0.000000,0.000000,0.000000 WristLeft:-0.110645,0.615071,-0.112904,0.772463 WristRight:-0.101144,0.508199,-0.105516,0.848746 END:
KINECT_DATA POSITION:11.314899,0.147171,-19.304394 HEAD_JOINT1:0.984192,0.148584,-0.000000,0.096379 LARM_JOINT2:0.824834,0.000000,-0.025837,-0.564784 LARM_JOINT3:0.964988,0.000000,-0.196371,-0.173886 LLEG_JOINT2:0.998288,0.021654,0.000000,0.054334 LLEG_JOINT4:0.994838,0.091458,0.000000,-0.043971 RARM_JOINT2:0.785653,0.000000,0.112984,0.608263 RARM_JOINT3:0.962844,0.000000,0.233373,0.135898 RLEG_JOINT2:0.998686,0.013629,0.000000,-0.049409 RLEG_JOINT4:0.994196,0.098317,0.000000,0.043674 WAIST:0.999908,0.000000,-0.013581,0.000465 WAIST_JOINT0:0.999830,-0.000000,0.000687,0.018403 WAIST_JOINT1:0.998688,0.049755,0.000000,-0.012078 END:
KINECT_DATA_Sensor  AnkleLeft:0.070643,0.704285,-0.088639,-0.700811 AnkleRight:0.077135,0.694192,0.081011,0.711045 ElbowLeft:-0.049703,0.902822,-0.166756,-0.393236 ElbowRight:-0.089730,0.896961,0.102261,0.420658 FootLeft:0.000000,0.000000,0.000000,0.000000 FootRight:0.000000,0.000000,0.000000,0.000000 HandLeft:-0.135999,0.579524,-0.073648,0.800145 HandRight:-0.168599,0.713428,-0.269504,0.624470 HandTipLeft:0.000000,0.000000,0.000000,0.000000 HandTipRight:0.000000,0.000000,0.000000,0.000000 Head:0.000000,0.000000,0.000000,0.000000 HipLeft:0.145270,-0.678540,0.700975,-0.164664 HipRight:-0.125105,0.680125,0.704590,-0.159158 KneeLeft:-0.024104,0.716175,-0.053768,-0.695429 KneeRight:-0.024322,0.697223,0.044609,0.715051 Neck:-0.000388,-0.008660,0.997962,-0.063215 ShoulderLeft:-0.009399,0.784899,-0.616483,0.061595 ShoulderRight:-0.009746,0.801193,0.595329,-0.059822 SpineBase:0.013243,-0.012586,0.999545,-0.024003 SpineMid:0.006182,-0.012416,0.999614,-0.024091 SpineShoulder:-0.000700,-0.010734,0.998892,-0.045822 ThumbLeft:0.000000,0.000000,0.000000,0.000000 ThumbRight:0.000000,0.000000,0.000000,0.000000 WristLeft:-0.104609,0.584403,-0.126512,0.794685 WristRight:-0.143651,0.731327,-0.175838,0.643122 END:
KINECT_DATA POSITION:11.747697,0.062861,-18.705046 HEAD_JOINT1:0.985538,0.148759,-0.000000,0.081148 LARM_JOINT2:0.815322,0.000000,-0.006333,-0.578973 LARM_JOINT3:0.966110,0.000000,-0.198031,-0.165577 LLEG_JOINT2:0.999015,0.025276,0.000000,0.036480 LLEG_JOINT4:0.995751,0.087655,0.000000,-0.028232 RARM_JOINT2:0.786821,0.000000,0.180449,0.590212 RARM_JOINT3:0.960698,0.000000,0.241667,0.136593 RLEG_JOINT2:0.997725,0.021360,0.000000,-0.063945 RLEG_JOINT4:0.993858,0.099387,0.000000,0.048667 WAIST:0.999964,0.000000,-0.000037,0.008512 WAIST_JOINT0:0.998876,-0.000000,0.037786,0.028605 WAIST_JOINT1:0.999053,0.042418,0.000000,-0.009678 END:
KINECT_DATA_Sensor  AnkleLeft:0.071297,0.724687,-0.088841,-0.679598 AnkleRight:0.082431,0.712226,0.088068,0.691508 ElbowLeft:-0.043297,0.879299,-0.164185,-0.444973 ElbowRight:-0.143026,0.907673,0.071177,0.388082 FootLeft:0.000000,0.000000,0.000000,0.000000 FootRight:0.000000,0.000000,0.000000,0.000000 HandLeft:-0.127538,0.822841,-0.017093,0.553510 HandRight:-0.083950,0.594401,-0.328689,0.729111 HandTipLeft:0.000000,0.000000,0.000000,0.000000 HandTipRight:0.000000,0.000000,0.000000,0.000000 Head:0.000000,0.000000,0.000000,0.000000 HipLeft:0.141484,-0.675754,0.706810,-0.154140 HipRight:-0.139870,0.685334,0.696238,-0.161268 KneeLeft:-0.013879,0.706854,-0.049695,-0.705476 KneeRight:-0.024036,0.706837,0.054344,0.704876 Neck:-0.036565,0.003250,0.997852,-0.054249 ShoulderLeft:0.000121,0.784729,-0.618846,0.035069 ShoulderRight:-0.047108,0.809055,0.578940,-0.089662 SpineBase:-0.000304,-0.004011,0.999860,-0.016215 SpineMid:-0.018432,-0.003716,0.999691,-0.016285 SpineShoulder:-0.036811,-0.000553,0.998576,-0.038622 ThumbLeft:0.000000,0.000000,0.000000,0.000000 ThumbRight:0.000000,0.000000,0.000000,0.000000 WristLeft:-0.140562,0.824967,-0.097372,0.538693 WristRight:-0.117406,0.588485,-0.265112,0.754730 END:
KINECT_DATA POSITION:12.203379,0.051535,-18.404221 HEAD_JOINT1:0.986163,0.150257,-0.000000,0.070038 LARM_JOINT2:0.810089,0.000000,0.000604,-0.586307 LARM_JOINT3:0.965451,0.000000,-0.205689,-0.159990 LLEG_JOINT2:0.999460,0.027430,0.000000,0.018083 LLEG_JOINT4:0.996234,0.085469,0.000000,-0.014579 RARM_JOINT2:0.781823,0.000000,0.229089,0.579888 RARM_JOINT3:0.961218,0.000000,0.254408,0.106476 RLEG_JOINT2:0.996441,0.026087,0.000000,-0.080151 RLEG_JOINT4:0.993637,0.096931,0.000000,0.057358 WAIST:0.999800,-0.000000,0.010233,0.017156 WAIST_JOINT0:0.997802,-0.000000,0.057443,0.033035 WAIST_JOINT1:0.999199,0.038596,0.000000,-0.010550 END:
KINECT_DATA_Sensor  AnkleLeft:0.069730,0.720466,-0.090661,-0.683993 AnkleRight:0.082919,0.712377,0.090299,0.691006 ElbowLeft:-0.040632,0.870754,-0.164120,-0.461737 ElbowRight:-0.177742,0.898891,0.034569,0.399008 FootLeft:0.000000,0.000000,0.000000,0.000000 FootRight:0.000000,0.000000,0.000000,0.000000 HandLeft:-0.157515,0.836779,-0.044743,0.522483 HandRight:-0.108733,0.595459,-0.376586,0.701276 HandTipLeft:0.000000,0.000000,0.000000,0.000000 HandTipRight:0.000000,0.000000,0.000000,0.000000 Head:0.000000,0.000000,0.000000,0.000000 HipLeft:0.136312,-0.671332,0.713526,-0.147016 HipRight:-0.148920,0.690505,0.688692,-0.163492 KneeLeft:0.005148,-0.699427,0.044237,0.713315 KneeRight:-0.026792,0.714177,0.062674,0.696638 Neck:-0.055609,0.010994,0.997116,-0.050466 ShoulderLeft:0.004707,0.783774,-0.620689,0.020536 ShoulderRight:-0.067242,0.811314,0.571182,-0.104882 SpineBase:-0.010615,0.004063,0.999855,-0.012663 SpineMid:-0.032888,0.004344,0.999371,-0.012570 SpineShoulder:-0.055754,0.006929,0.997835,-0.034197 ThumbLeft:0.000000,0.000000,0.000000,0.000000 ThumbRight:0.000000,0.000000,0.000000,0.000000 WristLeft:-0.135763,0.842837,-0.098671,0.511330 WristRight:-0.139536,0.590742,-0.304722,0.733961 END:
KINECT_DATA POSITION:12.376612,0.056202,-18.404829 HEAD_JOINT1:0.986081,0.152216,-0.000000,0.066891 LARM_JOINT2:0.809560,0.000000,0.001433,-0.587036 LARM_JOINT3:0.966363,0.000000,-0.202057,-0.159109 LLEG_JOINT2:0.999518,0.028035,0.000000,0.013364 LLEG_JOINT4:0.996553,0.082350,0.000000,-0.010063 RARM_JOINT2:0.780392,0.000000,0.245892,0.574913 RARM_JOINT3:0.961882,0.000000,0.258477,0.089288 RLEG_JOINT2:0.995959,0.028232,0.000000,-0.085260 RLEG_JOINT4:0.993386,0.095774,0.000000,0.063343 WAIST:0.999727,-0.000000,0.013599,0.018992 WAIST_JOINT0:0.997376,-0.000000,0.063954,0.033938 WAIST_JOINT1:0.999288,0.036340,0.000000,-0.010176 END:
KINECT_DATA_Sensor  AnkleLeft:0.066403,0.713931,-0.090381,-0.691176 AnkleRight:0.084564,0.709878,0.089834,0.693435 ElbowLeft:-0.041636,0.870203,-0.164809,-0.462440 ElbowRight:-0.191135,0.884452,0.017043,0.425350 FootLeft:0.000000,0.000000,0.000000,0.000000 FootRight:0.000000,0.000000,0.000000,0.000000 HandLeft:-0.141271,0.704474,-0.080628,0.690838 HandRight:-0.036964,0.449334,-0.379316,0.807992 HandTipLeft:0.000000,0.000000,0.000000,0.000000 HandTipRight:0.000000,0.000000,0.000000,0.000000 Head:0.000000,0.000000,0.000000,0.000000 HipLeft:0.133952,-0.670175,0.715397,-0.145362 HipRight:-0.151560,0.691246,0.687117,-0.164559 KneeLeft:0.002622,-0.696942,0.042550,0.715860 KneeRight:-0.027893,0.716584,0.066363,0.693776 Neck:-0.062093,0.012385,0.996785,-0.049092 ShoulderLeft:0.004741,0.782602,-0.622312,0.015499 ShoulderRight:-0.075698,0.811164,0.569417,-0.109760 SpineBase:-0.013984,0.006835,0.999802,-0.012370 SpineMid:-0.037713,0.007126,0.999189,-0.012204 SpineShoulder:-0.062148,0.009279,0.997528,-0.031451 ThumbLeft:0.000000,0.000000,0.000000,0.000000 ThumbRight:0.000000,0.000000,0.000000,0.000000 WristLeft:-0.106988,0.713282,-0.126618,0.680992 WristRight:-0.089998,0.429171,-0.354170,0.826000 END:
KINECT_DATA POSITION:12.711650,0.020221,-18.426144 HEAD_JOINT1:0.985985,0.154201,-0.000000,0.063681 LARM_JOINT2:0.812133,0.000000,0.001606,-0.583471 LARM_JOINT3:0.964756,0.000000,-0.202107,-0.168517 LLEG_JOINT2:0.999566,0.028589,0.000000,0.007087 LLEG_JOINT4:0.996624,0.081800,0.000000,-0.006976 RARM_JOINT2:0.765294,0.000000,0.354712,0.537126 RARM_JOINT3:0.974592,0.000000,0.204491,0.091402 RLEG_JOINT2:0.995120,0.036422,0.000000,-0.091702 RLEG_JOINT4:0.994535,0.082184,0.000000,0.064385 WAIST:0.999549,-0.000000,0.018996,0.023277 WAIST_JOINT0:0.996757,-0.000000,0.072912,0.034053 WAIST_JOINT1:0.999283,0.035588,0.000000,-0.012954 END:
KINECT_DATA_Sensor  AnkleLeft:0.066248,0.711934,-0.090553,-0.693225 AnkleRight:0.078896,0.711339,0.087522,0.692901 ElbowLeft:-0.040209,0.877033,-0.170839,-0.447225 ElbowRight:-0.262500,0.911065,-0.017560,0.317404 FootLeft:0.000000,0.000000,0.000000,0.000000 FootRight:0.000000,0.000000,0.000000,0.000000 HandLeft:-0.131214,0.703315,-0.089662,0.692887 HandRight:0.001868,0.478249,-0.393635,0.785064 HandTipLeft:0.000000,0.000000,0.000000,0.000000 HandTipRight:0.000000,0.000000,0.000000,0.000000 Head:0.000000,0.000000,0.000000,0.000000 HipLeft:0.132057,-0.667676,0.718415,-0.143700 HipRight:-0.156343,0.693212,0.683114,-0.168428 KneeLeft:0.000749,-0.692929,0.041380,0.719817 KneeRight:-0.024213,0.720697,0.073501,0.688917 Neck:-0.071039,0.012917,0.996188,-0.048943 ShoulderLeft:0.003562,0.781128,-0.624233,0.012598 ShoulderRight:-0.088856,0.809334,0.568006,-0.120219 SpineBase:-0.019439,0.009720,0.999691,-0.012024 SpineMid:-0.044795,0.010022,0.998877,-0.011773 SpineShoulder:-0.071013,0.010958,0.996957,-0.030224 ThumbLeft:0.000000,0.000000,0.000000,0.000000 ThumbRight:0.000000,0.000000,0.000000,0.000000 WristLeft:-0.112302,0.707969,-0.122941,0.686334 WristRight:-0.082465,0.442972,-0.371312,0.811851 END:
KINECT_DATA POSITION:13.234819,0.019907,-18.171417 HEAD_JOINT1:0.986125,0.155579,-0.000000,0.057898 LARM_JOINT2:0.810029,0.000000,0.001294,-0.586389 LARM_JOINT3:0.965142,0.000000,-0.200367,-0.168386 LLEG_JOINT2:0.999563,0.029482,0.000000,-0.002265 LLEG_JOINT4:0.996687,0.081314,0.000000,-0.001548 RARM_JOINT2:0.747902,0.000000,0.422483,0.512007 RARM_JOINT3:0.979671,0.000000,0.164922,0.114219 RLEG_JOINT2:0.993434,0.045746,0.000000,-0.104858 RLEG_JOINT4:0.994552,0.075706,0.000000,0.071661 WAIST:0.999032,-0.000000,0.033214,0.028836 WAIST_JOINT0:0.995895,-0.000000,0.084967,0.031216 WAIST_JOINT1:0.999322,0.033788,0.000000,-0.014622 END:
KINECT_DATA_Sensor  AnkleLeft:0.068516,0.718601,-0.089162,-0.686271 AnkleRight:0.079073,0.722155,0.090411,0.681224 ElbowLeft:-0.039942,0.870970,-0.170682,-0.459003 ElbowRight:-0.308818,0.940312,-0.016632,0.142018 FootLeft:0.000000,0.000000,0.000000,0.000000 FootRight:0.000000,0.000000,0.000000,0.000000 HandLeft:-0.133033,0.700088,-0.094421,0.695172 HandRight:-0.114051,0.729042,-0.384180,0.554884 HandTipLeft:0.000000,0.000000,0.000000,0.000000 HandTipRight:0.000000,0.000000,0.000000,0.000000 Head:0.000000,0.000000,0.000000,0.000000 HipLeft:0.127318,-0.664816,0.723133,-0.137439 HipRight:-0.168318,0.694413,0.676840,-0.177050 KneeLeft:-0.002705,-0.682454,0.038861,0.729890 KneeRight:-0.024717,0.730767,0.084840,0.676883 Neck:-0.082732,0.015404,0.995314,-0.047627 ShoulderLeft:0.003034,0.779980,-0.625761,0.006712 ShoulderRight:-0.105054,0.803721,0.570520,-0.132297 SpineBase:-0.033661,0.013554,0.999291,-0.010009 SpineMid:-0.057677,0.013791,0.998193,-0.009680 SpineShoulder:-0.082595,0.014454,0.996092,-0.027752 ThumbLeft:0.000000,0.000000,0.000000,0.000000 ThumbRight:0.000000,0.000000,0.000000,0.000000 WristLeft:-0.106867,0.706680,-0.127404,0.687715 WristRight:-0.173476,0.721954,-0.333888,0.580696 END:
KINECT_DATA POSITION:12.992081,0.046209,-17.864264 HEAD_JOINT1:0.987249,0.150719,-0.000000,0.051217 LARM_JOINT2:0.810565,0.000000,-0.001479,-0.585647 LARM_JOINT3:0.964920,0.000000,-0.202350,-0.167287 LLEG_JOINT2:0.999643,0.025886,0.000000,0.006641 LLEG_JOINT4:0.996336,0.085516,0.000000,0.000788 RARM_JOINT2:0.737080,0.000000,0.454238,0.500381 RARM_JOINT3:0.977668,0.000000,0.162774,0.132927 RLEG_JOINT2:0.994186,0.050988,0.000000,-0.094838 RLEG_JOINT4:0.994609,0.075824,0.000000,0.070740 WAIST:0.998422,-0.000000,0.050921,0.023663 WAIST_JOINT0:0.995088,-0.000000,0.094318,0.030077 WAIST_JOINT1:0.999427,0.032613,0.000000,-0.009089 END:
KINECT_DATA_Sensor  AnkleLeft:0.067988,0.716565,-0.091866,-0.688094 AnkleRight:0.081588,0.717680,0.094862,0.685040 ElbowLeft:-0.042465,0.858002,-0.170650,-0.482606 ElbowRight:-0.330906,0.942228,-0.017288,0.049079 FootLeft:0.000000,0.000000,0.000000,0.000000 FootRight:0.000000,0.000000,0.000000,0.000000 HandLeft:-0.133940,0.661643,-0.101579,0.730733 HandRight:0.058718,0.500440,-0.409895,0.760328 HandTipLeft:0.000000,0.000000,0.000000,0.000000 HandTipRight:0.000000,0.000000,0.000000,0.000000 Head:0.000000,0.000000,0.000000,0.000000 HipLeft:0.119693,-0.668954,0.722111,-0.129341 HipRight:-0.180599,0.687738,0.677837,-0.186917 KneeLeft:0.001948,-0.669597,0.038998,0.741698 KneeRight:-0.019236,0.742776,0.084816,0.663867 Neck:-0.092326,0.015316,0.994512,-0.046765 ShoulderLeft:0.009484,0.777323,-0.629029,-0.001210 ShoulderRight:-0.111299,0.799634,0.573433,-0.139183 SpineBase:-0.051244,0.012250,0.998569,-0.009111 SpineMid:-0.071380,0.012431,0.997332,-0.008863 SpineShoulder:-0.092231,0.013853,0.995285,-0.026643 ThumbLeft:0.000000,0.000000,0.000000,0.000000 ThumbRight:0.000000,0.000000,0.000000,0.000000 WristLeft:-0.093782,0.666084,-0.144522,0.725707 WristRight:-0.002892,0.480559,-0.386355,0.787264 END:
KINECT_DATA POSITION:11.953819,0.132952,-17.778790 HEAD_JOINT1:0.988213,0.146316,-0.000000,0.045017 LARM_JOINT2:0.812674,0.000000,-0.002773,-0.582712 LARM_JOINT3:0.964509,0.000000,-0.202574,-0.169373 LLEG_JOINT2:0.999063,0.016419,0.000000,0.040045 LLEG_JOINT4:0.995442,0.094995,0.000000,-0.008477 RARM_JOINT2:0.722513,0.000000,0.479971,0.497597 RARM_JOINT3:0.978240,0.000000,0.156374,0.136358 RLEG_JOINT2:0.996385,0.051224,0.000000,-0.067777 RLEG_JOINT4:0.994741,0.077249,0.000000,0.067246 WAIST:0.997296,-0.000000,0.073085,0.007697 WAIST_JOINT0:0.992574,-0.000000,0.118376,0.027996 WAIST_JOINT1:0.999432,0.033601,-0.000000,0.002557 END:
KINECT_DATA_Sensor  AnkleLeft:0.068118,0.717376,-0.095536,-0.686735 AnkleRight:0.084932,0.718492,0.095272,0.683725 ElbowLeft:-0.038912,0.844895,-0.170874,-0.505411 ElbowRight:-0.342372,0.938944,-0.027780,-0.019832 FootLeft:0.000000,0.000000,0.000000,0.000000 FootRight:0.000000,0.000000,0.000000,0.000000 HandLeft:-0.132060,0.698074,-0.084632,0.698635 HandRight:0.097439,0.501391,-0.417561,0.751502 HandTipLeft:0.000000,0.000000,0.000000,0.000000 HandTipRight:0.000000,0.000000,0.000000,0.000000 Head:0.000000,0.000000,0.000000,0.000000 HipLeft:0.108466,-0.681283,0.713767,-0.120934 HipRight:-0.193504,0.673141,0.684464,-0.202353 KneeLeft:0.019148,-0.653113,0.046489,0.755589 KneeRight:-0.012144,0.756929,0.077681,0.648750 Neck:-0.116150,0.011844,0.991969,-0.048652 ShoulderLeft:0.019747,0.775693,-0.630683,-0.012207 ShoulderRight:-0.133054,0.791875,0.572850,-0.164542 SpineBase:-0.073200,0.004282,0.997241,-0.011599 SpineMid:-0.094465,0.004528,0.995451,-0.011505 SpineShoulder:-0.116292,0.008392,0.992774,-0.028394 ThumbLeft:0.000000,0.000000,0.000000,0.000000 ThumbRight:0.000000,0.000000,0.000000,0.000000 WristLeft:-0.099839,0.707653,-0.145443,0.684183 WristRight:0.030853,0.482630,-0.387140,0.785009 END:
KINECT_DATA POSITION:11.893548,0.292737,-17.750919 HEAD_JOINT1:0.988393,0.146252,-0.000000,0.041092 LARM_JOINT2:0.812205,0.000000,-0.000213,-0.583372 LARM_JOINT3:0.963243,0.000000,-0.211458,-0.165674 LLEG_JOINT2:0.998604,0.013865,0.000000,0.050974 LLEG_JOINT4:0.995397,0.095669,0.000000,-0.005600 RARM_JOINT2:0.723786,0.000000,0.480884,0.494858 RARM_JOINT3:0.968699,0.000000,0.194760,0.153920 RLEG_JOINT2:0.997044,0.051336,0.000000,-0.057159 RLEG_JOINT4:0.994382,0.078094,0.000000,0.071455 WAIST:0.996293,0.000000,0.085955,-0.003544 WAIST_JOINT0:0.990190,-0.000000,0.136584,0.029471 WAIST_JOINT1:0.999302,0.034179,-0.000000,0.015087 END:
KINECT_DATA_Sensor  AnkleLeft:0.068033,0.715831,-0.095551,-0.688351 AnkleRight:0.087342,0.723956,0.095805,0.677554 ElbowLeft:-0.036249,0.830647,-0.172618,-0.528124 ElbowRight:-0.341135,0.939022,-0.043161,0.001332 FootLeft:0.000000,0.000000,0.000000,0.000000 FootRight:0.000000,0.000000,0.000000,0.000000 HandLeft:-0.140291,0.693712,-0.102052,0.699048 HandRight:0.053677,0.624852,-0.439815,0.642839 HandTipLeft:0.000000,0.000000,0.000000,0.000000 HandTipRight:0.000000,0.000000,0.000000,0.000000 Head:0.000000,0.000000,0.000000,0.000000 HipLeft:0.100453,-0.687556,0.709656,-0.116462 HipRight:-0.204536,0.662127,0.690121,-0.208532 KneeLeft:0.019669,-0.643484,0.045445,0.763856 KneeRight:-0.012900,0.765133,0.078628,0.638923 Neck:-0.133656,0.012683,0.989662,-0.050443 ShoulderLeft:0.026603,0.775457,-0.630507,-0.020509 ShoulderRight:-0.149667,0.789297,0.566759,-0.182740 SpineBase:-0.085779,0.005421,0.996222,-0.012428 SpineMid:-0.109435,0.005715,0.993901,-0.012295 SpineShoulder:-0.133799,0.009464,0.990512,-0.029888 ThumbLeft:0.000000,0.000000,0.000000,0.000000 ThumbRight:0.000000,0.000000,0.000000,0.000000 WristLeft:-0.092338,0.706536,-0.152995,0.684743 WristRight:-0.000352,0.615531,-0.420570,0.666515 END:
KINECT_DATA POSITION:11.881170,0.402219,-17.723442 HEAD_JOINT1:0.988432,0.146287,-0.000000,0.040031 LARM_JOINT2:0.813111,0.000000,0.003058,-0.582101 LARM_JOINT3:0.961542,0.000000,-0.215934,-0.169734 LLEG_JOINT2:0.998463,0.013019,0.000000,0.053869 LLEG_JOINT4:0.995167,0.098152,0.000000,-0.002959 RARM_JOINT2:0.719427,0.000000,0.490031,0.492234 RARM_JOINT3:0.968470,0.000000,0.191578,0.159257 RLEG_JOINT2:0.997098,0.052491,0.000000,-0.055141 RLEG_JOINT4:0.994202,0.076974,0.000000,0.075085 WAIST:0.995846,0.000000,0.090791,-0.006922 WAIST_JOINT0:0.991168,-0.000000,0.129169,0.030033 WAIST_JOINT1:0.999246,0.033928,-0.000000,0.018903 END:
KINECT_DATA_Sensor  AnkleLeft:0.069726,0.717857,-0.097550,-0.685787 AnkleRight:0.088939,0.727112,0.095051,0.674065 ElbowLeft:-0.034093,0.826427,-0.175587,-0.533878 ElbowRight:-0.345749,0.936936,-0.050074,-0.010016 FootLeft:0.000000,0.000000,0.000000,0.000000 FootRight:0.000000,0.000000,0.000000,0.000000 HandLeft:-0.144621,0.687164,-0.105180,0.704150 HandRight:0.074048,0.632851,-0.425958,0.642322 HandTipLeft:0.000000,0.000000,0.000000,0.000000 HandTipRight:0.000000,0.000000,0.000000,0.000000 Head:0.000000,0.000000,0.000000,0.000000 HipLeft:0.096674,-0.690824,0.707431,-0.113834 HipRight:-0.207857,0.659887,0.690708,-0.210395 KneeLeft:0.019554,-0.639828,0.044849,0.766959 KneeRight:-0.013328,0.768203,0.080556,0.634979 Neck:-0.126598,0.012353,0.990580,-0.050712 ShoulderLeft:0.025818,0.776572,-0.629236,-0.018197 ShoulderRight:-0.140449,0.792870,0.566655,-0.174740 SpineBase:-0.090526,0.006031,0.995799,-0.012372 SpineMid:-0.108361,0.006252,0.994016,-0.012262 SpineShoulder:-0.126721,0.009394,0.991436,-0.030147 ThumbLeft:0.000000,0.000000,0.000000,0.000000 ThumbRight:0.000000,0.000000,0.000000,0.000000 WristLeft:-0.090854,0.701368,-0.156016,0.689556 WristRight:0.011914,0.613264,-0.427074,0.664359 END:
KINECT_DATA POSITION:11.866799,0.470014,-17.767942 HEAD_JOINT1:0.988069,0.148708,-0.000000,0.040078 LARM_JOINT2:0.812942,0.000000,0.000085,-0.582345 LARM_JOINT3:0.962536,0.000000,-0.209795,-0.171784 LLEG_JOINT2:0.998331,0.011044,0.000000,0.056679 LLEG_JOINT4:0.995102,0.098710,0.000000,-0.005393 RARM_JOINT2:0.715717,0.000000,0.497924,0.489715 RARM_JOINT3:0.971408,0.000000,0.178448,0.156596 RLEG_JOINT2:0.997115,0.053641,0.000000,-0.053712 RLEG_JOINT4:0.994412,0.073365,0.000000,0.075904 WAIST:0.995709,0.000000,0.092156,-0.008422 WAIST_JOINT0:0.991960,-0.000000,0.122832,0.030443 WAIST_JOINT1:0.999248,0.033188,-0.000000,0.020065 END:
KINECT_DATA_Sensor  AnkleLeft:0.068129,0.707769,-0.096739,-0.696464 AnkleRight:0.093592,0.768567,0.087253,0.626844 ElbowLeft:-0.036314,0.826188,-0.173922,-0.534645 ElbowRight:-0.351021,0.934619,-0.052074,-0.023656 FootLeft:0.000000,0.000000,0.000000,0.000000 FootRight:0.000000,0.000000,0.000000,0.000000 HandLeft:-0.154034,0.816657,-0.052624,0.553692 HandRight:0.067423,0.634964,-0.405264,0.654245 HandTipLeft:0.000000,0.000000,0.000000,0.000000 HandTipRight:0.000000,0.000000,0.000000,0.000000 Head:0.000000,0.000000,0.000000,0.000000 HipLeft:0.095296,-0.692800,0.705903,-0.112458 HipRight:-0.208544,0.659622,0.690778,-0.210319 KneeLeft:0.021744,-0.638733,0.044725,0.767820 KneeRight:-0.012637,0.769072,0.081572,0.633810 Neck:-0.120970,0.011459,0.991333,-0.049936 ShoulderLeft:0.031124,0.777262,-0.628036,-0.021596 ShoulderRight:-0.126398,0.797020,0.567404,-0.163815 SpineBase:-0.091865,0.006142,0.995681,-0.011923 SpineMid:-0.106266,0.006314,0.994247,-0.011833 SpineShoulder:-0.121071,0.008906,0.992159,-0.029699 ThumbLeft:0.000000,0.000000,0.000000,0.000000 ThumbRight:0.000000,0.000000,0.000000,0.000000 WristLeft:-0.122429,0.826085,-0.135841,0.533050 WristRight:0.014470,0.610998,-0.426464,0.666784 END:
KINECT_DATA POSITION:11.821545,0.538911,-18.013132 HEAD_JOINT1:0.988759,0.145072,-0.000000,0.036184 LARM_JOINT2:0.812146,0.000000,-0.004635,-0.583436 LARM_JOINT3:0.962821,0.000000,-0.211807,-0.167670 LLEG_JOINT2:0.998391,0.011026,0.000000,0.055620 LLEG_JOINT4:0.995697,0.092671,0.000000,-0.000260 RARM_JOINT2:0.718713,0.000000,0.486203,0.497050 RARM_JOINT3:0.973245,0.000000,0.181222,0.141255 RLEG_JOINT2:0.997183,0.052784,0.000000,-0.053283 RLEG_JOINT4:0.994380,0.072797,0.000000,0.076871 WAIST:0.995590,0.000000,0.093338,-0.009375 WAIST_JOINT0:0.990760,-0.000000,0.132398,0.029414 WAIST_JOINT1:0.999204,0.033806,-0.000000,0.021200 END:
KINECT_DATA_Sensor  AnkleLeft:0.062901,0.717468,-0.095121,-0.687193 AnkleRight:0.086527,0.722306,0.092537,0.679871 ElbowLeft:-0.037641,0.828841,-0.171882,-0.531096 ElbowRight:-0.340862,0.938546,-0.054057,-0.004662 FootLeft:0.000000,0.000000,0.000000,0.000000 FootRight:0.000000,0.000000,0.000000,0.000000 HandLeft:-0.146934,0.712199,-0.097189,0.679512 HandRight:0.043596,0.591045,-0.416121,0.689644 HandTipLeft:0.000000,0.000000,0.000000,0.000000 HandTipRight:0.000000,0.000000,0.000000,0.000000 Head:0.000000,0.000000,0.000000,0.000000 HipLeft:0.093551,-0.694007,0.704884,-0.112876 HipRight:-0.208790,0.659185,0.690731,-0.211594 KneeLeft:0.020349,-0.637913,0.043257,0.768624 KneeRight:-0.013618,0.769805,0.081306,0.632933 Neck:-0.130517,0.011869,0.990088,-0.050506 ShoulderLeft:0.032390,0.776584,-0.628718,-0.024124 ShoulderRight:-0.138322,0.793333,0.566308,-0.175460 SpineBase:-0.092985,0.006635,0.995559,-0.013105 SpineMid:-0.111526,0.006878,0.993653,-0.012979 SpineShoulder:-0.130626,0.009303,0.990922,-0.030381 ThumbLeft:0.000000,0.000000,0.000000,0.000000 ThumbRight:0.000000,0.000000,0.000000,0.000000 WristLeft:-0.097982,0.724568,-0.152948,0.664837 WristRight:0.027839,0.583611,-0.423195,0.692480 END:
KINECT_DATA POSITION:11.789538,0.557550,-18.191099 HEAD_JOINT1:0.989379,0.140962,-0.000000,0.035469 LARM_JOINT2:0.812141,0.000000,-0.008801,-0.583395 LARM_JOINT3:0.962049,0.000000,-0.213692,-0.169695 LLEG_JOINT2:0.998405,0.009260,0.000000,0.055702 LLEG_JOINT4:0.995449,0.095286,0.000000,-0.001168 RARM_JOINT2:0.721116,0.000000,0.484832,0.494903 RARM_JOINT3:0.973633,0.000000,0.182563,0.136782 RLEG_JOINT2:0.997224,0.051031,0.000000,-0.054229 RLEG_JOINT4:0.994102,0.075089,0.000000,0.078250 WAIST:0.995525,0.000000,0.094090,-0.008739 WAIST_JOINT0:0.990630,-0.000000,0.133393,0.029292 WAIST_JOINT1:0.999176,0.034816,-0.000000,0.020876 END:
KINECT_DATA_Sensor  AnkleLeft:-0.053413,-0.640679,0.101489,0.759195 AnkleRight:0.088308,0.727826,0.091685,0.673844 ElbowLeft:-0.039309,0.830443,-0.171383,-0.528628 ElbowRight:-0.340411,0.938753,-0.053480,0.001950 FootLeft:0.000000,0.000000,0.000000,0.000000 FootRight:0.000000,0.000000,0.000000,0.000000 HandLeft:-0.159970,0.706320,-0.100812,0.682172 HandRight:0.012730,0.627657,-0.421805,0.654190 HandTipLeft:0.000000,0.000000,0.000000,0.000000 HandTipRight:0.000000,0.000000,0.000000,0.000000 Head:0.000000,0.000000,0.000000,0.000000 HipLeft:0.092256,-0.693747,0.705263,-0.113171 HipRight:-0.208442,0.659476,0.690239,-0.212634 KneeLeft:0.022173,-0.637305,0.042665,0.769110 KneeRight:-0.015090,0.770273,0.080110,0.632482 Neck:-0.131691,0.012057,0.989881,-0.051452 ShoulderLeft:0.032531,0.776383,-0.628990,-0.023301 ShoulderRight:-0.139928,0.792758,0.565971,-0.177852 SpineBase:-0.093716,0.007016,0.995473,-0.014218 SpineMid:-0.112468,0.007283,0.993529,-0.014083 SpineShoulder:-0.131797,0.009564,0.990734,-0.031367 ThumbLeft:0.000000,0.000000,0.000000,0.000000 ThumbRight:0.000000,0.000000,0.000000,0.000000 WristLeft:-0.097914,0.721847,-0.153447,0.667686 WristRight:-0.002381,0.622097,-0.423468,0.658532 END:
KINECT_DATA POSITION:11.765764,0.551591,-18.213165 HEAD_JOINT1:0.989463,0.140406,-0.000000,0.035341 LARM_JOINT2:0.811486,0.000000,-0.011101,-0.584266 LARM_JOINT3:0.962986,0.000000,-0.209259,-0.169906 LLEG_JOINT2:0.998452,0.009243,0.000000,0.054838 LLEG_JOINT4:0.995561,0.094121,0.000000,-0.000714 RARM_JOINT2:0.721895,0.000000,0.484173,0.494412 RARM_JOINT3:0.974116,0.000000,0.176232,0.141564 RLEG_JOINT2:0.997301,0.050141,0.000000,-0.053627 RLEG_JOINT4:0.994160,0.076018,0.000000,0.076591 WAIST:0.995636,0.000000,0.092908,-0.008828 WAIST_JOINT0:0.990629,-0.000000,0.133445,0.029106 WAIST_JOINT1:0.999160,0.035202,-0.000000,0.020966 END:
KINECT_DATA_Sensor  AnkleLeft:0.062515,0.714802,-0.094623,-0.690070 AnkleRight:0.087566,0.727359,0.092276,0.674364 ElbowLeft:-0.039880,0.833166,-0.169894,-0.524767 ElbowRight:-0.340298,0.938913,-0.051348,0.001782 FootLeft:0.000000,0.000000,0.000000,0.000000 FootRight:0.000000,0.000000,0.000000,0.000000 HandLeft:-0.154756,0.710628,-0.089455,0.680482 HandRight:0.025851,0.626563,-0.402592,0.666837 HandTipLeft:0.000000,0.000000,0.000000,0.000000 HandTipRight:0.000000,0.000000,0.000000,0.000000 Head:0.000000,0.000000,0.000000,0.000000 HipLeft:0.092931,-0.693784,0.704971,-0.114209 HipRight:-0.207655,0.659648,0.690414,-0.212304 KneeLeft:0.021630,-0.638246,0.041891,0.768387 KneeRight:-0.015183,0.769508,0.079111,0.633536 Neck:-0.131808,0.012150,0.989839,-0.051936 ShoulderLeft:0.032452,0.776429,-0.628951,-0.022919 ShoulderRight:-0.140214,0.792583,0.565981,-0.178378 SpineBase:-0.092526,0.006925,0.995581,-0.014498 SpineMid:-0.111925,0.007207,0.993587,-0.014360 SpineShoulder:-0.131918,0.009628,0.990707,-0.031684 ThumbLeft:0.000000,0.000000,0.000000,0.000000 ThumbRight:0.000000,0.000000,0.000000,0.000000 WristLeft:-0.100260,0.725349,-0.151201,0.664044 WristRight:0.000709,0.612559,-0.421011,0.668970 END:
KINECT_DATA POSITION:11.710665,0.534516,-18.206549 HEAD_JOINT1:0.989173,0.142336,-0.000000,0.035751 LARM_JOINT2:0.810458,0.000000,-0.007629,-0.585747 LARM_JOINT3:0.961955,0.000000,-0.212699,-0.171469 LLEG_JOINT2:0.998523,0.008254,0.000000,0.053697 LLEG_JOINT4:0.995388,0.095918,0.000000,0.001554 RARM_JOINT2:0.721431,0.000000,0.483310,0.495932 RARM_JOINT3:0.974523,0.000000,0.178093,0.136335 RLEG_JOINT2:0.997273,0.049552,0.000000,-0.054697 RLEG_JOINT4:0.994214,0.074940,0.000000,0.076959 WAIST:0.995719,0.000000,0.092018,-0.008735 WAIST_JOINT0:0.990903,-0.000000,0.131468,0.028749 WAIST_JOINT1:0.999156,0.035520,-0.000000,0.020607 END:
KINECT_DATA_Sensor  AnkleLeft:0.061852,0.711138,-0.096508,-0.693645 AnkleRight:0.087178,0.734543,0.090249,0.666860 ElbowLeft:-0.036580,0.833093,-0.169140,-0.525366 ElbowRight:-0.338885,0.939430,-0.051208,0.002341 FootLeft:0.000000,0.000000,0.000000,0.000000 FootRight:0.000000,0.000000,0.000000,0.000000 HandLeft:-0.164055,0.721358,-0.090010,0.666804 HandRight:-0.013659,0.665639,-0.415463,0.619781 HandTipLeft:0.000000,0.000000,0.000000,0.000000 HandTipRight:0.000000,0.000000,0.000000,0.000000 Head:0.000000,0.000000,0.000000,0.000000 HipLeft:0.093711,-0.693660,0.704882,-0.114871 HipRight:-0.207105,0.659773,0.690489,-0.212208 KneeLeft:0.021771,-0.638937,0.040421,0.767888 KneeRight:-0.016255,0.768899,0.079289,0.634227 Neck:-0.129780,0.011805,0.990089,-0.052361 ShoulderLeft:0.029034,0.776763,-0.628821,-0.019494 ShoulderRight:-0.141296,0.792286,0.566125,-0.178384 SpineBase:-0.091642,0.006493,0.995664,-0.014594 SpineMid:-0.110480,0.006768,0.993750,-0.014469 SpineShoulder:-0.129892,0.009353,0.990970,-0.031929 ThumbLeft:0.000000,0.000000,0.000000,0.000000 ThumbRight:0.000000,0.000000,0.000000,0.000000 WristLeft:-0.104268,0.736879,-0.146866,0.651588 WristRight:-0.030592,0.659241,-0.417890,0.624366 END:
KINECT_DATA POSITION:11.618167,0.522015,-18.217850 HEAD_JOINT1:0.988806,0.144787,-0.000000,0.036035 LARM_JOINT2:0.810347,0.000000,-0.005268,-0.585927 LARM_JOINT3:0.962160,0.000000,-0.211901,-0.171309 LLEG_JOINT2:0.998435,0.008629,0.000000,0.055253 LLEG_JOINT4:0.995275,0.097093,0.000000,-0.000775 RARM_JOINT2:0.721029,0.000000,0.484228,0.495621 RARM_JOINT3:0.974631,0.000000,0.176089,0.138157 RLEG_JOINT2:0.997301,0.050311,0.000000,-0.053466 RLEG_JOINT4:0.994483,0.074814,0.000000,0.073523 WAIST:0.995926,0.000000,0.089817,-0.007960 WAIST_JOINT0:0.991091,-0.000000,0.129941,0.029224 WAIST_JOINT1:0.999156,0.035779,-0.000000,0.020179 END:
KINECT_DATA_Sensor  AnkleLeft:0.063138,0.714373,-0.097247,-0.690093 AnkleRight:0.091926,0.772133,0.086013,0.622866 ElbowLeft:-0.035182,0.833763,-0.169965,-0.524132 ElbowRight:-0.339565,0.939281,-0.049451,-0.001032 FootLeft:0.000000,0.000000,0.000000,0.000000 FootRight:0.000000,0.000000,0.000000,0.000000 HandLeft:-0.155975,0.706387,-0.091671,0.684314 HandRight:0.006519,0.644951,-0.416716,0.640580 HandTipLeft:0.000000,0.000000,0.000000,0.000000 HandTipRight:0.000000,0.000000,0.000000,0.000000 Head:0.000000,0.000000,0.000000,0.000000 HipLeft:0.094994,-0.693063,0.705100,-0.116078 HipRight:-0.205802,0.660719,0.690313,-0.211102 KneeLeft:0.023130,-0.640569,0.042344,0.766384 KneeRight:-0.014121,0.767556,0.078551,0.635994 Neck:-0.128603,0.012288,0.990227,-0.052537 ShoulderLeft:0.026255,0.776129,-0.629809,-0.016594 ShoulderRight:-0.142981,0.792512,0.565216,-0.178919 SpineBase:-0.089462,0.006705,0.995861,-0.014552 SpineMid:-0.108785,0.006986,0.993936,-0.014419 SpineShoulder:-0.128707,0.009793,0.991115,-0.032079 ThumbLeft:0.000000,0.000000,0.000000,0.000000 ThumbRight:0.000000,0.000000,0.000000,0.000000 WristLeft:-0.100543,0.720840,-0.148023,0.669604 WristRight:-0.018347,0.637124,-0.415747,0.648761 END:
KINECT_DATA POSITION:11.584670,0.503960,-18.199873 HEAD_JOINT1:0.988564,0.146368,-0.000000,0.036306 LARM_JOINT2:0.810494,0.000000,-0.008179,-0.585690 LARM_JOINT3:0.963819,0.000000,-0.205719,-0.169509 LLEG_JOINT2:0.998446,0.008737,0.000000,0.055046 LLEG_JOINT4:0.995183,0.098019,0.000000,-0.001923 RARM_JOINT2:0.720813,0.000000,0.484302,0.495863 RARM_JOINT3:0.974286,0.000000,0.176457,0.140103 RLEG_JOINT2:0.997303,0.049344,0.000000,-0.054333 RLEG_JOINT4:0.994058,0.076782,0.000000,0.077163 WAIST:0.996004,0.000000,0.088987,-0.007633 WAIST_JOINT0:0.990890,-0.000000,0.131324,0.029844 WAIST_JOINT1:0.999165,0.035601,-0.000000,0.020022 END:
KINECT_DATA_Sensor  AnkleLeft:0.064163,0.712753,-0.097182,-0.691680 AnkleRight:0.095099,0.772363,0.084431,0.622320 ElbowLeft:-0.036990,0.836962,-0.169534,-0.519022 ElbowRight:-0.339447,0.939233,-0.051029,0.003547 FootLeft:0.000000,0.000000,0.000000,0.000000 FootRight:0.000000,0.000000,0.000000,0.000000 HandLeft:-0.143650,0.715654,-0.084122,0.678327 HandRight:0.024384,0.631685,-0.413831,0.655075 HandTipLeft:0.000000,0.000000,0.000000,0.000000 HandTipRight:0.000000,0.000000,0.000000,0.000000 Head:0.000000,0.000000,0.000000,0.000000 HipLeft:0.095716,-0.692788,0.705176,-0.116660 HipRight:-0.205712,0.661113,0.690108,-0.210625 KneeLeft:0.023185,-0.641195,0.042461,0.765851 KneeRight:-0.015120,0.767035,0.078146,0.636650 Neck:-0.130018,0.012527,0.990054,-0.052264 ShoulderLeft:0.027403,0.775476,-0.630528,-0.017886 ShoulderRight:-0.143725,0.792495,0.564804,-0.179698 SpineBase:-0.088641,0.007105,0.995935,-0.014327 SpineMid:-0.109056,0.007398,0.993907,-0.014178 SpineShoulder:-0.130114,0.010101,0.990936,-0.031853 ThumbLeft:0.000000,0.000000,0.000000,0.000000 ThumbRight:0.000000,0.000000,0.000000,0.000000 WristLeft:-0.101564,0.727244,-0.145920,0.662954 WristRight:-0.009347,0.619492,-0.417399,0.664771 END:
KINECT_DATA POSITION:11.589185,0.496498,-18.233990 HEAD_JOINT1:0.988425,0.147303,-0.000000,0.036301 LARM_JOINT2:0.810622,0.000000,-0.007630,-0.585520 LARM_JOINT3:0.964065,0.000000,-0.207161,-0.166321 LLEG_JOINT2:0.998486,0.008816,0.000000,0.054296 LLEG_JOINT4:0.995385,0.095942,0.000000,-0.002190 RARM_JOINT2:0.720686,0.000000,0.484693,0.495665 RARM_JOINT3:0.974553,0.000000,0.177348,0.137095 RLEG_JOINT2:0.997347,0.048501,0.000000,-0.054292 RLEG_JOINT4:0.994019,0.079960,0.000000,0.074378 WAIST:0.996050,0.000000,0.088529,-0.006825 WAIST_JOINT0:0.990711,-0.000000,0.132673,0.029842 WAIST_JOINT1:0.999188,0.035436,-0.000000,0.019183 END:
KINECT_DATA_Sensor  AnkleLeft:0.062667,0.714427,-0.095791,-0.690283 AnkleRight:0.087558,0.717226,0.095012,0.684757 ElbowLeft:-0.037136,0.836520,-0.169724,-0.519662 ElbowRight:-0.340049,0.939052,-0.050444,0.002050 FootLeft:0.000000,0.000000,0.000000,0.000000 FootRight:0.000000,0.000000,0.000000,0.000000 HandLeft:-0.156127,0.849451,-0.060690,0.500373 HandRight:0.027025,0.616635,-0.422192,0.663916 HandTipLeft:0.000000,0.000000,0.000000,0.000000 HandTipRight:0.000000,0.000000,0.000000,0.000000 Head:0.000000,0.000000,0.000000,0.000000 HipLeft:0.096042,-0.692186,0.705686,-0.116884 HipRight:-0.205478,0.661628,0.689699,-0.210576 KneeLeft:0.023236,-0.641530,0.042494,0.765568 KneeRight:-0.015040,0.766763,0.076905,0.637129 Neck:-0.131149,0.012571,0.989924,-0.051894 ShoulderLeft:0.028032,0.775580,-0.630340,-0.019019 ShoulderRight:-0.144531,0.792190,0.564803,-0.180398 SpineBase:-0.088204,0.007231,0.995973,-0.014328 SpineMid:-0.109386,0.007534,0.993870,-0.014171 SpineShoulder:-0.131242,0.010154,0.990794,-0.031624 ThumbLeft:0.000000,0.000000,0.000000,0.000000 ThumbRight:0.000000,0.000000,0.000000,0.000000 WristLeft:-0.131063,0.855261,-0.120500,0.486653 WristRight:-0.003973,0.608482,-0.416378,0.675547 END:
KINECT_DATA POSITION:11.684614,0.697932,-18.206478 HEAD_JOINT1:0.988678,0.146276,-0.000000,0.033464 LARM_JOINT2:0.812759,0.000000,0.005531,-0.582574 LARM_JOINT3:0.961479,0.000000,-0.215502,-0.170640 LLEG_JOINT2:0.998298,0.008673,0.000000,0.057666 LLEG_JOINT4:0.995611,0.093294,0.000000,-0.007469 RARM_JOINT2:0.717469,0.000000,0.500550,0.484446 RARM_JOINT3:0.962013,0.000000,0.237453,0.134713 RLEG_JOINT2:0.997298,0.051025,0.000000,-0.052856 RLEG_JOINT4:0.994275,0.075072,0.000000,0.076040 WAIST:0.995400,0.000000,0.095446,-0.008350 WAIST_JOINT0:0.990249,-0.000000,0.136840,0.026106 WAIST_JOINT1:0.999162,0.034188,-0.000000,0.022488 END:
KINECT_DATA_Sensor  AnkleLeft:0.062327,0.704556,-0.091553,-0.700952 AnkleRight:0.086140,0.716787,0.093611,0.685590 ElbowLeft:-0.031995,0.822449,-0.178034,-0.539312 ElbowRight:-0.348776,0.932892,-0.078999,0.042754 FootLeft:0.000000,0.000000,0.000000,0.000000 FootRight:0.000000,0.000000,0.000000,0.000000 HandLeft:-0.132898,0.694939,-0.096420,0.700072 HandRight:0.074067,0.597652,-0.496769,0.624937 HandTipLeft:0.000000,0.000000,0.000000,0.000000 HandTipRight:0.000000,0.000000,0.000000,0.000000 Head:0.000000,0.000000,0.000000,0.000000 HipLeft:0.092447,-0.693368,0.705592,-0.113291 HipRight:-0.211419,0.659492,0.689154,-0.213167 KneeLeft:0.024084,-0.636170,0.044121,0.769910 KneeRight:-0.013859,0.771290,0.078941,0.631417 Neck:-0.135276,0.014610,0.989397,-0.050796 ShoulderLeft:0.023854,0.775808,-0.630257,-0.018160 ShoulderRight:-0.155188,0.786943,0.567101,-0.187174 SpineBase:-0.095076,0.009180,0.995338,-0.013361 SpineMid:-0.114879,0.009444,0.993247,-0.013176 SpineShoulder:-0.135381,0.011473,0.990247,-0.030852 ThumbLeft:0.000000,0.000000,0.000000,0.000000 ThumbRight:0.000000,0.000000,0.000000,0.000000 WristLeft:-0.092063,0.706470,-0.157476,0.683832 WristRight:0.023596,0.593826,-0.468253,0.653875 END:
KINECT_DATA POSITION:11.739065,1.246684,-18.185806 HEAD_JOINT1:0.989102,0.143765,-0.000000,0.031752 LARM_JOINT2:0.811349,0.000000,0.015149,-0.584365 LARM_JOINT3:0.959702,0.000000,-0.222627,-0.171493 LLEG_JOINT2:0.998340,0.008034,0.000000,0.057037 LLEG_JOINT4:0.995291,0.096601,0.000000,-0.007990 RARM_JOINT2:0.705711,0.000000,0.536686,0.462536 RARM_JOINT3:0.958118,0.000000,0.260921,0.118024 RLEG_JOINT2:0.997317,0.050673,0.000000,-0.052833 RLEG_JOINT4:0.994213,0.076173,0.000000,0.075757 WAIST:0.994919,0.000000,0.100451,-0.006817 WAIST_JOINT0:0.988573,-0.000000,0.149786,0.016964 WAIST_JOINT1:0.999184,0.034065,-0.000000,0.021701 END:
KINECT_DATA_Sensor  AnkleLeft:0.066646,0.715185,-0.091566,-0.689698 AnkleRight:0.095446,0.780713,0.085306,0.611637 ElbowLeft:-0.027094,0.808074,-0.179080,-0.560547 ElbowRight:-0.368294,0.921154,-0.112381,0.056607 FootLeft:0.000000,0.000000,0.000000,0.000000 FootRight:0.000000,0.000000,0.000000,0.000000 HandLeft:-0.124768,0.651956,-0.095696,0.741774 HandRight:0.104498,0.579478,-0.528920,0.611170 HandTipLeft:0.000000,0.000000,0.000000,0.000000 HandTipRight:0.000000,0.000000,0.000000,0.000000 Head:0.000000,0.000000,0.000000,0.000000 HipLeft:0.088788,-0.693866,0.706247,-0.109000 HipRight:-0.213339,0.660796,0.686798,-0.214810 KneeLeft:0.025014,-0.632208,0.044462,0.773117 KneeRight:-0.013362,0.774539,0.077526,0.627615 Neck:-0.148155,0.015349,0.987554,-0.050507 ShoulderLeft:0.025272,0.775684,-0.630190,-0.023139 ShoulderRight:-0.172265,0.773235,0.575981,-0.201688 SpineBase:-0.100130,0.009724,0.994846,-0.012667 SpineMid:-0.123769,0.010023,0.992183,-0.012433 SpineShoulder:-0.148251,0.012364,0.988398,-0.030622 ThumbLeft:0.000000,0.000000,0.000000,0.000000 ThumbRight:0.000000,0.000000,0.000000,0.000000 WristLeft:-0.079942,0.654677,-0.170977,0.731966 WristRight:0.041652,0.568275,-0.506717,0.646967 END:
KINECT_DATA POSITION:11.793676,1.560479,-18.275475 HEAD_JOINT1:0.989797,0.139656,-0.000000,0.028248 LARM_JOINT2:0.812937,0.000000,0.007163,-0.582308 LARM_JOINT3:0.960248,0.000000,-0.217323,-0.175198 LLEG_JOINT2:0.998448,0.006675,0.000000,0.055289 LLEG_JOINT4:0.995155,0.097844,0.000000,-0.009656 RARM_JOINT2:0.704850,0.000000,0.547254,0.451331 RARM_JOINT3:0.954231,0.000000,0.278113,0.109983 RLEG_JOINT2:0.997353,0.050062,0.000000,-0.052728 RLEG_JOINT4:0.994112,0.075311,0.000000,0.077909 WAIST:0.994686,0.000000,0.102767,-0.006212 WAIST_JOINT0:0.987615,-0.000000,0.156569,0.010133 WAIST_JOINT1:0.999169,0.034485,-0.000000,0.021749 END:
KINECT_DATA_Sensor  AnkleLeft:-0.066111,-0.697238,0.090524,0.708021 AnkleRight:0.096623,0.783755,0.082288,0.607964 ElbowLeft:-0.029880,0.818284,-0.180386,-0.544959 ElbowRight:-0.373540,0.915330,-0.127698,0.079573 FootLeft:0.000000,0.000000,0.000000,0.000000 FootRight:0.000000,0.000000,0.000000,0.000000 HandLeft:-0.138694,0.687169,-0.094499,0.706847 HandRight:-0.169214,-0.508761,0.518394,-0.666180 HandTipLeft:0.000000,0.000000,0.000000,0.000000 HandTipRight:0.000000,0.000000,0.000000,0.000000 Head:0.000000,0.000000,0.000000,0.000000 HipLeft:0.086458,-0.694053,0.706583,-0.107503 HipRight:-0.213941,0.661184,0.685891,-0.215910 KneeLeft:0.025280,-0.630416,0.042744,0.774667 KneeRight:-0.013418,0.776032,0.076539,0.625888 Neck:-0.154884,0.015906,0.986491,-0.050918 ShoulderLeft:0.027364,0.776796,-0.628579,-0.026963 ShoulderRight:-0.179585,0.764817,0.582488,-0.208592 SpineBase:-0.102441,0.010285,0.994600,-0.013084 SpineMid:-0.128243,0.010622,0.991603,-0.012812 SpineShoulder:-0.154967,0.013118,0.987347,-0.030982 ThumbLeft:0.000000,0.000000,0.000000,0.000000 ThumbRight:0.000000,0.000000,0.000000,0.000000 WristLeft:-0.089339,0.702206,-0.159807,0.688031 WristRight:-0.111009,-0.480061,0.524659,-0.694227 END:
KINECT_DATA POSITION:11.850589,1.672903,-18.441559 HEAD_JOINT1:0.990337,0.136284,-0.000000,0.025681 LARM_JOINT2:0.804870,0.000000,-0.037179,-0.592286 LARM_JOINT3:0.975082,0.000000,-0.168170,-0.144685 LLEG_JOINT2:0.998565,0.004482,0.000000,0.053367 LLEG_JOINT4:0.994797,0.101457,0.000000,-0.009214 RARM_JOINT2:0.709414,0.000000,0.563781,0.422944 RARM_JOINT3:0.953087,0.000000,0.288802,0.090656 RLEG_JOINT2:0.997429,0.048084,0.000000,-0.053128 RLEG_JOINT4:0.994044,0.078584,0.000000,0.075511 WAIST:0.994650,0.000000,0.103160,-0.005347 WAIST_JOINT0:0.986311,-0.000000,0.164869,0.002968 WAIST_JOINT1:0.999149,0.035280,-0.000000,0.021351 END:
KINECT_DATA_Sensor  AnkleLeft:0.068344,0.702484,-0.090160,-0.702650 AnkleRight:0.087724,0.724579,0.093005,0.677229 ElbowLeft:-0.050620,0.844554,-0.157437,-0.509294 ElbowRight:-0.392208,0.904581,-0.135308,0.097972 FootLeft:0.000000,0.000000,0.000000,0.000000 FootRight:0.000000,0.000000,0.000000,0.000000 HandLeft:-0.140667,0.729074,-0.083784,0.664564 HandRight:-0.125709,-0.527795,0.543639,-0.640380 HandTipLeft:0.000000,0.000000,0.000000,0.000000 HandTipRight:0.000000,0.000000,0.000000,0.000000 Head:0.000000,0.000000,0.000000,0.000000 HipLeft:0.084482,-0.693714,0.707217,-0.107083 HipRight:-0.212604,0.661844,0.685608,-0.216111 KneeLeft:0.026365,-0.630119,0.040491,0.774994 KneeRight:-0.014418,0.776272,0.074643,0.625798 Neck:-0.163566,0.016563,0.985049,-0.051489 ShoulderLeft:0.034632,0.771744,-0.634207,-0.031506 ShoulderRight:-0.185938,0.749123,0.597980,-0.216012 SpineBase:-0.102823,0.010668,0.994541,-0.014208 SpineMid:-0.132744,0.011091,0.990991,-0.013880 SpineShoulder:-0.163644,0.013856,0.985915,-0.031616 ThumbLeft:0.000000,0.000000,0.000000,0.000000 ThumbRight:0.000000,0.000000,0.000000,0.000000 WristLeft:-0.068892,0.744037,-0.139083,0.649861 WristRight:-0.078158,-0.499315,0.554413,-0.661213 END:
KINECT_DATA POSITION:11.869293,1.779504,-18.577242 HEAD_JOINT1:0.990525,0.135218,-0.000000,0.024014 LARM_JOINT2:0.796656,0.000000,-0.054485,-0.601972 LARM_JOINT3:0.980964,0.000000,-0.151046,-0.122042 LLEG_JOINT2:0.998543,0.002397,0.000000,0.053914 LLEG_JOINT4:0.994508,0.104091,0.000000,-0.010911 RARM_JOINT2:0.712344,0.000000,0.572797,0.405548 RARM_JOINT3:0.951972,0.000000,0.294937,0.082234 RLEG_JOINT2:0.997565,0.045684,0.000000,-0.052691 RLEG_JOINT4:0.994100,0.079473,0.000000,0.073825 WAIST:0.994759,0.000000,0.102063,-0.006148 WAIST_JOINT0:0.984347,0.000000,0.176198,-0.003807 WAIST_JOINT1:0.999122,0.035674,-0.000000,0.021978 END:
KINECT_DATA_Sensor  AnkleLeft:-0.068512,-0.692678,0.089966,0.712327 AnkleRight:0.094841,0.792752,0.083235,0.596340 ElbowLeft:-0.060751,0.838518,-0.139171,-0.523287 ElbowRight:-0.405877,0.899366,-0.132069,0.094669 FootLeft:0.000000,0.000000,0.000000,0.000000 FootRight:0.000000,0.000000,0.000000,0.000000 HandLeft:-0.129862,0.718696,-0.078009,0.678621 HandRight:0.416587,0.076322,-0.394938,0.815263 HandTipLeft:0.000000,0.000000,0.000000,0.000000 HandTipRight:0.000000,0.000000,0.000000,0.000000 Head:0.000000,0.000000,0.000000,0.000000 HipLeft:0.085075,-0.694235,0.706454,-0.108271 HipRight:-0.211822,0.661548,0.686218,-0.215851 KneeLeft:0.027810,-0.630974,0.039001,0.774324 KneeRight:-0.016103,0.775505,0.073086,0.626890 Neck:-0.174664,0.017089,0.983108,-0.051951 ShoulderLeft:0.046614,0.769221,-0.635861,-0.042498 ShoulderRight:-0.189570,0.736551,0.610227,-0.221763 SpineBase:-0.101697,0.010377,0.994654,-0.014640 SpineMid:-0.137694,0.010901,0.990312,-0.014254 SpineShoulder:-0.174769,0.014096,0.983994,-0.031823 ThumbLeft:0.000000,0.000000,0.000000,0.000000 ThumbRight:0.000000,0.000000,0.000000,0.000000 WristLeft:-0.058047,0.734023,-0.142529,0.661458 WristRight:0.374323,0.044084,-0.424592,0.823201 END:
KINECT_DATA POSITION:11.892068,1.887272,-18.708420 HEAD_JOINT1:0.990479,0.135810,-0.000000,0.022502 LARM_JOINT2:0.796876,0.000000,-0.026085,-0.603580 LARM_JOINT3:0.976163,0.000000,-0.170666,-0.134083 LLEG_JOINT2:0.998535,0.001347,0.000000,0.054086 LLEG_JOINT4:0.994592,0.103474,0.000000,-0.008948 RARM_JOINT2:0.717557,0.000000,0.581664,0.383117 RARM_JOINT3:0.954415,0.000000,0.290609,0.068101 RLEG_JOINT2:0.997678,0.043352,0.000000,-0.052534 RLEG_JOINT4:0.993808,0.083136,0.000000,0.073711 WAIST:0.994781,0.000000,0.101778,-0.007271 WAIST_JOINT0:0.986242,0.000000,0.164737,-0.013755 WAIST_JOINT1:0.999117,0.035367,-0.000000,0.022669 END:
KINECT_DATA_Sensor  AnkleLeft:0.068046,0.704242,-0.088914,-0.701076 AnkleRight:0.094429,0.788030,0.085656,0.602292 ElbowLeft:-0.042541,0.827442,-0.146147,-0.540528 ElbowRight:-0.423780,0.892561,-0.125587,0.089296 FootLeft:0.000000,0.000000,0.000000,0.000000 FootRight:0.000000,0.000000,0.000000,0.000000 HandLeft:-0.148607,0.836600,-0.048572,0.525030 HandRight:-0.096715,-0.512726,0.577184,-0.628185 HandTipLeft:0.000000,0.000000,0.000000,0.000000 HandTipRight:0.000000,0.000000,0.000000,0.000000 Head:0.000000,0.000000,0.000000,0.000000 HipLeft:0.084673,-0.695237,0.705629,-0.107533 HipRight:-0.211144,0.661209,0.687030,-0.214966 KneeLeft:0.027954,-0.631215,0.037669,0.774188 KneeRight:-0.018243,0.775235,0.071979,0.627294 Neck:-0.164048,0.016243,0.984940,-0.052126 ShoulderLeft:0.030251,0.772821,-0.633259,-0.028556 ShoulderRight:-0.193097,0.728383,0.619555,-0.219825 SpineBase:-0.101394,0.009857,0.994693,-0.014407 SpineMid:-0.132287,0.010300,0.991058,-0.014093 SpineShoulder:-0.164152,0.013322,0.985836,-0.031688 ThumbLeft:0.000000,0.000000,0.000000,0.000000 ThumbRight:0.000000,0.000000,0.000000,0.000000 WristLeft:-0.091745,0.848461,-0.123011,0.506522 WristRight:-0.057492,-0.497396,0.566651,-0.654368 END:
KINECT_DATA POSITION:11.906921,1.965881,-18.843842 HEAD_JOINT1:0.990042,0.138954,-0.000000,0.022533 LARM_JOINT2:0.798439,0.000000,-0.016725,-0.601843 LARM_JOINT3:0.971744,0.000000,-0.186912,-0.144146 LLEG_JOINT2:0.998664,-0.000669,0.000000,0.051664 LLEG_JOINT4:0.994430,0.105146,0.000000,-0.007305 RARM_JOINT2:0.722837,0.000000,0.589139,0.361141 RARM_JOINT3:0.958203,0.000000,0.280654,0.055505 RLEG_JOINT2:0.997665,0.044136,0.000000,-0.052118 RLEG_JOINT4:0.994030,0.081404,0.000000,0.072650 WAIST:0.994531,0.000000,0.104256,-0.006225 WAIST_JOINT0:0.986576,0.000000,0.162978,-0.010265 WAIST_JOINT1:0.999148,0.035069,-0.000000,0.021760 END:
KINECT_DATA_Sensor  AnkleLeft:0.067999,0.704322,-0.088564,-0.701044 AnkleRight:0.085294,0.728877,0.093445,0.672853 ElbowLeft:-0.036051,0.827389,-0.151488,-0.539610 ElbowRight:-0.439525,0.885003,-0.124360,0.090124 FootLeft:0.000000,0.000000,0.000000,0.000000 FootRight:0.000000,0.000000,0.000000,0.000000 HandLeft:-0.156456,0.732320,-0.094730,0.655938 HandRight:-0.020702,-0.563909,0.586999,-0.580525 HandTipLeft:0.000000,0.000000,0.000000,0.000000 HandTipRight:0.000000,0.000000,0.000000,0.000000 Head:0.000000,0.000000,0.000000,0.000000 HipLeft:0.082142,-0.695018,0.706572,-0.104681 HipRight:-0.211594,0.661750,0.686176,-0.215584 KneeLeft:0.028631,-0.629260,0.035337,0.775863 KneeRight:-0.016857,0.776858,0.071551,0.625370 Neck:-0.161818,0.016086,0.985325,-0.051864 ShoulderLeft:0.029543,0.772223,-0.634074,-0.027372 ShoulderRight:-0.190476,0.732335,0.616533,-0.217467 SpineBase:-0.103904,0.009928,0.994436,-0.014255 SpineMid:-0.132463,0.010334,0.991036,-0.013964 SpineShoulder:-0.161916,0.013218,0.986216,-0.031405 ThumbLeft:0.000000,0.000000,0.000000,0.000000 ThumbRight:0.000000,0.000000,0.000000,0.000000 WristLeft:-0.077661,0.748244,-0.135997,0.644674 WristRight:0.013110,-0.551860,0.574029,-0.604789 END:
KINECT_DATA POSITION:11.937942,1.949831,-18.949556 HEAD_JOINT1:0.992177,0.121108,-0.000000,0.030284 LARM_JOINT2:0.805497,0.000000,-0.032735,-0.591695 LARM_JOINT3:0.968957,0.000000,-0.192067,-0.155667 LLEG_JOINT2:0.998839,-0.002114,0.000000,0.048128 LLEG_JOINT4:0.994400,0.105496,0.000000,-0.006328 RARM_JOINT2:0.736240,0.000000,0.596462,0.319663 RARM_JOINT3:0.959896,0.000000,0.277985,0.036393 RLEG_JOINT2:0.997440,0.044595,0.000000,-0.055902 RLEG_JOINT4:0.993827,0.081090,0.000000,0.075719 WAIST:0.994358,0.000000,0.106020,-0.003432 WAIST_JOINT0:0.984477,0.000000,0.175510,-0.000847 WAIST_JOINT1:0.998933,0.041795,-0.000000,0.019645 END:
KINECT_DATA_Sensor  AnkleLeft:0.067042,0.704454,-0.087772,-0.701103 AnkleRight:0.095325,0.792209,0.083349,0.596969 ElbowLeft:-0.041439,0.842740,-0.161939,-0.511711 ElbowRight:-0.464166,0.874792,-0.108665,0.086497 FootLeft:0.000000,0.000000,0.000000,0.000000 FootRight:0.000000,0.000000,0.000000,0.000000 HandLeft:-0.148614,0.708690,-0.107510,0.681259 HandRight:-0.048028,-0.475993,0.603816,-0.637597 HandTipLeft:0.000000,0.000000,0.000000,0.000000 HandTipRight:0.000000,0.000000,0.000000,0.000000 Head:0.000000,0.000000,0.000000,0.000000 HipLeft:0.078673,-0.693036,0.708908,-0.104698 HipRight:-0.209768,0.662587,0.685037,-0.218402 KneeLeft:0.029437,-0.627892,0.033710,0.777013 KneeRight:-0.017661,0.777952,0.072293,0.623901 Neck:-0.173320,0.017335,0.982945,-0.058977 ShoulderLeft:0.060115,0.770470,-0.632889,-0.047045 ShoulderRight:-0.172092,0.742650,0.609647,-0.217221 SpineBase:-0.105680,0.009832,0.994201,-0.017328 SpineMid:-0.139150,0.010411,0.990071,-0.016986 SpineShoulder:-0.173511,0.013759,0.984022,-0.037500 ThumbLeft:0.000000,0.000000,0.000000,0.000000 ThumbRight:0.000000,0.000000,0.000000,0.000000 WristLeft:-0.084513,0.721615,-0.140611,0.672576 WristRight:-0.030763,-0.477217,0.580152,-0.659349 END:
KINECT_DATA POSITION:11.908820,1.858316,-19.033623 HEAD_JOINT1:0.992745,0.115323,-0.000000,0.034026 LARM_JOINT2:0.806842,0.000000,-0.013875,-0.590604 LARM_JOINT3:0.962612,0.000000,-0.213739,-0.166413 LLEG_JOINT2:0.998888,-0.003907,0.000000,0.046977 LLEG_JOINT4:0.994324,0.106239,0.000000,-0.005717 RARM_JOINT2:0.743414,0.000000,0.597677,0.300196 RARM_JOINT3:0.961161,0.000000,0.275178,0.021148 RLEG_JOINT2:0.997458,0.044531,0.000000,-0.055630 RLEG_JOINT4:0.993868,0.080251,0.000000,0.076070 WAIST:0.994033,0.000000,0.109048,-0.002777 WAIST_JOINT0:0.986520,0.000000,0.163638,-0.001337 WAIST_JOINT1:0.998866,0.043246,-0.000000,0.019916 END:
KINECT_DATA_Sensor  AnkleLeft:-0.065485,-0.695662,0.087703,0.709982 AnkleRight:0.085581,0.722437,0.092279,0.679886 ElbowLeft:-0.028877,0.832233,-0.170089,-0.526900 ElbowRight:-0.473309,0.866456,-0.115428,0.109129 FootLeft:0.000000,0.000000,0.000000,0.000000 FootRight:0.000000,0.000000,0.000000,0.000000 HandLeft:-0.164508,0.715764,-0.122081,0.667620 HandRight:0.068615,-0.565902,0.597557,-0.563891 HandTipLeft:0.000000,0.000000,0.000000,0.000000 HandTipRight:0.000000,0.000000,0.000000,0.000000 Head:0.000000,0.000000,0.000000,0.000000 HipLeft:0.074313,-0.693203,0.709562,-0.102317 HipRight:-0.209240,0.662745,0.684540,-0.219984 KneeLeft:0.030469,-0.625528,0.032250,0.778939 KneeRight:-0.017249,0.779859,0.071561,0.621611 Neck:-0.162190,0.017109,0.984742,-0.060701 ShoulderLeft:0.048006,0.773409,-0.631191,-0.033654 ShoulderRight:-0.169576,0.746343,0.607049,-0.213794 SpineBase:-0.108696,0.009890,0.993848,-0.018811 SpineMid:-0.135161,0.010388,0.990596,-0.018540 SpineShoulder:-0.162345,0.013962,0.985857,-0.039173 ThumbLeft:0.000000,0.000000,0.000000,0.000000 ThumbRight:0.000000,0.000000,0.000000,0.000000 WristLeft:-0.092541,0.730106,-0.140747,0.662248 WristRight:0.075478,-0.564131,0.592353,-0.570243 END:
KINECT_DATA POSITION:11.862450,1.721092,-19.079483 HEAD_JOINT1:0.991828,0.124250,-0.000000,0.028963 LARM_JOINT2:0.804382,0.000000,-0.031713,-0.593265 LARM_JOINT3:0.966993,0.000000,-0.196344,-0.162398 LLEG_JOINT2:0.998984,-0.004909,0.000000,0.044802 LLEG_JOINT4:0.994398,0.105621,0.000000,-0.004012 RARM_JOINT2:0.757957,0.000000,0.584470,0.289648 RARM_JOINT3:0.962681,0.000000,0.270531,0.007576 RLEG_JOINT2:0.997260,0.046508,0.000000,-0.057533 RLEG_JOINT4:0.993988,0.077791,0.000000,0.077052 WAIST:0.993658,0.000000,0.112440,-0.000871 WAIST_JOINT0:0.985172,-0.000000,0.171563,0.001667 WAIST_JOINT1:0.999028,0.038977,-0.000000,0.020610 END:
KINECT_DATA_Sensor  AnkleLeft:-0.064479,-0.701412,0.086974,0.704485 AnkleRight:0.085965,0.727115,0.091179,0.674981 ElbowLeft:-0.042045,0.841767,-0.163273,-0.512838 ElbowRight:-0.481902,0.860325,-0.107443,0.126756 FootLeft:0.000000,0.000000,0.000000,0.000000 FootRight:0.000000,0.000000,0.000000,0.000000 HandLeft:-0.165464,0.720490,-0.109944,0.664400 HandRight:0.105467,-0.525148,0.602939,-0.591236 HandTipLeft:0.000000,0.000000,0.000000,0.000000 HandTipRight:0.000000,0.000000,0.000000,0.000000 Head:0.000000,0.000000,0.000000,0.000000 HipLeft:0.072643,-0.692119,0.711181,-0.099576 HipRight:-0.211903,0.663589,0.682634,-0.220811 KneeLeft:0.031128,-0.622821,0.031379,0.781115 KneeRight:-0.016375,0.782123,0.072898,0.618629 Neck:-0.171390,0.020302,0.983439,-0.055319 ShoulderLeft:0.060061,0.759271,-0.646515,-0.043804 ShoulderRight:-0.172501,0.736041,0.618730,-0.213683 SpineBase:-0.112149,0.011434,0.993469,-0.017659 SpineMid:-0.141496,0.011952,0.989715,-0.017313 SpineShoulder:-0.171490,0.016798,0.984416,-0.035142 ThumbLeft:0.000000,0.000000,0.000000,0.000000 ThumbRight:0.000000,0.000000,0.000000,0.000000 WristLeft:-0.090987,0.736012,-0.140932,0.655855 WristRight:0.082141,-0.542615,0.597244,-0.584912 END:
KINECT_DATA POSITION:11.735642,1.432437,-19.045353 HEAD_JOINT1:0.991139,0.130786,-0.000000,0.023203 LARM_JOINT2:0.806184,0.000000,-0.009394,-0.591590 LARM_JOINT3:0.963476,0.000000,-0.203554,-0.174010 LLEG_JOINT2:0.998910,-0.004881,0.000000,0.046416 LLEG_JOINT4:0.994259,0.106943,0.000000,-0.003619 RARM_JOINT2:0.773135,0.000000,0.591581,0.228678 RARM_JOINT3:0.968352,0.000000,0.244750,0.048908 RLEG_JOINT2:0.997416,0.046031,0.000000,-0.055159 RLEG_JOINT4:0.993849,0.078965,0.000000,0.077641 WAIST:0.993775,0.000000,0.111393,-0.001750 WAIST_JOINT0:0.986995,0.000000,0.160712,-0.003568 WAIST_JOINT1:0.999091,0.036548,-0.000000,0.021945 END:
KINECT_DATA_Sensor  AnkleLeft:0.065615,0.706669,-0.088316,-0.698937 AnkleRight:0.086690,0.714748,0.092025,0.687860 ElbowLeft:-0.030791,0.833897,-0.171160,-0.523804 ElbowRight:-0.533742,0.843864,-0.037621,0.039977 FootLeft:0.000000,0.000000,0.000000,0.000000 FootRight:0.000000,0.000000,0.000000,0.000000 HandLeft:-0.147916,0.666945,-0.106573,0.722459 HandRight:-0.120228,0.590770,-0.584209,0.543356 HandTipLeft:0.000000,0.000000,0.000000,0.000000 HandTipRight:0.000000,0.000000,0.000000,0.000000 Head:0.000000,0.000000,0.000000,0.000000 HipLeft:0.073649,-0.692987,0.710301,-0.099083 HipRight:-0.212645,0.663971,0.682804,-0.218411 KneeLeft:0.031525,-0.623638,0.032004,0.780421 KneeRight:-0.015363,0.781548,0.071677,0.619523 Neck:-0.161577,0.020307,0.985219,-0.053150 ShoulderLeft:0.038835,0.763100,-0.644486,-0.028427 ShoulderRight:-0.181950,0.733504,0.618998,-0.213791 SpineBase:-0.111085,0.012793,0.993602,-0.015880 SpineMid:-0.136010,0.013188,0.990498,-0.015554 SpineShoulder:-0.161621,0.017176,0.986152,-0.032985 ThumbLeft:0.000000,0.000000,0.000000,0.000000 ThumbRight:0.000000,0.000000,0.000000,0.000000 WristLeft:-0.081458,0.673173,-0.148878,0.719748 WristRight:-0.150392,0.583950,-0.559649,0.568486 END:
KINECT_DATA POSITION:11.634323,1.241881,-18.968224 HEAD_JOINT1:0.992945,0.111522,-0.000000,0.040289 LARM_JOINT2:0.809284,0.000000,-0.019069,-0.587108 LARM_JOINT3:0.962603,0.000000,-0.209921,-0.171258 LLEG_JOINT2:0.998739,-0.004176,0.000000,0.050023 LLEG_JOINT4:0.994069,0.108633,0.000000,-0.005131 RARM_JOINT2:0.776801,0.000000,0.587442,0.226920 RARM_JOINT3:0.969986,0.000000,0.240795,0.033840 RLEG_JOINT2:0.997682,0.044785,0.000000,-0.051242 RLEG_JOINT4:0.993973,0.080130,0.000000,0.074811 WAIST:0.994370,0.000000,0.105858,-0.004755 WAIST_JOINT0:0.986647,0.000000,0.162784,-0.005455 WAIST_JOINT1:0.998827,0.043239,-0.000000,0.021812 END:
KINECT_DATA_Sensor  AnkleLeft:0.067221,0.705127,-0.089840,-0.700147 AnkleRight:0.086713,0.717986,0.091911,0.684492 ElbowLeft:-0.033671,0.836777,-0.172519,-0.518564 ElbowRight:-0.529408,0.846396,-0.028708,0.050175 FootLeft:0.000000,0.000000,0.000000,0.000000 FootRight:0.000000,0.000000,0.000000,0.000000 HandLeft:-0.164502,0.740588,-0.097542,0.644169 HandRight:0.175428,-0.577235,0.600203,-0.525148 HandTipLeft:0.000000,0.000000,0.000000,0.000000 HandTipRight:0.000000,0.000000,0.000000,0.000000 Head:0.000000,0.000000,0.000000,0.000000 HipLeft:0.075085,-0.694492,0.707916,-0.104388 HipRight:-0.207570,0.662476,0.686119,-0.217440 KneeLeft:0.031300,-0.628092,0.032953,0.776811 KneeRight:-0.014852,0.777894,0.070439,0.624258 Neck:-0.162213,0.016603,0.984751,-0.060643 ShoulderLeft:0.054269,0.770818,-0.633643,-0.037307 ShoulderRight:-0.163541,0.740387,0.617250,-0.209961 SpineBase:-0.105404,0.011069,0.994185,-0.019080 SpineMid:-0.133483,0.011604,0.990806,-0.018759 SpineShoulder:-0.162300,0.014400,0.985853,-0.039313 ThumbLeft:0.000000,0.000000,0.000000,0.000000 ThumbRight:0.000000,0.000000,0.000000,0.000000 WristLeft:-0.101559,0.754601,-0.139190,0.633158 WristRight:-0.185014,0.601896,-0.541985,0.556546 END:
KINECT_DATA POSITION:11.544589,1.124664,-18.959415 HEAD_JOINT1:0.991052,0.129444,-0.000000,0.032553 LARM_JOINT2:0.808933,0.000000,-0.014566,-0.587720 LARM_JOINT3:0.962061,0.000000,-0.208479,-0.175999 LLEG_JOINT2:0.998654,-0.004251,0.000000,0.051693 LLEG_JOINT4:0.993931,0.109901,0.000000,-0.004717 RARM_JOINT2:0.779041,0.000000,0.576343,0.246829 RARM_JOINT3:0.968389,0.000000,0.248073,0.026118 RLEG_JOINT2:0.997805,0.043456,0.000000,-0.049958 RLEG_JOINT4:0.993825,0.082834,0.000000,0.073832 WAIST:0.994619,0.000000,0.103436,-0.005761 WAIST_JOINT0:0.986401,0.000000,0.164285,-0.004783 WAIST_JOINT1:0.999048,0.036470,-0.000000,0.023927 END:
KINECT_DATA_Sensor  AnkleLeft:-0.066362,-0.697864,0.092430,0.707134 AnkleRight:0.087693,0.719678,0.092842,0.682462 ElbowLeft:-0.036256,0.839665,-0.172105,-0.513836 ElbowRight:-0.515015,0.841760,-0.077332,0.142198 FootLeft:0.000000,0.000000,0.000000,0.000000 FootRight:0.000000,0.000000,0.000000,0.000000 HandLeft:-0.176117,0.771851,-0.087101,0.604684 HandRight:-0.111866,0.587053,-0.567072,0.566820 HandTipLeft:0.000000,0.000000,0.000000,0.000000 HandTipRight:0.000000,0.000000,0.000000,0.000000 Head:0.000000,0.000000,0.000000,0.000000 HipLeft:0.077763,-0.694902,0.707235,-0.104318 HipRight:-0.208265,0.662613,0.686827,-0.214099 KneeLeft:0.031789,-0.629936,0.033407,0.775277 KneeRight:-0.015243,0.776415,0.069337,0.626211 Neck:-0.164282,0.018585,0.984832,-0.052656 ShoulderLeft:0.043031,0.768469,-0.637455,-0.035423 ShoulderRight:-0.179152,0.737926,0.614778,-0.213116 SpineBase:-0.103000,0.012034,0.994471,-0.016558 SpineMid:-0.133235,0.012533,0.990873,-0.016184 SpineShoulder:-0.164321,0.016007,0.985725,-0.033000 ThumbLeft:0.000000,0.000000,0.000000,0.000000 ThumbRight:0.000000,0.000000,0.000000,0.000000 WristLeft:-0.111868,0.786683,-0.133782,0.592214 WristRight:0.175199,-0.539212,0.571142,-0.593592 END:
KINECT_DATA POSITION:11.489312,1.010049,-18.977594 HEAD_JOINT1:0.992215,0.116594,-0.000000,0.043759 LARM_JOINT2:0.811443,0.000000,-0.014707,-0.584246 LARM_JOINT3:0.961469,0.000000,-0.210403,-0.176939 LLEG_JOINT2:0.998609,-0.003238,0.000000,0.052624 LLEG_JOINT4:0.994096,0.108301,0.000000,-0.006576 RARM_JOINT2:0.778784,0.000000,0.576051,0.248316 RARM_JOINT3:0.966457,0.000000,0.256570,0.011550 RLEG_JOINT2:0.997825,0.043788,0.000000,-0.049281 RLEG_JOINT4:0.993817,0.081755,0.000000,0.075131 WAIST:0.994817,0.000000,0.101493,-0.006191 WAIST_JOINT0:0.986958,0.000000,0.160823,-0.007008 WAIST_JOINT1:0.998879,0.041952,-0.000000,0.021909 END:
KINECT_DATA_Sensor  AnkleLeft:0.066776,0.701855,-0.090886,-0.703335 AnkleRight:0.089330,0.722923,0.090600,0.679113 ElbowLeft:-0.032980,0.838747,-0.175364,-0.514455 ElbowRight:-0.511824,0.847576,-0.062692,0.125383 FootLeft:0.000000,0.000000,0.000000,0.000000 FootRight:0.000000,0.000000,0.000000,0.000000 HandLeft:-0.155404,0.729609,-0.089350,0.659952 HandRight:0.125698,-0.544865,0.610587,-0.560809 HandTipLeft:0.000000,0.000000,0.000000,0.000000 HandTipRight:0.000000,0.000000,0.000000,0.000000 Head:0.000000,0.000000,0.000000,0.000000 HipLeft:0.077897,-0.694785,0.707112,-0.105823 HipRight:-0.205942,0.662228,0.687986,-0.213815 KneeLeft:0.031359,-0.631481,0.034396,0.773993 KneeRight:-0.014689,0.775130,0.069490,0.627797 Neck:-0.159957,0.015361,0.985220,-0.059328 ShoulderLeft:0.046369,0.775114,-0.629197,-0.034045 ShoulderRight:-0.167931,0.742594,0.613187,-0.210606 SpineBase:-0.101020,0.011143,0.994660,-0.017928 SpineMid:-0.130089,0.011663,0.991278,-0.017594 SpineShoulder:-0.160033,0.013487,0.986288,-0.037994 ThumbLeft:0.000000,0.000000,0.000000,0.000000 ThumbRight:0.000000,0.000000,0.000000,0.000000 WristLeft:-0.104419,0.742101,-0.141008,0.646915 WristRight:0.152667,-0.540808,0.570818,-0.598654 END:
KINECT_DATA POSITION:11.468596,0.967100,-19.046270 HEAD_JOINT1:0.992684,0.110290,-0.000000,0.049135 LARM_JOINT2:0.811699,0.000000,-0.022118,-0.583657 LARM_JOINT3:0.963225,0.000000,-0.207022,-0.171286 LLEG_JOINT2:0.998613,-0.003490,0.000000,0.052536 LLEG_JOINT4:0.994208,0.107312,0.000000,-0.005907 RARM_JOINT2:0.778084,0.000000,0.576752,0.248884 RARM_JOINT3:0.965733,0.000000,0.259342,0.010021 RLEG_JOINT2:0.997858,0.042743,0.000000,-0.049513 RLEG_JOINT4:0.993908,0.082460,0.000000,0.073128 WAIST:0.994932,0.000000,0.100354,-0.006277 WAIST_JOINT0:0.986365,0.000000,0.164453,-0.006197 WAIST_JOINT1:0.998820,0.043555,-0.000000,0.021478 END:
KINECT_DATA_Sensor  AnkleLeft:0.066545,0.711904,-0.089843,-0.693320 AnkleRight:0.088304,0.729274,0.090675,0.672414 ElbowLeft:-0.036731,0.841600,-0.173823,-0.510045 ElbowRight:-0.509516,0.846694,-0.069023,0.136890 FootLeft:0.000000,0.000000,0.000000,0.000000 FootRight:0.000000,0.000000,0.000000,0.000000 HandLeft:-0.145737,0.729731,-0.093555,0.661439 HandRight:0.119159,-0.557833,0.601881,-0.558894 HandTipLeft:0.000000,0.000000,0.000000,0.000000 HandTipRight:0.000000,0.000000,0.000000,0.000000 Head:0.000000,0.000000,0.000000,0.000000 HipLeft:0.077329,-0.694458,0.707293,-0.107163 HipRight:-0.203948,0.661873,0.688810,-0.214173 KneeLeft:0.031481,-0.632406,0.034069,0.773247 KneeRight:-0.015529,0.774330,0.068901,0.628828 Neck:-0.162959,0.015344,0.984645,-0.060694 ShoulderLeft:0.054915,0.775884,-0.627188,-0.040288 ShoulderRight:-0.162330,0.744450,0.612675,-0.209936 SpineBase:-0.099841,0.010550,0.994754,-0.019636 SpineMid:-0.131018,0.011161,0.991129,-0.019295 SpineShoulder:-0.163081,0.013041,0.985733,-0.039553 ThumbLeft:0.000000,0.000000,0.000000,0.000000 ThumbRight:0.000000,0.000000,0.000000,0.000000 WristLeft:-0.103479,0.739717,-0.141690,0.649642 WristRight:0.156932,-0.541626,0.574179,-0.593575 END:
KINECT_DATA POSITION:11.459083,0.943449,-19.096029 HEAD_JOINT1:0.992956,0.105995,-0.000000,0.052955 LARM_JOINT2:0.812289,0.000000,-0.023432,-0.582785 LARM_JOINT3:0.963389,0.000000,-0.208152,-0.168978 LLEG_JOINT2:0.998607,-0.003414,0.000000,0.052658 LLEG_JOINT4:0.994508,0.104432,0.000000,-0.006926 RARM_JOINT2:0.777956,0.000000,0.579577,0.242643 RARM_JOINT3:0.965677,0.000000,0.259256,0.015966 RLEG_JOINT2:0.997874,0.042916,0.000000,-0.049049 RLEG_JOINT4:0.993873,0.081707,0.000000,0.074441 WAIST:0.995080,0.000000,0.098859,-0.006475 WAIST_JOINT0:0.986255,0.000000,0.165122,-0.005977 WAIST_JOINT1:0.998804,0.043994,-0.000000,0.021324 END:
KINECT_DATA_Sensor  AnkleLeft:0.063641,0.705403,-0.088257,-0.700405 AnkleRight:0.097255,0.787619,0.080472,0.603093 ElbowLeft:-0.037700,0.842761,-0.174174,-0.507934 ElbowRight:-0.514886,0.846270,-0.060241,0.122843 FootLeft:0.000000,0.000000,0.000000,0.000000 FootRight:0.000000,0.000000,0.000000,0.000000 HandLeft:-0.145195,0.743824,-0.099149,0.644836 HandRight:0.144473,-0.583080,0.593877,-0.535215 HandTipLeft:0.000000,0.000000,0.000000,0.000000 HandTipRight:0.000000,0.000000,0.000000,0.000000 Head:0.000000,0.000000,0.000000,0.000000 HipLeft:0.077713,-0.694210,0.707279,-0.108579 HipRight:-0.202499,0.661590,0.689527,-0.214116 KneeLeft:0.031416,-0.633592,0.034018,0.772280 KneeRight:-0.015108,0.773349,0.068895,0.630045 Neck:-0.163387,0.015293,0.984556,-0.060988 ShoulderLeft:0.057699,0.776496,-0.626035,-0.042471 ShoulderRight:-0.159602,0.745580,0.612369,-0.208906 SpineBase:-0.098320,0.010049,0.994890,-0.020627 SpineMid:-0.130484,0.010712,0.991185,-0.020291 SpineShoulder:-0.163530,0.012777,0.985645,-0.039975 ThumbLeft:0.000000,0.000000,0.000000,0.000000 ThumbRight:0.000000,0.000000,0.000000,0.000000 WristLeft:-0.106491,0.752295,-0.139698,0.634977 WristRight:-0.183027,0.573070,-0.564095,0.565587 END:
KINECT_DATA POSITION:11.423767,0.917637,-19.163704 HEAD_JOINT1:0.990555,0.130385,-0.000000,0.042438 LARM_JOINT2:0.810803,0.000000,0.000082,-0.585319 LARM_JOINT3:0.961042,0.000000,-0.212776,-0.176422 LLEG_JOINT2:0.998563,-0.002621,0.000000,0.053523 LLEG_JOINT4:0.994304,0.106280,0.000000,-0.008070 RARM_JOINT2:0.779272,0.000000,0.583610,0.228327 RARM_JOINT3:0.967547,0.000000,0.248990,0.043080 RLEG_JOINT2:0.997991,0.041220,0.000000,-0.048118 RLEG_JOINT4:0.993829,0.083120,0.000000,0.073450 WAIST:0.995419,0.000000,0.095366,-0.006810 WAIST_JOINT0:0.987698,0.000000,0.156183,-0.007772 WAIST_JOINT1:0.999103,0.035486,-0.000000,0.023123 END:
KINECT_DATA_Sensor  AnkleLeft:0.065601,0.705398,-0.089618,-0.700057 AnkleRight:0.087294,0.711378,0.090746,0.691438 ElbowLeft:-0.029800,0.837279,-0.176554,-0.516628 ElbowRight:-0.534512,0.842149,-0.024070,0.067101 FootLeft:0.000000,0.000000,0.000000,0.000000 FootRight:0.000000,0.000000,0.000000,0.000000 HandLeft:-0.146172,0.733205,-0.099208,0.656659 HandRight:-0.155214,0.582186,-0.579310,0.548970 HandTipLeft:0.000000,0.000000,0.000000,0.000000 HandTipRight:0.000000,0.000000,0.000000,0.000000 Head:0.000000,0.000000,0.000000,0.000000 HipLeft:0.081375,-0.694519,0.706692,-0.107741 HipRight:-0.202551,0.662892,0.689813,-0.209057 KneeLeft:0.031257,-0.636210,0.034825,0.770096 KneeRight:-0.015485,0.771212,0.067269,0.632825 Neck:-0.155800,0.017102,0.986287,-0.051680 ShoulderLeft:0.028180,0.776054,-0.629473,-0.026658 ShoulderRight:-0.181713,0.742621,0.609193,-0.210659 SpineBase:-0.094910,0.010974,0.995283,-0.016826 SpineMid:-0.124909,0.011477,0.991965,-0.016487 SpineShoulder:-0.155854,0.014463,0.987161,-0.031835 ThumbLeft:0.000000,0.000000,0.000000,0.000000 ThumbRight:0.000000,0.000000,0.000000,0.000000 WristLeft:-0.105830,0.742246,-0.140164,0.646703 WristRight:-0.176409,0.579464,-0.554222,0.570911 END:
KINECT_DATA POSITION:11.377809,0.942227,-19.223845 HEAD_JOINT1:0.991259,0.122222,-0.000000,0.049682 LARM_JOINT2:0.813898,0.000000,-0.015696,-0.580796 LARM_JOINT3:0.961963,0.000000,-0.209709,-0.175070 LLEG_JOINT2:0.998504,-0.001191,0.000000,0.054663 LLEG_JOINT4:0.994523,0.104187,0.000000,-0.008362 RARM_JOINT2:0.778336,0.000000,0.592779,0.206898 RARM_JOINT3:0.969373,0.000000,0.238478,0.058684 RLEG_JOINT2:0.998107,0.039500,0.000000,-0.047150 RLEG_JOINT4:0.993860,0.085117,0.000000,0.070687 WAIST:0.995824,0.000000,0.090993,-0.007346 WAIST_JOINT0:0.987623,0.000000,0.156349,-0.012470 WAIST_JOINT1:0.998970,0.039905,-0.000000,0.021614 END:
KINECT_DATA_Sensor  AnkleLeft:0.064872,0.711521,-0.089529,-0.693912 AnkleRight:0.088304,0.725946,0.089739,0.676130 ElbowLeft:-0.036773,0.848588,-0.176896,-0.497247 ElbowRight:-0.546928,0.836452,-0.000942,0.034877 FootLeft:0.000000,0.000000,0.000000,0.000000 FootRight:0.000000,0.000000,0.000000,0.000000 HandLeft:-0.178390,0.866229,-0.064849,0.462190 HandRight:-0.135001,0.594224,-0.561677,0.559634 HandTipLeft:0.000000,0.000000,0.000000,0.000000 HandTipRight:0.000000,0.000000,0.000000,0.000000 Head:0.000000,0.000000,0.000000,0.000000 HipLeft:0.084006,-0.694673,0.705918,-0.109781 HipRight:-0.199979,0.663394,0.690865,-0.206452 KneeLeft:0.030681,-0.639582,0.036077,0.767263 KneeRight:-0.015963,0.768375,0.065752,0.636414 Neck:-0.155696,0.014831,0.986025,-0.057394 ShoulderLeft:0.039481,0.776242,-0.628445,-0.030752 ShoulderRight:-0.169555,0.737619,0.619754,-0.207544 SpineBase:-0.090541,0.010426,0.995701,-0.016507 SpineMid:-0.122681,0.010954,0.992254,-0.016161 SpineShoulder:-0.155781,0.012766,0.987067,-0.035605 ThumbLeft:0.000000,0.000000,0.000000,0.000000 ThumbRight:0.000000,0.000000,0.000000,0.000000 WristLeft:-0.134320,0.875456,-0.108271,0.451455 WristRight:-0.181215,0.573714,-0.544335,0.584563 END:
KINECT_DATA POSITION:11.355040,0.898120,-19.238054 HEAD_JOINT1:0.990941,0.125301,-0.000000,0.048336 LARM_JOINT2:0.814189,0.000000,-0.004583,-0.580582 LARM_JOINT3:0.960469,0.000000,-0.211601,-0.180900 LLEG_JOINT2:0.998535,-0.001195,0.000000,0.054105 LLEG_JOINT4:0.994624,0.103076,0.000000,-0.009891 RARM_JOINT2:0.778728,0.000000,0.593912,0.202117 RARM_JOINT3:0.969166,0.000000,0.237422,0.065942 RLEG_JOINT2:0.998057,0.039872,0.000000,-0.047882 RLEG_JOINT4:0.994164,0.080246,0.000000,0.072098 WAIST:0.995967,0.000000,0.089451,-0.007007 WAIST_JOINT0:0.988482,0.000000,0.150879,-0.011771 WAIST_JOINT1:0.999020,0.038435,-0.000000,0.021929 END:
KINECT_DATA_Sensor  AnkleLeft:0.063329,0.701598,-0.088564,-0.704206 AnkleRight:0.085726,0.719213,0.086182,0.684073 ElbowLeft:-0.031463,0.845429,-0.180374,-0.501723 ElbowRight:-0.551135,0.834124,0.011193,0.019023 FootLeft:0.000000,0.000000,0.000000,0.000000 FootRight:0.000000,0.000000,0.000000,0.000000 HandLeft:-0.158767,0.772377,-0.084736,0.609136 HandRight:-0.133069,0.595005,-0.561767,0.559178 HandTipLeft:0.000000,0.000000,0.000000,0.000000 HandTipRight:0.000000,0.000000,0.000000,0.000000 Head:0.000000,0.000000,0.000000,0.000000 HipLeft:0.084968,-0.694465,0.705904,-0.110442 HipRight:-0.199167,0.664021,0.690792,-0.205461 KneeLeft:0.030631,-0.640761,0.035830,0.766292 KneeRight:-0.015947,0.767405,0.066286,0.637528 Neck:-0.150495,0.015530,0.986929,-0.055509 ShoulderLeft:0.026935,0.778195,-0.627052,-0.022192 ShoulderRight:-0.175590,0.740518,0.614452,-0.207965 SpineBase:-0.089015,0.010570,0.995842,-0.016249 SpineMid:-0.119299,0.011060,0.992669,-0.015919 SpineShoulder:-0.150558,0.013338,0.987917,-0.034281 ThumbLeft:0.000000,0.000000,0.000000,0.000000 ThumbRight:0.000000,0.000000,0.000000,0.000000 WristLeft:-0.114320,0.782464,-0.129486,0.598259 WristRight:-0.180264,0.575442,-0.540907,0.586337 END:
KINECT_DATA POSITION:11.270472,0.921933,-19.199217 HEAD_JOINT1:0.990164,0.131657,-0.000000,0.047339 LARM_JOINT2:0.815206,0.000000,-0.009140,-0.579099 LARM_JOINT3:0.961571,0.000000,-0.205078,-0.182549 LLEG_JOINT2:0.998473,-0.000883,0.000000,0.055239 LLEG_JOINT4:0.994666,0.102586,0.000000,-0.010784 RARM_JOINT2:0.779710,0.000000,0.589236,0.211784 RARM_JOINT3:0.969736,0.000000,0.235966,0.062705 RLEG_JOINT2:0.998103,0.040015,0.000000,-0.046788 RLEG_JOINT4:0.994217,0.080212,0.000000,0.071400 WAIST:0.996118,0.000000,0.087724,-0.007249 WAIST_JOINT0:0.988177,0.000000,0.152009,-0.019976 WAIST_JOINT1:0.999087,0.036553,-0.000000,0.022117 END:
KINECT_DATA_Sensor  AnkleLeft:-0.062296,-0.696926,0.089093,0.708855 AnkleRight:0.087106,0.726318,0.084990,0.676499 ElbowLeft:-0.035966,0.850695,-0.180223,-0.492488 ElbowRight:-0.545928,0.836882,0.001781,0.039847 FootLeft:0.000000,0.000000,0.000000,0.000000 FootRight:0.000000,0.000000,0.000000,0.000000 HandLeft:-0.154850,0.728429,-0.087034,0.661693 HandRight:-0.111315,0.566950,-0.554618,0.598812 HandTipLeft:0.000000,0.000000,0.000000,0.000000 HandTipRight:0.000000,0.000000,0.000000,0.000000 Head:0.000000,0.000000,0.000000,0.000000 HipLeft:0.087012,-0.694429,0.705602,-0.111009 HipRight:-0.199111,0.664119,0.691081,-0.204224 KneeLeft:0.031021,-0.642034,0.036666,0.765170 KneeRight:-0.015083,0.766321,0.065880,0.638893 Neck:-0.151877,0.015796,0.986872,-0.052598 ShoulderLeft:0.029025,0.776938,-0.628390,-0.025518 ShoulderRight:-0.176046,0.728935,0.628430,-0.206731 SpineBase:-0.087316,0.010291,0.996011,-0.015223 SpineMid:-0.119152,0.010773,0.992706,-0.014885 SpineShoulder:-0.151931,0.013489,0.987759,-0.032659 ThumbLeft:0.000000,0.000000,0.000000,0.000000 ThumbRight:0.000000,0.000000,0.000000,0.000000 WristLeft:-0.104017,0.740683,-0.136262,0.649617 WristRight:0.151165,-0.538835,0.553400,-0.616892 END:
KINECT_DATA POSITION:11.195497,0.955420,-19.137526 HEAD_JOINT1:0.990674,0.125892,-0.000000,0.052125 LARM_JOINT2:0.815058,0.000000,-0.014416,-0.579200 LARM_JOINT3:0.962073,0.000000,-0.203840,-0.181289 LLEG_JOINT2:0.998371,-0.000481,0.000000,0.057053 LLEG_JOINT4:0.994645,0.102704,0.000000,-0.011523 RARM_JOINT2:0.775429,0.000000,0.583046,0.242418 RARM_JOINT3:0.969248,0.000000,0.243940,0.032429 RLEG_JOINT2:0.998237,0.039195,0.000000,-0.044568 RLEG_JOINT4:0.994043,0.084050,0.000000,0.069382 WAIST:0.996283,0.000000,0.085769,-0.008057 WAIST_JOINT0:0.988069,0.000000,0.152415,-0.022140 WAIST_JOINT1:0.999029,0.038077,-0.000000,0.022181 END:
KINECT_DATA_Sensor  AnkleLeft:0.063183,0.704112,-0.089233,-0.701621 AnkleRight:0.088366,0.722348,0.087922,0.680202 ElbowLeft:-0.037729,0.854456,-0.178434,-0.486459 ElbowRight:-0.521835,0.843377,-0.049595,0.118081 FootLeft:0.000000,0.000000,0.000000,0.000000 FootRight:0.000000,0.000000,0.000000,0.000000 HandLeft:-0.162281,0.733537,-0.086682,0.654274 HandRight:-0.098738,0.588380,-0.576513,0.558295 HandTipLeft:0.000000,0.000000,0.000000,0.000000 HandTipRight:0.000000,0.000000,0.000000,0.000000 Head:0.000000,0.000000,0.000000,0.000000 HipLeft:0.087652,-0.694546,0.705079,-0.113077 HipRight:-0.197362,0.663474,0.692204,-0.204216 KneeLeft:0.031390,-0.643555,0.037674,0.763828 KneeRight:-0.014382,0.765003,0.064409,0.640637 Neck:-0.152171,0.015006,0.986728,-0.054644 ShoulderLeft:0.036339,0.777198,-0.627497,-0.029822 ShoulderRight:-0.168495,0.727388,0.633314,-0.203544 SpineBase:-0.085310,0.009550,0.996172,-0.016517 SpineMid:-0.118327,0.010093,0.992791,-0.016190 SpineShoulder:-0.152233,0.012937,0.987675,-0.033988 ThumbLeft:0.000000,0.000000,0.000000,0.000000 ThumbRight:0.000000,0.000000,0.000000,0.000000 WristLeft:-0.104881,0.747049,-0.133251,0.642777 WristRight:0.176816,-0.539777,0.558361,-0.604657 END:
KINECT_DATA POSITION:11.137371,1.002316,-19.144583 HEAD_JOINT1:0.989758,0.133514,-0.000000,0.050534 LARM_JOINT2:0.814536,0.000000,-0.012878,-0.579971 LARM_JOINT3:0.963653,0.000000,-0.199008,-0.178240 LLEG_JOINT2:0.998342,-0.000238,0.000000,0.057567 LLEG_JOINT4:0.994517,0.103880,0.000000,-0.012052 RARM_JOINT2:0.774784,0.000000,0.590537,0.225779 RARM_JOINT3:0.969766,0.000000,0.236037,0.061970 RLEG_JOINT2:0.998305,0.037618,0.000000,-0.044400 RLEG_JOINT4:0.993737,0.087923,0.000000,0.068967 WAIST:0.996372,0.000000,0.084696,-0.008280 WAIST_JOINT0:0.988222,0.000000,0.150709,-0.026549 WAIST_JOINT1:0.999086,0.036088,-0.000000,0.022902 END:
KINECT_DATA_Sensor  AnkleLeft:-0.063353,-0.696568,0.090651,0.708916 AnkleRight:0.089792,0.723549,0.089639,0.678512 ElbowLeft:-0.038260,0.855280,-0.177833,-0.485189 ElbowRight:-0.537612,0.842697,0.003969,0.028620 FootLeft:0.000000,0.000000,0.000000,0.000000 FootRight:0.000000,0.000000,0.000000,0.000000 HandLeft:-0.158477,0.836314,-0.059583,0.521454 HandRight:0.109227,-0.566581,0.582571,-0.572421 HandTipLeft:0.000000,0.000000,0.000000,0.000000 HandTipRight:0.000000,0.000000,0.000000,0.000000 Head:0.000000,0.000000,0.000000,0.000000 HipLeft:0.088876,-0.694678,0.704741,-0.113415 HipRight:-0.197604,0.663657,0.692258,-0.203199 KneeLeft:0.031425,-0.644359,0.038025,0.763131 KneeRight:-0.015373,0.764307,0.063263,0.641558 Neck:-0.150772,0.015817,0.987062,-0.052216 ShoulderLeft:0.034270,0.775224,-0.630087,-0.029056 ShoulderRight:-0.169636,0.719707,0.642366,-0.201522 SpineBase:-0.084251,0.009872,0.996272,-0.015677 SpineMid:-0.117113,0.010384,0.992946,-0.015343 SpineShoulder:-0.150828,0.013417,0.987946,-0.032158 ThumbLeft:0.000000,0.000000,0.000000,0.000000 ThumbRight:0.000000,0.000000,0.000000,0.000000 WristLeft:-0.124989,0.843948,-0.113552,0.509152 WristRight:-0.159986,0.559565,-0.539061,0.608856 END:
KINECT_DATA POSITION:11.119049,1.057181,-19.159126 HEAD_JOINT1:0.988504,0.145526,-0.000000,0.041022 LARM_JOINT2:0.813045,0.000000,-0.010251,-0.582111 LARM_JOINT3:0.963549,0.000000,-0.198223,-0.179666 LLEG_JOINT2:0.998286,-0.000414,0.000000,0.058514 LLEG_JOINT4:0.994787,0.101066,0.000000,-0.013602 RARM_JOINT2:0.772625,0.000000,0.576831,0.265175 RARM_JOINT3:0.969990,0.000000,0.241375,0.029282 RLEG_JOINT2:0.998347,0.037977,0.000000,-0.043146 RLEG_JOINT4:0.994166,0.083293,0.000000,0.068523 WAIST:0.996328,0.000000,0.085165,-0.008808 WAIST_JOINT0:0.988392,0.000000,0.147954,-0.034516 WAIST_JOINT1:0.999156,0.032233,-0.000000,0.025478 END:
KINECT_DATA_Sensor  AnkleLeft:-0.061827,-0.697987,0.087884,0.708003 AnkleRight:0.087464,0.724940,0.086128,0.677786 ElbowLeft:-0.039105,0.855776,-0.176939,-0.484572 ElbowRight:-0.510474,0.850969,-0.049779,0.113090 FootLeft:0.000000,0.000000,0.000000,0.000000 FootRight:0.000000,0.000000,0.000000,0.000000 HandLeft:-0.162323,0.817282,-0.066923,0.548838 HandRight:0.135977,-0.560093,0.595348,-0.559791 HandTipLeft:0.000000,0.000000,0.000000,0.000000 HandTipRight:0.000000,0.000000,0.000000,0.000000 Head:0.000000,0.000000,0.000000,0.000000 HipLeft:0.089812,-0.695304,0.704229,-0.112017 HipRight:-0.199971,0.663855,0.691869,-0.201557 KneeLeft:0.031780,-0.643944,0.038280,0.763454 KneeRight:-0.014572,0.764722,0.063099,0.641098 Neck:-0.149522,0.018062,0.987405,-0.048460 ShoulderLeft:0.028403,0.771551,-0.634959,-0.027000 ShoulderRight:-0.175807,0.705442,0.656789,-0.200177 SpineBase:-0.084759,0.011312,0.996249,-0.013238 SpineMid:-0.116733,0.011732,0.993011,-0.012868 SpineShoulder:-0.149532,0.015394,0.988228,-0.028436 ThumbLeft:0.000000,0.000000,0.000000,0.000000 ThumbRight:0.000000,0.000000,0.000000,0.000000 WristLeft:-0.121156,0.826597,-0.117674,0.536853 WristRight:-0.179366,0.562382,-0.547809,0.592841 END:
KINECT_DATA POSITION:11.122326,1.085811,-19.171190 HEAD_JOINT1:0.988051,0.148865,-0.000000,0.039925 LARM_JOINT2:0.812204,0.000000,-0.011170,-0.583267 LARM_JOINT3:0.963738,0.000000,-0.199138,-0.177632 LLEG_JOINT2:0.998265,-0.000370,0.000000,0.058875 LLEG_JOINT4:0.994459,0.104395,0.000000,-0.012400 RARM_JOINT2:0.773922,0.000000,0.586621,0.238581 RARM_JOINT3:0.971419,0.000000,0.229916,0.059015 RLEG_JOINT2:0.998426,0.036981,0.000000,-0.042157 RLEG_JOINT4:0.994096,0.084357,0.000000,0.068237 WAIST:0.996365,0.000000,0.084675,-0.009378 WAIST_JOINT0:0.988359,0.000000,0.147867,-0.035792 WAIST_JOINT1:0.999169,0.031457,-0.000000,0.025919 END:
KINECT_DATA_Sensor  AnkleLeft:-0.064135,-0.699012,0.090593,0.706443 AnkleRight:0.087224,0.720949,0.086564,0.682005 ElbowLeft:-0.039955,0.856442,-0.174990,-0.484034 ElbowRight:-0.532172,0.846422,0.009532,0.016473 FootLeft:0.000000,0.000000,0.000000,0.000000 FootRight:0.000000,0.000000,0.000000,0.000000 HandLeft:-0.169589,0.823207,-0.071177,0.537125 HandRight:0.132868,-0.545850,0.611052,-0.557682 HandTipLeft:0.000000,0.000000,0.000000,0.000000 HandTipRight:0.000000,0.000000,0.000000,0.000000 Head:0.000000,0.000000,0.000000,0.000000 HipLeft:0.090601,-0.695688,0.703783,-0.111805 HipRight:-0.200523,0.663743,0.692109,-0.200550 KneeLeft:0.031599,-0.644310,0.038162,0.763158 KneeRight:-0.014838,0.764419,0.062107,0.641550 Neck:-0.149906,0.017950,0.987382,-0.047787 ShoulderLeft:0.028555,0.770305,-0.636442,-0.027511 ShoulderRight:-0.176568,0.702503,0.659848,-0.199784 SpineBase:-0.084282,0.011630,0.996298,-0.012271 SpineMid:-0.116674,0.012024,0.993026,-0.011886 SpineShoulder:-0.149910,0.015340,0.988194,-0.027651 ThumbLeft:0.000000,0.000000,0.000000,0.000000 ThumbRight:0.000000,0.000000,0.000000,0.000000 WristLeft:-0.122666,0.833389,-0.115720,0.526332 WristRight:-0.172246,0.579383,-0.524592,0.599542 END:
KINECT_DATA POSITION:11.141173,1.090886,-19.198334 HEAD_JOINT1:0.987745,0.151031,-0.000000,0.039355 LARM_JOINT2:0.812126,0.000000,-0.010902,-0.583380 LARM_JOINT3:0.963653,0.000000,-0.197677,-0.179714 LLEG_JOINT2:0.998236,-0.000614,0.000000,0.059370 LLEG_JOINT4:0.994419,0.104959,0.000000,-0.010656 RARM_JOINT2:0.774129,0.000000,0.587869,0.234809 RARM_JOINT3:0.971147,0.000000,0.230093,0.062695 RLEG_JOINT2:0.998407,0.037262,0.000000,-0.042358 RLEG_JOINT4:0.994039,0.084047,0.000000,0.069451 WAIST:0.996317,0.000000,0.085188,-0.009811 WAIST_JOINT0:0.988374,0.000000,0.147424,-0.037178 WAIST_JOINT1:0.999187,0.030745,-0.000000,0.026095 END:
KINECT_DATA_Sensor  AnkleLeft:0.064951,0.710136,-0.091180,-0.695107 AnkleRight:0.087418,0.719409,0.086487,0.683615 ElbowLeft:-0.039792,0.857193,-0.174586,-0.482863 ElbowRight:-0.535457,0.844125,0.002549,0.027042 FootLeft:0.000000,0.000000,0.000000,0.000000 FootRight:0.000000,0.000000,0.000000,0.000000 HandLeft:-0.161048,0.764032,-0.082227,0.619320 HandRight:-0.147896,0.610351,-0.571541,0.528147 HandTipLeft:0.000000,0.000000,0.000000,0.000000 HandTipRight:0.000000,0.000000,0.000000,0.000000 Head:0.000000,0.000000,0.000000,0.000000 HipLeft:0.090791,-0.696167,0.703432,-0.110864 HipRight:-0.201440,0.663631,0.692079,-0.200107 KneeLeft:0.031777,-0.643886,0.038096,0.763512 KneeRight:-0.015137,0.764768,0.062754,0.641063 Neck:-0.149508,0.017598,0.987479,-0.047155 ShoulderLeft:0.026796,0.770586,-0.636204,-0.026904 ShoulderRight:-0.177886,0.700821,0.661280,-0.199788 SpineBase:-0.084817,0.011714,0.996264,-0.011300 SpineMid:-0.116735,0.012070,0.993030,-0.010918 SpineShoulder:-0.149509,0.015073,0.988277,-0.026990 ThumbLeft:0.000000,0.000000,0.000000,0.000000 ThumbRight:0.000000,0.000000,0.000000,0.000000 WristLeft:-0.111495,0.775305,-0.126871,0.608584 WristRight:-0.213163,0.598358,-0.513846,0.576621 END:
KINECT_DATA POSITION:11.165749,1.094466,-19.219707 HEAD_JOINT1:0.987233,0.153882,-0.000000,0.041120 LARM_JOINT2:0.812351,0.000000,-0.010181,-0.583080 LARM_JOINT3:0.964571,0.000000,-0.190729,-0.182278 LLEG_JOINT2:0.998235,-0.000239,0.000000,0.059391 LLEG_JOINT4:0.994630,0.102864,0.000000,-0.011439 RARM_JOINT2:0.773524,0.000000,0.588070,0.236295 RARM_JOINT3:0.970726,0.000000,0.232381,0.060742 RLEG_JOINT2:0.998434,0.036861,0.000000,-0.042088 RLEG_JOINT4:0.994076,0.085718,0.000000,0.066826 WAIST:0.996390,0.000000,0.084311,-0.009912 WAIST_JOINT0:0.988418,0.000000,0.146599,-0.039234 WAIST_JOINT1:0.999219,0.030175,-0.000000,0.025504 END:
KINECT_DATA_Sensor  AnkleLeft:-0.053818,-0.631263,0.095985,0.767723 AnkleRight:0.087335,0.726642,0.087900,0.675749 ElbowLeft:-0.039307,0.859027,-0.174394,-0.479702 ElbowRight:-0.535153,0.844062,-0.001818,0.034173 FootLeft:0.000000,0.000000,0.000000,0.000000 FootRight:0.000000,0.000000,0.000000,0.000000 HandLeft:-0.155198,0.834458,-0.043924,0.526938 HandRight:0.075207,-0.539653,0.587348,-0.598449 HandTipLeft:0.000000,0.000000,0.000000,0.000000 HandTipRight:0.000000,0.000000,0.000000,0.000000 Head:0.000000,0.000000,0.000000,0.000000 HipLeft:0.091882,-0.696267,0.703210,-0.110753 HipRight:-0.201351,0.663818,0.692169,-0.199262 KneeLeft:0.031474,-0.644535,0.038249,0.762969 KneeRight:-0.015214,0.764205,0.062352,0.641773 Neck:-0.148404,0.016872,0.987685,-0.046579 ShoulderLeft:0.025281,0.771012,-0.635778,-0.026247 ShoulderRight:-0.177941,0.698342,0.664155,-0.198882 SpineBase:-0.083970,0.011360,0.996348,-0.010498 SpineMid:-0.115760,0.011689,0.993157,-0.010130 SpineShoulder:-0.148409,0.014434,0.988469,-0.026390 ThumbLeft:0.000000,0.000000,0.000000,0.000000 ThumbRight:0.000000,0.000000,0.000000,0.000000 WristLeft:-0.126001,0.842398,-0.110842,0.512058 WristRight:0.138159,-0.511753,0.541999,-0.652118 END:
KINECT_DATA POSITION:11.230644,1.016584,-19.285536 HEAD_JOINT1:0.989450,0.133768,-0.000000,0.055625 LARM_JOINT2:0.812038,0.000000,0.002995,-0.583597 LARM_JOINT3:0.960764,0.000000,-0.206372,-0.185321 LLEG_JOINT2:0.998277,-0.000588,0.000000,0.058669 LLEG_JOINT4:0.994633,0.102733,0.000000,-0.012319 RARM_JOINT2:0.773956,0.000000,0.594154,0.219026 RARM_JOINT3:0.970248,0.000000,0.233989,0.062189 RLEG_JOINT2:0.998360,0.038490,0.000000,-0.042373 RLEG_JOINT4:0.994048,0.084220,0.000000,0.069099 WAIST:0.996410,0.000000,0.084081,-0.009916 WAIST_JOINT0:0.989890,0.000000,0.137344,-0.035412 WAIST_JOINT1:0.998994,0.038523,-0.000000,0.022965 END:
KINECT_DATA_Sensor  AnkleLeft:-0.063035,-0.700281,0.088990,0.705488 AnkleRight:0.088412,0.721866,0.087340,0.680782 ElbowLeft:-0.024352,0.848751,-0.177457,-0.497532 ElbowRight:-0.540427,0.841187,0.015829,0.009660 FootLeft:0.000000,0.000000,0.000000,0.000000 FootRight:0.000000,0.000000,0.000000,0.000000 HandLeft:-0.149051,0.785371,-0.057851,0.598021 HandRight:0.116033,-0.557960,0.598185,-0.563375 HandTipLeft:0.000000,0.000000,0.000000,0.000000 HandTipRight:0.000000,0.000000,0.000000,0.000000 Head:0.000000,0.000000,0.000000,0.000000 HipLeft:0.090053,-0.696213,0.703290,-0.112075 HipRight:-0.198584,0.663337,0.692845,-0.201281 KneeLeft:0.031278,-0.644804,0.037462,0.762789 KneeRight:-0.014371,0.763949,0.063782,0.641956 Neck:-0.138626,0.013661,0.988654,-0.056206 ShoulderLeft:0.023718,0.778400,-0.627119,-0.015896 ShoulderRight:-0.164219,0.713187,0.652228,-0.197472 SpineBase:-0.083660,0.009696,0.996355,-0.013534 SpineMid:-0.110793,0.010062,0.993704,-0.013264 SpineShoulder:-0.138717,0.011407,0.989669,-0.034388 ThumbLeft:0.000000,0.000000,0.000000,0.000000 ThumbRight:0.000000,0.000000,0.000000,0.000000 WristLeft:-0.119876,0.793600,-0.118421,0.584641 WristRight:-0.165428,0.569620,-0.531486,0.604723 END:
KINECT_DATA POSITION:11.274870,1.019454,-19.312620 HEAD_JOINT1:0.989542,0.134592,-0.000000,0.051883 LARM_JOINT2:0.811290,0.000000,-0.005517,-0.584618 LARM_JOINT3:0.962749,0.000000,-0.199574,-0.182438 LLEG_JOINT2:0.998304,-0.000633,0.000000,0.058218 LLEG_JOINT4:0.994639,0.102691,0.000000,-0.012136 RARM_JOINT2:0.775569,0.000000,0.591131,0.221489 RARM_JOINT3:0.970122,0.000000,0.234117,0.063663 RLEG_JOINT2:0.998372,0.037398,0.000000,-0.043066 RLEG_JOINT4:0.994389,0.081160,0.000000,0.067842 WAIST:0.996345,0.000000,0.084838,-0.009954 WAIST_JOINT0:0.989058,0.000000,0.143523,-0.034144 WAIST_JOINT1:0.999025,0.036598,-0.000000,0.024700 END:
KINECT_DATA_Sensor  AnkleLeft:0.064639,0.711097,-0.087621,-0.694612 AnkleRight:0.084520,0.725017,0.085097,0.678208 ElbowLeft:-0.030294,0.855083,-0.175102,-0.487088 ElbowRight:-0.539502,0.841726,0.020238,0.005029 FootLeft:0.000000,0.000000,0.000000,0.000000 FootRight:0.000000,0.000000,0.000000,0.000000 HandLeft:-0.142679,0.735113,-0.075271,0.658472 HandRight:0.171635,-0.590426,0.593940,-0.518820 HandTipLeft:0.000000,0.000000,0.000000,0.000000 HandTipRight:0.000000,0.000000,0.000000,0.000000 Head:0.000000,0.000000,0.000000,0.000000 HipLeft:0.088931,-0.696290,0.703380,-0.111929 HipRight:-0.198418,0.663146,0.692884,-0.201938 KneeLeft:0.030960,-0.644265,0.037092,0.763275 KneeRight:-0.015680,0.764390,0.063416,0.641437 Neck:-0.144781,0.016422,0.987909,-0.052956 ShoulderLeft:0.031439,0.775356,-0.630275,-0.024245 ShoulderRight:-0.165130,0.711416,0.653899,-0.197574 SpineBase:-0.084391,0.009754,0.996283,-0.014248 SpineMid:-0.114262,0.010178,0.993301,-0.013948 SpineShoulder:-0.144891,0.013070,0.988814,-0.032898 ThumbLeft:0.000000,0.000000,0.000000,0.000000 ThumbRight:0.000000,0.000000,0.000000,0.000000 WristLeft:-0.108583,0.743925,-0.126739,0.647088 WristRight:-0.200022,0.613598,-0.516562,0.562718 END:
KINECT_DATA POSITION:11.272414,1.040169,-19.354893 HEAD_JOINT1:0.988762,0.142677,-0.000000,0.044645 LARM_JOINT2:0.810901,0.000000,-0.004383,-0.585167 LARM_JOINT3:0.963028,0.000000,-0.199837,-0.180670 LLEG_JOINT2:0.998298,-0.001014,0.000000,0.058308 LLEG_JOINT4:0.994467,0.104344,0.000000,-0.012181 RARM_JOINT2:0.775618,0.000000,0.582181,0.243887 RARM_JOINT3:0.969805,0.000000,0.239501,0.046009 RLEG_JOINT2:0.998426,0.036269,0.000000,-0.042772 RLEG_JOINT4:0.994177,0.083439,0.000000,0.068190 WAIST:0.996377,0.000000,0.084433,-0.010157 WAIST_JOINT0:0.989138,0.000000,0.141456,-0.039965 WAIST_JOINT1:0.999123,0.032788,-0.000000,0.026038 END:
KINECT_DATA_Sensor  AnkleLeft:0.064773,0.703474,-0.088960,-0.702150 AnkleRight:0.084882,0.718750,0.086437,0.684633 ElbowLeft:-0.032323,0.857290,-0.174726,-0.483198 ElbowRight:-0.526540,0.846508,-0.022772,0.075245 FootLeft:0.000000,0.000000,0.000000,0.000000 FootRight:0.000000,0.000000,0.000000,0.000000 HandLeft:-0.155769,0.818463,-0.071040,0.548459 HandRight:0.095377,-0.559726,0.594617,-0.569246 HandTipLeft:0.000000,0.000000,0.000000,0.000000 HandTipRight:0.000000,0.000000,0.000000,0.000000 Head:0.000000,0.000000,0.000000,0.000000 HipLeft:0.089901,-0.696527,0.703130,-0.111245 HipRight:-0.199413,0.663503,0.692741,-0.200271 KneeLeft:0.031186,-0.644536,0.036753,0.763053 KneeRight:-0.016306,0.764178,0.062513,0.641762 Neck:-0.143137,0.017364,0.988330,-0.049125 ShoulderLeft:0.026162,0.773405,-0.632940,-0.023389 ShoulderRight:-0.169191,0.701327,0.664426,-0.195071 SpineBase:-0.084024,0.010724,0.996327,-0.012578 SpineMid:-0.113232,0.011089,0.993431,-0.012257 SpineShoulder:-0.143181,0.014343,0.989163,-0.029171 ThumbLeft:0.000000,0.000000,0.000000,0.000000 ThumbRight:0.000000,0.000000,0.000000,0.000000 WristLeft:-0.124652,0.825107,-0.110616,0.539837 WristRight:0.163931,-0.528889,0.542608,-0.631648 END:
KINECT_DATA POSITION:11.239881,1.075670,-19.389843 HEAD_JOINT1:0.988678,0.143697,-0.000000,0.043207 LARM_JOINT2:0.812407,0.000000,-0.008029,-0.583036 LARM_JOINT3:0.963053,0.000000,-0.199274,-0.181159 LLEG_JOINT2:0.998230,-0.000640,0.000000,0.059465 LLEG_JOINT4:0.994574,0.103222,0.000000,-0.012941 RARM_JOINT2:0.774897,0.000000,0.585415,0.238376 RARM_JOINT3:0.971006,0.000000,0.232270,0.056551 RLEG_JOINT2:0.998504,0.035280,0.000000,-0.041777 RLEG_JOINT4:0.994119,0.084966,0.000000,0.067151 WAIST:0.996479,0.000000,0.083120,-0.010955 WAIST_JOINT0:0.989042,0.000000,0.141311,-0.042745 WAIST_JOINT1:0.999135,0.031862,-0.000000,0.026717 END:
KINECT_DATA_Sensor  AnkleLeft:0.064594,0.706730,-0.088115,-0.698997 AnkleRight:0.085565,0.724667,0.086446,0.678280 ElbowLeft:-0.035607,0.861545,-0.175921,-0.474893 ElbowRight:-0.531829,0.845455,-0.006454,0.048197 FootLeft:0.000000,0.000000,0.000000,0.000000 FootRight:0.000000,0.000000,0.000000,0.000000 HandLeft:-0.158116,0.788571,-0.085992,0.588014 HandRight:-0.177709,0.648204,-0.572951,0.469018 HandTipLeft:0.000000,0.000000,0.000000,0.000000 HandTipRight:0.000000,0.000000,0.000000,0.000000 Head:0.000000,0.000000,0.000000,0.000000 HipLeft:0.090862,-0.696937,0.702568,-0.111448 HipRight:-0.199190,0.663351,0.693413,-0.198664 KneeLeft:0.031143,-0.645528,0.037264,0.762191 KneeRight:-0.016681,0.763333,0.061692,0.642836 Neck:-0.142945,0.017133,0.988401,-0.048333 ShoulderLeft:0.026744,0.773014,-0.633340,-0.024788 ShoulderRight:-0.168517,0.697243,0.669417,-0.193223 SpineBase:-0.082716,0.011019,0.996442,-0.011787 SpineMid:-0.112466,0.011366,0.993525,-0.011452 SpineShoulder:-0.142968,0.014399,0.989220,-0.028219 ThumbLeft:0.000000,0.000000,0.000000,0.000000 ThumbRight:0.000000,0.000000,0.000000,0.000000 WristLeft:-0.118547,0.796642,-0.116542,0.581142 WristRight:-0.255031,0.637963,-0.499224,0.527956 END:
KINECT_DATA POSITION:11.187596,1.104537,-19.463898 HEAD_JOINT1:0.988434,0.145376,-0.000000,0.043164 LARM_JOINT2:0.813217,0.000000,-0.009441,-0.581884 LARM_JOINT3:0.964054,0.000000,-0.193529,-0.182062 LLEG_JOINT2:0.998196,-0.001473,0.000000,0.060017 LLEG_JOINT4:0.994583,0.103178,0.000000,-0.012631 RARM_JOINT2:0.773628,0.000000,0.571624,0.273397 RARM_JOINT3:0.968591,0.000000,0.247733,0.021459 RLEG_JOINT2:0.998528,0.035667,0.000000,-0.040872 RLEG_JOINT4:0.994310,0.083425,0.000000,0.066246 WAIST:0.996552,0.000000,0.082266,-0.010821 WAIST_JOINT0:0.989056,0.000000,0.141131,-0.043018 WAIST_JOINT1:0.999147,0.031958,-0.000000,0.026169 END:
KINECT_DATA_Sensor  AnkleLeft:-0.054100,-0.634311,0.094322,0.765393 AnkleRight:0.085331,0.726761,0.085072,0.676239 ElbowLeft:-0.036646,0.863130,-0.176519,-0.471703 ElbowRight:-0.501579,0.846062,-0.073509,0.164906 FootLeft:0.000000,0.000000,0.000000,0.000000 FootRight:0.000000,0.000000,0.000000,0.000000 HandLeft:-0.152895,0.842859,-0.058038,0.512683 HandRight:-0.133160,0.602106,-0.581840,0.530282 HandTipLeft:0.000000,0.000000,0.000000,0.000000 HandTipRight:0.000000,0.000000,0.000000,0.000000 Head:0.000000,0.000000,0.000000,0.000000 HipLeft:0.091694,-0.696807,0.702522,-0.111868 HipRight:-0.198941,0.663581,0.693385,-0.198243 KneeLeft:0.032269,-0.646129,0.037208,0.761637 KneeRight:-0.015601,0.762811,0.061313,0.643519 Neck:-0.142641,0.016674,0.988447,-0.048460 ShoulderLeft:0.026151,0.772637,-0.633857,-0.023941 ShoulderRight:-0.168879,0.696148,0.670392,-0.193475 SpineBase:-0.081876,0.010899,0.996516,-0.011530 SpineMid:-0.111887,0.011242,0.993594,-0.011196 SpineShoulder:-0.142665,0.014056,0.989268,-0.028237 ThumbLeft:0.000000,0.000000,0.000000,0.000000 ThumbRight:0.000000,0.000000,0.000000,0.000000 WristLeft:-0.128391,0.848325,-0.104618,0.502906 WristRight:-0.218577,0.568357,-0.543242,0.577999 END:
KINECT_DATA POSITION:11.178144,1.123046,-19.529104 HEAD_JOINT1:0.988241,0.147004,-0.000000,0.042061 LARM_JOINT2:0.812874,0.000000,-0.011069,-0.582335 LARM_JOINT3:0.964293,0.000000,-0.189953,-0.184547 LLEG_JOINT2:0.998208,-0.002038,0.000000,0.059803 LLEG_JOINT4:0.994662,0.102527,0.000000,-0.011677 RARM_JOINT2:0.773438,0.000000,0.587941,0.236896 RARM_JOINT3:0.971049,0.000000,0.230830,0.061499 RLEG_JOINT2:0.998517,0.036408,0.000000,-0.040471 RLEG_JOINT4:0.994649,0.081688,0.000000,0.063243 WAIST:0.996562,0.000000,0.082141,-0.010824 WAIST_JOINT0:0.988794,0.000000,0.143629,-0.040718 WAIST_JOINT1:0.999138,0.032183,-0.000000,0.026209 END:
KINECT_DATA_Sensor  AnkleLeft:0.062365,0.712065,-0.087985,-0.693781 AnkleRight:0.089488,0.780318,0.078773,0.613914 ElbowLeft:-0.037138,0.864383,-0.175715,-0.469666 ElbowRight:-0.532821,0.846017,0.016695,0.008864 FootLeft:0.000000,0.000000,0.000000,0.000000 FootRight:0.000000,0.000000,0.000000,0.000000 HandLeft:-0.144332,0.734822,-0.071233,0.658886 HandRight:0.102448,-0.523094,0.620072,-0.575664 HandTipLeft:0.000000,0.000000,0.000000,0.000000 HandTipRight:0.000000,0.000000,0.000000,0.000000 Head:0.000000,0.000000,0.000000,0.000000 HipLeft:0.091609,-0.696799,0.702471,-0.112311 HipRight:-0.198691,0.663571,0.693402,-0.198466 KneeLeft:0.032565,-0.646235,0.036672,0.761561 KneeRight:-0.014808,0.762741,0.061621,0.643591 Neck:-0.145371,0.016850,0.988035,-0.048677 ShoulderLeft:0.027583,0.771046,-0.635699,-0.024782 ShoulderRight:-0.171531,0.696981,0.668073,-0.196147 SpineBase:-0.081737,0.010923,0.996523,-0.011910 SpineMid:-0.113166,0.011294,0.993445,-0.011559 SpineShoulder:-0.145400,0.014177,0.988863,-0.028406 ThumbLeft:0.000000,0.000000,0.000000,0.000000 ThumbRight:0.000000,0.000000,0.000000,0.000000 WristLeft:-0.106477,0.744645,-0.125059,0.646936 WristRight:-0.152789,0.556511,-0.527061,0.623826 END:
KINECT_DATA POSITION:11.197485,1.115808,-19.546913 HEAD_JOINT1:0.990673,0.126248,-0.000000,0.051269 LARM_JOINT2:0.813654,0.000000,-0.020771,-0.580979 LARM_JOINT3:0.964481,0.000000,-0.194016,-0.179262 LLEG_JOINT2:0.998232,-0.001502,0.000000,0.059414 LLEG_JOINT4:0.994736,0.101551,0.000000,-0.013702 RARM_JOINT2:0.773265,0.000000,0.591230,0.229148 RARM_JOINT3:0.970982,0.000000,0.234412,0.047381 RLEG_JOINT2:0.998497,0.036375,0.000000,-0.040998 RLEG_JOINT4:0.994656,0.079339,0.000000,0.066065 WAIST:0.996580,0.000000,0.081945,-0.010639 WAIST_JOINT0:0.988565,0.000000,0.146017,-0.037659 WAIST_JOINT1:0.998842,0.041639,-0.000000,0.024106 END:
KINECT_DATA_Sensor  AnkleLeft:0.062359,0.705299,-0.086542,-0.700839 AnkleRight:0.081767,0.715537,0.083852,0.688687 ElbowLeft:-0.036238,0.864124,-0.175458,-0.470309 ElbowRight:-0.530773,0.844767,-0.017856,0.065800 FootLeft:0.000000,0.000000,0.000000,0.000000 FootRight:0.000000,0.000000,0.000000,0.000000 HandLeft:-0.138813,0.716583,-0.080126,0.678837 HandRight:-0.127333,0.589350,-0.571481,0.556653 HandTipLeft:0.000000,0.000000,0.000000,0.000000 HandTipRight:0.000000,0.000000,0.000000,0.000000 Head:0.000000,0.000000,0.000000,0.000000 HipLeft:0.089834,-0.696377,0.702790,-0.114342 HipRight:-0.196333,0.663099,0.693928,-0.200542 KneeLeft:0.032040,-0.646499,0.036850,0.761351 KneeRight:-0.015099,0.762504,0.061805,0.643848 Neck:-0.146230,0.014259,0.987293,-0.060544 ShoulderLeft:0.044377,0.773256,-0.631882,-0.028810 ShoulderRight:-0.154724,0.704096,0.665036,-0.195027 SpineBase:-0.081443,0.010198,0.996511,-0.015133 SpineMid:-0.113487,0.010680,0.993372,-0.014797 SpineShoulder:-0.146316,0.012334,0.988470,-0.036968 ThumbLeft:0.000000,0.000000,0.000000,0.000000 ThumbRight:0.000000,0.000000,0.000000,0.000000 WristLeft:-0.102699,0.725462,-0.127502,0.668506 WristRight:-0.186895,0.568308,-0.538292,0.593580 END:
