EastLYD/RoboCupatHomeSim/InteractiveCleanUp/JapanOpen2016/Motion_Data/File61.dat
KINECT_DATA POSITION:3.539919,-0.348622,-6.371164 HEAD_JOINT1:0.982898,0.148532,-0.000000,0.108852 LARM_JOINT2:0.835986,0.000000,-0.019524,-0.548404 LARM_JOINT3:0.972101,0.000000,-0.186807,-0.141852 LLEG_JOINT2:0.998952,0.016136,0.000000,0.042837 LLEG_JOINT4:0.995659,0.087593,0.000000,-0.031474 RARM_JOINT2:0.819922,0.000000,-0.076450,0.567347 RARM_JOINT3:0.965074,0.000000,0.237308,0.110979 RLEG_JOINT2:0.999484,0.014229,0.000000,-0.028812 RLEG_JOINT4:0.995251,0.090114,0.000000,0.036806 WAIST:0.999996,0.000000,-0.001568,-0.002174 WAIST_JOINT0:0.999685,0.000000,-0.024545,0.005192 WAIST_JOINT1:0.996941,0.076585,0.000000,-0.015597 END:
KINECT_DATA_Sensor  AnkleLeft:0.073175,0.758252,-0.073856,-0.643618 AnkleRight:0.083616,0.757237,0.062491,0.644744 ElbowLeft:-0.035845,0.873680,-0.190745,-0.446110 ElbowRight:0.000399,0.793734,0.237161,0.560126 FootLeft:0.000000,0.000000,0.000000,0.000000 FootRight:0.000000,0.000000,0.000000,0.000000 HandLeft:-0.128185,0.834746,-0.018484,0.535188 HandRight:-0.089767,0.989977,0.101139,-0.040712 HandTipLeft:0.000000,0.000000,0.000000,0.000000 HandTipRight:0.000000,0.000000,0.000000,0.000000 Head:0.000000,0.000000,0.000000,0.000000 HipLeft:0.111299,-0.680535,0.704611,-0.167356 HipRight:-0.110569,0.673464,0.708036,-0.181397 KneeLeft:-0.017423,0.707347,-0.040130,-0.705511 KneeRight:-0.011754,0.706594,0.032005,0.706797 Neck:0.022330,-0.020718,0.995263,-0.092329 ShoulderLeft:0.036950,0.775818,-0.626615,0.063991 ShoulderRight:0.067294,0.778352,0.623620,-0.027177 SpineBase:0.000959,-0.015926,0.998521,-0.051982 SpineMid:0.011409,-0.016469,0.998456,-0.051813 SpineShoulder:0.022168,-0.018727,0.997052,-0.071030 ThumbLeft:0.000000,0.000000,0.000000,0.000000 ThumbRight:0.000000,0.000000,0.000000,0.000000 WristLeft:-0.077197,0.846329,-0.108247,0.515801 WristRight:-0.111903,0.987720,0.100220,-0.042928 END:
KINECT_DATA POSITION:3.492986,-0.365587,-6.320274 HEAD_JOINT1:0.982782,0.149220,-0.000000,0.108967 LARM_JOINT2:0.836281,0.000000,-0.018776,-0.547980 LARM_JOINT3:0.972383,0.000000,-0.187420,-0.139090 LLEG_JOINT2:0.998926,0.016279,0.000000,0.043372 LLEG_JOINT4:0.995619,0.087441,0.000000,-0.033121 RARM_JOINT2:0.819659,0.000000,-0.076494,0.567722 RARM_JOINT3:0.965345,0.000000,0.235151,0.113196 RLEG_JOINT2:0.999499,0.013846,0.000000,-0.028466 RLEG_JOINT4:0.995046,0.090699,0.000000,0.040716 WAIST:0.999995,0.000000,-0.002032,-0.002401 WAIST_JOINT0:0.999661,0.000000,-0.025557,0.004894 WAIST_JOINT1:0.996950,0.076499,0.000000,-0.015419 END:
KINECT_DATA_Sensor  AnkleLeft:0.070039,0.723428,-0.076673,-0.682545 AnkleRight:0.080955,0.698566,0.066703,0.707815 ElbowLeft:-0.035694,0.873790,-0.191400,-0.445626 ElbowRight:0.000393,0.792797,0.236797,0.561605 FootLeft:0.000000,0.000000,0.000000,0.000000 FootRight:0.000000,0.000000,0.000000,0.000000 HandLeft:-0.124753,0.855348,-0.025646,0.502155 HandRight:-0.072009,0.978973,0.099428,-0.162912 HandTipLeft:0.000000,0.000000,0.000000,0.000000 HandTipRight:0.000000,0.000000,0.000000,0.000000 Head:0.000000,0.000000,0.000000,0.000000 HipLeft:0.111729,-0.680590,0.704421,-0.167645 HipRight:-0.110520,0.673359,0.708216,-0.181117 KneeLeft:-0.017558,0.707690,-0.040441,-0.705146 KneeRight:-0.011929,0.706256,0.031654,0.707148 Neck:0.023330,-0.020796,0.995245,-0.092248 ShoulderLeft:0.036729,0.776252,-0.626059,0.064294 ShoulderRight:0.068331,0.778468,0.623415,-0.025926 SpineBase:0.001442,-0.015902,0.998527,-0.051858 SpineMid:0.012152,-0.016457,0.998454,-0.051685 SpineShoulder:0.023172,-0.018770,0.997035,-0.070937 ThumbLeft:0.000000,0.000000,0.000000,0.000000 ThumbRight:0.000000,0.000000,0.000000,0.000000 WristLeft:-0.080885,0.863993,-0.105472,0.485644 WristRight:-0.098058,0.974924,0.113816,-0.164175 END:
KINECT_DATA POSITION:3.484696,-0.369044,-6.299376 HEAD_JOINT1:0.982684,0.149485,-0.000000,0.109481 LARM_JOINT2:0.836275,0.000000,-0.018753,-0.547989 LARM_JOINT3:0.973629,0.000000,-0.181136,-0.138695 LLEG_JOINT2:0.998913,0.016757,0.000000,0.043493 LLEG_JOINT4:0.995497,0.088693,0.000000,-0.033461 RARM_JOINT2:0.819340,0.000000,-0.075760,0.568281 RARM_JOINT3:0.965723,0.000000,0.232474,0.115479 RLEG_JOINT2:0.999506,0.013933,0.000000,-0.028174 RLEG_JOINT4:0.995237,0.089899,0.000000,0.037691 WAIST:0.999994,0.000000,-0.002574,-0.002269 WAIST_JOINT0:0.999643,0.000000,-0.026255,0.004870 WAIST_JOINT1:0.996954,0.076414,0.000000,-0.015639 END:
KINECT_DATA_Sensor  AnkleLeft:0.073127,0.739484,-0.076122,-0.664847 AnkleRight:0.084028,0.754793,0.061229,0.647672 ElbowLeft:-0.035934,0.873744,-0.191243,-0.445765 ElbowRight:0.000185,0.792569,0.235999,0.562262 FootLeft:0.000000,0.000000,0.000000,0.000000 FootRight:0.000000,0.000000,0.000000,0.000000 HandLeft:-0.100444,0.854829,-0.015615,0.508857 HandRight:-0.058041,0.952262,0.094804,-0.284326 HandTipLeft:0.000000,0.000000,0.000000,0.000000 HandTipRight:0.000000,0.000000,0.000000,0.000000 Head:0.000000,0.000000,0.000000,0.000000 HipLeft:0.112146,-0.680473,0.704424,-0.167829 HipRight:-0.110275,0.673551,0.708161,-0.180766 KneeLeft:-0.017422,0.708078,-0.040947,-0.704731 KneeRight:-0.011552,0.705886,0.031420,0.707534 Neck:0.023964,-0.020848,0.995238,-0.092158 ShoulderLeft:0.037178,0.776053,-0.626309,0.064004 ShoulderRight:0.069604,0.778218,0.623638,-0.024658 SpineBase:0.001969,-0.015921,0.998533,-0.051724 SpineMid:0.012733,-0.016478,0.998453,-0.051549 SpineShoulder:0.023805,-0.018824,0.997024,-0.070862 ThumbLeft:0.000000,0.000000,0.000000,0.000000 ThumbRight:0.000000,0.000000,0.000000,0.000000 WristLeft:-0.079777,0.859925,-0.106368,0.492799 WristRight:-0.081945,0.947131,0.125237,-0.283802 END:
KINECT_DATA POSITION:3.489404,-0.382883,-6.278312 HEAD_JOINT1:0.982585,0.151663,-0.000000,0.107354 LARM_JOINT2:0.834966,0.000000,-0.015007,-0.550096 LARM_JOINT3:0.973182,0.000000,-0.184435,-0.137482 LLEG_JOINT2:0.998919,0.016956,0.000000,0.043287 LLEG_JOINT4:0.995626,0.087634,0.000000,-0.032385 RARM_JOINT2:0.819733,0.000000,-0.071882,0.568218 RARM_JOINT3:0.960168,0.000000,0.250660,0.123476 RLEG_JOINT2:0.999497,0.014914,0.000000,-0.027988 RLEG_JOINT4:0.995345,0.089604,0.000000,0.035477 WAIST:0.999994,0.000000,-0.002493,-0.002300 WAIST_JOINT0:0.999672,0.000000,-0.025114,0.005060 WAIST_JOINT1:0.997116,0.074383,0.000000,-0.015075 END:
KINECT_DATA_Sensor  AnkleLeft:0.071407,0.734960,-0.076663,-0.669968 AnkleRight:0.077788,0.699560,0.069819,0.706888 ElbowLeft:-0.035862,0.869176,-0.189918,-0.455169 ElbowRight:-0.001577,0.799144,0.233120,0.554095 FootLeft:0.000000,0.000000,0.000000,0.000000 FootRight:0.000000,0.000000,0.000000,0.000000 HandLeft:-0.105454,0.820362,-0.021763,0.561616 HandRight:-0.135176,0.948062,0.096076,-0.271433 HandTipLeft:0.000000,0.000000,0.000000,0.000000 HandTipRight:0.000000,0.000000,0.000000,0.000000 Head:0.000000,0.000000,0.000000,0.000000 HipLeft:0.112601,-0.680585,0.704340,-0.167424 HipRight:-0.110957,0.673619,0.708089,-0.180377 KneeLeft:-0.017109,0.708063,-0.040924,-0.704755 KneeRight:-0.010749,0.705904,0.031999,0.707503 Neck:0.022971,-0.020026,0.995519,-0.089518 ShoulderLeft:0.035528,0.775754,-0.626893,0.062847 ShoulderRight:0.066620,0.778574,0.623500,-0.025124 SpineBase:0.001915,-0.015730,0.998574,-0.050982 SpineMid:0.012207,-0.016254,0.998501,-0.050817 SpineShoulder:0.022807,-0.018252,0.997184,-0.069064 ThumbLeft:0.000000,0.000000,0.000000,0.000000 ThumbRight:0.000000,0.000000,0.000000,0.000000 WristLeft:-0.074473,0.828210,-0.113227,0.543785 WristRight:-0.091874,0.952780,0.118760,-0.263943 END:
KINECT_DATA POSITION:3.645925,-0.428806,-6.063545 HEAD_JOINT1:0.984745,0.149155,-0.000000,0.089606 LARM_JOINT2:0.830199,0.000000,-0.008461,-0.557402 LARM_JOINT3:0.973716,0.000000,-0.187545,-0.129241 LLEG_JOINT2:0.999032,0.016920,0.000000,0.040613 LLEG_JOINT4:0.995952,0.085039,0.000000,-0.029120 RARM_JOINT2:0.827447,0.000000,-0.047856,0.559501 RARM_JOINT3:0.960564,0.000000,0.244675,0.132103 RLEG_JOINT2:0.999383,0.016601,0.000000,-0.030940 RLEG_JOINT4:0.995078,0.091692,0.000000,0.037591 WAIST:0.999966,0.000000,0.008278,-0.000612 WAIST_JOINT0:0.999937,-0.000000,0.000304,0.011226 WAIST_JOINT1:0.997656,0.067661,0.000000,-0.010219 END:
KINECT_DATA_Sensor  AnkleLeft:0.068815,0.728538,-0.075804,-0.677312 AnkleRight:0.080959,0.713144,0.071984,0.692596 ElbowLeft:-0.039855,0.847704,-0.186987,-0.494819 ElbowRight:-0.018815,0.831706,0.224443,0.507481 FootLeft:0.000000,0.000000,0.000000,0.000000 FootRight:0.000000,0.000000,0.000000,0.000000 HandLeft:-0.086665,0.804658,-0.024969,0.586849 HandRight:-0.180462,0.974382,0.068575,-0.115375 HandTipLeft:0.000000,0.000000,0.000000,0.000000 HandTipRight:0.000000,0.000000,0.000000,0.000000 Head:0.000000,0.000000,0.000000,0.000000 HipLeft:0.109713,-0.681098,0.705798,-0.160989 HipRight:-0.122562,0.673767,0.704844,-0.184964 KneeLeft:0.015983,-0.700581,0.040387,0.712249 KneeRight:-0.010809,0.713315,0.033976,0.699936 Neck:-0.002250,-0.011668,0.996592,-0.081630 ShoulderLeft:0.050994,0.775061,-0.628755,0.036706 ShoulderRight:0.049403,0.784738,0.616642,-0.038705 SpineBase:-0.008768,-0.012260,0.998785,-0.046924 SpineMid:-0.005769,-0.012401,0.998807,-0.046887 SpineShoulder:-0.002484,-0.011818,0.997944,-0.062948 ThumbLeft:0.000000,0.000000,0.000000,0.000000 ThumbRight:0.000000,0.000000,0.000000,0.000000 WristLeft:-0.073866,0.809983,-0.130671,0.566918 WristRight:-0.124931,0.982465,0.086363,-0.108146 END:
KINECT_DATA POSITION:3.835852,-0.470358,-5.877960 HEAD_JOINT1:0.985905,0.149630,-0.000000,0.074855 LARM_JOINT2:0.825445,0.000000,0.019385,-0.564149 LARM_JOINT3:0.973190,0.000000,-0.195452,-0.121241 LLEG_JOINT2:0.999125,0.017057,0.000000,0.038196 LLEG_JOINT4:0.996276,0.081406,0.000000,-0.028396 RARM_JOINT2:0.835825,0.000000,-0.013046,0.548841 RARM_JOINT3:0.950100,0.000000,0.280453,0.136584 RLEG_JOINT2:0.999316,0.017671,0.000000,-0.032479 RLEG_JOINT4:0.994683,0.095572,0.000000,0.038372 WAIST:0.999787,-0.000000,0.020620,0.000482 WAIST_JOINT0:0.999633,-0.000000,0.022609,0.014946 WAIST_JOINT1:0.998020,0.062689,0.000000,-0.005063 END:
KINECT_DATA_Sensor  AnkleLeft:-0.064463,-0.691708,0.074925,0.715381 AnkleRight:0.084163,0.724772,0.075798,0.679615 ElbowLeft:-0.028261,0.818617,-0.193777,-0.539924 ElbowRight:-0.048115,0.854382,0.213901,0.471130 FootLeft:0.000000,0.000000,0.000000,0.000000 FootRight:0.000000,0.000000,0.000000,0.000000 HandLeft:-0.067115,0.756281,-0.043048,0.649370 HandRight:-0.248922,0.839406,0.173991,-0.450736 HandTipLeft:0.000000,0.000000,0.000000,0.000000 HandTipRight:0.000000,0.000000,0.000000,0.000000 Head:0.000000,0.000000,0.000000,0.000000 HipLeft:0.104718,-0.682028,0.707407,-0.153123 HipRight:-0.134373,0.673404,0.701973,-0.188959 KneeLeft:0.014468,-0.691944,0.039714,0.720713 KneeRight:-0.010826,0.721718,0.034908,0.691222 Neck:-0.024034,-0.005410,0.996712,-0.077192 ShoulderLeft:0.059003,0.774449,-0.629609,0.018453 ShoulderRight:0.029313,0.788511,0.611872,-0.054809 SpineBase:-0.020939,-0.007828,0.998832,-0.042839 SpineMid:-0.022684,-0.007753,0.998794,-0.042853 SpineShoulder:-0.024209,-0.005727,0.998013,-0.057881 ThumbLeft:0.000000,0.000000,0.000000,0.000000 ThumbRight:0.000000,0.000000,0.000000,0.000000 WristLeft:-0.048127,0.761822,-0.143658,0.629820 WristRight:-0.136459,0.867188,0.124506,-0.462452 END:
KINECT_DATA POSITION:3.838678,-0.507389,-5.851281 HEAD_JOINT1:0.987063,0.147011,-0.000000,0.063993 LARM_JOINT2:0.823487,0.000000,0.018988,-0.567017 LARM_JOINT3:0.967398,0.000000,-0.214307,-0.134960 LLEG_JOINT2:0.999211,0.015946,0.000000,0.036375 LLEG_JOINT4:0.996072,0.084302,0.000000,-0.027076 RARM_JOINT2:0.835948,0.000000,0.109994,0.537673 RARM_JOINT3:0.946413,0.000000,0.294522,0.132513 RLEG_JOINT2:0.999273,0.017765,0.000000,-0.033729 RLEG_JOINT4:0.994711,0.094157,0.000000,0.041048 WAIST:0.999725,-0.000000,0.023421,0.001393 WAIST_JOINT0:0.999140,-0.000000,0.036994,0.018717 WAIST_JOINT1:0.998227,0.059505,0.000000,-0.001317 END:
KINECT_DATA_Sensor  AnkleLeft:0.070250,0.732378,-0.072062,-0.673420 AnkleRight:0.086579,0.744391,0.071180,0.658270 ElbowLeft:-0.029595,0.821444,-0.193339,-0.535699 ElbowRight:-0.126293,0.892807,0.163752,0.400164 FootLeft:0.000000,0.000000,0.000000,0.000000 FootRight:0.000000,0.000000,0.000000,0.000000 HandLeft:-0.171172,0.781045,-0.054890,0.598044 HandRight:-0.306958,0.721124,0.215628,-0.582461 HandTipLeft:0.000000,0.000000,0.000000,0.000000 HandTipRight:0.000000,0.000000,0.000000,0.000000 Head:0.000000,0.000000,0.000000,0.000000 HipLeft:0.103698,-0.682294,0.708038,-0.149682 HipRight:-0.138858,0.674840,0.700357,-0.186575 KneeLeft:0.014544,-0.690047,0.038315,0.722603 KneeRight:-0.011127,0.723525,0.035161,0.689313 Neck:-0.038305,-0.000673,0.996462,-0.074806 ShoulderLeft:0.057817,0.772001,-0.632879,0.011657 ShoulderRight:0.009776,0.792027,0.606378,-0.070019 SpineBase:-0.023606,-0.003324,0.998947,-0.039190 SpineMid:-0.031027,-0.003033,0.998744,-0.039214 SpineShoulder:-0.038355,-0.000356,0.997775,-0.054523 ThumbLeft:0.000000,0.000000,0.000000,0.000000 ThumbRight:0.000000,0.000000,0.000000,0.000000 WristLeft:-0.061134,0.806166,-0.139371,0.571783 WristRight:-0.217955,0.748084,0.152267,-0.608014 END:
KINECT_DATA POSITION:3.857493,-0.576287,-5.818951 HEAD_JOINT1:0.987746,0.145337,-0.000000,0.056880 LARM_JOINT2:0.822946,0.000000,0.015800,-0.567899 LARM_JOINT3:0.967477,0.000000,-0.217332,-0.129443 LLEG_JOINT2:0.999297,0.015349,0.000000,0.034196 LLEG_JOINT4:0.995990,0.085994,0.000000,-0.024696 RARM_JOINT2:0.833844,0.000000,0.174942,0.523545 RARM_JOINT3:0.940355,0.000000,0.319291,0.117411 RLEG_JOINT2:0.999233,0.017211,0.000000,-0.035172 RLEG_JOINT4:0.994356,0.097928,0.000000,0.040810 WAIST:0.999680,-0.000000,0.025176,0.002572 WAIST_JOINT0:0.998730,-0.000000,0.045276,0.022105 WAIST_JOINT1:0.998241,0.059263,-0.000000,0.001468 END:
KINECT_DATA_Sensor  AnkleLeft:0.069197,0.720836,-0.074735,-0.685582 AnkleRight:0.089819,0.757853,0.072163,0.642171 ElbowLeft:-0.031904,0.823881,-0.194652,-0.531332 ElbowRight:-0.174924,0.888740,0.130782,0.403036 FootLeft:0.000000,0.000000,0.000000,0.000000 FootRight:0.000000,0.000000,0.000000,0.000000 HandLeft:-0.154561,0.777127,-0.090535,0.603314 HandRight:-0.361427,0.716819,0.189569,-0.565336 HandTipLeft:0.000000,0.000000,0.000000,0.000000 HandTipRight:0.000000,0.000000,0.000000,0.000000 Head:0.000000,0.000000,0.000000,0.000000 HipLeft:0.102353,-0.681726,0.709090,-0.148206 HipRight:-0.141036,0.675809,0.699224,-0.185680 KneeLeft:0.014241,-0.688828,0.037182,0.723830 KneeRight:-0.011788,0.724689,0.034900,0.688091 Neck:-0.046777,0.003858,0.996093,-0.074807 ShoulderLeft:0.056390,0.769229,-0.636394,0.010424 ShoulderRight:-0.002778,0.793631,0.602896,-0.081595 SpineBase:-0.025321,-0.000112,0.998958,-0.037980 SpineMid:-0.036071,0.000296,0.998627,-0.037979 SpineShoulder:-0.046786,0.003806,0.997427,-0.054180 ThumbLeft:0.000000,0.000000,0.000000,0.000000 ThumbRight:0.000000,0.000000,0.000000,0.000000 WristLeft:-0.062880,0.794497,-0.142167,0.587034 WristRight:-0.293195,0.741323,0.165921,-0.580471 END:
KINECT_DATA POSITION:3.925575,-0.626027,-5.782390 HEAD_JOINT1:0.987433,0.148686,-0.000000,0.053556 LARM_JOINT2:0.823936,0.000000,0.015044,-0.566483 LARM_JOINT3:0.970776,0.000000,-0.203680,-0.126918 LLEG_JOINT2:0.999352,0.015098,0.000000,0.032662 LLEG_JOINT4:0.996070,0.085770,0.000000,-0.022102 RARM_JOINT2:0.838375,0.000000,0.201740,0.506388 RARM_JOINT3:0.928600,0.000000,0.350840,0.120885 RLEG_JOINT2:0.999194,0.014338,0.000000,-0.037492 RLEG_JOINT4:0.993631,0.103704,0.000000,0.044078 WAIST:0.999627,-0.000000,0.027147,0.003041 WAIST_JOINT0:0.998344,-0.000000,0.052151,0.024274 WAIST_JOINT1:0.998154,0.060653,-0.000000,0.003094 END:
KINECT_DATA_Sensor  AnkleLeft:0.067973,0.719533,-0.075457,-0.686992 AnkleRight:0.089975,0.734196,0.076664,0.668569 ElbowLeft:-0.031789,0.825049,-0.198481,-0.528099 ElbowRight:-0.201271,0.881422,0.123114,0.409180 FootLeft:0.000000,0.000000,0.000000,0.000000 FootRight:0.000000,0.000000,0.000000,0.000000 HandLeft:-0.088687,0.811903,-0.069100,0.572865 HandRight:0.378272,-0.678162,-0.178410,0.604298 HandTipLeft:0.000000,0.000000,0.000000,0.000000 HandTipRight:0.000000,0.000000,0.000000,0.000000 Head:0.000000,0.000000,0.000000,0.000000 HipLeft:0.100267,-0.681581,0.709773,-0.147023 HipRight:-0.142463,0.676101,0.698685,-0.185557 KneeLeft:0.013629,-0.687467,0.036252,0.725182 KneeRight:-0.015195,0.725926,0.034050,0.686761 Neck:-0.053789,0.006230,0.995599,-0.076494 ShoulderLeft:0.058821,0.766912,-0.638993,0.008542 ShoulderRight:-0.009564,0.793297,0.602023,-0.090312 SpineBase:-0.027232,0.002277,0.998913,-0.037762 SpineMid:-0.040478,0.002778,0.998464,-0.037728 SpineShoulder:-0.053777,0.006049,0.996995,-0.055436 ThumbLeft:0.000000,0.000000,0.000000,0.000000 ThumbRight:0.000000,0.000000,0.000000,0.000000 WristLeft:-0.067121,0.814634,-0.140478,0.558688 WristRight:-0.339891,0.698357,0.191350,-0.600131 END:
KINECT_DATA POSITION:4.131316,-0.672584,-5.584443 HEAD_JOINT1:0.985068,0.163262,-0.000000,0.054643 LARM_JOINT2:0.823805,0.000000,0.015132,-0.566671 LARM_JOINT3:0.969701,0.000000,-0.205670,-0.131836 LLEG_JOINT2:0.999518,0.015090,0.000000,0.027137 LLEG_JOINT4:0.996233,0.084146,0.000000,-0.020948 RARM_JOINT2:0.825660,0.000000,0.331723,0.456339 RARM_JOINT3:0.938304,0.000000,0.318627,0.134394 RLEG_JOINT2:0.998951,0.015365,0.000000,-0.043139 RLEG_JOINT4:0.993329,0.105365,0.000000,0.046858 WAIST:0.999548,-0.000000,0.029481,0.005867 WAIST_JOINT0:0.997851,-0.000000,0.059521,0.027408 WAIST_JOINT1:0.998114,0.061358,-0.000000,0.002053 END:
KINECT_DATA_Sensor  AnkleLeft:-0.062843,-0.670994,0.077356,0.734734 AnkleRight:0.092493,0.742943,0.077658,0.658369 ElbowLeft:-0.030816,0.825191,-0.200318,-0.527241 ElbowRight:-0.283276,0.919601,0.097547,0.254114 FootLeft:0.000000,0.000000,0.000000,0.000000 FootRight:0.000000,0.000000,0.000000,0.000000 HandLeft:-0.098381,0.730169,-0.076543,0.671800 HandRight:0.455860,-0.643199,-0.166025,0.592386 HandTipLeft:0.000000,0.000000,0.000000,0.000000 HandTipRight:0.000000,0.000000,0.000000,0.000000 Head:0.000000,0.000000,0.000000,0.000000 HipLeft:0.098582,-0.679892,0.711953,-0.145435 HipRight:-0.144585,0.677925,0.696482,-0.185543 KneeLeft:0.011766,-0.685759,0.034249,0.726927 KneeRight:-0.016683,0.727544,0.036638,0.684878 Neck:-0.061269,0.008242,0.995099,-0.077174 ShoulderLeft:0.060543,0.764242,-0.642050,0.006437 ShoulderRight:-0.017741,0.792981,0.600827,-0.099366 SpineBase:-0.029648,0.005579,0.998860,-0.036984 SpineMid:-0.045327,0.006159,0.998272,-0.036891 SpineShoulder:-0.061238,0.007966,0.996519,-0.056007 ThumbLeft:0.000000,0.000000,0.000000,0.000000 ThumbRight:0.000000,0.000000,0.000000,0.000000 WristLeft:-0.047173,0.740027,-0.146992,0.654621 WristRight:0.384723,-0.668689,-0.145610,0.619388 END:
KINECT_DATA POSITION:4.375242,-0.713522,-5.414402 HEAD_JOINT1:0.980953,0.185953,-0.000000,0.056149 LARM_JOINT2:0.822934,0.000000,0.013596,-0.567974 LARM_JOINT3:0.970748,0.000000,-0.202062,-0.129690 LLEG_JOINT2:0.999701,0.014697,0.000000,0.019539 LLEG_JOINT4:0.996131,0.086327,0.000000,-0.016440 RARM_JOINT2:0.849054,0.000000,0.374727,0.372406 RARM_JOINT3:0.936920,0.000000,0.270192,0.221759 RLEG_JOINT2:0.998544,0.018313,0.000000,-0.050744 RLEG_JOINT4:0.993526,0.100734,0.000000,0.052525 WAIST:0.999460,-0.000000,0.031285,0.010010 WAIST_JOINT0:0.997042,-0.000000,0.069232,0.033368 WAIST_JOINT1:0.998051,0.062398,-0.000000,0.000580 END:
KINECT_DATA_Sensor  AnkleLeft:0.070498,0.734907,-0.072939,-0.670538 AnkleRight:0.093001,0.747743,0.074448,0.653214 ElbowLeft:-0.029961,0.827474,-0.201349,-0.523305 ElbowRight:-0.322171,0.925095,0.196020,0.044504 FootLeft:0.000000,0.000000,0.000000,0.000000 FootRight:0.000000,0.000000,0.000000,0.000000 HandLeft:-0.087904,0.788195,-0.074810,0.604504 HandRight:0.412709,-0.666925,-0.143995,0.603446 HandTipLeft:0.000000,0.000000,0.000000,0.000000 HandTipRight:0.000000,0.000000,0.000000,0.000000 Head:0.000000,0.000000,0.000000,0.000000 HipLeft:0.097047,-0.677161,0.714886,-0.144819 HipRight:-0.146132,0.680426,0.693473,-0.186441 KneeLeft:0.009732,-0.684366,0.031382,0.728398 KneeRight:-0.017341,0.728913,0.041036,0.683155 Neck:-0.071274,0.011635,0.994317,-0.078223 ShoulderLeft:0.062900,0.759159,-0.647846,0.004017 ShoulderRight:-0.028794,0.793221,0.597948,-0.111488 SpineBase:-0.031635,0.008846,0.998772,-0.037079 SpineMid:-0.051241,0.009573,0.997958,-0.036899 SpineShoulder:-0.071238,0.010895,0.995783,-0.056762 ThumbLeft:0.000000,0.000000,0.000000,0.000000 ThumbRight:0.000000,0.000000,0.000000,0.000000 WristLeft:-0.057733,0.792450,-0.140691,0.590674 WristRight:0.334331,-0.685413,-0.090661,0.640478 END:
KINECT_DATA POSITION:4.727180,-0.767361,-5.254745 HEAD_JOINT1:0.974916,0.215991,-0.000000,0.053736 LARM_JOINT2:0.822241,0.000000,0.013354,-0.568983 LARM_JOINT3:0.974287,0.000000,-0.184122,-0.129861 LLEG_JOINT2:0.999860,0.014582,0.000000,0.008170 LLEG_JOINT4:0.996007,0.088252,0.000000,-0.013447 RARM_JOINT2:0.797865,0.000000,0.399669,0.451304 RARM_JOINT3:0.960538,0.000000,0.255667,0.109548 RLEG_JOINT2:0.997779,0.023060,0.000000,-0.062494 RLEG_JOINT4:0.993791,0.095506,0.000000,0.057078 WAIST:0.999123,-0.000000,0.038020,0.017547 WAIST_JOINT0:0.995520,-0.000000,0.085198,0.041014 WAIST_JOINT1:0.997949,0.064005,0.000000,-0.001366 END:
KINECT_DATA_Sensor  AnkleLeft:0.072323,0.727279,-0.073037,-0.678602 AnkleRight:0.092538,0.755926,0.073691,0.643881 ElbowLeft:-0.027061,0.829612,-0.206166,-0.518178 ElbowRight:-0.310694,0.927103,0.041907,0.205410 FootLeft:0.000000,0.000000,0.000000,0.000000 FootRight:0.000000,0.000000,0.000000,0.000000 HandLeft:-0.059225,0.837368,-0.050211,0.541096 HandRight:0.426887,-0.638766,-0.152533,0.621674 HandTipLeft:0.000000,0.000000,0.000000,0.000000 HandTipRight:0.000000,0.000000,0.000000,0.000000 Head:0.000000,0.000000,0.000000,0.000000 HipLeft:0.092587,-0.672749,0.720073,-0.142589 HipRight:-0.150864,0.684381,0.687181,-0.191429 KneeLeft:0.007264,-0.679232,0.028307,0.733341 KneeRight:-0.017707,0.733835,0.047029,0.677466 Neck:-0.087691,0.017900,0.992810,-0.079482 ShoulderLeft:0.069399,0.747051,-0.661134,-0.000881 ShoulderRight:-0.045243,0.788096,0.600016,-0.129764 SpineBase:-0.038748,0.013737,0.998435,-0.037917 SpineMid:-0.062936,0.014652,0.997202,-0.037573 SpineShoulder:-0.087628,0.016461,0.994333,-0.057892 ThumbLeft:0.000000,0.000000,0.000000,0.000000 ThumbRight:0.000000,0.000000,0.000000,0.000000 WristLeft:-0.052143,0.836876,-0.133350,0.528334 WristRight:0.386867,-0.653542,-0.144636,0.634269 END:
KINECT_DATA POSITION:4.980549,-0.849485,-5.130053 HEAD_JOINT1:0.972553,0.227770,-0.000000,0.047550 LARM_JOINT2:0.821188,0.000000,0.021896,-0.570237 LARM_JOINT3:0.973630,0.000000,-0.184182,-0.134618 LLEG_JOINT2:0.999898,0.014299,0.000000,0.000647 LLEG_JOINT4:0.995955,0.089334,0.000000,-0.009646 RARM_JOINT2:0.821513,0.000000,0.445767,0.355539 RARM_JOINT3:0.950901,0.000000,0.216183,0.221479 RLEG_JOINT2:0.997200,0.026903,0.000000,-0.069779 RLEG_JOINT4:0.993774,0.095861,0.000000,0.056785 WAIST:0.998732,-0.000000,0.044949,0.022678 WAIST_JOINT0:0.993657,-0.000000,0.102096,0.047130 WAIST_JOINT1:0.997899,0.064757,0.000000,-0.002241 END:
KINECT_DATA_Sensor  AnkleLeft:-0.064050,-0.645847,0.081187,0.756431 AnkleRight:0.093530,0.764412,0.078121,0.633107 ElbowLeft:-0.020723,0.823104,-0.211881,-0.526475 ElbowRight:-0.353178,0.913536,0.179206,-0.092751 FootLeft:0.000000,0.000000,0.000000,0.000000 FootRight:0.000000,0.000000,0.000000,0.000000 HandLeft:-0.064041,0.868897,-0.040608,0.489150 HandRight:0.416450,-0.606927,-0.172461,0.654573 HandTipLeft:0.000000,0.000000,0.000000,0.000000 HandTipRight:0.000000,0.000000,0.000000,0.000000 Head:0.000000,0.000000,0.000000,0.000000 HipLeft:0.088665,-0.669671,0.723836,-0.140500 HipRight:-0.156095,0.686439,0.682562,-0.196327 KneeLeft:0.005922,-0.673993,0.026155,0.738251 KneeRight:-0.017261,0.738810,0.050959,0.671762 Neck:-0.104871,0.022556,0.991020,-0.079833 ShoulderLeft:0.075950,0.739084,-0.669276,-0.007427 ShoulderRight:-0.062652,0.784922,0.598471,-0.147665 SpineBase:-0.045936,0.017294,0.998048,-0.038613 SpineMid:-0.075048,0.018414,0.996282,-0.038091 SpineShoulder:-0.104775,0.020821,0.992576,-0.058151 ThumbLeft:0.000000,0.000000,0.000000,0.000000 ThumbRight:0.000000,0.000000,0.000000,0.000000 WristLeft:-0.051190,0.868680,-0.130310,0.475178 WristRight:0.318664,-0.624739,-0.080903,0.708243 END:
KINECT_DATA POSITION:5.177621,-0.940476,-5.009305 HEAD_JOINT1:0.972569,0.229496,-0.000000,0.037961 LARM_JOINT2:0.819451,0.000000,0.029286,-0.572401 LARM_JOINT3:0.972374,0.000000,-0.187964,-0.138414 LLEG_JOINT2:0.999871,0.013857,0.000000,-0.008090 LLEG_JOINT4:0.996142,0.087645,0.000000,-0.004344 RARM_JOINT2:0.793861,0.000000,0.415949,0.443590 RARM_JOINT3:0.970319,0.000000,0.218924,0.102733 RLEG_JOINT2:0.996448,0.031556,0.000000,-0.078075 RLEG_JOINT4:0.994210,0.091481,0.000000,0.056374 WAIST:0.998205,-0.000000,0.052114,0.029510 WAIST_JOINT0:0.991730,-0.000000,0.117161,0.052390 WAIST_JOINT1:0.997807,0.066086,0.000000,-0.003596 END:
KINECT_DATA_Sensor  AnkleLeft:-0.060028,-0.637386,0.081604,0.763856 AnkleRight:0.091802,0.772211,0.079535,0.623648 ElbowLeft:-0.013716,0.818927,-0.217369,-0.530962 ElbowRight:-0.318324,0.931829,0.026636,0.172206 FootLeft:0.000000,0.000000,0.000000,0.000000 FootRight:0.000000,0.000000,0.000000,0.000000 HandLeft:-0.066099,0.834602,-0.052480,0.544350 HandRight:0.395634,-0.578486,-0.163913,0.694233 HandTipLeft:0.000000,0.000000,0.000000,0.000000 HandTipRight:0.000000,0.000000,0.000000,0.000000 Head:0.000000,0.000000,0.000000,0.000000 HipLeft:0.084140,-0.665627,0.728519,-0.138277 HipRight:-0.160850,0.689532,0.676683,-0.201925 KneeLeft:0.005171,-0.668463,0.024124,0.743337 KneeRight:-0.015940,0.744066,0.054916,0.665655 Neck:-0.120496,0.028422,0.989034,-0.080529 ShoulderLeft:0.084595,0.730449,-0.677551,-0.014576 ShoulderRight:-0.076220,0.781108,0.598052,-0.162465 SpineBase:-0.053494,0.021343,0.997553,-0.039638 SpineMid:-0.086588,0.022648,0.995227,-0.038907 SpineShoulder:-0.120359,0.026219,0.990638,-0.058848 ThumbLeft:0.000000,0.000000,0.000000,0.000000 ThumbRight:0.000000,0.000000,0.000000,0.000000 WristLeft:-0.036758,0.836935,-0.131421,0.530017 WristRight:0.349831,-0.598179,-0.182524,0.697485 END:
KINECT_DATA POSITION:5.288754,-0.982776,-4.892862 HEAD_JOINT1:0.973311,0.227236,-0.000000,0.032093 LARM_JOINT2:0.819424,0.000000,0.028738,-0.572467 LARM_JOINT3:0.971666,0.000000,-0.188857,-0.142121 LLEG_JOINT2:0.999796,0.014480,0.000000,-0.014068 LLEG_JOINT4:0.996242,0.086607,0.000000,0.000759 RARM_JOINT2:0.790442,0.000000,0.429394,0.436832 RARM_JOINT3:0.973673,0.000000,0.201067,0.107390 RLEG_JOINT2:0.995760,0.037494,0.000000,-0.084002 RLEG_JOINT4:0.994413,0.090220,0.000000,0.054798 WAIST:0.997605,-0.000000,0.059815,0.034728 WAIST_JOINT0:0.990120,-0.000000,0.128391,0.056376 WAIST_JOINT1:0.997810,0.065955,0.000000,-0.005087 END:
KINECT_DATA_Sensor  AnkleLeft:0.069347,0.743833,-0.073682,-0.660662 AnkleRight:0.092547,0.777686,0.084672,0.616012 ElbowLeft:-0.012260,0.819672,-0.220308,-0.528631 ElbowRight:-0.326833,0.936586,0.027202,0.123475 FootLeft:0.000000,0.000000,0.000000,0.000000 FootRight:0.000000,0.000000,0.000000,0.000000 HandLeft:-0.076346,0.857471,-0.055099,0.505844 HandRight:0.383954,-0.564779,-0.170408,0.710328 HandTipLeft:0.000000,0.000000,0.000000,0.000000 HandTipRight:0.000000,0.000000,0.000000,0.000000 Head:0.000000,0.000000,0.000000,0.000000 HipLeft:0.080217,-0.662888,0.732061,-0.135020 HipRight:-0.166531,0.691610,0.671601,-0.207111 KneeLeft:0.004410,-0.662519,0.023631,0.748659 KneeRight:-0.013303,0.749652,0.059329,0.659033 Neck:-0.131982,0.032003,0.987517,-0.079794 ShoulderLeft:0.090451,0.725311,-0.682131,-0.020962 ShoulderRight:-0.086585,0.779389,0.596124,-0.172313 SpineBase:-0.061469,0.024404,0.997029,-0.039485 SpineMid:-0.096269,0.025768,0.994272,-0.038609 SpineShoulder:-0.131816,0.029584,0.989117,-0.058279 ThumbLeft:0.000000,0.000000,0.000000,0.000000 ThumbRight:0.000000,0.000000,0.000000,0.000000 WristLeft:-0.040643,0.860222,-0.129154,0.491616 WristRight:0.344635,-0.580180,-0.177422,0.716337 END:
KINECT_DATA POSITION:5.352736,-1.010450,-4.828334 HEAD_JOINT1:0.974497,0.223069,-0.000000,0.024402 LARM_JOINT2:0.818439,0.000000,0.026681,-0.573973 LARM_JOINT3:0.970537,0.000000,-0.190585,-0.147428 LLEG_JOINT2:0.999716,0.014890,0.000000,-0.018624 LLEG_JOINT4:0.996064,0.088626,0.000000,0.001381 RARM_JOINT2:0.781922,0.000000,0.435188,0.446330 RARM_JOINT3:0.976683,0.000000,0.194358,0.091193 RLEG_JOINT2:0.995158,0.041523,0.000000,-0.089090 RLEG_JOINT4:0.994704,0.085170,0.000000,0.057534 WAIST:0.997114,-0.000000,0.065348,0.038650 WAIST_JOINT0:0.988901,-0.000000,0.135744,0.060401 WAIST_JOINT1:0.997831,0.065740,0.000000,-0.003267 END:
KINECT_DATA_Sensor  AnkleLeft:-0.058839,-0.626385,0.084673,0.772665 AnkleRight:0.088259,0.752959,0.087155,0.646272 ElbowLeft:-0.012905,0.820572,-0.222978,-0.526095 ElbowRight:-0.322423,0.934475,-0.004502,0.150930 FootLeft:0.000000,0.000000,0.000000,0.000000 FootRight:0.000000,0.000000,0.000000,0.000000 HandLeft:-0.080212,0.763478,-0.071512,0.636831 HandRight:0.399974,-0.557946,-0.157089,0.709957 HandTipLeft:0.000000,0.000000,0.000000,0.000000 HandTipRight:0.000000,0.000000,0.000000,0.000000 Head:0.000000,0.000000,0.000000,0.000000 HipLeft:0.076959,-0.660672,0.734796,-0.132908 HipRight:-0.170943,0.693111,0.667793,-0.210779 KneeLeft:0.003881,-0.658246,0.023138,0.752438 KneeRight:-0.012142,0.753646,0.062741,0.654167 Neck:-0.139829,0.037882,0.986304,-0.078849 ShoulderLeft:0.094234,0.721483,-0.685509,-0.025678 ShoulderRight:-0.093912,0.780156,0.592098,-0.178764 SpineBase:-0.067181,0.027560,0.996576,-0.039542 SpineMid:-0.103048,0.028967,0.993508,-0.038523 SpineShoulder:-0.139614,0.034947,0.987901,-0.057776 ThumbLeft:0.000000,0.000000,0.000000,0.000000 ThumbRight:0.000000,0.000000,0.000000,0.000000 WristLeft:-0.018808,0.771478,-0.134944,0.621497 WristRight:0.348567,-0.580354,-0.182531,0.713003 END:
KINECT_DATA POSITION:5.524001,-1.035041,-4.803360 HEAD_JOINT1:0.976473,0.214410,-0.000000,0.022982 LARM_JOINT2:0.816360,0.000000,0.025543,-0.576979 LARM_JOINT3:0.970803,0.000000,-0.187657,-0.149421 LLEG_JOINT2:0.999423,0.015185,0.000000,-0.030392 LLEG_JOINT4:0.996094,0.087881,0.000000,0.008578 RARM_JOINT2:0.789370,0.000000,0.435147,0.433061 RARM_JOINT3:0.973466,0.000000,0.194709,0.120217 RLEG_JOINT2:0.993773,0.047348,0.000000,-0.100861 RLEG_JOINT4:0.994443,0.082194,0.000000,0.065780 WAIST:0.996098,-0.000000,0.074851,0.046766 WAIST_JOINT0:0.987115,-0.000000,0.145778,0.065971 WAIST_JOINT1:0.997761,0.066796,0.000000,-0.003493 END:
KINECT_DATA_Sensor  AnkleLeft:0.071854,0.759148,-0.073112,-0.642796 AnkleRight:0.090868,0.750591,0.087572,0.648604 ElbowLeft:-0.013123,0.814676,-0.226476,-0.533703 ElbowRight:-0.328901,0.939086,0.012152,0.098963 FootLeft:0.000000,0.000000,0.000000,0.000000 FootRight:0.000000,0.000000,0.000000,0.000000 HandLeft:-0.072699,0.859945,-0.048525,0.502846 HandRight:0.384996,-0.540653,-0.132147,0.736213 HandTipLeft:0.000000,0.000000,0.000000,0.000000 HandTipRight:0.000000,0.000000,0.000000,0.000000 Head:0.000000,0.000000,0.000000,0.000000 HipLeft:0.069576,-0.655262,0.741307,-0.127497 HipRight:-0.176972,0.696024,0.661461,-0.216105 KneeLeft:0.001772,-0.650784,0.019924,0.758999 KneeRight:-0.012350,0.760508,0.068754,0.645560 Neck:-0.150330,0.045417,0.984398,-0.079365 ShoulderLeft:0.102188,0.716795,-0.688933,-0.033659 ShoulderRight:-0.100286,0.781616,0.586810,-0.186209 SpineBase:-0.077124,0.032986,0.995677,-0.039896 SpineMid:-0.113219,0.034413,0.992221,-0.038673 SpineShoulder:-0.150023,0.042104,0.986074,-0.058130 ThumbLeft:0.000000,0.000000,0.000000,0.000000 ThumbRight:0.000000,0.000000,0.000000,0.000000 WristLeft:-0.039273,0.862324,-0.134530,0.486577 WristRight:0.353361,-0.558442,-0.167711,0.731540 END:
KINECT_DATA POSITION:5.770425,-0.996071,-4.873371 HEAD_JOINT1:0.976566,0.214041,-0.000000,0.022479 LARM_JOINT2:0.815068,0.000000,0.027866,-0.578695 LARM_JOINT3:0.970519,0.000000,-0.186147,-0.153110 LLEG_JOINT2:0.998784,0.016299,0.000000,-0.046526 LLEG_JOINT4:0.995636,0.091573,0.000000,0.017985 RARM_JOINT2:0.782396,0.000000,0.438031,0.442703 RARM_JOINT3:0.974122,0.000000,0.191500,0.120056 RLEG_JOINT2:0.992015,0.051996,0.000000,-0.114904 RLEG_JOINT4:0.994489,0.077093,0.000000,0.071050 WAIST:0.994835,-0.000000,0.084278,0.056565 WAIST_JOINT0:0.985458,-0.000000,0.154175,0.071428 WAIST_JOINT1:0.997681,0.067924,0.000000,-0.004400 END:
KINECT_DATA_Sensor  AnkleLeft:0.074571,0.757594,-0.076305,-0.643947 AnkleRight:0.094010,0.789889,0.081709,0.600468 ElbowLeft:-0.009203,0.813981,-0.233304,-0.531901 ElbowRight:-0.321612,0.940627,-0.015286,0.107490 FootLeft:0.000000,0.000000,0.000000,0.000000 FootRight:0.000000,0.000000,0.000000,0.000000 HandLeft:-0.052534,0.780202,-0.066460,0.619765 HandRight:0.400324,-0.518146,-0.089560,0.750496 HandTipLeft:0.000000,0.000000,0.000000,0.000000 HandTipRight:0.000000,0.000000,0.000000,0.000000 Head:0.000000,0.000000,0.000000,0.000000 HipLeft:0.059806,-0.647658,0.749875,-0.121036 HipRight:-0.180792,0.699747,0.655317,-0.219611 KneeLeft:-0.002423,-0.643197,0.014945,0.765551 KneeRight:-0.014089,0.767360,0.074064,0.636769 Neck:-0.159246,0.053740,0.982521,-0.080038 ShoulderLeft:0.109807,0.708786,-0.695670,-0.040098 ShoulderRight:-0.105749,0.780214,0.585864,-0.191957 SpineBase:-0.087124,0.039980,0.994551,-0.040976 SpineMid:-0.122609,0.041419,0.990803,-0.039521 SpineShoulder:-0.158810,0.050157,0.984301,-0.058432 ThumbLeft:0.000000,0.000000,0.000000,0.000000 ThumbRight:0.000000,0.000000,0.000000,0.000000 WristLeft:-0.014466,0.783585,-0.137708,0.605659 WristRight:0.359383,-0.546971,-0.163565,0.738182 END:
KINECT_DATA POSITION:5.884381,-0.951752,-4.875422 HEAD_JOINT1:0.976550,0.214602,-0.000000,0.017189 LARM_JOINT2:0.812413,0.000000,0.031189,-0.582247 LARM_JOINT3:0.970677,0.000000,-0.185892,-0.152415 LLEG_JOINT2:0.998446,0.017992,0.000000,-0.052745 LLEG_JOINT4:0.995917,0.086750,0.000000,0.024991 RARM_JOINT2:0.781685,0.000000,0.450628,0.431164 RARM_JOINT3:0.973902,0.000000,0.182835,0.134486 RLEG_JOINT2:0.991365,0.055846,0.000000,-0.118645 RLEG_JOINT4:0.994326,0.076811,0.000000,0.073589 WAIST:0.994047,-0.000000,0.091253,0.059527 WAIST_JOINT0:0.986468,-0.000000,0.148606,0.069256 WAIST_JOINT1:0.997689,0.067882,0.000000,-0.003113 END:
KINECT_DATA_Sensor  AnkleLeft:0.069558,0.750082,-0.077442,-0.653102 AnkleRight:0.095658,0.786959,0.084434,0.603669 ElbowLeft:-0.007994,0.804132,-0.233756,-0.546504 ElbowRight:-0.334096,0.941416,-0.005113,0.045708 FootLeft:0.000000,0.000000,0.000000,0.000000 FootRight:0.000000,0.000000,0.000000,0.000000 HandLeft:-0.052814,0.851300,-0.051204,0.519496 HandRight:0.406422,-0.468718,-0.096925,0.778286 HandTipLeft:0.000000,0.000000,0.000000,0.000000 HandTipRight:0.000000,0.000000,0.000000,0.000000 Head:0.000000,0.000000,0.000000,0.000000 HipLeft:0.053202,-0.645510,0.752899,-0.116746 HipRight:-0.184603,0.700566,0.652797,-0.221325 KneeLeft:-0.005433,-0.637712,0.013043,0.770145 KneeRight:-0.013173,0.772245,0.076956,0.630509 Neck:-0.154365,0.055955,0.983141,-0.080458 ShoulderLeft:0.116764,0.704614,-0.698433,-0.045573 ShoulderRight:-0.091340,0.778949,0.593666,-0.180154 SpineBase:-0.094133,0.044915,0.993694,-0.041147 SpineMid:-0.123590,0.046117,0.990462,-0.039795 SpineShoulder:-0.153761,0.053377,0.984911,-0.058812 ThumbLeft:0.000000,0.000000,0.000000,0.000000 ThumbRight:0.000000,0.000000,0.000000,0.000000 WristLeft:-0.028523,0.851607,-0.138763,0.504674 WristRight:0.347178,-0.501788,-0.170650,0.773663 END:
KINECT_DATA POSITION:5.758829,-0.925767,-4.832208 HEAD_JOINT1:0.976816,0.213689,-0.000000,0.012977 LARM_JOINT2:0.811347,0.000000,0.036492,-0.583425 LARM_JOINT3:0.969983,0.000000,-0.191747,-0.149553 LLEG_JOINT2:0.998582,0.017651,0.000000,-0.050227 LLEG_JOINT4:0.996314,0.082594,0.000000,0.023158 RARM_JOINT2:0.779342,0.000000,0.454167,0.431693 RARM_JOINT3:0.975100,0.000000,0.178862,0.131101 RLEG_JOINT2:0.991715,0.059778,0.000000,-0.113699 RLEG_JOINT4:0.995012,0.072716,0.000000,0.068297 WAIST:0.993459,-0.000000,0.098049,0.058536 WAIST_JOINT0:0.986613,-0.000000,0.148190,0.068073 WAIST_JOINT1:0.997744,0.067087,0.000000,-0.002435 END:
KINECT_DATA_Sensor  AnkleLeft:-0.052135,-0.619590,0.084661,0.778603 AnkleRight:0.091356,0.774867,0.088228,0.619234 ElbowLeft:-0.004751,0.795179,-0.233129,-0.559750 ElbowRight:-0.336309,0.941306,-0.007374,0.028020 FootLeft:0.000000,0.000000,0.000000,0.000000 FootRight:0.000000,0.000000,0.000000,0.000000 HandLeft:-0.058831,0.859750,-0.065007,0.503133 HandRight:0.414703,-0.525184,-0.074181,0.739392 HandTipLeft:0.000000,0.000000,0.000000,0.000000 HandTipRight:0.000000,0.000000,0.000000,0.000000 Head:0.000000,0.000000,0.000000,0.000000 HipLeft:0.049025,-0.646368,0.752904,-0.113758 HipRight:-0.188761,0.699069,0.652476,-0.223487 KneeLeft:-0.004075,-0.632635,0.013747,0.774318 KneeRight:-0.008342,0.776792,0.077135,0.624960 Neck:-0.154357,0.054436,0.983253,-0.080146 ShoulderLeft:0.118429,0.703583,-0.699078,-0.047273 ShoulderRight:-0.089504,0.778170,0.595491,-0.178411 SpineBase:-0.100724,0.046978,0.992958,-0.041005 SpineMid:-0.126796,0.048039,0.989967,-0.039756 SpineShoulder:-0.153729,0.052321,0.984997,-0.058406 ThumbLeft:0.000000,0.000000,0.000000,0.000000 ThumbRight:0.000000,0.000000,0.000000,0.000000 WristLeft:-0.029175,0.860209,-0.139576,0.489599 WristRight:0.360725,-0.555240,-0.137646,0.736641 END:
KINECT_DATA POSITION:5.713574,-0.915525,-4.855883 HEAD_JOINT1:0.976538,0.214987,-0.000000,0.012415 LARM_JOINT2:0.810487,0.000000,0.039294,-0.584437 LARM_JOINT3:0.968633,0.000000,-0.197268,-0.151113 LLEG_JOINT2:0.998581,0.017815,0.000000,-0.050190 LLEG_JOINT4:0.996311,0.082543,0.000000,0.023463 RARM_JOINT2:0.779240,0.000000,0.453831,0.432230 RARM_JOINT3:0.976463,0.000000,0.171845,0.130346 RLEG_JOINT2:0.991708,0.061456,0.000000,-0.112868 RLEG_JOINT4:0.995374,0.068626,0.000000,0.067237 WAIST:0.993173,-0.000000,0.100787,0.058732 WAIST_JOINT0:0.986984,-0.000000,0.146350,0.066666 WAIST_JOINT1:0.997769,0.066720,0.000000,-0.002497 END:
KINECT_DATA_Sensor  AnkleLeft:0.065992,0.744084,-0.074502,-0.660631 AnkleRight:0.090352,0.783822,0.085571,0.608389 ElbowLeft:-0.002618,0.792073,-0.232635,-0.564352 ElbowRight:-0.336290,0.941365,-0.008715,0.025799 FootLeft:0.000000,0.000000,0.000000,0.000000 FootRight:0.000000,0.000000,0.000000,0.000000 HandLeft:-0.059929,0.749386,-0.085892,0.653797 HandRight:0.390904,-0.485967,-0.100665,0.775176 HandTipLeft:0.000000,0.000000,0.000000,0.000000 HandTipRight:0.000000,0.000000,0.000000,0.000000 Head:0.000000,0.000000,0.000000,0.000000 HipLeft:0.047089,-0.646541,0.753165,-0.111851 HipRight:-0.190208,0.698926,0.651874,-0.224464 KneeLeft:-0.003963,-0.630505,0.013893,0.776051 KneeRight:-0.006815,0.778629,0.077623,0.622627 Neck:-0.152674,0.053996,0.983554,-0.079983 ShoulderLeft:0.116330,0.704520,-0.698606,-0.045490 ShoulderRight:-0.089444,0.777864,0.596129,-0.177645 SpineBase:-0.103439,0.047446,0.992667,-0.040770 SpineMid:-0.127298,0.048414,0.989890,-0.039616 SpineShoulder:-0.152032,0.052048,0.985284,-0.058247 ThumbLeft:0.000000,0.000000,0.000000,0.000000 ThumbRight:0.000000,0.000000,0.000000,0.000000 WristLeft:-0.003281,0.755212,-0.142235,0.639854 WristRight:0.352381,-0.510501,-0.157501,0.768381 END:
KINECT_DATA POSITION:5.799361,-0.902480,-4.937112 HEAD_JOINT1:0.976345,0.215636,-0.000000,0.015870 LARM_JOINT2:0.811307,0.000000,0.035557,-0.583538 LARM_JOINT3:0.968729,0.000000,-0.198233,-0.149224 LLEG_JOINT2:0.998373,0.017813,0.000000,-0.054166 LLEG_JOINT4:0.996147,0.083133,0.000000,0.027933 RARM_JOINT2:0.780847,0.000000,0.439985,0.443499 RARM_JOINT3:0.977079,0.000000,0.177707,0.117205 RLEG_JOINT2:0.991179,0.060979,0.000000,-0.117668 RLEG_JOINT4:0.994955,0.070182,0.000000,0.071682 WAIST:0.993188,-0.000000,0.099434,0.060750 WAIST_JOINT0:0.985947,-0.000000,0.152053,0.069205 WAIST_JOINT1:0.997760,0.066767,0.000000,-0.004073 END:
KINECT_DATA_Sensor  AnkleLeft:-0.050506,-0.617635,0.087225,0.779979 AnkleRight:0.093207,0.788969,0.084110,0.601470 ElbowLeft:-0.004290,0.798078,-0.233050,-0.555644 ElbowRight:-0.323174,0.944007,-0.017020,0.064185 FootLeft:0.000000,0.000000,0.000000,0.000000 FootRight:0.000000,0.000000,0.000000,0.000000 HandLeft:-0.082375,0.855063,-0.095203,0.503009 HandRight:0.391478,-0.545485,-0.099650,0.734344 HandTipLeft:0.000000,0.000000,0.000000,0.000000 HandTipRight:0.000000,0.000000,0.000000,0.000000 Head:0.000000,0.000000,0.000000,0.000000 HipLeft:0.047119,-0.645276,0.754131,-0.112626 HipRight:-0.189288,0.700680,0.650485,-0.223799 KneeLeft:-0.005091,-0.631480,0.012302,0.775278 KneeRight:-0.009238,0.777880,0.078966,0.623364 Neck:-0.158210,0.054947,0.982673,-0.079392 ShoulderLeft:0.116907,0.703233,-0.699720,-0.046775 ShoulderRight:-0.096923,0.777318,0.593770,-0.183904 SpineBase:-0.102210,0.049004,0.992708,-0.041027 SpineMid:-0.129385,0.050110,0.989533,-0.039669 SpineShoulder:-0.157562,0.053009,0.984391,-0.057782 ThumbLeft:0.000000,0.000000,0.000000,0.000000 ThumbRight:0.000000,0.000000,0.000000,0.000000 WristLeft:-0.027964,0.859480,-0.137724,0.491472 WristRight:0.363019,-0.562790,-0.135826,0.730093 END:
KINECT_DATA POSITION:5.638277,-0.942248,-5.111122 HEAD_JOINT1:0.975344,0.219809,-0.000000,0.019693 LARM_JOINT2:0.814083,0.000000,0.028395,-0.580054 LARM_JOINT3:0.967918,0.000000,-0.195349,-0.158029 LLEG_JOINT2:0.998691,0.016733,0.000000,-0.048332 LLEG_JOINT4:0.996329,0.081777,0.000000,0.025337 RARM_JOINT2:0.850883,0.000000,0.403904,0.335946 RARM_JOINT3:0.914130,0.000000,0.307892,0.263758 RLEG_JOINT2:0.991633,0.056459,0.000000,-0.116089 RLEG_JOINT4:0.994515,0.074426,0.000000,0.073495 WAIST:0.993995,-0.000000,0.092682,0.058172 WAIST_JOINT0:0.987894,-0.000000,0.140592,0.065563 WAIST_JOINT1:0.997757,0.066850,0.000000,-0.003554 END:
KINECT_DATA_Sensor  AnkleLeft:-0.048348,-0.625070,0.086807,0.774218 AnkleRight:0.092678,0.769588,0.085382,0.625983 ElbowLeft:-0.007765,0.811209,-0.233558,-0.536032 ElbowRight:-0.362332,0.920900,0.143148,-0.012927 FootLeft:0.000000,0.000000,0.000000,0.000000 FootRight:0.000000,0.000000,0.000000,0.000000 HandLeft:-0.100172,0.757246,-0.094769,0.638407 HandRight:0.449912,-0.434008,-0.131691,0.769333 HandTipLeft:0.000000,0.000000,0.000000,0.000000 HandTipRight:0.000000,0.000000,0.000000,0.000000 Head:0.000000,0.000000,0.000000,0.000000 HipLeft:0.053044,-0.646525,0.751734,-0.118688 HipRight:-0.186059,0.700023,0.652899,-0.221521 KneeLeft:-0.002564,-0.636892,0.014609,0.770810 KneeRight:-0.011931,0.773184,0.076659,0.629419 Neck:-0.146726,0.052838,0.984539,-0.079766 ShoulderLeft:0.113983,0.704264,-0.699458,-0.042179 ShoulderRight:-0.083863,0.777063,0.599626,-0.172014 SpineBase:-0.095361,0.047310,0.993444,-0.041671 SpineMid:-0.120265,0.048341,0.990738,-0.040470 SpineShoulder:-0.146075,0.051176,0.986222,-0.058380 ThumbLeft:0.000000,0.000000,0.000000,0.000000 ThumbRight:0.000000,0.000000,0.000000,0.000000 WristLeft:-0.006234,0.769273,-0.137254,0.623973 WristRight:0.389579,-0.445206,-0.105478,0.799309 END:
KINECT_DATA POSITION:5.398496,-0.978032,-5.164683 HEAD_JOINT1:0.974477,0.223149,-0.000000,0.024456 LARM_JOINT2:0.814876,0.000000,0.025269,-0.579084 LARM_JOINT3:0.968688,0.000000,-0.192744,-0.156505 LLEG_JOINT2:0.999052,0.015960,0.000000,-0.040504 LLEG_JOINT4:0.996419,0.082472,0.000000,0.018625 RARM_JOINT2:0.833175,0.000000,0.420471,0.359200 RARM_JOINT3:0.930929,0.000000,0.277455,0.237466 RLEG_JOINT2:0.992292,0.054421,0.000000,-0.111336 RLEG_JOINT4:0.994881,0.072332,0.000000,0.070571 WAIST:0.994503,-0.000000,0.089143,0.054928 WAIST_JOINT0:0.988816,-0.000000,0.135119,0.063128 WAIST_JOINT1:0.997814,0.066033,0.000000,-0.002702 END:
KINECT_DATA_Sensor  AnkleLeft:-0.049788,-0.628133,0.085608,0.771778 AnkleRight:0.088833,0.761969,0.084024,0.635966 ElbowLeft:-0.009402,0.817152,-0.231572,-0.527777 ElbowRight:-0.360582,0.926334,0.108969,-0.003478 FootLeft:0.000000,0.000000,0.000000,0.000000 FootRight:0.000000,0.000000,0.000000,0.000000 HandLeft:-0.105951,0.853465,-0.081195,0.503765 HandRight:0.431205,-0.482291,-0.090323,0.757165 HandTipLeft:0.000000,0.000000,0.000000,0.000000 HandTipRight:0.000000,0.000000,0.000000,0.000000 Head:0.000000,0.000000,0.000000,0.000000 HipLeft:0.058124,-0.648478,0.749061,-0.122494 HipRight:-0.185901,0.698143,0.655054,-0.221227 KneeLeft:0.000661,-0.639780,0.017983,0.768348 KneeRight:-0.011483,0.770618,0.074507,0.632823 Neck:-0.141403,0.050382,0.985513,-0.078932 ShoulderLeft:0.107544,0.706681,-0.698377,-0.036134 ShoulderRight:-0.083403,0.776716,0.600745,-0.169885 SpineBase:-0.091643,0.044755,0.993926,-0.041361 SpineMid:-0.115798,0.045748,0.991402,-0.040260 SpineShoulder:-0.140769,0.049046,0.987126,-0.057980 ThumbLeft:0.000000,0.000000,0.000000,0.000000 ThumbRight:0.000000,0.000000,0.000000,0.000000 WristLeft:-0.031885,0.861652,-0.132139,0.488957 WristRight:0.391588,-0.498150,-0.103459,0.766682 END:
KINECT_DATA POSITION:5.287480,-1.002298,-5.128801 HEAD_JOINT1:0.974024,0.224944,-0.000000,0.026007 LARM_JOINT2:0.815053,0.000000,0.027665,-0.578726 LARM_JOINT3:0.970943,0.000000,-0.181210,-0.156309 LLEG_JOINT2:0.999128,0.015925,0.000000,-0.038593 LLEG_JOINT4:0.996480,0.082392,0.000000,0.015434 RARM_JOINT2:0.833261,0.000000,0.424476,0.354254 RARM_JOINT3:0.928672,0.000000,0.267764,0.256655 RLEG_JOINT2:0.992425,0.054834,0.000000,-0.109936 RLEG_JOINT4:0.994914,0.069614,0.000000,0.072800 WAIST:0.994599,-0.000000,0.088984,0.053428 WAIST_JOINT0:0.989175,-0.000000,0.132964,0.062081 WAIST_JOINT1:0.997824,0.065901,0.000000,-0.001920 END:
KINECT_DATA_Sensor  AnkleLeft:-0.051671,-0.628970,0.083479,0.771206 AnkleRight:0.091385,0.779986,0.078389,0.614105 ElbowLeft:-0.008118,0.815711,-0.231955,-0.529855 ElbowRight:-0.362601,0.923852,0.119343,-0.027825 FootLeft:0.000000,0.000000,0.000000,0.000000 FootRight:0.000000,0.000000,0.000000,0.000000 HandLeft:-0.058515,0.785202,-0.058158,0.613720 HandRight:0.407386,-0.457603,-0.090464,0.785145 HandTipLeft:0.000000,0.000000,0.000000,0.000000 HandTipRight:0.000000,0.000000,0.000000,0.000000 Head:0.000000,0.000000,0.000000,0.000000 HipLeft:0.058636,-0.649509,0.748141,-0.122413 HipRight:-0.186527,0.697192,0.655977,-0.220964 KneeLeft:0.000847,-0.639979,0.018373,0.768172 KneeRight:-0.011176,0.770452,0.074989,0.632974 Neck:-0.139334,0.049634,0.985821,-0.079241 ShoulderLeft:0.104889,0.707670,-0.697913,-0.033451 ShoulderRight:-0.083431,0.776450,0.601233,-0.169363 SpineBase:-0.091352,0.044287,0.993992,-0.040916 SpineMid:-0.114615,0.045233,0.991578,-0.039868 SpineShoulder:-0.138712,0.048212,0.987458,-0.057971 ThumbLeft:0.000000,0.000000,0.000000,0.000000 ThumbRight:0.000000,0.000000,0.000000,0.000000 WristLeft:-0.013452,0.789953,-0.134849,0.598004 WristRight:0.383743,-0.468204,-0.102815,0.789275 END:
KINECT_DATA POSITION:4.821990,-1.078562,-5.031025 HEAD_JOINT1:0.974506,0.223370,-0.000000,0.021068 LARM_JOINT2:0.815722,0.000000,0.030750,-0.577626 LARM_JOINT3:0.970441,0.000000,-0.184409,-0.155686 LLEG_JOINT2:0.999524,0.014329,0.000000,-0.027305 LLEG_JOINT4:0.996389,0.084377,0.000000,0.009451 RARM_JOINT2:0.820721,0.000000,0.443244,0.360487 RARM_JOINT3:0.935901,0.000000,0.248464,0.249711 RLEG_JOINT2:0.993674,0.057744,0.000000,-0.096320 RLEG_JOINT4:0.995852,0.066174,0.000000,0.062444 WAIST:0.994173,-0.000000,0.096232,0.048580 WAIST_JOINT0:0.989020,-0.000000,0.134465,0.061314 WAIST_JOINT1:0.997778,0.066607,-0.000000,0.001574 END:
KINECT_DATA_Sensor  AnkleLeft:-0.052879,-0.627716,0.083397,0.772154 AnkleRight:0.088847,0.781226,0.080357,0.612646 ElbowLeft:-0.004124,0.809956,-0.233076,-0.538172 ElbowRight:-0.366065,0.921467,0.108692,-0.071283 FootLeft:0.000000,0.000000,0.000000,0.000000 FootRight:0.000000,0.000000,0.000000,0.000000 HandLeft:-0.063195,0.856780,-0.055558,0.508771 HandRight:0.417771,-0.412497,-0.109083,0.802131 HandTipLeft:0.000000,0.000000,0.000000,0.000000 HandTipRight:0.000000,0.000000,0.000000,0.000000 Head:0.000000,0.000000,0.000000,0.000000 HipLeft:0.053504,-0.653375,0.745777,-0.118555 HipRight:-0.190222,0.692649,0.658370,-0.224950 KneeLeft:0.005961,-0.634684,0.022376,0.772424 KneeRight:-0.003068,0.774971,0.071564,0.627925 Neck:-0.141281,0.047748,0.985510,-0.080803 ShoulderLeft:0.109075,0.706033,-0.698848,-0.035092 ShoulderRight:-0.081907,0.774700,0.603387,-0.170455 SpineBase:-0.098292,0.042237,0.993382,-0.041785 SpineMid:-0.119139,0.043106,0.991098,-0.040888 SpineShoulder:-0.140740,0.045934,0.987207,-0.059205 ThumbLeft:0.000000,0.000000,0.000000,0.000000 ThumbRight:0.000000,0.000000,0.000000,0.000000 WristLeft:-0.028690,0.858505,-0.132011,0.494690 WristRight:0.368094,-0.426535,-0.110408,0.818770 END:
KINECT_DATA POSITION:3.547535,-1.117394,-5.097520 HEAD_JOINT1:0.975029,0.221335,-0.000000,0.018146 LARM_JOINT2:0.821809,0.000000,0.029796,-0.568984 LARM_JOINT3:0.969218,0.000000,-0.187784,-0.159230 LLEG_JOINT2:0.999974,0.003366,0.000000,0.006440 LLEG_JOINT4:0.995501,0.094671,0.000000,-0.003948 RARM_JOINT2:0.775101,0.000000,0.473650,0.418179 RARM_JOINT3:0.968447,0.000000,0.190809,0.160319 RLEG_JOINT2:0.996345,0.056400,0.000000,-0.064157 RLEG_JOINT4:0.996550,0.067321,0.000000,0.048546 WAIST:0.992720,-0.000000,0.115025,0.035722 WAIST_JOINT0:0.988109,-0.000000,0.139987,0.063588 WAIST_JOINT1:0.997705,0.067180,-0.000000,0.008480 END:
KINECT_DATA_Sensor  AnkleLeft:0.065328,0.747350,-0.077237,-0.656685 AnkleRight:0.090545,0.783826,0.080242,0.609081 ElbowLeft:0.000351,0.803098,-0.237467,-0.546482 ElbowRight:-0.352957,0.933729,0.014020,-0.058092 FootLeft:0.000000,0.000000,0.000000,0.000000 FootRight:0.000000,0.000000,0.000000,0.000000 HandLeft:-0.068649,0.858419,-0.067204,0.503874 HandRight:0.414381,-0.475099,-0.093754,0.770571 HandTipLeft:0.000000,0.000000,0.000000,0.000000 HandTipRight:0.000000,0.000000,0.000000,0.000000 Head:0.000000,0.000000,0.000000,0.000000 HipLeft:0.044559,-0.663565,0.738479,-0.111109 HipRight:-0.201731,0.679322,0.663712,-0.239399 KneeLeft:0.026613,-0.620519,0.032398,0.783070 KneeRight:0.010134,0.785761,0.058791,0.615646 Neck:-0.147600,0.041325,0.984766,-0.082109 ShoulderLeft:0.117038,0.702815,-0.700679,-0.037429 ShoulderRight:-0.082482,0.773788,0.602659,-0.176781 SpineBase:-0.116395,0.032781,0.991678,-0.044189 SpineMid:-0.131735,0.033462,0.989757,-0.043676 SpineShoulder:-0.147461,0.037440,0.986445,-0.061484 ThumbLeft:0.000000,0.000000,0.000000,0.000000 ThumbRight:0.000000,0.000000,0.000000,0.000000 WristLeft:-0.024268,0.861042,-0.132990,0.490236 WristRight:0.372316,-0.492360,-0.112410,0.778669 END:
KINECT_DATA POSITION:3.306720,-1.130601,-5.132735 HEAD_JOINT1:0.975137,0.220898,-0.000000,0.017673 LARM_JOINT2:0.823402,0.000000,0.025188,-0.566899 LARM_JOINT3:0.968642,0.000000,-0.188488,-0.161878 LLEG_JOINT2:0.999952,0.001555,0.000000,0.009622 LLEG_JOINT4:0.995345,0.096076,0.000000,-0.007565 RARM_JOINT2:0.772349,0.000000,0.476352,0.420196 RARM_JOINT3:0.971763,0.000000,0.180958,0.151431 RLEG_JOINT2:0.996733,0.054097,0.000000,-0.059976 RLEG_JOINT4:0.996537,0.069867,0.000000,0.045086 WAIST:0.992268,-0.000000,0.119165,0.034697 WAIST_JOINT0:0.987332,-0.000000,0.144507,0.065517 WAIST_JOINT1:0.997635,0.068256,-0.000000,0.008040 END:
KINECT_DATA_Sensor  AnkleLeft:-0.052157,-0.621438,0.085572,0.777027 AnkleRight:0.090074,0.786156,0.081034,0.606035 ElbowLeft:-0.000702,0.803442,-0.237650,-0.545897 ElbowRight:-0.352287,0.934101,0.007397,-0.057396 FootLeft:0.000000,0.000000,0.000000,0.000000 FootRight:0.000000,0.000000,0.000000,0.000000 HandLeft:-0.064664,0.729731,-0.080351,0.675911 HandRight:0.397333,-0.510699,-0.091082,0.756979 HandTipLeft:0.000000,0.000000,0.000000,0.000000 HandTipRight:0.000000,0.000000,0.000000,0.000000 Head:0.000000,0.000000,0.000000,0.000000 HipLeft:0.041630,-0.664418,0.738251,-0.108631 HipRight:-0.204660,0.677555,0.663743,-0.241824 KneeLeft:0.029243,-0.617307,0.033066,0.785483 KneeRight:0.010901,0.788180,0.055053,0.612880 Neck:-0.152495,0.039535,0.983989,-0.083354 ShoulderLeft:-0.121244,-0.700160,0.702382,0.041654 ShoulderRight:-0.083671,0.773188,0.602153,-0.180533 SpineBase:-0.120438,0.032647,0.991192,-0.044361 SpineMid:-0.136165,0.033347,0.989154,-0.043837 SpineShoulder:-0.152403,0.035663,0.985698,-0.062464 ThumbLeft:0.000000,0.000000,0.000000,0.000000 ThumbRight:0.000000,0.000000,0.000000,0.000000 WristLeft:0.004913,0.737618,-0.135779,0.661408 WristRight:0.376234,-0.519715,-0.100514,0.760422 END:
KINECT_DATA POSITION:3.614103,-1.099180,-5.136228 HEAD_JOINT1:0.975315,0.219971,-0.000000,0.019314 LARM_JOINT2:0.821408,0.000000,0.029857,-0.569559 LARM_JOINT3:0.968764,0.000000,-0.190902,-0.158280 LLEG_JOINT2:0.999987,0.004923,0.000000,-0.001655 LLEG_JOINT4:0.995427,0.095523,0.000000,0.000966 RARM_JOINT2:0.770325,0.000000,0.476085,0.424196 RARM_JOINT3:0.973215,0.000000,0.172000,0.152538 RLEG_JOINT2:0.996173,0.055979,0.000000,-0.067119 RLEG_JOINT4:0.996258,0.070006,0.000000,0.050680 WAIST:0.992489,-0.000000,0.116217,0.038200 WAIST_JOINT0:0.987388,-0.000000,0.144353,0.065011 WAIST_JOINT1:0.997643,0.068380,-0.000000,0.005646 END:
KINECT_DATA_Sensor  AnkleLeft:-0.053146,-0.621566,0.088051,0.776581 AnkleRight:0.086640,0.736841,0.087521,0.664755 ElbowLeft:0.000643,0.799625,-0.236810,-0.551834 ElbowRight:-0.349766,0.935111,0.004951,-0.056623 FootLeft:0.000000,0.000000,0.000000,0.000000 FootRight:0.000000,0.000000,0.000000,0.000000 HandLeft:-0.063104,0.792659,-0.079856,0.601110 HandRight:0.378797,-0.497112,-0.092909,0.775087 HandTipLeft:0.000000,0.000000,0.000000,0.000000 HandTipRight:0.000000,0.000000,0.000000,0.000000 Head:0.000000,0.000000,0.000000,0.000000 HipLeft:0.040799,-0.661691,0.740809,-0.108181 HipRight:-0.202676,0.681095,0.662284,-0.237514 KneeLeft:0.022114,-0.619762,0.028772,0.783951 KneeRight:0.009203,0.786698,0.058531,0.614488 Neck:-0.152480,0.040770,0.983959,-0.083135 ShoulderLeft:-0.119592,-0.700523,0.702348,0.040899 ShoulderRight:-0.085530,0.772949,0.602003,-0.181182 SpineBase:-0.117588,0.037143,0.991411,-0.043572 SpineMid:-0.134538,0.037884,0.989253,-0.042930 SpineShoulder:-0.152325,0.037223,0.985673,-0.062130 ThumbLeft:0.000000,0.000000,0.000000,0.000000 ThumbRight:0.000000,0.000000,0.000000,0.000000 WristLeft:-0.008617,0.797419,-0.136120,0.587810 WristRight:0.370819,-0.504268,-0.110185,0.772053 END:
KINECT_DATA POSITION:3.762794,-1.095007,-5.120850 HEAD_JOINT1:0.975560,0.218772,-0.000000,0.020520 LARM_JOINT2:0.819133,0.000000,0.035837,-0.572483 LARM_JOINT3:0.967039,0.000000,-0.201757,-0.155336 LLEG_JOINT2:0.999960,0.006556,0.000000,-0.006110 LLEG_JOINT4:0.995473,0.095007,0.000000,0.002851 RARM_JOINT2:0.770193,0.000000,0.471838,0.429152 RARM_JOINT3:0.973876,0.000000,0.170225,0.150295 RLEG_JOINT2:0.995883,0.057476,0.000000,-0.070102 RLEG_JOINT4:0.996305,0.067881,0.000000,0.052613 WAIST:0.992639,-0.000000,0.114590,0.039214 WAIST_JOINT0:0.987899,-0.000000,0.141665,0.063135 WAIST_JOINT1:0.997674,0.067908,-0.000000,0.005920 END:
KINECT_DATA_Sensor  AnkleLeft:0.068546,0.742916,-0.077284,-0.661366 AnkleRight:0.092705,0.784271,0.080026,0.608211 ElbowLeft:0.002881,0.794608,-0.236063,-0.559342 ElbowRight:-0.345332,0.937045,0.003362,-0.051785 FootLeft:0.000000,0.000000,0.000000,0.000000 FootRight:0.000000,0.000000,0.000000,0.000000 HandLeft:-0.089566,0.833385,-0.099120,0.536304 HandRight:0.384005,-0.513191,-0.082862,0.763092 HandTipLeft:0.000000,0.000000,0.000000,0.000000 HandTipRight:0.000000,0.000000,0.000000,0.000000 Head:0.000000,0.000000,0.000000,0.000000 HipLeft:0.041155,-0.660982,0.741372,-0.108522 HipRight:-0.201868,0.682531,0.661782,-0.235468 KneeLeft:0.018792,-0.621079,0.027020,0.783056 KneeRight:0.008671,0.785842,0.060874,0.615364 Neck:-0.149959,0.042336,0.984322,-0.082639 ShoulderLeft:0.116201,0.702829,-0.700852,-0.036547 ShoulderRight:-0.086980,0.773189,0.601614,-0.180757 SpineBase:-0.115957,0.039006,0.991553,-0.043073 SpineMid:-0.132420,0.039716,0.989489,-0.042419 SpineShoulder:-0.149793,0.038530,0.986038,-0.061699 ThumbLeft:0.000000,0.000000,0.000000,0.000000 ThumbRight:0.000000,0.000000,0.000000,0.000000 WristLeft:-0.019487,0.840354,-0.135388,0.524496 WristRight:0.368511,-0.523594,-0.104589,0.760993 END:
KINECT_DATA POSITION:3.874961,-1.087909,-5.144024 HEAD_JOINT1:0.975896,0.217118,-0.000000,0.022067 LARM_JOINT2:0.817613,0.000000,0.038928,-0.574451 LARM_JOINT3:0.966771,0.000000,-0.204203,-0.153801 LLEG_JOINT2:0.999931,0.007318,0.000000,-0.009199 LLEG_JOINT4:0.995794,0.091565,0.000000,0.003215 RARM_JOINT2:0.770882,0.000000,0.468268,0.431817 RARM_JOINT3:0.974489,0.000000,0.172329,0.143784 RLEG_JOINT2:0.995717,0.057299,0.000000,-0.072560 RLEG_JOINT4:0.996463,0.067313,0.000000,0.050296 WAIST:0.992780,-0.000000,0.112865,0.040604 WAIST_JOINT0:0.988180,-0.000000,0.139981,0.062488 WAIST_JOINT1:0.997700,0.067564,-0.000000,0.005503 END:
KINECT_DATA_Sensor  AnkleLeft:-0.053197,-0.624131,0.084974,0.774861 AnkleRight:0.089755,0.783905,0.081303,0.608955 ElbowLeft:0.003256,0.791219,-0.235397,-0.564403 ElbowRight:-0.342499,0.938410,0.002819,-0.045541 FootLeft:0.000000,0.000000,0.000000,0.000000 FootRight:0.000000,0.000000,0.000000,0.000000 HandLeft:-0.087669,0.852480,-0.098028,0.505947 HandRight:0.396501,-0.524859,-0.090754,0.747712 HandTipLeft:0.000000,0.000000,0.000000,0.000000 HandTipRight:0.000000,0.000000,0.000000,0.000000 Head:0.000000,0.000000,0.000000,0.000000 HipLeft:0.041922,-0.659988,0.742098,-0.109312 HipRight:-0.200807,0.683944,0.661078,-0.234252 KneeLeft:0.017259,-0.622394,0.026075,0.782079 KneeRight:0.007777,0.784867,0.061321,0.616573 Neck:-0.148436,0.043072,0.984568,-0.082087 ShoulderLeft:0.113294,0.703871,-0.700378,-0.034668 ShoulderRight:-0.087929,0.773624,0.601040,-0.180347 SpineBase:-0.114311,0.040039,0.991709,-0.042922 SpineMid:-0.130796,0.040748,0.989670,-0.042250 SpineShoulder:-0.148197,0.039775,0.986254,-0.061309 ThumbLeft:0.000000,0.000000,0.000000,0.000000 ThumbRight:0.000000,0.000000,0.000000,0.000000 WristLeft:-0.026182,0.858059,-0.135907,0.494548 WristRight:0.367252,-0.536573,-0.102122,0.752852 END:
KINECT_DATA POSITION:3.921076,-1.090247,-5.186903 HEAD_JOINT1:0.975482,0.218831,-0.000000,0.023418 LARM_JOINT2:0.819818,0.000000,0.033945,-0.571617 LARM_JOINT3:0.967668,0.000000,-0.196854,-0.157694 LLEG_JOINT2:0.999914,0.007798,0.000000,-0.010545 LLEG_JOINT4:0.995902,0.090168,0.000000,0.006937 RARM_JOINT2:0.774576,0.000000,0.454756,0.439578 RARM_JOINT3:0.969028,0.000000,0.193673,0.153220 RLEG_JOINT2:0.995563,0.057003,0.000000,-0.074866 RLEG_JOINT4:0.996168,0.068625,0.000000,0.054220 WAIST:0.993014,-0.000000,0.110486,0.041418 WAIST_JOINT0:0.987585,-0.000000,0.143447,0.064023 WAIST_JOINT1:0.997836,0.065586,-0.000000,0.004624 END:
KINECT_DATA_Sensor  AnkleLeft:0.062009,0.728233,-0.079146,-0.677914 AnkleRight:0.089491,0.759398,0.083629,0.638993 ElbowLeft:-0.001123,0.799849,-0.236500,-0.551642 ElbowRight:-0.334048,0.942379,0.001616,-0.018178 FootLeft:0.000000,0.000000,0.000000,0.000000 FootRight:0.000000,0.000000,0.000000,0.000000 HandLeft:-0.075319,0.795404,-0.093903,0.594005 HandRight:0.436328,-0.534630,-0.032927,0.722983 HandTipLeft:0.000000,0.000000,0.000000,0.000000 HandTipRight:0.000000,0.000000,0.000000,0.000000 Head:0.000000,0.000000,0.000000,0.000000 HipLeft:0.044622,-0.659488,0.742307,-0.109842 HipRight:-0.199949,0.685183,0.660672,-0.232501 KneeLeft:0.016617,-0.624160,0.025925,0.780690 KneeRight:0.006585,0.783427,0.062013,0.618348 Neck:-0.151453,0.043078,0.984285,-0.079932 ShoulderLeft:0.113738,0.703648,-0.700320,-0.038678 ShoulderRight:-0.091286,0.774613,0.599095,-0.180908 SpineBase:-0.111987,0.039705,0.992047,-0.041547 SpineMid:-0.131124,0.040500,0.989699,-0.040773 SpineShoulder:-0.151118,0.040570,0.985920,-0.058978 ThumbLeft:0.000000,0.000000,0.000000,0.000000 ThumbRight:0.000000,0.000000,0.000000,0.000000 WristLeft:-0.012819,0.801506,-0.137904,0.581727 WristRight:0.371210,-0.566476,-0.091419,0.730035 END:
KINECT_DATA POSITION:3.793254,-0.990231,-5.414772 HEAD_JOINT1:0.976483,0.214755,-0.000000,0.019009 LARM_JOINT2:0.817549,0.000000,0.037863,-0.574612 LARM_JOINT3:0.967659,0.000000,-0.199144,-0.154846 LLEG_JOINT2:0.999969,0.007834,0.000000,-0.000156 LLEG_JOINT4:0.996161,0.087521,0.000000,0.001631 RARM_JOINT2:0.862617,0.000000,0.304983,0.403581 RARM_JOINT3:0.843200,0.000000,0.431768,0.320298 RLEG_JOINT2:0.996268,0.050540,0.000000,-0.069974 RLEG_JOINT4:0.995783,0.072973,0.000000,0.055594 WAIST:0.993595,-0.000000,0.107503,0.034809 WAIST_JOINT0:0.987518,-0.000000,0.144304,0.063121 WAIST_JOINT1:0.997908,0.063841,-0.000000,0.010190 END:
KINECT_DATA_Sensor  AnkleLeft:-0.048906,-0.622386,0.085310,0.776509 AnkleRight:0.092432,0.785401,0.078375,0.607008 ElbowLeft:-0.003017,0.790097,-0.232918,-0.566998 ElbowRight:-0.291794,0.940145,0.131627,0.116868 FootLeft:0.000000,0.000000,0.000000,0.000000 FootRight:0.000000,0.000000,0.000000,0.000000 HandLeft:-0.072368,0.818471,-0.073750,0.565180 HandRight:0.499945,-0.620025,0.188473,0.574545 HandTipLeft:0.000000,0.000000,0.000000,0.000000 HandTipRight:0.000000,0.000000,0.000000,0.000000 Head:0.000000,0.000000,0.000000,0.000000 HipLeft:0.048868,-0.663344,0.738220,-0.112332 HipRight:-0.200833,0.681449,0.665217,-0.229739 KneeLeft:0.018402,-0.626745,0.029408,0.778452 KneeRight:0.001926,0.780988,0.058664,0.621782 Neck:-0.152124,0.042123,0.984290,-0.079102 ShoulderLeft:0.111239,0.705697,-0.698649,-0.038823 ShoulderRight:-0.094592,0.774888,0.597932,-0.181872 SpineBase:-0.108478,0.038300,0.992548,-0.040181 SpineMid:-0.129697,0.039151,0.989999,-0.039352 SpineShoulder:-0.151724,0.040271,0.985922,-0.057593 ThumbLeft:0.000000,0.000000,0.000000,0.000000 ThumbRight:0.000000,0.000000,0.000000,0.000000 WristLeft:-0.022612,0.822976,-0.142958,0.549328 WristRight:0.469570,-0.667214,0.104380,0.568713 END:
KINECT_DATA POSITION:3.716779,-0.722882,-5.731142 HEAD_JOINT1:0.976615,0.214455,-0.000000,0.015238 LARM_JOINT2:0.816099,0.000000,0.049480,-0.575790 LARM_JOINT3:0.965203,0.000000,-0.209274,-0.156805 LLEG_JOINT2:0.999949,0.003948,0.000000,0.009297 LLEG_JOINT4:0.996005,0.089300,0.000000,-0.000463 RARM_JOINT2:0.862374,0.000000,0.283126,0.419703 RARM_JOINT3:0.804946,0.000000,0.476111,0.354092 RLEG_JOINT2:0.996847,0.043596,0.000000,-0.066295 RLEG_JOINT4:0.994982,0.077009,0.000000,0.063874 WAIST:0.993373,-0.000000,0.111442,0.028102 WAIST_JOINT0:0.986909,-0.000000,0.148358,0.063248 WAIST_JOINT1:0.997953,0.061135,-0.000000,0.018786 END:
KINECT_DATA_Sensor  AnkleLeft:0.059816,0.729019,-0.076615,-0.677557 AnkleRight:0.094695,0.786843,0.073609,0.605386 ElbowLeft:0.000870,0.777183,-0.235469,-0.583558 ElbowRight:-0.273791,0.943548,0.127233,0.136259 FootLeft:0.000000,0.000000,0.000000,0.000000 FootRight:0.000000,0.000000,0.000000,0.000000 HandLeft:-0.060183,0.779585,-0.081912,0.617993 HandRight:0.518289,-0.598859,0.250657,0.556701 HandTipLeft:0.000000,0.000000,0.000000,0.000000 HandTipRight:0.000000,0.000000,0.000000,0.000000 Head:0.000000,0.000000,0.000000,0.000000 HipLeft:0.048086,-0.668520,0.733757,-0.111216 HipRight:-0.206309,0.677329,0.667678,-0.229929 KneeLeft:0.022550,-0.624178,0.029618,0.780395 KneeRight:-0.004623,0.782867,0.055607,0.619682 Neck:-0.155233,0.043837,0.983875,-0.077271 ShoulderLeft:0.107965,0.710424,-0.694266,-0.040455 ShoulderRight:-0.101637,0.777271,0.592481,-0.185703 SpineBase:-0.111799,0.039294,0.992199,-0.038706 SpineMid:-0.132899,0.040109,0.989594,-0.037860 SpineShoulder:-0.154786,0.042098,0.985470,-0.055846 ThumbLeft:0.000000,0.000000,0.000000,0.000000 ThumbRight:0.000000,0.000000,0.000000,0.000000 WristLeft:-0.017230,0.783510,-0.150136,0.602722 WristRight:0.501689,-0.652187,0.164473,0.543976 END:
KINECT_DATA POSITION:3.523214,-0.512531,-5.779696 HEAD_JOINT1:0.977082,0.212647,-0.000000,0.009648 LARM_JOINT2:0.817199,0.000000,0.057284,-0.573502 LARM_JOINT3:0.964425,0.000000,-0.212200,-0.157655 LLEG_JOINT2:0.999930,0.003107,0.000000,0.011423 LLEG_JOINT4:0.996109,0.088088,0.000000,-0.002570 RARM_JOINT2:0.852299,0.000000,0.300528,0.428100 RARM_JOINT3:0.796513,0.000000,0.479256,0.368619 RLEG_JOINT2:0.996897,0.042138,0.000000,-0.066495 RLEG_JOINT4:0.994615,0.079760,0.000000,0.066183 WAIST:0.992261,-0.000000,0.120902,0.028284 WAIST_JOINT0:0.983807,-0.000000,0.166870,0.065403 WAIST_JOINT1:0.998123,0.056859,-0.000000,0.022748 END:
KINECT_DATA_Sensor  AnkleLeft:-0.046214,-0.608955,0.083113,0.787483 AnkleRight:0.096739,0.795214,0.073373,0.594047 ElbowLeft:0.000078,0.763675,-0.241716,-0.598643 ElbowRight:-0.279409,0.948310,0.103975,0.108752 FootLeft:0.000000,0.000000,0.000000,0.000000 FootRight:0.000000,0.000000,0.000000,0.000000 HandLeft:-0.041682,0.825100,-0.074524,0.558497 HandRight:0.536393,-0.557684,0.278112,0.569144 HandTipLeft:0.000000,0.000000,0.000000,0.000000 HandTipRight:0.000000,0.000000,0.000000,0.000000 Head:0.000000,0.000000,0.000000,0.000000 HipLeft:0.044207,-0.669193,0.734311,-0.104948 HipRight:-0.214444,0.676640,0.665043,-0.232141 KneeLeft:0.024555,-0.616752,0.030935,0.786166 KneeRight:-0.006270,0.788762,0.054220,0.612271 Neck:-0.171872,0.048401,0.981221,-0.072955 ShoulderLeft:0.115684,0.710326,-0.691994,-0.056550 ShoulderRight:-0.116042,0.775825,0.588596,-0.195410 SpineBase:-0.121113,0.042335,0.991093,-0.035691 SpineMid:-0.145837,0.043213,0.987758,-0.034623 SpineShoulder:-0.171383,0.046316,0.982755,-0.051728 ThumbLeft:0.000000,0.000000,0.000000,0.000000 ThumbRight:0.000000,0.000000,0.000000,0.000000 WristLeft:-0.028017,0.823195,-0.159320,0.544226 WristRight:0.512694,-0.617337,0.190077,0.565607 END:
KINECT_DATA POSITION:2.961300,-0.256563,-5.636394 HEAD_JOINT1:0.977808,0.209502,-0.000000,0.000790 LARM_JOINT2:0.817254,0.000000,0.049358,-0.574160 LARM_JOINT3:0.965119,0.000000,-0.207367,-0.159828 LLEG_JOINT2:0.999874,0.001580,0.000000,0.015795 LLEG_JOINT4:0.996231,0.086732,0.000000,-0.001496 RARM_JOINT2:0.798814,0.000000,0.366253,0.477238 RARM_JOINT3:0.836126,0.000000,0.436611,0.332060 RLEG_JOINT2:0.996925,0.045424,0.000000,-0.063846 RLEG_JOINT4:0.994681,0.080295,0.000000,0.064519 WAIST:0.990049,-0.000000,0.137341,0.030662 WAIST_JOINT0:0.979537,-0.000000,0.188871,0.069535 WAIST_JOINT1:0.998262,0.054253,-0.000000,0.023000 END:
KINECT_DATA_Sensor  AnkleLeft:-0.040073,-0.596259,0.086203,0.797144 AnkleRight:0.094821,0.765382,0.081652,0.631294 ElbowLeft:-0.002030,0.763695,-0.240158,-0.599241 ElbowRight:-0.281066,0.957209,0.002667,0.068885 FootLeft:0.000000,0.000000,0.000000,0.000000 FootRight:0.000000,0.000000,0.000000,0.000000 HandLeft:-0.051901,0.818992,-0.083506,0.565318 HandRight:0.528183,-0.511845,0.335469,0.588641 HandTipLeft:0.000000,0.000000,0.000000,0.000000 HandTipRight:0.000000,0.000000,0.000000,0.000000 Head:0.000000,0.000000,0.000000,0.000000 HipLeft:0.037661,-0.668884,0.736224,-0.095655 HipRight:-0.227193,0.675324,0.659157,-0.240485 KneeLeft:0.029903,-0.603391,0.035255,0.796104 KneeRight:-0.001712,0.799160,0.053099,0.598767 Neck:-0.193161,0.050772,0.977317,-0.070445 ShoulderLeft:0.126769,0.707102,-0.691848,-0.072680 ShoulderRight:-0.133732,0.773777,0.582134,-0.210960 SpineBase:-0.137605,0.044215,0.988954,-0.032853 SpineMid:-0.164678,0.045099,0.984808,-0.031628 SpineShoulder:-0.192675,0.048402,0.978840,-0.049045 ThumbLeft:0.000000,0.000000,0.000000,0.000000 ThumbRight:0.000000,0.000000,0.000000,0.000000 WristLeft:-0.022457,0.819453,-0.159295,0.550107 WristRight:0.518627,-0.596460,0.214344,0.573862 END:
KINECT_DATA POSITION:2.902900,-0.134534,-5.596149 HEAD_JOINT1:0.979389,0.201937,0.000000,-0.004202 LARM_JOINT2:0.813906,0.000000,0.045741,-0.579193 LARM_JOINT3:0.966978,0.000000,-0.205394,-0.150887 LLEG_JOINT2:0.999936,-0.001252,0.000000,0.011260 LLEG_JOINT4:0.996078,0.088472,0.000000,-0.000938 RARM_JOINT2:0.785549,0.000000,0.375244,0.492041 RARM_JOINT3:0.826660,0.000000,0.447066,0.341711 RLEG_JOINT2:0.996538,0.045855,0.000000,-0.069350 RLEG_JOINT4:0.993559,0.082734,0.000000,0.077434 WAIST:0.988255,-0.000000,0.149030,0.033799 WAIST_JOINT0:0.975899,-0.000000,0.204766,0.075441 WAIST_JOINT1:0.998218,0.053259,-0.000000,0.026902 END:
KINECT_DATA_Sensor  AnkleLeft:-0.039984,-0.585823,0.083915,0.805091 AnkleRight:0.108551,0.810938,0.071585,0.570502 ElbowLeft:-0.004922,0.754280,-0.239362,-0.611345 ElbowRight:-0.274423,0.960914,-0.020522,0.030246 FootLeft:0.000000,0.000000,0.000000,0.000000 FootRight:0.000000,0.000000,0.000000,0.000000 HandLeft:-0.082482,0.990703,-0.060028,-0.090002 HandRight:0.561552,-0.516793,0.267747,0.588130 HandTipLeft:0.000000,0.000000,0.000000,0.000000 HandTipRight:0.000000,0.000000,0.000000,0.000000 Head:0.000000,0.000000,0.000000,0.000000 HipLeft:0.030208,-0.666285,0.739718,-0.089265 HipRight:-0.235736,0.674517,0.655103,-0.245550 KneeLeft:0.031547,-0.594152,0.032250,0.803087 KneeRight:-0.004536,0.806396,0.054231,0.588867 Neck:-0.208978,0.058125,0.973703,-0.069662 ShoulderLeft:0.134160,0.704842,-0.691520,-0.083661 ShoulderRight:-0.147349,0.776079,0.570810,-0.223978 SpineBase:-0.149312,0.048606,0.987064,-0.032383 SpineMid:-0.178403,0.049541,0.982222,-0.030933 SpineShoulder:-0.208461,0.054843,0.975301,-0.048217 ThumbLeft:0.000000,0.000000,0.000000,0.000000 ThumbRight:0.000000,0.000000,0.000000,0.000000 WristLeft:-0.118987,0.982008,-0.116330,-0.089275 WristRight:0.544331,-0.518141,0.270206,0.601849 END:
KINECT_DATA POSITION:2.963640,-0.067881,-5.553508 HEAD_JOINT1:0.982995,0.182334,-0.000000,0.021816 LARM_JOINT2:0.816323,0.000000,0.039225,-0.576263 LARM_JOINT3:0.968058,0.000000,-0.206436,-0.142297 LLEG_JOINT2:0.999954,-0.001102,0.000000,0.009527 LLEG_JOINT4:0.995808,0.091382,0.000000,0.004037 RARM_JOINT2:0.782944,0.000000,0.379014,0.493303 RARM_JOINT3:0.816764,0.000000,0.467537,0.338092 RLEG_JOINT2:0.996304,0.046299,0.000000,-0.072345 RLEG_JOINT4:0.993025,0.086688,0.000000,0.079918 WAIST:0.986555,-0.000000,0.159504,0.035595 WAIST_JOINT0:0.972879,-0.000000,0.216237,0.082149 WAIST_JOINT1:0.997905,0.060870,-0.000000,0.021911 END:
KINECT_DATA_Sensor  AnkleLeft:0.056694,0.725626,-0.079274,-0.681152 AnkleRight:0.100783,0.739771,0.088243,0.659390 ElbowLeft:-0.003221,0.743039,-0.240705,-0.624454 ElbowRight:-0.268931,0.961813,-0.029740,0.041327 FootLeft:0.000000,0.000000,0.000000,0.000000 FootRight:0.000000,0.000000,0.000000,0.000000 HandLeft:-0.068439,0.991754,-0.076180,-0.077052 HandRight:-0.424878,0.634115,-0.494119,-0.416201 HandTipLeft:0.000000,0.000000,0.000000,0.000000 HandTipRight:0.000000,0.000000,0.000000,0.000000 Head:0.000000,0.000000,0.000000,0.000000 HipLeft:0.023717,-0.665231,0.741263,-0.086225 HipRight:-0.241547,0.671950,0.651999,-0.255022 KneeLeft:0.031592,-0.585572,0.032281,0.809361 KneeRight:-0.006264,0.812607,0.054776,0.580199 Neck:-0.220600,0.052196,0.970826,-0.078150 ShoulderLeft:0.156327,0.699058,-0.691320,-0.094643 ShoulderRight:-0.138754,0.775619,0.570786,-0.231012 SpineBase:-0.159941,0.047696,0.985347,-0.035154 SpineMid:-0.189371,0.048727,0.980116,-0.033710 SpineShoulder:-0.220039,0.050825,0.972617,-0.054917 ThumbLeft:0.000000,0.000000,0.000000,0.000000 ThumbRight:0.000000,0.000000,0.000000,0.000000 WristLeft:-0.113777,0.982872,-0.124789,-0.073786 WristRight:-0.435327,0.684451,-0.431255,-0.395014 END:
KINECT_DATA POSITION:3.066951,0.055122,-5.557275 HEAD_JOINT1:0.982480,0.186092,0.000000,-0.010178 LARM_JOINT2:0.808377,0.000000,0.061623,-0.585431 LARM_JOINT3:0.966224,0.000000,-0.212973,-0.145096 LLEG_JOINT2:0.999980,-0.001503,0.000000,0.006160 LLEG_JOINT4:0.996212,0.086336,0.000000,0.010368 RARM_JOINT2:0.783867,0.000000,0.376045,0.494108 RARM_JOINT3:0.809282,0.000000,0.468268,0.354666 RLEG_JOINT2:0.996074,0.047903,0.000000,-0.074440 RLEG_JOINT4:0.993097,0.086041,0.000000,0.079719 WAIST:0.984761,-0.000000,0.169759,0.037787 WAIST_JOINT0:0.970749,-0.000000,0.222955,0.089093 WAIST_JOINT1:0.998003,0.054293,-0.000000,0.032269 END:
KINECT_DATA_Sensor  AnkleLeft:-0.033570,-0.575167,0.088798,0.812509 AnkleRight:0.099224,0.742591,0.090198,0.656184 ElbowLeft:0.003922,0.718479,-0.243842,-0.651394 ElbowRight:-0.269613,0.961833,-0.040346,0.023633 FootLeft:0.000000,0.000000,0.000000,0.000000 FootRight:0.000000,0.000000,0.000000,0.000000 HandLeft:-0.072388,0.992392,-0.063811,-0.076466 HandRight:0.566692,-0.452321,0.352853,0.591405 HandTipLeft:0.000000,0.000000,0.000000,0.000000 HandTipRight:0.000000,0.000000,0.000000,0.000000 Head:0.000000,0.000000,0.000000,0.000000 HipLeft:0.015163,-0.664415,0.743048,-0.078757 HipRight:-0.248506,0.672492,0.647931,-0.257266 KneeLeft:0.031451,-0.577348,0.030927,0.815306 KneeRight:-0.006312,0.818889,0.055419,0.571235 Neck:-0.228940,0.066874,0.968518,-0.071329 ShoulderLeft:0.150330,0.696054,-0.695297,-0.097327 ShoulderRight:-0.156997,0.782883,0.552036,-0.240213 SpineBase:-0.170075,0.053638,0.983380,-0.034073 SpineMid:-0.198789,0.054612,0.977980,-0.032488 SpineShoulder:-0.228424,0.062560,0.970254,-0.050159 ThumbLeft:0.000000,0.000000,0.000000,0.000000 ThumbRight:0.000000,0.000000,0.000000,0.000000 WristLeft:-0.107620,0.982037,-0.135291,-0.075613 WristRight:0.554500,-0.500293,0.295622,0.595687 END:
KINECT_DATA POSITION:3.169997,0.074528,-5.616164 HEAD_JOINT1:0.982327,0.186853,0.000000,-0.010924 LARM_JOINT2:0.810035,0.000000,0.056729,-0.583630 LARM_JOINT3:0.965424,0.000000,-0.214303,-0.148428 LLEG_JOINT2:0.999990,-0.002163,0.000000,0.003868 LLEG_JOINT4:0.995843,0.090652,0.000000,0.008834 RARM_JOINT2:0.778225,0.000000,0.373194,0.505067 RARM_JOINT3:0.810264,0.000000,0.470901,0.348889 RLEG_JOINT2:0.995864,0.049298,0.000000,-0.076318 RLEG_JOINT4:0.992829,0.083057,0.000000,0.085973 WAIST:0.984212,-0.000000,0.172623,0.039096 WAIST_JOINT0:0.970110,-0.000000,0.225122,0.090587 WAIST_JOINT1:0.998060,0.053712,-0.000000,0.031471 END:
KINECT_DATA_Sensor  AnkleLeft:0.053526,0.711567,-0.080072,-0.695986 AnkleRight:0.101662,0.734603,0.087573,0.665097 ElbowLeft:0.002436,0.725644,-0.244941,-0.642992 ElbowRight:-0.260989,0.963596,-0.050948,0.027780 FootLeft:0.000000,0.000000,0.000000,0.000000 FootRight:0.000000,0.000000,0.000000,0.000000 HandLeft:0.056427,0.185006,-0.105282,0.975451 HandRight:0.576231,-0.450241,0.356499,0.581506 HandTipLeft:0.000000,0.000000,0.000000,0.000000 HandTipRight:0.000000,0.000000,0.000000,0.000000 Head:0.000000,0.000000,0.000000,0.000000 HipLeft:0.012672,-0.664046,0.743604,-0.077041 HipRight:-0.249876,0.673381,0.646158,-0.258070 KneeLeft:0.031590,-0.575081,0.029616,0.816949 KneeRight:-0.006347,0.820707,0.056623,0.568501 Neck:-0.231016,0.067017,0.968056,-0.070764 ShoulderLeft:-0.147309,-0.694711,0.696592,0.102164 ShoulderRight:-0.159298,0.783190,0.550243,-0.241804 SpineBase:-0.172944,0.055578,0.982773,-0.034052 SpineMid:-0.201197,0.056536,0.977380,-0.032436 SpineShoulder:-0.230464,0.062996,0.969776,-0.049524 ThumbLeft:0.000000,0.000000,0.000000,0.000000 ThumbRight:0.000000,0.000000,0.000000,0.000000 WristLeft:0.120789,0.187611,-0.120779,0.967277 WristRight:0.558716,-0.498638,0.299822,0.591019 END:
KINECT_DATA POSITION:3.300680,0.085212,-5.654776 HEAD_JOINT1:0.981411,0.191826,0.000000,-0.005946 LARM_JOINT2:0.814091,0.000000,0.049077,-0.578660 LARM_JOINT3:0.965994,0.000000,-0.207706,-0.153991 LLEG_JOINT2:0.999993,-0.002833,0.000000,0.002269 LLEG_JOINT4:0.995700,0.091787,0.000000,0.012496 RARM_JOINT2:0.779456,0.000000,0.373994,0.502570 RARM_JOINT3:0.822579,0.000000,0.477626,0.308605 RLEG_JOINT2:0.995765,0.049972,0.000000,-0.077173 RLEG_JOINT4:0.993388,0.080757,0.000000,0.081605 WAIST:0.984330,-0.000000,0.171825,0.039629 WAIST_JOINT0:0.972413,-0.000000,0.215539,0.089198 WAIST_JOINT1:0.998295,0.050911,-0.000000,0.028557 END:
KINECT_DATA_Sensor  AnkleLeft:-0.037534,-0.579758,0.090592,0.808866 AnkleRight:0.098229,0.745383,0.086653,0.653641 ElbowLeft:0.000773,0.747877,-0.245909,-0.616611 ElbowRight:-0.265963,0.961836,-0.051052,0.039090 FootLeft:0.000000,0.000000,0.000000,0.000000 FootRight:0.000000,0.000000,0.000000,0.000000 HandLeft:-0.033924,0.780761,-0.138519,0.608337 HandRight:0.595990,-0.522427,0.302346,0.529578 HandTipLeft:0.000000,0.000000,0.000000,0.000000 HandTipRight:0.000000,0.000000,0.000000,0.000000 Head:0.000000,0.000000,0.000000,0.000000 HipLeft:0.013766,-0.664332,0.743459,-0.075782 HipRight:-0.249607,0.674885,0.645423,-0.256233 KneeLeft:0.031598,-0.575727,0.028295,0.816541 KneeRight:-0.006204,0.820349,0.057319,0.568949 Neck:-0.221975,0.063816,0.970596,-0.067800 ShoulderLeft:0.143772,0.697624,-0.695505,-0.094466 ShoulderRight:-0.153324,0.787448,0.549679,-0.232961 SpineBase:-0.172159,0.055986,0.982949,-0.032205 SpineMid:-0.196240,0.056760,0.978426,-0.030820 SpineShoulder:-0.221355,0.060819,0.972160,-0.046987 ThumbLeft:0.000000,0.000000,0.000000,0.000000 ThumbRight:0.000000,0.000000,0.000000,0.000000 WristLeft:0.007183,0.783254,-0.162113,0.600151 WristRight:0.553740,-0.524485,0.305158,0.570234 END:
KINECT_DATA POSITION:3.362283,0.100810,-5.658388 HEAD_JOINT1:0.980861,0.194704,0.000000,-0.001289 LARM_JOINT2:0.814076,0.000000,0.038874,-0.579456 LARM_JOINT3:0.966132,0.000000,-0.206148,-0.155215 LLEG_JOINT2:0.999992,-0.003245,0.000000,0.002517 LLEG_JOINT4:0.995743,0.091774,0.000000,0.008514 RARM_JOINT2:0.775466,0.000000,0.366392,0.514208 RARM_JOINT3:0.838564,0.000000,0.477083,0.263064 RLEG_JOINT2:0.995743,0.050243,0.000000,-0.077276 RLEG_JOINT4:0.993199,0.082757,0.000000,0.081891 WAIST:0.984776,-0.000000,0.169263,0.039567 WAIST_JOINT0:0.972994,-0.000000,0.213419,0.087949 WAIST_JOINT1:0.998434,0.049191,-0.000000,0.026638 END:
KINECT_DATA_Sensor  AnkleLeft:0.055360,0.727380,-0.078163,-0.679518 AnkleRight:0.101134,0.753711,0.086793,0.643552 ElbowLeft:-0.005306,0.759080,-0.240776,-0.604811 ElbowRight:-0.254754,0.961593,-0.063036,0.080406 FootLeft:0.000000,0.000000,0.000000,0.000000 FootRight:0.000000,0.000000,0.000000,0.000000 HandLeft:-0.057914,0.801969,-0.144964,0.576609 HandRight:-0.185578,-0.569413,0.612905,-0.515439 HandTipLeft:0.000000,0.000000,0.000000,0.000000 HandTipRight:0.000000,0.000000,0.000000,0.000000 Head:0.000000,0.000000,0.000000,0.000000 HipLeft:0.016781,-0.664629,0.743076,-0.076321 HipRight:-0.248794,0.675805,0.645535,-0.254311 KneeLeft:0.032041,-0.577765,0.028204,0.815086 KneeRight:-0.005948,0.818895,0.057731,0.571002 Neck:-0.219124,0.061977,0.971500,-0.065813 ShoulderLeft:0.138872,0.700943,-0.693343,-0.093102 ShoulderRight:-0.154016,0.788573,0.548877,-0.230577 SpineBase:-0.169613,0.055344,0.983480,-0.030569 SpineMid:-0.193515,0.056072,0.979058,-0.029212 SpineShoulder:-0.218493,0.059262,0.972997,-0.045016 ThumbLeft:0.000000,0.000000,0.000000,0.000000 ThumbRight:0.000000,0.000000,0.000000,0.000000 WristLeft:-0.006363,0.806812,-0.161326,0.568321 WristRight:0.226660,0.597447,-0.594477,0.488138 END:
KINECT_DATA POSITION:3.358113,0.074571,-5.569959 HEAD_JOINT1:0.981124,0.193356,-0.000000,0.002917 LARM_JOINT2:0.814969,0.000000,0.036681,-0.578343 LARM_JOINT3:0.966942,0.000000,-0.201006,-0.156904 LLEG_JOINT2:0.999988,-0.001456,0.000000,0.004645 LLEG_JOINT4:0.995668,0.092837,0.000000,0.005148 RARM_JOINT2:0.807118,0.000000,0.327544,0.491198 RARM_JOINT3:0.816578,0.000000,0.512431,0.265733 RLEG_JOINT2:0.995767,0.051724,0.000000,-0.075980 RLEG_JOINT4:0.993477,0.081152,0.000000,0.080110 WAIST:0.985552,-0.000000,0.164879,0.038754 WAIST_JOINT0:0.974064,-0.000000,0.208981,0.086755 WAIST_JOINT1:0.998497,0.048194,-0.000000,0.026091 END:
KINECT_DATA_Sensor  AnkleLeft:0.059956,0.740975,-0.076851,-0.664421 AnkleRight:0.101865,0.760938,0.085566,0.635040 ElbowLeft:-0.007881,0.764216,-0.240169,-0.598523 ElbowRight:-0.258019,0.958045,-0.015790,0.123802 FootLeft:0.000000,0.000000,0.000000,0.000000 FootRight:0.000000,0.000000,0.000000,0.000000 HandLeft:-0.123611,0.985845,-0.064445,-0.093148 HandRight:-0.138832,-0.578436,0.613732,-0.519105 HandTipLeft:0.000000,0.000000,0.000000,0.000000 HandTipRight:0.000000,0.000000,0.000000,0.000000 Head:0.000000,0.000000,0.000000,0.000000 HipLeft:0.021263,-0.665262,0.742136,-0.078792 HipRight:-0.247512,0.676459,0.646345,-0.251751 KneeLeft:0.031244,-0.581190,0.030373,0.812601 KneeRight:-0.004211,0.816415,0.058903,0.574438 Neck:-0.214293,0.060627,0.972755,-0.064419 ShoulderLeft:0.134292,0.703397,-0.692138,-0.090242 ShoulderRight:-0.151844,0.789785,0.549418,-0.226546 SpineBase:-0.165198,0.054771,0.984305,-0.029204 SpineMid:-0.188868,0.055459,0.980039,-0.027875 SpineShoulder:-0.213645,0.058340,0.974173,-0.044041 ThumbLeft:0.000000,0.000000,0.000000,0.000000 ThumbRight:0.000000,0.000000,0.000000,0.000000 WristLeft:-0.112923,0.981744,-0.115720,-0.100183 WristRight:-0.187496,-0.594880,0.613566,-0.484252 END:
KINECT_DATA POSITION:3.306636,0.073922,-5.459738 HEAD_JOINT1:0.980390,0.196844,-0.000000,0.009361 LARM_JOINT2:0.815589,0.000000,0.035331,-0.577552 LARM_JOINT3:0.966875,0.000000,-0.199949,-0.158660 LLEG_JOINT2:0.999989,-0.000901,0.000000,0.004576 LLEG_JOINT4:0.995812,0.091148,0.000000,0.007044 RARM_JOINT2:0.777696,0.000000,0.375962,0.503826 RARM_JOINT3:0.844772,0.000000,0.484683,0.226809 RLEG_JOINT2:0.995896,0.050678,0.000000,-0.074983 RLEG_JOINT4:0.993674,0.080828,0.000000,0.077970 WAIST:0.986020,-0.000000,0.162034,0.038849 WAIST_JOINT0:0.974990,-0.000000,0.204279,0.087550 WAIST_JOINT1:0.998511,0.048281,-0.000000,0.025389 END:
KINECT_DATA_Sensor  AnkleLeft:-0.040230,-0.586990,0.088859,0.803697 AnkleRight:0.098036,0.740326,0.087664,0.659258 ElbowLeft:-0.008006,0.769911,-0.240339,-0.591110 ElbowRight:-0.265178,0.954337,-0.068572,0.119241 FootLeft:0.000000,0.000000,0.000000,0.000000 FootRight:0.000000,0.000000,0.000000,0.000000 HandLeft:-0.132155,0.986338,-0.061964,-0.076377 HandRight:-0.170889,-0.574742,0.631248,-0.491929 HandTipLeft:0.000000,0.000000,0.000000,0.000000 HandTipRight:0.000000,0.000000,0.000000,0.000000 Head:0.000000,0.000000,0.000000,0.000000 HipLeft:0.023766,-0.665244,0.742011,-0.079412 HipRight:-0.245904,0.677352,0.646797,-0.249761 KneeLeft:0.030835,-0.583416,0.030694,0.811007 KneeRight:-0.003710,0.814700,0.057490,0.577014 Neck:-0.209444,0.060073,0.973826,-0.064711 ShoulderLeft:0.129342,0.703353,-0.693882,-0.084221 ShoulderRight:-0.151152,0.789978,0.550264,-0.224270 SpineBase:-0.162385,0.053972,0.984849,-0.028108 SpineMid:-0.185035,0.054605,0.980846,-0.026857 SpineShoulder:-0.208789,0.057767,0.975259,-0.044035 ThumbLeft:0.000000,0.000000,0.000000,0.000000 ThumbRight:0.000000,0.000000,0.000000,0.000000 WristLeft:-0.108805,0.983577,-0.115608,-0.085867 WristRight:-0.173643,-0.592627,0.609617,-0.496999 END:
KINECT_DATA POSITION:3.254135,0.068685,-5.386233 HEAD_JOINT1:0.979768,0.199756,-0.000000,0.012331 LARM_JOINT2:0.816601,0.000000,0.034297,-0.576183 LARM_JOINT3:0.967622,0.000000,-0.196173,-0.158817 LLEG_JOINT2:0.999988,0.000503,0.000000,0.004915 LLEG_JOINT4:0.995783,0.091491,0.000000,0.006789 RARM_JOINT2:0.804469,0.000000,0.341537,0.485986 RARM_JOINT3:0.814720,0.000000,0.514113,0.268178 RLEG_JOINT2:0.995918,0.050725,0.000000,-0.074663 RLEG_JOINT4:0.993648,0.082671,0.000000,0.076351 WAIST:0.986153,-0.000000,0.161162,0.039105 WAIST_JOINT0:0.974954,-0.000000,0.203791,0.089069 WAIST_JOINT1:0.998450,0.049388,-0.000000,0.025642 END:
KINECT_DATA_Sensor  AnkleLeft:0.058176,0.732921,-0.080354,-0.673042 AnkleRight:0.099491,0.749501,0.088237,0.648509 ElbowLeft:-0.007644,0.772658,-0.242522,-0.586621 ElbowRight:-0.266217,0.955752,-0.021632,0.123285 FootLeft:0.000000,0.000000,0.000000,0.000000 FootRight:0.000000,0.000000,0.000000,0.000000 HandLeft:-0.125475,0.979804,-0.053612,-0.146173 HandRight:-0.214341,-0.541630,0.602011,-0.546147 HandTipLeft:0.000000,0.000000,0.000000,0.000000 HandTipRight:0.000000,0.000000,0.000000,0.000000 Head:0.000000,0.000000,0.000000,0.000000 HipLeft:0.023593,-0.665044,0.742119,-0.080120 HipRight:-0.244957,0.677699,0.646924,-0.249418 KneeLeft:0.030077,-0.584063,0.031965,0.810521 KneeRight:-0.003169,0.814200,0.057185,0.577752 Neck:-0.209069,0.060684,0.973766,-0.066240 ShoulderLeft:0.130715,0.701462,-0.695634,-0.083411 ShoulderRight:-0.149545,0.789814,0.551027,-0.224051 SpineBase:-0.161523,0.054327,0.984955,-0.028689 SpineMid:-0.184406,0.054980,0.980928,-0.027416 SpineShoulder:-0.208409,0.058158,0.975275,-0.044958 ThumbLeft:0.000000,0.000000,0.000000,0.000000 ThumbRight:0.000000,0.000000,0.000000,0.000000 WristLeft:-0.114306,0.975547,-0.108351,-0.153306 WristRight:-0.236468,-0.550938,0.599425,-0.530321 END:
KINECT_DATA POSITION:3.184250,0.091647,-5.383730 HEAD_JOINT1:0.979987,0.198670,-0.000000,0.012474 LARM_JOINT2:0.816748,0.000000,0.034423,-0.575966 LARM_JOINT3:0.967281,0.000000,-0.197673,-0.159035 LLEG_JOINT2:0.999989,0.000953,0.000000,0.004621 LLEG_JOINT4:0.995793,0.091324,0.000000,0.007537 RARM_JOINT2:0.800750,0.000000,0.348932,0.486873 RARM_JOINT3:0.820983,0.000000,0.506859,0.262833 RLEG_JOINT2:0.995925,0.050186,0.000000,-0.074936 RLEG_JOINT4:0.993682,0.083385,0.000000,0.075119 WAIST:0.986361,-0.000000,0.159701,0.039845 WAIST_JOINT0:0.975136,-0.000000,0.202872,0.089180 WAIST_JOINT1:0.998431,0.050056,-0.000000,0.025101 END:
KINECT_DATA_Sensor  AnkleLeft:0.056278,0.721450,-0.082656,-0.685208 AnkleRight:0.107430,0.810149,0.078180,0.570969 ElbowLeft:-0.008069,0.771975,-0.243134,-0.587261 ElbowRight:-0.267665,0.955105,-0.028571,0.123748 FootLeft:0.000000,0.000000,0.000000,0.000000 FootRight:0.000000,0.000000,0.000000,0.000000 HandLeft:-0.120050,0.989552,-0.064908,-0.046489 HandRight:-0.173135,-0.578806,0.600282,-0.524089 HandTipLeft:0.000000,0.000000,0.000000,0.000000 HandTipRight:0.000000,0.000000,0.000000,0.000000 Head:0.000000,0.000000,0.000000,0.000000 HipLeft:0.024128,-0.664434,0.742528,-0.081220 HipRight:-0.243714,0.678392,0.646866,-0.248904 KneeLeft:0.030069,-0.585218,0.032507,0.809666 KneeRight:-0.003067,0.813335,0.056428,0.579044 Neck:-0.208224,0.060941,0.973890,-0.066844 ShoulderLeft:0.130938,0.700912,-0.696233,-0.082691 ShoulderRight:-0.148296,0.789595,0.551958,-0.223360 SpineBase:-0.160107,0.054556,0.985161,-0.029113 SpineMid:-0.183269,0.055227,0.981116,-0.027820 SpineShoulder:-0.207560,0.058378,0.975421,-0.045430 ThumbLeft:0.000000,0.000000,0.000000,0.000000 ThumbRight:0.000000,0.000000,0.000000,0.000000 WristLeft:-0.104045,0.985815,-0.119770,-0.054765 WristRight:-0.200579,-0.578692,0.612911,-0.499223 END:
KINECT_DATA POSITION:3.121915,0.084686,-5.408776 HEAD_JOINT1:0.980090,0.197984,-0.000000,0.014993 LARM_JOINT2:0.817259,0.000000,0.034750,-0.575222 LARM_JOINT3:0.966780,0.000000,-0.199604,-0.159668 LLEG_JOINT2:0.999990,0.000807,0.000000,0.004476 LLEG_JOINT4:0.995828,0.090908,0.000000,0.007855 RARM_JOINT2:0.786675,0.000000,0.365410,0.497612 RARM_JOINT3:0.838085,0.000000,0.489788,0.240253 RLEG_JOINT2:0.995846,0.051265,0.000000,-0.075250 RLEG_JOINT4:0.994063,0.080731,0.000000,0.072951 WAIST:0.986551,-0.000000,0.158291,0.040746 WAIST_JOINT0:0.975563,-0.000000,0.200982,0.088785 WAIST_JOINT1:0.998443,0.050424,-0.000000,0.023870 END:
KINECT_DATA_Sensor  AnkleLeft:0.055877,0.728607,-0.082924,-0.677594 AnkleRight:0.105256,0.809608,0.077685,0.572208 ElbowLeft:-0.008426,0.771781,-0.243800,-0.587234 ElbowRight:-0.264796,0.954235,-0.053347,0.128347 FootLeft:0.000000,0.000000,0.000000,0.000000 FootRight:0.000000,0.000000,0.000000,0.000000 HandLeft:-0.123375,0.989085,-0.063329,-0.049786 HandRight:-0.188943,-0.572134,0.599386,-0.526972 HandTipLeft:0.000000,0.000000,0.000000,0.000000 HandTipRight:0.000000,0.000000,0.000000,0.000000 Head:0.000000,0.000000,0.000000,0.000000 HipLeft:0.024589,-0.663881,0.742959,-0.081662 HipRight:-0.242209,0.679291,0.646705,-0.248337 KneeLeft:0.030746,-0.586315,0.032937,0.808829 KneeRight:-0.001930,0.812582,0.056889,0.580060 Neck:-0.206273,0.060591,0.974313,-0.067035 ShoulderLeft:0.129836,0.701624,-0.695876,-0.081383 ShoulderRight:-0.146663,0.789970,0.552457,-0.221877 SpineBase:-0.158769,0.054322,0.985386,-0.029268 SpineMid:-0.181628,0.054988,0.981429,-0.027998 SpineShoulder:-0.205611,0.058063,0.975844,-0.045623 ThumbLeft:0.000000,0.000000,0.000000,0.000000 ThumbRight:0.000000,0.000000,0.000000,0.000000 WristLeft:-0.105840,0.985436,-0.119513,-0.058570 WristRight:-0.197730,-0.568667,0.608202,-0.517312 END:
KINECT_DATA POSITION:3.096215,0.092047,-5.462587 HEAD_JOINT1:0.979946,0.198549,-0.000000,0.016839 LARM_JOINT2:0.817212,0.000000,0.034277,-0.575318 LARM_JOINT3:0.967609,0.000000,-0.197057,-0.157802 LLEG_JOINT2:0.999991,0.000554,0.000000,0.004171 LLEG_JOINT4:0.995933,0.089845,0.000000,0.006759 RARM_JOINT2:0.773774,0.000000,0.381064,0.506028 RARM_JOINT3:0.848943,0.000000,0.477830,0.225775 RLEG_JOINT2:0.995818,0.051515,0.000000,-0.075443 RLEG_JOINT4:0.994013,0.080638,0.000000,0.073722 WAIST:0.986679,-0.000000,0.157402,0.041100 WAIST_JOINT0:0.975724,-0.000000,0.200128,0.088946 WAIST_JOINT1:0.998492,0.049828,-0.000000,0.023047 END:
KINECT_DATA_Sensor  AnkleLeft:0.055846,0.736233,-0.080913,-0.669548 AnkleRight:0.099148,0.756958,0.085958,0.640152 ElbowLeft:-0.009455,0.772335,-0.242961,-0.586839 ElbowRight:-0.263423,0.952580,-0.075959,0.132023 FootLeft:0.000000,0.000000,0.000000,0.000000 FootRight:0.000000,0.000000,0.000000,0.000000 HandLeft:-0.116024,0.988503,-0.064463,-0.072420 HandRight:-0.185570,-0.588290,0.595871,-0.514214 HandTipLeft:0.000000,0.000000,0.000000,0.000000 HandTipRight:0.000000,0.000000,0.000000,0.000000 Head:0.000000,0.000000,0.000000,0.000000 HipLeft:0.025338,-0.663713,0.743081,-0.081690 HipRight:-0.241693,0.679807,0.646591,-0.247722 KneeLeft:0.031027,-0.587016,0.032790,0.808316 KneeRight:-0.001612,0.812084,0.056981,0.580749 Neck:-0.205338,0.060176,0.974591,-0.066234 ShoulderLeft:0.128532,0.701561,-0.696255,-0.080746 ShoulderRight:-0.146831,0.790174,0.552487,-0.220960 SpineBase:-0.157905,0.054132,0.985548,-0.028831 SpineMid:-0.180729,0.054787,0.981619,-0.027568 SpineShoulder:-0.204672,0.057732,0.976093,-0.044939 ThumbLeft:0.000000,0.000000,0.000000,0.000000 ThumbRight:0.000000,0.000000,0.000000,0.000000 WristLeft:-0.108724,0.983968,-0.117280,-0.078936 WristRight:-0.183243,-0.573055,0.615697,-0.508868 END:
KINECT_DATA POSITION:3.113775,0.079588,-5.490828 HEAD_JOINT1:0.979901,0.198752,-0.000000,0.017104 LARM_JOINT2:0.818651,0.000000,0.036755,-0.573115 LARM_JOINT3:0.967971,0.000000,-0.194199,-0.159117 LLEG_JOINT2:0.999991,0.000737,0.000000,0.004291 LLEG_JOINT4:0.995832,0.091170,0.000000,0.002525 RARM_JOINT2:0.770884,0.000000,0.384709,0.507679 RARM_JOINT3:0.849535,0.000000,0.476414,0.226537 RLEG_JOINT2:0.995718,0.052323,0.000000,-0.076215 RLEG_JOINT4:0.993965,0.080287,0.000000,0.074744 WAIST:0.986656,-0.000000,0.157460,0.041433 WAIST_JOINT0:0.975563,-0.000000,0.200500,0.089865 WAIST_JOINT1:0.998511,0.049578,-0.000000,0.022745 END:
KINECT_DATA_Sensor  AnkleLeft:0.056985,0.721309,-0.079303,-0.685695 AnkleRight:0.100079,0.758688,0.085717,0.637988 ElbowLeft:-0.007561,0.774024,-0.245913,-0.583401 ElbowRight:-0.264101,0.953385,-0.078594,0.123008 FootLeft:0.000000,0.000000,0.000000,0.000000 FootRight:0.000000,0.000000,0.000000,0.000000 HandLeft:-0.101509,0.989776,-0.069085,-0.072574 HandRight:-0.229155,-0.545299,0.596539,-0.542474 HandTipLeft:0.000000,0.000000,0.000000,0.000000 HandTipRight:0.000000,0.000000,0.000000,0.000000 Head:0.000000,0.000000,0.000000,0.000000 HipLeft:0.025467,-0.663517,0.743278,-0.081455 HipRight:-0.241841,0.680049,0.646307,-0.247655 KneeLeft:0.031186,-0.586924,0.033230,0.808358 KneeRight:-0.001524,0.812177,0.057853,0.580534 Neck:-0.205805,0.060264,0.974508,-0.065924 ShoulderLeft:0.128392,0.701110,-0.696725,-0.080834 ShoulderRight:-0.147640,0.790813,0.551170,-0.221426 SpineBase:-0.157978,0.054218,0.985539,-0.028557 SpineMid:-0.180993,0.054871,0.981573,-0.027281 SpineShoulder:-0.205138,0.057807,0.976005,-0.044615 ThumbLeft:0.000000,0.000000,0.000000,0.000000 ThumbRight:0.000000,0.000000,0.000000,0.000000 WristLeft:-0.107187,0.984379,-0.117035,-0.076236 WristRight:-0.225566,-0.543636,0.597117,-0.545006 END:
KINECT_DATA POSITION:3.139700,0.085016,-5.548096 HEAD_JOINT1:0.979814,0.199184,-0.000000,0.017038 LARM_JOINT2:0.816413,0.000000,0.039027,-0.576149 LARM_JOINT3:0.968030,0.000000,-0.195725,-0.156874 LLEG_JOINT2:0.999989,0.000602,0.000000,0.004580 LLEG_JOINT4:0.995746,0.092122,0.000000,0.001618 RARM_JOINT2:0.795704,0.000000,0.355493,0.490388 RARM_JOINT3:0.824819,0.000000,0.501282,0.261514 RLEG_JOINT2:0.995773,0.052202,0.000000,-0.075577 RLEG_JOINT4:0.994231,0.080211,0.000000,0.071212 WAIST:0.986541,-0.000000,0.158283,0.041032 WAIST_JOINT0:0.975881,-0.000000,0.199266,0.089158 WAIST_JOINT1:0.998504,0.049519,-0.000000,0.023172 END:
KINECT_DATA_Sensor  AnkleLeft:0.057563,0.714676,-0.079197,-0.692569 AnkleRight:0.098361,0.768416,0.086022,0.626469 ElbowLeft:-0.006219,0.769758,-0.242912,-0.590278 ElbowRight:-0.268326,0.954815,-0.036261,0.122537 FootLeft:0.000000,0.000000,0.000000,0.000000 FootRight:0.000000,0.000000,0.000000,0.000000 HandLeft:-0.102126,0.988245,-0.067364,-0.091674 HandRight:-0.167332,-0.598155,0.604443,-0.498858 HandTipLeft:0.000000,0.000000,0.000000,0.000000 HandTipRight:0.000000,0.000000,0.000000,0.000000 Head:0.000000,0.000000,0.000000,0.000000 HipLeft:0.024778,-0.663879,0.743051,-0.080785 HipRight:-0.242262,0.679735,0.646401,-0.247861 KneeLeft:0.031179,-0.586278,0.033106,0.808832 KneeRight:-0.001434,0.812644,0.057637,0.579901 Neck:-0.204930,0.060133,0.974691,-0.066064 ShoulderLeft:0.126836,0.701844,-0.696452,-0.079262 ShoulderRight:-0.148132,0.791139,0.550514,-0.221563 SpineBase:-0.158772,0.054239,0.985411,-0.028527 SpineMid:-0.180954,0.054869,0.981580,-0.027297 SpineShoulder:-0.204260,0.057721,0.976189,-0.044732 ThumbLeft:0.000000,0.000000,0.000000,0.000000 ThumbRight:0.000000,0.000000,0.000000,0.000000 WristLeft:-0.109906,0.982766,-0.114395,-0.094893 WristRight:-0.182111,-0.592517,0.618632,-0.482756 END:
KINECT_DATA POSITION:3.157057,0.080875,-5.571020 HEAD_JOINT1:0.979683,0.199801,-0.000000,0.017369 LARM_JOINT2:0.815953,0.000000,0.038854,-0.576810 LARM_JOINT3:0.967566,0.000000,-0.197433,-0.157593 LLEG_JOINT2:0.999990,0.000337,0.000000,0.004442 LLEG_JOINT4:0.995912,0.090289,0.000000,0.002540 RARM_JOINT2:0.777642,0.000000,0.379312,0.501393 RARM_JOINT3:0.847666,0.000000,0.476478,0.233304 RLEG_JOINT2:0.995786,0.052283,0.000000,-0.075347 RLEG_JOINT4:0.994252,0.077950,0.000000,0.073400 WAIST:0.986604,-0.000000,0.157926,0.040896 WAIST_JOINT0:0.975877,-0.000000,0.199470,0.088751 WAIST_JOINT1:0.998514,0.049406,-0.000000,0.023018 END:
KINECT_DATA_Sensor  AnkleLeft:0.055077,0.712351,-0.079142,-0.695168 AnkleRight:0.096162,0.745711,0.086402,0.653608 ElbowLeft:-0.006523,0.769341,-0.241831,-0.591261 ElbowRight:-0.267828,0.953590,-0.067252,0.120050 FootLeft:0.000000,0.000000,0.000000,0.000000 FootRight:0.000000,0.000000,0.000000,0.000000 HandLeft:-0.106283,0.990600,-0.067249,-0.053795 HandRight:-0.250326,-0.516955,0.569413,-0.588102 HandTipLeft:0.000000,0.000000,0.000000,0.000000 HandTipRight:0.000000,0.000000,0.000000,0.000000 Head:0.000000,0.000000,0.000000,0.000000 HipLeft:0.025178,-0.663938,0.742963,-0.080978 HipRight:-0.242223,0.679704,0.646528,-0.247652 KneeLeft:0.031217,-0.586591,0.032741,0.808619 KneeRight:-0.001265,0.812434,0.057675,0.580192 Neck:-0.205169,0.059864,0.974669,-0.065894 ShoulderLeft:0.126767,0.702209,-0.696061,-0.079577 ShoulderRight:-0.148443,0.791126,0.550391,-0.221707 SpineBase:-0.158408,0.054156,0.985478,-0.028395 SpineMid:-0.180884,0.054791,0.981602,-0.027150 SpineShoulder:-0.204498,0.057508,0.976159,-0.044568 ThumbLeft:0.000000,0.000000,0.000000,0.000000 ThumbRight:0.000000,0.000000,0.000000,0.000000 WristLeft:-0.106665,0.985535,-0.117864,-0.058750 WristRight:-0.262985,-0.512552,0.581383,-0.574564 END:
KINECT_DATA POSITION:3.151983,0.079144,-5.582297 HEAD_JOINT1:0.980832,0.194148,-0.000000,0.016620 LARM_JOINT2:0.815340,0.000000,0.037799,-0.577748 LARM_JOINT3:0.966857,0.000000,-0.201183,-0.157205 LLEG_JOINT2:0.999990,-0.000156,0.000000,0.004432 LLEG_JOINT4:0.996125,0.087808,0.000000,0.005030 RARM_JOINT2:0.795963,0.000000,0.360641,0.486191 RARM_JOINT3:0.827981,0.000000,0.497924,0.257911 RLEG_JOINT2:0.995825,0.051056,0.000000,-0.075670 RLEG_JOINT4:0.994095,0.079043,0.000000,0.074345 WAIST:0.986697,-0.000000,0.157360,0.040833 WAIST_JOINT0:0.976094,-0.000000,0.198547,0.088431 WAIST_JOINT1:0.998375,0.051670,-0.000000,0.024036 END:
KINECT_DATA_Sensor  AnkleLeft:0.056135,0.754139,-0.076782,-0.649790 AnkleRight:0.104974,0.808520,0.075581,0.574076 ElbowLeft:-0.006013,0.768094,-0.242155,-0.592753 ElbowRight:-0.271265,0.954548,-0.035659,0.118243 FootLeft:0.000000,0.000000,0.000000,0.000000 FootRight:0.000000,0.000000,0.000000,0.000000 HandLeft:-0.116295,0.988759,-0.065924,-0.066976 HandRight:-0.203997,-0.561775,0.594271,-0.538178 HandTipLeft:0.000000,0.000000,0.000000,0.000000 HandTipRight:0.000000,0.000000,0.000000,0.000000 Head:0.000000,0.000000,0.000000,0.000000 HipLeft:0.024858,-0.663857,0.742923,-0.082106 HipRight:-0.241501,0.679585,0.646838,-0.247877 KneeLeft:0.031567,-0.587131,0.032401,0.808227 KneeRight:-0.002250,0.812025,0.056937,0.580834 Neck:-0.204587,0.060699,0.974535,-0.068856 ShoulderLeft:0.129113,0.702364,-0.695507,-0.079280 ShoulderRight:-0.144879,0.791379,0.551054,-0.221513 SpineBase:-0.157846,0.054372,0.985527,-0.029406 SpineMid:-0.180296,0.055029,0.981668,-0.028157 SpineShoulder:-0.203903,0.058181,0.976143,-0.046732 ThumbLeft:0.000000,0.000000,0.000000,0.000000 ThumbRight:0.000000,0.000000,0.000000,0.000000 WristLeft:-0.108417,0.984506,-0.116651,-0.073398 WristRight:-0.220395,-0.562411,0.600649,-0.523775 END:
KINECT_DATA POSITION:3.148426,0.086104,-5.577672 HEAD_JOINT1:0.981885,0.188763,-0.000000,0.016449 LARM_JOINT2:0.815717,0.000000,0.033635,-0.577472 LARM_JOINT3:0.967280,0.000000,-0.200833,-0.155032 LLEG_JOINT2:0.999992,-0.000580,0.000000,0.004044 LLEG_JOINT4:0.995629,0.093227,0.000000,0.005604 RARM_JOINT2:0.778581,0.000000,0.383516,0.496717 RARM_JOINT3:0.847426,0.000000,0.478782,0.229428 RLEG_JOINT2:0.995835,0.051096,0.000000,-0.075511 RLEG_JOINT4:0.994109,0.080656,0.000000,0.072404 WAIST:0.986736,-0.000000,0.157079,0.040961 WAIST_JOINT0:0.976161,-0.000000,0.198079,0.088734 WAIST_JOINT1:0.998251,0.053701,-0.000000,0.024711 END:
KINECT_DATA_Sensor  AnkleLeft:-0.041538,-0.590603,0.090471,0.800798 AnkleRight:0.097491,0.755330,0.086655,0.642233 ElbowLeft:-0.007142,0.770186,-0.243005,-0.589670 ElbowRight:-0.268371,0.953627,-0.066506,0.118955 FootLeft:0.000000,0.000000,0.000000,0.000000 FootRight:0.000000,0.000000,0.000000,0.000000 HandLeft:-0.050207,0.828137,-0.128333,0.543323 HandRight:-0.206396,-0.554521,0.592470,-0.546705 HandTipLeft:0.000000,0.000000,0.000000,0.000000 HandTipRight:0.000000,0.000000,0.000000,0.000000 Head:0.000000,0.000000,0.000000,0.000000 HipLeft:0.023942,-0.663585,0.743060,-0.083331 HipRight:-0.240696,0.679422,0.647082,-0.248468 KneeLeft:0.031770,-0.587460,0.031931,0.807998 KneeRight:-0.001986,0.811852,0.056793,0.581092 Neck:-0.204323,0.061254,0.974408,-0.070922 ShoulderLeft:0.133104,0.702069,-0.694893,-0.080652 ShoulderRight:-0.139715,0.792187,0.551633,-0.220501 SpineBase:-0.157576,0.054778,0.985502,-0.030889 SpineMid:-0.180025,0.055469,0.981650,-0.029631 SpineShoulder:-0.203639,0.058766,0.976061,-0.048821 ThumbLeft:0.000000,0.000000,0.000000,0.000000 ThumbRight:0.000000,0.000000,0.000000,0.000000 WristLeft:-0.015088,0.829694,-0.158429,0.535052 WristRight:-0.218419,-0.554688,0.597775,-0.535984 END:
KINECT_DATA POSITION:3.151789,0.091397,-5.554986 HEAD_JOINT1:0.982084,0.187687,-0.000000,0.016848 LARM_JOINT2:0.816019,0.000000,0.031574,-0.577162 LARM_JOINT3:0.967163,0.000000,-0.199545,-0.157407 LLEG_JOINT2:0.999991,-0.000152,0.000000,0.004130 LLEG_JOINT4:0.995812,0.091353,0.000000,0.003621 RARM_JOINT2:0.781486,0.000000,0.379059,0.495575 RARM_JOINT3:0.844270,0.000000,0.482852,0.232512 RLEG_JOINT2:0.995838,0.050895,0.000000,-0.075600 RLEG_JOINT4:0.994273,0.079581,0.000000,0.071331 WAIST:0.986817,-0.000000,0.156555,0.041013 WAIST_JOINT0:0.976161,-0.000000,0.197879,0.089182 WAIST_JOINT1:0.998204,0.054491,-0.000000,0.024888 END:
KINECT_DATA_Sensor  AnkleLeft:-0.041311,-0.590595,0.088198,0.801069 AnkleRight:0.103120,0.808677,0.077372,0.573953 ElbowLeft:-0.007609,0.772357,-0.243406,-0.586651 ElbowRight:-0.266906,0.953750,-0.062108,0.123553 FootLeft:0.000000,0.000000,0.000000,0.000000 FootRight:0.000000,0.000000,0.000000,0.000000 HandLeft:-0.121776,0.985905,-0.057984,-0.098997 HandRight:-0.191235,-0.572814,0.597708,-0.527313 HandTipLeft:0.000000,0.000000,0.000000,0.000000 HandTipRight:0.000000,0.000000,0.000000,0.000000 Head:0.000000,0.000000,0.000000,0.000000 HipLeft:0.023641,-0.663378,0.743122,-0.084500 HipRight:-0.240018,0.679305,0.647330,-0.248797 KneeLeft:0.031514,-0.587907,0.032291,0.807669 KneeRight:-0.002097,0.811520,0.056663,0.581567 Neck:-0.204178,0.061407,0.974382,-0.071562 ShoulderLeft:0.134441,0.701910,-0.694768,-0.080902 ShoulderRight:-0.137909,0.792667,0.551494,-0.220259 SpineBase:-0.157062,0.054982,0.985540,-0.031930 SpineMid:-0.179699,0.055702,0.981665,-0.030656 SpineShoulder:-0.203497,0.058966,0.976037,-0.049635 ThumbLeft:0.000000,0.000000,0.000000,0.000000 ThumbRight:0.000000,0.000000,0.000000,0.000000 WristLeft:-0.110418,0.981627,-0.113557,-0.106400 WristRight:-0.198374,-0.569349,0.605732,-0.519209 END:
