EastLYD/RoboCupatHomeSim/InteractiveCleanUp/JapanOpen2016/Motion_Data/File80.dat
KINECT_DATA POSITION:11.276801,-0.828983,8.016229 HEAD_JOINT1:0.977908,0.166421,-0.000000,0.126495 LARM_JOINT2:0.823822,0.000000,-0.066281,-0.562961 LARM_JOINT3:0.963937,0.000000,-0.199837,-0.175758 LLEG_JOINT2:0.998371,0.026678,0.000000,0.050438 LLEG_JOINT4:0.996019,0.084845,0.000000,-0.027357 RARM_JOINT2:0.795822,0.000000,-0.080329,0.600179 RARM_JOINT3:0.969772,0.000000,0.208180,0.127289 RLEG_JOINT2:0.999401,0.012291,0.000000,-0.032348 RLEG_JOINT4:0.995601,0.086668,0.000000,0.035602 WAIST:0.999828,0.000000,-0.017866,-0.004912 WAIST_JOINT0:0.998780,0.000000,-0.049346,-0.001888 WAIST_JOINT1:0.997201,0.073177,0.000000,-0.015329 END:
KINECT_DATA_Sensor  AnkleLeft:0.067151,0.733636,-0.090472,-0.670137 AnkleRight:0.074345,0.733052,0.065011,0.672964 ElbowLeft:-0.052037,0.917147,-0.153859,-0.363952 ElbowRight:0.031661,0.808607,0.203857,0.550994 FootLeft:0.000000,0.000000,0.000000,0.000000 FootRight:0.000000,0.000000,0.000000,0.000000 HandLeft:-0.174791,0.804762,0.005620,0.567252 HandRight:0.011222,-0.300796,-0.081473,0.950136 HandTipLeft:0.000000,0.000000,0.000000,0.000000 HandTipRight:0.000000,0.000000,0.000000,0.000000 Head:0.000000,0.000000,0.000000,0.000000 HipLeft:0.127628,-0.679813,0.699776,-0.178545 HipRight:-0.103627,0.674491,0.710567,-0.171517 KneeLeft:-0.014267,0.719236,-0.050763,-0.692762 KneeRight:-0.017039,0.694773,0.035307,0.718160 Neck:0.049042,-0.022715,0.994584,-0.088777 ShoulderLeft:-0.004576,0.785418,-0.611035,0.098659 ShoulderRight:0.059427,0.780692,0.621740,-0.020692 SpineBase:0.017427,-0.017382,0.998489,-0.049130 SpineMid:0.032949,-0.018144,0.998097,-0.048854 SpineShoulder:0.048896,-0.020677,0.996294,-0.067675 ThumbLeft:0.000000,0.000000,0.000000,0.000000 ThumbRight:0.000000,0.000000,0.000000,0.000000 WristLeft:-0.153583,0.816047,-0.066110,0.553272 WristRight:-0.030366,-0.302506,-0.097080,0.947704 END:
KINECT_DATA POSITION:11.273659,-0.833222,7.981539 HEAD_JOINT1:0.977974,0.166092,-0.000000,0.126413 LARM_JOINT2:0.823622,0.000000,-0.064947,-0.563409 LARM_JOINT3:0.964016,0.000000,-0.200682,-0.174357 LLEG_JOINT2:0.998413,0.025896,0.000000,0.050003 LLEG_JOINT4:0.996018,0.086215,0.000000,-0.022715 RARM_JOINT2:0.795220,0.000000,-0.080659,0.600931 RARM_JOINT3:0.968473,0.000000,0.212989,0.129211 RLEG_JOINT2:0.999394,0.012870,0.000000,-0.032334 RLEG_JOINT4:0.995634,0.086283,0.000000,0.035599 WAIST:0.999820,0.000000,-0.018398,-0.004701 WAIST_JOINT0:0.998753,0.000000,-0.049879,-0.001943 WAIST_JOINT1:0.997231,0.072690,0.000000,-0.015673 END:
KINECT_DATA_Sensor  AnkleLeft:0.064519,0.734413,-0.094034,-0.669053 AnkleRight:0.070075,0.685145,0.069862,0.721654 ElbowLeft:-0.051789,0.916214,-0.153505,-0.366479 ElbowRight:0.031697,0.807549,0.203039,0.552842 FootLeft:0.000000,0.000000,0.000000,0.000000 FootRight:0.000000,0.000000,0.000000,0.000000 HandLeft:-0.176192,0.796863,0.000650,0.577897 HandRight:0.030090,-0.354257,-0.094955,0.929828 HandTipLeft:0.000000,0.000000,0.000000,0.000000 HandTipRight:0.000000,0.000000,0.000000,0.000000 Head:0.000000,0.000000,0.000000,0.000000 HipLeft:0.128267,-0.679705,0.699801,-0.178403 HipRight:-0.103579,0.674785,0.710450,-0.170873 KneeLeft:-0.014677,0.719572,-0.050037,-0.692457 KneeRight:-0.016446,0.694397,0.035557,0.718525 Neck:0.049600,-0.022823,0.994593,-0.088336 ShoulderLeft:-0.005191,0.785745,-0.610606,0.098684 ShoulderRight:0.059492,0.780798,0.621628,-0.019849 SpineBase:0.017940,-0.017427,0.998506,-0.048592 SpineMid:0.033484,-0.018181,0.998105,-0.048315 SpineShoulder:0.049454,-0.020765,0.996298,-0.067187 ThumbLeft:0.000000,0.000000,0.000000,0.000000 ThumbRight:0.000000,0.000000,0.000000,0.000000 WristLeft:-0.152320,0.808446,-0.069016,0.564314 WristRight:-0.023595,-0.357774,-0.099932,0.928146 END:
KINECT_DATA POSITION:11.267519,-0.834397,7.941306 HEAD_JOINT1:0.977996,0.165993,-0.000000,0.126370 LARM_JOINT2:0.823667,0.000000,-0.064065,-0.563444 LARM_JOINT3:0.964631,0.000000,-0.199126,-0.172728 LLEG_JOINT2:0.998390,0.026477,0.000000,0.050168 LLEG_JOINT4:0.995970,0.085638,0.000000,-0.026643 RARM_JOINT2:0.794840,0.000000,-0.080127,0.601505 RARM_JOINT3:0.968455,0.000000,0.212825,0.129617 RLEG_JOINT2:0.999399,0.013101,0.000000,-0.032104 RLEG_JOINT4:0.995652,0.086510,0.000000,0.034538 WAIST:0.999820,0.000000,-0.018399,-0.004625 WAIST_JOINT0:0.998736,0.000000,-0.050222,-0.002155 WAIST_JOINT1:0.997243,0.072534,0.000000,-0.015663 END:
KINECT_DATA_Sensor  AnkleLeft:0.067050,0.734131,-0.091421,-0.669476 AnkleRight:0.074144,0.728710,0.066238,0.677566 ElbowLeft:-0.051302,0.916224,-0.153900,-0.366355 ElbowRight:0.031292,0.806930,0.202158,0.554091 FootLeft:0.000000,0.000000,0.000000,0.000000 FootRight:0.000000,0.000000,0.000000,0.000000 HandLeft:-0.160282,0.576549,-0.055954,0.799231 HandRight:0.067263,-0.702117,-0.070523,0.705361 HandTipLeft:0.000000,0.000000,0.000000,0.000000 HandTipRight:0.000000,0.000000,0.000000,0.000000 Head:0.000000,0.000000,0.000000,0.000000 HipLeft:0.128416,-0.679661,0.699833,-0.178338 HipRight:-0.103788,0.674837,0.710381,-0.170829 KneeLeft:-0.014444,0.719592,-0.050624,-0.692399 KneeRight:-0.016065,0.694397,0.035497,0.718536 Neck:0.049928,-0.022739,0.994594,-0.088168 ShoulderLeft:-0.004867,0.786084,-0.610226,0.098348 ShoulderRight:0.060184,0.780832,0.621545,-0.019010 SpineBase:0.017939,-0.017354,0.998515,-0.048417 SpineMid:0.033646,-0.018114,0.998110,-0.048138 SpineShoulder:0.049781,-0.020705,0.996293,-0.067028 ThumbLeft:0.000000,0.000000,0.000000,0.000000 ThumbRight:0.000000,0.000000,0.000000,0.000000 WristLeft:-0.120768,0.583468,-0.114015,0.794972 WristRight:-0.020460,0.707612,0.101430,-0.698983 END:
KINECT_DATA POSITION:11.252473,-0.847863,7.945943 HEAD_JOINT1:0.978255,0.164457,-0.000000,0.126380 LARM_JOINT2:0.823407,0.000000,-0.067009,-0.563480 LARM_JOINT3:0.949490,0.000000,-0.260299,-0.175254 LLEG_JOINT2:0.998403,0.025592,0.000000,0.050362 LLEG_JOINT4:0.996033,0.084887,0.000000,-0.026695 RARM_JOINT2:0.794745,0.000000,-0.080887,0.601529 RARM_JOINT3:0.967739,0.000000,0.216515,0.128848 RLEG_JOINT2:0.999404,0.012741,0.000000,-0.032085 RLEG_JOINT4:0.995717,0.085542,0.000000,0.035071 WAIST:0.999816,0.000000,-0.018603,-0.004618 WAIST_JOINT0:0.998697,0.000000,-0.050961,-0.002522 WAIST_JOINT1:0.997281,0.071997,0.000000,-0.015746 END:
KINECT_DATA_Sensor  AnkleLeft:0.065793,0.734680,-0.090380,-0.669139 AnkleRight:0.069285,0.684656,0.069431,0.722236 ElbowLeft:-0.055396,0.912547,-0.151640,-0.375759 ElbowRight:0.031148,0.805989,0.202175,0.555460 FootLeft:0.000000,0.000000,0.000000,0.000000 FootRight:0.000000,0.000000,0.000000,0.000000 HandLeft:-0.257728,0.330637,-0.248626,0.873178 HandRight:-0.084993,0.808386,0.068735,-0.578415 HandTipLeft:0.000000,0.000000,0.000000,0.000000 HandTipRight:0.000000,0.000000,0.000000,0.000000 Head:0.000000,0.000000,0.000000,0.000000 HipLeft:0.128930,-0.679706,0.699718,-0.178246 HipRight:-0.103986,0.674923,0.710323,-0.170608 KneeLeft:-0.015217,0.719699,-0.050122,-0.692308 KneeRight:-0.016301,0.694254,0.035232,0.718682 Neck:0.050750,-0.022916,0.994614,-0.087418 ShoulderLeft:-0.006385,0.786567,-0.609463,0.099127 ShoulderRight:0.059695,0.780865,0.621565,-0.018537 SpineBase:0.018139,-0.017504,0.998528,-0.048017 SpineMid:0.034155,-0.018272,0.998109,-0.047730 SpineShoulder:0.050613,-0.020782,0.996282,-0.066546 ThumbLeft:0.000000,0.000000,0.000000,0.000000 ThumbRight:0.000000,0.000000,0.000000,0.000000 WristLeft:-0.095307,0.369195,-0.149441,0.912293 WristRight:-0.037923,0.813246,0.097488,-0.572440 END:
KINECT_DATA POSITION:10.657739,-0.923219,8.405066 HEAD_JOINT1:0.978699,0.161541,-0.000000,0.126699 LARM_JOINT2:0.823849,0.000000,-0.081439,-0.560928 LARM_JOINT3:0.921957,0.000000,-0.341194,-0.183256 LLEG_JOINT2:0.997474,0.031940,0.000000,0.063447 LLEG_JOINT4:0.996204,0.080848,0.000000,-0.032268 RARM_JOINT2:0.793703,0.000000,-0.081687,0.602796 RARM_JOINT3:0.967718,0.000000,0.219099,0.124565 RLEG_JOINT2:0.999705,0.016385,0.000000,-0.017914 RLEG_JOINT4:0.996172,0.082898,0.000000,0.027725 WAIST:0.999695,0.000000,-0.022129,-0.010962 WAIST_JOINT0:0.998425,0.000000,-0.055788,-0.005982 WAIST_JOINT1:0.997490,0.069565,0.000000,-0.013213 END:
KINECT_DATA_Sensor  AnkleLeft:0.066219,0.737158,-0.092885,-0.666022 AnkleRight:0.070386,0.681725,0.069523,0.724889 ElbowLeft:-0.073747,0.898691,-0.139716,-0.409139 ElbowRight:0.028344,0.801185,0.202845,0.562276 FootLeft:0.000000,0.000000,0.000000,0.000000 FootRight:0.000000,0.000000,0.000000,0.000000 HandLeft:-0.463389,0.764396,-0.033269,0.447061 HandRight:-0.064658,0.715187,0.097542,-0.689066 HandTipLeft:0.000000,0.000000,0.000000,0.000000 HandTipRight:0.000000,0.000000,0.000000,0.000000 Head:0.000000,0.000000,0.000000,0.000000 HipLeft:0.135944,-0.684647,0.694358,-0.175059 HipRight:-0.104148,0.671554,0.714569,-0.166012 KneeLeft:-0.015930,0.722650,-0.059231,-0.688488 KneeRight:-0.008259,0.691552,0.032028,0.721569 Neck:0.055889,-0.027315,0.994419,-0.085209 ShoulderLeft:-0.014366,0.790027,-0.604173,0.103084 ShoulderRight:0.058279,0.780469,0.622302,-0.014542 SpineBase:0.021920,-0.025314,0.998550,-0.042145 SpineMid:0.038359,-0.026005,0.998054,-0.041722 SpineShoulder:0.055770,-0.024121,0.996109,-0.063829 ThumbLeft:0.000000,0.000000,0.000000,0.000000 ThumbRight:0.000000,0.000000,0.000000,0.000000 WristLeft:-0.245803,0.849101,-0.057821,0.463967 WristRight:-0.022850,0.719417,0.107354,-0.685851 END:
KINECT_DATA POSITION:10.024489,-0.921633,8.927083 HEAD_JOINT1:0.979862,0.155586,-0.000000,0.125151 LARM_JOINT2:0.828228,0.000000,-0.095686,-0.552161 LARM_JOINT3:0.872153,0.000000,-0.444327,-0.204752 LLEG_JOINT2:0.995775,0.040475,0.000000,0.082429 LLEG_JOINT4:0.996205,0.075887,0.000000,-0.042625 RARM_JOINT2:0.792287,0.000000,-0.089006,0.603622 RARM_JOINT3:0.967861,0.000000,0.214328,0.131566 RLEG_JOINT2:0.999804,0.019366,0.000000,-0.004096 RLEG_JOINT4:0.996292,0.082560,0.000000,0.024221 WAIST:0.999310,0.000000,-0.031085,-0.020347 WAIST_JOINT0:0.997695,0.000000,-0.066746,-0.012212 WAIST_JOINT1:0.997813,0.065119,0.000000,-0.011336 END:
KINECT_DATA_Sensor  AnkleLeft:0.068085,0.742563,-0.095186,-0.659473 AnkleRight:0.073271,0.675058,0.069765,0.730794 ElbowLeft:-0.094931,0.888402,-0.128215,-0.430455 ElbowRight:0.027879,0.793058,0.207502,0.572036 FootLeft:0.000000,0.000000,0.000000,0.000000 FootRight:0.000000,0.000000,0.000000,0.000000 HandLeft:0.585952,-0.673681,0.018855,-0.449955 HandRight:0.009860,-0.352208,-0.074743,0.932880 HandTipLeft:0.000000,0.000000,0.000000,0.000000 HandTipRight:0.000000,0.000000,0.000000,0.000000 Head:0.000000,0.000000,0.000000,0.000000 HipLeft:-0.146250,0.690160,-0.686114,0.177587 HipRight:-0.102021,0.666339,0.721006,-0.160420 KneeLeft:-0.017772,0.729645,-0.071659,-0.679829 KneeRight:-0.003062,0.684577,0.030630,0.728290 Neck:0.067241,-0.033923,0.993789,-0.081925 ShoulderLeft:-0.028407,0.796080,-0.594409,0.110128 ShoulderRight:0.058400,0.780132,0.622869,-0.004100 SpineBase:0.031332,-0.032161,0.998263,-0.038139 SpineMid:0.048564,-0.032815,0.997573,-0.037578 SpineShoulder:0.066901,-0.031196,0.995544,-0.058678 ThumbLeft:0.000000,0.000000,0.000000,0.000000 ThumbRight:0.000000,0.000000,0.000000,0.000000 WristLeft:-0.357155,0.803442,-0.059401,0.472644 WristRight:-0.028573,-0.351901,-0.113585,0.928680 END:
KINECT_DATA POSITION:9.973595,-0.924698,9.065140 HEAD_JOINT1:0.980097,0.153930,-0.000000,0.125363 LARM_JOINT2:0.833575,0.000000,-0.108378,-0.541670 LARM_JOINT3:0.847355,0.000000,-0.482895,-0.220910 LLEG_JOINT2:0.995983,0.040047,0.000000,0.080082 LLEG_JOINT4:0.995952,0.078197,0.000000,-0.044323 RARM_JOINT2:0.791752,0.000000,-0.094195,0.603537 RARM_JOINT3:0.965701,0.000000,0.218698,0.139972 RLEG_JOINT2:0.999748,0.021080,0.000000,-0.007724 RLEG_JOINT4:0.996298,0.081172,0.000000,0.028305 WAIST:0.999183,0.000000,-0.036112,-0.018125 WAIST_JOINT0:0.997193,0.000000,-0.073846,-0.012359 WAIST_JOINT1:0.997881,0.063200,0.000000,-0.015454 END:
KINECT_DATA_Sensor  AnkleLeft:0.067915,0.729669,-0.097183,-0.673443 AnkleRight:0.080366,0.722580,0.061990,0.683795 ElbowLeft:-0.110631,0.891261,-0.128299,-0.420659 ElbowRight:0.030647,0.790817,0.209341,0.574322 FootLeft:0.000000,0.000000,0.000000,0.000000 FootRight:0.000000,0.000000,0.000000,0.000000 HandLeft:0.629011,-0.646273,-0.018312,-0.431672 HandRight:0.028252,-0.351935,-0.083677,0.931848 HandTipLeft:0.000000,0.000000,0.000000,0.000000 HandTipRight:0.000000,0.000000,0.000000,0.000000 Head:0.000000,0.000000,0.000000,0.000000 HipLeft:-0.150924,0.687455,-0.687090,0.180374 HipRight:-0.100205,0.667714,0.720416,-0.158487 KneeLeft:-0.018351,0.732928,-0.071149,-0.676326 KneeRight:-0.002620,0.680942,0.032824,0.731596 Neck:0.074314,-0.035428,0.993396,-0.079915 ShoulderLeft:-0.036142,0.797360,-0.591232,0.115568 ShoulderRight:0.059546,0.781567,0.620970,0.001769 SpineBase:0.036175,-0.032166,0.998116,-0.037698 SpineMid:0.054551,-0.032855,0.997280,-0.037099 SpineShoulder:0.073925,-0.032981,0.995094,-0.056886 ThumbLeft:0.000000,0.000000,0.000000,0.000000 ThumbRight:0.000000,0.000000,0.000000,0.000000 WristLeft:-0.406952,0.794862,-0.037789,0.448504 WristRight:-0.027659,-0.353342,-0.114142,0.928092 END:
KINECT_DATA POSITION:9.996662,-0.901351,9.054291 HEAD_JOINT1:0.979974,0.152203,-0.000000,0.128391 LARM_JOINT2:0.833070,0.000000,-0.118953,-0.540226 LARM_JOINT3:0.837699,0.000000,-0.499190,-0.221514 LLEG_JOINT2:0.996195,0.039641,0.000000,0.077611 LLEG_JOINT4:0.995626,0.083092,0.000000,-0.042713 RARM_JOINT2:0.790304,0.000000,-0.095474,0.605230 RARM_JOINT3:0.966676,0.000000,0.215518,0.138163 RLEG_JOINT2:0.999714,0.021261,0.000000,-0.010907 RLEG_JOINT4:0.996163,0.082544,0.000000,0.029077 WAIST:0.999190,0.000000,-0.036896,-0.016035 WAIST_JOINT0:0.997048,0.000000,-0.075899,-0.011565 WAIST_JOINT1:0.997863,0.062974,0.000000,-0.017405 END:
KINECT_DATA_Sensor  AnkleLeft:0.072661,0.746588,-0.099512,-0.653777 AnkleRight:0.076562,0.669191,0.069048,0.735904 ElbowLeft:-0.118227,0.891843,-0.123321,-0.418844 ElbowRight:0.031824,0.788127,0.207748,0.578519 FootLeft:0.000000,0.000000,0.000000,0.000000 FootRight:0.000000,0.000000,0.000000,0.000000 HandLeft:0.646434,-0.674872,-0.121767,-0.334431 HandRight:0.023595,-0.313151,-0.073499,0.946561 HandTipLeft:0.000000,0.000000,0.000000,0.000000 HandTipRight:0.000000,0.000000,0.000000,0.000000 Head:0.000000,0.000000,0.000000,0.000000 HipLeft:0.150590,-0.685787,0.688607,-0.181217 HipRight:-0.099715,0.669054,0.719251,-0.158436 KneeLeft:-0.018365,0.733328,-0.070616,-0.675948 KneeRight:-0.003154,0.680461,0.033795,0.731998 Neck:0.075976,-0.035320,0.993316,-0.079397 ShoulderLeft:-0.034223,0.796655,-0.592461,0.114716 ShoulderRight:0.063491,0.781940,0.620087,0.005560 SpineBase:0.036824,-0.031470,0.998104,-0.037969 SpineMid:0.055739,-0.032185,0.997227,-0.037365 SpineShoulder:0.075603,-0.032861,0.994974,-0.056834 ThumbLeft:0.000000,0.000000,0.000000,0.000000 ThumbRight:0.000000,0.000000,0.000000,0.000000 WristLeft:-0.421180,0.849531,0.031820,0.316058 WristRight:-0.033495,-0.313701,-0.111332,0.942377 END:
KINECT_DATA POSITION:10.019133,-0.871859,8.990395 HEAD_JOINT1:0.980035,0.151547,-0.000000,0.128701 LARM_JOINT2:0.831380,0.000000,-0.125433,-0.541363 LARM_JOINT3:0.845878,0.000000,-0.490086,-0.210488 LLEG_JOINT2:0.996414,0.039088,0.000000,0.075041 LLEG_JOINT4:0.995646,0.082249,0.000000,-0.043876 RARM_JOINT2:0.790499,0.000000,-0.095420,0.604984 RARM_JOINT3:0.965671,0.000000,0.218642,0.140270 RLEG_JOINT2:0.999685,0.021363,0.000000,-0.013191 RLEG_JOINT4:0.996385,0.080125,0.000000,0.028223 WAIST:0.999175,0.000000,-0.038228,-0.013705 WAIST_JOINT0:0.997102,0.000000,-0.075386,-0.010218 WAIST_JOINT1:0.997872,0.062307,0.000000,-0.019232 END:
KINECT_DATA_Sensor  AnkleLeft:0.072419,0.746365,-0.097806,-0.654315 AnkleRight:0.079805,0.726852,0.061648,0.679351 ElbowLeft:-0.122521,0.891399,-0.117916,-0.420110 ElbowRight:0.032217,0.789104,0.207148,0.577379 FootLeft:0.000000,0.000000,0.000000,0.000000 FootRight:0.000000,0.000000,0.000000,0.000000 HandLeft:0.633840,-0.651585,-0.036300,-0.415170 HandRight:0.043204,-0.399617,-0.088501,0.911377 HandTipLeft:0.000000,0.000000,0.000000,0.000000 HandTipRight:0.000000,0.000000,0.000000,0.000000 Head:0.000000,0.000000,0.000000,0.000000 HipLeft:0.150950,-0.684311,0.689856,-0.181747 HipRight:-0.098683,0.671034,0.717719,-0.157651 KneeLeft:-0.018619,0.734078,-0.070063,-0.675185 KneeRight:-0.002950,0.679588,0.033883,0.732805 Neck:0.075001,-0.034438,0.993507,-0.078309 ShoulderLeft:-0.030927,0.795372,-0.594925,0.111760 ShoulderRight:0.065498,0.782794,0.618781,0.007299 SpineBase:0.038014,-0.030436,0.998087,-0.038095 SpineMid:0.055895,-0.031113,0.997245,-0.037543 SpineShoulder:0.074638,-0.032203,0.995085,-0.056552 ThumbLeft:0.000000,0.000000,0.000000,0.000000 ThumbRight:0.000000,0.000000,0.000000,0.000000 WristLeft:-0.425591,0.799042,-0.025280,0.423988 WristRight:-0.022573,-0.401994,-0.112623,0.908409 END:
KINECT_DATA POSITION:10.002089,-0.870736,8.922112 HEAD_JOINT1:0.980042,0.151341,-0.000000,0.128893 LARM_JOINT2:0.833138,0.000000,-0.124941,-0.538768 LARM_JOINT3:0.866401,0.000000,-0.474173,-0.156555 LLEG_JOINT2:0.996445,0.039479,0.000000,0.074421 LLEG_JOINT4:0.995730,0.079454,0.000000,-0.047007 RARM_JOINT2:0.788134,0.000000,-0.094337,0.608232 RARM_JOINT3:0.966338,0.000000,0.218964,0.135080 RLEG_JOINT2:0.999688,0.020389,0.000000,-0.014429 RLEG_JOINT4:0.996331,0.080993,0.000000,0.027651 WAIST:0.999185,0.000000,-0.038438,-0.012310 WAIST_JOINT0:0.996935,0.000000,-0.077524,-0.010482 WAIST_JOINT1:0.997965,0.060380,0.000000,-0.020490 END:
KINECT_DATA_Sensor  AnkleLeft:0.072523,0.747430,-0.094415,-0.653585 AnkleRight:0.079059,0.721721,0.062512,0.684807 ElbowLeft:-0.127703,0.883612,-0.117748,-0.434808 ElbowRight:0.031174,0.787742,0.202347,0.580987 FootLeft:0.000000,0.000000,0.000000,0.000000 FootRight:0.000000,0.000000,0.000000,0.000000 HandLeft:-0.598650,0.759304,0.058221,0.248365 HandRight:0.031598,-0.320516,-0.103335,0.941059 HandTipLeft:0.000000,0.000000,0.000000,0.000000 HandTipRight:0.000000,0.000000,0.000000,0.000000 Head:0.000000,0.000000,0.000000,0.000000 HipLeft:0.151640,-0.683668,0.690514,-0.181092 HipRight:-0.099381,0.672313,0.716623,-0.156746 KneeLeft:-0.018891,0.734185,-0.070909,-0.674972 KneeRight:-0.003514,0.679496,0.033142,0.732922 Neck:0.077385,-0.034606,0.993520,-0.075712 ShoulderLeft:-0.033338,0.796457,-0.593240,0.112298 ShoulderRight:0.065992,0.782152,0.619496,0.010399 SpineBase:0.038161,-0.029584,0.998151,-0.036917 SpineMid:0.057201,-0.030283,0.997241,-0.036345 SpineShoulder:0.077056,-0.032148,0.994999,-0.054821 ThumbLeft:0.000000,0.000000,0.000000,0.000000 ThumbRight:0.000000,0.000000,0.000000,0.000000 WristLeft:-0.409692,0.872760,0.027671,0.263964 WristRight:-0.031072,-0.324932,-0.110386,0.938759 END:
KINECT_DATA POSITION:10.060859,-0.880782,8.855045 HEAD_JOINT1:0.980270,0.153429,-0.000000,0.124622 LARM_JOINT2:0.830430,0.000000,-0.121977,-0.543606 LARM_JOINT3:0.881474,0.000000,-0.466159,-0.075498 LLEG_JOINT2:0.996758,0.036795,0.000000,0.071546 LLEG_JOINT4:0.995877,0.080001,0.000000,-0.042776 RARM_JOINT2:0.788836,0.000000,-0.095510,0.607137 RARM_JOINT3:0.964007,0.000000,0.228966,0.135148 RLEG_JOINT2:0.999681,0.019859,0.000000,-0.015625 RLEG_JOINT4:0.996077,0.084492,0.000000,0.026284 WAIST:0.999331,0.000000,-0.034913,-0.010884 WAIST_JOINT0:0.997087,0.000000,-0.075464,-0.011079 WAIST_JOINT1:0.998036,0.058819,0.000000,-0.021544 END:
KINECT_DATA_Sensor  AnkleLeft:0.069664,0.746763,-0.094543,-0.654639 AnkleRight:0.075262,0.669829,0.071546,0.735218 ElbowLeft:-0.133922,0.836839,-0.102897,-0.520747 ElbowRight:0.030020,0.790778,0.202830,0.576740 FootLeft:0.000000,0.000000,0.000000,0.000000 FootRight:0.000000,0.000000,0.000000,0.000000 HandLeft:-0.214207,0.091625,-0.548446,0.803073 HandRight:-0.099381,0.747944,0.106762,-0.647538 HandTipLeft:0.000000,0.000000,0.000000,0.000000 HandTipRight:0.000000,0.000000,0.000000,0.000000 Head:0.000000,0.000000,0.000000,0.000000 HipLeft:0.149148,-0.683523,0.692144,-0.177450 HipRight:-0.101228,0.673032,0.715600,-0.157157 KneeLeft:-0.019375,0.731631,-0.068081,-0.678016 KneeRight:-0.003796,0.682128,0.032666,0.730493 Neck:0.075733,-0.034618,0.993786,-0.073862 ShoulderLeft:-0.036126,0.797662,-0.591525,0.111929 ShoulderRight:0.061090,0.782127,0.620067,0.007893 SpineBase:0.034571,-0.029041,0.998336,-0.035867 SpineMid:0.054590,-0.029754,0.997442,-0.035277 SpineShoulder:0.075407,-0.032086,0.995213,-0.053243 ThumbLeft:0.000000,0.000000,0.000000,0.000000 ThumbRight:0.000000,0.000000,0.000000,0.000000 WristLeft:-0.132519,0.138127,-0.402052,0.895385 WristRight:-0.032715,0.756108,0.111634,-0.644025 END:
KINECT_DATA POSITION:10.187191,-0.891955,8.747995 HEAD_JOINT1:0.981264,0.154353,-0.000000,0.115307 LARM_JOINT2:0.831663,0.000000,-0.121363,-0.541855 LARM_JOINT3:0.882173,0.000000,-0.468621,-0.046534 LLEG_JOINT2:0.997101,0.033759,0.000000,0.068193 LLEG_JOINT4:0.995538,0.083819,0.000000,-0.043338 RARM_JOINT2:0.790896,0.000000,-0.091371,0.605091 RARM_JOINT3:0.963637,0.000000,0.227892,0.139529 RLEG_JOINT2:0.999672,0.018324,0.000000,-0.017915 RLEG_JOINT4:0.995921,0.084740,0.000000,0.030985 WAIST:0.999499,0.000000,-0.030088,-0.009820 WAIST_JOINT0:0.997468,0.000000,-0.070208,-0.011323 WAIST_JOINT1:0.998030,0.058868,0.000000,-0.021692 END:
KINECT_DATA_Sensor  AnkleLeft:0.072763,0.743518,-0.092775,-0.658240 AnkleRight:0.076375,0.672528,0.068654,0.732911 ElbowLeft:-0.140130,0.806196,-0.099287,-0.566175 ElbowRight:0.026052,0.796105,0.203295,0.569394 FootLeft:0.000000,0.000000,0.000000,0.000000 FootRight:0.000000,0.000000,0.000000,0.000000 HandLeft:-0.184403,0.057944,-0.557279,0.807514 HandRight:0.102393,-0.691660,-0.101795,0.707644 HandTipLeft:0.000000,0.000000,0.000000,0.000000 HandTipRight:0.000000,0.000000,0.000000,0.000000 Head:0.000000,0.000000,0.000000,0.000000 HipLeft:0.145449,-0.683652,0.693652,-0.174102 HipRight:-0.103392,0.673398,0.714581,-0.158804 KneeLeft:-0.019436,0.728173,-0.064443,-0.682080 KneeRight:-0.005849,0.685722,0.032550,0.727112 Neck:0.070697,-0.033932,0.994178,-0.073901 ShoulderLeft:-0.033626,0.798270,-0.591481,0.108555 ShoulderRight:0.057185,0.782076,0.620546,0.003146 SpineBase:0.029716,-0.028134,0.998524,-0.035723 SpineMid:0.049658,-0.028842,0.997731,-0.035154 SpineShoulder:0.070368,-0.031462,0.995604,-0.053218 ThumbLeft:0.000000,0.000000,0.000000,0.000000 ThumbRight:0.000000,0.000000,0.000000,0.000000 WristLeft:-0.084019,0.124016,-0.426253,0.892115 WristRight:-0.026821,0.703760,0.115582,-0.700460 END:
KINECT_DATA POSITION:10.334892,-0.910243,8.739412 HEAD_JOINT1:0.981653,0.156794,-0.000000,0.108505 LARM_JOINT2:0.834218,0.000000,-0.126668,-0.536689 LARM_JOINT3:0.876951,0.000000,-0.477701,-0.052520 LLEG_JOINT2:0.997292,0.032998,0.000000,0.065723 LLEG_JOINT4:0.995689,0.084393,0.000000,-0.038476 RARM_JOINT2:0.792772,0.000000,-0.087496,0.603206 RARM_JOINT3:0.964720,0.000000,0.223265,0.139526 RLEG_JOINT2:0.999676,0.016486,0.000000,-0.019370 RLEG_JOINT4:0.995777,0.086074,0.000000,0.031913 WAIST:0.999593,0.000000,-0.026947,-0.009353 WAIST_JOINT0:0.997890,0.000000,-0.064020,-0.010771 WAIST_JOINT1:0.998026,0.058983,0.000000,-0.021557 END:
KINECT_DATA_Sensor  AnkleLeft:0.070824,0.740645,-0.094599,-0.661422 AnkleRight:0.080089,0.720848,0.063552,0.685511 ElbowLeft:-0.147223,0.802282,-0.100412,-0.569724 ElbowRight:0.022982,0.801416,0.203798,0.561845 FootLeft:0.000000,0.000000,0.000000,0.000000 FootRight:0.000000,0.000000,0.000000,0.000000 HandLeft:-0.228724,0.074176,-0.547791,0.801317 HandRight:0.057446,-0.408090,-0.120034,0.903191 HandTipLeft:0.000000,0.000000,0.000000,0.000000 HandTipRight:0.000000,0.000000,0.000000,0.000000 Head:0.000000,0.000000,0.000000,0.000000 HipLeft:0.143379,-0.683935,0.694222,-0.172428 HipRight:-0.105242,0.673606,0.713790,-0.160259 KneeLeft:-0.018284,0.726002,-0.062597,-0.684593 KneeRight:-0.007933,0.688058,0.032018,0.724906 Neck:0.064805,-0.033343,0.994584,-0.074101 ShoulderLeft:-0.032519,0.798784,-0.591313,0.105996 ShoulderRight:0.050876,0.782883,0.620074,-0.003716 SpineBase:0.026577,-0.027375,0.998636,-0.035639 SpineMid:0.045164,-0.028034,0.997968,-0.035124 SpineShoulder:0.064474,-0.030892,0.996013,-0.053354 ThumbLeft:0.000000,0.000000,0.000000,0.000000 ThumbRight:0.000000,0.000000,0.000000,0.000000 WristLeft:-0.101340,0.157126,-0.436675,0.879976 WristRight:-0.014453,-0.414593,-0.118076,0.902198 END:
KINECT_DATA POSITION:10.382835,-0.921272,8.747888 HEAD_JOINT1:0.981399,0.158517,-0.000000,0.108293 LARM_JOINT2:0.836583,0.000000,-0.139055,-0.529899 LARM_JOINT3:0.876858,0.000000,-0.477489,-0.055887 LLEG_JOINT2:0.997320,0.032641,0.000000,0.065486 LLEG_JOINT4:0.995571,0.085664,0.000000,-0.038727 RARM_JOINT2:0.792950,0.000000,-0.088093,0.602885 RARM_JOINT3:0.965817,0.000000,0.218504,0.139478 RLEG_JOINT2:0.999688,0.015463,0.000000,-0.019611 RLEG_JOINT4:0.995426,0.090487,0.000000,0.030648 WAIST:0.999615,0.000000,-0.026130,-0.009290 WAIST_JOINT0:0.997873,0.000000,-0.064209,-0.011211 WAIST_JOINT1:0.997991,0.059561,0.000000,-0.021608 END:
KINECT_DATA_Sensor  AnkleLeft:0.071943,0.740562,-0.094816,-0.661364 AnkleRight:0.077275,0.676053,0.071973,0.729247 ElbowLeft:-0.157306,0.807010,-0.099106,-0.560507 ElbowRight:0.023418,0.801337,0.204640,0.561634 FootLeft:0.000000,0.000000,0.000000,0.000000 FootRight:0.000000,0.000000,0.000000,0.000000 HandLeft:-0.553533,0.802078,0.220453,-0.040908 HandRight:0.066794,-0.590738,-0.084417,0.799650 HandTipLeft:0.000000,0.000000,0.000000,0.000000 HandTipRight:0.000000,0.000000,0.000000,0.000000 Head:0.000000,0.000000,0.000000,0.000000 HipLeft:0.142845,-0.683954,0.694343,-0.172308 HipRight:-0.105674,0.673528,0.713638,-0.160980 KneeLeft:-0.018350,0.725416,-0.062238,-0.685245 KneeRight:-0.008817,0.688687,0.031445,0.724323 Neck:0.065095,-0.033472,0.994511,-0.074763 ShoulderLeft:-0.033445,0.799579,-0.589959,0.107254 ShoulderRight:0.050306,0.783210,0.619702,-0.004546 SpineBase:0.025759,-0.027249,0.998651,-0.035908 SpineMid:0.044894,-0.027933,0.997974,-0.035379 SpineShoulder:0.064764,-0.030991,0.995965,-0.053836 ThumbLeft:0.000000,0.000000,0.000000,0.000000 ThumbRight:0.000000,0.000000,0.000000,0.000000 WristLeft:-0.445330,0.881869,0.092814,-0.123988 WristRight:0.010261,-0.592181,-0.118562,0.796969 END:
KINECT_DATA POSITION:10.420959,-0.926127,8.739066 HEAD_JOINT1:0.981473,0.156402,-0.000000,0.110678 LARM_JOINT2:0.838059,0.000000,-0.147076,-0.525382 LARM_JOINT3:0.877505,0.000000,-0.475649,-0.061180 LLEG_JOINT2:0.997347,0.031526,0.000000,0.065609 LLEG_JOINT4:0.995434,0.087441,0.000000,-0.038270 RARM_JOINT2:0.792868,0.000000,-0.087852,0.603027 RARM_JOINT3:0.966563,0.000000,0.216201,0.137889 RLEG_JOINT2:0.999682,0.015123,0.000000,-0.020184 RLEG_JOINT4:0.995434,0.090413,0.000000,0.030604 WAIST:0.999609,0.000000,-0.026439,-0.009122 WAIST_JOINT0:0.997724,0.000000,-0.066471,-0.011320 WAIST_JOINT1:0.997922,0.060550,0.000000,-0.022024 END:
KINECT_DATA_Sensor  AnkleLeft:0.072036,0.741785,-0.095703,-0.659854 AnkleRight:0.076593,0.674865,0.072089,0.730407 ElbowLeft:-0.162930,0.812795,-0.099001,-0.550470 ElbowRight:0.024195,0.801440,0.205120,0.561278 FootLeft:0.000000,0.000000,0.000000,0.000000 FootRight:0.000000,0.000000,0.000000,0.000000 HandLeft:-0.550349,0.803518,0.224706,-0.031342 HandRight:-0.065097,0.723601,0.066591,-0.683907 HandTipLeft:0.000000,0.000000,0.000000,0.000000 HandTipRight:0.000000,0.000000,0.000000,0.000000 Head:0.000000,0.000000,0.000000,0.000000 HipLeft:0.142973,-0.683683,0.694401,-0.173041 HipRight:-0.105302,0.673572,0.713555,-0.161404 KneeLeft:-0.019356,0.725538,-0.061625,-0.685144 KneeRight:-0.009331,0.688495,0.031509,0.724496 Neck:0.067421,-0.033849,0.994259,-0.075879 ShoulderLeft:-0.035009,0.799550,-0.589386,0.110081 ShoulderRight:0.051746,0.783080,0.619753,-0.003711 SpineBase:0.026047,-0.027286,0.998622,-0.036472 SpineMid:0.046190,-0.028017,0.997894,-0.035914 SpineShoulder:0.067086,-0.031349,0.995753,-0.054709 ThumbLeft:0.000000,0.000000,0.000000,0.000000 ThumbRight:0.000000,0.000000,0.000000,0.000000 WristLeft:-0.446172,0.882498,0.095535,-0.114025 WristRight:-0.031911,0.727866,0.114238,-0.675384 END:
KINECT_DATA POSITION:10.456160,-0.932096,8.752537 HEAD_JOINT1:0.981448,0.155266,-0.000000,0.112483 LARM_JOINT2:0.838266,0.000000,-0.153793,-0.523124 LARM_JOINT3:0.883553,0.000000,-0.464347,-0.060960 LLEG_JOINT2:0.997380,0.030598,0.000000,0.065543 LLEG_JOINT4:0.995225,0.090043,0.000000,-0.037664 RARM_JOINT2:0.791985,0.000000,-0.090911,0.603735 RARM_JOINT3:0.966800,0.000000,0.213898,0.139806 RLEG_JOINT2:0.999662,0.015982,0.000000,-0.020485 RLEG_JOINT4:0.995343,0.090811,0.000000,0.032350 WAIST:0.999594,0.000000,-0.027053,-0.008932 WAIST_JOINT0:0.997555,0.000000,-0.068827,-0.012138 WAIST_JOINT1:0.997888,0.061010,0.000000,-0.022279 END:
KINECT_DATA_Sensor  AnkleLeft:0.072811,0.742917,-0.097317,-0.658257 AnkleRight:0.083414,0.722850,0.066161,0.682754 ElbowLeft:-0.166856,0.817445,-0.097365,-0.542645 ElbowRight:0.026620,0.798704,0.205568,0.564894 FootLeft:0.000000,0.000000,0.000000,0.000000 FootRight:0.000000,0.000000,0.000000,0.000000 HandLeft:-0.227424,0.547725,0.535713,-0.601071 HandRight:-0.060803,0.728497,0.048968,-0.680586 HandTipLeft:0.000000,0.000000,0.000000,0.000000 HandTipRight:0.000000,0.000000,0.000000,0.000000 Head:0.000000,0.000000,0.000000,0.000000 HipLeft:0.143193,-0.683442,0.694426,-0.173711 HipRight:-0.104741,0.673768,0.713461,-0.161367 KneeLeft:-0.020130,0.725885,-0.061023,-0.684808 KneeRight:-0.008763,0.688042,0.032185,0.724903 Neck:0.069838,-0.034055,0.994052,-0.076316 ShoulderLeft:-0.036409,0.799975,-0.588299,0.112334 ShoulderRight:0.053408,0.782655,0.620157,-0.002216 SpineBase:0.026644,-0.027213,0.998595,-0.036852 SpineMid:0.047695,-0.027984,0.997811,-0.036270 SpineShoulder:0.069513,-0.031475,0.995559,-0.055124 ThumbLeft:0.000000,0.000000,0.000000,0.000000 ThumbRight:0.000000,0.000000,0.000000,0.000000 WristLeft:0.247168,-0.552626,-0.378325,0.700274 WristRight:-0.031797,0.733231,0.113368,-0.669709 END:
KINECT_DATA POSITION:10.461116,-0.932037,8.725214 HEAD_JOINT1:0.981319,0.155181,-0.000000,0.113718 LARM_JOINT2:0.837448,0.000000,-0.156688,-0.523574 LARM_JOINT3:0.886752,0.000000,-0.458796,-0.056359 LLEG_JOINT2:0.997379,0.030722,0.000000,0.065506 LLEG_JOINT4:0.995124,0.090062,0.000000,-0.040224 RARM_JOINT2:0.791090,0.000000,-0.092504,0.604665 RARM_JOINT3:0.967053,0.000000,0.214829,0.136594 RLEG_JOINT2:0.999658,0.015734,0.000000,-0.020894 RLEG_JOINT4:0.995750,0.086780,0.000000,0.030825 WAIST:0.999560,0.000000,-0.028379,-0.008683 WAIST_JOINT0:0.997453,0.000000,-0.070199,-0.012664 WAIST_JOINT1:0.997863,0.061192,0.000000,-0.022899 END:
KINECT_DATA_Sensor  AnkleLeft:0.074374,0.743417,-0.095863,-0.657731 AnkleRight:0.074437,0.672894,0.069967,0.732651 ElbowLeft:-0.167848,0.817104,-0.094073,-0.543433 ElbowRight:0.027860,0.795790,0.205458,0.568972 FootLeft:0.000000,0.000000,0.000000,0.000000 FootRight:0.000000,0.000000,0.000000,0.000000 HandLeft:-0.537635,0.816400,0.207929,-0.034705 HandRight:0.025778,-0.374132,-0.073775,0.924077 HandTipLeft:0.000000,0.000000,0.000000,0.000000 HandTipRight:0.000000,0.000000,0.000000,0.000000 Head:0.000000,0.000000,0.000000,0.000000 HipLeft:0.143764,-0.683174,0.694379,-0.174478 HipRight:-0.103574,0.674155,0.713392,-0.160810 KneeLeft:-0.020283,0.726773,-0.061228,-0.683842 KneeRight:-0.009012,0.687115,0.032140,0.725781 Neck:0.071206,-0.034416,0.993927,-0.076517 ShoulderLeft:-0.036679,0.800149,-0.587874,0.113228 ShoulderRight:0.054872,0.782225,0.620574,-0.000970 SpineBase:0.027937,-0.027412,0.998543,-0.037149 SpineMid:0.049030,-0.028191,0.997730,-0.036562 SpineShoulder:0.070886,-0.031752,0.995442,-0.055340 ThumbLeft:0.000000,0.000000,0.000000,0.000000 ThumbRight:0.000000,0.000000,0.000000,0.000000 WristLeft:-0.439868,0.887056,0.090897,-0.106702 WristRight:-0.021377,-0.374238,-0.115447,0.919870 END:
KINECT_DATA POSITION:10.464371,-0.939406,8.681286 HEAD_JOINT1:0.981106,0.156270,-0.000000,0.114066 LARM_JOINT2:0.834093,0.000000,-0.170628,-0.524571 LARM_JOINT3:0.889848,0.000000,-0.456062,-0.013359 LLEG_JOINT2:0.997395,0.030675,0.000000,0.065288 LLEG_JOINT4:0.995083,0.090174,0.000000,-0.040971 RARM_JOINT2:0.790769,0.000000,-0.093771,0.604889 RARM_JOINT3:0.966205,0.000000,0.219284,0.135511 RLEG_JOINT2:0.999650,0.015188,0.000000,-0.021655 RLEG_JOINT4:0.995582,0.087522,0.000000,0.034020 WAIST:0.999547,0.000000,-0.028833,-0.008598 WAIST_JOINT0:0.997291,0.000000,-0.072271,-0.013729 WAIST_JOINT1:0.997862,0.061149,0.000000,-0.023063 END:
KINECT_DATA_Sensor  AnkleLeft:0.075084,0.744330,-0.095241,-0.656707 AnkleRight:0.080792,0.720395,0.062941,0.685960 ElbowLeft:-0.175865,0.801190,-0.077432,-0.566719 ElbowRight:0.028285,0.793531,0.205680,0.572018 FootLeft:0.000000,0.000000,0.000000,0.000000 FootRight:0.000000,0.000000,0.000000,0.000000 HandLeft:-0.223713,0.097515,-0.563549,0.789212 HandRight:0.037530,-0.462193,-0.086759,0.881727 HandTipLeft:0.000000,0.000000,0.000000,0.000000 HandTipRight:0.000000,0.000000,0.000000,0.000000 Head:0.000000,0.000000,0.000000,0.000000 HipLeft:0.144140,-0.682978,0.694360,-0.175010 HipRight:-0.103249,0.674177,0.713389,-0.160941 KneeLeft:-0.020248,0.727071,-0.061091,-0.683539 KneeRight:-0.009858,0.686814,0.032261,0.726050 Neck:0.073323,-0.034584,0.993784,-0.076301 ShoulderLeft:-0.037773,0.800585,-0.586932,0.114664 ShoulderRight:0.056437,0.781534,0.621304,0.000833 SpineBase:0.028373,-0.027589,0.998516,-0.037410 SpineMid:0.050300,-0.028405,0.997652,-0.036795 SpineShoulder:0.073009,-0.031900,0.995286,-0.055296 ThumbLeft:0.000000,0.000000,0.000000,0.000000 ThumbRight:0.000000,0.000000,0.000000,0.000000 WristLeft:-0.111170,0.174520,-0.449856,0.868800 WristRight:-0.010949,-0.463365,-0.117369,0.878293 END:
KINECT_DATA POSITION:10.452511,-0.948330,8.641994 HEAD_JOINT1:0.980807,0.157593,-0.000000,0.114811 LARM_JOINT2:0.863503,0.000000,-0.246771,-0.439847 LARM_JOINT3:0.898672,0.000000,-0.431928,-0.076330 LLEG_JOINT2:0.997403,0.031124,0.000000,0.064949 LLEG_JOINT4:0.995010,0.091066,0.000000,-0.040767 RARM_JOINT2:0.790374,0.000000,-0.093561,0.605438 RARM_JOINT3:0.966061,0.000000,0.219104,0.136823 RLEG_JOINT2:0.999641,0.015520,0.000000,-0.021837 RLEG_JOINT4:0.995877,0.085171,0.000000,0.031227 WAIST:0.999533,0.000000,-0.029376,-0.008457 WAIST_JOINT0:0.997048,0.000000,-0.075251,-0.015275 WAIST_JOINT1:0.997879,0.060774,0.000000,-0.023344 END:
KINECT_DATA_Sensor  AnkleLeft:0.076157,0.745726,-0.096079,-0.654875 AnkleRight:0.072779,0.670200,0.069063,0.735368 ElbowLeft:-0.257886,0.877070,-0.126165,-0.385130 ElbowRight:0.028151,0.793224,0.204938,0.572717 FootLeft:0.000000,0.000000,0.000000,0.000000 FootRight:0.000000,0.000000,0.000000,0.000000 HandLeft:0.668241,-0.671196,0.072321,-0.312601 HandRight:0.036137,-0.337784,-0.094988,0.935721 HandTipLeft:0.000000,0.000000,0.000000,0.000000 HandTipRight:0.000000,0.000000,0.000000,0.000000 Head:0.000000,0.000000,0.000000,0.000000 HipLeft:0.144722,-0.682870,0.694291,-0.175225 HipRight:-0.103040,0.674375,0.713289,-0.160687 KneeLeft:-0.019828,0.727468,-0.061271,-0.683113 KneeRight:-0.009627,0.686417,0.032523,0.726416 Neck:0.076544,-0.034877,0.993573,-0.075740 ShoulderLeft:-0.041661,0.801569,-0.584669,0.117954 ShoulderRight:0.056641,0.780883,0.622100,0.002382 SpineBase:0.028900,-0.027777,0.998502,-0.037249 SpineMid:0.052158,-0.028637,0.997557,-0.036592 SpineShoulder:0.076235,-0.032155,0.995059,-0.054885 ThumbLeft:0.000000,0.000000,0.000000,0.000000 ThumbRight:0.000000,0.000000,0.000000,0.000000 WristLeft:-0.424675,0.832873,-0.084272,0.344779 WristRight:-0.027644,-0.341034,-0.113626,0.932749 END:
KINECT_DATA POSITION:10.444737,-0.956579,8.638561 HEAD_JOINT1:0.980617,0.158183,-0.000000,0.115621 LARM_JOINT2:0.866355,0.000000,-0.254363,-0.429801 LARM_JOINT3:0.899502,0.000000,-0.427997,-0.087835 LLEG_JOINT2:0.997402,0.030849,0.000000,0.065091 LLEG_JOINT4:0.995074,0.089904,0.000000,-0.041763 RARM_JOINT2:0.789720,0.000000,-0.092774,0.606411 RARM_JOINT3:0.966950,0.000000,0.216254,0.135060 RLEG_JOINT2:0.999638,0.015716,0.000000,-0.021838 RLEG_JOINT4:0.995689,0.087013,0.000000,0.032139 WAIST:0.999509,0.000000,-0.030199,-0.008306 WAIST_JOINT0:0.996800,0.000000,-0.078257,-0.016271 WAIST_JOINT1:0.997893,0.060441,0.000000,-0.023585 END:
KINECT_DATA_Sensor  AnkleLeft:0.075674,0.747340,-0.094532,-0.653314 AnkleRight:0.080479,0.727319,0.063280,0.678621 ElbowLeft:-0.265800,0.884086,-0.134303,-0.360147 ElbowRight:0.027740,0.792262,0.203580,0.574548 FootLeft:0.000000,0.000000,0.000000,0.000000 FootRight:0.000000,0.000000,0.000000,0.000000 HandLeft:-0.454486,0.316408,-0.478517,0.681432 HandRight:0.062895,-0.667385,-0.067841,0.738944 HandTipLeft:0.000000,0.000000,0.000000,0.000000 HandTipRight:0.000000,0.000000,0.000000,0.000000 Head:0.000000,0.000000,0.000000,0.000000 HipLeft:0.145363,-0.682736,0.694202,-0.175571 HipRight:-0.102605,0.674658,0.713204,-0.160150 KneeLeft:-0.020283,0.728004,-0.061254,-0.682529 KneeRight:-0.009357,0.685821,0.032555,0.726982 Neck:0.079729,-0.035095,0.993351,-0.075270 ShoulderLeft:-0.045340,0.802511,-0.582450,0.121131 ShoulderRight:0.056984,0.780764,0.622209,0.004099 SpineBase:0.029709,-0.027835,0.998482,-0.037087 SpineMid:0.054143,-0.028734,0.997456,-0.036395 SpineShoulder:0.079428,-0.032320,0.994824,-0.054522 ThumbLeft:0.000000,0.000000,0.000000,0.000000 ThumbRight:0.000000,0.000000,0.000000,0.000000 WristLeft:-0.280477,0.414874,-0.328660,0.800747 WristRight:0.016741,-0.667144,-0.115735,0.735693 END:
KINECT_DATA POSITION:10.430286,-0.963157,8.635235 HEAD_JOINT1:0.980161,0.159883,-0.000000,0.117136 LARM_JOINT2:0.866456,0.000000,-0.255580,-0.428873 LARM_JOINT3:0.902684,0.000000,-0.420336,-0.092085 LLEG_JOINT2:0.997379,0.030743,0.000000,0.065496 LLEG_JOINT4:0.995442,0.085915,0.000000,-0.041409 RARM_JOINT2:0.789513,0.000000,-0.093374,0.606589 RARM_JOINT3:0.966623,0.000000,0.219633,0.131912 RLEG_JOINT2:0.999650,0.015336,0.000000,-0.021578 RLEG_JOINT4:0.995637,0.087578,0.000000,0.032208 WAIST:0.999492,0.000000,-0.030741,-0.008362 WAIST_JOINT0:0.996678,0.000000,-0.079711,-0.016716 WAIST_JOINT1:0.997884,0.060602,0.000000,-0.023545 END:
KINECT_DATA_Sensor  AnkleLeft:0.072254,0.748584,-0.092194,-0.652611 AnkleRight:0.075226,0.667211,0.069719,0.737773 ElbowLeft:-0.266006,0.886709,-0.135935,-0.352860 ElbowRight:0.028349,0.791385,0.203656,0.575700 FootLeft:0.000000,0.000000,0.000000,0.000000 FootRight:0.000000,0.000000,0.000000,0.000000 HandLeft:0.623094,-0.622916,0.186631,-0.434625 HandRight:-0.081087,0.816799,0.070887,-0.566779 HandTipLeft:0.000000,0.000000,0.000000,0.000000 HandTipRight:0.000000,0.000000,0.000000,0.000000 Head:0.000000,0.000000,0.000000,0.000000 HipLeft:0.145617,-0.682700,0.694107,-0.175876 HipRight:-0.102156,0.674699,0.713305,-0.159819 KneeLeft:-0.020647,0.728362,-0.061400,-0.682124 KneeRight:-0.009481,0.685441,0.032147,0.727356 Neck:0.081259,-0.035142,0.993210,-0.075468 ShoulderLeft:-0.046784,0.802670,-0.581770,0.122780 ShoulderRight:0.057497,0.780528,0.622452,0.004784 SpineBase:0.030251,-0.027894,0.998462,-0.037155 SpineMid:0.055170,-0.028813,0.997396,-0.036447 SpineShoulder:0.080959,-0.032365,0.994692,-0.054644 ThumbLeft:0.000000,0.000000,0.000000,0.000000 ThumbRight:0.000000,0.000000,0.000000,0.000000 WristLeft:-0.400110,0.747657,-0.152031,0.507747 WristRight:-0.041985,0.820731,0.108315,-0.559379 END:
KINECT_DATA POSITION:10.416311,-0.966080,8.637512 HEAD_JOINT1:0.979931,0.161558,-0.000000,0.116765 LARM_JOINT2:0.865747,0.000000,-0.254352,-0.431030 LARM_JOINT3:0.903681,0.000000,-0.418845,-0.089042 LLEG_JOINT2:0.997380,0.030197,0.000000,0.065738 LLEG_JOINT4:0.995124,0.089897,0.000000,-0.040582 RARM_JOINT2:0.790881,0.000000,-0.092534,0.604933 RARM_JOINT3:0.965499,0.000000,0.224287,0.132317 RLEG_JOINT2:0.999660,0.014983,0.000000,-0.021333 RLEG_JOINT4:0.995872,0.085363,0.000000,0.030863 WAIST:0.999501,0.000000,-0.030466,-0.008364 WAIST_JOINT0:0.996758,0.000000,-0.078721,-0.016648 WAIST_JOINT1:0.997864,0.060976,0.000000,-0.023420 END:
KINECT_DATA_Sensor  AnkleLeft:0.073986,0.747845,-0.095324,-0.652815 AnkleRight:0.072642,0.668154,0.068707,0.737274 ElbowLeft:-0.264356,0.885266,-0.134007,-0.358418 ElbowRight:0.028175,0.794617,0.205168,0.570698 FootLeft:0.000000,0.000000,0.000000,0.000000 FootRight:0.000000,0.000000,0.000000,0.000000 HandLeft:0.621391,-0.612015,0.204315,-0.444485 HandRight:-0.076014,0.731499,0.102067,-0.669861 HandTipLeft:0.000000,0.000000,0.000000,0.000000 HandTipRight:0.000000,0.000000,0.000000,0.000000 Head:0.000000,0.000000,0.000000,0.000000 HipLeft:0.145386,-0.682690,0.694171,-0.175853 HipRight:-0.102206,0.674625,0.713312,-0.160064 KneeLeft:-0.021181,0.728133,-0.061174,-0.682372 KneeRight:-0.009579,0.685659,0.031727,0.727168 Neck:0.080318,-0.034963,0.993256,-0.075957 ShoulderLeft:-0.046165,0.802587,-0.582005,0.122444 ShoulderRight:0.056949,0.780485,0.622565,0.003591 SpineBase:0.029974,-0.027891,0.998464,-0.037318 SpineMid:0.054558,-0.028802,0.997423,-0.036619 SpineShoulder:0.080014,-0.032240,0.994753,-0.055003 ThumbLeft:0.000000,0.000000,0.000000,0.000000 ThumbRight:0.000000,0.000000,0.000000,0.000000 WristLeft:-0.396379,0.736768,-0.162976,0.522969 WristRight:-0.028282,0.736767,0.112591,-0.666107 END:
KINECT_DATA POSITION:10.400595,-0.965921,8.634877 HEAD_JOINT1:0.980576,0.160369,-0.000000,0.112923 LARM_JOINT2:0.863090,0.000000,-0.257230,-0.434637 LARM_JOINT3:0.905985,0.000000,-0.415564,-0.080605 LLEG_JOINT2:0.997401,0.029995,0.000000,0.065504 LLEG_JOINT4:0.994981,0.091331,0.000000,-0.040895 RARM_JOINT2:0.792238,0.000000,-0.091685,0.603284 RARM_JOINT3:0.965483,0.000000,0.224506,0.132063 RLEG_JOINT2:0.999660,0.014914,0.000000,-0.021370 RLEG_JOINT4:0.995632,0.088100,0.000000,0.030925 WAIST:0.999526,0.000000,-0.029612,-0.008388 WAIST_JOINT0:0.996922,0.000000,-0.076685,-0.016330 WAIST_JOINT1:0.997829,0.062050,0.000000,-0.022088 END:
KINECT_DATA_Sensor  AnkleLeft:0.075276,0.746604,-0.095769,-0.654022 AnkleRight:0.074560,0.669131,0.070562,0.736020 ElbowLeft:-0.263664,0.884007,-0.129018,-0.363823 ElbowRight:0.027018,0.792543,0.206350,0.573206 FootLeft:0.000000,0.000000,0.000000,0.000000 FootRight:0.000000,0.000000,0.000000,0.000000 HandLeft:-0.259104,0.085927,-0.596296,0.754926 HandRight:-0.082452,0.772863,0.089240,-0.622832 HandTipLeft:0.000000,0.000000,0.000000,0.000000 HandTipRight:0.000000,0.000000,0.000000,0.000000 Head:0.000000,0.000000,0.000000,0.000000 HipLeft:0.144448,-0.682632,0.694401,-0.175943 HipRight:-0.102613,0.674411,0.713309,-0.160722 KneeLeft:-0.021078,0.727537,-0.060873,-0.683037 KneeRight:-0.009693,0.686273,0.031719,0.726587 Neck:0.078241,-0.033467,0.993374,-0.077243 ShoulderLeft:-0.043678,0.801508,-0.583911,0.121351 ShoulderRight:0.056843,0.780115,0.623047,0.001312 SpineBase:0.029143,-0.027219,0.998488,-0.037830 SpineMid:0.053103,-0.028120,0.997501,-0.037166 SpineShoulder:0.077940,-0.030987,0.994898,-0.056067 ThumbLeft:0.000000,0.000000,0.000000,0.000000 ThumbRight:0.000000,0.000000,0.000000,0.000000 WristLeft:-0.158394,0.149768,-0.396552,0.891755 WristRight:-0.034727,0.778090,0.112972,-0.616934 END:
KINECT_DATA POSITION:10.354456,-0.965076,8.629632 HEAD_JOINT1:0.980613,0.161719,-0.000000,0.110653 LARM_JOINT2:0.863899,0.000000,-0.257159,-0.433068 LARM_JOINT3:0.904885,0.000000,-0.417664,-0.082095 LLEG_JOINT2:0.997452,0.029814,0.000000,0.064818 LLEG_JOINT4:0.994685,0.093638,0.000000,-0.042833 RARM_JOINT2:0.793304,0.000000,-0.090674,0.602036 RARM_JOINT3:0.965674,0.000000,0.222619,0.133848 RLEG_JOINT2:0.999659,0.014304,0.000000,-0.021867 RLEG_JOINT4:0.995666,0.087644,0.000000,0.031117 WAIST:0.999567,0.000000,-0.028303,-0.008001 WAIST_JOINT0:0.997073,0.000000,-0.074808,-0.015758 WAIST_JOINT1:0.997758,0.063399,0.000000,-0.021450 END:
KINECT_DATA_Sensor  AnkleLeft:0.078456,0.745146,-0.095584,-0.655337 AnkleRight:0.073794,0.670350,0.069861,0.735054 ElbowLeft:-0.263187,0.884977,-0.133297,-0.360251 ElbowRight:0.026398,0.791961,0.207390,0.573664 FootLeft:0.000000,0.000000,0.000000,0.000000 FootRight:0.000000,0.000000,0.000000,0.000000 HandLeft:-0.269072,0.101519,-0.596798,0.749083 HandRight:0.030288,-0.322924,-0.103109,0.940304 HandTipLeft:0.000000,0.000000,0.000000,0.000000 HandTipRight:0.000000,0.000000,0.000000,0.000000 Head:0.000000,0.000000,0.000000,0.000000 HipLeft:0.142765,-0.682345,0.695003,-0.176050 HipRight:-0.102875,0.674409,0.713007,-0.161899 KneeLeft:-0.020895,0.726599,-0.060577,-0.684067 KneeRight:-0.010238,0.687261,0.031386,0.725660 Neck:0.076355,-0.032529,0.993441,-0.078650 ShoulderLeft:-0.041356,0.800784,-0.585200,0.120730 ShoulderRight:0.056822,0.780096,0.623073,-0.001040 SpineBase:0.027828,-0.026304,0.998510,-0.038881 SpineMid:0.051524,-0.027220,0.997568,-0.038245 SpineShoulder:0.076075,-0.030031,0.994994,-0.057419 ThumbLeft:0.000000,0.000000,0.000000,0.000000 ThumbRight:0.000000,0.000000,0.000000,0.000000 WristLeft:-0.167258,0.166636,-0.391636,0.889314 WristRight:-0.031891,-0.326921,-0.115082,0.937476 END:
KINECT_DATA POSITION:10.341396,-0.963976,8.627403 HEAD_JOINT1:0.980469,0.162711,-0.000000,0.110478 LARM_JOINT2:0.864870,0.000000,-0.256296,-0.431639 LARM_JOINT3:0.904552,0.000000,-0.418261,-0.082721 LLEG_JOINT2:0.997458,0.029707,0.000000,0.064776 LLEG_JOINT4:0.995580,0.086694,0.000000,-0.036113 RARM_JOINT2:0.793257,0.000000,-0.091142,0.602027 RARM_JOINT3:0.966007,0.000000,0.220783,0.134481 RLEG_JOINT2:0.999642,0.014510,0.000000,-0.022493 RLEG_JOINT4:0.995664,0.087117,0.000000,0.032610 WAIST:0.999582,0.000000,-0.027813,-0.007908 WAIST_JOINT0:0.997124,0.000000,-0.074164,-0.015592 WAIST_JOINT1:0.997741,0.063697,0.000000,-0.021323 END:
KINECT_DATA_Sensor  AnkleLeft:0.068815,0.746305,-0.095487,-0.655115 AnkleRight:0.078571,0.717467,0.063970,0.689185 ElbowLeft:-0.262778,0.886281,-0.136925,-0.355957 ElbowRight:0.026716,0.791399,0.207561,0.574362 FootLeft:0.000000,0.000000,0.000000,0.000000 FootRight:0.000000,0.000000,0.000000,0.000000 HandLeft:-0.255410,0.460869,0.610481,-0.591336 HandRight:-0.074083,0.753843,0.063301,-0.649788 HandTipLeft:0.000000,0.000000,0.000000,0.000000 HandTipRight:0.000000,0.000000,0.000000,0.000000 Head:0.000000,0.000000,0.000000,0.000000 HipLeft:0.142251,-0.682305,0.695155,-0.176023 HipRight:-0.103063,0.674388,0.712900,-0.162337 KneeLeft:-0.020972,0.726248,-0.060548,-0.684440 KneeRight:-0.010464,0.687610,0.031915,0.725303 Neck:0.075718,-0.032345,0.993473,-0.078943 ShoulderLeft:-0.040757,0.800524,-0.585653,0.120461 ShoulderRight:0.056642,0.780016,0.623188,-0.001788 SpineBase:0.027339,-0.026068,0.998519,-0.039163 SpineMid:0.050969,-0.026988,0.997592,-0.038535 SpineShoulder:0.075443,-0.029836,0.995031,-0.057718 ThumbLeft:0.000000,0.000000,0.000000,0.000000 ThumbRight:0.000000,0.000000,0.000000,0.000000 WristLeft:0.181577,-0.560935,-0.384754,0.710173 WristRight:-0.031079,0.759327,0.115325,-0.639654 END:
KINECT_DATA POSITION:10.338449,-0.967418,8.634699 HEAD_JOINT1:0.980470,0.163155,-0.000000,0.109810 LARM_JOINT2:0.866050,0.000000,-0.254708,-0.430211 LARM_JOINT3:0.903541,0.000000,-0.419539,-0.087177 LLEG_JOINT2:0.997487,0.029973,0.000000,0.064198 LLEG_JOINT4:0.995215,0.090522,0.000000,-0.036786 RARM_JOINT2:0.793218,0.000000,-0.091237,0.602064 RARM_JOINT3:0.965740,0.000000,0.221737,0.134827 RLEG_JOINT2:0.999638,0.014906,0.000000,-0.022418 RLEG_JOINT4:0.995614,0.087719,0.000000,0.032530 WAIST:0.999608,0.000000,-0.026945,-0.007631 WAIST_JOINT0:0.997154,0.000000,-0.073817,-0.015338 WAIST_JOINT1:0.997723,0.064007,0.000000,-0.021248 END:
KINECT_DATA_Sensor  AnkleLeft:0.072578,0.745576,-0.097521,-0.655240 AnkleRight:0.075001,0.670674,0.069623,0.734659 ElbowLeft:-0.262212,0.886689,-0.140821,-0.353832 ElbowRight:0.026858,0.791319,0.207485,0.574494 FootLeft:0.000000,0.000000,0.000000,0.000000 FootRight:0.000000,0.000000,0.000000,0.000000 HandLeft:-0.221791,0.064491,-0.616614,0.752620 HandRight:0.043173,-0.389642,-0.091658,0.915377 HandTipLeft:0.000000,0.000000,0.000000,0.000000 HandTipRight:0.000000,0.000000,0.000000,0.000000 Head:0.000000,0.000000,0.000000,0.000000 HipLeft:0.141546,-0.682169,0.695465,-0.175894 HipRight:-0.103518,0.674411,0.712628,-0.163140 KneeLeft:-0.020507,0.725653,-0.060562,-0.685083 KneeRight:-0.009952,0.688247,0.031931,0.724705 Neck:0.075324,-0.032086,0.993491,-0.079201 ShoulderLeft:-0.039677,0.800294,-0.586144,0.119959 ShoulderRight:0.057206,0.780006,0.623149,-0.001862 SpineBase:0.026458,-0.025766,0.998536,-0.039522 SpineMid:0.050337,-0.026704,0.997617,-0.038894 SpineShoulder:0.075056,-0.029578,0.995050,-0.058020 ThumbLeft:0.000000,0.000000,0.000000,0.000000 ThumbRight:0.000000,0.000000,0.000000,0.000000 WristLeft:-0.147613,0.106545,-0.399938,0.898281 WristRight:-0.023911,-0.392186,-0.116861,0.912119 END:
KINECT_DATA POSITION:10.327754,-0.972892,8.650600 HEAD_JOINT1:0.980200,0.164832,-0.000000,0.109719 LARM_JOINT2:0.865234,0.000000,-0.255005,-0.431674 LARM_JOINT3:0.904238,0.000000,-0.418871,-0.083066 LLEG_JOINT2:0.997503,0.029929,0.000000,0.063967 LLEG_JOINT4:0.995275,0.090403,0.000000,-0.035420 RARM_JOINT2:0.792984,0.000000,-0.091407,0.602346 RARM_JOINT3:0.965653,0.000000,0.222472,0.134243 RLEG_JOINT2:0.999642,0.014877,0.000000,-0.022232 RLEG_JOINT4:0.995516,0.089485,0.000000,0.030668 WAIST:0.999626,0.000000,-0.026294,-0.007481 WAIST_JOINT0:0.997200,0.000000,-0.073217,-0.015182 WAIST_JOINT1:0.997719,0.064041,0.000000,-0.021365 END:
KINECT_DATA_Sensor  AnkleLeft:0.071674,0.745408,-0.098267,-0.655419 AnkleRight:0.080276,0.723713,0.066201,0.682212 ElbowLeft:-0.261899,0.885258,-0.138434,-0.358556 ElbowRight:0.026926,0.791303,0.207265,0.574591 FootLeft:0.000000,0.000000,0.000000,0.000000 FootRight:0.000000,0.000000,0.000000,0.000000 HandLeft:-0.181863,0.391468,0.619846,-0.655339 HandRight:0.074414,-0.695681,-0.072856,0.710762 HandTipLeft:0.000000,0.000000,0.000000,0.000000 HandTipRight:0.000000,0.000000,0.000000,0.000000 Head:0.000000,0.000000,0.000000,0.000000 HipLeft:0.140977,-0.682175,0.695649,-0.175600 HipRight:-0.103743,0.674460,0.712460,-0.163527 KneeLeft:-0.020434,0.725195,-0.060492,-0.685576 KneeRight:-0.009757,0.688731,0.031668,0.724259 Neck:0.074727,-0.032136,0.993535,-0.079193 ShoulderLeft:-0.039217,0.800229,-0.586363,0.119477 ShoulderRight:0.056920,0.780018,0.623158,-0.002307 SpineBase:0.025799,-0.025637,0.998550,-0.039675 SpineMid:0.049717,-0.026581,0.997646,-0.039050 SpineShoulder:0.074462,-0.029581,0.995093,-0.058051 ThumbLeft:0.000000,0.000000,0.000000,0.000000 ThumbRight:0.000000,0.000000,0.000000,0.000000 WristLeft:0.133651,-0.469228,-0.405334,0.773090 WristRight:-0.021240,0.702832,0.117252,-0.701304 END:
KINECT_DATA POSITION:10.322929,-0.973102,8.646345 HEAD_JOINT1:0.980236,0.164892,-0.000000,0.109305 LARM_JOINT2:0.864958,0.000000,-0.254672,-0.432422 LARM_JOINT3:0.903991,0.000000,-0.420058,-0.079701 LLEG_JOINT2:0.997506,0.029567,0.000000,0.064096 LLEG_JOINT4:0.995164,0.091235,0.000000,-0.036393 RARM_JOINT2:0.792917,0.000000,-0.090962,0.602503 RARM_JOINT3:0.965845,0.000000,0.221566,0.134355 RLEG_JOINT2:0.999641,0.015203,0.000000,-0.022083 RLEG_JOINT4:0.995666,0.087446,0.000000,0.031648 WAIST:0.999632,0.000000,-0.026089,-0.007443 WAIST_JOINT0:0.997219,0.000000,-0.072973,-0.015130 WAIST_JOINT1:0.997702,0.064350,0.000000,-0.021209 END:
KINECT_DATA_Sensor  AnkleLeft:0.072589,0.745147,-0.097998,-0.655655 AnkleRight:0.074706,0.671279,0.069978,0.734103 ElbowLeft:-0.261433,0.884316,-0.137619,-0.361522 ElbowRight:0.026971,0.791408,0.206988,0.574544 FootLeft:0.000000,0.000000,0.000000,0.000000 FootRight:0.000000,0.000000,0.000000,0.000000 HandLeft:-0.614406,0.753657,0.221281,-0.074437 HandRight:-0.076947,0.714629,0.066740,-0.692048 HandTipLeft:0.000000,0.000000,0.000000,0.000000 HandTipRight:0.000000,0.000000,0.000000,0.000000 Head:0.000000,0.000000,0.000000,0.000000 HipLeft:0.140599,-0.682148,0.695759,-0.175571 HipRight:-0.103669,0.674438,0.712456,-0.163684 KneeLeft:-0.020793,0.725025,-0.060350,-0.685759 KneeRight:-0.009396,0.688878,0.031755,0.724121 Neck:0.074511,-0.031932,0.993528,-0.079562 ShoulderLeft:-0.038938,0.800109,-0.586529,0.119557 ShoulderRight:0.056935,0.779935,0.623259,-0.002755 SpineBase:0.025592,-0.025534,0.998550,-0.039898 SpineMid:0.049504,-0.026482,0.997650,-0.039275 SpineShoulder:0.074246,-0.029416,0.995097,-0.058342 ThumbLeft:0.000000,0.000000,0.000000,0.000000 ThumbRight:0.000000,0.000000,0.000000,0.000000 WristLeft:-0.400952,0.896457,0.147720,-0.117392 WristRight:-0.024191,0.721880,0.116286,-0.681749 END:
KINECT_DATA POSITION:10.310125,-0.968153,8.650947 HEAD_JOINT1:0.980216,0.164974,-0.000000,0.109367 LARM_JOINT2:0.867961,0.000000,-0.244557,-0.432244 LARM_JOINT3:0.896940,0.000000,-0.433198,-0.088534 LLEG_JOINT2:0.997479,0.029824,0.000000,0.064394 LLEG_JOINT4:0.995343,0.088216,0.000000,-0.038857 RARM_JOINT2:0.792740,0.000000,-0.090801,0.602759 RARM_JOINT3:0.965599,0.000000,0.222709,0.134239 RLEG_JOINT2:0.999634,0.014508,0.000000,-0.022852 RLEG_JOINT4:0.995559,0.088587,0.000000,0.031862 WAIST:0.999640,0.000000,-0.025883,-0.007076 WAIST_JOINT0:0.997307,0.000000,-0.071907,-0.014437 WAIST_JOINT1:0.997681,0.064744,0.000000,-0.021005 END:
KINECT_DATA_Sensor  AnkleLeft:0.071786,0.744690,-0.094859,-0.656724 AnkleRight:0.080983,0.735290,0.063348,0.669909 ElbowLeft:-0.256652,0.882482,-0.145410,-0.366349 ElbowRight:0.027671,0.791848,0.206412,0.574113 FootLeft:0.000000,0.000000,0.000000,0.000000 FootRight:0.000000,0.000000,0.000000,0.000000 HandLeft:0.648486,-0.604612,0.205258,-0.414464 HandRight:0.051227,-0.424493,-0.096423,0.898824 HandTipLeft:0.000000,0.000000,0.000000,0.000000 HandTipRight:0.000000,0.000000,0.000000,0.000000 Head:0.000000,0.000000,0.000000,0.000000 HipLeft:0.140098,-0.681880,0.696109,-0.175629 HipRight:-0.103592,0.674652,0.712238,-0.163801 KneeLeft:-0.021075,0.724863,-0.061007,-0.685862 KneeRight:-0.010175,0.689052,0.031575,0.723952 Neck:0.073385,-0.031288,0.993596,-0.080021 ShoulderLeft:-0.037286,0.799598,-0.587531,0.118576 ShoulderRight:0.057144,0.780107,0.623021,-0.003483 SpineBase:0.025374,-0.025052,0.998556,-0.040190 SpineMid:0.048844,-0.025990,0.997683,-0.039590 SpineShoulder:0.073127,-0.028822,0.995172,-0.058772 ThumbLeft:0.000000,0.000000,0.000000,0.000000 ThumbRight:0.000000,0.000000,0.000000,0.000000 WristLeft:-0.396845,0.748093,-0.157088,0.508129 WristRight:-0.019117,-0.427754,-0.115962,0.896222 END:
KINECT_DATA POSITION:10.109547,-0.932648,8.736992 HEAD_JOINT1:0.980246,0.167921,-0.000000,0.104503 LARM_JOINT2:0.849560,0.000000,-0.059346,-0.524143 LARM_JOINT3:0.806858,0.000000,-0.590740,-0.002552 LLEG_JOINT2:0.997683,0.029375,0.000000,0.061359 LLEG_JOINT4:0.995206,0.088643,0.000000,-0.041326 RARM_JOINT2:0.797579,0.000000,-0.082930,0.597486 RARM_JOINT3:0.964527,0.000000,0.227459,0.133974 RLEG_JOINT2:0.999580,0.014857,0.000000,-0.024873 RLEG_JOINT4:0.995171,0.091800,0.000000,0.034740 WAIST:0.999839,0.000000,-0.017504,-0.003988 WAIST_JOINT0:0.998684,0.000000,-0.051081,-0.004507 WAIST_JOINT1:0.997761,0.064784,0.000000,-0.016593 END:
KINECT_DATA_Sensor  AnkleLeft:0.073537,0.733442,-0.093171,-0.669309 AnkleRight:0.080251,0.683082,0.070219,0.722515 ElbowLeft:-0.123297,0.784958,-0.167313,-0.583649 ElbowRight:0.025357,0.810230,0.203327,0.549129 FootLeft:0.000000,0.000000,0.000000,0.000000 FootRight:0.000000,0.000000,0.000000,0.000000 HandLeft:0.714906,-0.676519,0.154876,-0.085115 HandRight:-0.116273,0.808929,0.098497,-0.567815 HandTipLeft:0.000000,0.000000,0.000000,0.000000 HandTipRight:0.000000,0.000000,0.000000,0.000000 Head:0.000000,0.000000,0.000000,0.000000 HipLeft:0.133528,-0.680849,0.699153,-0.172626 HipRight:-0.109253,0.676225,0.709007,-0.167608 KneeLeft:-0.020832,0.718971,-0.060969,-0.692047 KneeRight:-0.009372,0.695064,0.031043,0.718216 Neck:0.052329,-0.023022,0.995138,-0.080198 ShoulderLeft:-0.020161,0.793422,-0.599939,0.100739 ShoulderRight:0.047433,0.782751,0.620254,-0.018340 SpineBase:0.017003,-0.019111,0.998843,-0.040731 SpineMid:0.034265,-0.019812,0.998400,-0.040394 SpineShoulder:0.052134,-0.021236,0.996655,-0.059250 ThumbLeft:0.000000,0.000000,0.000000,0.000000 ThumbRight:0.000000,0.000000,0.000000,0.000000 WristLeft:-0.489751,0.848510,-0.074135,0.186225 WristRight:-0.047284,0.817568,0.101691,-0.564806 END:
KINECT_DATA POSITION:9.703157,-0.870647,8.976769 HEAD_JOINT1:0.981422,0.168189,-0.000000,0.092326 LARM_JOINT2:0.837340,0.000000,0.020199,-0.546310 LARM_JOINT3:0.738988,0.000000,-0.667719,0.089705 LLEG_JOINT2:0.997909,0.025979,0.000000,0.059183 LLEG_JOINT4:0.995196,0.091741,0.000000,-0.034184 RARM_JOINT2:0.806417,0.000000,-0.072995,0.586825 RARM_JOINT3:0.965099,0.000000,0.219826,0.142340 RLEG_JOINT2:0.999455,0.019339,0.000000,-0.026737 RLEG_JOINT4:0.995006,0.091529,0.000000,0.039810 WAIST:0.999998,0.000000,0.001881,-0.000191 WAIST_JOINT0:0.999772,0.000000,-0.019870,0.007818 WAIST_JOINT1:0.997923,0.063833,0.000000,-0.008684 END:
KINECT_DATA_Sensor  AnkleLeft:0.068845,0.717486,-0.098230,-0.686167 AnkleRight:0.087147,0.699664,0.069523,0.705721 ElbowLeft:0.088454,-0.676644,0.192668,0.705130 ElbowRight:0.017521,0.834319,0.201396,0.512879 FootLeft:0.000000,0.000000,0.000000,0.000000 FootRight:0.000000,0.000000,0.000000,0.000000 HandLeft:0.739089,-0.643567,0.184321,0.074804 HandRight:-0.126088,0.776154,0.082433,-0.612284 HandTipLeft:0.000000,0.000000,0.000000,0.000000 HandTipRight:0.000000,0.000000,0.000000,0.000000 Head:0.000000,0.000000,0.000000,0.000000 HipLeft:0.120533,-0.680679,0.703740,-0.164004 HipRight:-0.123625,0.676911,0.703711,-0.176915 KneeLeft:-0.023154,0.705208,-0.060157,-0.706064 KneeRight:-0.005397,0.708695,0.032710,0.704736 Neck:0.020199,-0.011165,0.996587,-0.079258 ShoulderLeft:0.006506,0.784589,-0.615858,0.071386 ShoulderRight:0.032947,0.786597,0.615368,-0.038766 SpineBase:-0.002261,-0.009813,0.999136,-0.040332 SpineMid:0.008733,-0.010256,0.999100,-0.040222 SpineShoulder:0.020109,-0.010152,0.998030,-0.058562 ThumbLeft:0.000000,0.000000,0.000000,0.000000 ThumbRight:0.000000,0.000000,0.000000,0.000000 WristLeft:-0.587904,0.803392,-0.093509,0.013606 WristRight:-0.049048,0.786350,0.097326,-0.608091 END:
KINECT_DATA POSITION:9.174725,-0.865962,9.354889 HEAD_JOINT1:0.983531,0.168153,-0.000000,0.066271 LARM_JOINT2:0.830896,0.000000,0.044866,-0.554617 LARM_JOINT3:0.723546,0.000000,-0.673843,0.149723 LLEG_JOINT2:0.998270,0.024817,0.000000,0.053305 LLEG_JOINT4:0.995642,0.090352,0.000000,-0.023095 RARM_JOINT2:0.820905,0.000000,-0.058460,0.568064 RARM_JOINT3:0.963368,0.000000,0.212653,0.163401 RLEG_JOINT2:0.999265,0.021456,0.000000,-0.031777 RLEG_JOINT4:0.994247,0.095541,0.000000,0.048419 WAIST:0.999698,-0.000000,0.023959,0.005429 WAIST_JOINT0:0.999359,-0.000000,0.029456,0.020344 WAIST_JOINT1:0.998119,0.061272,0.000000,-0.001961 END:
KINECT_DATA_Sensor  AnkleLeft:0.066249,0.732392,-0.100154,-0.670211 AnkleRight:0.096926,0.719895,0.068665,0.683844 ElbowLeft:0.086043,-0.607445,0.202721,0.763225 ElbowRight:0.005671,0.871119,0.204424,0.446464 FootLeft:0.000000,0.000000,0.000000,0.000000 FootRight:0.000000,0.000000,0.000000,0.000000 HandLeft:-0.660678,0.701593,-0.252769,-0.085909 HandRight:0.129354,-0.676288,-0.085172,0.720172 HandTipLeft:0.000000,0.000000,0.000000,0.000000 HandTipRight:0.000000,0.000000,0.000000,0.000000 Head:0.000000,0.000000,0.000000,0.000000 HipLeft:0.105857,-0.679709,0.709749,-0.151811 HipRight:-0.140581,0.678433,0.696664,-0.186079 KneeLeft:0.022573,-0.689348,0.059567,0.721624 KneeRight:-0.004334,0.724062,0.033622,0.688901 Neck:-0.029471,0.002171,0.996615,-0.076719 ShoulderLeft:0.038253,0.779454,-0.624552,0.030394 ShoulderRight:0.001025,0.793918,0.603352,-0.075233 SpineBase:-0.024288,0.000892,0.998974,-0.038216 SpineMid:-0.026892,0.000992,0.998907,-0.038213 SpineShoulder:-0.029463,0.002355,0.997982,-0.056197 ThumbLeft:0.000000,0.000000,0.000000,0.000000 ThumbRight:0.000000,0.000000,0.000000,0.000000 WristLeft:-0.619451,0.767267,-0.165343,-0.015597 WristRight:0.051925,-0.681516,-0.095494,0.723685 END:
KINECT_DATA POSITION:8.505902,-0.994770,9.744215 HEAD_JOINT1:0.986259,0.160301,-0.000000,0.039972 LARM_JOINT2:0.826340,0.000000,0.059629,-0.560005 LARM_JOINT3:0.744339,0.000000,-0.634412,0.208521 LLEG_JOINT2:0.998638,0.020274,0.000000,0.048070 LLEG_JOINT4:0.996024,0.087719,0.000000,-0.015571 RARM_JOINT2:0.832877,0.000000,-0.056004,0.550617 RARM_JOINT3:0.961807,0.000000,0.205223,0.181137 RLEG_JOINT2:0.998957,0.025472,0.000000,-0.037895 RLEG_JOINT4:0.993948,0.094357,0.000000,0.056247 WAIST:0.998636,-0.000000,0.050522,0.013199 WAIST_JOINT0:0.997053,-0.000000,0.070285,0.030737 WAIST_JOINT1:0.998212,0.059721,-0.000000,0.002407 END:
KINECT_DATA_Sensor  AnkleLeft:-0.050140,-0.669623,0.104934,0.733539 AnkleRight:0.104371,0.745506,0.065268,0.655033 ElbowLeft:0.088770,-0.539196,0.210527,0.810596 ElbowRight:0.000623,0.898139,0.210439,0.386085 FootLeft:0.000000,0.000000,0.000000,0.000000 FootRight:0.000000,0.000000,0.000000,0.000000 HandLeft:-0.598509,0.698458,-0.381160,-0.093061 HandRight:0.104426,-0.502682,-0.094925,0.852875 HandTipLeft:0.000000,0.000000,0.000000,0.000000 HandTipRight:0.000000,0.000000,0.000000,0.000000 Head:0.000000,0.000000,0.000000,0.000000 HipLeft:0.088918,-0.677318,0.717277,-0.137287 HipRight:-0.159975,0.680149,0.687331,-0.198449 KneeLeft:0.026449,-0.669599,0.058600,0.739935 KneeRight:-0.001679,0.742328,0.034981,0.669121 Neck:-0.070754,0.014003,0.994560,-0.075156 ShoulderLeft:0.064583,0.771303,-0.633175,-0.003214 ShoulderRight:-0.025497,0.797686,0.593155,-0.105903 SpineBase:-0.050958,0.011667,0.997967,-0.036448 SpineMid:-0.060666,0.012021,0.997424,-0.036333 SpineShoulder:-0.070630,0.013636,0.995921,-0.054467 ThumbLeft:0.000000,0.000000,0.000000,0.000000 ThumbRight:0.000000,0.000000,0.000000,0.000000 WristLeft:-0.568316,0.775065,-0.275551,-0.019036 WristRight:0.045213,-0.508027,-0.094090,0.854992 END:
KINECT_DATA POSITION:7.963692,-1.101183,10.063577 HEAD_JOINT1:0.986707,0.159950,-0.000000,0.028740 LARM_JOINT2:0.829579,0.000000,0.078169,-0.552892 LARM_JOINT3:0.756700,0.000000,-0.605652,0.246151 LLEG_JOINT2:0.998984,0.019171,0.000000,0.040789 LLEG_JOINT4:0.996196,0.086839,0.000000,-0.007277 RARM_JOINT2:0.837781,0.000000,-0.050986,0.543621 RARM_JOINT3:0.961075,0.000000,0.201153,0.189399 RLEG_JOINT2:0.998648,0.027251,0.000000,-0.044266 RLEG_JOINT4:0.993699,0.094324,0.000000,0.060547 WAIST:0.997728,-0.000000,0.063895,0.021371 WAIST_JOINT0:0.994852,-0.000000,0.093651,0.038711 WAIST_JOINT1:0.998276,0.058514,-0.000000,0.004675 END:
KINECT_DATA_Sensor  AnkleLeft:-0.043182,-0.657005,0.109581,0.744628 AnkleRight:0.107824,0.745667,0.064772,0.654339 ElbowLeft:0.101563,-0.480066,0.227603,0.841082 ElbowRight:-0.004349,0.908500,0.206182,0.363453 FootLeft:0.000000,0.000000,0.000000,0.000000 FootRight:0.000000,0.000000,0.000000,0.000000 HandLeft:-0.577184,0.674280,-0.432952,-0.157348 HandRight:0.124055,-0.664039,-0.045710,0.735916 HandTipLeft:0.000000,0.000000,0.000000,0.000000 HandTipRight:0.000000,0.000000,0.000000,0.000000 Head:0.000000,0.000000,0.000000,0.000000 HipLeft:0.079346,-0.672769,0.724087,-0.129552 HipRight:-0.170729,0.683646,0.679709,-0.203656 KneeLeft:0.027589,-0.659376,0.058399,0.749034 KneeRight:-0.000103,0.751525,0.034596,0.658797 Neck:-0.094322,0.024577,0.992508,-0.073671 ShoulderLeft:0.079892,0.764513,-0.639210,-0.023404 ShoulderRight:-0.040489,0.799763,0.586311,-0.122394 SpineBase:-0.064541,0.020995,0.997071,-0.035267 SpineMid:-0.079067,0.021507,0.996024,-0.034957 SpineShoulder:-0.094064,0.023768,0.993872,-0.052961 ThumbLeft:0.000000,0.000000,0.000000,0.000000 ThumbRight:0.000000,0.000000,0.000000,0.000000 WristLeft:-0.552168,0.767108,-0.316284,-0.081365 WristRight:0.075525,-0.667814,-0.077981,0.736369 END:
KINECT_DATA POSITION:7.400638,-1.235288,10.410320 HEAD_JOINT1:0.987394,0.157451,-0.000000,0.016203 LARM_JOINT2:0.852716,0.000000,0.049827,-0.519993 LARM_JOINT3:0.829597,0.000000,-0.500908,0.246698 LLEG_JOINT2:0.999097,0.019039,0.000000,0.037995 LLEG_JOINT4:0.996349,0.085254,0.000000,-0.004576 RARM_JOINT2:0.840770,0.000000,-0.040449,0.539879 RARM_JOINT3:0.960981,0.000000,0.197166,0.194014 RLEG_JOINT2:0.998476,0.026776,0.000000,-0.048255 RLEG_JOINT4:0.993118,0.099939,0.000000,0.061069 WAIST:0.996538,-0.000000,0.078286,0.027974 WAIST_JOINT0:0.992217,-0.000000,0.116446,0.044119 WAIST_JOINT1:0.998320,0.057626,-0.000000,0.006106 END:
KINECT_DATA_Sensor  AnkleLeft:0.054357,0.747354,-0.105522,-0.653737 AnkleRight:0.110908,0.744151,0.069406,0.655073 ElbowLeft:0.153560,-0.459783,0.238496,0.841510 ElbowRight:-0.010115,0.923850,0.198800,0.326922 FootLeft:0.000000,0.000000,0.000000,0.000000 FootRight:0.000000,0.000000,0.000000,0.000000 HandLeft:-0.535013,0.667348,-0.479980,-0.195005 HandRight:0.122773,-0.471904,-0.076917,0.869665 HandTipLeft:0.000000,0.000000,0.000000,0.000000 HandTipRight:0.000000,0.000000,0.000000,0.000000 Head:0.000000,0.000000,0.000000,0.000000 HipLeft:0.070199,-0.669048,0.729771,-0.121989 HipRight:-0.182028,0.685473,0.672845,-0.210410 KneeLeft:0.029913,-0.648218,0.061027,0.758416 KneeRight:0.000502,0.761150,0.031931,0.647789 Neck:-0.117230,0.032342,0.989930,-0.072457 ShoulderLeft:0.095321,0.758775,-0.642874,-0.043445 ShoulderRight:-0.054398,0.800382,0.580812,-0.138159 SpineBase:-0.079076,0.028720,0.995865,-0.034275 SpineMid:-0.097622,0.029353,0.994218,-0.033734 SpineShoulder:-0.116863,0.031424,0.991303,-0.051707 ThumbLeft:0.000000,0.000000,0.000000,0.000000 ThumbRight:0.000000,0.000000,0.000000,0.000000 WristLeft:-0.475833,0.797580,-0.344922,-0.135933 WristRight:0.068214,-0.476851,-0.085107,0.872191 END:
KINECT_DATA POSITION:7.062547,-1.302509,10.663473 HEAD_JOINT1:0.987514,0.156768,-0.000000,0.015471 LARM_JOINT2:0.863006,0.000000,0.025278,-0.504561 LARM_JOINT3:0.851059,0.000000,-0.465285,0.243328 LLEG_JOINT2:0.999110,0.019828,0.000000,0.037226 LLEG_JOINT4:0.996663,0.081575,0.000000,-0.002861 RARM_JOINT2:0.840319,0.000000,-0.040815,0.540554 RARM_JOINT3:0.962921,0.000000,0.190449,0.191079 RLEG_JOINT2:0.998438,0.027656,0.000000,-0.048550 RLEG_JOINT4:0.992916,0.102137,0.000000,0.060704 WAIST:0.996019,-0.000000,0.083615,0.030898 WAIST_JOINT0:0.991467,-0.000000,0.122095,0.045664 WAIST_JOINT1:0.998407,0.056110,-0.000000,0.005902 END:
KINECT_DATA_Sensor  AnkleLeft:-0.034197,-0.641349,0.112899,0.758126 AnkleRight:0.114630,0.753769,0.069550,0.643316 ElbowLeft:0.184886,-0.449631,0.233050,0.842221 ElbowRight:-0.012872,0.922860,0.194840,0.331966 FootLeft:0.000000,0.000000,0.000000,0.000000 FootRight:0.000000,0.000000,0.000000,0.000000 HandLeft:-0.558161,0.672088,-0.450925,-0.182812 HandRight:-0.112344,0.772955,0.003919,-0.624423 HandTipLeft:0.000000,0.000000,0.000000,0.000000 HandTipRight:0.000000,0.000000,0.000000,0.000000 Head:0.000000,0.000000,0.000000,0.000000 HipLeft:0.067411,-0.667393,0.732225,-0.117852 HipRight:-0.186796,0.686471,0.669918,-0.212310 KneeLeft:0.030657,-0.643970,0.063065,0.761830 KneeRight:0.002633,0.764739,0.030618,0.643607 Neck:-0.122888,0.034915,0.989278,-0.070775 ShoulderLeft:0.097552,0.757370,-0.643809,-0.048815 ShoulderRight:-0.059381,0.801272,0.578251,-0.141641 SpineBase:-0.084475,0.031235,0.995401,-0.032642 SpineMid:-0.103105,0.031841,0.993644,-0.032051 SpineShoulder:-0.122485,0.033884,0.990626,-0.050102 ThumbLeft:0.000000,0.000000,0.000000,0.000000 ThumbRight:0.000000,0.000000,0.000000,0.000000 WristLeft:-0.463484,0.795345,-0.352892,-0.167557 WristRight:-0.101006,0.777964,0.053702,-0.617808 END:
KINECT_DATA POSITION:6.927272,-1.339807,10.758745 HEAD_JOINT1:0.987199,0.158301,-0.000000,0.019488 LARM_JOINT2:0.865966,0.000000,0.007885,-0.500041 LARM_JOINT3:0.865130,0.000000,-0.446824,0.227813 LLEG_JOINT2:0.999117,0.019846,0.000000,0.037041 LLEG_JOINT4:0.996647,0.081822,0.000000,0.000806 RARM_JOINT2:0.839045,0.000000,-0.044197,0.542264 RARM_JOINT3:0.964060,0.000000,0.180921,0.194566 RLEG_JOINT2:0.998479,0.027419,0.000000,-0.047835 RLEG_JOINT4:0.992743,0.103418,0.000000,0.061363 WAIST:0.996091,-0.000000,0.082444,0.031723 WAIST_JOINT0:0.991908,-0.000000,0.118531,0.045485 WAIST_JOINT1:0.998484,0.054792,-0.000000,0.005234 END:
KINECT_DATA_Sensor  AnkleLeft:-0.031792,-0.643971,0.116298,0.755490 AnkleRight:0.118622,0.767834,0.066014,0.626101 ElbowLeft:0.198655,-0.455396,0.223954,0.838448 ElbowRight:-0.011292,0.920571,0.193471,0.339103 FootLeft:0.000000,0.000000,0.000000,0.000000 FootRight:0.000000,0.000000,0.000000,0.000000 HandLeft:-0.554380,0.705333,-0.417328,-0.144932 HandRight:0.085090,-0.429211,-0.005731,0.899169 HandTipLeft:0.000000,0.000000,0.000000,0.000000 HandTipRight:0.000000,0.000000,0.000000,0.000000 Head:0.000000,0.000000,0.000000,0.000000 HipLeft:0.069204,-0.666689,0.732697,-0.117863 HipRight:-0.187234,0.687210,0.669401,-0.211158 KneeLeft:0.031156,-0.644803,0.063507,0.761068 KneeRight:0.003668,0.764005,0.029412,0.644529 Neck:-0.119244,0.034986,0.989822,-0.069352 ShoulderLeft:0.094162,0.758596,-0.643009,-0.046953 ShoulderRight:-0.057960,0.802438,0.577663,-0.137982 SpineBase:-0.083318,0.031590,0.995529,-0.031328 SpineMid:-0.100698,0.032132,0.993922,-0.030771 SpineShoulder:-0.118823,0.034055,0.991128,-0.048848 ThumbLeft:0.000000,0.000000,0.000000,0.000000 ThumbRight:0.000000,0.000000,0.000000,0.000000 WristLeft:-0.445556,0.804795,-0.356618,-0.163125 WristRight:0.069593,-0.433289,-0.093343,0.893702 END:
KINECT_DATA POSITION:6.895451,-1.353069,10.750496 HEAD_JOINT1:0.986357,0.163024,-0.000000,0.022885 LARM_JOINT2:0.869732,0.000000,-0.002043,-0.493521 LARM_JOINT3:0.877883,0.000000,-0.418988,0.231886 LLEG_JOINT2:0.999148,0.019786,0.000000,0.036205 LLEG_JOINT4:0.996366,0.085164,0.000000,-0.001069 RARM_JOINT2:0.835595,0.000000,-0.059119,0.546155 RARM_JOINT3:0.964790,0.000000,0.182927,0.188990 RLEG_JOINT2:0.998423,0.029517,0.000000,-0.047747 RLEG_JOINT4:0.992824,0.103306,0.000000,0.060236 WAIST:0.996354,-0.000000,0.078864,0.032550 WAIST_JOINT0:0.993137,-0.000000,0.108287,0.044187 WAIST_JOINT1:0.998572,0.053357,-0.000000,0.002783 END:
KINECT_DATA_Sensor  AnkleLeft:0.050561,0.741776,-0.111297,-0.659413 AnkleRight:0.119120,0.756941,0.068849,0.638836 ElbowLeft:0.208499,-0.464765,0.220109,0.831910 ElbowRight:-0.001951,0.913065,0.195337,0.357983 FootLeft:0.000000,0.000000,0.000000,0.000000 FootRight:0.000000,0.000000,0.000000,0.000000 HandLeft:-0.501037,0.706808,-0.476272,-0.150165 HandRight:0.076335,-0.677288,0.014205,0.731609 HandTipLeft:0.000000,0.000000,0.000000,0.000000 HandTipRight:0.000000,0.000000,0.000000,0.000000 Head:0.000000,0.000000,0.000000,0.000000 HipLeft:0.071734,-0.666270,0.732753,-0.118369 HipRight:-0.184776,0.688846,0.669297,-0.208303 KneeLeft:0.031395,-0.647481,0.063383,0.758792 KneeRight:0.005871,0.761789,0.030430,0.647083 Neck:-0.108970,0.032836,0.991181,-0.067884 ShoulderLeft:0.086734,0.761219,-0.641415,-0.040124 ShoulderRight:-0.052010,0.803869,0.578339,-0.128896 SpineBase:-0.079785,0.030997,0.995874,-0.030157 SpineMid:-0.093799,0.031419,0.994651,-0.029717 SpineShoulder:-0.108521,0.032481,0.992426,-0.047524 ThumbLeft:0.000000,0.000000,0.000000,0.000000 ThumbRight:0.000000,0.000000,0.000000,0.000000 WristLeft:-0.425967,0.815432,-0.371046,-0.126280 WristRight:0.085569,-0.680440,-0.068323,0.724576 END:
KINECT_DATA POSITION:6.930722,-1.338345,10.658396 HEAD_JOINT1:0.985851,0.165876,-0.000000,0.024140 LARM_JOINT2:0.873231,0.000000,-0.007597,-0.487247 LARM_JOINT3:0.890474,0.000000,-0.390564,0.233484 LLEG_JOINT2:0.999189,0.019548,0.000000,0.035195 LLEG_JOINT4:0.996538,0.083143,0.000000,0.000453 RARM_JOINT2:0.835413,0.000000,-0.058783,0.546470 RARM_JOINT3:0.963156,0.000000,0.189411,0.190932 RLEG_JOINT2:0.998366,0.030383,0.000000,-0.048395 RLEG_JOINT4:0.993090,0.100782,0.000000,0.060133 WAIST:0.996552,-0.000000,0.076097,0.033080 WAIST_JOINT0:0.993549,-0.000000,0.104799,0.043325 WAIST_JOINT1:0.998585,0.053162,-0.000000,0.001587 END:
KINECT_DATA_Sensor  AnkleLeft:0.047332,0.740914,-0.111367,-0.660608 AnkleRight:0.117103,0.746059,0.069144,0.651845 ElbowLeft:0.220098,-0.455639,0.216201,0.834990 ElbowRight:-0.001864,0.912199,0.195389,0.360157 FootLeft:0.000000,0.000000,0.000000,0.000000 FootRight:0.000000,0.000000,0.000000,0.000000 HandLeft:-0.513537,0.701599,-0.435139,-0.233865 HandRight:0.106432,-0.695367,0.007010,0.710695 HandTipLeft:0.000000,0.000000,0.000000,0.000000 HandTipRight:0.000000,0.000000,0.000000,0.000000 Head:0.000000,0.000000,0.000000,0.000000 HipLeft:0.073613,-0.665795,0.732869,-0.119172 HipRight:-0.183056,0.689766,0.669398,-0.206447 KneeLeft:0.031410,-0.649571,0.062811,0.757051 KneeRight:0.006468,0.760040,0.031181,0.649095 Neck:-0.105484,0.032272,0.991583,-0.067780 ShoulderLeft:0.083351,0.761782,-0.641396,-0.036779 ShoulderRight:-0.051044,0.803703,0.579148,-0.126663 SpineBase:-0.077051,0.030642,0.996116,-0.029605 SpineMid:-0.090688,0.031044,0.994968,-0.029182 SpineShoulder:-0.105034,0.031939,0.992833,-0.047236 ThumbLeft:0.000000,0.000000,0.000000,0.000000 ThumbRight:0.000000,0.000000,0.000000,0.000000 WristLeft:-0.450271,0.798252,-0.338189,-0.213726 WristRight:0.086191,-0.699327,-0.066874,0.706428 END:
KINECT_DATA POSITION:6.966602,-1.293292,10.408794 HEAD_JOINT1:0.985567,0.167686,-0.000000,0.023203 LARM_JOINT2:0.883557,0.000000,-0.047328,-0.465926 LARM_JOINT3:0.909298,0.000000,-0.342600,0.236224 LLEG_JOINT2:0.999154,0.018883,0.000000,0.036528 LLEG_JOINT4:0.996312,0.085697,0.000000,-0.004229 RARM_JOINT2:0.836590,0.000000,-0.056167,0.544943 RARM_JOINT3:0.965875,0.000000,0.182313,0.183976 RLEG_JOINT2:0.998467,0.028248,0.000000,-0.047599 RLEG_JOINT4:0.992993,0.101376,0.000000,0.060727 WAIST:0.996671,-0.000000,0.075027,0.031895 WAIST_JOINT0:0.994128,-0.000000,0.100124,0.041050 WAIST_JOINT1:0.998587,0.053093,-0.000000,0.002156 END:
KINECT_DATA_Sensor  AnkleLeft:-0.037477,-0.654017,0.114214,0.746868 AnkleRight:0.115504,0.736443,0.069389,0.662945 ElbowLeft:0.259091,-0.454319,0.197702,0.829084 ElbowRight:-0.004071,0.912945,0.196624,0.357568 FootLeft:0.000000,0.000000,0.000000,0.000000 FootRight:0.000000,0.000000,0.000000,0.000000 HandLeft:-0.514380,0.692750,-0.474222,-0.174998 HandRight:0.065407,-0.464808,-0.023890,0.882669 HandTipLeft:0.000000,0.000000,0.000000,0.000000 HandTipRight:0.000000,0.000000,0.000000,0.000000 Head:0.000000,0.000000,0.000000,0.000000 HipLeft:0.074317,-0.666539,0.732076,-0.119448 HipRight:-0.182534,0.689261,0.670364,-0.205455 KneeLeft:0.031986,-0.650431,0.062544,0.756310 KneeRight:0.004897,0.759232,0.029902,0.650114 Neck:-0.100645,0.031458,0.992098,-0.067991 ShoulderLeft:0.077480,0.763426,-0.640491,-0.030790 ShoulderRight:-0.051031,0.802494,0.581199,-0.124926 SpineBase:-0.075917,0.030200,0.996225,-0.029317 SpineMid:-0.087713,0.030545,0.995256,-0.028958 SpineShoulder:-0.100193,0.031210,0.993352,-0.047316 ThumbLeft:0.000000,0.000000,0.000000,0.000000 ThumbRight:0.000000,0.000000,0.000000,0.000000 WristLeft:-0.414767,0.811251,-0.375423,-0.169992 WristRight:0.061025,-0.466810,-0.089799,0.877667 END:
KINECT_DATA POSITION:6.939787,-1.269379,10.213530 HEAD_JOINT1:0.985202,0.169360,-0.000000,0.026352 LARM_JOINT2:0.886885,0.000000,-0.054341,-0.458783 LARM_JOINT3:0.916871,0.000000,-0.329029,0.226025 LLEG_JOINT2:0.999124,0.018463,0.000000,0.037564 LLEG_JOINT4:0.996251,0.086331,0.000000,-0.005567 RARM_JOINT2:0.836752,0.000000,-0.060889,0.544187 RARM_JOINT3:0.965007,0.000000,0.179935,0.190747 RLEG_JOINT2:0.998582,0.026144,0.000000,-0.046375 RLEG_JOINT4:0.993184,0.100574,0.000000,0.058905 WAIST:0.997036,-0.000000,0.070397,0.031056 WAIST_JOINT0:0.994904,-0.000000,0.093252,0.038350 WAIST_JOINT1:0.998580,0.053259,-0.000000,0.001490 END:
KINECT_DATA_Sensor  AnkleLeft:-0.038069,-0.657975,0.113767,0.743422 AnkleRight:0.113380,0.737257,0.067100,0.662642 ElbowLeft:0.268422,-0.457326,0.194241,0.825271 ElbowRight:-0.000668,0.909892,0.200445,0.363205 FootLeft:0.000000,0.000000,0.000000,0.000000 FootRight:0.000000,0.000000,0.000000,0.000000 HandLeft:-0.553039,0.687263,-0.388154,-0.266746 HandRight:-0.069146,0.709494,-0.022228,-0.700959 HandTipLeft:0.000000,0.000000,0.000000,0.000000 HandTipRight:0.000000,0.000000,0.000000,0.000000 Head:0.000000,0.000000,0.000000,0.000000 HipLeft:0.076820,-0.666751,0.731241,-0.121770 HipRight:-0.179180,0.689500,0.671810,-0.202870 KneeLeft:0.032575,-0.653956,0.062414,0.753250 KneeRight:0.004091,0.756106,0.028186,0.653829 Neck:-0.093615,0.029891,0.992821,-0.068182 ShoulderLeft:0.071520,0.766328,-0.637996,-0.024225 ShoulderRight:-0.048022,0.802257,0.582685,-0.120650 SpineBase:-0.071279,0.029198,0.996591,-0.029545 SpineMid:-0.081890,0.029511,0.995775,-0.029232 SpineShoulder:-0.093164,0.029878,0.994065,-0.047558 ThumbLeft:0.000000,0.000000,0.000000,0.000000 ThumbRight:0.000000,0.000000,0.000000,0.000000 WristLeft:-0.459552,0.781944,-0.316739,-0.277584 WristRight:-0.082569,0.716592,0.067077,-0.689333 END:
KINECT_DATA POSITION:6.910928,-1.237433,10.080063 HEAD_JOINT1:0.984549,0.172479,-0.000000,0.030224 LARM_JOINT2:0.890086,0.000000,-0.069850,-0.450409 LARM_JOINT3:0.927343,0.000000,-0.301618,0.221498 LLEG_JOINT2:0.999111,0.017320,0.000000,0.038433 LLEG_JOINT4:0.996085,0.088362,0.000000,-0.002751 RARM_JOINT2:0.836142,0.000000,-0.061684,0.545034 RARM_JOINT3:0.964343,0.000000,0.186309,0.187966 RLEG_JOINT2:0.998648,0.025550,0.000000,-0.045259 RLEG_JOINT4:0.993315,0.100091,0.000000,0.057511 WAIST:0.997203,-0.000000,0.068286,0.030386 WAIST_JOINT0:0.995618,-0.000000,0.086370,0.035860 WAIST_JOINT1:0.998596,0.052962,-0.000000,0.000473 END:
KINECT_DATA_Sensor  AnkleLeft:0.051425,0.749564,-0.111079,-0.650516 AnkleRight:0.113801,0.752257,0.063935,0.645810 ElbowLeft:0.281764,-0.460149,0.184979,0.821374 ElbowRight:-0.000592,0.908051,0.201173,0.367387 FootLeft:0.000000,0.000000,0.000000,0.000000 FootRight:0.000000,0.000000,0.000000,0.000000 HandLeft:-0.491651,0.716374,-0.452484,-0.200861 HandRight:0.080685,-0.679471,-0.003865,0.729243 HandTipLeft:0.000000,0.000000,0.000000,0.000000 HandTipRight:0.000000,0.000000,0.000000,0.000000 Head:0.000000,0.000000,0.000000,0.000000 HipLeft:0.078279,-0.667166,0.730595,-0.122446 HipRight:-0.177653,0.689461,0.672609,-0.201693 KneeLeft:0.033622,-0.655557,0.061822,0.751859 KneeRight:0.004172,0.754681,0.027516,0.655501 Neck:-0.086590,0.027839,0.993532,-0.067981 ShoulderLeft:0.065334,0.768697,-0.636018,-0.017821 ShoulderRight:-0.045273,0.801749,0.584522,-0.116115 SpineBase:-0.069162,0.028016,0.996781,-0.029330 SpineMid:-0.077342,0.028256,0.996179,-0.029099 SpineShoulder:-0.086141,0.028140,0.994758,-0.047373 ThumbLeft:0.000000,0.000000,0.000000,0.000000 ThumbRight:0.000000,0.000000,0.000000,0.000000 WristLeft:-0.415395,0.810628,-0.363832,-0.194824 WristRight:0.078754,-0.681724,-0.072787,0.723708 END:
KINECT_DATA POSITION:6.913096,-1.218516,9.981049 HEAD_JOINT1:0.984150,0.174039,-0.000000,0.034042 LARM_JOINT2:0.892557,0.000000,-0.081200,-0.443563 LARM_JOINT3:0.941829,0.000000,-0.266034,0.205388 LLEG_JOINT2:0.999071,0.016483,0.000000,0.039814 LLEG_JOINT4:0.996026,0.088980,0.000000,-0.003900 RARM_JOINT2:0.834772,0.000000,-0.062006,0.547093 RARM_JOINT3:0.964583,0.000000,0.184060,0.188947 RLEG_JOINT2:0.998716,0.025411,0.000000,-0.043833 RLEG_JOINT4:0.993274,0.101468,0.000000,0.055782 WAIST:0.997349,-0.000000,0.066541,0.029444 WAIST_JOINT0:0.996257,-0.000000,0.079653,0.033585 WAIST_JOINT1:0.998613,0.052643,0.000000,-0.000006 END:
KINECT_DATA_Sensor  AnkleLeft:0.050962,0.747398,-0.110783,-0.653090 AnkleRight:0.113965,0.751818,0.065435,0.646142 ElbowLeft:0.292257,-0.460525,0.177451,0.819154 ElbowRight:-0.000451,0.906061,0.200261,0.372759 FootLeft:0.000000,0.000000,0.000000,0.000000 FootRight:0.000000,0.000000,0.000000,0.000000 HandLeft:-0.402017,0.760753,-0.480714,-0.168971 HandRight:0.084888,-0.677482,0.009723,0.730560 HandTipLeft:0.000000,0.000000,0.000000,0.000000 HandTipRight:0.000000,0.000000,0.000000,0.000000 Head:0.000000,0.000000,0.000000,0.000000 HipLeft:0.079580,-0.667745,0.729863,-0.122814 HipRight:-0.176477,0.689190,0.673561,-0.200471 KneeLeft:0.034566,-0.656881,0.061623,0.750677 KneeRight:0.004574,0.753497,0.027167,0.656874 Neck:-0.079677,0.026174,0.994166,-0.067827 ShoulderLeft:0.059434,0.770902,-0.634067,-0.011694 ShoulderRight:-0.042395,0.801131,0.586477,-0.111518 SpineBase:-0.067385,0.026909,0.996944,-0.028940 SpineMid:-0.073027,0.027072,0.996547,-0.028787 SpineShoulder:-0.079239,0.026592,0.995384,-0.047178 ThumbLeft:0.000000,0.000000,0.000000,0.000000 ThumbRight:0.000000,0.000000,0.000000,0.000000 WristLeft:-0.376078,0.827610,-0.390523,-0.145323 WristRight:0.076449,-0.680670,-0.074454,0.724776 END:
KINECT_DATA POSITION:6.945430,-1.221713,9.955704 HEAD_JOINT1:0.983697,0.176413,-0.000000,0.034921 LARM_JOINT2:0.894203,0.000000,-0.104777,-0.435228 LARM_JOINT3:0.948455,0.000000,-0.250196,0.194510 LLEG_JOINT2:0.999061,0.016526,0.000000,0.040048 LLEG_JOINT4:0.996158,0.087343,0.000000,-0.006308 RARM_JOINT2:0.833261,0.000000,-0.063160,0.549261 RARM_JOINT3:0.964296,0.000000,0.188130,0.186389 RLEG_JOINT2:0.998754,0.025917,0.000000,-0.042639 RLEG_JOINT4:0.993630,0.097923,0.000000,0.055770 WAIST:0.997388,-0.000000,0.065949,0.029464 WAIST_JOINT0:0.996736,-0.000000,0.073847,0.032603 WAIST_JOINT1:0.998625,0.052411,0.000000,-0.000733 END:
KINECT_DATA_Sensor  AnkleLeft:0.050857,0.748719,-0.108109,-0.652032 AnkleRight:0.110272,0.725074,0.066832,0.676492 ElbowLeft:0.308078,-0.464367,0.162069,0.814362 ElbowRight:-0.000075,0.903471,0.198901,0.379708 FootLeft:0.000000,0.000000,0.000000,0.000000 FootRight:0.000000,0.000000,0.000000,0.000000 HandLeft:-0.455168,0.755154,-0.445344,-0.155670 HandRight:0.095166,-0.688105,0.003113,0.719337 HandTipLeft:0.000000,0.000000,0.000000,0.000000 HandTipRight:0.000000,0.000000,0.000000,0.000000 Head:0.000000,0.000000,0.000000,0.000000 HipLeft:0.080014,-0.667855,0.729777,-0.122446 HipRight:-0.175896,0.689390,0.673647,-0.200006 KneeLeft:0.034727,-0.657303,0.061833,0.750283 KneeRight:0.005847,0.753119,0.026755,0.657314 Neck:-0.073786,0.025207,0.994653,-0.067714 ShoulderLeft:0.052851,0.771754,-0.633702,-0.004975 ShoulderRight:-0.041633,0.800850,0.587423,-0.108809 SpineBase:-0.066809,0.026183,0.997012,-0.028595 SpineMid:-0.069823,0.026269,0.996806,-0.028516 SpineShoulder:-0.073353,0.025663,0.995865,-0.047039 ThumbLeft:0.000000,0.000000,0.000000,0.000000 ThumbRight:0.000000,0.000000,0.000000,0.000000 WristLeft:-0.373071,0.830590,-0.378572,-0.166195 WristRight:0.077002,-0.691295,-0.075003,0.714532 END:
KINECT_DATA POSITION:7.008374,-1.220094,9.980000 HEAD_JOINT1:0.983212,0.178698,-0.000000,0.036904 LARM_JOINT2:0.894663,0.000000,-0.126074,-0.428583 LARM_JOINT3:0.955891,0.000000,-0.223484,0.190596 LLEG_JOINT2:0.999053,0.016549,0.000000,0.040235 LLEG_JOINT4:0.995911,0.090102,0.000000,-0.006492 RARM_JOINT2:0.832069,0.000000,-0.065265,0.550819 RARM_JOINT3:0.965257,0.000000,0.187100,0.182408 RLEG_JOINT2:0.998788,0.025598,0.000000,-0.042031 RLEG_JOINT4:0.993622,0.098855,0.000000,0.054244 WAIST:0.997542,-0.000000,0.063789,0.028993 WAIST_JOINT0:0.997108,-0.000000,0.069057,0.031717 WAIST_JOINT1:0.998619,0.052525,0.000000,-0.001468 END:
KINECT_DATA_Sensor  AnkleLeft:0.052601,0.745760,-0.109717,-0.655010 AnkleRight:0.111799,0.743657,0.064689,0.655966 ElbowLeft:0.320617,-0.468752,0.146324,0.809979 ElbowRight:0.000864,0.899447,0.199115,0.389033 FootLeft:0.000000,0.000000,0.000000,0.000000 FootRight:0.000000,0.000000,0.000000,0.000000 HandLeft:-0.436040,0.757402,-0.464672,-0.142449 HandRight:0.081177,-0.683837,0.004046,0.725094 HandTipLeft:0.000000,0.000000,0.000000,0.000000 HandTipRight:0.000000,0.000000,0.000000,0.000000 Head:0.000000,0.000000,0.000000,0.000000 HipLeft:0.081456,-0.668236,0.729090,-0.123506 HipRight:-0.174456,0.689542,0.674125,-0.199131 KneeLeft:0.034590,-0.658940,0.061625,0.748869 KneeRight:0.005863,0.751671,0.026480,0.658980 Neck:-0.068968,0.023876,0.995021,-0.067868 ShoulderLeft:0.049482,0.772332,-0.633289,-0.000742 ShoulderRight:-0.038869,0.800467,0.588745,-0.105456 SpineBase:-0.064652,0.025249,0.997179,-0.028590 SpineMid:-0.066353,0.025297,0.997067,-0.028547 SpineShoulder:-0.068543,0.024458,0.996232,-0.047184 ThumbLeft:0.000000,0.000000,0.000000,0.000000 ThumbRight:0.000000,0.000000,0.000000,0.000000 WristLeft:-0.358924,0.838976,-0.383122,-0.143213 WristRight:0.074734,-0.686476,-0.078146,0.719068 END:
KINECT_DATA POSITION:7.084633,-1.222671,9.985542 HEAD_JOINT1:0.982374,0.182384,-0.000000,0.040947 LARM_JOINT2:0.902104,0.000000,-0.140558,-0.407986 LARM_JOINT3:0.961140,0.000000,-0.197348,0.193038 LLEG_JOINT2:0.999028,0.017015,0.000000,0.040659 LLEG_JOINT4:0.995999,0.089153,0.000000,-0.006159 RARM_JOINT2:0.830321,0.000000,-0.068164,0.553101 RARM_JOINT3:0.964950,0.000000,0.189234,0.181827 RLEG_JOINT2:0.998859,0.025102,0.000000,-0.040633 RLEG_JOINT4:0.993918,0.097553,0.000000,0.051086 WAIST:0.997684,-0.000000,0.061975,0.028037 WAIST_JOINT0:0.997729,-0.000000,0.060560,0.029482 WAIST_JOINT1:0.998622,0.052433,0.000000,-0.002049 END:
KINECT_DATA_Sensor  AnkleLeft:0.051618,0.743597,-0.109732,-0.657540 AnkleRight:0.107325,0.728215,0.067389,0.673531 ElbowLeft:0.343458,-0.465809,0.140806,0.803264 ElbowRight:0.002525,0.895605,0.199039,0.397829 FootLeft:0.000000,0.000000,0.000000,0.000000 FootRight:0.000000,0.000000,0.000000,0.000000 HandLeft:-0.428294,0.740333,-0.496929,-0.146738 HandRight:0.092480,-0.698046,0.008533,0.710004 HandTipLeft:0.000000,0.000000,0.000000,0.000000 HandTipRight:0.000000,0.000000,0.000000,0.000000 Head:0.000000,0.000000,0.000000,0.000000 HipLeft:0.082537,-0.668914,0.728275,-0.123922 HipRight:-0.172842,0.689306,0.675094,-0.198068 KneeLeft:0.033919,-0.660337,0.061550,0.747674 KneeRight:0.005992,0.750427,0.025885,0.660418 Neck:-0.060271,0.021982,0.995628,-0.067889 ShoulderLeft:0.040782,0.774218,-0.631547,0.008470 ShoulderRight:-0.036597,0.799800,0.590577,-0.100991 SpineBase:-0.062823,0.023836,0.997333,-0.028490 SpineMid:-0.061135,0.023788,0.997438,-0.028531 SpineShoulder:-0.059860,0.022700,0.996830,-0.047235 ThumbLeft:0.000000,0.000000,0.000000,0.000000 ThumbRight:0.000000,0.000000,0.000000,0.000000 WristLeft:-0.353879,0.836697,-0.394815,-0.137217 WristRight:-0.073816,0.709491,0.077425,-0.696548 END:
KINECT_DATA POSITION:7.144017,-1.220108,9.998131 HEAD_JOINT1:0.982069,0.183404,-0.000000,0.043626 LARM_JOINT2:0.907187,0.000000,-0.151491,-0.392509 LARM_JOINT3:0.969532,0.000000,-0.172569,0.173863 LLEG_JOINT2:0.998962,0.018345,0.000000,0.041706 LLEG_JOINT4:0.995983,0.089209,0.000000,-0.007723 RARM_JOINT2:0.829591,0.000000,-0.068132,0.554200 RARM_JOINT3:0.965376,0.000000,0.188759,0.180052 RLEG_JOINT2:0.998938,0.024207,0.000000,-0.039197 RLEG_JOINT4:0.993830,0.099068,0.000000,0.049866 WAIST:0.997809,-0.000000,0.060335,0.027130 WAIST_JOINT0:0.998161,-0.000000,0.053639,0.028224 WAIST_JOINT1:0.998632,0.052265,0.000000,-0.001818 END:
KINECT_DATA_Sensor  AnkleLeft:0.052765,0.740431,-0.109802,-0.661000 AnkleRight:0.107332,0.726578,0.068288,0.675205 ElbowLeft:0.359806,-0.469153,0.138475,0.794519 ElbowRight:0.003463,0.895771,0.198418,0.397759 FootLeft:0.000000,0.000000,0.000000,0.000000 FootRight:0.000000,0.000000,0.000000,0.000000 HandLeft:-0.462966,0.730943,-0.434668,-0.249896 HandRight:0.091385,-0.664101,-0.001854,0.742035 HandTipLeft:0.000000,0.000000,0.000000,0.000000 HandTipRight:0.000000,0.000000,0.000000,0.000000 Head:0.000000,0.000000,0.000000,0.000000 HipLeft:0.083541,-0.669481,0.727518,-0.124633 HipRight:-0.171764,0.689070,0.675916,-0.197023 KneeLeft:0.033039,-0.661594,0.062554,0.746518 KneeRight:0.005906,0.749286,0.024926,0.661751 Neck:-0.053275,0.021035,0.996051,-0.067831 ShoulderLeft:0.033862,0.775394,-0.630373,0.015728 ShoulderRight:-0.034659,0.799847,0.591263,-0.097219 SpineBase:-0.061148,0.023218,0.997455,-0.028394 SpineMid:-0.056826,0.023095,0.997710,-0.028495 SpineShoulder:-0.052862,0.021873,0.997245,-0.047214 ThumbLeft:0.000000,0.000000,0.000000,0.000000 ThumbRight:0.000000,0.000000,0.000000,0.000000 WristLeft:-0.394050,0.813395,-0.349057,-0.247533 WristRight:0.067910,-0.666801,-0.080536,0.737752 END:
KINECT_DATA POSITION:7.232574,-1.203409,9.963406 HEAD_JOINT1:0.981521,0.185961,-0.000000,0.045106 LARM_JOINT2:0.911163,0.000000,-0.152633,-0.382733 LARM_JOINT3:0.976834,0.000000,-0.143878,0.158410 LLEG_JOINT2:0.998927,0.018095,0.000000,0.042631 LLEG_JOINT4:0.996049,0.088433,0.000000,-0.008136 RARM_JOINT2:0.830087,0.000000,-0.070790,0.553123 RARM_JOINT3:0.966438,0.000000,0.187796,0.175300 RLEG_JOINT2:0.998998,0.023162,0.000000,-0.038308 RLEG_JOINT4:0.993752,0.100145,0.000000,0.049271 WAIST:0.998012,-0.000000,0.057503,0.025808 WAIST_JOINT0:0.998613,-0.000000,0.046068,0.025505 WAIST_JOINT1:0.998657,0.051775,0.000000,-0.001721 END:
KINECT_DATA_Sensor  AnkleLeft:0.052534,0.744573,-0.108643,-0.656543 AnkleRight:0.107280,0.728609,0.068152,0.673034 ElbowLeft:0.368575,-0.469498,0.139672,0.790073 ElbowRight:0.004186,0.893217,0.201244,0.402052 FootLeft:0.000000,0.000000,0.000000,0.000000 FootRight:0.000000,0.000000,0.000000,0.000000 HandLeft:-0.409821,0.743000,-0.460494,-0.260659 HandRight:-0.073312,0.719809,0.009090,-0.690230 HandTipLeft:0.000000,0.000000,0.000000,0.000000 HandTipRight:0.000000,0.000000,0.000000,0.000000 Head:0.000000,0.000000,0.000000,0.000000 HipLeft:0.085426,-0.670129,0.726551,-0.125511 HipRight:-0.169903,0.688703,0.677377,-0.194890 KneeLeft:0.033030,-0.663764,0.062106,0.744627 KneeRight:0.005065,0.747340,0.024528,0.663970 Neck:-0.045528,0.019672,0.996489,-0.067455 ShoulderLeft:0.026472,0.777230,-0.628239,0.023003 ShoulderRight:-0.032209,0.798957,0.593359,-0.092489 SpineBase:-0.058264,0.022107,0.997665,-0.027938 SpineMid:-0.051544,0.021919,0.998035,-0.028086 SpineShoulder:-0.045122,0.020601,0.997670,-0.046836 ThumbLeft:0.000000,0.000000,0.000000,0.000000 ThumbRight:0.000000,0.000000,0.000000,0.000000 WristLeft:-0.375321,0.820108,-0.359143,-0.239946 WristRight:-0.070599,0.724489,0.076845,-0.681341 END:
KINECT_DATA POSITION:7.338984,-1.169667,9.894573 HEAD_JOINT1:0.982026,0.183235,-0.000000,0.045283 LARM_JOINT2:0.914410,0.000000,-0.155565,-0.373703 LARM_JOINT3:0.977323,0.000000,-0.143036,0.156142 LLEG_JOINT2:0.998829,0.019081,0.000000,0.044463 LLEG_JOINT4:0.996120,0.087342,0.000000,-0.010823 RARM_JOINT2:0.830811,0.000000,-0.069975,0.552138 RARM_JOINT3:0.964886,0.000000,0.192634,0.178571 RLEG_JOINT2:0.999080,0.020972,0.000000,-0.037416 RLEG_JOINT4:0.993486,0.103340,0.000000,0.048034 WAIST:0.998247,-0.000000,0.054161,0.023869 WAIST_JOINT0:0.998799,-0.000000,0.042746,0.023949 WAIST_JOINT1:0.998613,0.052650,0.000000,-0.000988 END:
KINECT_DATA_Sensor  AnkleLeft:0.052793,0.740641,-0.107095,-0.661206 AnkleRight:0.107073,0.730847,0.069444,0.670503 ElbowLeft:0.377618,-0.464496,0.136471,0.789319 ElbowRight:0.003847,0.891269,0.203531,0.405216 FootLeft:0.000000,0.000000,0.000000,0.000000 FootRight:0.000000,0.000000,0.000000,0.000000 HandLeft:-0.390756,0.756433,-0.501232,-0.154550 HandRight:0.092542,-0.644561,-0.021900,0.758616 HandTipLeft:0.000000,0.000000,0.000000,0.000000 HandTipRight:0.000000,0.000000,0.000000,0.000000 Head:0.000000,0.000000,0.000000,0.000000 HipLeft:0.086807,-0.671067,0.725149,-0.127641 HipRight:-0.167172,0.687910,0.679363,-0.193130 KneeLeft:0.032289,-0.666331,0.062711,0.742313 KneeRight:0.003038,0.745003,0.023720,0.666633 Neck:-0.042182,0.018511,0.996589,-0.068475 ShoulderLeft:0.026864,0.777944,-0.627274,0.024677 ShoulderRight:-0.027445,0.797940,0.595476,-0.089151 SpineBase:-0.054860,0.021103,0.997859,-0.028683 SpineMid:-0.048176,0.020910,0.998204,-0.028824 SpineShoulder:-0.041782,0.019536,0.997795,-0.047717 ThumbLeft:0.000000,0.000000,0.000000,0.000000 ThumbRight:0.000000,0.000000,0.000000,0.000000 WristLeft:-0.325764,0.841975,-0.403516,-0.148767 WristRight:0.060036,-0.646697,-0.086173,0.755482 END:
KINECT_DATA POSITION:7.445562,-1.165062,9.811771 HEAD_JOINT1:0.982537,0.179852,-0.000000,0.047681 LARM_JOINT2:0.915359,0.000000,-0.152391,-0.372686 LARM_JOINT3:0.976358,0.000000,-0.149588,0.156043 LLEG_JOINT2:0.998850,0.019259,0.000000,0.043902 LLEG_JOINT4:0.996103,0.087712,0.000000,-0.009248 RARM_JOINT2:0.831302,0.000000,-0.068841,0.551542 RARM_JOINT3:0.964305,0.000000,0.192259,0.182076 RLEG_JOINT2:0.999086,0.020139,0.000000,-0.037697 RLEG_JOINT4:0.993346,0.104237,0.000000,0.048973 WAIST:0.998385,-0.000000,0.051823,0.023268 WAIST_JOINT0:0.998959,-0.000000,0.039256,0.023249 WAIST_JOINT1:0.998578,0.053309,0.000000,-0.001042 END:
KINECT_DATA_Sensor  AnkleLeft:-0.044215,-0.688315,0.111732,0.715391 AnkleRight:0.107921,0.734348,0.068430,0.666636 ElbowLeft:0.376962,-0.466612,0.139423,0.787866 ElbowRight:0.003394,0.890166,0.204693,0.407056 FootLeft:0.000000,0.000000,0.000000,0.000000 FootRight:0.000000,0.000000,0.000000,0.000000 HandLeft:-0.422160,0.751786,-0.470924,-0.186626 HandRight:0.096146,-0.663428,-0.007448,0.742000 HandTipLeft:0.000000,0.000000,0.000000,0.000000 HandTipRight:0.000000,0.000000,0.000000,0.000000 Head:0.000000,0.000000,0.000000,0.000000 HipLeft:0.087817,-0.671272,0.724572,-0.129139 HipRight:-0.165040,0.687897,0.680216,-0.192006 KneeLeft:0.031466,-0.668121,0.061953,0.740801 KneeRight:0.001942,0.743407,0.023748,0.668414 Neck:-0.038546,0.017857,0.996699,-0.069184 ShoulderLeft:0.024663,0.779318,-0.625516,0.028023 ShoulderRight:-0.024956,0.798191,0.595576,-0.086932 SpineBase:-0.052522,0.020458,0.997982,-0.029248 SpineMid:-0.045204,0.020243,0.998340,-0.029398 SpineShoulder:-0.038152,0.018896,0.997921,-0.048388 ThumbLeft:0.000000,0.000000,0.000000,0.000000 ThumbRight:0.000000,0.000000,0.000000,0.000000 WristLeft:-0.348425,0.832364,-0.386920,-0.189903 WristRight:0.062748,-0.665835,-0.086153,0.738447 END:
KINECT_DATA POSITION:7.486385,-1.159108,9.793198 HEAD_JOINT1:0.982371,0.180093,-0.000000,0.050128 LARM_JOINT2:0.914035,0.000000,-0.139104,-0.381039 LARM_JOINT3:0.965798,0.000000,-0.200322,0.164636 LLEG_JOINT2:0.998842,0.019600,0.000000,0.043938 LLEG_JOINT4:0.996085,0.087233,0.000000,-0.014320 RARM_JOINT2:0.830497,0.000000,-0.069586,0.552660 RARM_JOINT3:0.963902,0.000000,0.194554,0.181772 RLEG_JOINT2:0.999098,0.020473,0.000000,-0.037197 RLEG_JOINT4:0.993379,0.104480,0.000000,0.047778 WAIST:0.998424,-0.000000,0.051043,0.023325 WAIST_JOINT0:0.998968,-0.000000,0.039026,0.023230 WAIST_JOINT1:0.998562,0.053573,0.000000,-0.001845 END:
KINECT_DATA_Sensor  AnkleLeft:0.054352,0.735505,-0.104455,-0.667209 AnkleRight:0.107597,0.730985,0.069673,0.670245 ElbowLeft:0.362169,-0.482210,0.154538,0.782576 ElbowRight:0.004398,0.889383,0.204545,0.408827 FootLeft:0.000000,0.000000,0.000000,0.000000 FootRight:0.000000,0.000000,0.000000,0.000000 HandLeft:-0.471607,0.755432,-0.427746,-0.154734 HandRight:0.103391,-0.672193,-0.011700,0.733028 HandTipLeft:0.000000,0.000000,0.000000,0.000000 HandTipRight:0.000000,0.000000,0.000000,0.000000 Head:0.000000,0.000000,0.000000,0.000000 HipLeft:0.088425,-0.671159,0.724514,-0.129636 HipRight:-0.164308,0.687990,0.680339,-0.191861 KneeLeft:0.031312,-0.668688,0.062237,0.740272 KneeRight:0.002609,0.742902,0.023631,0.668978 Neck:-0.038193,0.017126,0.996710,-0.069403 ShoulderLeft:0.024950,0.779825,-0.624869,0.028089 ShoulderRight:-0.024168,0.798140,0.595738,-0.086512 SpineBase:-0.051766,0.019885,0.998028,-0.029403 SpineMid:-0.044655,0.019675,0.998372,-0.029543 SpineShoulder:-0.037810,0.018210,0.997937,-0.048591 ThumbLeft:0.000000,0.000000,0.000000,0.000000 ThumbRight:0.000000,0.000000,0.000000,0.000000 WristLeft:-0.372912,0.827119,-0.378666,-0.182818 WristRight:0.063146,-0.674698,-0.085049,0.730453 END:
KINECT_DATA POSITION:7.544054,-1.083787,9.797263 HEAD_JOINT1:0.982132,0.178623,-0.000000,0.059256 LARM_JOINT2:0.891300,0.000000,0.024479,-0.452752 LARM_JOINT3:0.864755,0.000000,-0.487727,0.119671 LLEG_JOINT2:0.998832,0.020923,0.000000,0.043563 LLEG_JOINT4:0.995935,0.089163,0.000000,-0.012754 RARM_JOINT2:0.827010,0.000000,-0.070499,0.557749 RARM_JOINT3:0.967916,0.000000,0.184325,0.170770 RLEG_JOINT2:0.999046,0.020918,0.000000,-0.038326 RLEG_JOINT4:0.993492,0.104149,0.000000,0.046114 WAIST:0.998643,-0.000000,0.046267,0.023914 WAIST_JOINT0:0.999073,-0.000000,0.035894,0.023752 WAIST_JOINT1:0.998377,0.056787,0.000000,-0.004356 END:
KINECT_DATA_Sensor  AnkleLeft:0.055954,0.741103,-0.107857,-0.660305 AnkleRight:0.107686,0.739857,0.068841,0.660512 ElbowLeft:0.201196,-0.551037,0.269660,0.763651 ElbowRight:0.007623,0.881318,0.202920,0.426667 FootLeft:0.000000,0.000000,0.000000,0.000000 FootRight:0.000000,0.000000,0.000000,0.000000 HandLeft:-0.503253,0.791345,-0.347118,-0.004435 HandRight:0.048432,-0.582182,0.006856,0.811586 HandTipLeft:0.000000,0.000000,0.000000,0.000000 HandTipRight:0.000000,0.000000,0.000000,0.000000 Head:0.000000,0.000000,0.000000,0.000000 HipLeft:0.090803,-0.669730,0.724835,-0.133528 HipRight:-0.160348,0.688239,0.681216,-0.191206 KneeLeft:0.030715,-0.672168,0.063193,0.737057 KneeRight:0.002685,0.739756,0.024369,0.672428 Neck:-0.035359,0.015287,0.996598,-0.072864 ShoulderLeft:0.029763,0.779052,-0.625582,0.028990 ShoulderRight:-0.015538,0.797813,0.596965,-0.082980 SpineBase:-0.047121,0.018550,0.998225,-0.031350 SpineMid:-0.040903,0.018354,0.998499,-0.031465 SpineShoulder:-0.034990,0.016480,0.997923,-0.051518 ThumbLeft:0.000000,0.000000,0.000000,0.000000 ThumbRight:0.000000,0.000000,0.000000,0.000000 WristLeft:-0.427991,0.838484,-0.336088,-0.028528 WristRight:0.048450,-0.583547,-0.094015,0.805163 END:
KINECT_DATA POSITION:7.816038,-0.716046,9.862339 HEAD_JOINT1:0.979537,0.186886,-0.000000,0.074706 LARM_JOINT2:0.888610,0.000000,0.143228,-0.435728 LARM_JOINT3:0.800717,0.000000,-0.594014,-0.077456 LLEG_JOINT2:0.998918,0.023170,0.000000,0.040316 LLEG_JOINT4:0.995778,0.091319,0.000000,-0.009357 RARM_JOINT2:0.819951,0.000000,-0.080414,0.566757 RARM_JOINT3:0.970170,0.000000,0.179362,0.163094 RLEG_JOINT2:0.998898,0.021412,0.000000,-0.041773 RLEG_JOINT4:0.993776,0.100956,0.000000,0.047087 WAIST:0.999007,-0.000000,0.037479,0.024098 WAIST_JOINT0:0.998768,-0.000000,0.035208,0.034984 WAIST_JOINT1:0.998125,0.060649,0.000000,-0.008243 END:
KINECT_DATA_Sensor  AnkleLeft:0.057744,0.742106,-0.111745,-0.658375 AnkleRight:0.104219,0.727205,0.068716,0.674974 ElbowLeft:-0.095811,0.608462,-0.361851,-0.699756 ElbowRight:0.019188,0.867216,0.202143,0.454649 FootLeft:0.000000,0.000000,0.000000,0.000000 FootRight:0.000000,0.000000,0.000000,0.000000 HandLeft:-0.499153,0.847015,-0.182448,0.011119 HandRight:0.054186,-0.383008,0.016427,0.922008 HandTipLeft:0.000000,0.000000,0.000000,0.000000 HandTipRight:0.000000,0.000000,0.000000,0.000000 Head:0.000000,0.000000,0.000000,0.000000 HipLeft:0.095019,-0.668671,0.723931,-0.140621 HipRight:-0.152377,0.689193,0.682509,-0.189671 KneeLeft:0.027403,-0.678649,0.062344,0.731298 KneeRight:0.000993,0.733914,0.027072,0.678702 Neck:-0.036881,0.012464,0.996298,-0.076646 ShoulderLeft:0.047547,0.762425,-0.644966,0.021590 ShoulderRight:0.000841,0.796158,0.600248,-0.076389 SpineBase:-0.038547,0.015726,0.998526,-0.034832 SpineMid:-0.037370,0.015685,0.998570,-0.034850 SpineShoulder:-0.036563,0.013714,0.997719,-0.055056 ThumbLeft:0.000000,0.000000,0.000000,0.000000 ThumbRight:0.000000,0.000000,0.000000,0.000000 WristLeft:-0.431385,0.873382,-0.223934,-0.031063 WristRight:0.009934,-0.381498,-0.093744,0.919550 END:
KINECT_DATA POSITION:8.326482,-0.405260,9.701359 HEAD_JOINT1:0.977436,0.195336,-0.000000,0.080386 LARM_JOINT2:0.896911,0.000000,0.135183,-0.421042 LARM_JOINT3:0.836733,0.000000,-0.506190,-0.208926 LLEG_JOINT2:0.998985,0.024195,0.000000,0.037995 LLEG_JOINT4:0.995964,0.089060,0.000000,-0.011170 RARM_JOINT2:0.816224,0.000000,-0.081594,0.571944 RARM_JOINT3:0.968875,0.000000,0.186996,0.162217 RLEG_JOINT2:0.998784,0.022020,0.000000,-0.044112 RLEG_JOINT4:0.994121,0.097794,0.000000,0.046478 WAIST:0.999236,-0.000000,0.031138,0.023620 WAIST_JOINT0:0.998459,-0.000000,0.038767,0.039718 WAIST_JOINT1:0.997908,0.063970,0.000000,-0.009314 END:
KINECT_DATA_Sensor  AnkleLeft:0.060986,0.758919,-0.106704,-0.639482 AnkleRight:0.101180,0.729467,0.067699,0.673095 ElbowLeft:-0.065449,0.690962,-0.381128,-0.610761 ElbowRight:0.025673,0.862604,0.200172,0.463882 FootLeft:0.000000,0.000000,0.000000,0.000000 FootRight:0.000000,0.000000,0.000000,0.000000 HandLeft:-0.486017,0.866718,-0.033482,0.107079 HandRight:0.077241,-0.363388,-0.010991,0.928365 HandTipLeft:0.000000,0.000000,0.000000,0.000000 HandTipRight:0.000000,0.000000,0.000000,0.000000 Head:0.000000,0.000000,0.000000,0.000000 HipLeft:0.097345,-0.668249,0.722742,-0.147009 HipRight:-0.146100,0.689597,0.683641,-0.189063 KneeLeft:0.025025,-0.683314,0.060948,0.727146 KneeRight:-0.000347,0.729654,0.029559,0.683177 Neck:-0.041797,0.012075,0.995855,-0.079877 ShoulderLeft:0.064626,0.755564,-0.651784,0.011134 ShoulderRight:0.012263,0.795243,0.601690,-0.073539 SpineBase:-0.032343,0.014296,0.998631,-0.038533 SpineMid:-0.036735,0.014465,0.998480,-0.038469 SpineShoulder:-0.041518,0.013093,0.997352,-0.058253 ThumbLeft:0.000000,0.000000,0.000000,0.000000 ThumbRight:0.000000,0.000000,0.000000,0.000000 WristLeft:-0.298768,0.936077,-0.184975,-0.016769 WristRight:0.005733,-0.362344,-0.088585,0.927808 END:
