EastLYD/RoboCupatHomeSim/InteractiveCleanUp/JapanOpen2016/Motion_Data/File77.dat
KINECT_DATA POSITION:40.917599,1.325461,-11.022079 HEAD_JOINT1:0.982363,0.166566,-0.000000,0.084967 LARM_JOINT2:0.821373,0.000000,-0.010781,-0.570289 LARM_JOINT3:0.966550,0.000000,-0.184432,-0.178227 LLEG_JOINT2:0.998762,0.020058,0.000000,0.045515 LLEG_JOINT4:0.995887,0.085657,0.000000,-0.029521 RARM_JOINT2:0.802866,0.000000,-0.034659,0.595151 RARM_JOINT3:0.956405,0.000000,0.235652,0.172507 RLEG_JOINT2:0.999352,-0.000850,-0.000000,-0.035986 RLEG_JOINT4:0.993497,0.109649,0.000000,0.030677 WAIST:0.999963,0.000000,-0.005969,-0.006199 WAIST_JOINT0:0.999879,0.000000,-0.014314,0.006146 WAIST_JOINT1:0.997416,0.071623,0.000000,-0.005648 END:
KINECT_DATA_Sensor  AnkleLeft:0.067775,0.708855,-0.081448,-0.697351 AnkleRight:0.069586,0.697068,0.084224,0.708632 ElbowLeft:-0.011705,0.907876,-0.176004,-0.380324 ElbowRight:0.008797,0.854876,0.185800,0.484343 FootLeft:0.000000,0.000000,0.000000,0.000000 FootRight:0.000000,0.000000,0.000000,0.000000 HandLeft:-0.124987,0.808899,-0.006158,0.574476 HandRight:-0.108223,0.823729,-0.182842,0.525669 HandTipLeft:0.000000,0.000000,0.000000,0.000000 HandTipRight:0.000000,0.000000,0.000000,0.000000 Head:0.000000,0.000000,0.000000,0.000000 HipLeft:0.122075,-0.683136,0.698437,-0.174953 HipRight:-0.111704,0.675061,0.708328,-0.173456 KneeLeft:-0.013872,0.711165,-0.041889,-0.701639 KneeRight:-0.030266,0.702563,0.029393,0.710370 Neck:0.013756,-0.012360,0.995964,-0.087832 ShoulderLeft:0.018524,0.784825,-0.615510,0.069668 ShoulderRight:0.036928,0.788180,0.612554,-0.046755 SpineBase:0.006022,-0.010807,0.998817,-0.047021 SpineMid:0.009696,-0.010980,0.998788,-0.046981 SpineShoulder:0.013586,-0.011781,0.997636,-0.066319 ThumbLeft:0.000000,0.000000,0.000000,0.000000 ThumbRight:0.000000,0.000000,0.000000,0.000000 WristLeft:-0.105228,0.814891,-0.057549,0.567069 WristRight:-0.115147,0.834085,-0.055204,0.536653 END:
KINECT_DATA POSITION:40.926117,1.324334,-10.988844 HEAD_JOINT1:0.982023,0.167742,-0.000000,0.086565 LARM_JOINT2:0.821564,0.000000,-0.010724,-0.570016 LARM_JOINT3:0.966690,0.000000,-0.181890,-0.180074 LLEG_JOINT2:0.998755,0.020910,0.000000,0.045285 LLEG_JOINT4:0.995853,0.086211,0.000000,-0.029058 RARM_JOINT2:0.802505,0.000000,-0.035441,0.595592 RARM_JOINT3:0.957763,0.000000,0.236146,0.164087 RLEG_JOINT2:0.999355,-0.000345,-0.000000,-0.035911 RLEG_JOINT4:0.993632,0.108963,0.000000,0.028662 WAIST:0.999961,0.000000,-0.006527,-0.005979 WAIST_JOINT0:0.999873,0.000000,-0.014752,0.006093 WAIST_JOINT1:0.997410,0.071671,0.000000,-0.006064 END:
KINECT_DATA_Sensor  AnkleLeft:0.068184,0.707311,-0.082970,-0.698697 AnkleRight:0.069257,0.704713,0.084506,0.701029 ElbowLeft:-0.011721,0.908190,-0.176160,-0.379502 ElbowRight:0.009788,0.854872,0.185766,0.484344 FootLeft:0.000000,0.000000,0.000000,0.000000 FootRight:0.000000,0.000000,0.000000,0.000000 HandLeft:-0.119311,0.681222,-0.018119,0.722062 HandRight:-0.139476,0.857287,-0.147700,0.473065 HandTipLeft:0.000000,0.000000,0.000000,0.000000 HandTipRight:0.000000,0.000000,0.000000,0.000000 Head:0.000000,0.000000,0.000000,0.000000 HipLeft:0.122404,-0.682907,0.698541,-0.175201 HipRight:-0.111256,0.675234,0.708283,-0.173253 KneeLeft:-0.013289,0.711560,-0.042479,-0.701214 KneeRight:-0.029682,0.702209,0.029555,0.710737 Neck:0.014207,-0.012522,0.995951,-0.087876 ShoulderLeft:0.018361,0.784634,-0.615719,0.070012 ShoulderRight:0.037352,0.787854,0.612974,-0.046400 SpineBase:0.006552,-0.010974,0.998809,-0.047091 SpineMid:0.010184,-0.011145,0.998778,-0.047051 SpineShoulder:0.014036,-0.011927,0.997625,-0.066376 ThumbLeft:0.000000,0.000000,0.000000,0.000000 ThumbRight:0.000000,0.000000,0.000000,0.000000 WristLeft:-0.091235,0.685023,-0.077211,0.718650 WristRight:-0.116854,0.864987,-0.047275,0.485703 END:
KINECT_DATA POSITION:40.934582,1.326241,-10.968840 HEAD_JOINT1:0.981709,0.168623,-0.000000,0.088395 LARM_JOINT2:0.821867,0.000000,-0.011780,-0.569558 LARM_JOINT3:0.967040,0.000000,-0.181418,-0.178663 LLEG_JOINT2:0.998748,0.020291,0.000000,0.045733 LLEG_JOINT4:0.995773,0.086845,0.000000,-0.029896 RARM_JOINT2:0.801701,0.000000,-0.036423,0.596615 RARM_JOINT3:0.958075,0.000000,0.233608,0.165893 RLEG_JOINT2:0.999378,0.000166,0.000000,-0.035265 RLEG_JOINT4:0.993716,0.107974,0.000000,0.029490 WAIST:0.999955,0.000000,-0.007332,-0.006020 WAIST_JOINT0:0.999863,0.000000,-0.015499,0.005805 WAIST_JOINT1:0.997407,0.071671,0.000000,-0.006499 END:
KINECT_DATA_Sensor  AnkleLeft:0.069368,0.715712,-0.081943,-0.690095 AnkleRight:0.068469,0.691617,0.084322,0.714050 ElbowLeft:-0.012407,0.909187,-0.175854,-0.377228 ElbowRight:0.010668,0.853536,0.185410,0.486811 FootLeft:0.000000,0.000000,0.000000,0.000000 FootRight:0.000000,0.000000,0.000000,0.000000 HandLeft:-0.114363,0.604763,-0.034832,0.787382 HandRight:-0.135522,0.881458,-0.147014,0.427847 HandTipLeft:0.000000,0.000000,0.000000,0.000000 HandTipRight:0.000000,0.000000,0.000000,0.000000 Head:0.000000,0.000000,0.000000,0.000000 HipLeft:0.122784,-0.682875,0.698432,-0.175496 HipRight:-0.110553,0.675324,0.708412,-0.172823 KneeLeft:-0.014054,0.712090,-0.042309,-0.700671 KneeRight:-0.028872,0.701683,0.029504,0.711293 Neck:0.014980,-0.012973,0.995935,-0.087872 ShoulderLeft:0.018075,0.784716,-0.615572,0.070459 ShoulderRight:0.038064,0.787474,0.613475,-0.045658 SpineBase:0.007343,-0.011279,0.998797,-0.047152 SpineMid:0.010966,-0.011450,0.998764,-0.047111 SpineShoulder:0.014806,-0.012331,0.997608,-0.066383 ThumbLeft:0.000000,0.000000,0.000000,0.000000 ThumbRight:0.000000,0.000000,0.000000,0.000000 WristLeft:-0.082691,0.608385,-0.085741,0.784652 WristRight:-0.118435,0.888948,-0.039784,0.440638 END:
KINECT_DATA POSITION:40.951374,1.322965,-10.971249 HEAD_JOINT1:0.981759,0.166658,-0.000000,0.091516 LARM_JOINT2:0.822589,0.000000,-0.012343,-0.568503 LARM_JOINT3:0.966281,0.000000,-0.185038,-0.179056 LLEG_JOINT2:0.998687,0.021637,0.000000,0.046429 LLEG_JOINT4:0.995957,0.085206,0.000000,-0.028445 RARM_JOINT2:0.801426,0.000000,-0.042548,0.596579 RARM_JOINT3:0.942566,0.000000,0.292049,0.162102 RLEG_JOINT2:0.999384,0.000206,0.000000,-0.035098 RLEG_JOINT4:0.993664,0.108344,0.000000,0.029899 WAIST:0.999948,0.000000,-0.008162,-0.006129 WAIST_JOINT0:0.999850,0.000000,-0.016398,0.005586 WAIST_JOINT1:0.997437,0.071237,0.000000,-0.006720 END:
KINECT_DATA_Sensor  AnkleLeft:0.067682,0.716581,-0.083215,-0.689206 AnkleRight:0.069294,0.692180,0.084102,0.713451 ElbowLeft:-0.013322,0.910390,-0.176344,-0.374053 ElbowRight:0.010189,0.840432,0.187825,0.508224 FootLeft:0.000000,0.000000,0.000000,0.000000 FootRight:0.000000,0.000000,0.000000,0.000000 HandLeft:-0.133757,0.777740,-0.015672,0.613991 HandRight:-0.327753,0.856501,-0.210836,0.338426 HandTipLeft:0.000000,0.000000,0.000000,0.000000 HandTipRight:0.000000,0.000000,0.000000,0.000000 Head:0.000000,0.000000,0.000000,0.000000 HipLeft:0.123397,-0.682921,0.698211,-0.175763 HipRight:-0.110140,0.675431,0.708513,-0.172253 KneeLeft:-0.013563,0.712703,-0.043666,-0.699974 KneeRight:-0.028783,0.701100,0.029511,0.711870 Neck:0.015969,-0.013279,0.995966,-0.087298 ShoulderLeft:0.016369,0.785140,-0.614956,0.071531 ShoulderRight:0.037612,0.787471,0.613539,-0.045207 SpineBase:0.008171,-0.011456,0.998798,-0.046943 SpineMid:0.011877,-0.011630,0.998761,-0.046900 SpineShoulder:0.015796,-0.012606,0.997615,-0.065998 ThumbLeft:0.000000,0.000000,0.000000,0.000000 ThumbRight:0.000000,0.000000,0.000000,0.000000 WristLeft:-0.101885,0.785456,-0.062075,0.607310 WristRight:-0.139139,0.905314,-0.043313,0.398962 END:
KINECT_DATA POSITION:41.003410,1.334052,-10.961986 HEAD_JOINT1:0.981547,0.163120,-0.000000,0.099784 LARM_JOINT2:0.823960,0.000000,-0.011578,-0.566529 LARM_JOINT3:0.964799,0.000000,-0.187975,-0.183922 LLEG_JOINT2:0.998717,0.022375,0.000000,0.045429 LLEG_JOINT4:0.996033,0.083663,0.000000,-0.030302 RARM_JOINT2:0.804029,0.000000,-0.052697,0.592250 RARM_JOINT3:0.892716,0.000000,0.399641,0.208193 RLEG_JOINT2:0.999374,0.000011,0.000000,-0.035374 RLEG_JOINT4:0.993789,0.108318,0.000000,0.025513 WAIST:0.999926,0.000000,-0.010619,-0.006008 WAIST_JOINT0:0.999789,0.000000,-0.019837,0.005383 WAIST_JOINT1:0.997503,0.070320,0.000000,-0.006578 END:
KINECT_DATA_Sensor  AnkleLeft:0.069153,0.721270,-0.080581,-0.684467 AnkleRight:0.070309,0.724410,0.083680,0.680650 ElbowLeft:-0.015462,0.910229,-0.178563,-0.373310 ElbowRight:-0.001384,0.792601,0.195659,0.577494 FootLeft:0.000000,0.000000,0.000000,0.000000 FootRight:0.000000,0.000000,0.000000,0.000000 HandLeft:-0.133862,0.585709,-0.044309,0.798162 HandRight:-0.304527,0.863058,-0.337921,0.219550 HandTipLeft:0.000000,0.000000,0.000000,0.000000 HandTipRight:0.000000,0.000000,0.000000,0.000000 Head:0.000000,0.000000,0.000000,0.000000 HipLeft:0.124891,-0.682516,0.698091,-0.176760 HipRight:-0.109014,0.675888,0.708703,-0.170384 KneeLeft:-0.012534,0.714460,-0.043534,-0.698208 KneeRight:-0.028969,0.699325,0.029546,0.713605 Neck:0.019494,-0.012691,0.996018,-0.086059 ShoulderLeft:0.012100,0.784882,-0.614994,0.074802 ShoulderRight:0.037794,0.787338,0.613856,-0.043015 SpineBase:0.010629,-0.011037,0.998802,-0.046472 SpineMid:0.014868,-0.011234,0.998748,-0.046425 SpineShoulder:0.019311,-0.012322,0.997610,-0.065190 ThumbLeft:0.000000,0.000000,0.000000,0.000000 ThumbRight:0.000000,0.000000,0.000000,0.000000 WristLeft:-0.083897,0.590487,-0.090122,0.797599 WristRight:-0.264514,0.914696,-0.075059,0.296193 END:
KINECT_DATA POSITION:41.127323,1.358904,-10.928631 HEAD_JOINT1:0.981377,0.162185,-0.000000,0.102935 LARM_JOINT2:0.823951,0.000000,-0.010545,-0.566564 LARM_JOINT3:0.965647,0.000000,-0.181893,-0.185582 LLEG_JOINT2:0.998809,0.023911,0.000000,0.042534 LLEG_JOINT4:0.996368,0.080274,0.000000,-0.028414 RARM_JOINT2:0.804958,0.000000,-0.051014,0.591134 RARM_JOINT3:0.859757,0.000000,0.477160,0.182031 RLEG_JOINT2:0.999283,-0.000201,-0.000000,-0.037868 RLEG_JOINT4:0.993790,0.107637,0.000000,0.028206 WAIST:0.999904,0.000000,-0.012844,-0.005154 WAIST_JOINT0:0.999760,0.000000,-0.021260,0.005325 WAIST_JOINT1:0.997553,0.069560,0.000000,-0.007008 END:
KINECT_DATA_Sensor  AnkleLeft:0.067292,0.719133,-0.079733,-0.686995 AnkleRight:0.070053,0.718949,0.082536,0.686581 ElbowLeft:-0.015765,0.911224,-0.178965,-0.370666 ElbowRight:-0.007340,0.779259,0.195270,0.595459 FootLeft:0.000000,0.000000,0.000000,0.000000 FootRight:0.000000,0.000000,0.000000,0.000000 HandLeft:-0.120698,0.810521,0.015498,0.572930 HandRight:0.292715,-0.263385,-0.454534,0.798965 HandTipLeft:0.000000,0.000000,0.000000,0.000000 HandTipRight:0.000000,0.000000,0.000000,0.000000 Head:0.000000,0.000000,0.000000,0.000000 HipLeft:0.126377,-0.681753,0.698371,-0.177534 HipRight:-0.108233,0.677011,0.708276,-0.168183 KneeLeft:-0.010097,0.716061,-0.043177,-0.696628 KneeRight:-0.030201,0.697661,0.030634,0.715135 Neck:0.020961,-0.012210,0.996062,-0.085278 ShoulderLeft:0.010187,0.784858,-0.614934,0.075827 ShoulderRight:0.037727,0.787334,0.613951,-0.041773 SpineBase:0.012824,-0.009850,0.998828,-0.045626 SpineMid:0.016747,-0.010030,0.998770,-0.045587 SpineShoulder:0.020811,-0.011655,0.997634,-0.064477 ThumbLeft:0.000000,0.000000,0.000000,0.000000 ThumbRight:0.000000,0.000000,0.000000,0.000000 WristLeft:-0.108950,0.818004,-0.057243,0.561893 WristRight:0.111292,-0.358176,-0.299752,0.877196 END:
KINECT_DATA POSITION:41.203075,1.373988,-10.839415 HEAD_JOINT1:0.981080,0.162880,-0.000000,0.104649 LARM_JOINT2:0.823806,0.000000,-0.009320,-0.566794 LARM_JOINT3:0.964946,0.000000,-0.185434,-0.185724 LLEG_JOINT2:0.998876,0.024671,0.000000,0.040468 LLEG_JOINT4:0.996268,0.081989,0.000000,-0.026979 RARM_JOINT2:0.804076,0.000000,-0.052028,0.592246 RARM_JOINT3:0.831394,0.000000,0.530643,0.164931 RLEG_JOINT2:0.999211,-0.000635,-0.000000,-0.039716 RLEG_JOINT4:0.993269,0.111781,0.000000,0.030361 WAIST:0.999888,0.000000,-0.014305,-0.004511 WAIST_JOINT0:0.999744,0.000000,-0.021965,0.005404 WAIST_JOINT1:0.997591,0.068991,0.000000,-0.007259 END:
KINECT_DATA_Sensor  AnkleLeft:0.068840,0.719341,-0.081653,-0.686398 AnkleRight:0.071303,0.698785,0.086119,0.706540 ElbowLeft:-0.015687,0.911575,-0.179265,-0.369660 ElbowRight:-0.008771,0.769259,0.193818,0.608768 FootLeft:0.000000,0.000000,0.000000,0.000000 FootRight:0.000000,0.000000,0.000000,0.000000 HandLeft:-0.134042,0.772567,-0.000732,0.620622 HandRight:0.246718,-0.211832,-0.550183,0.769127 HandTipLeft:0.000000,0.000000,0.000000,0.000000 HandTipRight:0.000000,0.000000,0.000000,0.000000 Head:0.000000,0.000000,0.000000,0.000000 HipLeft:0.127646,-0.681268,0.698574,-0.177691 HipRight:-0.107964,0.677887,0.707924,-0.166302 KneeLeft:-0.008608,0.717099,-0.042717,-0.695608 KneeRight:-0.031307,0.696553,0.031241,0.716141 Neck:0.021694,-0.011679,0.996089,-0.084856 ShoulderLeft:0.008927,0.784717,-0.615075,0.076304 ShoulderRight:0.037371,0.787391,0.613944,-0.041130 SpineBase:0.014262,-0.009004,0.998865,-0.044552 SpineMid:0.017858,-0.009165,0.998807,-0.044520 SpineShoulder:0.021555,-0.011119,0.997662,-0.063894 ThumbLeft:0.000000,0.000000,0.000000,0.000000 ThumbRight:0.000000,0.000000,0.000000,0.000000 WristLeft:-0.105060,0.782125,-0.063496,0.610909 WristRight:0.113048,-0.307828,-0.342185,0.880552 END:
KINECT_DATA POSITION:41.228245,1.388335,-10.693288 HEAD_JOINT1:0.980775,0.163611,-0.000000,0.106353 LARM_JOINT2:0.823732,0.000000,-0.009439,-0.566901 LARM_JOINT3:0.964198,0.000000,-0.186824,-0.188201 LLEG_JOINT2:0.998926,0.024815,0.000000,0.039130 LLEG_JOINT4:0.996171,0.083816,0.000000,-0.024868 RARM_JOINT2:0.803378,0.000000,-0.055049,0.592920 RARM_JOINT3:0.820383,0.000000,0.553273,0.144429 RLEG_JOINT2:0.999154,0.000640,0.000000,-0.041114 RLEG_JOINT4:0.993607,0.108375,0.000000,0.031617 WAIST:0.999892,0.000000,-0.014131,-0.004091 WAIST_JOINT0:0.999684,0.000000,-0.024676,0.004801 WAIST_JOINT1:0.997627,0.068494,0.000000,-0.006991 END:
KINECT_DATA_Sensor  AnkleLeft:0.069225,0.717619,-0.084028,-0.687873 AnkleRight:0.069912,0.699001,0.084478,0.706664 ElbowLeft:-0.015597,0.913068,-0.179607,-0.365793 ElbowRight:-0.010094,0.756850,0.193376,0.624246 FootLeft:0.000000,0.000000,0.000000,0.000000 FootRight:0.000000,0.000000,0.000000,0.000000 HandLeft:-0.146122,0.789904,0.002029,0.595563 HandRight:0.224653,-0.231885,-0.565141,0.759194 HandTipLeft:0.000000,0.000000,0.000000,0.000000 HandTipRight:0.000000,0.000000,0.000000,0.000000 Head:0.000000,0.000000,0.000000,0.000000 HipLeft:0.127821,-0.681121,0.698773,-0.177351 HipRight:-0.108345,0.678285,0.707544,-0.166046 KneeLeft:-0.007838,0.716975,-0.042185,-0.695777 KneeRight:-0.031073,0.696673,0.032830,0.715963 Neck:0.024443,-0.011285,0.996055,-0.084558 ShoulderLeft:0.006177,0.784722,-0.614832,0.078458 ShoulderRight:0.038097,0.787124,0.614378,-0.039048 SpineBase:0.014067,-0.008705,0.998891,-0.044088 SpineMid:0.019126,-0.008928,0.998807,-0.044043 SpineShoulder:0.024325,-0.010627,0.997642,-0.063290 ThumbLeft:0.000000,0.000000,0.000000,0.000000 ThumbRight:0.000000,0.000000,0.000000,0.000000 WristLeft:-0.106781,0.800963,-0.058804,0.586173 WristRight:0.121170,-0.312960,-0.370349,0.866150 END:
KINECT_DATA POSITION:41.226406,1.384430,-10.498274 HEAD_JOINT1:0.980764,0.162476,-0.000000,0.108186 LARM_JOINT2:0.823573,0.000000,-0.009763,-0.567126 LARM_JOINT3:0.963985,0.000000,-0.185570,-0.190516 LLEG_JOINT2:0.998868,0.026449,0.000000,0.039538 LLEG_JOINT4:0.996171,0.083863,0.000000,-0.024703 RARM_JOINT2:0.802416,0.000000,-0.052283,0.594471 RARM_JOINT3:0.806959,0.000000,0.585897,0.074446 RLEG_JOINT2:0.999168,0.001546,0.000000,-0.040751 RLEG_JOINT4:0.993660,0.107686,0.000000,0.032294 WAIST:0.999860,0.000000,-0.015963,-0.004970 WAIST_JOINT0:0.999651,0.000000,-0.026153,0.003790 WAIST_JOINT1:0.997670,0.067924,0.000000,-0.006320 END:
KINECT_DATA_Sensor  AnkleLeft:0.070772,0.721393,-0.084847,-0.683655 AnkleRight:0.073337,0.722937,0.081747,0.682130 ElbowLeft:-0.016245,0.914381,-0.178820,-0.362860 ElbowRight:-0.020053,0.725728,0.189790,0.660982 FootLeft:0.000000,0.000000,0.000000,0.000000 FootRight:0.000000,0.000000,0.000000,0.000000 HandLeft:-0.147982,0.686218,-0.012206,0.712080 HandRight:0.159947,-0.290109,-0.593449,0.733534 HandTipLeft:0.000000,0.000000,0.000000,0.000000 HandTipRight:0.000000,0.000000,0.000000,0.000000 Head:0.000000,0.000000,0.000000,0.000000 HipLeft:0.129319,-0.681527,0.697898,-0.178146 HipRight:-0.107563,0.678029,0.708222,-0.164709 KneeLeft:-0.006451,0.718326,-0.043002,-0.694346 KneeRight:-0.030735,0.695333,0.033872,0.717230 Neck:0.025932,-0.011392,0.996058,-0.084066 ShoulderLeft:0.005163,0.784686,-0.614821,0.078973 ShoulderRight:0.038971,0.786331,0.615444,-0.037337 SpineBase:0.015950,-0.009137,0.998880,-0.043589 SpineMid:0.020804,-0.009349,0.998791,-0.043545 SpineShoulder:0.025820,-0.010669,0.997641,-0.062699 ThumbLeft:0.000000,0.000000,0.000000,0.000000 ThumbRight:0.000000,0.000000,0.000000,0.000000 WristLeft:-0.096539,0.691607,-0.074990,0.711854 WristRight:0.122601,-0.334723,-0.421272,0.833942 END:
KINECT_DATA POSITION:41.215057,1.377784,-10.302174 HEAD_JOINT1:0.980884,0.160378,-0.000000,0.110206 LARM_JOINT2:0.824141,0.000000,-0.009421,-0.566306 LARM_JOINT3:0.964527,0.000000,-0.185537,-0.187787 LLEG_JOINT2:0.998819,0.027984,0.000000,0.039714 LLEG_JOINT4:0.996418,0.080442,0.000000,-0.026074 RARM_JOINT2:0.801321,0.000000,-0.049538,0.596180 RARM_JOINT3:0.808065,0.000000,0.587169,0.047574 RLEG_JOINT2:0.999183,0.001311,0.000000,-0.040389 RLEG_JOINT4:0.993197,0.111630,0.000000,0.033143 WAIST:0.999815,0.000000,-0.018478,-0.005423 WAIST_JOINT0:0.999585,0.000000,-0.028624,0.003143 WAIST_JOINT1:0.997663,0.068006,0.000000,-0.006673 END:
KINECT_DATA_Sensor  AnkleLeft:0.070302,0.722708,-0.082586,-0.682591 AnkleRight:0.074435,0.701112,0.085542,0.703977 ElbowLeft:-0.016334,0.915577,-0.179099,-0.359689 ElbowRight:-0.023473,0.713894,0.187279,0.674337 FootLeft:0.000000,0.000000,0.000000,0.000000 FootRight:0.000000,0.000000,0.000000,0.000000 HandLeft:-0.140055,0.792472,-0.000245,0.593610 HandRight:0.145568,-0.331435,-0.592814,0.719397 HandTipLeft:0.000000,0.000000,0.000000,0.000000 HandTipRight:0.000000,0.000000,0.000000,0.000000 Head:0.000000,0.000000,0.000000,0.000000 HipLeft:0.130797,-0.681541,0.697274,-0.179453 HipRight:-0.105745,0.678060,0.708760,-0.163436 KneeLeft:-0.005306,0.720110,-0.043883,-0.692451 KneeRight:-0.030897,0.693541,0.033838,0.718958 Neck:0.028422,-0.012079,0.995973,-0.084166 ShoulderLeft:0.003702,0.784728,-0.614526,0.080907 ShoulderRight:0.040721,0.785727,0.616215,-0.035405 SpineBase:0.018468,-0.009859,0.998824,-0.043723 SpineMid:0.023298,-0.010070,0.998723,-0.043675 SpineShoulder:0.028309,-0.011280,0.997561,-0.062796 ThumbLeft:0.000000,0.000000,0.000000,0.000000 ThumbRight:0.000000,0.000000,0.000000,0.000000 WristLeft:-0.108092,0.801667,-0.056563,0.585190 WristRight:0.128785,-0.362933,-0.431775,0.815637 END:
KINECT_DATA POSITION:41.213978,1.365034,-10.141969 HEAD_JOINT1:0.980410,0.161658,-0.000000,0.112532 LARM_JOINT2:0.826056,0.000000,-0.008820,-0.563519 LARM_JOINT3:0.963056,0.000000,-0.187549,-0.193259 LLEG_JOINT2:0.998758,0.029738,0.000000,0.039971 LLEG_JOINT4:0.996397,0.080982,0.000000,-0.025203 RARM_JOINT2:0.800266,0.000000,-0.048656,0.597668 RARM_JOINT3:0.811033,0.000000,0.584787,0.015775 RLEG_JOINT2:0.999179,0.002256,0.000000,-0.040439 RLEG_JOINT4:0.993398,0.110109,0.000000,0.032201 WAIST:0.999774,0.000000,-0.020549,-0.005517 WAIST_JOINT0:0.999473,0.000000,-0.032368,0.002615 WAIST_JOINT1:0.997683,0.067695,0.000000,-0.006770 END:
KINECT_DATA_Sensor  AnkleLeft:0.071088,0.724704,-0.084991,-0.680093 AnkleRight:0.075238,0.714505,0.084214,0.690457 ElbowLeft:-0.016675,0.918248,-0.182095,-0.351261 ElbowRight:-0.027943,0.693806,0.184756,0.695498 FootLeft:0.000000,0.000000,0.000000,0.000000 FootRight:0.000000,0.000000,0.000000,0.000000 HandLeft:-0.136175,0.496219,-0.058169,0.855476 HandRight:0.083832,-0.308262,-0.597635,0.735377 HandTipLeft:0.000000,0.000000,0.000000,0.000000 HandTipRight:0.000000,0.000000,0.000000,0.000000 Head:0.000000,0.000000,0.000000,0.000000 HipLeft:0.132434,-0.681288,0.696913,-0.180608 HipRight:-0.104839,0.678249,0.708981,-0.162276 KneeLeft:-0.004303,0.721576,-0.045240,-0.690842 KneeRight:-0.030252,0.692067,0.034652,0.720367 Neck:0.032148,-0.012298,0.995884,-0.083841 ShoulderLeft:0.000550,0.784819,-0.614010,0.083965 ShoulderRight:0.042333,0.785669,0.616334,-0.032629 SpineBase:0.020535,-0.009979,0.998794,-0.043457 SpineMid:0.026192,-0.010225,0.998662,-0.043400 SpineShoulder:0.032045,-0.011429,0.997466,-0.062480 ThumbLeft:0.000000,0.000000,0.000000,0.000000 ThumbRight:0.000000,0.000000,0.000000,0.000000 WristLeft:-0.078855,0.501598,-0.093547,0.856406 WristRight:0.087207,-0.326024,-0.453261,0.825020 END:
KINECT_DATA POSITION:41.226288,1.363133,-10.024035 HEAD_JOINT1:0.980124,0.161770,-0.000000,0.114838 LARM_JOINT2:0.827568,0.000000,-0.010536,-0.561267 LARM_JOINT3:0.962572,0.000000,-0.184705,-0.198343 LLEG_JOINT2:0.998733,0.029841,0.000000,0.040521 LLEG_JOINT4:0.996214,0.082947,0.000000,-0.026028 RARM_JOINT2:0.799750,0.000000,-0.049827,0.598262 RARM_JOINT3:0.812354,0.000000,0.583014,0.013279 RLEG_JOINT2:0.999198,0.004123,0.000000,-0.039820 RLEG_JOINT4:0.993695,0.107674,0.000000,0.031245 WAIST:0.999768,0.000000,-0.020763,-0.005797 WAIST_JOINT0:0.999387,0.000000,-0.034959,0.002096 WAIST_JOINT1:0.997674,0.067845,0.000000,-0.006557 END:
KINECT_DATA_Sensor  AnkleLeft:0.073062,0.725818,-0.085943,-0.678575 AnkleRight:0.071952,0.694338,0.086386,0.710813 ElbowLeft:-0.017528,0.920834,-0.184036,-0.343350 ElbowRight:-0.028892,0.684898,0.184576,0.704280 FootLeft:0.000000,0.000000,0.000000,0.000000 FootRight:0.000000,0.000000,0.000000,0.000000 HandLeft:-0.143368,0.772348,0.004467,0.618792 HandRight:0.079018,-0.289824,-0.588839,0.750352 HandTipLeft:0.000000,0.000000,0.000000,0.000000 HandTipRight:0.000000,0.000000,0.000000,0.000000 Head:0.000000,0.000000,0.000000,0.000000 HipLeft:0.132508,-0.681374,0.696748,-0.180867 HipRight:-0.104643,0.678030,0.709225,-0.162250 KneeLeft:-0.004441,0.721738,-0.045496,-0.690655 KneeRight:-0.028665,0.691940,0.035701,0.720502 Neck:0.034698,-0.012550,0.995786,-0.083959 ShoulderLeft:-0.000331,0.784826,-0.613787,0.085518 ShoulderRight:0.044716,0.785302,0.616757,-0.030203 SpineBase:0.020769,-0.010077,0.998782,-0.043607 SpineMid:0.027577,-0.010374,0.998617,-0.043537 SpineShoulder:0.034601,-0.011624,0.997371,-0.062598 ThumbLeft:0.000000,0.000000,0.000000,0.000000 ThumbRight:0.000000,0.000000,0.000000,0.000000 WristLeft:-0.109100,0.782987,-0.055829,0.609845 WristRight:0.070245,-0.315229,-0.459130,0.827584 END:
KINECT_DATA POSITION:41.247116,1.366380,-9.981335 HEAD_JOINT1:0.979874,0.161906,-0.000000,0.116764 LARM_JOINT2:0.828090,0.000000,-0.009779,-0.560509 LARM_JOINT3:0.962825,0.000000,-0.180786,-0.200711 LLEG_JOINT2:0.998706,0.030988,0.000000,0.040331 LLEG_JOINT4:0.996184,0.084314,0.000000,-0.022569 RARM_JOINT2:0.799013,0.000000,-0.051412,0.599111 RARM_JOINT3:0.811779,0.000000,0.583938,0.005555 RLEG_JOINT2:0.999197,0.004279,0.000000,-0.039835 RLEG_JOINT4:0.993750,0.106674,0.000000,0.032900 WAIST:0.999736,0.000000,-0.022205,-0.005985 WAIST_JOINT0:0.999332,0.000000,-0.036519,0.001577 WAIST_JOINT1:0.997663,0.067984,0.000000,-0.006771 END:
KINECT_DATA_Sensor  AnkleLeft:0.074674,0.742918,-0.088191,-0.659333 AnkleRight:0.072957,0.697786,0.084188,0.707591 ElbowLeft:-0.017015,0.921808,-0.184810,-0.340332 ElbowRight:-0.028319,0.679036,0.184798,0.709900 FootLeft:0.000000,0.000000,0.000000,0.000000 FootRight:0.000000,0.000000,0.000000,0.000000 HandLeft:-0.124046,0.454333,-0.037902,0.881339 HandRight:0.112455,-0.347805,-0.585076,0.723927 HandTipLeft:0.000000,0.000000,0.000000,0.000000 HandTipRight:0.000000,0.000000,0.000000,0.000000 Head:0.000000,0.000000,0.000000,0.000000 HipLeft:0.133369,-0.681276,0.696452,-0.181745 HipRight:-0.103722,0.678044,0.709487,-0.161633 KneeLeft:-0.003446,0.722760,-0.046048,-0.689555 KneeRight:-0.028650,0.690903,0.035989,0.721482 Neck:0.036277,-0.012903,0.995713,-0.084107 ShoulderLeft:-0.001126,0.785069,-0.613305,0.086736 ShoulderRight:0.045941,0.785001,0.617108,-0.028978 SpineBase:0.022212,-0.010339,0.998743,-0.043738 SpineMid:0.029088,-0.010640,0.998566,-0.043666 SpineShoulder:0.036182,-0.011922,0.997302,-0.062744 ThumbLeft:0.000000,0.000000,0.000000,0.000000 ThumbRight:0.000000,0.000000,0.000000,0.000000 WristLeft:-0.077580,0.459236,-0.094989,0.879807 WristRight:0.099191,-0.378318,-0.455762,0.799574 END:
KINECT_DATA POSITION:41.264103,1.366844,-9.971273 HEAD_JOINT1:0.979553,0.161658,-0.000000,0.119761 LARM_JOINT2:0.829021,0.000000,-0.011116,-0.559107 LARM_JOINT3:0.963115,0.000000,-0.179344,-0.200614 LLEG_JOINT2:0.998682,0.030315,0.000000,0.041418 LLEG_JOINT4:0.996077,0.084331,0.000000,-0.026796 RARM_JOINT2:0.798508,0.000000,-0.054012,0.599556 RARM_JOINT3:0.814568,0.000000,0.579968,-0.010724 RLEG_JOINT2:0.999213,0.004565,0.000000,-0.039409 RLEG_JOINT4:0.993951,0.105466,0.000000,0.030616 WAIST:0.999719,0.000000,-0.022866,-0.006237 WAIST_JOINT0:0.999259,0.000000,-0.038494,0.000751 WAIST_JOINT1:0.997664,0.067894,0.000000,-0.007490 END:
KINECT_DATA_Sensor  AnkleLeft:0.073997,0.723987,-0.087508,-0.680228 AnkleRight:0.072296,0.709060,0.083885,0.696398 ElbowLeft:-0.017577,0.923820,-0.185012,-0.334691 ElbowRight:-0.029977,0.666376,0.185817,0.721468 FootLeft:0.000000,0.000000,0.000000,0.000000 FootRight:0.000000,0.000000,0.000000,0.000000 HandLeft:-0.124489,0.632612,-0.013628,0.764277 HandRight:0.074113,-0.338291,-0.585297,0.733139 HandTipLeft:0.000000,0.000000,0.000000,0.000000 HandTipRight:0.000000,0.000000,0.000000,0.000000 Head:0.000000,0.000000,0.000000,0.000000 HipLeft:0.133930,-0.681369,0.696190,-0.181983 HipRight:-0.103181,0.677916,0.709746,-0.161381 KneeLeft:-0.004554,0.723203,-0.046130,-0.689078 KneeRight:-0.028305,0.690458,0.036074,0.721918 Neck:0.038318,-0.014059,0.995635,-0.083939 ShoulderLeft:-0.002551,0.785509,-0.612518,0.088271 ShoulderRight:0.047158,0.784370,0.617893,-0.027360 SpineBase:0.022864,-0.010979,0.998721,-0.043733 SpineMid:0.030431,-0.011310,0.998519,-0.043648 SpineShoulder:0.038222,-0.012897,0.997219,-0.062664 ThumbLeft:0.000000,0.000000,0.000000,0.000000 ThumbRight:0.000000,0.000000,0.000000,0.000000 WristLeft:-0.096863,0.637149,-0.074575,0.760984 WristRight:0.073957,-0.359732,-0.465872,0.805038 END:
KINECT_DATA POSITION:41.315876,1.361829,-10.009861 HEAD_JOINT1:0.979603,0.161067,-0.000000,0.120147 LARM_JOINT2:0.828798,0.000000,-0.012578,-0.559406 LARM_JOINT3:0.963127,0.000000,-0.179056,-0.200814 LLEG_JOINT2:0.998693,0.030749,0.000000,0.040825 LLEG_JOINT4:0.995817,0.086599,0.000000,-0.029127 RARM_JOINT2:0.799300,0.000000,-0.053546,0.598542 RARM_JOINT3:0.814497,0.000000,0.580013,-0.013390 RLEG_JOINT2:0.999224,0.004566,0.000000,-0.039121 RLEG_JOINT4:0.993974,0.105925,0.000000,0.028202 WAIST:0.999699,0.000000,-0.023720,-0.006216 WAIST_JOINT0:0.999248,0.000000,-0.038768,0.000331 WAIST_JOINT1:0.997692,0.067431,0.000000,-0.007981 END:
KINECT_DATA_Sensor  AnkleLeft:0.078239,0.727076,-0.087138,-0.676495 AnkleRight:0.069208,0.691264,0.087410,0.713949 ElbowLeft:-0.018703,0.924728,-0.183579,-0.332908 ElbowRight:-0.032641,0.661733,0.186351,0.725477 FootLeft:0.000000,0.000000,0.000000,0.000000 FootRight:0.000000,0.000000,0.000000,0.000000 HandLeft:-0.132405,0.765525,0.013470,0.629491 HandRight:0.082791,-0.346024,-0.582723,0.730648 HandTipLeft:0.000000,0.000000,0.000000,0.000000 HandTipRight:0.000000,0.000000,0.000000,0.000000 Head:0.000000,0.000000,0.000000,0.000000 HipLeft:0.134681,-0.681319,0.696041,-0.182189 HipRight:-0.102698,0.678065,0.709792,-0.160864 KneeLeft:-0.003883,0.723795,-0.046040,-0.688467 KneeRight:-0.028062,0.689873,0.035872,0.722496 Neck:0.038670,-0.014429,0.995660,-0.083418 ShoulderLeft:-0.003111,0.785787,-0.612158,0.088275 ShoulderRight:0.047042,0.783981,0.618416,-0.026880 SpineBase:0.023696,-0.011395,0.998707,-0.043506 SpineMid:0.031018,-0.011714,0.998506,-0.043421 SpineShoulder:0.038565,-0.013283,0.997227,-0.062243 ThumbLeft:0.000000,0.000000,0.000000,0.000000 ThumbRight:0.000000,0.000000,0.000000,0.000000 WristLeft:-0.109539,0.775464,-0.053815,0.619485 WristRight:0.076144,-0.371640,-0.469564,0.797243 END:
KINECT_DATA POSITION:41.322060,1.362222,-10.057926 HEAD_JOINT1:0.979733,0.160294,-0.000000,0.120125 LARM_JOINT2:0.828807,0.000000,-0.013083,-0.559382 LARM_JOINT3:0.963977,0.000000,-0.176095,-0.199348 LLEG_JOINT2:0.998659,0.031032,0.000000,0.041427 LLEG_JOINT4:0.996315,0.081063,0.000000,-0.028032 RARM_JOINT2:0.799705,0.000000,-0.052739,0.598072 RARM_JOINT3:0.814509,0.000000,0.580138,-0.003772 RLEG_JOINT2:0.999265,0.003326,0.000000,-0.038198 RLEG_JOINT4:0.993601,0.109449,0.000000,0.027895 WAIST:0.999684,0.000000,-0.024239,-0.006726 WAIST_JOINT0:0.999230,0.000000,-0.039231,0.000508 WAIST_JOINT1:0.997740,0.066716,0.000000,-0.008045 END:
KINECT_DATA_Sensor  AnkleLeft:0.072990,0.722685,-0.084858,-0.682054 AnkleRight:0.071011,0.690734,0.088825,0.714111 ElbowLeft:-0.019450,0.925358,-0.182639,-0.331628 ElbowRight:-0.034369,0.661246,0.186275,0.725861 FootLeft:0.000000,0.000000,0.000000,0.000000 FootRight:0.000000,0.000000,0.000000,0.000000 HandLeft:-0.124533,0.590160,-0.015732,0.797468 HandRight:0.101318,-0.334220,-0.571486,0.742586 HandTipLeft:0.000000,0.000000,0.000000,0.000000 HandTipRight:0.000000,0.000000,0.000000,0.000000 Head:0.000000,0.000000,0.000000,0.000000 HipLeft:0.135373,-0.681682,0.695575,-0.182098 HipRight:-0.102576,0.677849,0.710146,-0.160284 KneeLeft:-0.003787,0.724182,-0.046297,-0.688042 KneeRight:-0.028670,0.689489,0.034721,0.722895 Neck:0.039119,-0.014972,0.995699,-0.082634 ShoulderLeft:-0.004070,0.785849,-0.612074,0.088266 ShoulderRight:0.046673,0.784182,0.618221,-0.026121 SpineBase:0.024236,-0.011909,0.998709,-0.043017 SpineMid:0.031505,-0.012222,0.998506,-0.042929 SpineShoulder:0.039004,-0.013819,0.997246,-0.061548 ThumbLeft:0.000000,0.000000,0.000000,0.000000 ThumbRight:0.000000,0.000000,0.000000,0.000000 WristLeft:-0.092166,0.594917,-0.079517,0.794516 WristRight:0.074904,-0.369900,-0.471407,0.797082 END:
KINECT_DATA POSITION:41.326836,1.363384,-10.089803 HEAD_JOINT1:0.979700,0.160312,-0.000000,0.120366 LARM_JOINT2:0.829046,0.000000,-0.011437,-0.559064 LARM_JOINT3:0.963990,0.000000,-0.174152,-0.200984 LLEG_JOINT2:0.998657,0.031485,0.000000,0.041142 LLEG_JOINT4:0.996442,0.079328,0.000000,-0.028459 RARM_JOINT2:0.799860,0.000000,-0.052820,0.597858 RARM_JOINT3:0.814920,0.000000,0.579572,-0.001453 RLEG_JOINT2:0.999260,0.003189,0.000000,-0.038335 RLEG_JOINT4:0.993750,0.108108,0.000000,0.027797 WAIST:0.999675,0.000000,-0.024608,-0.006624 WAIST_JOINT0:0.999238,0.000000,-0.039031,0.000607 WAIST_JOINT1:0.997759,0.066412,0.000000,-0.008151 END:
KINECT_DATA_Sensor  AnkleLeft:0.073097,0.727909,-0.083028,-0.676691 AnkleRight:0.072939,0.715519,0.085367,0.689511 ElbowLeft:-0.018889,0.924984,-0.183422,-0.332272 ElbowRight:-0.034260,0.662458,0.186381,0.724733 FootLeft:0.000000,0.000000,0.000000,0.000000 FootRight:0.000000,0.000000,0.000000,0.000000 HandLeft:-0.114164,0.774000,0.024502,0.622326 HandRight:0.117115,-0.353918,-0.566553,0.734877 HandTipLeft:0.000000,0.000000,0.000000,0.000000 HandTipRight:0.000000,0.000000,0.000000,0.000000 Head:0.000000,0.000000,0.000000,0.000000 HipLeft:0.135750,-0.681638,0.695539,-0.182118 HipRight:-0.102413,0.678029,0.710076,-0.159937 KneeLeft:-0.003358,0.724440,-0.046497,-0.687759 KneeRight:-0.028780,0.689229,0.034663,0.723141 Neck:0.038909,-0.014865,0.995735,-0.082325 ShoulderLeft:-0.003537,0.785833,-0.612210,0.087476 ShoulderRight:0.046918,0.784146,0.618267,-0.025669 SpineBase:0.024592,-0.012003,0.998709,-0.042798 SpineMid:0.031574,-0.012302,0.998513,-0.042713 SpineShoulder:0.038788,-0.013780,0.997272,-0.061265 ThumbLeft:0.000000,0.000000,0.000000,0.000000 ThumbRight:0.000000,0.000000,0.000000,0.000000 WristLeft:-0.110677,0.782082,-0.052350,0.611030 WristRight:0.087918,-0.390979,-0.467645,0.787854 END:
KINECT_DATA POSITION:41.320072,1.362628,-10.089993 HEAD_JOINT1:0.979743,0.160048,-0.000000,0.120366 LARM_JOINT2:0.828733,0.000000,-0.010400,-0.559547 LARM_JOINT3:0.963012,0.000000,-0.178763,-0.201622 LLEG_JOINT2:0.998655,0.031762,0.000000,0.040981 LLEG_JOINT4:0.996209,0.082273,0.000000,-0.028263 RARM_JOINT2:0.800017,0.000000,-0.052324,0.597691 RARM_JOINT3:0.814421,0.000000,0.580274,-0.000607 RLEG_JOINT2:0.999238,0.002558,0.000000,-0.038953 RLEG_JOINT4:0.993802,0.107328,0.000000,0.028944 WAIST:0.999676,0.000000,-0.024537,-0.006799 WAIST_JOINT0:0.999240,0.000000,-0.038965,0.000438 WAIST_JOINT1:0.997769,0.066293,0.000000,-0.007831 END:
KINECT_DATA_Sensor  AnkleLeft:0.075454,0.727558,-0.085208,-0.676540 AnkleRight:0.072033,0.715149,0.084232,0.690129 ElbowLeft:-0.018499,0.924095,-0.183306,-0.334822 ElbowRight:-0.034445,0.663584,0.186145,0.723754 FootLeft:0.000000,0.000000,0.000000,0.000000 FootRight:0.000000,0.000000,0.000000,0.000000 HandLeft:-0.130167,0.789405,0.023326,0.599461 HandRight:0.136967,-0.376428,-0.564231,0.721932 HandTipLeft:0.000000,0.000000,0.000000,0.000000 HandTipRight:0.000000,0.000000,0.000000,0.000000 Head:0.000000,0.000000,0.000000,0.000000 HipLeft:0.135777,-0.681765,0.695424,-0.182061 HipRight:-0.102523,0.677924,0.710176,-0.159869 KneeLeft:-0.002923,0.724409,-0.046463,-0.687797 KneeRight:-0.029790,0.689238,0.034796,0.723086 Neck:0.038898,-0.014685,0.995748,-0.082202 ShoulderLeft:-0.003814,0.785953,-0.612047,0.087530 ShoulderRight:0.046607,0.784016,0.618450,-0.025792 SpineBase:0.024536,-0.012000,0.998715,-0.042693 SpineMid:0.031535,-0.012298,0.998518,-0.042608 SpineShoulder:0.038775,-0.013657,0.997282,-0.061138 ThumbLeft:0.000000,0.000000,0.000000,0.000000 ThumbRight:0.000000,0.000000,0.000000,0.000000 WristLeft:-0.112310,0.799149,-0.049706,0.588452 WristRight:0.104507,-0.415784,-0.464535,0.774861 END:
KINECT_DATA POSITION:41.293083,1.360636,-10.090887 HEAD_JOINT1:0.979615,0.160804,-0.000000,0.120399 LARM_JOINT2:0.827812,0.000000,-0.009249,-0.560930 LARM_JOINT3:0.964148,0.000000,-0.174387,-0.200021 LLEG_JOINT2:0.998671,0.031159,0.000000,0.041055 LLEG_JOINT4:0.996360,0.080361,0.000000,-0.028448 RARM_JOINT2:0.800496,0.000000,-0.051257,0.597142 RARM_JOINT3:0.816210,0.000000,0.577748,0.002890 RLEG_JOINT2:0.999215,0.002305,0.000000,-0.039552 RLEG_JOINT4:0.993757,0.107564,0.000000,0.029601 WAIST:0.999686,0.000000,-0.024153,-0.006661 WAIST_JOINT0:0.999251,0.000000,-0.038696,0.000081 WAIST_JOINT1:0.997774,0.066206,0.000000,-0.008000 END:
KINECT_DATA_Sensor  AnkleLeft:0.073724,0.727622,-0.083408,-0.676886 AnkleRight:0.072885,0.721634,0.083442,0.683352 ElbowLeft:-0.018069,0.922024,-0.182059,-0.341175 ElbowRight:-0.035336,0.665473,0.186134,0.721977 FootLeft:0.000000,0.000000,0.000000,0.000000 FootRight:0.000000,0.000000,0.000000,0.000000 HandLeft:-0.116051,0.593002,0.004902,0.796779 HandRight:0.091135,-0.311111,-0.569586,0.755299 HandTipLeft:0.000000,0.000000,0.000000,0.000000 HandTipRight:0.000000,0.000000,0.000000,0.000000 Head:0.000000,0.000000,0.000000,0.000000 HipLeft:0.135773,-0.681714,0.695546,-0.181788 HipRight:-0.102810,0.677917,0.710072,-0.160177 KneeLeft:-0.003472,0.724122,-0.046178,-0.688116 KneeRight:-0.030299,0.689518,0.034949,0.722790 Neck:0.038708,-0.014723,0.995763,-0.082109 ShoulderLeft:-0.003743,0.786156,-0.611818,0.087314 ShoulderRight:0.046419,0.783638,0.618937,-0.025952 SpineBase:0.024132,-0.012219,0.998725,-0.042615 SpineMid:0.031228,-0.012522,0.998529,-0.042527 SpineShoulder:0.038579,-0.013740,0.997294,-0.061050 ThumbLeft:0.000000,0.000000,0.000000,0.000000 ThumbRight:0.000000,0.000000,0.000000,0.000000 WristLeft:-0.093410,0.598476,-0.081217,0.791521 WristRight:0.064716,-0.345620,-0.471019,0.809012 END:
KINECT_DATA POSITION:41.285320,1.361250,-10.098850 HEAD_JOINT1:0.979693,0.161107,-0.000000,0.119353 LARM_JOINT2:0.827395,0.000000,-0.008847,-0.561551 LARM_JOINT3:0.964041,0.000000,-0.174417,-0.200510 LLEG_JOINT2:0.998675,0.030943,0.000000,0.041117 LLEG_JOINT4:0.996065,0.083625,0.000000,-0.029343 RARM_JOINT2:0.800514,0.000000,-0.052065,0.597048 RARM_JOINT3:0.816359,0.000000,0.577533,0.003653 RLEG_JOINT2:0.999217,0.002172,0.000000,-0.039502 RLEG_JOINT4:0.993572,0.109206,0.000000,0.029804 WAIST:0.999693,0.000000,-0.023878,-0.006670 WAIST_JOINT0:0.999277,0.000000,-0.038023,-0.000218 WAIST_JOINT1:0.997782,0.066114,0.000000,-0.007804 END:
KINECT_DATA_Sensor  AnkleLeft:0.074465,0.710975,-0.086733,-0.693863 AnkleRight:0.074012,0.720340,0.084392,0.684478 ElbowLeft:-0.017906,0.921330,-0.181638,-0.343275 ElbowRight:-0.034775,0.666051,0.186436,0.721393 FootLeft:0.000000,0.000000,0.000000,0.000000 FootRight:0.000000,0.000000,0.000000,0.000000 HandLeft:-0.116853,0.693687,0.024296,0.710319 HandRight:0.107451,-0.335590,-0.564900,0.746138 HandTipLeft:0.000000,0.000000,0.000000,0.000000 HandTipRight:0.000000,0.000000,0.000000,0.000000 Head:0.000000,0.000000,0.000000,0.000000 HipLeft:0.135597,-0.681796,0.695566,-0.181539 HipRight:-0.103014,0.677911,0.710038,-0.160225 KneeLeft:-0.003647,0.723931,-0.046061,-0.688324 KneeRight:-0.030376,0.689711,0.034821,0.722609 Neck:0.038065,-0.014495,0.995798,-0.082017 ShoulderLeft:-0.003200,0.786226,-0.611829,0.086624 ShoulderRight:0.046120,0.783379,0.619272,-0.026331 SpineBase:0.023861,-0.012170,0.998737,-0.042517 SpineMid:0.030769,-0.012464,0.998548,-0.042432 SpineShoulder:0.037935,-0.013559,0.997327,-0.060959 ThumbLeft:0.000000,0.000000,0.000000,0.000000 ThumbRight:0.000000,0.000000,0.000000,0.000000 WristLeft:-0.104246,0.708964,-0.067035,0.694269 WristRight:0.079779,-0.370509,-0.468023,0.798318 END:
KINECT_DATA POSITION:41.292980,1.366925,-10.129023 HEAD_JOINT1:0.979678,0.161958,-0.000000,0.118322 LARM_JOINT2:0.826857,0.000000,-0.008743,-0.562345 LARM_JOINT3:0.964418,0.000000,-0.175242,-0.197962 LLEG_JOINT2:0.998712,0.029626,0.000000,0.041182 LLEG_JOINT4:0.996036,0.084488,0.000000,-0.027828 RARM_JOINT2:0.800577,0.000000,-0.053578,0.596830 RARM_JOINT3:0.815690,0.000000,0.578470,0.004645 RLEG_JOINT2:0.999216,0.002624,0.000000,-0.039514 RLEG_JOINT4:0.993788,0.107453,0.000000,0.028983 WAIST:0.999713,0.000000,-0.023024,-0.006555 WAIST_JOINT0:0.999317,0.000000,-0.036962,-0.000177 WAIST_JOINT1:0.997788,0.066011,0.000000,-0.007808 END:
KINECT_DATA_Sensor  AnkleLeft:0.075045,0.726563,-0.085765,-0.677583 AnkleRight:0.068960,0.692326,0.087077,0.712984 ElbowLeft:-0.017528,0.920900,-0.180886,-0.344842 ElbowRight:-0.034074,0.666824,0.187220,0.720509 FootLeft:0.000000,0.000000,0.000000,0.000000 FootRight:0.000000,0.000000,0.000000,0.000000 HandLeft:-0.114577,0.567166,-0.004276,0.815583 HandRight:0.066055,-0.280134,-0.571947,0.768139 HandTipLeft:0.000000,0.000000,0.000000,0.000000 HandTipRight:0.000000,0.000000,0.000000,0.000000 Head:0.000000,0.000000,0.000000,0.000000 HipLeft:0.135109,-0.681860,0.695763,-0.180905 HipRight:-0.103557,0.677888,0.709906,-0.160555 KneeLeft:-0.004645,0.723312,-0.045242,-0.689022 KneeRight:-0.030002,0.690337,0.035039,0.722016 Neck:0.036986,-0.014419,0.995847,-0.081932 ShoulderLeft:-0.002294,0.786171,-0.612060,0.085507 ShoulderRight:0.045642,0.783369,0.619294,-0.026906 SpineBase:0.023003,-0.012113,0.998763,-0.042378 SpineMid:0.029800,-0.012401,0.998584,-0.042294 SpineShoulder:0.036853,-0.013494,0.997375,-0.060849 ThumbLeft:0.000000,0.000000,0.000000,0.000000 ThumbRight:0.000000,0.000000,0.000000,0.000000 WristLeft:-0.090757,0.572238,-0.084742,0.810633 WristRight:0.045782,-0.310374,-0.471915,0.823935 END:
KINECT_DATA POSITION:41.304443,1.368120,-10.149824 HEAD_JOINT1:0.979547,0.162972,-0.000000,0.118017 LARM_JOINT2:0.826732,0.000000,-0.009347,-0.562518 LARM_JOINT3:0.964281,0.000000,-0.176318,-0.197671 LLEG_JOINT2:0.998680,0.030611,0.000000,0.041250 LLEG_JOINT4:0.996339,0.081501,0.000000,-0.025792 RARM_JOINT2:0.800579,0.000000,-0.054455,0.596747 RARM_JOINT3:0.815851,0.000000,0.578247,0.004165 RLEG_JOINT2:0.999228,0.002788,0.000000,-0.039175 RLEG_JOINT4:0.993517,0.109441,0.000000,0.030765 WAIST:0.999717,0.000000,-0.022842,-0.006669 WAIST_JOINT0:0.999329,0.000000,-0.036616,-0.000089 WAIST_JOINT1:0.997809,0.065706,0.000000,-0.007786 END:
KINECT_DATA_Sensor  AnkleLeft:0.071939,0.724363,-0.085980,-0.680243 AnkleRight:0.071859,0.691996,0.087102,0.713015 ElbowLeft:-0.017849,0.921400,-0.180313,-0.343788 ElbowRight:-0.034094,0.666093,0.187536,0.721102 FootLeft:0.000000,0.000000,0.000000,0.000000 FootRight:0.000000,0.000000,0.000000,0.000000 HandLeft:-0.117948,0.508461,-0.017167,0.852796 HandRight:0.080093,-0.303084,-0.568644,0.760506 HandTipLeft:0.000000,0.000000,0.000000,0.000000 HandTipRight:0.000000,0.000000,0.000000,0.000000 Head:0.000000,0.000000,0.000000,0.000000 HipLeft:0.135150,-0.681991,0.695688,-0.180668 HipRight:-0.103848,0.677820,0.709943,-0.160487 KneeLeft:-0.003920,0.723215,-0.045922,-0.689083 KneeRight:-0.029735,0.690467,0.034982,0.721905 Neck:0.036604,-0.014534,0.995887,-0.081603 ShoulderLeft:-0.001806,0.786232,-0.612101,0.084671 ShoulderRight:0.045636,0.783490,0.619153,-0.026644 SpineBase:0.022831,-0.012107,0.998778,-0.042128 SpineMid:0.029527,-0.012389,0.998602,-0.042046 SpineShoulder:0.036471,-0.013579,0.997406,-0.060552 ThumbLeft:0.000000,0.000000,0.000000,0.000000 ThumbRight:0.000000,0.000000,0.000000,0.000000 WristLeft:-0.085005,0.513410,-0.090714,0.849091 WristRight:0.058860,-0.333630,-0.471521,0.814183 END:
KINECT_DATA POSITION:41.321243,1.379325,-10.188222 HEAD_JOINT1:0.979527,0.163477,-0.000000,0.117485 LARM_JOINT2:0.826628,0.000000,-0.009132,-0.562675 LARM_JOINT3:0.964126,0.000000,-0.175390,-0.199246 LLEG_JOINT2:0.998677,0.030461,0.000000,0.041423 LLEG_JOINT4:0.996357,0.081044,0.000000,-0.026555 RARM_JOINT2:0.800681,0.000000,-0.054679,0.596590 RARM_JOINT3:0.816396,0.000000,0.577487,0.002397 RLEG_JOINT2:0.999230,0.002688,0.000000,-0.039148 RLEG_JOINT4:0.993538,0.109293,0.000000,0.030623 WAIST:0.999698,0.000000,-0.023563,-0.007002 WAIST_JOINT0:0.999330,0.000000,-0.036610,-0.000169 WAIST_JOINT1:0.997814,0.065669,0.000000,-0.007389 END:
KINECT_DATA_Sensor  AnkleLeft:0.072337,0.726792,-0.084748,-0.677760 AnkleRight:0.070449,0.683480,0.087991,0.721214 ElbowLeft:-0.017860,0.921567,-0.180239,-0.343379 ElbowRight:-0.034021,0.665203,0.187718,0.721879 FootLeft:0.000000,0.000000,0.000000,0.000000 FootRight:0.000000,0.000000,0.000000,0.000000 HandLeft:-0.120268,0.483817,-0.014409,0.866746 HandRight:0.086309,-0.319516,-0.567480,0.753941 HandTipLeft:0.000000,0.000000,0.000000,0.000000 HandTipRight:0.000000,0.000000,0.000000,0.000000 Head:0.000000,0.000000,0.000000,0.000000 HipLeft:0.135534,-0.682086,0.695401,-0.181124 HipRight:-0.103513,0.677711,0.710220,-0.159941 KneeLeft:-0.003950,0.723731,-0.045691,-0.688556 KneeRight:-0.030004,0.689908,0.035146,0.722421 Neck:0.036605,-0.014382,0.995891,-0.081568 ShoulderLeft:-0.002011,0.786430,-0.611829,0.084782 ShoulderRight:0.045415,0.783662,0.618947,-0.026756 SpineBase:0.023585,-0.011958,0.998765,-0.042070 SpineMid:0.029911,-0.012225,0.998595,-0.041994 SpineShoulder:0.036476,-0.013417,0.997410,-0.060523 ThumbLeft:0.000000,0.000000,0.000000,0.000000 ThumbRight:0.000000,0.000000,0.000000,0.000000 WristLeft:-0.082425,0.489026,-0.092934,0.863379 WristRight:0.066196,-0.349748,-0.469563,0.807963 END:
KINECT_DATA POSITION:41.320549,1.380700,-10.214006 HEAD_JOINT1:0.979688,0.163156,-0.000000,0.116586 LARM_JOINT2:0.826519,0.000000,-0.009253,-0.562832 LARM_JOINT3:0.964114,0.000000,-0.178617,-0.196418 LLEG_JOINT2:0.998707,0.029980,0.000000,0.041060 LLEG_JOINT4:0.996135,0.083408,0.000000,-0.027527 RARM_JOINT2:0.800989,0.000000,-0.053126,0.596317 RARM_JOINT3:0.817738,0.000000,0.575565,-0.005441 RLEG_JOINT2:0.999208,0.002439,0.000000,-0.039725 RLEG_JOINT4:0.993667,0.108262,0.000000,0.030079 WAIST:0.999692,0.000000,-0.023860,-0.006823 WAIST_JOINT0:0.999315,0.000000,-0.037003,-0.000083 WAIST_JOINT1:0.997808,0.065771,0.000000,-0.007310 END:
KINECT_DATA_Sensor  AnkleLeft:0.074456,0.726770,-0.085297,-0.677485 AnkleRight:0.069964,0.692107,0.086929,0.713118 ElbowLeft:-0.018076,0.921384,-0.180280,-0.343836 ElbowRight:-0.035179,0.664197,0.187051,0.722922 FootLeft:0.000000,0.000000,0.000000,0.000000 FootRight:0.000000,0.000000,0.000000,0.000000 HandLeft:-0.120947,0.798593,0.022249,0.589174 HandRight:0.091692,-0.350806,-0.568485,0.738480 HandTipLeft:0.000000,0.000000,0.000000,0.000000 HandTipRight:0.000000,0.000000,0.000000,0.000000 Head:0.000000,0.000000,0.000000,0.000000 HipLeft:0.135638,-0.681918,0.695499,-0.181305 HipRight:-0.103303,0.677875,0.710136,-0.159749 KneeLeft:-0.004164,0.723918,-0.045217,-0.688390 KneeRight:-0.030446,0.689682,0.035272,0.722612 Neck:0.036986,-0.014018,0.995868,-0.081750 ShoulderLeft:-0.002499,0.786118,-0.612148,0.085368 ShoulderRight:0.045413,0.783666,0.618943,-0.026755 SpineBase:0.023872,-0.011803,0.998758,-0.042108 SpineMid:0.030241,-0.012071,0.998586,-0.042032 SpineShoulder:0.036853,-0.013174,0.997395,-0.060602 ThumbLeft:0.000000,0.000000,0.000000,0.000000 ThumbRight:0.000000,0.000000,0.000000,0.000000 WristLeft:-0.113957,0.806166,-0.050119,0.578445 WristRight:0.080174,-0.376532,-0.467675,0.795660 END:
KINECT_DATA POSITION:41.314106,1.382191,-10.215605 HEAD_JOINT1:0.979645,0.162878,-0.000000,0.117326 LARM_JOINT2:0.827036,0.000000,-0.009423,-0.562070 LARM_JOINT3:0.963366,0.000000,-0.181892,-0.197083 LLEG_JOINT2:0.998701,0.030123,0.000000,0.041097 LLEG_JOINT4:0.996341,0.080900,0.000000,-0.027555 RARM_JOINT2:0.800861,0.000000,-0.051954,0.596593 RARM_JOINT3:0.817521,0.000000,0.575888,-0.003480 RLEG_JOINT2:0.999223,0.002760,0.000000,-0.039310 RLEG_JOINT4:0.993988,0.105628,0.000000,0.028824 WAIST:0.999687,0.000000,-0.024055,-0.006930 WAIST_JOINT0:0.999281,0.000000,-0.037910,-0.000271 WAIST_JOINT1:0.997800,0.065894,0.000000,-0.007249 END:
KINECT_DATA_Sensor  AnkleLeft:0.072874,0.727345,-0.083544,-0.677259 AnkleRight:0.067594,0.691946,0.086077,0.713605 ElbowLeft:-0.018453,0.921433,-0.181046,-0.343282 ElbowRight:-0.035656,0.663951,0.186336,0.723309 FootLeft:0.000000,0.000000,0.000000,0.000000 FootRight:0.000000,0.000000,0.000000,0.000000 HandLeft:-0.133575,0.659715,-0.011230,0.739465 HandRight:0.124389,-0.377146,-0.563647,0.724286 HandTipLeft:0.000000,0.000000,0.000000,0.000000 HandTipRight:0.000000,0.000000,0.000000,0.000000 Head:0.000000,0.000000,0.000000,0.000000 HipLeft:0.135731,-0.681917,0.695431,-0.181500 HipRight:-0.103164,0.677782,0.710249,-0.159733 KneeLeft:-0.004025,0.724060,-0.045268,-0.688238 KneeRight:-0.029997,0.689552,0.035274,0.722755 Neck:0.037970,-0.014148,0.995818,-0.081880 ShoulderLeft:-0.003748,0.785992,-0.612112,0.086725 ShoulderRight:0.045447,0.783266,0.619452,-0.026620 SpineBase:0.024074,-0.011856,0.998749,-0.042205 SpineMid:0.030833,-0.012142,0.998563,-0.042124 SpineShoulder:0.037842,-0.013242,0.997350,-0.060707 ThumbLeft:0.000000,0.000000,0.000000,0.000000 ThumbRight:0.000000,0.000000,0.000000,0.000000 WristLeft:-0.100478,0.664713,-0.073600,0.736644 WristRight:0.099988,-0.411377,-0.463462,0.778444 END:
KINECT_DATA POSITION:41.303707,1.379371,-10.211479 HEAD_JOINT1:0.979819,0.161756,-0.000000,0.117430 LARM_JOINT2:0.827663,0.000000,-0.009844,-0.561139 LARM_JOINT3:0.963226,0.000000,-0.181646,-0.197991 LLEG_JOINT2:0.998677,0.030555,0.000000,0.041368 LLEG_JOINT4:0.996192,0.082258,0.000000,-0.028910 RARM_JOINT2:0.801192,0.000000,-0.049711,0.596340 RARM_JOINT3:0.817537,0.000000,0.575858,-0.004613 RLEG_JOINT2:0.999217,0.002304,0.000000,-0.039486 RLEG_JOINT4:0.994034,0.104917,0.000000,0.029805 WAIST:0.999681,0.000000,-0.024278,-0.006889 WAIST_JOINT0:0.999246,0.000000,-0.038820,-0.000152 WAIST_JOINT1:0.997775,0.066297,0.000000,-0.007060 END:
KINECT_DATA_Sensor  AnkleLeft:0.074882,0.727527,-0.084069,-0.676778 AnkleRight:0.070257,0.716497,0.082241,0.689153 ElbowLeft:-0.018519,0.922267,-0.182305,-0.340361 ElbowRight:-0.036568,0.664925,0.185616,0.722554 FootLeft:0.000000,0.000000,0.000000,0.000000 FootRight:0.000000,0.000000,0.000000,0.000000 HandLeft:-0.130977,0.785837,0.012536,0.604275 HandRight:0.141566,-0.396221,-0.563162,0.711208 HandTipLeft:0.000000,0.000000,0.000000,0.000000 HandTipRight:0.000000,0.000000,0.000000,0.000000 Head:0.000000,0.000000,0.000000,0.000000 HipLeft:0.135765,-0.681811,0.695454,-0.181784 HipRight:-0.102977,0.677806,0.710255,-0.159728 KneeLeft:-0.003961,0.724219,-0.045795,-0.688036 KneeRight:-0.030414,0.689379,0.035064,0.722912 Neck:0.038887,-0.013916,0.995747,-0.082354 ShoulderLeft:-0.004530,0.785736,-0.612249,0.088027 ShoulderRight:0.045849,0.783257,0.619439,-0.026486 SpineBase:0.024297,-0.011756,0.998737,-0.042378 SpineMid:0.031398,-0.012057,0.998539,-0.042293 SpineShoulder:0.038762,-0.013049,0.997295,-0.061074 ThumbLeft:0.000000,0.000000,0.000000,0.000000 ThumbRight:0.000000,0.000000,0.000000,0.000000 WristLeft:-0.112901,0.794321,-0.052155,0.594632 WristRight:0.113901,-0.433358,-0.459964,0.766590 END:
KINECT_DATA POSITION:41.292046,1.367793,-10.147274 HEAD_JOINT1:0.980015,0.160482,-0.000000,0.117539 LARM_JOINT2:0.827816,0.000000,-0.010388,-0.560904 LARM_JOINT3:0.963371,0.000000,-0.177743,-0.200810 LLEG_JOINT2:0.998671,0.030766,0.000000,0.041338 LLEG_JOINT4:0.996220,0.081999,0.000000,-0.028662 RARM_JOINT2:0.801419,0.000000,-0.047788,0.596191 RARM_JOINT3:0.817104,0.000000,0.576483,-0.002743 RLEG_JOINT2:0.999209,0.001175,0.000000,-0.039761 RLEG_JOINT4:0.993676,0.108021,0.000000,0.030641 WAIST:0.999663,0.000000,-0.024967,-0.007055 WAIST_JOINT0:0.999223,0.000000,-0.039421,-0.000308 WAIST_JOINT1:0.997728,0.067027,0.000000,-0.006831 END:
KINECT_DATA_Sensor  AnkleLeft:0.072245,0.707860,-0.086276,-0.697332 AnkleRight:0.072107,0.716043,0.083136,0.689327 ElbowLeft:-0.018579,0.922442,-0.182683,-0.339681 ElbowRight:-0.036976,0.665566,0.185315,0.722020 FootLeft:0.000000,0.000000,0.000000,0.000000 FootRight:0.000000,0.000000,0.000000,0.000000 HandLeft:-0.125209,0.551254,-0.008353,0.824847 HandRight:0.141659,-0.382521,-0.566841,0.715752 HandTipLeft:0.000000,0.000000,0.000000,0.000000 HandTipRight:0.000000,0.000000,0.000000,0.000000 Head:0.000000,0.000000,0.000000,0.000000 HipLeft:0.135866,-0.681709,0.695323,-0.182590 HipRight:-0.102358,0.677710,0.710454,-0.159646 KneeLeft:-0.003712,0.724705,-0.045804,-0.687526 KneeRight:-0.031519,0.688840,0.034619,0.723400 Neck:0.039451,-0.013819,0.995660,-0.083146 ShoulderLeft:-0.003616,0.785345,-0.612704,0.088400 ShoulderRight:0.047503,0.782752,0.619973,-0.025995 SpineBase:0.025003,-0.011623,0.998700,-0.042867 SpineMid:0.032039,-0.011924,0.998499,-0.042784 SpineShoulder:0.039334,-0.012913,0.997230,-0.061787 ThumbLeft:0.000000,0.000000,0.000000,0.000000 ThumbRight:0.000000,0.000000,0.000000,0.000000 WristLeft:-0.089622,0.556639,-0.086076,0.821408 WristRight:0.108392,-0.423926,-0.460611,0.772253 END:
KINECT_DATA POSITION:41.284279,1.367057,-10.125303 HEAD_JOINT1:0.979592,0.162628,-0.000000,0.118114 LARM_JOINT2:0.827706,0.000000,-0.010363,-0.561067 LARM_JOINT3:0.963748,0.000000,-0.176753,-0.199873 LLEG_JOINT2:0.998654,0.030854,0.000000,0.041691 LLEG_JOINT4:0.996267,0.081788,0.000000,-0.027610 RARM_JOINT2:0.801821,0.000000,-0.047448,0.595677 RARM_JOINT3:0.816151,0.000000,0.577833,0.002534 RLEG_JOINT2:0.999227,0.001763,0.000000,-0.039261 RLEG_JOINT4:0.993906,0.106284,0.000000,0.029217 WAIST:0.999667,0.000000,-0.024784,-0.007136 WAIST_JOINT0:0.999263,0.000000,-0.038381,-0.000186 WAIST_JOINT1:0.997690,0.067559,0.000000,-0.007036 END:
KINECT_DATA_Sensor  AnkleLeft:0.072257,0.716165,-0.086199,-0.688808 AnkleRight:0.067593,0.691676,0.085594,0.713925 ElbowLeft:-0.017963,0.922256,-0.182455,-0.340339 ElbowRight:-0.037044,0.667367,0.186250,0.720111 FootLeft:0.000000,0.000000,0.000000,0.000000 FootRight:0.000000,0.000000,0.000000,0.000000 HandLeft:-0.120285,0.580669,-0.002814,0.805200 HandRight:0.155091,-0.382765,-0.563575,0.715417 HandTipLeft:0.000000,0.000000,0.000000,0.000000 HandTipRight:0.000000,0.000000,0.000000,0.000000 Head:0.000000,0.000000,0.000000,0.000000 HipLeft:0.135641,-0.681700,0.695357,-0.182664 HipRight:-0.102264,0.677535,0.710562,-0.159968 KneeLeft:-0.003839,0.724580,-0.046054,-0.687640 KneeRight:-0.030810,0.688999,0.034714,0.723274 Neck:0.038422,-0.014112,0.995645,-0.083758 ShoulderLeft:-0.002548,0.785302,-0.612834,0.087918 ShoulderRight:0.047285,0.782653,0.620067,-0.027106 SpineBase:0.024821,-0.011769,0.998690,-0.043162 SpineMid:0.031438,-0.012054,0.998504,-0.043083 SpineShoulder:0.038304,-0.013130,0.997235,-0.062306 ThumbLeft:0.000000,0.000000,0.000000,0.000000 ThumbRight:0.000000,0.000000,0.000000,0.000000 WristLeft:-0.092320,0.585957,-0.082400,0.800838 WristRight:0.113281,-0.428875,-0.458970,0.769792 END:
KINECT_DATA POSITION:41.271164,1.361782,-10.084486 HEAD_JOINT1:0.979449,0.164207,-0.000000,0.117111 LARM_JOINT2:0.826941,0.000000,-0.009491,-0.562209 LARM_JOINT3:0.964669,0.000000,-0.176101,-0.195964 LLEG_JOINT2:0.998647,0.031276,0.000000,0.041541 LLEG_JOINT4:0.996218,0.082818,0.000000,-0.026278 RARM_JOINT2:0.802453,0.000000,-0.047989,0.594783 RARM_JOINT3:0.816278,0.000000,0.577595,0.008661 RLEG_JOINT2:0.999222,0.002295,0.000000,-0.039361 RLEG_JOINT4:0.993802,0.107018,0.000000,0.030085 WAIST:0.999685,0.000000,-0.024044,-0.007145 WAIST_JOINT0:0.999327,0.000000,-0.036680,-0.000173 WAIST_JOINT1:0.997676,0.067798,0.000000,-0.006774 END:
KINECT_DATA_Sensor  AnkleLeft:0.073446,0.723171,-0.087192,-0.681195 AnkleRight:0.072622,0.722202,0.082889,0.682847 ElbowLeft:-0.017198,0.920749,-0.181805,-0.344779 ElbowRight:-0.036334,0.671316,0.187459,0.716152 FootLeft:0.000000,0.000000,0.000000,0.000000 FootRight:0.000000,0.000000,0.000000,0.000000 HandLeft:-0.106224,0.802078,0.028351,0.587013 HandRight:0.115461,-0.328072,-0.567338,0.746435 HandTipLeft:0.000000,0.000000,0.000000,0.000000 HandTipRight:0.000000,0.000000,0.000000,0.000000 Head:0.000000,0.000000,0.000000,0.000000 HipLeft:0.135011,-0.681777,0.695459,-0.182453 HipRight:-0.102608,0.677422,0.710497,-0.160517 KneeLeft:-0.003395,0.724081,-0.046257,-0.688154 KneeRight:-0.030522,0.689529,0.035141,0.722760 Neck:0.036746,-0.013818,0.995692,-0.084003 ShoulderLeft:-0.001535,0.785243,-0.613048,0.086970 ShoulderRight:0.046151,0.782613,0.620127,-0.028810 SpineBase:0.024091,-0.011618,0.998700,-0.043400 SpineMid:0.030237,-0.011885,0.998533,-0.043327 SpineShoulder:0.036629,-0.012868,0.997286,-0.062549 ThumbLeft:0.000000,0.000000,0.000000,0.000000 ThumbRight:0.000000,0.000000,0.000000,0.000000 WristLeft:-0.112757,0.808205,-0.050210,0.575821 WristRight:0.081471,-0.367975,-0.463553,0.801920 END:
KINECT_DATA POSITION:41.226311,1.353613,-10.024202 HEAD_JOINT1:0.979200,0.167947,-0.000000,0.113850 LARM_JOINT2:0.825290,0.000000,-0.008648,-0.564644 LARM_JOINT3:0.964421,0.000000,-0.177619,-0.195818 LLEG_JOINT2:0.998708,0.030809,0.000000,0.040419 LLEG_JOINT4:0.996250,0.083070,0.000000,-0.024182 RARM_JOINT2:0.804114,0.000000,-0.048428,0.592499 RARM_JOINT3:0.807471,0.000000,0.589176,0.029367 RLEG_JOINT2:0.999208,0.002876,0.000000,-0.039676 RLEG_JOINT4:0.993813,0.106896,0.000000,0.030141 WAIST:0.999745,0.000000,-0.021577,-0.006622 WAIST_JOINT0:0.999436,0.000000,-0.033580,0.000310 WAIST_JOINT1:0.997653,0.068178,0.000000,-0.006274 END:
KINECT_DATA_Sensor  AnkleLeft:0.072926,0.725136,-0.087544,-0.679114 AnkleRight:0.073726,0.730149,0.082503,0.674270 ElbowLeft:-0.015692,0.918585,-0.180539,-0.351229 ElbowRight:-0.035476,0.680412,0.189564,0.706998 FootLeft:0.000000,0.000000,0.000000,0.000000 FootRight:0.000000,0.000000,0.000000,0.000000 HandLeft:-0.122223,0.547832,-0.008542,0.827568 HandRight:0.161062,-0.308149,-0.574898,0.740672 HandTipLeft:0.000000,0.000000,0.000000,0.000000 HandTipRight:0.000000,0.000000,0.000000,0.000000 Head:0.000000,0.000000,0.000000,0.000000 HipLeft:0.133122,-0.681769,0.696092,-0.181452 HipRight:-0.103937,0.677507,0.709869,-0.162075 KneeLeft:-0.003154,0.722352,-0.045533,-0.690017 KneeRight:-0.030025,0.691316,0.035337,0.721063 Neck:0.033595,-0.012811,0.995787,-0.084351 ShoulderLeft:0.000913,0.783668,-0.615364,0.084800 ShoulderRight:0.044610,0.781877,0.621030,-0.031621 SpineBase:0.021615,-0.010911,0.998746,-0.043810 SpineMid:0.027429,-0.011166,0.998604,-0.043745 SpineShoulder:0.033478,-0.011997,0.997384,-0.062935 ThumbLeft:0.000000,0.000000,0.000000,0.000000 ThumbRight:0.000000,0.000000,0.000000,0.000000 WristLeft:-0.085540,0.552959,-0.087246,0.824201 WristRight:0.094882,-0.370597,-0.459529,0.801554 END:
KINECT_DATA POSITION:41.095375,1.325247,-9.950150 HEAD_JOINT1:0.979056,0.173578,-0.000000,0.106392 LARM_JOINT2:0.821723,0.000000,-0.004560,-0.569868 LARM_JOINT3:0.965822,0.000000,-0.176077,-0.190222 LLEG_JOINT2:0.998703,0.031072,0.000000,0.040344 LLEG_JOINT4:0.996378,0.081397,0.000000,-0.024604 RARM_JOINT2:0.805500,0.000000,-0.047642,0.590678 RARM_JOINT3:0.799656,0.000000,0.595155,0.079629 RLEG_JOINT2:0.999202,0.004196,0.000000,-0.039717 RLEG_JOINT4:0.993695,0.107533,0.000000,0.031726 WAIST:0.999841,0.000000,-0.016789,-0.005942 WAIST_JOINT0:0.999692,0.000000,-0.024803,0.000997 WAIST_JOINT1:0.997648,0.068360,0.000000,-0.004936 END:
KINECT_DATA_Sensor  AnkleLeft:0.072062,0.720472,-0.086513,-0.684283 AnkleRight:0.075566,0.727360,0.083106,0.677001 ElbowLeft:-0.012863,0.910728,-0.178091,-0.372415 ElbowRight:-0.030010,0.708925,0.190565,0.678388 FootLeft:0.000000,0.000000,0.000000,0.000000 FootRight:0.000000,0.000000,0.000000,0.000000 HandLeft:-0.102210,0.820983,0.045841,0.559856 HandRight:0.168536,-0.218625,-0.574865,0.770279 HandTipLeft:0.000000,0.000000,0.000000,0.000000 HandTipRight:0.000000,0.000000,0.000000,0.000000 Head:0.000000,0.000000,0.000000,0.000000 HipLeft:0.129900,-0.681914,0.697116,-0.179303 HipRight:-0.106984,0.677430,0.708899,-0.164638 KneeLeft:-0.003153,0.719031,-0.046188,-0.693435 KneeRight:-0.028772,0.694747,0.035681,0.717793 Neck:0.024917,-0.010684,0.996051,-0.084537 ShoulderLeft:0.008045,0.782833,-0.617361,0.077287 ShoulderRight:0.040533,0.781146,0.621881,-0.037839 SpineBase:0.016847,-0.009440,0.998844,-0.044020 SpineMid:0.020728,-0.009611,0.998771,-0.043983 SpineShoulder:0.024804,-0.010099,0.997646,-0.063133 ThumbLeft:0.000000,0.000000,0.000000,0.000000 ThumbRight:0.000000,0.000000,0.000000,0.000000 WristLeft:-0.110597,0.829073,-0.052613,0.545561 WristRight:0.087227,-0.286516,-0.454882,0.838679 END:
KINECT_DATA POSITION:40.535400,1.300974,-9.892570 HEAD_JOINT1:0.981156,0.182062,-0.000000,0.064700 LARM_JOINT2:0.809792,0.000000,0.009936,-0.586633 LARM_JOINT3:0.969344,0.000000,-0.178915,-0.168407 LLEG_JOINT2:0.998623,0.031103,0.000000,0.042256 LLEG_JOINT4:0.996897,0.076228,0.000000,-0.019628 RARM_JOINT2:0.813621,0.000000,-0.021674,0.580992 RARM_JOINT3:0.788531,0.000000,0.598632,0.140921 RLEG_JOINT2:0.999275,0.005791,0.000000,-0.037636 RLEG_JOINT4:0.993295,0.110381,0.000000,0.034370 WAIST:0.999986,0.000000,0.001803,-0.004940 WAIST_JOINT0:0.999802,-0.000000,0.016373,0.011301 WAIST_JOINT1:0.997643,0.068355,-0.000000,0.006016 END:
KINECT_DATA_Sensor  AnkleLeft:0.066077,0.720085,-0.086177,-0.685335 AnkleRight:0.075046,0.690217,0.088861,0.714194 ElbowLeft:-0.004107,0.881788,-0.175505,-0.437757 ElbowRight:-0.044271,0.744574,0.178365,0.641745 FootLeft:0.000000,0.000000,0.000000,0.000000 FootRight:0.000000,0.000000,0.000000,0.000000 HandLeft:-0.076121,0.704877,0.019175,0.704973 HandRight:-0.083600,0.352190,-0.570048,0.737576 HandTipLeft:0.000000,0.000000,0.000000,0.000000 HandTipRight:0.000000,0.000000,0.000000,0.000000 Head:0.000000,0.000000,0.000000,0.000000 HipLeft:0.116316,-0.683198,0.700233,-0.171422 HipRight:-0.120376,0.676225,0.705996,-0.172627 KneeLeft:-0.004234,0.706132,-0.048404,-0.706411 KneeRight:-0.026070,0.707582,0.034152,0.705324 Neck:-0.016695,0.002339,0.996281,-0.084503 ShoulderLeft:0.037565,0.778243,-0.625351,0.043158 ShoulderRight:0.016390,0.787296,0.612547,-0.068432 SpineBase:-0.001357,0.000137,0.999025,-0.044132 SpineMid:-0.009020,0.000475,0.998985,-0.044129 SpineShoulder:-0.016726,0.001903,0.997864,-0.063126 ThumbLeft:0.000000,0.000000,0.000000,0.000000 ThumbRight:0.000000,0.000000,0.000000,0.000000 WristLeft:-0.086459,0.715601,-0.087815,0.687553 WristRight:-0.166959,0.291006,-0.467182,0.818035 END:
KINECT_DATA POSITION:39.790379,1.190388,-9.848475 HEAD_JOINT1:0.981345,0.189149,-0.000000,0.034409 LARM_JOINT2:0.801979,0.000000,0.023047,-0.596908 LARM_JOINT3:0.968077,0.000000,-0.191476,-0.161751 LLEG_JOINT2:0.998707,0.030284,0.000000,0.040841 LLEG_JOINT4:0.997455,0.070574,0.000000,-0.010127 RARM_JOINT2:0.825326,0.000000,0.001892,0.564653 RARM_JOINT3:0.792846,0.000000,0.583492,0.175878 RLEG_JOINT2:0.999222,0.009093,0.000000,-0.038386 RLEG_JOINT4:0.993077,0.110248,0.000000,0.040549 WAIST:0.999641,0.000000,0.026741,-0.001397 WAIST_JOINT0:0.998028,-0.000000,0.059378,0.020342 WAIST_JOINT1:0.997672,0.066549,-0.000000,0.014877 END:
KINECT_DATA_Sensor  AnkleLeft:-0.052295,-0.676328,0.090921,0.729095 AnkleRight:0.085854,0.742070,0.082730,0.659634 ElbowLeft:0.001750,0.850912,-0.178925,-0.493894 ElbowRight:-0.064398,0.780632,0.170448,0.597840 FootLeft:0.000000,0.000000,0.000000,0.000000 FootRight:0.000000,0.000000,0.000000,0.000000 HandLeft:-0.084466,0.752509,0.010776,0.653055 HandRight:0.027968,0.369054,-0.565190,0.737277 HandTipLeft:0.000000,0.000000,0.000000,0.000000 HandTipRight:0.000000,0.000000,0.000000,0.000000 Head:0.000000,0.000000,0.000000,0.000000 HipLeft:0.099754,-0.683802,0.705187,-0.158668 HipRight:-0.138488,0.675923,0.700232,-0.183370 KneeLeft:0.005053,-0.688261,0.049496,0.723756 KneeRight:-0.022609,0.724779,0.033982,0.687771 Neck:-0.059587,0.014753,0.994691,-0.082597 ShoulderLeft:0.063654,0.772615,-0.631616,0.008711 ShoulderRight:-0.012867,0.789640,0.605067,-0.100981 SpineBase:-0.026090,0.010602,0.998682,-0.042903 SpineMid:-0.042645,0.011312,0.998112,-0.042722 SpineShoulder:-0.059513,0.013628,0.996250,-0.061304 ThumbLeft:0.000000,0.000000,0.000000,0.000000 ThumbRight:0.000000,0.000000,0.000000,0.000000 WristLeft:-0.083737,0.761883,-0.099364,0.634546 WristRight:-0.105247,0.274760,-0.492847,0.818860 END:
KINECT_DATA POSITION:39.365093,1.171530,-10.004449 HEAD_JOINT1:0.982623,0.185094,-0.000000,0.013837 LARM_JOINT2:0.795642,0.000000,0.034635,-0.604776 LARM_JOINT3:0.966908,0.000000,-0.198971,-0.159685 LLEG_JOINT2:0.998967,0.026890,0.000000,0.036628 LLEG_JOINT4:0.997987,0.063359,0.000000,-0.002767 RARM_JOINT2:0.838200,0.000000,0.022014,0.544919 RARM_JOINT3:0.799256,0.000000,0.563921,0.207807 RLEG_JOINT2:0.998812,0.010645,0.000000,-0.047542 RLEG_JOINT4:0.992346,0.111844,0.000000,0.052347 WAIST:0.998722,-0.000000,0.050384,0.004079 WAIST_JOINT0:0.995087,-0.000000,0.094357,0.029978 WAIST_JOINT1:0.997466,0.066968,-0.000000,0.024038 END:
KINECT_DATA_Sensor  AnkleLeft:-0.040394,-0.657516,0.088798,0.747099 AnkleRight:0.087401,0.722643,0.085741,0.680292 ElbowLeft:0.009665,0.828620,-0.186823,-0.527630 ElbowRight:-0.078298,0.824114,0.167606,0.535363 FootLeft:0.000000,0.000000,0.000000,0.000000 FootRight:0.000000,0.000000,0.000000,0.000000 HandLeft:-0.076958,0.805581,-0.000365,0.587466 HandRight:0.129355,0.322396,-0.565811,0.747788 HandTipLeft:0.000000,0.000000,0.000000,0.000000 HandTipRight:0.000000,0.000000,0.000000,0.000000 Head:0.000000,0.000000,0.000000,0.000000 HipLeft:0.082387,-0.681637,0.712226,-0.146003 HipRight:-0.154296,0.675831,0.694325,-0.193283 KneeLeft:0.007418,-0.670885,0.048097,0.739963 KneeRight:-0.025277,0.740612,0.036878,0.670444 Neck:-0.094679,0.029390,0.991576,-0.083357 ShoulderLeft:0.087780,0.763955,-0.638971,-0.019578 ShoulderRight:-0.034312,0.790753,0.597768,-0.127302 SpineBase:-0.049657,0.021549,0.997609,-0.042973 SpineMid:-0.071841,0.022499,0.996257,-0.042483 SpineShoulder:-0.094485,0.027138,0.993246,-0.061632 ThumbLeft:0.000000,0.000000,0.000000,0.000000 ThumbRight:0.000000,0.000000,0.000000,0.000000 WristLeft:-0.081725,0.809827,-0.102812,0.571779 WristRight:-0.011645,0.233495,-0.483959,0.843284 END:
KINECT_DATA POSITION:39.020679,1.215736,-10.219145 HEAD_JOINT1:0.983950,0.178371,0.000000,-0.005026 LARM_JOINT2:0.792029,0.000000,0.047433,-0.608638 LARM_JOINT3:0.966422,0.000000,-0.202887,-0.157687 LLEG_JOINT2:0.999151,0.024791,0.000000,0.032908 LLEG_JOINT4:0.998427,0.055811,0.000000,0.005307 RARM_JOINT2:0.846304,0.000000,0.051348,0.530220 RARM_JOINT3:0.806984,0.000000,0.541269,0.236231 RLEG_JOINT2:0.998486,0.011474,0.000000,-0.053792 RLEG_JOINT4:0.992158,0.111412,0.000000,0.056654 WAIST:0.997341,-0.000000,0.072323,0.008909 WAIST_JOINT0:0.990966,-0.000000,0.128592,0.038072 WAIST_JOINT1:0.997299,0.066923,-0.000000,0.030260 END:
KINECT_DATA_Sensor  AnkleLeft:-0.028403,-0.638648,0.088204,0.763899 AnkleRight:0.092706,0.776263,0.080276,0.618366 ElbowLeft:0.017491,0.806739,-0.195577,-0.557329 ElbowRight:-0.093597,0.870645,0.158749,0.456087 FootLeft:0.000000,0.000000,0.000000,0.000000 FootRight:0.000000,0.000000,0.000000,0.000000 HandLeft:-0.069156,0.774486,-0.019907,0.628484 HandRight:0.289755,0.153448,-0.514047,0.792623 HandTipLeft:0.000000,0.000000,0.000000,0.000000 HandTipRight:0.000000,0.000000,0.000000,0.000000 Head:0.000000,0.000000,0.000000,0.000000 HipLeft:0.067463,-0.679826,0.717516,-0.135851 HipRight:-0.170248,0.675374,0.687795,-0.204509 KneeLeft:0.008987,-0.654468,0.047416,0.754548 KneeRight:-0.026928,0.754996,0.037546,0.654100 Neck:-0.129151,0.040075,0.987306,-0.083318 ShoulderLeft:0.112164,0.754561,-0.644764,-0.048334 ShoulderRight:-0.054600,0.790373,0.590971,-0.151929 SpineBase:-0.071510,0.031048,0.996006,-0.043535 SpineMid:-0.099827,0.032275,0.993567,-0.042634 SpineShoulder:-0.128850,0.037426,0.989043,-0.061579 ThumbLeft:0.000000,0.000000,0.000000,0.000000 ThumbRight:0.000000,0.000000,0.000000,0.000000 WristLeft:-0.060402,0.779308,-0.114569,0.613111 WristRight:0.151852,0.084025,-0.448430,0.876807 END:
KINECT_DATA POSITION:38.599865,1.302580,-10.459650 HEAD_JOINT1:0.984450,0.174354,0.000000,-0.021413 LARM_JOINT2:0.787112,0.000000,0.054110,-0.614432 LARM_JOINT3:0.964781,0.000000,-0.213719,-0.153369 LLEG_JOINT2:0.999199,0.021377,0.000000,0.033837 LLEG_JOINT4:0.998509,0.054288,0.000000,0.005646 RARM_JOINT2:0.849582,0.000000,0.082058,0.521035 RARM_JOINT3:0.810586,0.000000,0.526839,0.255718 RLEG_JOINT2:0.998369,0.011154,0.000000,-0.055986 RLEG_JOINT4:0.991764,0.112436,0.000000,0.061335 WAIST:0.995691,-0.000000,0.091990,0.011689 WAIST_JOINT0:0.987144,-0.000000,0.154433,0.041188 WAIST_JOINT1:0.997295,0.065363,-0.000000,0.033625 END:
KINECT_DATA_Sensor  AnkleLeft:0.033961,0.713899,-0.083660,-0.694403 AnkleRight:0.089145,0.741970,0.085520,0.658953 ElbowLeft:0.020073,0.780154,-0.195437,-0.593937 ElbowRight:-0.113303,0.899137,0.144969,0.397114 FootLeft:0.000000,0.000000,0.000000,0.000000 FootRight:0.000000,0.000000,0.000000,0.000000 HandLeft:-0.075755,0.771038,-0.028410,0.631628 HandRight:0.301426,0.231416,-0.535377,0.754295 HandTipLeft:0.000000,0.000000,0.000000,0.000000 HandTipRight:0.000000,0.000000,0.000000,0.000000 Head:0.000000,0.000000,0.000000,0.000000 HipLeft:0.057247,-0.679706,0.719971,-0.127919 HipRight:-0.186456,0.673782,0.681429,-0.216580 KneeLeft:0.013348,-0.639517,0.047969,0.767163 KneeRight:-0.027723,0.767656,0.036070,0.639246 Neck:-0.154938,0.045495,0.983474,-0.081876 ShoulderLeft:0.130435,0.748147,-0.646638,-0.071565 ShoulderRight:-0.069703,0.788338,0.587526,-0.168751 SpineBase:-0.091106,0.036577,0.994228,-0.043273 SpineMid:-0.122417,0.037923,0.990860,-0.042097 SpineShoulder:-0.154601,0.042629,0.985212,-0.060322 ThumbLeft:0.000000,0.000000,0.000000,0.000000 ThumbRight:0.000000,0.000000,0.000000,0.000000 WristLeft:-0.056262,0.777489,-0.127822,0.613194 WristRight:0.158769,0.167269,-0.439319,0.868224 END:
KINECT_DATA POSITION:37.989456,1.403839,-10.683811 HEAD_JOINT1:0.985168,0.169366,0.000000,-0.027551 LARM_JOINT2:0.784166,0.000000,0.053992,-0.618198 LARM_JOINT3:0.963688,0.000000,-0.215309,-0.157950 LLEG_JOINT2:0.999204,0.014285,0.000000,0.037260 LLEG_JOINT4:0.998443,0.055643,0.000000,0.003899 RARM_JOINT2:0.880455,0.000000,0.101886,0.463053 RARM_JOINT3:0.740694,0.000000,0.564834,0.363779 RLEG_JOINT2:0.998413,0.011991,0.000000,-0.055020 RLEG_JOINT4:0.991157,0.114730,0.000000,0.066666 WAIST:0.993621,-0.000000,0.111916,0.013829 WAIST_JOINT0:0.983906,-0.000000,0.173324,0.043439 WAIST_JOINT1:0.997440,0.062363,-0.000000,0.034980 END:
KINECT_DATA_Sensor  AnkleLeft:0.030195,0.715259,-0.082175,-0.693354 AnkleRight:0.092321,0.728762,0.088071,0.672775 ElbowLeft:0.021070,0.767470,-0.192270,-0.611210 ElbowRight:-0.153456,0.928644,0.189968,0.279256 FootLeft:0.000000,0.000000,0.000000,0.000000 FootRight:0.000000,0.000000,0.000000,0.000000 HandLeft:-0.101499,0.773022,-0.029641,0.625505 HandRight:0.309833,0.309269,-0.547770,0.712955 HandTipLeft:0.000000,0.000000,0.000000,0.000000 HandTipRight:0.000000,0.000000,0.000000,0.000000 Head:0.000000,0.000000,0.000000,0.000000 HipLeft:0.048096,-0.680178,0.721916,-0.117819 HipRight:-0.202189,0.671679,0.675316,-0.227848 KneeLeft:0.021735,-0.624084,0.047850,0.779588 KneeRight:-0.025806,0.780496,0.033886,0.623708 Neck:-0.173942,0.047846,0.980390,-0.079307 ShoulderLeft:0.139138,0.744410,-0.647336,-0.086311 ShoulderRight:-0.085541,0.787445,0.582265,-0.183250 SpineBase:-0.111066,0.039372,0.992165,-0.041513 SpineMid:-0.141865,0.040644,0.988231,-0.040268 SpineShoulder:-0.173603,0.044841,0.982085,-0.057969 ThumbLeft:0.000000,0.000000,0.000000,0.000000 ThumbRight:0.000000,0.000000,0.000000,0.000000 WristLeft:-0.054039,0.785142,-0.131199,0.602843 WristRight:0.247065,0.308129,-0.479672,0.783537 END:
KINECT_DATA POSITION:37.480598,1.451103,-10.927713 HEAD_JOINT1:0.985405,0.164618,0.000000,-0.043326 LARM_JOINT2:0.779177,0.000000,0.059926,-0.623933 LARM_JOINT3:0.965091,0.000000,-0.220612,-0.141171 LLEG_JOINT2:0.999091,0.005760,0.000000,0.042247 LLEG_JOINT4:0.998193,0.059920,0.000000,0.004427 RARM_JOINT2:0.843729,0.000000,0.153778,0.514270 RARM_JOINT3:0.824374,0.000000,0.486515,0.289327 RLEG_JOINT2:0.998607,0.012318,0.000000,-0.051310 RLEG_JOINT4:0.990998,0.112857,0.000000,0.072013 WAIST:0.990874,-0.000000,0.134142,0.013217 WAIST_JOINT0:0.979289,-0.000000,0.196653,0.048179 WAIST_JOINT1:0.997334,0.060738,-0.000000,0.040451 END:
KINECT_DATA_Sensor  AnkleLeft:0.026901,0.709133,-0.083097,-0.699644 AnkleRight:0.104425,0.806849,0.073758,0.576758 ElbowLeft:0.025241,0.740630,-0.190515,-0.643843 ElbowRight:-0.153243,0.945164,0.101237,0.270059 FootLeft:0.000000,0.000000,0.000000,0.000000 FootRight:0.000000,0.000000,0.000000,0.000000 HandLeft:-0.063635,0.816605,-0.051046,0.571403 HandRight:0.515895,0.021305,-0.325017,0.792314 HandTipLeft:0.000000,0.000000,0.000000,0.000000 HandTipRight:0.000000,0.000000,0.000000,0.000000 Head:0.000000,0.000000,0.000000,0.000000 HipLeft:0.034866,-0.682626,0.722196,-0.106019 HipRight:-0.216181,0.667808,0.671080,-0.238641 KneeLeft:0.030230,-0.606824,0.046512,0.792898 KneeRight:-0.024062,0.794239,0.031520,0.606310 Neck:-0.197241,0.051884,0.975809,-0.078746 ShoulderLeft:0.154873,0.738567,-0.647553,-0.105868 ShoulderRight:-0.099627,0.786676,0.575502,-0.200030 SpineBase:-0.133041,0.042260,0.989348,-0.041287 SpineMid:-0.164503,0.043554,0.984606,-0.039919 SpineShoulder:-0.196929,0.048316,0.977542,-0.057405 ThumbLeft:0.000000,0.000000,0.000000,0.000000 ThumbRight:0.000000,0.000000,0.000000,0.000000 WristLeft:-0.055502,0.817097,-0.137777,0.557036 WristRight:0.366131,-0.036129,-0.322515,0.872139 END:
KINECT_DATA POSITION:37.294994,1.415206,-11.041999 HEAD_JOINT1:0.985357,0.162344,0.000000,-0.052117 LARM_JOINT2:0.776892,0.000000,0.069912,-0.625741 LARM_JOINT3:0.963337,0.000000,-0.229737,-0.138573 LLEG_JOINT2:0.998997,0.001977,0.000000,0.044723 LLEG_JOINT4:0.998127,0.061054,0.000000,0.003786 RARM_JOINT2:0.839739,0.000000,0.163031,0.517937 RARM_JOINT3:0.826756,0.000000,0.478321,0.296115 RLEG_JOINT2:0.998652,0.012992,0.000000,-0.050246 RLEG_JOINT4:0.990861,0.112047,0.000000,0.075104 WAIST:0.988785,-0.000000,0.148788,0.012888 WAIST_JOINT0:0.974781,-0.000000,0.217041,0.051909 WAIST_JOINT1:0.997228,0.059759,-0.000000,0.044321 END:
KINECT_DATA_Sensor  AnkleLeft:-0.024963,-0.698621,0.082674,0.710261 AnkleRight:0.095902,0.735930,0.085740,0.664724 ElbowLeft:0.030827,0.718984,-0.193317,-0.666888 ElbowRight:-0.154249,0.954856,0.088881,0.237820 FootLeft:0.000000,0.000000,0.000000,0.000000 FootRight:0.000000,0.000000,0.000000,0.000000 HandLeft:-0.066246,0.826945,-0.065799,0.554476 HandRight:0.528401,0.057760,-0.332070,0.779221 HandTipLeft:0.000000,0.000000,0.000000,0.000000 HandTipRight:0.000000,0.000000,0.000000,0.000000 Head:0.000000,0.000000,0.000000,0.000000 HipLeft:0.026190,-0.683570,0.722742,-0.098439 HipRight:-0.225321,0.664901,0.668480,-0.245502 KneeLeft:0.033947,-0.595232,0.046350,0.801497 KneeRight:-0.023640,0.803101,0.031163,0.594558 Neck:-0.217303,0.055276,0.971382,-0.078364 ShoulderLeft:0.168012,0.734440,-0.645970,-0.122850 ShoulderRight:-0.112174,0.784860,0.570392,-0.214626 SpineBase:-0.147510,0.044430,0.987199,-0.041294 SpineMid:-0.181744,0.045839,0.981473,-0.039724 SpineShoulder:-0.217017,0.051234,0.973155,-0.056998 ThumbLeft:0.000000,0.000000,0.000000,0.000000 ThumbRight:0.000000,0.000000,0.000000,0.000000 WristLeft:-0.050339,0.827330,-0.143532,0.540731 WristRight:0.372919,0.004873,-0.313331,0.873345 END:
KINECT_DATA POSITION:37.226963,1.418755,-11.101890 HEAD_JOINT1:0.985486,0.159782,0.000000,-0.057337 LARM_JOINT2:0.775914,0.000000,0.072691,-0.626636 LARM_JOINT3:0.963234,0.000000,-0.229506,-0.139667 LLEG_JOINT2:0.999077,-0.000157,0.000000,0.042947 LLEG_JOINT4:0.998268,0.058576,0.000000,0.005452 RARM_JOINT2:0.870902,0.000000,0.078607,0.485130 RARM_JOINT3:0.722723,0.000000,0.560563,0.404278 RLEG_JOINT2:0.998608,0.012266,0.000000,-0.051302 RLEG_JOINT4:0.990814,0.111558,0.000000,0.076434 WAIST:0.987559,-0.000000,0.156647,0.013755 WAIST_JOINT0:0.972316,-0.000000,0.227304,0.054162 WAIST_JOINT1:0.997166,0.059630,-0.000000,0.045883 END:
KINECT_DATA_Sensor  AnkleLeft:0.022256,0.704385,-0.080540,-0.704882 AnkleRight:0.105632,0.820610,0.071577,0.557061 ElbowLeft:0.033792,0.713885,-0.194526,-0.671852 ElbowRight:-0.128655,0.946883,0.168068,0.242104 FootLeft:0.000000,0.000000,0.000000,0.000000 FootRight:0.000000,0.000000,0.000000,0.000000 HandLeft:-0.064208,0.861023,-0.061718,0.500707 HandRight:0.424886,0.249939,-0.454801,0.741727 HandTipLeft:0.000000,0.000000,0.000000,0.000000 HandTipRight:0.000000,0.000000,0.000000,0.000000 Head:0.000000,0.000000,0.000000,0.000000 HipLeft:0.021767,-0.683131,0.723760,-0.095020 HipRight:-0.230339,0.663695,0.666399,-0.249731 KneeLeft:0.034944,-0.589002,0.044478,0.806150 KneeRight:-0.024632,0.807716,0.030319,0.588276 Neck:-0.227477,0.057609,0.968897,-0.078577 ShoulderLeft:0.174095,0.731749,-0.645924,-0.130446 ShoulderRight:-0.119419,0.783337,0.567893,-0.222755 SpineBase:-0.155334,0.045872,0.985919,-0.041610 SpineMid:-0.190737,0.047340,0.979686,-0.039931 SpineShoulder:-0.227204,0.053232,0.970714,-0.057094 ThumbLeft:0.000000,0.000000,0.000000,0.000000 ThumbRight:0.000000,0.000000,0.000000,0.000000 WristLeft:-0.056554,0.859398,-0.140495,0.488362 WristRight:0.375193,0.236315,-0.442840,0.779280 END:
KINECT_DATA POSITION:37.139000,1.424925,-11.153614 HEAD_JOINT1:0.985590,0.158396,0.000000,-0.059352 LARM_JOINT2:0.776576,0.000000,0.070283,-0.626091 LARM_JOINT3:0.961270,0.000000,-0.235183,-0.143698 LLEG_JOINT2:0.999075,-0.002053,0.000000,0.042963 LLEG_JOINT4:0.998178,0.059165,0.000000,0.011833 RARM_JOINT2:0.871921,0.000000,0.081131,0.482879 RARM_JOINT3:0.725186,0.000000,0.560398,0.400075 RLEG_JOINT2:0.998563,0.011652,0.000000,-0.052301 RLEG_JOINT4:0.990174,0.112866,0.000000,0.082569 WAIST:0.986505,-0.000000,0.163154,0.013743 WAIST_JOINT0:0.971030,-0.000000,0.232398,0.055597 WAIST_JOINT1:0.997143,0.059488,-0.000000,0.046549 END:
KINECT_DATA_Sensor  AnkleLeft:-0.004690,-0.575958,0.087364,0.812784 AnkleRight:0.109390,0.822338,0.069919,0.553991 ElbowLeft:0.033700,0.713614,-0.194740,-0.672083 ElbowRight:-0.132555,0.948442,0.167178,0.234391 FootLeft:0.000000,0.000000,0.000000,0.000000 FootRight:0.000000,0.000000,0.000000,0.000000 HandLeft:-0.090941,0.851146,-0.081798,0.510480 HandRight:0.413287,0.263032,-0.461648,0.739520 HandTipLeft:0.000000,0.000000,0.000000,0.000000 HandTipRight:0.000000,0.000000,0.000000,0.000000 Head:0.000000,0.000000,0.000000,0.000000 HipLeft:0.018807,-0.683408,0.723874,-0.092765 HipRight:-0.235044,0.662061,0.664761,-0.254011 KneeLeft:0.036255,-0.583796,0.043553,0.809920 KneeRight:-0.026078,0.811471,0.030177,0.583030 Neck:-0.232662,0.057777,0.967638,-0.078785 ShoulderLeft:0.177560,0.729846,-0.646442,-0.133825 ShoulderRight:-0.122805,0.782375,0.566761,-0.227136 SpineBase:-0.161787,0.046259,0.984849,-0.041926 SpineMid:-0.196565,0.047715,0.978501,-0.040261 SpineShoulder:-0.232401,0.053401,0.969457,-0.057363 ThumbLeft:0.000000,0.000000,0.000000,0.000000 ThumbRight:0.000000,0.000000,0.000000,0.000000 WristLeft:-0.053953,0.854291,-0.140966,0.497398 WristRight:0.369553,0.254755,-0.445313,0.774743 END:
KINECT_DATA POSITION:37.113125,1.424200,-11.156046 HEAD_JOINT1:0.985565,0.158329,0.000000,-0.059949 LARM_JOINT2:0.776414,0.000000,0.068914,-0.626444 LARM_JOINT3:0.960870,0.000000,-0.238420,-0.141013 LLEG_JOINT2:0.999066,-0.002502,0.000000,0.043142 LLEG_JOINT4:0.998050,0.061472,0.000000,0.010789 RARM_JOINT2:0.875521,0.000000,0.072626,0.477691 RARM_JOINT3:0.719109,0.000000,0.560266,0.411077 RLEG_JOINT2:0.998579,0.011865,0.000000,-0.051956 RLEG_JOINT4:0.990220,0.112695,0.000000,0.082246 WAIST:0.986234,-0.000000,0.164791,0.013645 WAIST_JOINT0:0.970611,-0.000000,0.234151,0.055558 WAIST_JOINT1:0.997126,0.059539,-0.000000,0.046849 END:
KINECT_DATA_Sensor  AnkleLeft:0.022557,0.711497,-0.084971,-0.697168 AnkleRight:0.109218,0.823163,0.070198,0.552762 ElbowLeft:0.033280,0.713227,-0.194171,-0.672679 ElbowRight:-0.130784,0.947341,0.176508,0.232991 FootLeft:0.000000,0.000000,0.000000,0.000000 FootRight:0.000000,0.000000,0.000000,0.000000 HandLeft:-0.088543,0.832912,-0.102430,0.536588 HandRight:0.468658,0.168922,-0.395753,0.771495 HandTipLeft:0.000000,0.000000,0.000000,0.000000 HandTipRight:0.000000,0.000000,0.000000,0.000000 Head:0.000000,0.000000,0.000000,0.000000 HipLeft:0.018373,-0.683452,0.723864,-0.092613 HipRight:-0.236667,0.661391,0.664294,-0.255469 KneeLeft:0.036597,-0.582488,0.043415,0.810854 KneeRight:-0.025808,0.812445,0.030161,0.581685 Neck:-0.234411,0.057876,0.967193,-0.078986 ShoulderLeft:0.177698,0.729881,-0.646278,-0.134247 ShoulderRight:-0.125062,0.781772,0.566215,-0.229331 SpineBase:-0.163400,0.046321,0.984573,-0.042075 SpineMid:-0.198246,0.047785,0.978153,-0.040404 SpineShoulder:-0.234152,0.053501,0.969023,-0.057489 ThumbLeft:0.000000,0.000000,0.000000,0.000000 ThumbRight:0.000000,0.000000,0.000000,0.000000 WristLeft:-0.049341,0.836520,-0.143118,0.526609 WristRight:0.425471,0.154425,-0.392467,0.800685 END:
KINECT_DATA POSITION:37.103855,1.414410,-11.130142 HEAD_JOINT1:0.985479,0.158299,0.000000,-0.061412 LARM_JOINT2:0.776656,0.000000,0.068019,-0.626242 LARM_JOINT3:0.960235,0.000000,-0.239403,-0.143649 LLEG_JOINT2:0.999066,-0.002705,0.000000,0.043130 LLEG_JOINT4:0.998033,0.061796,0.000000,0.010582 RARM_JOINT2:0.872754,0.000000,0.070046,0.483108 RARM_JOINT3:0.719378,0.000000,0.563049,0.406782 RLEG_JOINT2:0.998553,0.011722,0.000000,-0.052491 RLEG_JOINT4:0.990184,0.113939,0.000000,0.080948 WAIST:0.985906,-0.000000,0.166700,0.014135 WAIST_JOINT0:0.970494,-0.000000,0.234690,0.055336 WAIST_JOINT1:0.997086,0.060258,-0.000000,0.046777 END:
KINECT_DATA_Sensor  AnkleLeft:0.022358,0.707912,-0.085236,-0.700782 AnkleRight:0.097656,0.740403,0.086292,0.659410 ElbowLeft:0.033566,0.712891,-0.194729,-0.672859 ElbowRight:-0.125676,0.948193,0.172579,0.235270 FootLeft:0.000000,0.000000,0.000000,0.000000 FootRight:0.000000,0.000000,0.000000,0.000000 HandLeft:-0.093857,0.810671,-0.104532,0.568398 HandRight:0.365599,0.335150,-0.498081,0.711285 HandTipLeft:0.000000,0.000000,0.000000,0.000000 HandTipRight:0.000000,0.000000,0.000000,0.000000 Head:0.000000,0.000000,0.000000,0.000000 HipLeft:0.017640,-0.683218,0.724095,-0.092676 HipRight:-0.238355,0.660991,0.663298,-0.257515 KneeLeft:0.037034,-0.580929,0.043690,0.811937 KneeRight:-0.026059,0.813542,0.029937,0.580150 Neck:-0.234914,0.057932,0.966997,-0.079845 ShoulderLeft:0.177702,0.730542,-0.645655,-0.133641 ShoulderRight:-0.125733,0.781525,0.565802,-0.230820 SpineBase:-0.165313,0.046559,0.984221,-0.042570 SpineMid:-0.199453,0.048012,0.977875,-0.040925 SpineShoulder:-0.234652,0.053656,0.968844,-0.058312 ThumbLeft:0.000000,0.000000,0.000000,0.000000 ThumbRight:0.000000,0.000000,0.000000,0.000000 WristLeft:-0.043497,0.816343,-0.144918,0.557397 WristRight:0.327379,0.330009,-0.480274,0.743810 END:
KINECT_DATA POSITION:37.079330,1.403739,-11.106098 HEAD_JOINT1:0.985493,0.157925,0.000000,-0.062149 LARM_JOINT2:0.777153,0.000000,0.068034,-0.625623 LARM_JOINT3:0.960529,0.000000,-0.238724,-0.142812 LLEG_JOINT2:0.999056,-0.003132,0.000000,0.043322 LLEG_JOINT4:0.998202,0.059153,0.000000,0.009648 RARM_JOINT2:0.872761,0.000000,0.066669,0.483574 RARM_JOINT3:0.718142,0.000000,0.562364,0.409900 RLEG_JOINT2:0.998584,0.012535,0.000000,-0.051696 RLEG_JOINT4:0.990058,0.114017,0.000000,0.082369 WAIST:0.985734,-0.000000,0.167732,0.013977 WAIST_JOINT0:0.970548,-0.000000,0.234553,0.054968 WAIST_JOINT1:0.997080,0.060344,-0.000000,0.046792 END:
KINECT_DATA_Sensor  AnkleLeft:0.020121,0.707940,-0.083091,-0.701080 AnkleRight:0.097970,0.727000,0.088237,0.673860 ElbowLeft:0.033775,0.712618,-0.195310,-0.672970 ElbowRight:-0.123439,0.948254,0.174164,0.235039 FootLeft:0.000000,0.000000,0.000000,0.000000 FootRight:0.000000,0.000000,0.000000,0.000000 HandLeft:-0.090547,0.835200,-0.100598,0.533031 HandRight:0.392421,0.297971,-0.474934,0.729148 HandTipLeft:0.000000,0.000000,0.000000,0.000000 HandTipRight:0.000000,0.000000,0.000000,0.000000 Head:0.000000,0.000000,0.000000,0.000000 HipLeft:0.017350,-0.683439,0.723907,-0.092566 HipRight:-0.239337,0.660533,0.662977,-0.258602 KneeLeft:0.037346,-0.580104,0.043518,0.812521 KneeRight:-0.025092,0.814219,0.030218,0.579228 Neck:-0.234732,0.057615,0.967044,-0.080044 ShoulderLeft:0.177316,0.731198,-0.645114,-0.133177 ShoulderRight:-0.125838,0.781479,0.565724,-0.231110 SpineBase:-0.166331,0.046377,0.984052,-0.042719 SpineMid:-0.199879,0.047810,0.977790,-0.041108 SpineShoulder:-0.234475,0.053366,0.968891,-0.058521 ThumbLeft:0.000000,0.000000,0.000000,0.000000 ThumbRight:0.000000,0.000000,0.000000,0.000000 WristLeft:-0.049537,0.839053,-0.143284,0.522500 WristRight:0.353147,0.290142,-0.461415,0.760395 END:
KINECT_DATA POSITION:37.059666,1.389905,-11.100459 HEAD_JOINT1:0.985392,0.158101,0.000000,-0.063302 LARM_JOINT2:0.776910,0.000000,0.066919,-0.626045 LARM_JOINT3:0.961804,0.000000,-0.230386,-0.147832 LLEG_JOINT2:0.999058,-0.003291,0.000000,0.043266 LLEG_JOINT4:0.998248,0.057840,0.000000,0.012492 RARM_JOINT2:0.840741,0.000000,0.152732,0.519450 RARM_JOINT3:0.819023,0.000000,0.481082,0.312668 RLEG_JOINT2:0.998608,0.012508,0.000000,-0.051241 RLEG_JOINT4:0.990014,0.115020,0.000000,0.081502 WAIST:0.985567,-0.000000,0.168730,0.013712 WAIST_JOINT0:0.970387,-0.000000,0.235252,0.054819 WAIST_JOINT1:0.997084,0.060152,-0.000000,0.046961 END:
KINECT_DATA_Sensor  AnkleLeft:-0.002804,-0.574243,0.086555,0.814092 AnkleRight:0.099079,0.737509,0.088082,0.662198 ElbowLeft:0.034016,0.714893,-0.194278,-0.670840 ElbowRight:-0.146920,0.961843,0.089897,0.212581 FootLeft:0.000000,0.000000,0.000000,0.000000 FootRight:0.000000,0.000000,0.000000,0.000000 HandLeft:-0.089323,0.852298,-0.064608,0.511308 HandRight:0.431787,0.267150,-0.440927,0.740117 HandTipLeft:0.000000,0.000000,0.000000,0.000000 HandTipRight:0.000000,0.000000,0.000000,0.000000 Head:0.000000,0.000000,0.000000,0.000000 HipLeft:0.017024,-0.683625,0.723776,-0.092280 HipRight:-0.240212,0.660022,0.662864,-0.259384 KneeLeft:0.037222,-0.579311,0.043222,0.813108 KneeRight:-0.024963,0.814798,0.030085,0.578425 Neck:-0.235403,0.057424,0.966907,-0.079870 ShoulderLeft:0.177935,0.731135,-0.644848,-0.133980 ShoulderRight:-0.126042,0.781308,0.565797,-0.231399 SpineBase:-0.167308,0.046232,0.983891,-0.042764 SpineMid:-0.200710,0.047661,0.977624,-0.041165 SpineShoulder:-0.235148,0.053215,0.968740,-0.058448 ThumbLeft:0.000000,0.000000,0.000000,0.000000 ThumbRight:0.000000,0.000000,0.000000,0.000000 WristLeft:-0.054930,0.855465,-0.139860,0.495583 WristRight:0.313840,0.239638,-0.389620,0.832030 END:
KINECT_DATA POSITION:36.971115,1.363701,-11.108923 HEAD_JOINT1:0.985147,0.158803,0.000000,-0.065324 LARM_JOINT2:0.776005,0.000000,0.067204,-0.627137 LARM_JOINT3:0.961826,0.000000,-0.229420,-0.149187 LLEG_JOINT2:0.999036,-0.003884,0.000000,0.043717 LLEG_JOINT4:0.998117,0.059731,0.000000,0.013959 RARM_JOINT2:0.840261,0.000000,0.152615,0.520260 RARM_JOINT3:0.819635,0.000000,0.479084,0.314129 RLEG_JOINT2:0.998571,0.013282,0.000000,-0.051769 RLEG_JOINT4:0.989362,0.115867,0.000000,0.087966 WAIST:0.985433,-0.000000,0.169567,0.012980 WAIST_JOINT0:0.970013,-0.000000,0.236698,0.055221 WAIST_JOINT1:0.997063,0.060202,-0.000000,0.047333 END:
KINECT_DATA_Sensor  AnkleLeft:0.020219,0.718902,-0.086054,-0.689467 AnkleRight:0.100122,0.704951,0.092037,0.696096 ElbowLeft:0.036230,0.718144,-0.192572,-0.667736 ElbowRight:-0.145989,0.963041,0.090148,0.207635 FootLeft:0.000000,0.000000,0.000000,0.000000 FootRight:0.000000,0.000000,0.000000,0.000000 HandLeft:-0.093976,0.845452,-0.070224,0.521006 HandRight:0.435346,0.248204,-0.430783,0.750530 HandTipLeft:0.000000,0.000000,0.000000,0.000000 HandTipRight:0.000000,0.000000,0.000000,0.000000 Head:0.000000,0.000000,0.000000,0.000000 HipLeft:0.017305,-0.684069,0.723285,-0.092786 HipRight:-0.241319,0.659048,0.662943,-0.260628 KneeLeft:0.037420,-0.578685,0.042757,0.813570 KneeRight:-0.025498,0.815289,0.031510,0.577634 Neck:-0.236892,0.057162,0.966552,-0.079951 ShoulderLeft:0.180159,0.730051,-0.645109,-0.135658 ShoulderRight:-0.125748,0.780986,0.566077,-0.231959 SpineBase:-0.168096,0.045690,0.983771,-0.043013 SpineMid:-0.201871,0.047144,0.977400,-0.041414 SpineShoulder:-0.236664,0.052810,0.968384,-0.058597 ThumbLeft:0.000000,0.000000,0.000000,0.000000 ThumbRight:0.000000,0.000000,0.000000,0.000000 WristLeft:-0.053086,0.849762,-0.135863,0.506584 WristRight:0.323481,0.224731,-0.379098,0.837341 END:
KINECT_DATA POSITION:36.923798,1.349493,-11.098850 HEAD_JOINT1:0.984995,0.159161,0.000000,-0.066721 LARM_JOINT2:0.775523,0.000000,0.066521,-0.627804 LARM_JOINT3:0.960613,0.000000,-0.234499,-0.149105 LLEG_JOINT2:0.999018,-0.005232,0.000000,0.044002 LLEG_JOINT4:0.998102,0.060428,0.000000,0.011856 RARM_JOINT2:0.840208,0.000000,0.151773,0.520591 RARM_JOINT3:0.821554,0.000000,0.481225,0.305730 RLEG_JOINT2:0.998632,0.014458,0.000000,-0.050244 RLEG_JOINT4:0.990318,0.110505,0.000000,0.084016 WAIST:0.985318,-0.000000,0.170276,0.012404 WAIST_JOINT0:0.969974,-0.000000,0.236929,0.054902 WAIST_JOINT1:0.997042,0.060275,-0.000000,0.047697 END:
KINECT_DATA_Sensor  AnkleLeft:0.022019,0.729029,-0.083307,-0.679037 AnkleRight:0.097184,0.718952,0.087976,0.682586 ElbowLeft:0.036788,0.719293,-0.191431,-0.666797 ElbowRight:-0.145549,0.962712,0.090216,0.209434 FootLeft:0.000000,0.000000,0.000000,0.000000 FootRight:0.000000,0.000000,0.000000,0.000000 HandLeft:-0.108327,0.840355,-0.090557,0.523324 HandRight:0.428078,0.231792,-0.438421,0.755519 HandTipLeft:0.000000,0.000000,0.000000,0.000000 HandTipRight:0.000000,0.000000,0.000000,0.000000 Head:0.000000,0.000000,0.000000,0.000000 HipLeft:0.017093,-0.684524,0.722872,-0.092684 HipRight:-0.241842,0.658466,0.663086,-0.261251 KneeLeft:0.038255,-0.578183,0.041832,0.813935 KneeRight:-0.024008,0.815794,0.031979,0.576958 Neck:-0.237103,0.056886,0.966494,-0.080219 ShoulderLeft:0.180691,0.730020,-0.644946,-0.135890 ShoulderRight:-0.125532,0.780610,0.566609,-0.232043 SpineBase:-0.168764,0.045344,0.983667,-0.043148 SpineMid:-0.202325,0.046794,0.977316,-0.041571 SpineShoulder:-0.236884,0.052511,0.968336,-0.058779 ThumbLeft:0.000000,0.000000,0.000000,0.000000 ThumbRight:0.000000,0.000000,0.000000,0.000000 WristLeft:-0.052890,0.847001,-0.134641,0.511530 WristRight:0.324909,0.215706,-0.376060,0.840526 END:
KINECT_DATA POSITION:36.916931,1.341747,-11.086679 HEAD_JOINT1:0.985047,0.158815,0.000000,-0.066782 LARM_JOINT2:0.775756,0.000000,0.066413,-0.627528 LARM_JOINT3:0.960069,0.000000,-0.237233,-0.148282 LLEG_JOINT2:0.998988,-0.006874,0.000000,0.044441 LLEG_JOINT4:0.997811,0.064610,0.000000,0.014069 RARM_JOINT2:0.840393,0.000000,0.150735,0.520594 RARM_JOINT3:0.820177,0.000000,0.484159,0.304795 RLEG_JOINT2:0.998596,0.013495,0.000000,-0.051227 RLEG_JOINT4:0.990009,0.111601,0.000000,0.086183 WAIST:0.985275,-0.000000,0.170520,0.012505 WAIST_JOINT0:0.970273,-0.000000,0.235877,0.054144 WAIST_JOINT1:0.997030,0.060566,-0.000000,0.047577 END:
KINECT_DATA_Sensor  AnkleLeft:0.021628,0.715401,-0.087226,-0.692910 AnkleRight:0.100810,0.738040,0.084687,0.661787 ElbowLeft:0.037017,0.719557,-0.191788,-0.666396 ElbowRight:-0.145040,0.962221,0.090643,0.211842 FootLeft:0.000000,0.000000,0.000000,0.000000 FootRight:0.000000,0.000000,0.000000,0.000000 HandLeft:-0.103830,0.823326,-0.103417,0.548323 HandRight:0.334651,0.377428,-0.520810,0.688705 HandTipLeft:0.000000,0.000000,0.000000,0.000000 HandTipRight:0.000000,0.000000,0.000000,0.000000 Head:0.000000,0.000000,0.000000,0.000000 HipLeft:0.016839,-0.684453,0.722950,-0.092651 HipRight:-0.241935,0.658406,0.662993,-0.261550 KneeLeft:0.039912,-0.578023,0.041331,0.813995 KneeRight:-0.025309,0.815839,0.031675,0.576856 Neck:-0.235982,0.056661,0.966749,-0.080610 ShoulderLeft:0.179705,0.731084,-0.644268,-0.134688 ShoulderRight:-0.125034,0.780611,0.566873,-0.231663 SpineBase:-0.169008,0.045346,0.983617,-0.043321 SpineMid:-0.201886,0.046772,0.977399,-0.041776 SpineShoulder:-0.235757,0.052376,0.968597,-0.059124 ThumbLeft:0.000000,0.000000,0.000000,0.000000 ThumbRight:0.000000,0.000000,0.000000,0.000000 WristLeft:-0.049780,0.829836,-0.136751,0.538696 WristRight:0.242930,0.374938,-0.432567,0.783130 END:
KINECT_DATA POSITION:36.916752,1.329180,-11.029339 HEAD_JOINT1:0.984758,0.160986,0.000000,-0.065850 LARM_JOINT2:0.776564,0.000000,0.065508,-0.626624 LARM_JOINT3:0.959912,0.000000,-0.236791,-0.149993 LLEG_JOINT2:0.998970,-0.006903,0.000000,0.044857 LLEG_JOINT4:0.997836,0.064574,0.000000,0.012432 RARM_JOINT2:0.840360,0.000000,0.149688,0.520950 RARM_JOINT3:0.820479,0.000000,0.483489,0.305045 RLEG_JOINT2:0.998600,0.014083,0.000000,-0.050992 RLEG_JOINT4:0.989840,0.111887,0.000000,0.087735 WAIST:0.985374,-0.000000,0.169933,0.012710 WAIST_JOINT0:0.970732,-0.000000,0.233955,0.054269 WAIST_JOINT1:0.997041,0.060694,-0.000000,0.047166 END:
KINECT_DATA_Sensor  AnkleLeft:-0.005506,-0.574800,0.088842,0.813438 AnkleRight:0.100485,0.717699,0.087395,0.683501 ElbowLeft:0.036018,0.720083,-0.192555,-0.665662 ElbowRight:-0.144344,0.961770,0.091092,0.214163 FootLeft:0.000000,0.000000,0.000000,0.000000 FootRight:0.000000,0.000000,0.000000,0.000000 HandLeft:-0.108707,0.829559,-0.096854,0.539104 HandRight:0.407713,0.271532,-0.461136,0.739861 HandTipLeft:0.000000,0.000000,0.000000,0.000000 HandTipRight:0.000000,0.000000,0.000000,0.000000 Head:0.000000,0.000000,0.000000,0.000000 HipLeft:0.017196,-0.684239,0.723122,-0.092823 HipRight:-0.241652,0.658599,0.663015,-0.261272 KneeLeft:0.040339,-0.578459,0.041781,0.813642 KneeRight:-0.024606,0.815564,0.031898,0.577262 Neck:-0.234147,0.056350,0.967201,-0.080762 ShoulderLeft:0.177968,0.731372,-0.644894,-0.132418 ShoulderRight:-0.124532,0.780747,0.567120,-0.230869 SpineBase:-0.168448,0.045286,0.983720,-0.043230 SpineMid:-0.200689,0.046682,0.977652,-0.041719 SpineShoulder:-0.233916,0.052127,0.969050,-0.059229 ThumbLeft:0.000000,0.000000,0.000000,0.000000 ThumbRight:0.000000,0.000000,0.000000,0.000000 WristLeft:-0.051505,0.836644,-0.136995,0.527832 WristRight:0.301931,0.255029,-0.392802,0.830364 END:
KINECT_DATA POSITION:36.940292,1.312456,-10.972452 HEAD_JOINT1:0.984485,0.163116,0.000000,-0.064672 LARM_JOINT2:0.776385,0.000000,0.065135,-0.626884 LARM_JOINT3:0.960434,0.000000,-0.235285,-0.149020 LLEG_JOINT2:0.998980,-0.004974,0.000000,0.044884 LLEG_JOINT4:0.997925,0.063508,0.000000,0.010569 RARM_JOINT2:0.840175,0.000000,0.149248,0.521375 RARM_JOINT3:0.820767,0.000000,0.482654,0.305591 RLEG_JOINT2:0.998556,0.014259,0.000000,-0.051798 RLEG_JOINT4:0.989164,0.115725,0.000000,0.090346 WAIST:0.985643,-0.000000,0.168355,0.012831 WAIST_JOINT0:0.971182,-0.000000,0.232102,0.054174 WAIST_JOINT1:0.997014,0.061425,-0.000000,0.046789 END:
KINECT_DATA_Sensor  AnkleLeft:-0.006992,-0.575681,0.087953,0.812900 AnkleRight:0.102499,0.703095,0.091821,0.697654 ElbowLeft:0.036267,0.721075,-0.192298,-0.664648 ElbowRight:-0.143356,0.961131,0.091542,0.217476 FootLeft:0.000000,0.000000,0.000000,0.000000 FootRight:0.000000,0.000000,0.000000,0.000000 HandLeft:-0.106967,0.839911,-0.090919,0.524253 HandRight:0.452212,0.198692,-0.413999,0.764612 HandTipLeft:0.000000,0.000000,0.000000,0.000000 HandTipRight:0.000000,0.000000,0.000000,0.000000 Head:0.000000,0.000000,0.000000,0.000000 HipLeft:0.017822,-0.683913,0.723249,-0.094114 HipRight:-0.240570,0.658733,0.663407,-0.260937 KneeLeft:0.038916,-0.579717,0.042947,0.812754 KneeRight:-0.025012,0.814615,0.032475,0.578552 Neck:-0.232328,0.056038,0.967605,-0.081384 ShoulderLeft:0.177250,0.731770,-0.645023,-0.130539 ShoulderRight:-0.122939,0.780888,0.567668,-0.229895 SpineBase:-0.166868,0.045188,0.983969,-0.043785 SpineMid:-0.198987,0.046597,0.977980,-0.042283 SpineShoulder:-0.232095,0.051905,0.969461,-0.059861 ThumbLeft:0.000000,0.000000,0.000000,0.000000 ThumbRight:0.000000,0.000000,0.000000,0.000000 WristLeft:-0.053755,0.846217,-0.135013,0.512639 WristRight:0.336059,0.172450,-0.363049,0.851775 END:
KINECT_DATA POSITION:36.910957,1.290668,-10.924482 HEAD_JOINT1:0.984538,0.163333,0.000000,-0.063309 LARM_JOINT2:0.776425,0.000000,0.065376,-0.626810 LARM_JOINT3:0.960045,0.000000,-0.237407,-0.148160 LLEG_JOINT2:0.998938,-0.004265,0.000000,0.045869 LLEG_JOINT4:0.998065,0.061461,0.000000,0.009467 RARM_JOINT2:0.839578,0.000000,0.148945,0.522421 RARM_JOINT3:0.821457,0.000000,0.483362,0.302604 RLEG_JOINT2:0.998636,0.013865,0.000000,-0.050342 RLEG_JOINT4:0.990171,0.113111,0.000000,0.082264 WAIST:0.985887,-0.000000,0.166956,0.012321 WAIST_JOINT0:0.971596,-0.000000,0.230480,0.053664 WAIST_JOINT1:0.996973,0.062082,-0.000000,0.046803 END:
KINECT_DATA_Sensor  AnkleLeft:-0.020031,-0.699670,0.084637,0.709153 AnkleRight:0.110545,0.821436,0.072817,0.554725 ElbowLeft:0.036656,0.720797,-0.192410,-0.664895 ElbowRight:-0.142035,0.960728,0.091625,0.220075 FootLeft:0.000000,0.000000,0.000000,0.000000 FootRight:0.000000,0.000000,0.000000,0.000000 HandLeft:-0.110390,0.843973,-0.094113,0.516398 HandRight:0.374678,0.318034,-0.486947,0.722049 HandTipLeft:0.000000,0.000000,0.000000,0.000000 HandTipRight:0.000000,0.000000,0.000000,0.000000 Head:0.000000,0.000000,0.000000,0.000000 HipLeft:0.018545,-0.684166,0.722825,-0.095382 HipRight:-0.239637,0.658568,0.664027,-0.260635 KneeLeft:0.038592,-0.580873,0.043758,0.811901 KneeRight:-0.024357,0.813753,0.031717,0.579833 Neck:-0.230716,0.055454,0.967965,-0.082084 ShoulderLeft:0.176614,0.732326,-0.644912,-0.128817 ShoulderRight:-0.121554,0.780724,0.568519,-0.229084 SpineBase:-0.165427,0.044852,0.984207,-0.044259 SpineMid:-0.197459,0.046272,0.978284,-0.042771 SpineShoulder:-0.230481,0.051455,0.969831,-0.060486 ThumbLeft:0.000000,0.000000,0.000000,0.000000 ThumbRight:0.000000,0.000000,0.000000,0.000000 WristLeft:-0.055104,0.850634,-0.134534,0.505258 WristRight:0.272134,0.304236,-0.411753,0.814766 END:
KINECT_DATA POSITION:36.883144,1.278640,-10.856342 HEAD_JOINT1:0.984478,0.163929,0.000000,-0.062700 LARM_JOINT2:0.776309,0.000000,0.064139,-0.627081 LARM_JOINT3:0.960040,0.000000,-0.236836,-0.149104 LLEG_JOINT2:0.998965,-0.003288,0.000000,0.045366 LLEG_JOINT4:0.998013,0.061938,0.000000,0.011589 RARM_JOINT2:0.839065,0.000000,0.148866,0.523267 RARM_JOINT3:0.821757,0.000000,0.482238,0.303583 RLEG_JOINT2:0.998635,0.013063,0.000000,-0.050576 RLEG_JOINT4:0.989612,0.116678,0.000000,0.083989 WAIST:0.986271,-0.000000,0.164677,0.012313 WAIST_JOINT0:0.971910,-0.000000,0.229303,0.053012 WAIST_JOINT1:0.996978,0.062234,-0.000000,0.046506 END:
KINECT_DATA_Sensor  AnkleLeft:0.022299,0.716045,-0.086326,-0.692337 AnkleRight:0.101941,0.732235,0.089282,0.667434 ElbowLeft:0.035449,0.721710,-0.191779,-0.664153 ElbowRight:-0.141181,0.960304,0.091566,0.222484 FootLeft:0.000000,0.000000,0.000000,0.000000 FootRight:0.000000,0.000000,0.000000,0.000000 HandLeft:-0.117877,0.844697,-0.086449,0.514897 HandRight:0.394485,0.289572,-0.469415,0.734969 HandTipLeft:0.000000,0.000000,0.000000,0.000000 HandTipRight:0.000000,0.000000,0.000000,0.000000 Head:0.000000,0.000000,0.000000,0.000000 HipLeft:0.019974,-0.683993,0.722758,-0.096822 HipRight:-0.238465,0.658955,0.664462,-0.259621 KneeLeft:0.037581,-0.582731,0.043835,0.810611 KneeRight:-0.024928,0.812347,0.031279,0.581801 Neck:-0.229529,0.055349,0.968256,-0.082053 ShoulderLeft:0.175528,0.732765,-0.644933,-0.127698 ShoulderRight:-0.121206,0.780543,0.569154,-0.228311 SpineBase:-0.163157,0.044783,0.984587,-0.044293 SpineMid:-0.195721,0.046227,0.978635,-0.042783 SpineShoulder:-0.229291,0.051365,0.970120,-0.060458 ThumbLeft:0.000000,0.000000,0.000000,0.000000 ThumbRight:0.000000,0.000000,0.000000,0.000000 WristLeft:-0.056146,0.852716,-0.134542,0.501619 WristRight:0.286914,0.270842,-0.401503,0.826511 END:
KINECT_DATA POSITION:36.799370,1.278381,-10.815752 HEAD_JOINT1:0.984535,0.164132,0.000000,-0.061249 LARM_JOINT2:0.776979,0.000000,0.062953,-0.626371 LARM_JOINT3:0.960650,0.000000,-0.236295,-0.146001 LLEG_JOINT2:0.998935,-0.002986,0.000000,0.046044 LLEG_JOINT4:0.998051,0.061538,0.000000,0.010388 RARM_JOINT2:0.838665,0.000000,0.149151,0.523827 RARM_JOINT3:0.821615,0.000000,0.482728,0.303189 RLEG_JOINT2:0.998668,0.013490,0.000000,-0.049800 RLEG_JOINT4:0.989386,0.117209,0.000000,0.085886 WAIST:0.986614,-0.000000,0.162625,0.012078 WAIST_JOINT0:0.972288,-0.000000,0.227830,0.052443 WAIST_JOINT1:0.996968,0.062504,-0.000000,0.046344 END:
KINECT_DATA_Sensor  AnkleLeft:-0.006310,-0.578657,0.088335,0.810749 AnkleRight:0.116445,0.819305,0.072764,0.556674 ElbowLeft:0.034519,0.724014,-0.192192,-0.661570 ElbowRight:-0.140621,0.960015,0.091717,0.224020 FootLeft:0.000000,0.000000,0.000000,0.000000 FootRight:0.000000,0.000000,0.000000,0.000000 HandLeft:-0.106773,0.830164,-0.098322,0.538293 HandRight:0.363217,0.333695,-0.497250,0.713768 HandTipLeft:0.000000,0.000000,0.000000,0.000000 HandTipRight:0.000000,0.000000,0.000000,0.000000 Head:0.000000,0.000000,0.000000,0.000000 HipLeft:0.020741,-0.684041,0.722567,-0.097746 HipRight:-0.236879,0.659213,0.665181,-0.258575 KneeLeft:0.037636,-0.584398,0.044336,0.809380 KneeRight:-0.024130,0.811170,0.031411,0.583468 Neck:-0.228107,0.055134,0.968594,-0.082177 ShoulderLeft:0.174461,0.732844,-0.645457,-0.126047 ShoulderRight:-0.120678,0.780096,0.570192,-0.227527 SpineBase:-0.161099,0.044463,0.984930,-0.044525 SpineMid:-0.193988,0.045928,0.978984,-0.043012 SpineShoulder:-0.227875,0.051116,0.970456,-0.060619 ThumbLeft:0.000000,0.000000,0.000000,0.000000 ThumbRight:0.000000,0.000000,0.000000,0.000000 WristLeft:-0.051383,0.836892,-0.135571,0.527819 WristRight:0.260247,0.320220,-0.418165,0.809239 END:
KINECT_DATA POSITION:36.756618,1.264788,-10.743523 HEAD_JOINT1:0.984613,0.164148,0.000000,-0.059941 LARM_JOINT2:0.776973,0.000000,0.063226,-0.626351 LARM_JOINT3:0.960637,0.000000,-0.234857,-0.148386 LLEG_JOINT2:0.998929,-0.001628,0.000000,0.046238 LLEG_JOINT4:0.998036,0.062273,0.000000,0.006771 RARM_JOINT2:0.838221,0.000000,0.150492,0.524154 RARM_JOINT3:0.821878,0.000000,0.482721,0.302485 RLEG_JOINT2:0.998727,0.013016,0.000000,-0.048738 RLEG_JOINT4:0.989905,0.115445,0.000000,0.082222 WAIST:0.986935,-0.000000,0.160647,0.012320 WAIST_JOINT0:0.972957,-0.000000,0.225169,0.051518 WAIST_JOINT1:0.996950,0.063183,-0.000000,0.045810 END:
KINECT_DATA_Sensor  AnkleLeft:-0.009603,-0.579659,0.086982,0.810147 AnkleRight:0.100780,0.722290,0.088900,0.678408 ElbowLeft:0.034856,0.724649,-0.192374,-0.660803 ElbowRight:-0.140496,0.959753,0.091422,0.225339 FootLeft:0.000000,0.000000,0.000000,0.000000 FootRight:0.000000,0.000000,0.000000,0.000000 HandLeft:-0.107797,0.833815,-0.082325,0.535122 HandRight:0.370835,0.320251,-0.491661,0.719854 HandTipLeft:0.000000,0.000000,0.000000,0.000000 HandTipRight:0.000000,0.000000,0.000000,0.000000 Head:0.000000,0.000000,0.000000,0.000000 HipLeft:0.021211,-0.683781,0.722654,-0.098818 HipRight:-0.235119,0.659725,0.665615,-0.257756 KneeLeft:0.036886,-0.585972,0.045395,0.808218 KneeRight:-0.023295,0.809983,0.030299,0.585207 Neck:-0.225457,0.054769,0.969187,-0.082738 ShoulderLeft:0.173023,0.733802,-0.645222,-0.123636 ShoulderRight:-0.118689,0.780313,0.570957,-0.225904 SpineBase:-0.159133,0.044360,0.985231,-0.045051 SpineMid:-0.191678,0.045827,0.979419,-0.043557 SpineShoulder:-0.225218,0.050875,0.971053,-0.061189 ThumbLeft:0.000000,0.000000,0.000000,0.000000 ThumbRight:0.000000,0.000000,0.000000,0.000000 WristLeft:-0.053904,0.840593,-0.135305,0.521719 WristRight:0.266690,0.305503,-0.414151,0.814876 END:
