EastLYD/RoboCupatHomeSim/InteractiveCleanUp/JapanOpen2016/Motion_Data/File57.dat
KINECT_DATA POSITION:23.871050,0.981841,-11.700463 HEAD_JOINT1:0.977445,0.179595,-0.000000,0.111119 LARM_JOINT2:0.834009,0.000000,-0.030737,-0.550894 LARM_JOINT3:0.967203,0.000000,-0.179585,-0.179632 LLEG_JOINT2:0.998785,0.012674,0.000000,0.047618 LLEG_JOINT4:0.993375,0.103296,0.000000,-0.050356 RARM_JOINT2:0.773313,0.000000,-0.054648,0.631665 RARM_JOINT3:0.968707,0.000000,0.199025,0.148310 RLEG_JOINT2:0.999737,0.014981,0.000000,-0.017345 RLEG_JOINT4:0.994765,0.099321,0.000000,0.024047 WAIST:0.999988,-0.000000,0.002543,0.004172 WAIST_JOINT0:0.998653,0.000000,-0.050765,0.010757 WAIST_JOINT1:0.996849,0.076127,0.000000,-0.022307 END:
KINECT_DATA_Sensor  AnkleLeft:0.086908,0.745103,-0.076424,-0.656831 AnkleRight:0.087510,0.695616,0.074175,0.709195 ElbowLeft:-0.024932,0.910246,-0.186001,-0.369099 ElbowRight:0.037876,0.840863,0.161334,0.515254 FootLeft:0.000000,0.000000,0.000000,0.000000 FootRight:0.000000,0.000000,0.000000,0.000000 HandLeft:0.007164,-0.562981,-0.120244,0.817644 HandRight:0.100128,-0.191996,-0.039839,0.975461 HandTipLeft:0.000000,0.000000,0.000000,0.000000 HandTipRight:0.000000,0.000000,0.000000,0.000000 Head:0.000000,0.000000,0.000000,0.000000 HipLeft:0.096748,-0.680925,0.708802,-0.156786 HipRight:-0.106619,0.679744,0.702483,-0.181929 KneeLeft:0.027591,-0.703572,0.045614,0.708622 KneeRight:0.001254,0.710035,0.019903,0.703884 Neck:0.047555,-0.024832,0.994529,-0.089626 ShoulderLeft:0.014276,0.780288,-0.619172,0.087025 ShoulderRight:0.077133,0.786243,0.613011,-0.009459 SpineBase:-0.003793,-0.015060,0.998430,-0.053823 SpineMid:0.021683,-0.016428,0.998201,-0.053421 SpineShoulder:0.047559,-0.021300,0.996162,-0.070325 ThumbLeft:0.000000,0.000000,0.000000,0.000000 ThumbRight:0.000000,0.000000,0.000000,0.000000 WristLeft:0.068531,-0.553421,-0.102047,0.823781 WristRight:0.017090,-0.195023,-0.101100,0.975424 END:
KINECT_DATA POSITION:23.834990,0.985198,-11.735689 HEAD_JOINT1:0.977575,0.179115,-0.000000,0.110745 LARM_JOINT2:0.834340,0.000000,-0.031661,-0.550341 LARM_JOINT3:0.967216,0.000000,-0.178926,-0.180217 LLEG_JOINT2:0.998761,0.012253,0.000000,0.048223 LLEG_JOINT4:0.993461,0.102742,0.000000,-0.049787 RARM_JOINT2:0.776377,0.000000,-0.060609,0.627348 RARM_JOINT3:0.966276,0.000000,0.204152,0.156945 RLEG_JOINT2:0.999733,0.015371,0.000000,-0.017250 RLEG_JOINT4:0.994807,0.098629,0.000000,0.025112 WAIST:0.999989,-0.000000,0.002357,0.003958 WAIST_JOINT0:0.998822,0.000000,-0.047545,0.009667 WAIST_JOINT1:0.996827,0.076426,0.000000,-0.022243 END:
KINECT_DATA_Sensor  AnkleLeft:0.084877,0.739702,-0.077262,-0.663074 AnkleRight:0.091009,0.724836,0.069498,0.679338 ElbowLeft:-0.025598,0.910335,-0.186206,-0.368731 ElbowRight:0.040171,0.841738,0.168096,0.511475 FootLeft:0.000000,0.000000,0.000000,0.000000 FootRight:0.000000,0.000000,0.000000,0.000000 HandLeft:-0.000520,-0.535446,-0.117578,0.836345 HandRight:0.104191,-0.124334,-0.053706,0.985292 HandTipLeft:0.000000,0.000000,0.000000,0.000000 HandTipRight:0.000000,0.000000,0.000000,0.000000 Head:0.000000,0.000000,0.000000,0.000000 HipLeft:0.096665,-0.681039,0.708647,-0.157036 HipRight:-0.106180,0.679615,0.702663,-0.181975 KneeLeft:0.028175,-0.703666,0.045589,0.708507 KneeRight:0.001450,0.709900,0.020263,0.704009 Neck:0.044729,-0.024703,0.994625,-0.090056 ShoulderLeft:0.013572,0.780287,-0.619158,0.087245 ShoulderRight:0.072815,0.786082,0.613654,-0.014177 SpineBase:-0.003603,-0.015302,0.998410,-0.054128 SpineMid:0.020365,-0.016597,0.998209,-0.053745 SpineShoulder:0.044722,-0.021238,0.996271,-0.070667 ThumbLeft:0.000000,0.000000,0.000000,0.000000 ThumbRight:0.000000,0.000000,0.000000,0.000000 WristLeft:0.065432,-0.525334,-0.104910,0.841865 WristRight:0.010018,-0.128895,-0.101927,0.986355 END:
KINECT_DATA POSITION:23.831968,0.985613,-11.748958 HEAD_JOINT1:0.977707,0.178317,-0.000000,0.110872 LARM_JOINT2:0.834334,0.000000,-0.032186,-0.550319 LARM_JOINT3:0.967522,0.000000,-0.178091,-0.179400 LLEG_JOINT2:0.998778,0.012548,0.000000,0.047793 LLEG_JOINT4:0.993365,0.104566,0.000000,-0.047883 RARM_JOINT2:0.773366,0.000000,-0.053443,0.631704 RARM_JOINT3:0.967394,0.000000,0.203067,0.151372 RLEG_JOINT2:0.999717,0.016168,0.000000,-0.017437 RLEG_JOINT4:0.994768,0.099527,0.000000,0.023042 WAIST:0.999989,-0.000000,0.002298,0.004044 WAIST_JOINT0:0.998589,0.000000,-0.051894,0.011259 WAIST_JOINT1:0.996820,0.076479,0.000000,-0.022362 END:
KINECT_DATA_Sensor  AnkleLeft:0.086271,0.746454,-0.078926,-0.655084 AnkleRight:0.092369,0.739891,0.070152,0.662652 ElbowLeft:-0.025780,0.910731,-0.186041,-0.367822 ElbowRight:0.037295,0.840815,0.161230,0.515406 FootLeft:0.000000,0.000000,0.000000,0.000000 FootRight:0.000000,0.000000,0.000000,0.000000 HandLeft:0.007675,-0.573186,-0.114665,0.811326 HandRight:0.109907,-0.141579,-0.060571,0.981940 HandTipLeft:0.000000,0.000000,0.000000,0.000000 HandTipRight:0.000000,0.000000,0.000000,0.000000 Head:0.000000,0.000000,0.000000,0.000000 HipLeft:0.096708,-0.680984,0.708694,-0.157038 HipRight:-0.106068,0.679702,0.702616,-0.181895 KneeLeft:0.027726,-0.703724,0.045553,0.708470 KneeRight:0.001944,0.709849,0.020897,0.704042 Neck:0.048514,-0.025099,0.994439,-0.090046 ShoulderLeft:0.014337,0.780152,-0.619265,0.087572 ShoulderRight:0.078471,0.786602,0.612396,-0.008392 SpineBase:-0.003555,-0.015325,0.998411,-0.054119 SpineMid:0.022272,-0.016719,0.998168,-0.053705 SpineShoulder:0.048519,-0.021525,0.996089,-0.070628 ThumbLeft:0.000000,0.000000,0.000000,0.000000 ThumbRight:0.000000,0.000000,0.000000,0.000000 WristLeft:0.070057,-0.563635,-0.101485,0.816767 WristRight:0.011880,-0.146915,-0.102303,0.983773 END:
KINECT_DATA POSITION:23.792089,0.986846,-11.756813 HEAD_JOINT1:0.977890,0.177108,-0.000000,0.111194 LARM_JOINT2:0.834482,0.000000,-0.032795,-0.550058 LARM_JOINT3:0.966706,0.000000,-0.182801,-0.179061 LLEG_JOINT2:0.998744,0.012254,0.000000,0.048588 LLEG_JOINT4:0.993597,0.101544,0.000000,-0.049544 RARM_JOINT2:0.774167,0.000000,-0.055472,0.630545 RARM_JOINT3:0.967436,0.000000,0.202353,0.152057 RLEG_JOINT2:0.999735,0.015700,0.000000,-0.016852 RLEG_JOINT4:0.994926,0.097992,0.000000,0.022789 WAIST:0.999991,-0.000000,0.002033,0.003838 WAIST_JOINT0:0.998589,0.000000,-0.051930,0.011124 WAIST_JOINT1:0.996849,0.076096,0.000000,-0.022383 END:
KINECT_DATA_Sensor  AnkleLeft:0.083646,0.740200,-0.076854,-0.662722 AnkleRight:0.087055,0.702200,0.073620,0.702792 ElbowLeft:-0.026628,0.910951,-0.185740,-0.367370 ElbowRight:0.037678,0.840677,0.163118,0.515009 FootLeft:0.000000,0.000000,0.000000,0.000000 FootRight:0.000000,0.000000,0.000000,0.000000 HandLeft:0.009394,-0.530274,-0.134272,0.837073 HandRight:0.104899,-0.152445,-0.051851,0.981360 HandTipLeft:0.000000,0.000000,0.000000,0.000000 HandTipRight:0.000000,0.000000,0.000000,0.000000 Head:0.000000,0.000000,0.000000,0.000000 HipLeft:0.097125,-0.681099,0.708542,-0.156968 HipRight:-0.106022,0.679595,0.702806,-0.181590 KneeLeft:0.028362,-0.703885,0.045756,0.708271 KneeRight:0.001888,0.709666,0.020300,0.704244 Neck:0.048577,-0.025297,0.994470,-0.089604 ShoulderLeft:0.013723,0.780289,-0.619101,0.087607 ShoulderRight:0.077933,0.786923,0.612054,-0.008289 SpineBase:-0.003279,-0.015619,0.998422,-0.053841 SpineMid:0.022435,-0.017000,0.998175,-0.053421 SpineShoulder:0.048581,-0.021686,0.996109,-0.070266 ThumbLeft:0.000000,0.000000,0.000000,0.000000 ThumbRight:0.000000,0.000000,0.000000,0.000000 WristLeft:0.065193,-0.521259,-0.105309,0.844363 WristRight:0.012966,-0.156712,-0.103085,0.982164 END:
KINECT_DATA POSITION:23.754709,0.945830,-11.700463 HEAD_JOINT1:0.978052,0.175774,-0.000000,0.111882 LARM_JOINT2:0.833219,0.000000,-0.051754,-0.550516 LARM_JOINT3:0.953608,0.000000,-0.236620,-0.186125 LLEG_JOINT2:0.998682,0.012901,0.000000,0.049668 LLEG_JOINT4:0.993411,0.103227,0.000000,-0.049782 RARM_JOINT2:0.778774,0.000000,-0.064727,0.623956 RARM_JOINT3:0.966173,0.000000,0.201494,0.160966 RLEG_JOINT2:0.999756,0.015997,0.000000,-0.015236 RLEG_JOINT4:0.994942,0.098096,0.000000,0.021638 WAIST:0.999995,-0.000000,0.000500,0.003028 WAIST_JOINT0:0.998766,0.000000,-0.048794,0.009291 WAIST_JOINT1:0.996958,0.074801,0.000000,-0.021877 END:
KINECT_DATA_Sensor  AnkleLeft:0.088053,0.764448,-0.075389,-0.634178 AnkleRight:0.090112,0.728857,0.070456,0.675044 ElbowLeft:-0.041807,0.912675,-0.176863,-0.366054 ElbowRight:0.040450,0.842409,0.172469,0.508886 FootLeft:0.000000,0.000000,0.000000,0.000000 FootRight:0.000000,0.000000,0.000000,0.000000 HandLeft:0.040296,-0.455726,-0.293562,0.839351 HandRight:0.100066,-0.201521,-0.033007,0.973800 HandTipLeft:0.000000,0.000000,0.000000,0.000000 HandTipRight:0.000000,0.000000,0.000000,0.000000 Head:0.000000,0.000000,0.000000,0.000000 HipLeft:0.098999,-0.681607,0.707757,-0.157135 HipRight:-0.105938,0.679443,0.703374,-0.180000 KneeLeft:0.028155,-0.705062,0.046369,0.707068 KneeRight:0.002701,0.708508,0.019940,0.705416 Neck:0.045998,-0.025129,0.994745,-0.087948 ShoulderLeft:0.011132,0.781218,-0.617966,0.087701 ShoulderRight:0.071923,0.787252,0.612295,-0.012531 SpineBase:-0.001661,-0.016036,0.998484,-0.052628 SpineMid:0.021954,-0.017276,0.998244,-0.052234 SpineShoulder:0.046006,-0.021489,0.996306,-0.069249 ThumbLeft:0.000000,0.000000,0.000000,0.000000 ThumbRight:0.000000,0.000000,0.000000,0.000000 WristLeft:0.054883,-0.459825,-0.143421,0.874631 WristRight:0.017197,-0.203995,-0.101662,0.973527 END:
KINECT_DATA POSITION:23.553558,0.896469,-11.565328 HEAD_JOINT1:0.978175,0.173805,-0.000000,0.113864 LARM_JOINT2:0.830465,0.000000,-0.104403,-0.547199 LARM_JOINT3:0.953783,0.000000,-0.249348,-0.167700 LLEG_JOINT2:0.998472,0.013515,0.000000,0.053575 LLEG_JOINT4:0.993254,0.104175,0.000000,-0.050936 RARM_JOINT2:0.779690,0.000000,-0.072828,0.621916 RARM_JOINT3:0.964655,0.000000,0.203805,0.167045 RLEG_JOINT2:0.999783,0.017891,0.000000,-0.010655 RLEG_JOINT4:0.995185,0.095590,0.000000,0.021673 WAIST:0.999999,0.000000,-0.000906,0.001214 WAIST_JOINT0:0.998737,0.000000,-0.049739,0.007120 WAIST_JOINT1:0.997232,0.071105,0.000000,-0.021715 END:
KINECT_DATA_Sensor  AnkleLeft:0.086328,0.746741,-0.079691,-0.654656 AnkleRight:0.091067,0.722298,0.068642,0.682115 ElbowLeft:-0.082775,0.917721,-0.153766,-0.356781 ElbowRight:0.041604,0.841293,0.176477,0.509265 FootLeft:0.000000,0.000000,0.000000,0.000000 FootRight:0.000000,0.000000,0.000000,0.000000 HandLeft:-0.225293,0.815004,0.240049,-0.476851 HandRight:0.104882,-0.292903,-0.026328,0.950008 HandTipLeft:0.000000,0.000000,0.000000,0.000000 HandTipRight:0.000000,0.000000,0.000000,0.000000 Head:0.000000,0.000000,0.000000,0.000000 HipLeft:0.101929,-0.683157,0.706235,-0.155371 HipRight:-0.106156,0.678763,0.704646,-0.177443 KneeLeft:-0.029262,0.706093,-0.048249,-0.705868 KneeRight:0.006021,0.707370,0.019315,0.706553 Neck:0.047497,-0.027134,0.995030,-0.083202 ShoulderLeft:0.004021,0.783749,-0.614597,0.089391 ShoulderRight:0.066549,0.787338,0.612803,-0.011973 SpineBase:-0.000150,-0.018629,0.998590,-0.049717 SpineMid:0.023415,-0.019797,0.998315,-0.049263 SpineShoulder:0.047559,-0.022655,0.996438,-0.065845 ThumbLeft:0.000000,0.000000,0.000000,0.000000 ThumbRight:0.000000,0.000000,0.000000,0.000000 WristLeft:-0.151808,0.841327,0.130002,-0.502218 WristRight:0.026601,-0.295066,-0.101183,0.949732 END:
KINECT_DATA POSITION:23.358744,0.864249,-11.441326 HEAD_JOINT1:0.978462,0.170519,-0.000000,0.116343 LARM_JOINT2:0.831492,0.000000,-0.120380,-0.542338 LARM_JOINT3:0.955767,0.000000,-0.244367,-0.163689 LLEG_JOINT2:0.998258,0.014578,0.000000,0.057178 LLEG_JOINT4:0.993196,0.102918,0.000000,-0.054490 RARM_JOINT2:0.779779,0.000000,-0.079179,0.621027 RARM_JOINT3:0.964069,0.000000,0.204054,0.170098 RLEG_JOINT2:0.999791,0.019185,0.000000,-0.007055 RLEG_JOINT4:0.995386,0.094006,0.000000,0.019225 WAIST:0.999990,0.000000,-0.004402,-0.000234 WAIST_JOINT0:0.998518,0.000000,-0.054214,0.004830 WAIST_JOINT1:0.997382,0.068860,0.000000,-0.022086 END:
KINECT_DATA_Sensor  AnkleLeft:0.088682,0.764393,-0.076683,-0.634002 AnkleRight:0.088046,0.691828,0.071962,0.713052 ElbowLeft:-0.095640,0.924792,-0.149532,-0.336531 ElbowRight:0.042828,0.836589,0.179633,0.515768 FootLeft:0.000000,0.000000,0.000000,0.000000 FootRight:0.000000,0.000000,0.000000,0.000000 HandLeft:0.094049,-0.493100,-0.327412,0.800506 HandRight:0.091303,-0.011893,-0.042296,0.994853 HandTipLeft:0.000000,0.000000,0.000000,0.000000 HandTipRight:0.000000,0.000000,0.000000,0.000000 Head:0.000000,0.000000,0.000000,0.000000 HipLeft:0.106196,-0.684102,0.704684,-0.155395 HipRight:-0.105299,0.678553,0.705781,-0.174214 KneeLeft:-0.030207,0.708614,-0.050425,-0.703144 KneeRight:0.008518,0.704758,0.018671,0.709151 Neck:0.052277,-0.028816,0.994949,-0.080710 ShoulderLeft:-0.002073,0.785372,-0.612051,0.092633 ShoulderRight:0.066416,0.786510,0.613945,-0.007883 SpineBase:0.003424,-0.020829,0.998663,-0.047176 SpineMid:0.027536,-0.021962,0.998290,-0.046659 SpineShoulder:0.052328,-0.024166,0.996306,-0.063649 ThumbLeft:0.000000,0.000000,0.000000,0.000000 ThumbRight:0.000000,0.000000,0.000000,0.000000 WristLeft:0.073396,-0.510502,-0.190707,0.835243 WristRight:-0.004681,-0.015494,-0.108251,0.993992 END:
KINECT_DATA POSITION:23.140570,0.846963,-11.362553 HEAD_JOINT1:0.978338,0.170147,-0.000000,0.117917 LARM_JOINT2:0.832047,0.000000,-0.129989,-0.539259 LARM_JOINT3:0.951963,0.000000,-0.256103,-0.167864 LLEG_JOINT2:0.997993,0.015882,0.000000,0.061306 LLEG_JOINT4:0.993398,0.101841,0.000000,-0.052810 RARM_JOINT2:0.779362,0.000000,-0.082880,0.621068 RARM_JOINT3:0.962254,0.000000,0.207246,0.176396 RLEG_JOINT2:0.999798,0.019952,0.000000,-0.002209 RLEG_JOINT4:0.995518,0.092932,0.000000,0.017541 WAIST:0.999976,0.000000,-0.006607,-0.002266 WAIST_JOINT0:0.998342,0.000000,-0.057460,0.003270 WAIST_JOINT1:0.997468,0.067636,0.000000,-0.021984 END:
KINECT_DATA_Sensor  AnkleLeft:0.087373,0.774664,-0.078661,-0.621349 AnkleRight:0.090551,0.708471,0.068458,0.696551 ElbowLeft:-0.105877,0.922510,-0.144357,-0.341946 ElbowRight:0.044430,0.836130,0.181367,0.515769 FootLeft:0.000000,0.000000,0.000000,0.000000 FootRight:0.000000,0.000000,0.000000,0.000000 HandLeft:-0.342577,0.930737,0.087140,0.093677 HandRight:-0.041274,0.983235,-0.109958,0.139482 HandTipLeft:0.000000,0.000000,0.000000,0.000000 HandTipRight:0.000000,0.000000,0.000000,0.000000 Head:0.000000,0.000000,0.000000,0.000000 HipLeft:0.108789,-0.685489,0.703029,-0.154986 HipRight:-0.104533,0.677667,0.707339,-0.171790 KneeLeft:-0.030895,0.710268,-0.052759,-0.701271 KneeRight:0.011067,0.703031,0.017176,0.710866 Neck:0.055671,-0.030342,0.994810,-0.079577 ShoulderLeft:-0.005774,0.786289,-0.610536,0.094671 ShoulderRight:0.066969,0.785830,0.614788,-0.004711 SpineBase:0.005748,-0.022954,0.998690,-0.045379 SpineMid:0.030326,-0.024064,0.998246,-0.044801 SpineShoulder:0.055658,-0.026041,0.996163,-0.062312 ThumbLeft:0.000000,0.000000,0.000000,0.000000 ThumbRight:0.000000,0.000000,0.000000,0.000000 WristLeft:-0.218932,0.972431,0.024204,0.076554 WristRight:-0.107482,0.983838,-0.009374,0.142905 END:
KINECT_DATA POSITION:22.964100,0.830971,-11.303401 HEAD_JOINT1:0.977811,0.172151,-0.000000,0.119376 LARM_JOINT2:0.833573,0.000000,-0.138407,-0.534790 LARM_JOINT3:0.945954,0.000000,-0.285025,-0.154702 LLEG_JOINT2:0.997656,0.017601,0.000000,0.066129 LLEG_JOINT4:0.993335,0.101476,0.000000,-0.054671 RARM_JOINT2:0.776647,0.000000,-0.081889,0.624591 RARM_JOINT3:0.962417,0.000000,0.208595,0.173900 RLEG_JOINT2:0.999789,0.020323,0.000000,0.003091 RLEG_JOINT4:0.995348,0.095340,0.000000,0.013855 WAIST:0.999950,0.000000,-0.008715,-0.004876 WAIST_JOINT0:0.998088,0.000000,-0.061727,0.003294 WAIST_JOINT1:0.997623,0.065403,0.000000,-0.021704 END:
KINECT_DATA_Sensor  AnkleLeft:0.088802,0.781971,-0.079040,-0.611873 AnkleRight:0.094596,0.732718,0.067374,0.670550 ElbowLeft:-0.118853,0.914378,-0.138377,-0.361439 ElbowRight:0.043094,0.835236,0.177906,0.518530 FootLeft:0.000000,0.000000,0.000000,0.000000 FootRight:0.000000,0.000000,0.000000,0.000000 HandLeft:-0.250778,0.351127,-0.311022,0.846809 HandRight:-0.049791,0.972406,-0.110863,0.199138 HandTipLeft:0.000000,0.000000,0.000000,0.000000 HandTipRight:0.000000,0.000000,0.000000,0.000000 Head:0.000000,0.000000,0.000000,0.000000 HipLeft:0.111202,-0.687175,0.701045,-0.154789 HipRight:-0.103910,0.676314,0.709293,-0.169427 KneeLeft:-0.031383,0.711920,-0.055467,-0.699362 KneeRight:0.013229,0.701336,0.015475,0.712540 Neck:0.059940,-0.033000,0.994673,-0.077091 ShoulderLeft:-0.010570,0.786909,-0.609373,0.096583 ShoulderRight:0.067633,0.785775,0.614804,0.000179 SpineBase:0.008025,-0.024899,0.998701,-0.043727 SpineMid:0.033583,-0.026010,0.998168,-0.043075 SpineShoulder:0.059935,-0.028121,0.996000,-0.060000 ThumbLeft:0.000000,0.000000,0.000000,0.000000 ThumbRight:0.000000,0.000000,0.000000,0.000000 WristLeft:-0.140491,0.385674,-0.204927,0.888551 WristRight:-0.107502,0.973096,-0.016076,0.203150 END:
KINECT_DATA POSITION:22.891048,0.815772,-11.270821 HEAD_JOINT1:0.978045,0.170808,-0.000000,0.119388 LARM_JOINT2:0.835043,0.000000,-0.143638,-0.531103 LARM_JOINT3:0.938311,0.000000,-0.308720,-0.155768 LLEG_JOINT2:0.997441,0.018512,0.000000,0.069053 LLEG_JOINT4:0.993328,0.100109,0.000000,-0.057247 RARM_JOINT2:0.775502,0.000000,-0.080888,0.626142 RARM_JOINT3:0.963235,0.000000,0.205333,0.173256 RLEG_JOINT2:0.999772,0.020517,0.000000,0.005990 RLEG_JOINT4:0.995441,0.094293,0.000000,0.014371 WAIST:0.999934,0.000000,-0.009390,-0.006672 WAIST_JOINT0:0.997881,0.000000,-0.064992,0.003244 WAIST_JOINT1:0.997705,0.064390,0.000000,-0.020957 END:
KINECT_DATA_Sensor  AnkleLeft:0.086203,0.758192,-0.081063,-0.641204 AnkleRight:0.093601,0.717524,0.067581,0.686900 ElbowLeft:-0.127875,0.906440,-0.135018,-0.379191 ElbowRight:0.041925,0.834774,0.176260,0.519929 FootLeft:0.000000,0.000000,0.000000,0.000000 FootRight:0.000000,0.000000,0.000000,0.000000 HandLeft:-0.246170,0.731596,0.346057,-0.533303 HandRight:-0.041141,0.974438,-0.112857,0.189846 HandTipLeft:0.000000,0.000000,0.000000,0.000000 HandTipRight:0.000000,0.000000,0.000000,0.000000 Head:0.000000,0.000000,0.000000,0.000000 HipLeft:0.112228,-0.688417,0.699683,-0.154695 HipRight:-0.104128,0.675325,0.710429,-0.168475 KneeLeft:-0.031592,0.712525,-0.056884,-0.698623 KneeRight:0.014133,0.700720,0.014802,0.713143 Neck:0.063117,-0.034261,0.994516,-0.076024 ShoulderLeft:-0.013119,0.787553,-0.608272,0.097944 ShoulderRight:0.069075,0.786185,0.614107,0.003927 SpineBase:0.008834,-0.025626,0.998714,-0.042848 SpineMid:0.035562,-0.026763,0.998120,-0.042147 SpineShoulder:0.063107,-0.029179,0.995843,-0.058850 ThumbLeft:0.000000,0.000000,0.000000,0.000000 ThumbRight:0.000000,0.000000,0.000000,0.000000 WristLeft:-0.183962,0.772439,0.203889,-0.572648 WristRight:-0.108502,0.975039,-0.014804,0.193153 END:
KINECT_DATA POSITION:22.693623,0.798737,-11.267387 HEAD_JOINT1:0.978521,0.168017,-0.000000,0.119446 LARM_JOINT2:0.838292,0.000000,-0.142556,-0.526255 LARM_JOINT3:0.921370,0.000000,-0.353412,-0.161791 LLEG_JOINT2:0.996823,0.019647,0.000000,0.077182 LLEG_JOINT4:0.993086,0.103278,0.000000,-0.055806 RARM_JOINT2:0.770630,0.000000,-0.078898,0.632380 RARM_JOINT3:0.964471,0.000000,0.206841,0.164353 RLEG_JOINT2:0.999710,0.020305,0.000000,0.012971 RLEG_JOINT4:0.995445,0.094839,0.000000,0.009687 WAIST:0.999872,0.000000,-0.011914,-0.010688 WAIST_JOINT0:0.997541,0.000000,-0.070041,0.002632 WAIST_JOINT1:0.997811,0.063228,0.000000,-0.019399 END:
KINECT_DATA_Sensor  AnkleLeft:0.091794,0.804100,-0.081669,-0.581659 AnkleRight:0.096182,0.750043,0.063993,0.651222 ElbowLeft:-0.132682,0.900894,-0.135406,-0.390449 ElbowRight:0.041051,0.829805,0.170395,0.529815 FootLeft:0.000000,0.000000,0.000000,0.000000 FootRight:0.000000,0.000000,0.000000,0.000000 HandLeft:-0.064618,-0.208218,-0.494974,0.841112 HandRight:-0.080125,0.988797,-0.083323,-0.094431 HandTipLeft:0.000000,0.000000,0.000000,0.000000 HandTipRight:0.000000,0.000000,0.000000,0.000000 Head:0.000000,0.000000,0.000000,0.000000 HipLeft:0.114896,-0.690831,0.696645,-0.155685 HipRight:-0.103304,0.672917,0.713251,-0.166686 KneeLeft:-0.033916,0.714413,-0.060466,-0.696281 KneeRight:0.016040,0.698694,0.012453,0.715132 Neck:0.068146,-0.036851,0.994192,-0.074697 ShoulderLeft:-0.016294,0.788220,-0.606987,0.100054 ShoulderRight:0.072301,0.784938,0.615265,0.009697 SpineBase:0.011599,-0.027999,0.998663,-0.041869 SpineMid:0.039418,-0.029155,0.997953,-0.041073 SpineShoulder:0.068120,-0.031487,0.995520,-0.057523 ThumbLeft:0.000000,0.000000,0.000000,0.000000 ThumbRight:0.000000,0.000000,0.000000,0.000000 WristLeft:-0.005937,-0.193461,-0.299433,0.934279 WristRight:-0.109573,0.990097,0.017393,-0.086023 END:
KINECT_DATA POSITION:22.668024,0.781795,-11.207747 HEAD_JOINT1:0.978707,0.166634,-0.000000,0.119856 LARM_JOINT2:0.843418,0.000000,-0.138133,-0.519197 LARM_JOINT3:0.896578,0.000000,-0.402564,-0.184633 LLEG_JOINT2:0.996536,0.020410,0.000000,0.080617 LLEG_JOINT4:0.992697,0.103410,0.000000,-0.062116 RARM_JOINT2:0.771675,0.000000,-0.082331,0.630666 RARM_JOINT3:0.963149,0.000000,0.211513,0.166150 RLEG_JOINT2:0.999650,0.021923,0.000000,0.014791 RLEG_JOINT4:0.995600,0.093199,0.000000,0.009688 WAIST:0.999847,0.000000,-0.012640,-0.012096 WAIST_JOINT0:0.997528,0.000000,-0.070263,0.000980 WAIST_JOINT1:0.997874,0.062063,0.000000,-0.019915 END:
KINECT_DATA_Sensor  AnkleLeft:0.090525,0.771240,-0.083890,-0.624465 AnkleRight:0.093304,0.717552,0.068102,0.686859 ElbowLeft:-0.140883,0.881477,-0.136434,-0.429576 ElbowRight:0.040993,0.829696,0.174132,0.528774 FootLeft:0.000000,0.000000,0.000000,0.000000 FootRight:0.000000,0.000000,0.000000,0.000000 HandLeft:-0.502022,0.829201,0.167208,0.180115 HandRight:-0.069945,0.978445,-0.094951,0.169524 HandTipLeft:0.000000,0.000000,0.000000,0.000000 HandTipRight:0.000000,0.000000,0.000000,0.000000 Head:0.000000,0.000000,0.000000,0.000000 HipLeft:0.116353,-0.691696,0.695561,-0.155609 HipRight:-0.104024,0.672013,0.714173,-0.165936 KneeLeft:-0.034885,0.714995,-0.062398,-0.695465 KneeRight:0.017474,0.697982,0.013259,0.715779 Neck:0.068569,-0.038683,0.994165,-0.073739 ShoulderLeft:-0.018619,0.789336,-0.605437,0.100237 ShoulderRight:0.070461,0.784526,0.615997,0.010078 SpineBase:0.012422,-0.028633,0.998682,-0.040755 SpineMid:0.040050,-0.029750,0.997956,-0.039947 SpineShoulder:0.068502,-0.033274,0.995511,-0.056197 ThumbLeft:0.000000,0.000000,0.000000,0.000000 ThumbRight:0.000000,0.000000,0.000000,0.000000 WristLeft:-0.352048,0.927969,0.036129,0.116751 WristRight:-0.111302,0.978263,-0.010492,0.174652 END:
KINECT_DATA POSITION:22.699879,0.762098,-11.157727 HEAD_JOINT1:0.978545,0.167551,-0.000000,0.119901 LARM_JOINT2:0.846753,0.000000,-0.130368,-0.515765 LARM_JOINT3:0.879767,0.000000,-0.426780,-0.209449 LLEG_JOINT2:0.996459,0.020166,0.000000,0.081631 LLEG_JOINT4:0.991977,0.102789,0.000000,-0.073594 RARM_JOINT2:0.768721,0.000000,-0.084274,0.634008 RARM_JOINT3:0.963911,0.000000,0.209801,0.163887 RLEG_JOINT2:0.999671,0.021877,0.000000,0.013395 RLEG_JOINT4:0.995462,0.094492,0.000000,0.011280 WAIST:0.999859,0.000000,-0.011990,-0.011777 WAIST_JOINT0:0.997501,0.000000,-0.070613,0.002166 WAIST_JOINT1:0.997859,0.061990,0.000000,-0.020844 END:
KINECT_DATA_Sensor  AnkleLeft:0.091112,0.726641,-0.081828,-0.676015 AnkleRight:0.089446,0.667457,0.075140,0.735428 ElbowLeft:-0.138472,0.879091,-0.143607,-0.432899 ElbowRight:0.042337,0.825102,0.171779,0.536568 FootLeft:0.000000,0.000000,0.000000,0.000000 FootRight:0.000000,0.000000,0.000000,0.000000 HandLeft:-0.514283,0.808258,0.207549,0.197880 HandRight:-0.047751,0.952492,-0.106595,0.281276 HandTipLeft:0.000000,0.000000,0.000000,0.000000 HandTipRight:0.000000,0.000000,0.000000,0.000000 Head:0.000000,0.000000,0.000000,0.000000 HipLeft:0.116663,-0.691520,0.695747,-0.155324 HipRight:-0.105412,0.671987,0.713786,-0.166829 KneeLeft:-0.035960,0.714472,-0.063187,-0.695877 KneeRight:0.016689,0.698475,0.014017,0.715303 Neck:0.068936,-0.039214,0.994104,-0.073948 ShoulderLeft:-0.019060,0.790107,-0.604408,0.100293 ShoulderRight:0.070391,0.785412,0.614865,0.010714 SpineBase:0.011753,-0.028563,0.998707,-0.040366 SpineMid:0.039889,-0.029689,0.997980,-0.039545 SpineShoulder:0.068827,-0.034039,0.995477,-0.055937 ThumbLeft:0.000000,0.000000,0.000000,0.000000 ThumbRight:0.000000,0.000000,0.000000,0.000000 WristLeft:-0.369427,0.920703,0.049053,0.115864 WristRight:-0.109431,0.952144,-0.021751,0.284559 END:
KINECT_DATA POSITION:22.749178,0.743774,-11.085522 HEAD_JOINT1:0.978380,0.168558,-0.000000,0.119840 LARM_JOINT2:0.847646,0.000000,-0.126625,-0.515230 LARM_JOINT3:0.873507,0.000000,-0.440509,-0.207213 LLEG_JOINT2:0.996524,0.020078,0.000000,0.080852 LLEG_JOINT4:0.992468,0.101647,0.000000,-0.068372 RARM_JOINT2:0.774427,0.000000,-0.089967,0.626234 RARM_JOINT3:0.961286,0.000000,0.214463,0.173015 RLEG_JOINT2:0.999672,0.022764,0.000000,0.011726 RLEG_JOINT4:0.995711,0.091826,0.000000,0.011329 WAIST:0.999870,0.000000,-0.011532,-0.011239 WAIST_JOINT0:0.997742,0.000000,-0.067156,0.000013 WAIST_JOINT1:0.997854,0.061933,0.000000,-0.021247 END:
KINECT_DATA_Sensor  AnkleLeft:0.088686,0.741496,-0.082602,-0.659920 AnkleRight:0.090265,0.696100,0.071169,0.708684 ElbowLeft:-0.136364,0.879116,-0.146730,-0.432469 ElbowRight:0.043279,0.828522,0.181482,0.527960 FootLeft:0.000000,0.000000,0.000000,0.000000 FootRight:0.000000,0.000000,0.000000,0.000000 HandLeft:-0.191610,-0.193944,-0.539759,0.796449 HandRight:-0.058679,0.959220,-0.102240,0.256907 HandTipLeft:0.000000,0.000000,0.000000,0.000000 HandTipRight:0.000000,0.000000,0.000000,0.000000 Head:0.000000,0.000000,0.000000,0.000000 HipLeft:0.116782,-0.691150,0.696148,-0.155084 HipRight:-0.106188,0.672200,0.713383,-0.167199 KneeLeft:-0.035813,0.714141,-0.062978,-0.696243 KneeRight:0.016535,0.698785,0.015462,0.714973 Neck:0.065716,-0.038776,0.994314,-0.074275 ShoulderLeft:-0.019075,0.790628,-0.603883,0.099338 ShoulderRight:0.066251,0.785402,0.615397,0.006419 SpineBase:0.011268,-0.028260,0.998732,-0.040102 SpineMid:0.038043,-0.029325,0.998071,-0.039330 SpineShoulder:0.065582,-0.033817,0.995707,-0.055887 ThumbLeft:0.000000,0.000000,0.000000,0.000000 ThumbRight:0.000000,0.000000,0.000000,0.000000 WristLeft:-0.051750,-0.122006,-0.373623,0.918064 WristRight:-0.110323,0.958860,-0.018382,0.260920 END:
KINECT_DATA POSITION:22.767097,0.738753,-11.034286 HEAD_JOINT1:0.978126,0.170017,-0.000000,0.119847 LARM_JOINT2:0.847981,0.000000,-0.122837,-0.515597 LARM_JOINT3:0.866046,0.000000,-0.456950,-0.202880 LLEG_JOINT2:0.996632,0.021008,0.000000,0.079270 LLEG_JOINT4:0.992753,0.099978,0.000000,-0.066680 RARM_JOINT2:0.770712,0.000000,-0.089697,0.630839 RARM_JOINT3:0.962451,0.000000,0.215997,0.164421 RLEG_JOINT2:0.999678,0.023116,0.000000,0.010458 RLEG_JOINT4:0.995566,0.093323,0.000000,0.011781 WAIST:0.999884,0.000000,-0.011336,-0.010149 WAIST_JOINT0:0.997703,0.000000,-0.067713,0.001695 WAIST_JOINT1:0.997834,0.061901,0.000000,-0.022242 END:
KINECT_DATA_Sensor  AnkleLeft:0.091315,0.772981,-0.078609,-0.622883 AnkleRight:0.094424,0.722194,0.068787,0.681753 ElbowLeft:-0.135310,0.874380,-0.147410,-0.442064 ElbowRight:0.044233,0.824404,0.176563,0.535935 FootLeft:0.000000,0.000000,0.000000,0.000000 FootRight:0.000000,0.000000,0.000000,0.000000 HandLeft:-0.564594,0.779836,0.188693,0.193608 HandRight:-0.066232,0.962641,-0.094326,0.245025 HandTipLeft:0.000000,0.000000,0.000000,0.000000 HandTipRight:0.000000,0.000000,0.000000,0.000000 Head:0.000000,0.000000,0.000000,0.000000 HipLeft:0.117102,-0.690427,0.696820,-0.155050 HipRight:-0.106667,0.672809,0.712602,-0.167774 KneeLeft:-0.034783,0.714036,-0.063314,-0.696373 KneeRight:0.016671,0.698965,0.015848,0.714786 Neck:0.066259,-0.038622,0.994275,-0.074402 ShoulderLeft:-0.018612,0.790809,-0.603714,0.099021 ShoulderRight:0.067334,0.785851,0.614691,0.007662 SpineBase:0.010989,-0.028156,0.998742,-0.040016 SpineMid:0.038165,-0.029235,0.998073,-0.039235 SpineShoulder:0.066108,-0.033822,0.995678,-0.055783 ThumbLeft:0.000000,0.000000,0.000000,0.000000 ThumbRight:0.000000,0.000000,0.000000,0.000000 WristLeft:-0.383108,0.914435,0.051815,0.119802 WristRight:-0.110283,0.961974,-0.016769,0.249325 END:
KINECT_DATA POSITION:22.762289,0.734115,-10.992932 HEAD_JOINT1:0.978199,0.170570,-0.000000,0.118456 LARM_JOINT2:0.847824,0.000000,-0.121579,-0.516152 LARM_JOINT3:0.864486,0.000000,-0.457918,-0.207303 LLEG_JOINT2:0.996709,0.021041,0.000000,0.078284 LLEG_JOINT4:0.992332,0.101737,0.000000,-0.070193 RARM_JOINT2:0.771799,0.000000,-0.090577,0.629382 RARM_JOINT3:0.961813,0.000000,0.215259,0.169055 RLEG_JOINT2:0.999689,0.023266,0.000000,0.008990 RLEG_JOINT4:0.995564,0.093336,0.000000,0.011884 WAIST:0.999900,0.000000,-0.010653,-0.009344 WAIST_JOINT0:0.997774,0.000000,-0.066674,0.001276 WAIST_JOINT1:0.997810,0.062035,0.000000,-0.022968 END:
KINECT_DATA_Sensor  AnkleLeft:0.089751,0.728659,-0.083044,-0.673872 AnkleRight:0.095367,0.734764,0.067680,0.668166 ElbowLeft:-0.135520,0.869384,-0.146469,-0.452054 ElbowRight:0.044455,0.825817,0.178360,0.533139 FootLeft:0.000000,0.000000,0.000000,0.000000 FootRight:0.000000,0.000000,0.000000,0.000000 HandLeft:-0.556072,0.774766,0.163238,0.252737 HandRight:-0.076371,0.988278,-0.091714,0.095196 HandTipLeft:0.000000,0.000000,0.000000,0.000000 HandTipRight:0.000000,0.000000,0.000000,0.000000 Head:0.000000,0.000000,0.000000,0.000000 HipLeft:0.116831,-0.689940,0.697429,-0.154679 HipRight:-0.107114,0.673162,0.712040,-0.168462 KneeLeft:-0.034576,0.713524,-0.063242,-0.696914 KneeRight:0.016315,0.699502,0.016449,0.714255 Neck:0.065289,-0.038468,0.994322,-0.074706 ShoulderLeft:-0.018288,0.790734,-0.603891,0.098601 ShoulderRight:0.066433,0.785625,0.615092,0.006475 SpineBase:0.010244,-0.028141,0.998748,-0.040076 SpineMid:0.037302,-0.029217,0.998103,-0.039299 SpineShoulder:0.065121,-0.033813,0.995738,-0.055868 ThumbLeft:0.000000,0.000000,0.000000,0.000000 ThumbRight:0.000000,0.000000,0.000000,0.000000 WristLeft:-0.395674,0.900671,0.024553,0.177851 WristRight:-0.111320,0.988596,-0.000287,0.101416 END:
KINECT_DATA POSITION:22.740618,0.742627,-10.973525 HEAD_JOINT1:0.978011,0.171768,-0.000000,0.118280 LARM_JOINT2:0.847458,0.000000,-0.120572,-0.516989 LARM_JOINT3:0.874139,0.000000,-0.446301,-0.191565 LLEG_JOINT2:0.996751,0.021911,0.000000,0.077503 LLEG_JOINT4:0.992801,0.098581,0.000000,-0.068034 RARM_JOINT2:0.768704,0.000000,-0.087617,0.633575 RARM_JOINT3:0.962335,0.000000,0.217268,0.163420 RLEG_JOINT2:0.999698,0.022924,0.000000,0.008875 RLEG_JOINT4:0.995641,0.092412,0.000000,0.012608 WAIST:0.999898,0.000000,-0.011041,-0.009077 WAIST_JOINT0:0.997662,0.000000,-0.068304,0.002120 WAIST_JOINT1:0.997814,0.061810,0.000000,-0.023376 END:
KINECT_DATA_Sensor  AnkleLeft:0.088968,0.745989,-0.080516,-0.655059 AnkleRight:0.092978,0.714135,0.068987,0.690367 ElbowLeft:-0.134827,0.868695,-0.145757,-0.453813 ElbowRight:0.044010,0.824433,0.173039,0.537057 FootLeft:0.000000,0.000000,0.000000,0.000000 FootRight:0.000000,0.000000,0.000000,0.000000 HandLeft:-0.166725,-0.162993,-0.514732,0.825037 HandRight:-0.075495,0.961308,-0.103131,0.244031 HandTipLeft:0.000000,0.000000,0.000000,0.000000 HandTipRight:0.000000,0.000000,0.000000,0.000000 Head:0.000000,0.000000,0.000000,0.000000 HipLeft:0.117365,-0.689704,0.697573,-0.154680 HipRight:-0.106985,0.673346,0.711949,-0.168187 KneeLeft:-0.033620,0.713862,-0.063491,-0.696591 KneeRight:0.016184,0.699255,0.016094,0.714508 Neck:0.066846,-0.038595,0.994233,-0.074454 ShoulderLeft:-0.017948,0.790865,-0.603746,0.098499 ShoulderRight:0.068695,0.785334,0.615183,0.009035 SpineBase:0.010604,-0.028358,0.998748,-0.039829 SpineMid:0.038247,-0.029450,0.998071,-0.039029 SpineShoulder:0.066669,-0.034009,0.995644,-0.055606 ThumbLeft:0.000000,0.000000,0.000000,0.000000 ThumbRight:0.000000,0.000000,0.000000,0.000000 WristLeft:-0.053990,-0.108743,-0.393103,0.911444 WristRight:-0.109667,0.961965,-0.017893,0.249551 END:
KINECT_DATA POSITION:22.689327,0.753468,-10.988522 HEAD_JOINT1:0.977728,0.173492,-0.000000,0.118106 LARM_JOINT2:0.844469,0.000000,-0.117682,-0.522516 LARM_JOINT3:0.879488,0.000000,-0.453256,-0.145119 LLEG_JOINT2:0.996746,0.022467,0.000000,0.077416 LLEG_JOINT4:0.993108,0.096512,0.000000,-0.066492 RARM_JOINT2:0.770083,0.000000,-0.087647,0.631894 RARM_JOINT3:0.963313,0.000000,0.211571,0.165125 RLEG_JOINT2:0.999695,0.022998,0.000000,0.009028 RLEG_JOINT4:0.995734,0.091373,0.000000,0.012863 WAIST:0.999897,0.000000,-0.011249,-0.008966 WAIST_JOINT0:0.997705,0.000000,-0.067705,0.001339 WAIST_JOINT1:0.997850,0.061088,0.000000,-0.023747 END:
KINECT_DATA_Sensor  AnkleLeft:0.087950,0.755907,-0.079415,-0.643866 AnkleRight:0.093174,0.719553,0.067196,0.684869 ElbowLeft:-0.134661,0.853431,-0.137253,-0.484441 ElbowRight:0.043336,0.827368,0.174515,0.532099 FootLeft:0.000000,0.000000,0.000000,0.000000 FootRight:0.000000,0.000000,0.000000,0.000000 HandLeft:-0.265715,0.120903,-0.483420,0.825278 HandRight:0.012245,0.617676,-0.110985,0.778466 HandTipLeft:0.000000,0.000000,0.000000,0.000000 HandTipRight:0.000000,0.000000,0.000000,0.000000 Head:0.000000,0.000000,0.000000,0.000000 HipLeft:0.117609,-0.689692,0.697651,-0.154198 HipRight:-0.106673,0.673515,0.711979,-0.167585 KneeLeft:-0.033258,0.714043,-0.063900,-0.696386 KneeRight:0.016425,0.699102,0.015954,0.714656 Neck:0.066293,-0.038655,0.994326,-0.073662 ShoulderLeft:-0.017846,0.791650,-0.602883,0.097485 ShoulderRight:0.067990,0.785400,0.615175,0.009128 SpineBase:0.010792,-0.028750,0.998751,-0.039426 SpineMid:0.038054,-0.029816,0.998084,-0.038626 SpineShoulder:0.066100,-0.034217,0.995712,-0.054938 ThumbLeft:0.000000,0.000000,0.000000,0.000000 ThumbRight:0.000000,0.000000,0.000000,0.000000 WristLeft:-0.151123,0.179030,-0.370764,0.898691 WristRight:-0.074634,0.603508,-0.082331,0.789576 END:
KINECT_DATA POSITION:22.687092,0.760103,-11.028564 HEAD_JOINT1:0.977623,0.174648,-0.000000,0.117270 LARM_JOINT2:0.843627,0.000000,-0.119728,-0.523411 LARM_JOINT3:0.877827,0.000000,-0.461153,-0.129452 LLEG_JOINT2:0.996924,0.022217,0.000000,0.075166 LLEG_JOINT4:0.992851,0.099207,0.000000,-0.066361 RARM_JOINT2:0.769903,0.000000,-0.087105,0.632188 RARM_JOINT3:0.962706,0.000000,0.214276,0.165174 RLEG_JOINT2:0.999709,0.023000,0.000000,0.007335 RLEG_JOINT4:0.995717,0.091655,0.000000,0.012166 WAIST:0.999913,0.000000,-0.010776,-0.007545 WAIST_JOINT0:0.997769,0.000000,-0.066750,0.001491 WAIST_JOINT1:0.997834,0.060895,0.000000,-0.024878 END:
KINECT_DATA_Sensor  AnkleLeft:0.090032,0.753061,-0.080762,-0.646739 AnkleRight:0.091615,0.708876,0.069631,0.695883 ElbowLeft:-0.139784,0.837141,-0.130910,-0.512365 ElbowRight:0.043001,0.827724,0.173743,0.531825 FootLeft:0.000000,0.000000,0.000000,0.000000 FootRight:0.000000,0.000000,0.000000,0.000000 HandLeft:-0.263983,0.634237,0.492491,-0.534330 HandRight:-0.003582,0.678793,-0.120154,0.724424 HandTipLeft:0.000000,0.000000,0.000000,0.000000 HandTipRight:0.000000,0.000000,0.000000,0.000000 Head:0.000000,0.000000,0.000000,0.000000 HipLeft:0.117238,-0.688890,0.698667,-0.153459 HipRight:-0.106774,0.674460,0.711053,-0.167648 KneeLeft:-0.032800,0.713656,-0.063163,-0.696872 KneeRight:0.016242,0.699512,0.016170,0.714254 Neck:0.065456,-0.038263,0.994405,-0.073560 ShoulderLeft:-0.017774,0.792116,-0.602352,0.096992 ShoulderRight:0.066929,0.785611,0.615035,0.008256 SpineBase:0.010221,-0.028470,0.998772,-0.039245 SpineMid:0.037349,-0.029526,0.998125,-0.038457 SpineShoulder:0.065253,-0.033968,0.995786,-0.054750 ThumbLeft:0.000000,0.000000,0.000000,0.000000 ThumbRight:0.000000,0.000000,0.000000,0.000000 WristLeft:-0.270553,0.683577,0.310911,-0.602377 WristRight:-0.081023,0.665681,-0.076754,0.737843 END:
KINECT_DATA POSITION:22.700867,0.757167,-11.032236 HEAD_JOINT1:0.977859,0.174096,-0.000000,0.116114 LARM_JOINT2:0.841637,0.000000,-0.129501,-0.524287 LARM_JOINT3:0.878194,0.000000,-0.462052,-0.123626 LLEG_JOINT2:0.997048,0.021868,0.000000,0.073602 LLEG_JOINT4:0.993243,0.097983,0.000000,-0.062190 RARM_JOINT2:0.772367,0.000000,-0.087234,0.629157 RARM_JOINT3:0.962402,0.000000,0.214232,0.166991 RLEG_JOINT2:0.999715,0.023068,0.000000,0.006086 RLEG_JOINT4:0.995779,0.091016,0.000000,0.011871 WAIST:0.999921,0.000000,-0.010744,-0.006593 WAIST_JOINT0:0.997840,0.000000,-0.065692,0.000930 WAIST_JOINT1:0.997813,0.061040,0.000000,-0.025363 END:
KINECT_DATA_Sensor  AnkleLeft:0.088955,0.772459,-0.079773,-0.623723 AnkleRight:0.093260,0.733648,0.066354,0.669821 ElbowLeft:-0.146194,0.831620,-0.122493,-0.521565 ElbowRight:0.042210,0.829271,0.176732,0.528482 FootLeft:0.000000,0.000000,0.000000,0.000000 FootRight:0.000000,0.000000,0.000000,0.000000 HandLeft:-0.468699,0.810708,0.319307,-0.145313 HandRight:-0.074778,0.981487,-0.089558,0.151889 HandTipLeft:0.000000,0.000000,0.000000,0.000000 HandTipRight:0.000000,0.000000,0.000000,0.000000 Head:0.000000,0.000000,0.000000,0.000000 HipLeft:0.117126,-0.688362,0.699220,-0.153398 HipRight:-0.106749,0.675191,0.710334,-0.167774 KneeLeft:-0.032602,0.713584,-0.062489,-0.697016 KneeRight:0.016091,0.699581,0.016437,0.714183 Neck:0.064579,-0.037558,0.994464,-0.073889 ShoulderLeft:-0.018399,0.791737,-0.602766,0.097402 ShoulderRight:0.065217,0.785277,0.615668,0.006313 SpineBase:0.010128,-0.028126,0.998781,-0.039290 SpineMid:0.036863,-0.029168,0.998151,-0.038523 SpineShoulder:0.064359,-0.033530,0.995850,-0.054914 ThumbLeft:0.000000,0.000000,0.000000,0.000000 ThumbRight:0.000000,0.000000,0.000000,0.000000 WristLeft:-0.389434,0.877934,0.151862,-0.233478 WristRight:-0.111662,0.981190,-0.008305,0.157253 END:
KINECT_DATA POSITION:22.699785,0.750288,-11.028099 HEAD_JOINT1:0.977937,0.173917,-0.000000,0.115723 LARM_JOINT2:0.841066,0.000000,-0.141361,-0.522135 LARM_JOINT3:0.881744,0.000000,-0.458245,-0.111981 LLEG_JOINT2:0.997121,0.022166,0.000000,0.072521 LLEG_JOINT4:0.993229,0.098057,0.000000,-0.062298 RARM_JOINT2:0.773675,0.000000,-0.088501,0.627371 RARM_JOINT3:0.961941,0.000000,0.214944,0.168729 RLEG_JOINT2:0.999724,0.022967,0.000000,0.004885 RLEG_JOINT4:0.995730,0.091036,0.000000,0.015318 WAIST:0.999920,0.000000,-0.011207,-0.005935 WAIST_JOINT0:0.997898,0.000000,-0.064808,0.000139 WAIST_JOINT1:0.997782,0.061293,0.000000,-0.025952 END:
KINECT_DATA_Sensor  AnkleLeft:0.087342,0.755422,-0.082056,-0.644186 AnkleRight:0.094710,0.728739,0.064709,0.675116 ElbowLeft:-0.154662,0.829587,-0.115735,-0.523899 ElbowRight:0.042657,0.829467,0.179054,0.527356 FootLeft:0.000000,0.000000,0.000000,0.000000 FootRight:0.000000,0.000000,0.000000,0.000000 HandLeft:-0.497804,0.823824,0.263305,-0.064623 HandRight:-0.068052,0.970159,-0.093248,0.213224 HandTipLeft:0.000000,0.000000,0.000000,0.000000 HandTipRight:0.000000,0.000000,0.000000,0.000000 Head:0.000000,0.000000,0.000000,0.000000 HipLeft:0.117387,-0.687885,0.699563,-0.153772 HipRight:-0.106375,0.675703,0.709911,-0.167739 KneeLeft:-0.032116,0.713902,-0.062392,-0.696721 KneeRight:0.015651,0.699305,0.016750,0.714456 Neck:0.063892,-0.037358,0.994485,-0.074305 ShoulderLeft:-0.019012,0.791704,-0.602693,0.098001 ShoulderRight:0.063766,0.784717,0.616549,0.004483 SpineBase:0.010539,-0.028000,0.998773,-0.039458 SpineMid:0.036730,-0.029025,0.998153,-0.038710 SpineShoulder:0.063667,-0.033395,0.995884,-0.055195 ThumbLeft:0.000000,0.000000,0.000000,0.000000 ThumbRight:0.000000,0.000000,0.000000,0.000000 WristLeft:-0.410140,0.892619,0.113877,-0.148487 WristRight:-0.111036,0.969542,-0.014795,0.217806 END:
KINECT_DATA POSITION:22.714619,0.733390,-10.990990 HEAD_JOINT1:0.977798,0.175165,-0.000000,0.115011 LARM_JOINT2:0.840080,0.000000,-0.159316,-0.518540 LARM_JOINT3:0.882256,0.000000,-0.459111,-0.104127 LLEG_JOINT2:0.997188,0.022111,0.000000,0.071608 LLEG_JOINT4:0.993000,0.098097,0.000000,-0.065785 RARM_JOINT2:0.774781,0.000000,-0.088433,0.626014 RARM_JOINT3:0.960983,0.000000,0.216241,0.172488 RLEG_JOINT2:0.999768,0.021183,0.000000,0.003946 RLEG_JOINT4:0.995552,0.093256,0.000000,0.013393 WAIST:0.999916,0.000000,-0.011799,-0.005445 WAIST_JOINT0:0.997883,0.000000,-0.065032,-0.000152 WAIST_JOINT1:0.997716,0.062221,0.000000,-0.026290 END:
KINECT_DATA_Sensor  AnkleLeft:0.087144,0.733612,-0.082145,-0.668933 AnkleRight:0.094544,0.738844,0.065254,0.664013 ElbowLeft:-0.167023,0.825814,-0.105388,-0.528231 ElbowRight:0.043163,0.830156,0.180785,0.525637 FootLeft:0.000000,0.000000,0.000000,0.000000 FootRight:0.000000,0.000000,0.000000,0.000000 HandLeft:-0.282242,0.669721,0.502528,-0.468271 HandRight:0.001284,0.662556,-0.126126,0.738316 HandTipLeft:0.000000,0.000000,0.000000,0.000000 HandTipRight:0.000000,0.000000,0.000000,0.000000 Head:0.000000,0.000000,0.000000,0.000000 HipLeft:0.117300,-0.687423,0.699876,-0.154480 HipRight:-0.105651,0.676051,0.709679,-0.167775 KneeLeft:-0.031891,0.714284,-0.062036,-0.696372 KneeRight:0.014073,0.699027,0.015816,0.714782 Neck:0.064283,-0.037209,0.994385,-0.075381 ShoulderLeft:-0.020358,0.791479,-0.602585,0.100193 ShoulderRight:0.063002,0.784489,0.616927,0.002849 SpineBase:0.011091,-0.027717,0.998751,-0.040060 SpineMid:0.037208,-0.028756,0.998119,-0.039322 SpineShoulder:0.064064,-0.033233,0.995812,-0.056118 ThumbLeft:0.000000,0.000000,0.000000,0.000000 ThumbRight:0.000000,0.000000,0.000000,0.000000 WristLeft:-0.318825,0.716824,0.290588,-0.547789 WristRight:-0.079801,0.648449,-0.076935,0.753144 END:
KINECT_DATA POSITION:22.703953,0.708426,-10.948133 HEAD_JOINT1:0.977629,0.175872,-0.000000,0.115374 LARM_JOINT2:0.839772,0.000000,-0.163722,-0.517666 LARM_JOINT3:0.888614,0.000000,-0.448393,-0.096483 LLEG_JOINT2:0.997181,0.022233,0.000000,0.071668 LLEG_JOINT4:0.992853,0.100985,0.000000,-0.063607 RARM_JOINT2:0.774895,0.000000,-0.088145,0.625914 RARM_JOINT3:0.961703,0.000000,0.214255,0.170944 RLEG_JOINT2:0.999779,0.020707,0.000000,0.003594 RLEG_JOINT4:0.995415,0.094569,0.000000,0.014367 WAIST:0.999907,0.000000,-0.012572,-0.005349 WAIST_JOINT0:0.997832,0.000000,-0.065809,-0.000026 WAIST_JOINT1:0.997688,0.062583,0.000000,-0.026484 END:
KINECT_DATA_Sensor  AnkleLeft:0.093470,0.778706,-0.079607,-0.615259 AnkleRight:0.095452,0.735732,0.065533,0.667302 ElbowLeft:-0.170280,0.823028,-0.101884,-0.532212 ElbowRight:0.043351,0.829930,0.181040,0.525891 FootLeft:0.000000,0.000000,0.000000,0.000000 FootRight:0.000000,0.000000,0.000000,0.000000 HandLeft:-0.460856,0.426974,-0.312847,0.712342 HandRight:-0.058895,0.954380,-0.100183,0.275053 HandTipLeft:0.000000,0.000000,0.000000,0.000000 HandTipRight:0.000000,0.000000,0.000000,0.000000 Head:0.000000,0.000000,0.000000,0.000000 HipLeft:0.117560,-0.687174,0.699928,-0.155153 HipRight:-0.104936,0.676131,0.709764,-0.167543 KneeLeft:-0.031968,0.714808,-0.062205,-0.695815 KneeRight:0.013564,0.698521,0.015652,0.715290 Neck:0.065115,-0.037307,0.994298,-0.075766 ShoulderLeft:-0.021530,0.791631,-0.602088,0.101722 ShoulderRight:0.062904,0.784797,0.616546,0.002677 SpineBase:0.011848,-0.027700,0.998728,-0.040427 SpineMid:0.038005,-0.028750,0.998075,-0.039687 SpineShoulder:0.064901,-0.033292,0.995735,-0.056495 ThumbLeft:0.000000,0.000000,0.000000,0.000000 ThumbRight:0.000000,0.000000,0.000000,0.000000 WristLeft:-0.269127,0.503110,-0.340333,0.747412 WristRight:-0.108634,0.953912,-0.020811,0.278957 END:
KINECT_DATA POSITION:22.697636,0.702019,-10.876238 HEAD_JOINT1:0.977355,0.177580,-0.000000,0.115074 LARM_JOINT2:0.839280,0.000000,-0.170440,-0.516294 LARM_JOINT3:0.888467,0.000000,-0.448946,-0.095262 LLEG_JOINT2:0.997208,0.021467,0.000000,0.071525 LLEG_JOINT4:0.993237,0.099522,0.000000,-0.059791 RARM_JOINT2:0.774360,0.000000,-0.087865,0.626615 RARM_JOINT3:0.962381,0.000000,0.211465,0.170602 RLEG_JOINT2:0.999761,0.021506,0.000000,0.003841 RLEG_JOINT4:0.995266,0.096281,0.000000,0.013216 WAIST:0.999917,0.000000,-0.011880,-0.005064 WAIST_JOINT0:0.997767,0.000000,-0.066786,-0.000965 WAIST_JOINT1:0.997649,0.063067,0.000000,-0.026812 END:
KINECT_DATA_Sensor  AnkleLeft:0.087671,0.766189,-0.082983,-0.631176 AnkleRight:0.098056,0.747425,0.066026,0.653744 ElbowLeft:-0.174204,0.822480,-0.098380,-0.532447 ElbowRight:0.043586,0.829673,0.180558,0.526444 FootLeft:0.000000,0.000000,0.000000,0.000000 FootRight:0.000000,0.000000,0.000000,0.000000 HandLeft:-0.302083,0.102377,-0.471224,0.822322 HandRight:-0.043876,0.939439,-0.103105,0.323882 HandTipLeft:0.000000,0.000000,0.000000,0.000000 HandTipRight:0.000000,0.000000,0.000000,0.000000 Head:0.000000,0.000000,0.000000,0.000000 HipLeft:0.116852,-0.687005,0.700251,-0.154978 HipRight:-0.104976,0.676149,0.709583,-0.168212 KneeLeft:-0.032563,0.714236,-0.061779,-0.696413 KneeRight:0.014503,0.698997,0.015845,0.714802 Neck:0.066150,-0.037575,0.994187,-0.076191 ShoulderLeft:-0.021542,0.791566,-0.602034,0.102537 ShoulderRight:0.064250,0.783606,0.617918,0.003355 SpineBase:0.011125,-0.027717,0.998718,-0.040869 SpineMid:0.038162,-0.028813,0.998051,-0.040104 SpineShoulder:0.065941,-0.033490,0.995637,-0.056893 ThumbLeft:0.000000,0.000000,0.000000,0.000000 ThumbRight:0.000000,0.000000,0.000000,0.000000 WristLeft:-0.127332,0.195516,-0.418436,0.877765 WristRight:-0.106671,0.938723,-0.025742,0.326737 END:
KINECT_DATA POSITION:22.682581,0.699162,-10.826265 HEAD_JOINT1:0.977110,0.178845,-0.000000,0.115195 LARM_JOINT2:0.839455,0.000000,-0.174444,-0.514669 LARM_JOINT3:0.895468,0.000000,-0.435672,-0.091247 LLEG_JOINT2:0.997161,0.022390,0.000000,0.071893 LLEG_JOINT4:0.992830,0.100968,0.000000,-0.063992 RARM_JOINT2:0.776592,0.000000,-0.089129,0.623668 RARM_JOINT3:0.960707,0.000000,0.213145,0.177794 RLEG_JOINT2:0.999751,0.021864,0.000000,0.004448 RLEG_JOINT4:0.995429,0.094469,0.000000,0.014062 WAIST:0.999895,0.000000,-0.013416,-0.005406 WAIST_JOINT0:0.997793,0.000000,-0.066367,-0.002176 WAIST_JOINT1:0.997645,0.063139,0.000000,-0.026782 END:
KINECT_DATA_Sensor  AnkleLeft:0.087732,0.733417,-0.086072,-0.668576 AnkleRight:0.098314,0.752429,0.063198,0.648222 ElbowLeft:-0.177087,0.824637,-0.096757,-0.528443 ElbowRight:0.044017,0.831385,0.184150,0.522446 FootLeft:0.000000,0.000000,0.000000,0.000000 FootRight:0.000000,0.000000,0.000000,0.000000 HandLeft:-0.267314,0.088618,-0.463406,0.840205 HandRight:0.017065,0.645833,-0.123636,0.753208 HandTipLeft:0.000000,0.000000,0.000000,0.000000 HandTipRight:0.000000,0.000000,0.000000,0.000000 Head:0.000000,0.000000,0.000000,0.000000 HipLeft:0.117728,-0.687050,0.699848,-0.155935 HipRight:-0.103991,0.676145,0.709932,-0.167364 KneeLeft:-0.032035,0.715381,-0.062404,-0.695205 KneeRight:0.014960,0.697863,0.015875,0.715899 Neck:0.065811,-0.037697,0.994190,-0.076376 ShoulderLeft:-0.022405,0.791627,-0.601801,0.103250 ShoulderRight:0.063002,0.783256,0.618496,0.002008 SpineBase:0.012677,-0.027837,0.998692,-0.040965 SpineMid:0.038778,-0.028899,0.998020,-0.040223 SpineShoulder:0.065602,-0.033583,0.995647,-0.057051 ThumbLeft:0.000000,0.000000,0.000000,0.000000 ThumbRight:0.000000,0.000000,0.000000,0.000000 WristLeft:-0.115625,0.167639,-0.421240,0.883790 WristRight:-0.077208,0.629205,-0.077294,0.769523 END:
KINECT_DATA POSITION:22.617968,0.694092,-10.778009 HEAD_JOINT1:0.976836,0.179782,-0.000000,0.116061 LARM_JOINT2:0.839031,0.000000,-0.182957,-0.512400 LARM_JOINT3:0.901357,0.000000,-0.424165,-0.087409 LLEG_JOINT2:0.997042,0.022192,0.000000,0.073580 LLEG_JOINT4:0.992698,0.101148,0.000000,-0.065726 RARM_JOINT2:0.771398,0.000000,-0.081963,0.631052 RARM_JOINT3:0.963136,0.000000,0.209928,0.168222 RLEG_JOINT2:0.999748,0.021782,0.000000,0.005417 RLEG_JOINT4:0.995386,0.095359,0.000000,0.010689 WAIST:0.999879,0.000000,-0.014510,-0.005634 WAIST_JOINT0:0.997421,0.000000,-0.071771,-0.000577 WAIST_JOINT1:0.997648,0.062920,0.000000,-0.027199 END:
KINECT_DATA_Sensor  AnkleLeft:0.095058,0.790199,-0.077839,-0.600409 AnkleRight:0.093862,0.717645,0.070523,0.686442 ElbowLeft:-0.182132,0.829250,-0.092880,-0.520141 ElbowRight:0.041705,0.829156,0.174680,0.529384 FootLeft:0.000000,0.000000,0.000000,0.000000 FootRight:0.000000,0.000000,0.000000,0.000000 HandLeft:-0.514037,0.709945,-0.099975,0.470902 HandRight:-0.056434,0.952983,-0.113332,0.275309 HandTipLeft:0.000000,0.000000,0.000000,0.000000 HandTipRight:0.000000,0.000000,0.000000,0.000000 Head:0.000000,0.000000,0.000000,0.000000 HipLeft:0.119022,-0.687055,0.699525,-0.156377 HipRight:-0.103601,0.676033,0.710198,-0.166927 KneeLeft:-0.033293,0.716083,-0.063240,-0.694347 KneeRight:0.015427,0.697070,0.015262,0.716675 Neck:0.070988,-0.038587,0.993821,-0.076104 ShoulderLeft:-0.023486,0.791439,-0.601692,0.105065 ShoulderRight:0.068457,0.783140,0.618008,0.008526 SpineBase:0.013762,-0.028621,0.998669,-0.040647 SpineMid:0.041877,-0.029754,0.997885,-0.039825 SpineShoulder:0.070777,-0.034379,0.995288,-0.056664 ThumbLeft:0.000000,0.000000,0.000000,0.000000 ThumbRight:0.000000,0.000000,0.000000,0.000000 WristLeft:-0.397542,0.790818,-0.173563,0.431790 WristRight:-0.107047,0.953952,-0.020160,0.279483 END:
KINECT_DATA POSITION:22.582714,0.687968,-10.725414 HEAD_JOINT1:0.976726,0.180146,-0.000000,0.116424 LARM_JOINT2:0.837825,0.000000,-0.190760,-0.511528 LARM_JOINT3:0.905381,0.000000,-0.417325,-0.078265 LLEG_JOINT2:0.996938,0.023801,0.000000,0.074482 LLEG_JOINT4:0.992618,0.100052,0.000000,-0.068544 RARM_JOINT2:0.771537,0.000000,-0.082488,0.630814 RARM_JOINT3:0.963180,0.000000,0.208672,0.169529 RLEG_JOINT2:0.999722,0.022774,0.000000,0.006158 RLEG_JOINT4:0.995616,0.092880,0.000000,0.011063 WAIST:0.999864,0.000000,-0.015468,-0.005760 WAIST_JOINT0:0.997386,0.000000,-0.072235,-0.001572 WAIST_JOINT1:0.997639,0.062861,0.000000,-0.027668 END:
KINECT_DATA_Sensor  AnkleLeft:0.089514,0.734790,-0.084843,-0.666988 AnkleRight:0.092553,0.707880,0.069942,0.696741 ElbowLeft:-0.186515,0.828584,-0.086574,-0.520735 ElbowRight:0.042165,0.829719,0.175416,0.528221 FootLeft:0.000000,0.000000,0.000000,0.000000 FootRight:0.000000,0.000000,0.000000,0.000000 HandLeft:0.069048,-0.415814,-0.515783,0.745854 HandRight:-0.122139,0.746324,-0.016742,-0.654067 HandTipLeft:0.000000,0.000000,0.000000,0.000000 HandTipRight:0.000000,0.000000,0.000000,0.000000 Head:0.000000,0.000000,0.000000,0.000000 HipLeft:0.119758,-0.686994,0.699351,-0.156863 HipRight:-0.102985,0.675994,0.710419,-0.166525 KneeLeft:-0.032782,0.716836,-0.064905,-0.693440 KneeRight:0.016575,0.696320,0.015491,0.717372 Neck:0.071563,-0.039123,0.993763,-0.076047 ShoulderLeft:-0.024622,0.791786,-0.601025,0.106005 ShoulderRight:0.068071,0.782680,0.618634,0.008407 SpineBase:0.014709,-0.029068,0.998642,-0.040652 SpineMid:0.042636,-0.030194,0.997840,-0.039823 SpineShoulder:0.071346,-0.034880,0.995232,-0.056627 ThumbLeft:0.000000,0.000000,0.000000,0.000000 ThumbRight:0.000000,0.000000,0.000000,0.000000 WristLeft:0.146025,-0.373097,-0.410789,0.818979 WristRight:-0.076505,0.762663,0.077353,-0.637581 END:
KINECT_DATA POSITION:22.564354,0.683555,-10.716475 HEAD_JOINT1:0.976574,0.180492,-0.000000,0.117160 LARM_JOINT2:0.835850,0.000000,-0.192374,-0.514147 LARM_JOINT3:0.906711,0.000000,-0.413913,-0.080934 LLEG_JOINT2:0.996874,0.024166,0.000000,0.075221 LLEG_JOINT4:0.992771,0.101422,0.000000,-0.064178 RARM_JOINT2:0.770160,0.000000,-0.080333,0.632771 RARM_JOINT3:0.964832,0.000000,0.204732,0.164875 RLEG_JOINT2:0.999699,0.023512,0.000000,0.006994 RLEG_JOINT4:0.995543,0.093771,0.000000,0.010014 WAIST:0.999855,0.000000,-0.015980,-0.005902 WAIST_JOINT0:0.997099,0.000000,-0.076089,-0.001837 WAIST_JOINT1:0.997619,0.062959,0.000000,-0.028150 END:
KINECT_DATA_Sensor  AnkleLeft:0.090431,0.758131,-0.086513,-0.639980 AnkleRight:0.093585,0.707946,0.071187,0.696409 ElbowLeft:-0.184817,0.829326,-0.082628,-0.520800 ElbowRight:0.041507,0.829482,0.173230,0.529366 FootLeft:0.000000,0.000000,0.000000,0.000000 FootRight:0.000000,0.000000,0.000000,0.000000 HandLeft:-0.497375,0.673583,-0.137098,0.529252 HandRight:-0.107244,0.752237,-0.019976,-0.649800 HandTipLeft:0.000000,0.000000,0.000000,0.000000 HandTipRight:0.000000,0.000000,0.000000,0.000000 Head:0.000000,0.000000,0.000000,0.000000 HipLeft:0.120092,-0.687023,0.699208,-0.157116 HipRight:-0.102513,0.675923,0.710595,-0.166353 KneeLeft:-0.032990,0.717193,-0.065564,-0.692998 KneeRight:0.017594,0.695902,0.015495,0.717754 Neck:0.075325,-0.040171,0.993449,-0.075968 ShoulderLeft:-0.027968,0.790981,-0.601321,0.109447 ShoulderRight:0.069662,0.782417,0.618750,0.010955 SpineBase:0.015213,-0.029478,0.998619,-0.040738 SpineMid:0.044765,-0.030671,0.997731,-0.039848 SpineShoulder:0.075129,-0.035595,0.994929,-0.056608 ThumbLeft:0.000000,0.000000,0.000000,0.000000 ThumbRight:0.000000,0.000000,0.000000,0.000000 WristLeft:-0.383147,0.752539,-0.204906,0.494872 WristRight:-0.076913,0.765879,0.076811,-0.633730 END:
KINECT_DATA POSITION:22.551924,0.683407,-10.718203 HEAD_JOINT1:0.976745,0.179842,-0.000000,0.116734 LARM_JOINT2:0.836412,0.000000,-0.193458,-0.512825 LARM_JOINT3:0.907642,0.000000,-0.411929,-0.080625 LLEG_JOINT2:0.996874,0.023977,0.000000,0.075283 LLEG_JOINT4:0.992983,0.098671,0.000000,-0.065187 RARM_JOINT2:0.768968,0.000000,-0.078889,0.634401 RARM_JOINT3:0.964857,0.000000,0.207145,0.161686 RLEG_JOINT2:0.999695,0.023636,0.000000,0.007200 RLEG_JOINT4:0.995480,0.094446,0.000000,0.009995 WAIST:0.999855,0.000000,-0.015963,-0.005870 WAIST_JOINT0:0.997051,0.000000,-0.076727,-0.001711 WAIST_JOINT1:0.997613,0.062944,0.000000,-0.028388 END:
KINECT_DATA_Sensor  AnkleLeft:0.088391,0.755115,-0.084368,-0.644105 AnkleRight:0.095156,0.716076,0.070451,0.687908 ElbowLeft:-0.186000,0.830764,-0.083303,-0.517972 ElbowRight:0.040994,0.828797,0.171259,0.531117 FootLeft:0.000000,0.000000,0.000000,0.000000 FootRight:0.000000,0.000000,0.000000,0.000000 HandLeft:-0.361090,0.318948,-0.368861,0.794876 HandRight:0.099656,-0.288810,-0.052966,0.950711 HandTipLeft:0.000000,0.000000,0.000000,0.000000 HandTipRight:0.000000,0.000000,0.000000,0.000000 Head:0.000000,0.000000,0.000000,0.000000 HipLeft:0.120055,-0.686985,0.699268,-0.157045 HipRight:-0.102386,0.675894,0.710629,-0.166403 KneeLeft:-0.033191,0.717156,-0.065493,-0.693035 KneeRight:0.017847,0.695912,0.015410,0.717740 Neck:0.075917,-0.040477,0.993401,-0.075851 ShoulderLeft:-0.027413,0.791273,-0.601009,0.109198 ShoulderRight:0.070935,0.782216,0.618837,0.012167 SpineBase:0.015184,-0.029680,0.998611,-0.040797 SpineMid:0.045045,-0.030887,0.997710,-0.039891 SpineShoulder:0.075726,-0.035819,0.994877,-0.056583 ThumbLeft:0.000000,0.000000,0.000000,0.000000 ThumbRight:0.000000,0.000000,0.000000,0.000000 WristLeft:-0.218762,0.381705,-0.373896,0.816484 WristRight:0.022105,-0.292241,-0.106539,0.950135 END:
KINECT_DATA POSITION:22.587543,0.680022,-10.695148 HEAD_JOINT1:0.977146,0.178817,-0.000000,0.114933 LARM_JOINT2:0.836296,0.000000,-0.195593,-0.512203 LARM_JOINT3:0.909038,0.000000,-0.409059,-0.079503 LLEG_JOINT2:0.996904,0.024516,0.000000,0.074711 LLEG_JOINT4:0.992681,0.098190,0.000000,-0.070308 RARM_JOINT2:0.768569,0.000000,-0.078138,0.634977 RARM_JOINT3:0.964856,0.000000,0.207952,0.160655 RLEG_JOINT2:0.999689,0.024162,0.000000,0.006166 RLEG_JOINT4:0.995635,0.092746,0.000000,0.010489 WAIST:0.999859,0.000000,-0.015858,-0.005445 WAIST_JOINT0:0.997048,0.000000,-0.076765,-0.001465 WAIST_JOINT1:0.997617,0.062762,0.000000,-0.028668 END:
KINECT_DATA_Sensor  AnkleLeft:0.089407,0.734534,-0.083289,-0.667480 AnkleRight:0.097408,0.748013,0.065219,0.653250 ElbowLeft:-0.187516,0.831661,-0.082618,-0.516094 ElbowRight:0.040405,0.828116,0.170274,0.532540 FootLeft:0.000000,0.000000,0.000000,0.000000 FootRight:0.000000,0.000000,0.000000,0.000000 HandLeft:-0.495617,0.675066,-0.140648,0.528079 HandRight:0.098739,-0.231602,-0.062847,0.965744 HandTipLeft:0.000000,0.000000,0.000000,0.000000 HandTipRight:0.000000,0.000000,0.000000,0.000000 Head:0.000000,0.000000,0.000000,0.000000 HipLeft:0.120152,-0.686745,0.699495,-0.157008 HipRight:-0.102755,0.676188,0.710258,-0.166564 KneeLeft:-0.032693,0.717115,-0.065788,-0.693072 KneeRight:0.017806,0.695979,0.016221,0.717658 Neck:0.075927,-0.040332,0.993422,-0.075640 ShoulderLeft:-0.026857,0.791423,-0.600940,0.108624 ShoulderRight:0.071457,0.782204,0.618780,0.012765 SpineBase:0.015059,-0.029394,0.998627,-0.040662 SpineMid:0.044995,-0.030600,0.997726,-0.039762 SpineShoulder:0.075738,-0.035685,0.994891,-0.056418 ThumbLeft:0.000000,0.000000,0.000000,0.000000 ThumbRight:0.000000,0.000000,0.000000,0.000000 WristLeft:-0.380755,0.752441,-0.204117,0.497186 WristRight:0.015375,-0.235946,-0.107962,0.965628 END:
KINECT_DATA POSITION:22.607229,0.676756,-10.692083 HEAD_JOINT1:0.977483,0.177456,-0.000000,0.114180 LARM_JOINT2:0.836448,0.000000,-0.196239,-0.511708 LARM_JOINT3:0.907690,0.000000,-0.411702,-0.081237 LLEG_JOINT2:0.996923,0.024909,0.000000,0.074330 LLEG_JOINT4:0.992715,0.098962,0.000000,-0.068726 RARM_JOINT2:0.766871,0.000000,-0.076477,0.637228 RARM_JOINT3:0.965999,0.000000,0.206351,0.155776 RLEG_JOINT2:0.999688,0.024347,0.000000,0.005629 RLEG_JOINT4:0.995817,0.090768,0.000000,0.010441 WAIST:0.999864,0.000000,-0.015704,-0.005137 WAIST_JOINT0:0.996976,0.000000,-0.077713,-0.000642 WAIST_JOINT1:0.997619,0.062612,0.000000,-0.028931 END:
KINECT_DATA_Sensor  AnkleLeft:0.090652,0.745470,-0.083651,-0.655026 AnkleRight:0.093556,0.725168,0.067602,0.678829 ElbowLeft:-0.188192,0.832344,-0.082843,-0.514708 ElbowRight:0.039803,0.826576,0.167337,0.535897 FootLeft:0.000000,0.000000,0.000000,0.000000 FootRight:0.000000,0.000000,0.000000,0.000000 HandLeft:-0.512869,0.712986,-0.095861,0.468431 HandRight:0.095847,-0.261932,-0.058168,0.958552 HandTipLeft:0.000000,0.000000,0.000000,0.000000 HandTipRight:0.000000,0.000000,0.000000,0.000000 Head:0.000000,0.000000,0.000000,0.000000 HipLeft:0.120066,-0.686610,0.699680,-0.156841 HipRight:-0.102904,0.676413,0.710000,-0.166664 KneeLeft:-0.032349,0.717028,-0.066029,-0.693156 KneeRight:0.017781,0.696094,0.016521,0.717540 Neck:0.076789,-0.040345,0.993373,-0.075410 ShoulderLeft:-0.026516,0.791646,-0.600695,0.108433 ShoulderRight:0.072825,0.782436,0.618291,0.014398 SpineBase:0.014887,-0.029293,0.998635,-0.040598 SpineMid:0.045338,-0.030518,0.997716,-0.039686 SpineShoulder:0.076600,-0.035711,0.994834,-0.056245 ThumbLeft:0.000000,0.000000,0.000000,0.000000 ThumbRight:0.000000,0.000000,0.000000,0.000000 WristLeft:-0.396951,0.793129,-0.169557,0.429681 WristRight:0.018144,-0.265646,-0.107254,0.957914 END:
KINECT_DATA POSITION:22.601513,0.680701,-10.691452 HEAD_JOINT1:0.977561,0.177456,-0.000000,0.113506 LARM_JOINT2:0.835066,0.000000,-0.196515,-0.513855 LARM_JOINT3:0.908699,0.000000,-0.409717,-0.079991 LLEG_JOINT2:0.996886,0.024823,0.000000,0.074854 LLEG_JOINT4:0.993409,0.094038,0.000000,-0.065543 RARM_JOINT2:0.769523,0.000000,-0.079278,0.633679 RARM_JOINT3:0.964742,0.000000,0.207020,0.162531 RLEG_JOINT2:0.999669,0.025062,0.000000,0.005762 RLEG_JOINT4:0.995742,0.091569,0.000000,0.010613 WAIST:0.999869,0.000000,-0.015332,-0.005234 WAIST_JOINT0:0.996999,0.000000,-0.077403,-0.001607 WAIST_JOINT1:0.997648,0.062189,0.000000,-0.028827 END:
KINECT_DATA_Sensor  AnkleLeft:0.083928,0.741037,-0.083558,-0.660937 AnkleRight:0.088312,0.661838,0.076665,0.740469 ElbowLeft:-0.186901,0.832691,-0.080804,-0.514941 ElbowRight:0.040013,0.828537,0.171705,0.531453 FootLeft:0.000000,0.000000,0.000000,0.000000 FootRight:0.000000,0.000000,0.000000,0.000000 HandLeft:-0.350357,0.293304,-0.384297,0.802209 HandRight:-0.048546,0.937290,-0.105681,0.328575 HandTipLeft:0.000000,0.000000,0.000000,0.000000 HandTipRight:0.000000,0.000000,0.000000,0.000000 Head:0.000000,0.000000,0.000000,0.000000 HipLeft:0.120041,-0.686733,0.699630,-0.156541 HipRight:-0.103315,0.676299,0.710010,-0.166830 KneeLeft:-0.032690,0.716760,-0.066278,-0.693393 KneeRight:0.018313,0.696307,0.016999,0.717309 Neck:0.076583,-0.040262,0.993438,-0.074800 ShoulderLeft:-0.028638,0.791332,-0.600833,0.109423 ShoulderRight:0.070506,0.782637,0.618335,0.013011 SpineBase:0.014523,-0.029379,0.998646,-0.040397 SpineMid:0.045047,-0.030600,0.997735,-0.039480 SpineShoulder:0.076387,-0.035744,0.994870,-0.055859 ThumbLeft:0.000000,0.000000,0.000000,0.000000 ThumbRight:0.000000,0.000000,0.000000,0.000000 WristLeft:-0.207735,0.357572,-0.377475,0.828554 WristRight:-0.106091,0.937033,-0.025475,0.331761 END:
KINECT_DATA POSITION:22.598566,0.683999,-10.692274 HEAD_JOINT1:0.977488,0.177784,-0.000000,0.113624 LARM_JOINT2:0.834711,0.000000,-0.201316,-0.512572 LARM_JOINT3:0.906936,0.000000,-0.415306,-0.070625 LLEG_JOINT2:0.996900,0.024305,0.000000,0.074825 LLEG_JOINT4:0.992773,0.099439,0.000000,-0.067182 RARM_JOINT2:0.772775,0.000000,-0.083734,0.629133 RARM_JOINT3:0.962426,0.000000,0.210540,0.171489 RLEG_JOINT2:0.999676,0.024720,0.000000,0.006037 RLEG_JOINT4:0.995878,0.090028,0.000000,0.011066 WAIST:0.999870,0.000000,-0.015208,-0.005361 WAIST_JOINT0:0.997258,0.000000,-0.073954,-0.002701 WAIST_JOINT1:0.997662,0.062045,0.000000,-0.028662 END:
KINECT_DATA_Sensor  AnkleLeft:0.089682,0.747535,-0.084533,-0.652689 AnkleRight:0.093644,0.724146,0.066988,0.679968 ElbowLeft:-0.190543,0.830482,-0.077419,-0.517686 ElbowRight:0.041437,0.830703,0.177646,0.525982 FootLeft:0.000000,0.000000,0.000000,0.000000 FootRight:0.000000,0.000000,0.000000,0.000000 HandLeft:-0.510983,0.658352,-0.162733,0.528192 HandRight:-0.054694,0.942530,-0.114376,0.309135 HandTipLeft:0.000000,0.000000,0.000000,0.000000 HandTipRight:0.000000,0.000000,0.000000,0.000000 Head:0.000000,0.000000,0.000000,0.000000 HipLeft:0.119991,-0.686822,0.699573,-0.156443 HipRight:-0.103421,0.676185,0.710097,-0.166854 KneeLeft:-0.032936,0.716649,-0.065799,-0.693542 KneeRight:0.018168,0.696406,0.016658,0.717225 Neck:0.073351,-0.039948,0.993697,-0.074773 ShoulderLeft:-0.028270,0.791789,-0.600473,0.108181 ShoulderRight:0.066769,0.782639,0.618819,0.009008 SpineBase:0.014410,-0.029414,0.998649,-0.040350 SpineMid:0.043381,-0.030573,0.997810,-0.039479 SpineShoulder:0.073144,-0.035546,0.995123,-0.055825 ThumbLeft:0.000000,0.000000,0.000000,0.000000 ThumbRight:0.000000,0.000000,0.000000,0.000000 WristLeft:-0.379980,0.743109,-0.212111,0.508343 WristRight:-0.106593,0.943427,-0.023759,0.313081 END:
KINECT_DATA POSITION:22.598879,0.681266,-10.698116 HEAD_JOINT1:0.977358,0.178325,-0.000000,0.113896 LARM_JOINT2:0.831643,0.000000,-0.208694,-0.514604 LARM_JOINT3:0.908457,0.000000,-0.412840,-0.065341 LLEG_JOINT2:0.996913,0.024389,0.000000,0.074629 LLEG_JOINT4:0.992523,0.099732,0.000000,-0.070361 RARM_JOINT2:0.772000,0.000000,-0.082357,0.630265 RARM_JOINT3:0.963484,0.000000,0.207669,0.169035 RLEG_JOINT2:0.999694,0.023979,0.000000,0.006054 RLEG_JOINT4:0.995881,0.090100,0.000000,0.010113 WAIST:0.999858,0.000000,-0.015942,-0.005492 WAIST_JOINT0:0.997102,0.000000,-0.076036,-0.002647 WAIST_JOINT1:0.997672,0.061895,0.000000,-0.028631 END:
KINECT_DATA_Sensor  AnkleLeft:0.090911,0.737236,-0.083742,-0.664233 AnkleRight:0.091998,0.718805,0.067940,0.685740 ElbowLeft:-0.192854,0.827394,-0.068276,-0.523035 ElbowRight:0.040962,0.830339,0.176015,0.527142 FootLeft:0.000000,0.000000,0.000000,0.000000 FootRight:0.000000,0.000000,0.000000,0.000000 HandLeft:-0.517779,0.654169,-0.155775,0.528868 HandRight:0.016070,0.646851,-0.118212,0.753227 HandTipLeft:0.000000,0.000000,0.000000,0.000000 HandTipRight:0.000000,0.000000,0.000000,0.000000 Head:0.000000,0.000000,0.000000,0.000000 HipLeft:0.120346,-0.686855,0.699417,-0.156723 HipRight:-0.102886,0.676251,0.710259,-0.166227 KneeLeft:-0.032695,0.717183,-0.065603,-0.693019 KneeRight:0.017564,0.695917,0.016205,0.717725 Neck:0.075435,-0.040097,0.993549,-0.074585 ShoulderLeft:-0.030422,0.791470,-0.600436,0.110117 ShoulderRight:0.067304,0.782676,0.618693,0.010362 SpineBase:0.015153,-0.029432,0.998640,-0.040284 SpineMid:0.044791,-0.030615,0.997750,-0.039393 SpineShoulder:0.075230,-0.035670,0.994973,-0.055643 ThumbLeft:0.000000,0.000000,0.000000,0.000000 ThumbRight:0.000000,0.000000,0.000000,0.000000 WristLeft:-0.382590,0.745131,-0.213234,0.502928 WristRight:-0.077452,0.630680,-0.076947,0.768325 END:
KINECT_DATA POSITION:22.590355,0.676865,-10.677158 HEAD_JOINT1:0.977306,0.178895,-0.000000,0.113446 LARM_JOINT2:0.848165,0.000000,-0.293141,-0.441231 LARM_JOINT3:0.929040,0.000000,-0.346406,-0.129954 LLEG_JOINT2:0.996898,0.024979,0.000000,0.074642 LLEG_JOINT4:0.992831,0.098109,0.000000,-0.068277 RARM_JOINT2:0.768063,0.000000,-0.077266,0.635695 RARM_JOINT3:0.965466,0.000000,0.204576,0.161318 RLEG_JOINT2:0.999699,0.023949,0.000000,0.005381 RLEG_JOINT4:0.995482,0.094394,0.000000,0.010240 WAIST:0.999838,0.000000,-0.017228,-0.005290 WAIST_JOINT0:0.996759,0.000000,-0.080433,-0.001420 WAIST_JOINT1:0.997688,0.061459,0.000000,-0.029024 END:
KINECT_DATA_Sensor  AnkleLeft:0.092026,0.766077,-0.080950,-0.630955 AnkleRight:0.094398,0.711431,0.071745,0.692682 ElbowLeft:-0.261618,0.918369,-0.124750,-0.269429 ElbowRight:0.039308,0.827872,0.168666,0.533512 FootLeft:0.000000,0.000000,0.000000,0.000000 FootRight:0.000000,0.000000,0.000000,0.000000 HandLeft:-0.373049,0.326469,-0.415777,0.762484 HandRight:-0.045482,0.938086,-0.107907,0.326008 HandTipLeft:0.000000,0.000000,0.000000,0.000000 HandTipRight:0.000000,0.000000,0.000000,0.000000 Head:0.000000,0.000000,0.000000,0.000000 HipLeft:0.121633,-0.686598,0.699332,-0.157237 HipRight:-0.102492,0.676568,0.710199,-0.165432 KneeLeft:-0.032520,0.718110,-0.066135,-0.692016 KneeRight:0.017233,0.695004,0.016498,0.718610 Neck:0.079766,-0.040428,0.993246,-0.073927 ShoulderLeft:-0.032445,0.791626,-0.599718,0.112310 ShoulderRight:0.070703,0.782899,0.617934,0.015135 SpineBase:0.016421,-0.029588,0.998632,-0.039854 SpineMid:0.047575,-0.030818,0.997634,-0.038911 SpineShoulder:0.079571,-0.035934,0.994652,-0.055177 ThumbLeft:0.000000,0.000000,0.000000,0.000000 ThumbRight:0.000000,0.000000,0.000000,0.000000 WristLeft:-0.254454,0.376874,-0.283584,0.844275 WristRight:-0.106258,0.937963,-0.025562,0.329060 END:
KINECT_DATA POSITION:22.561295,0.674471,-10.673785 HEAD_JOINT1:0.977124,0.179788,-0.000000,0.113601 LARM_JOINT2:0.848506,0.000000,-0.298213,-0.437158 LARM_JOINT3:0.932269,0.000000,-0.335829,-0.134512 LLEG_JOINT2:0.996877,0.025653,0.000000,0.074691 LLEG_JOINT4:0.992735,0.098229,0.000000,-0.069488 RARM_JOINT2:0.766386,0.000000,-0.076822,0.637770 RARM_JOINT3:0.965954,0.000000,0.203303,0.160001 RLEG_JOINT2:0.999699,0.023773,0.000000,0.005981 RLEG_JOINT4:0.995285,0.096370,0.000000,0.011022 WAIST:0.999819,0.000000,-0.018278,-0.005327 WAIST_JOINT0:0.996645,0.000000,-0.081849,-0.000631 WAIST_JOINT1:0.997743,0.060476,0.000000,-0.029189 END:
KINECT_DATA_Sensor  AnkleLeft:0.089855,0.739541,-0.084490,-0.661715 AnkleRight:0.096615,0.709748,0.071967,0.694078 ElbowLeft:-0.266072,0.920994,-0.127421,-0.254438 ElbowRight:0.039042,0.826200,0.165928,0.536970 FootLeft:0.000000,0.000000,0.000000,0.000000 FootRight:0.000000,0.000000,0.000000,0.000000 HandLeft:-0.312102,0.252358,-0.445950,0.800023 HandRight:0.020264,0.640437,-0.117371,0.758719 HandTipLeft:0.000000,0.000000,0.000000,0.000000 HandTipRight:0.000000,0.000000,0.000000,0.000000 Head:0.000000,0.000000,0.000000,0.000000 HipLeft:0.122596,-0.686577,0.699153,-0.157372 HipRight:-0.102013,0.676773,0.710318,-0.164381 KneeLeft:-0.032127,0.718903,-0.066593,-0.691167 KneeRight:0.017509,0.694233,0.015948,0.719361 Neck:0.081243,-0.040595,0.993203,-0.072794 ShoulderLeft:-0.034342,0.791607,-0.599505,0.113017 ShoulderRight:0.070651,0.783190,0.617528,0.016787 SpineBase:0.017475,-0.029796,0.998629,-0.039321 SpineMid:0.048838,-0.031017,0.997588,-0.038366 SpineShoulder:0.081052,-0.036040,0.994579,-0.054253 ThumbLeft:0.000000,0.000000,0.000000,0.000000 ThumbRight:0.000000,0.000000,0.000000,0.000000 WristLeft:-0.227691,0.284987,-0.304662,0.879841 WristRight:-0.077114,0.623540,-0.078267,0.774032 END:
KINECT_DATA POSITION:22.542002,0.667148,-10.703444 HEAD_JOINT1:0.977016,0.180480,-0.000000,0.113428 LARM_JOINT2:0.849885,0.000000,-0.299848,-0.433344 LARM_JOINT3:0.932607,0.000000,-0.333562,-0.137774 LLEG_JOINT2:0.996890,0.026078,0.000000,0.074367 LLEG_JOINT4:0.993021,0.096740,0.000000,-0.067456 RARM_JOINT2:0.765826,0.000000,-0.077655,0.638342 RARM_JOINT3:0.965854,0.000000,0.203571,0.160265 RLEG_JOINT2:0.999706,0.023471,0.000000,0.006075 RLEG_JOINT4:0.995458,0.094639,0.000000,0.010301 WAIST:0.999805,0.000000,-0.019079,-0.005069 WAIST_JOINT0:0.996711,0.000000,-0.081043,-0.000392 WAIST_JOINT1:0.997782,0.059688,0.000000,-0.029461 END:
KINECT_DATA_Sensor  AnkleLeft:0.087251,0.737084,-0.085690,-0.664644 AnkleRight:0.096150,0.721480,0.069129,0.682234 ElbowLeft:-0.269258,0.921469,-0.130720,-0.247603 ElbowRight:0.039371,0.825547,0.165098,0.538205 FootLeft:0.000000,0.000000,0.000000,0.000000 FootRight:0.000000,0.000000,0.000000,0.000000 HandLeft:-0.320308,0.270700,-0.435855,0.796338 HandRight:0.017341,0.654222,-0.118129,0.746819 HandTipLeft:0.000000,0.000000,0.000000,0.000000 HandTipRight:0.000000,0.000000,0.000000,0.000000 Head:0.000000,0.000000,0.000000,0.000000 HipLeft:0.123327,-0.686477,0.699157,-0.157219 HipRight:-0.101720,0.677239,0.710159,-0.163321 KneeLeft:-0.031831,0.719500,-0.066829,-0.690536 KneeRight:0.017549,0.693657,0.015473,0.719925 Neck:0.080583,-0.040407,0.993312,-0.072152 ShoulderLeft:-0.034231,0.792615,-0.598379,0.111943 ShoulderRight:0.069771,0.783477,0.617263,0.016795 SpineBase:0.018270,-0.029761,0.998642,-0.038668 SpineMid:0.048906,-0.030933,0.997611,-0.037736 SpineShoulder:0.080384,-0.035901,0.994678,-0.053529 ThumbLeft:0.000000,0.000000,0.000000,0.000000 ThumbRight:0.000000,0.000000,0.000000,0.000000 WristLeft:-0.234660,0.303583,-0.299030,0.873701 WristRight:-0.078576,0.637483,-0.077855,0.762483 END:
KINECT_DATA POSITION:22.501400,0.660994,-10.760021 HEAD_JOINT1:0.976969,0.180752,-0.000000,0.113404 LARM_JOINT2:0.850672,0.000000,-0.298913,-0.432444 LARM_JOINT3:0.931670,0.000000,-0.334494,-0.141794 LLEG_JOINT2:0.996857,0.025818,0.000000,0.074897 LLEG_JOINT4:0.992680,0.099493,0.000000,-0.068463 RARM_JOINT2:0.767764,0.000000,-0.079166,0.635824 RARM_JOINT3:0.965746,0.000000,0.201948,0.162946 RLEG_JOINT2:0.999703,0.023473,0.000000,0.006500 RLEG_JOINT4:0.995579,0.093394,0.000000,0.010004 WAIST:0.999799,0.000000,-0.019393,-0.005112 WAIST_JOINT0:0.996725,0.000000,-0.080857,-0.000763 WAIST_JOINT1:0.997802,0.059389,0.000000,-0.029410 END:
KINECT_DATA_Sensor  AnkleLeft:0.089928,0.741040,-0.086477,-0.659769 AnkleRight:0.091445,0.683258,0.073293,0.720711 ElbowLeft:-0.269500,0.921354,-0.132217,-0.246970 ElbowRight:0.039664,0.827936,0.167962,0.533607 FootLeft:0.000000,0.000000,0.000000,0.000000 FootRight:0.000000,0.000000,0.000000,0.000000 HandLeft:-0.346851,0.309930,-0.412731,0.783129 HandRight:0.022756,0.639208,-0.107537,0.761138 HandTipLeft:0.000000,0.000000,0.000000,0.000000 HandTipRight:0.000000,0.000000,0.000000,0.000000 Head:0.000000,0.000000,0.000000,0.000000 HipLeft:0.123674,-0.686526,0.699075,-0.157103 HipRight:-0.101739,0.677307,0.710197,-0.162864 KneeLeft:-0.032386,0.719696,-0.066969,-0.690293 KneeRight:0.017818,0.693410,0.015191,0.720162 Neck:0.080443,-0.040295,0.993340,-0.071972 ShoulderLeft:-0.035329,0.792269,-0.598704,0.112316 ShoulderRight:0.068534,0.783521,0.617363,0.016138 SpineBase:0.018592,-0.029758,0.998650,-0.038306 SpineMid:0.048994,-0.030911,0.997621,-0.037382 SpineShoulder:0.080235,-0.035851,0.994708,-0.053228 ThumbLeft:0.000000,0.000000,0.000000,0.000000 ThumbRight:0.000000,0.000000,0.000000,0.000000 WristLeft:-0.250317,0.347588,-0.286573,0.856971 WristRight:-0.076652,0.622633,-0.080318,0.774598 END:
KINECT_DATA POSITION:22.495579,0.648330,-10.798264 HEAD_JOINT1:0.977086,0.179951,-0.000000,0.113671 LARM_JOINT2:0.851186,0.000000,-0.296939,-0.432793 LARM_JOINT3:0.928286,0.000000,-0.347510,-0.132372 LLEG_JOINT2:0.996894,0.025210,0.000000,0.074605 LLEG_JOINT4:0.992854,0.099685,0.000000,-0.065606 RARM_JOINT2:0.772072,0.000000,-0.082657,0.630137 RARM_JOINT3:0.963305,0.000000,0.209126,0.168254 RLEG_JOINT2:0.999724,0.022750,0.000000,0.005915 RLEG_JOINT4:0.995436,0.094663,0.000000,0.012068 WAIST:0.999806,0.000000,-0.019000,-0.005197 WAIST_JOINT0:0.996823,0.000000,-0.079621,-0.001937 WAIST_JOINT1:0.997821,0.059299,0.000000,-0.028913 END:
KINECT_DATA_Sensor  AnkleLeft:0.091079,0.764231,-0.084738,-0.632831 AnkleRight:0.094390,0.699383,0.070616,0.704959 ElbowLeft:-0.268922,0.920164,-0.132660,-0.251755 ElbowRight:0.040182,0.831135,0.174626,0.526409 FootLeft:0.000000,0.000000,0.000000,0.000000 FootRight:0.000000,0.000000,0.000000,0.000000 HandLeft:-0.317597,0.241825,-0.469981,0.787255 HandRight:-0.066274,0.959562,-0.097368,0.255673 HandTipLeft:0.000000,0.000000,0.000000,0.000000 HandTipRight:0.000000,0.000000,0.000000,0.000000 Head:0.000000,0.000000,0.000000,0.000000 HipLeft:0.123415,-0.686660,0.699047,-0.156844 HipRight:-0.102142,0.677269,0.710172,-0.162877 KneeLeft:-0.032515,0.719409,-0.066280,-0.690652 KneeRight:0.016827,0.693730,0.015181,0.719878 Neck:0.079252,-0.039779,0.993457,-0.071966 ShoulderLeft:-0.037189,0.791116,-0.599951,0.113185 ShoulderRight:0.065333,0.783360,0.617983,0.013217 SpineBase:0.018224,-0.029444,0.998672,-0.038147 SpineMid:0.048218,-0.030576,0.997674,-0.037245 SpineShoulder:0.079040,-0.035436,0.994822,-0.053154 ThumbLeft:0.000000,0.000000,0.000000,0.000000 ThumbRight:0.000000,0.000000,0.000000,0.000000 WristLeft:-0.228740,0.278185,-0.307590,0.880727 WristRight:-0.109196,0.959186,-0.019680,0.260099 END:
KINECT_DATA POSITION:22.516218,0.630467,-10.805380 HEAD_JOINT1:0.977571,0.177022,-0.000000,0.114098 LARM_JOINT2:0.856289,0.000000,-0.299050,-0.421115 LARM_JOINT3:0.926538,0.000000,-0.354956,-0.124630 LLEG_JOINT2:0.996991,0.025427,0.000000,0.073230 LLEG_JOINT4:0.992591,0.101339,0.000000,-0.067039 RARM_JOINT2:0.770460,0.000000,-0.081393,0.632271 RARM_JOINT3:0.963564,0.000000,0.210644,0.164846 RLEG_JOINT2:0.999747,0.021961,0.000000,0.004814 RLEG_JOINT4:0.995402,0.095177,0.000000,0.010782 WAIST:0.999799,0.000000,-0.019569,-0.004381 WAIST_JOINT0:0.996783,0.000000,-0.080132,-0.001614 WAIST_JOINT1:0.997825,0.059139,0.000000,-0.029118 END:
KINECT_DATA_Sensor  AnkleLeft:0.093690,0.763775,-0.084602,-0.633019 AnkleRight:0.090567,0.673521,0.074803,0.729775 ElbowLeft:-0.277423,0.916759,-0.141431,-0.250174 ElbowRight:0.040029,0.829020,0.171448,0.530781 FootLeft:0.000000,0.000000,0.000000,0.000000 FootRight:0.000000,0.000000,0.000000,0.000000 HandLeft:-0.568944,0.728918,-0.116380,0.362542 HandRight:-0.074271,0.965525,-0.097198,0.229776 HandTipLeft:0.000000,0.000000,0.000000,0.000000 HandTipRight:0.000000,0.000000,0.000000,0.000000 Head:0.000000,0.000000,0.000000,0.000000 HipLeft:0.123758,-0.686148,0.699431,-0.157105 HipRight:-0.101915,0.678019,0.709573,-0.162511 KneeLeft:-0.031989,0.719804,-0.066037,-0.690289 KneeRight:0.016079,0.693403,0.014837,0.720218 Neck:0.079926,-0.038911,0.993446,-0.071859 ShoulderLeft:-0.037530,0.791426,-0.599447,0.113573 ShoulderRight:0.065754,0.783255,0.618060,0.013805 SpineBase:0.018749,-0.028969,0.998680,-0.038045 SpineMid:0.048813,-0.030102,0.997663,-0.037155 SpineShoulder:0.079703,-0.034871,0.994795,-0.053047 ThumbLeft:0.000000,0.000000,0.000000,0.000000 ThumbRight:0.000000,0.000000,0.000000,0.000000 WristLeft:-0.383212,0.814381,-0.064531,0.431008 WristRight:-0.110477,0.965557,-0.017147,0.234947 END:
KINECT_DATA POSITION:22.548666,0.624018,-10.813629 HEAD_JOINT1:0.977713,0.176257,-0.000000,0.114064 LARM_JOINT2:0.858384,0.000000,-0.316397,-0.403818 LARM_JOINT3:0.932630,0.000000,-0.346449,-0.100868 LLEG_JOINT2:0.997140,0.023972,0.000000,0.071677 LLEG_JOINT4:0.992732,0.101878,0.000000,-0.064060 RARM_JOINT2:0.771965,0.000000,-0.083387,0.630172 RARM_JOINT3:0.962703,0.000000,0.212144,0.167921 RLEG_JOINT2:0.999761,0.021587,0.000000,0.003592 RLEG_JOINT4:0.995319,0.095847,0.000000,0.012408 WAIST:0.999831,0.000000,-0.017964,-0.003827 WAIST_JOINT0:0.996901,0.000000,-0.078617,-0.002918 WAIST_JOINT1:0.997823,0.059218,0.000000,-0.029027 END:
KINECT_DATA_Sensor  AnkleLeft:0.090526,0.753057,-0.086773,-0.645895 AnkleRight:0.095051,0.711109,0.069707,0.693131 ElbowLeft:-0.299426,0.907258,-0.138951,-0.260614 ElbowRight:0.040533,0.830004,0.173857,0.528417 FootLeft:0.000000,0.000000,0.000000,0.000000 FootRight:0.000000,0.000000,0.000000,0.000000 HandLeft:-0.328793,0.305199,-0.488750,0.748246 HandRight:-0.005066,0.671185,-0.122982,0.731000 HandTipLeft:0.000000,0.000000,0.000000,0.000000 HandTipRight:0.000000,0.000000,0.000000,0.000000 Head:0.000000,0.000000,0.000000,0.000000 HipLeft:0.122026,-0.686046,0.700134,-0.155767 HipRight:-0.102473,0.678273,0.709163,-0.162889 KneeLeft:-0.032177,0.718604,-0.064352,-0.691688 KneeRight:0.015336,0.694606,0.015096,0.719069 Neck:0.078737,-0.038249,0.993559,-0.071963 ShoulderLeft:-0.038054,0.792705,-0.597694,0.113720 ShoulderRight:0.063620,0.782997,0.618655,0.011567 SpineBase:0.017129,-0.028350,0.998725,-0.038086 SpineMid:0.047408,-0.029492,0.997747,-0.037208 SpineShoulder:0.078505,-0.034395,0.994905,-0.053081 ThumbLeft:0.000000,0.000000,0.000000,0.000000 ThumbRight:0.000000,0.000000,0.000000,0.000000 WristLeft:-0.243855,0.347639,-0.321571,0.846330 WristRight:-0.081017,0.658230,-0.078214,0.744347 END:
KINECT_DATA POSITION:22.663931,0.619915,-10.898542 HEAD_JOINT1:0.977555,0.176636,-0.000000,0.114830 LARM_JOINT2:0.858240,0.000000,-0.347630,-0.377594 LARM_JOINT3:0.946456,0.000000,-0.315379,-0.068975 LLEG_JOINT2:0.997512,0.020464,0.000000,0.067459 LLEG_JOINT4:0.992653,0.104831,0.000000,-0.060420 RARM_JOINT2:0.772860,0.000000,-0.083692,0.629034 RARM_JOINT3:0.962776,0.000000,0.212701,0.166798 RLEG_JOINT2:0.999790,0.020432,0.000000,0.001367 RLEG_JOINT4:0.994982,0.098854,0.000000,0.015425 WAIST:0.999905,0.000000,-0.013547,-0.002622 WAIST_JOINT0:0.996953,0.000000,-0.077949,-0.002997 WAIST_JOINT1:0.997803,0.059673,0.000000,-0.028768 END:
KINECT_DATA_Sensor  AnkleLeft:0.089798,0.747885,-0.086865,-0.651965 AnkleRight:0.090410,0.645239,0.078856,0.754503 ElbowLeft:-0.331791,0.897109,-0.135907,-0.258146 ElbowRight:0.040209,0.831624,0.174461,0.525688 FootLeft:0.000000,0.000000,0.000000,0.000000 FootRight:0.000000,0.000000,0.000000,0.000000 HandLeft:0.548319,-0.640663,0.270638,-0.464385 HandRight:-0.071021,0.967012,-0.093723,0.225965 HandTipLeft:0.000000,0.000000,0.000000,0.000000 HandTipRight:0.000000,0.000000,0.000000,0.000000 Head:0.000000,0.000000,0.000000,0.000000 HipLeft:0.117739,-0.685718,0.701779,-0.153084 HipRight:-0.104121,0.678608,0.708225,-0.164521 KneeLeft:-0.032190,0.715348,-0.059882,-0.695453 KneeRight:0.013755,0.697893,0.015113,0.715910 Neck:0.078213,-0.037329,0.993623,-0.072121 ShoulderLeft:-0.038792,0.792845,-0.597311,0.114506 ShoulderRight:0.062215,0.783285,0.618462,0.009902 SpineBase:0.012687,-0.026622,0.998818,-0.038640 SpineMid:0.044947,-0.027856,0.997887,-0.037759 SpineShoulder:0.078006,-0.033434,0.994961,-0.053378 ThumbLeft:0.000000,0.000000,0.000000,0.000000 ThumbRight:0.000000,0.000000,0.000000,0.000000 WristLeft:-0.359193,0.737767,-0.195926,0.536929 WristRight:-0.111653,0.966416,-0.018544,0.230717 END:
KINECT_DATA POSITION:22.775515,0.633079,-10.950459 HEAD_JOINT1:0.977441,0.177115,-0.000000,0.115064 LARM_JOINT2:0.858781,0.000000,-0.360480,-0.364075 LARM_JOINT3:0.953886,0.000000,-0.298381,-0.032714 LLEG_JOINT2:0.997731,0.018563,0.000000,0.064711 LLEG_JOINT4:0.993073,0.100738,0.000000,-0.060480 RARM_JOINT2:0.774270,0.000000,-0.083919,0.627266 RARM_JOINT3:0.962365,0.000000,0.213649,0.167951 RLEG_JOINT2:0.999806,0.019684,0.000000,-0.000796 RLEG_JOINT4:0.994821,0.100308,0.000000,0.016442 WAIST:0.999942,0.000000,-0.010672,-0.001589 WAIST_JOINT0:0.996850,0.000000,-0.079244,-0.003079 WAIST_JOINT1:0.997777,0.060127,0.000000,-0.028729 END:
KINECT_DATA_Sensor  AnkleLeft:0.089838,0.771215,-0.077981,-0.625360 AnkleRight:0.098546,0.723579,0.069653,0.679610 ElbowLeft:-0.351072,0.881724,-0.124184,-0.289636 ElbowRight:0.039697,0.832889,0.175971,0.523216 FootLeft:0.000000,0.000000,0.000000,0.000000 FootRight:0.000000,0.000000,0.000000,0.000000 HandLeft:0.571271,-0.639973,0.274707,-0.434305 HandRight:-0.063825,0.950467,-0.101229,0.286863 HandTipLeft:0.000000,0.000000,0.000000,0.000000 HandTipRight:0.000000,0.000000,0.000000,0.000000 Head:0.000000,0.000000,0.000000,0.000000 HipLeft:0.115188,-0.685303,0.702868,-0.151880 HipRight:-0.105457,0.679032,0.707296,-0.165910 KneeLeft:-0.032124,0.713239,-0.057418,-0.697826 KneeRight:0.012400,0.700034,0.015450,0.713835 Neck:0.079389,-0.036728,0.993542,-0.072272 ShoulderLeft:-0.041314,0.791023,-0.599061,0.117055 ShoulderRight:0.061407,0.783184,0.618683,0.009151 SpineBase:0.009786,-0.025067,0.998871,-0.039147 SpineMid:0.044111,-0.026397,0.997945,-0.038262 SpineShoulder:0.079203,-0.032789,0.994870,-0.053715 ThumbLeft:0.000000,0.000000,0.000000,0.000000 ThumbRight:0.000000,0.000000,0.000000,0.000000 WristLeft:-0.354097,0.764599,-0.226445,0.488597 WristRight:-0.110511,0.949921,-0.025587,0.291175 END:
KINECT_DATA POSITION:22.850830,0.652144,-11.047697 HEAD_JOINT1:0.977493,0.176754,-0.000000,0.115179 LARM_JOINT2:0.860862,0.000000,-0.366371,-0.353113 LARM_JOINT3:0.961151,0.000000,-0.275559,0.016024 LLEG_JOINT2:0.997949,0.016208,0.000000,0.061920 LLEG_JOINT4:0.992741,0.105750,0.000000,-0.057296 RARM_JOINT2:0.770569,0.000000,-0.079905,0.632328 RARM_JOINT3:0.964351,0.000000,0.211040,0.159651 RLEG_JOINT2:0.999806,0.019468,0.000000,-0.003010 RLEG_JOINT4:0.994887,0.099401,0.000000,0.017857 WAIST:0.999971,0.000000,-0.007645,0.000163 WAIST_JOINT0:0.996713,0.000000,-0.081008,0.000354 WAIST_JOINT1:0.997717,0.060896,0.000000,-0.029207 END:
KINECT_DATA_Sensor  AnkleLeft:0.091734,0.776326,-0.079980,-0.618471 AnkleRight:0.092046,0.666149,0.076518,0.736151 ElbowLeft:-0.372354,0.839820,-0.088546,-0.384986 ElbowRight:0.038735,0.829827,0.169116,0.530365 FootLeft:0.000000,0.000000,0.000000,0.000000 FootRight:0.000000,0.000000,0.000000,0.000000 HandLeft:-0.496020,0.635915,-0.363927,0.465976 HandRight:-0.058859,0.959002,-0.101005,0.258165 HandTipLeft:0.000000,0.000000,0.000000,0.000000 HandTipRight:0.000000,0.000000,0.000000,0.000000 Head:0.000000,0.000000,0.000000,0.000000 HipLeft:0.112696,-0.684372,0.704422,-0.150743 HipRight:-0.106713,0.679747,0.705916,-0.168043 KneeLeft:-0.032869,0.710911,-0.055105,-0.700349 KneeRight:0.011889,0.702300,0.015676,0.711610 Neck:0.081124,-0.035908,0.993389,-0.072851 ShoulderLeft:-0.040021,0.789800,-0.600696,0.117381 ShoulderRight:0.064893,0.783819,0.617476,0.011818 SpineBase:0.006653,-0.023969,0.998891,-0.039970 SpineMid:0.043413,-0.025424,0.997970,-0.039061 SpineShoulder:0.080952,-0.032055,0.994720,-0.054321 ThumbLeft:0.000000,0.000000,0.000000,0.000000 ThumbRight:0.000000,0.000000,0.000000,0.000000 WristLeft:-0.350737,0.724813,-0.302889,0.509792 WristRight:-0.111352,0.958304,-0.022066,0.262236 END:
KINECT_DATA POSITION:22.898067,0.667497,-11.141312 HEAD_JOINT1:0.977477,0.177191,-0.000000,0.114642 LARM_JOINT2:0.861192,0.000000,-0.375339,-0.342739 LARM_JOINT3:0.968217,0.000000,-0.246611,0.041693 LLEG_JOINT2:0.998104,0.013966,0.000000,0.059937 LLEG_JOINT4:0.992774,0.107741,0.000000,-0.052828 RARM_JOINT2:0.774538,0.000000,-0.082623,0.627108 RARM_JOINT3:0.963067,0.000000,0.212691,0.165119 RLEG_JOINT2:0.999820,0.018273,0.000000,-0.005181 RLEG_JOINT4:0.994842,0.099671,0.000000,0.018836 WAIST:0.999981,0.000000,-0.005901,0.001617 WAIST_JOINT0:0.996841,0.000000,-0.079424,0.000414 WAIST_JOINT1:0.997658,0.061623,0.000000,-0.029695 END:
KINECT_DATA_Sensor  AnkleLeft:0.089045,0.773885,-0.082941,-0.621526 AnkleRight:0.096123,0.712867,0.069862,0.691159 ElbowLeft:-0.389435,0.795331,-0.050916,-0.461733 ElbowRight:0.039240,0.832886,0.175114,0.523543 FootLeft:0.000000,0.000000,0.000000,0.000000 FootRight:0.000000,0.000000,0.000000,0.000000 HandLeft:-0.322238,0.659034,-0.422002,0.532684 HandRight:-0.066408,0.977421,-0.095206,0.176560 HandTipLeft:0.000000,0.000000,0.000000,0.000000 HandTipRight:0.000000,0.000000,0.000000,0.000000 Head:0.000000,0.000000,0.000000,0.000000 HipLeft:0.111234,-0.683513,0.705568,-0.150367 HipRight:-0.107424,0.680418,0.704783,-0.169623 KneeLeft:-0.033982,0.709477,-0.053188,-0.701897 KneeRight:0.010517,0.703685,0.015374,0.710268 Neck:0.079580,-0.035025,0.993490,-0.073611 ShoulderLeft:-0.040768,0.789014,-0.601497,0.118304 ShoulderRight:0.062294,0.784329,0.617152,0.008444 SpineBase:0.004809,-0.023169,0.998891,-0.040698 SpineMid:0.041726,-0.024657,0.998031,-0.039814 SpineShoulder:0.079413,-0.031293,0.994829,-0.055044 ThumbLeft:0.000000,0.000000,0.000000,0.000000 ThumbRight:0.000000,0.000000,0.000000,0.000000 WristLeft:-0.355369,0.646119,-0.380587,0.558030 WristRight:-0.112400,0.976892,-0.012552,0.181356 END:
KINECT_DATA POSITION:22.921499,0.680539,-11.174679 HEAD_JOINT1:0.977478,0.177741,-0.000000,0.113775 LARM_JOINT2:0.863393,0.000000,-0.379852,-0.332060 LARM_JOINT3:0.968905,0.000000,-0.242613,0.048604 LLEG_JOINT2:0.998165,0.013235,0.000000,0.059080 LLEG_JOINT4:0.992385,0.110512,0.000000,-0.054394 RARM_JOINT2:0.771879,0.000000,-0.079729,0.630751 RARM_JOINT3:0.964417,0.000000,0.210900,0.159441 RLEG_JOINT2:0.999821,0.017843,0.000000,-0.006257 RLEG_JOINT4:0.994898,0.099209,0.000000,0.018345 WAIST:0.999985,0.000000,-0.004882,0.002304 WAIST_JOINT0:0.996675,0.000000,-0.081446,0.002502 WAIST_JOINT1:0.997645,0.061901,0.000000,-0.029540 END:
KINECT_DATA_Sensor  AnkleLeft:0.093120,0.782749,-0.081298,-0.609938 AnkleRight:0.095322,0.718770,0.069280,0.685189 ElbowLeft:-0.400000,0.782392,-0.045471,-0.475178 ElbowRight:0.038724,0.830716,0.170004,0.528688 FootLeft:0.000000,0.000000,0.000000,0.000000 FootRight:0.000000,0.000000,0.000000,0.000000 HandLeft:-0.029515,0.218757,-0.540803,0.811669 HandRight:-0.053650,0.956485,-0.103278,0.267566 HandTipLeft:0.000000,0.000000,0.000000,0.000000 HandTipRight:0.000000,0.000000,0.000000,0.000000 Head:0.000000,0.000000,0.000000,0.000000 HipLeft:0.110395,-0.683167,0.706132,-0.149912 HipRight:-0.107931,0.680753,0.704221,-0.170289 KneeLeft:-0.034325,0.708691,-0.052580,-0.702719 KneeRight:0.009923,0.704461,0.015359,0.709507 Neck:0.081619,-0.034363,0.993322,-0.073947 ShoulderLeft:-0.041098,0.788151,-0.602398,0.119358 ShoulderRight:0.064545,0.784708,0.616402,0.010723 SpineBase:0.003751,-0.022695,0.998899,-0.040886 SpineMid:0.042202,-0.024252,0.998014,-0.039982 SpineShoulder:0.081455,-0.030749,0.994672,-0.055208 ThumbLeft:0.000000,0.000000,0.000000,0.000000 ThumbRight:0.000000,0.000000,0.000000,0.000000 WristLeft:-0.051999,0.205685,-0.526006,0.823594 WristRight:-0.110485,0.955856,-0.022824,0.271315 END:
KINECT_DATA POSITION:22.936893,0.681379,-11.181486 HEAD_JOINT1:0.977416,0.178111,-0.000000,0.113728 LARM_JOINT2:0.864356,0.000000,-0.380884,-0.328353 LARM_JOINT3:0.968538,0.000000,-0.245382,0.041500 LLEG_JOINT2:0.998177,0.011810,0.000000,0.059183 LLEG_JOINT4:0.992053,0.113269,0.000000,-0.054783 RARM_JOINT2:0.771046,0.000000,-0.078400,0.631935 RARM_JOINT3:0.964473,0.000000,0.213262,0.155917 RLEG_JOINT2:0.999818,0.017631,0.000000,-0.007325 RLEG_JOINT4:0.994628,0.101391,0.000000,0.020850 WAIST:0.999987,0.000000,-0.004057,0.002943 WAIST_JOINT0:0.996568,0.000000,-0.082706,0.003356 WAIST_JOINT1:0.997620,0.062232,0.000000,-0.029696 END:
KINECT_DATA_Sensor  AnkleLeft:0.092028,0.767085,-0.084535,-0.629258 AnkleRight:0.098998,0.727775,0.067926,0.675226 ElbowLeft:-0.404074,0.769736,-0.037870,-0.492745 ElbowRight:0.038533,0.830354,0.168199,0.529846 FootLeft:0.000000,0.000000,0.000000,0.000000 FootRight:0.000000,0.000000,0.000000,0.000000 HandLeft:-0.147064,0.165186,-0.567288,0.793265 HandRight:-0.064696,0.952196,-0.100378,0.281178 HandTipLeft:0.000000,0.000000,0.000000,0.000000 HandTipRight:0.000000,0.000000,0.000000,0.000000 Head:0.000000,0.000000,0.000000,0.000000 HipLeft:0.109966,-0.682912,0.706499,-0.149659 HipRight:-0.108584,0.681123,0.703561,-0.171122 KneeLeft:-0.035820,0.707961,-0.052111,-0.703415 KneeRight:0.009460,0.705089,0.015522,0.708885 Neck:0.082943,-0.034021,0.993192,-0.074388 ShoulderLeft:-0.042109,0.787769,-0.602554,0.120730 ShoulderRight:0.065225,0.784979,0.615973,0.011479 SpineBase:0.002885,-0.022419,0.998904,-0.040985 SpineMid:0.042416,-0.024023,0.998007,-0.040065 SpineShoulder:0.082775,-0.030497,0.994558,-0.055423 ThumbLeft:0.000000,0.000000,0.000000,0.000000 ThumbRight:0.000000,0.000000,0.000000,0.000000 WristLeft:-0.019846,0.256896,-0.504612,0.824001 WristRight:-0.109864,0.951731,-0.024644,0.285535 END:
KINECT_DATA POSITION:22.950720,0.681264,-11.189437 HEAD_JOINT1:0.977320,0.178771,-0.000000,0.113516 LARM_JOINT2:0.862481,0.000000,-0.385634,-0.327740 LARM_JOINT3:0.971092,0.000000,-0.237056,0.028016 LLEG_JOINT2:0.998206,0.012225,0.000000,0.058608 LLEG_JOINT4:0.992527,0.108765,0.000000,-0.055320 RARM_JOINT2:0.770845,0.000000,-0.077595,0.632279 RARM_JOINT3:0.964934,0.000000,0.214797,0.150880 RLEG_JOINT2:0.999808,0.017842,0.000000,-0.008132 RLEG_JOINT4:0.994533,0.102084,0.000000,0.021961 WAIST:0.999987,0.000000,-0.003892,0.003342 WAIST_JOINT0:0.996512,0.000000,-0.083364,0.003866 WAIST_JOINT1:0.997593,0.062648,0.000000,-0.029730 END:
KINECT_DATA_Sensor  AnkleLeft:0.089173,0.766382,-0.081571,-0.630914 AnkleRight:0.099768,0.724198,0.068554,0.678884 ElbowLeft:-0.404771,0.778420,-0.040950,-0.478065 ElbowRight:0.038480,0.829961,0.167555,0.530668 FootLeft:0.000000,0.000000,0.000000,0.000000 FootRight:0.000000,0.000000,0.000000,0.000000 HandLeft:-0.144759,0.131406,-0.555728,0.808050 HandRight:-0.073392,0.953647,-0.087149,0.278525 HandTipLeft:0.000000,0.000000,0.000000,0.000000 HandTipRight:0.000000,0.000000,0.000000,0.000000 Head:0.000000,0.000000,0.000000,0.000000 HipLeft:0.109844,-0.682693,0.706719,-0.149711 HipRight:-0.108681,0.681399,0.703212,-0.171398 KneeLeft:-0.035392,0.707860,-0.052289,-0.703525 KneeRight:0.009322,0.705222,0.015964,0.708745 Neck:0.083594,-0.033752,0.993104,-0.074947 ShoulderLeft:-0.042297,0.787394,-0.602878,0.121493 ShoulderRight:0.065889,0.785090,0.615755,0.011779 SpineBase:0.002692,-0.022231,0.998904,-0.041104 SpineMid:0.042640,-0.023857,0.997997,-0.040182 SpineShoulder:0.083432,-0.030226,0.994492,-0.055786 ThumbLeft:0.000000,0.000000,0.000000,0.000000 ThumbRight:0.000000,0.000000,0.000000,0.000000 WristLeft:0.000814,0.231177,-0.494582,0.837822 WristRight:-0.109877,0.952576,-0.024201,0.282738 END:
KINECT_DATA POSITION:22.976320,0.672315,-11.140215 HEAD_JOINT1:0.977468,0.178980,-0.000000,0.111908 LARM_JOINT2:0.862501,0.000000,-0.382930,-0.330844 LARM_JOINT3:0.972669,0.000000,-0.227136,0.048201 LLEG_JOINT2:0.998272,0.012564,0.000000,0.057400 LLEG_JOINT4:0.992141,0.111609,0.000000,-0.056568 RARM_JOINT2:0.771561,0.000000,-0.075853,0.631617 RARM_JOINT3:0.965172,0.000000,0.215527,0.148294 RLEG_JOINT2:0.999807,0.017293,0.000000,-0.009346 RLEG_JOINT4:0.994799,0.099364,0.000000,0.022412 WAIST:0.999989,0.000000,-0.002618,0.003937 WAIST_JOINT0:0.996472,0.000000,-0.083835,0.003989 WAIST_JOINT1:0.997568,0.063095,0.000000,-0.029625 END:
KINECT_DATA_Sensor  AnkleLeft:0.090587,0.747184,-0.084589,-0.652959 AnkleRight:0.095019,0.703533,0.069627,0.700831 ElbowLeft:-0.401527,0.780174,-0.044520,-0.477622 ElbowRight:0.036862,0.829354,0.167598,0.531718 FootLeft:0.000000,0.000000,0.000000,0.000000 FootRight:0.000000,0.000000,0.000000,0.000000 HandLeft:0.330165,-0.417701,-0.510594,0.675138 HandRight:-0.075189,0.953080,-0.084180,0.280891 HandTipLeft:0.000000,0.000000,0.000000,0.000000 HandTipRight:0.000000,0.000000,0.000000,0.000000 Head:0.000000,0.000000,0.000000,0.000000 HipLeft:0.109352,-0.682469,0.707113,-0.149230 HipRight:-0.109847,0.681648,0.702551,-0.172373 KneeLeft:-0.034652,0.706994,-0.052142,-0.704443 KneeRight:0.008474,0.706169,0.016025,0.707811 Neck:0.084022,-0.033360,0.993046,-0.075409 ShoulderLeft:-0.041821,0.787349,-0.602911,0.121785 ShoulderRight:0.066894,0.785062,0.615673,0.012183 SpineBase:0.001392,-0.021781,0.998920,-0.041015 SpineMid:0.042202,-0.023438,0.998029,-0.040091 SpineShoulder:0.083879,-0.029720,0.994447,-0.056172 ThumbLeft:0.000000,0.000000,0.000000,0.000000 ThumbRight:0.000000,0.000000,0.000000,0.000000 WristLeft:0.336347,-0.399080,-0.351791,0.777077 WristRight:-0.111097,0.951780,-0.023272,0.285011 END:
KINECT_DATA POSITION:23.011831,0.665185,-11.099219 HEAD_JOINT1:0.977983,0.177208,-0.000000,0.110213 LARM_JOINT2:0.863870,0.000000,-0.377507,-0.333492 LARM_JOINT3:0.971286,0.000000,-0.227982,0.068033 LLEG_JOINT2:0.998379,0.012309,0.000000,0.055560 LLEG_JOINT4:0.992562,0.107890,0.000000,-0.056388 RARM_JOINT2:0.775168,0.000000,-0.076645,0.627088 RARM_JOINT3:0.963518,0.000000,0.218205,0.154982 RLEG_JOINT2:0.999787,0.017304,0.000000,-0.011215 RLEG_JOINT4:0.994629,0.100786,0.000000,0.023562 WAIST:0.999989,0.000000,-0.000319,0.004758 WAIST_JOINT0:0.996768,0.000000,-0.080249,0.003770 WAIST_JOINT1:0.997555,0.063569,0.000000,-0.029031 END:
KINECT_DATA_Sensor  AnkleLeft:0.089348,0.754590,-0.080036,-0.645139 AnkleRight:0.097792,0.723288,0.068191,0.680177 ElbowLeft:-0.399206,0.771034,-0.043749,-0.494194 ElbowRight:0.036003,0.832406,0.171839,0.525618 FootLeft:0.000000,0.000000,0.000000,0.000000 FootRight:0.000000,0.000000,0.000000,0.000000 HandLeft:0.351650,-0.378299,-0.544191,0.661127 HandRight:-0.087917,0.968874,-0.093286,0.211781 HandTipLeft:0.000000,0.000000,0.000000,0.000000 HandTipRight:0.000000,0.000000,0.000000,0.000000 Head:0.000000,0.000000,0.000000,0.000000 HipLeft:0.107937,-0.682244,0.707754,-0.148248 HipRight:-0.111518,0.681957,0.701596,-0.173958 KneeLeft:-0.033998,0.705377,-0.051311,-0.706155 KneeRight:0.007699,0.707823,0.016790,0.706149 Neck:0.080491,-0.031998,0.993342,-0.075951 ShoulderLeft:-0.039697,0.787410,-0.603344,0.119941 ShoulderRight:0.064498,0.785298,0.615691,0.008395 SpineBase:-0.000936,-0.020991,0.998934,-0.041098 SpineMid:0.039279,-0.022628,0.998162,-0.040219 SpineShoulder:0.080362,-0.028436,0.994745,-0.056714 ThumbLeft:0.000000,0.000000,0.000000,0.000000 ThumbRight:0.000000,0.000000,0.000000,0.000000 WristLeft:0.335349,-0.372649,-0.345101,0.793460 WristRight:-0.111981,0.969404,-0.014591,0.217952 END:
KINECT_DATA POSITION:23.016958,0.653599,-11.087048 HEAD_JOINT1:0.978067,0.177370,-0.000000,0.109199 LARM_JOINT2:0.863952,0.000000,-0.376824,-0.334053 LARM_JOINT3:0.970852,0.000000,-0.229871,0.067859 LLEG_JOINT2:0.998435,0.010699,0.000000,0.054884 LLEG_JOINT4:0.992076,0.113565,0.000000,-0.053742 RARM_JOINT2:0.775417,0.000000,-0.075920,0.626869 RARM_JOINT3:0.965136,0.000000,0.212191,0.153257 RLEG_JOINT2:0.999776,0.017666,0.000000,-0.011674 RLEG_JOINT4:0.994614,0.100794,0.000000,0.024175 WAIST:0.999987,-0.000000,0.000876,0.005072 WAIST_JOINT0:0.996814,0.000000,-0.079673,0.003781 WAIST_JOINT1:0.997563,0.063572,0.000000,-0.028736 END:
KINECT_DATA_Sensor  AnkleLeft:0.090725,0.750429,-0.084672,-0.649196 AnkleRight:0.099117,0.732254,0.067013,0.670439 ElbowLeft:-0.398857,0.770566,-0.045099,-0.495083 ElbowRight:0.035496,0.833307,0.171395,0.524369 FootLeft:0.000000,0.000000,0.000000,0.000000 FootRight:0.000000,0.000000,0.000000,0.000000 HandLeft:-0.075816,0.128867,-0.643039,0.751096 HandRight:-0.005927,0.675216,-0.109559,0.729415 HandTipLeft:0.000000,0.000000,0.000000,0.000000 HandTipRight:0.000000,0.000000,0.000000,0.000000 Head:0.000000,0.000000,0.000000,0.000000 HipLeft:0.107126,-0.682217,0.708056,-0.147514 HipRight:-0.112210,0.682095,0.701231,-0.174445 KneeLeft:0.034833,-0.704441,0.049948,0.707145 KneeRight:0.007829,0.708656,0.017154,0.705302 Neck:0.079944,-0.031600,0.993403,-0.075906 ShoulderLeft:-0.039304,0.787473,-0.603364,0.119553 ShoulderRight:0.064179,0.785294,0.615737,0.007902 SpineBase:-0.002137,-0.020638,0.998943,-0.041019 SpineMid:0.038409,-0.022286,0.998207,-0.040148 SpineShoulder:0.079835,-0.027914,0.994802,-0.056718 ThumbLeft:0.000000,0.000000,0.000000,0.000000 ThumbRight:0.000000,0.000000,0.000000,0.000000 WristLeft:0.026418,0.242009,-0.480406,0.842582 WristRight:-0.082213,0.662672,-0.076417,0.740451 END:
KINECT_DATA POSITION:23.021961,0.644072,-11.062538 HEAD_JOINT1:0.978025,0.177673,-0.000000,0.109085 LARM_JOINT2:0.864012,0.000000,-0.377014,-0.333682 LARM_JOINT3:0.971002,0.000000,-0.229082,0.068383 LLEG_JOINT2:0.998461,0.010711,0.000000,0.054416 LLEG_JOINT4:0.992338,0.112028,0.000000,-0.052098 RARM_JOINT2:0.776075,0.000000,-0.077432,0.625868 RARM_JOINT3:0.964459,0.000000,0.212434,0.157135 RLEG_JOINT2:0.999762,0.018228,0.000000,-0.011949 RLEG_JOINT4:0.994421,0.102863,0.000000,0.023387 WAIST:0.999985,-0.000000,0.001515,0.005236 WAIST_JOINT0:0.996852,0.000000,-0.079179,0.004045 WAIST_JOINT1:0.997572,0.063509,0.000000,-0.028589 END:
KINECT_DATA_Sensor  AnkleLeft:0.086906,0.736121,-0.086548,-0.665644 AnkleRight:0.099296,0.721868,0.071075,0.681172 ElbowLeft:-0.399677,0.766652,-0.042784,-0.500673 ElbowRight:0.035854,0.833120,0.172688,0.524217 FootLeft:0.000000,0.000000,0.000000,0.000000 FootRight:0.000000,0.000000,0.000000,0.000000 HandLeft:-0.082272,0.142141,-0.637602,0.752656 HandRight:-0.052014,0.941768,-0.102485,0.316012 HandTipLeft:0.000000,0.000000,0.000000,0.000000 HandTipRight:0.000000,0.000000,0.000000,0.000000 Head:0.000000,0.000000,0.000000,0.000000 HipLeft:0.106734,-0.682201,0.708208,-0.147145 HipRight:-0.112650,0.682170,0.701032,-0.174667 KneeLeft:0.034579,-0.704007,0.049761,0.707603 KneeRight:0.008134,0.709084,0.017632,0.704857 Neck:0.079391,-0.031386,0.993462,-0.075798 ShoulderLeft:-0.038914,0.787301,-0.603710,0.119065 ShoulderRight:0.063865,0.785542,0.615457,0.007565 SpineBase:-0.002773,-0.020359,0.998951,-0.040933 SpineMid:0.037821,-0.022006,0.998238,-0.040072 SpineShoulder:0.079292,-0.027626,0.994856,-0.056672 ThumbLeft:0.000000,0.000000,0.000000,0.000000 ThumbRight:0.000000,0.000000,0.000000,0.000000 WristLeft:0.020685,0.253471,-0.483563,0.837551 WristRight:-0.109658,0.940880,-0.026244,0.319424 END:
KINECT_DATA POSITION:22.995281,0.646336,-11.094034 HEAD_JOINT1:0.977978,0.177991,-0.000000,0.108985 LARM_JOINT2:0.863784,0.000000,-0.380270,-0.330564 LARM_JOINT3:0.972510,0.000000,-0.219661,0.077285 LLEG_JOINT2:0.998458,0.009671,0.000000,0.054667 LLEG_JOINT4:0.991904,0.115193,0.000000,-0.053452 RARM_JOINT2:0.774415,0.000000,-0.075237,0.628189 RARM_JOINT3:0.966089,0.000000,0.207329,0.153907 RLEG_JOINT2:0.999759,0.018448,0.000000,-0.011861 RLEG_JOINT4:0.994517,0.101655,0.000000,0.024559 WAIST:0.999981,-0.000000,0.002447,0.005581 WAIST_JOINT0:0.996703,0.000000,-0.080970,0.005138 WAIST_JOINT1:0.997580,0.063413,0.000000,-0.028510 END:
KINECT_DATA_Sensor  AnkleLeft:0.090948,0.749329,-0.085342,-0.650347 AnkleRight:0.096985,0.696987,0.072950,0.706740 ElbowLeft:-0.402943,0.767436,-0.043377,-0.496787 ElbowRight:0.035341,0.832964,0.169197,0.525637 FootLeft:0.000000,0.000000,0.000000,0.000000 FootRight:0.000000,0.000000,0.000000,0.000000 HandLeft:-0.063646,0.194874,-0.639258,0.741163 HandRight:0.014761,0.671609,-0.103887,0.733438 HandTipLeft:0.000000,0.000000,0.000000,0.000000 HandTipRight:0.000000,0.000000,0.000000,0.000000 Head:0.000000,0.000000,0.000000,0.000000 HipLeft:0.106007,-0.682051,0.708583,-0.146558 HipRight:-0.113106,0.682264,0.700763,-0.175082 KneeLeft:0.035699,-0.703251,0.049472,0.708319 KneeRight:0.008575,0.709740,0.017485,0.704194 Neck:0.080948,-0.031341,0.993352,-0.075613 ShoulderLeft:-0.039143,0.786179,-0.605070,0.119504 ShoulderRight:0.065681,0.785748,0.614973,0.009718 SpineBase:-0.003721,-0.020094,0.998952,-0.040962 SpineMid:0.038129,-0.021792,0.998231,-0.040084 SpineShoulder:0.080874,-0.027353,0.994745,-0.056514 ThumbLeft:0.000000,0.000000,0.000000,0.000000 ThumbRight:0.000000,0.000000,0.000000,0.000000 WristLeft:-0.002207,0.273639,-0.492031,0.826451 WristRight:-0.081166,0.655582,-0.078009,0.746685 END:
KINECT_DATA POSITION:22.975502,0.646224,-11.138606 HEAD_JOINT1:0.978064,0.178013,-0.000000,0.108180 LARM_JOINT2:0.863341,0.000000,-0.385632,-0.325470 LARM_JOINT3:0.976279,0.000000,-0.202304,0.077147 LLEG_JOINT2:0.998426,0.009595,0.000000,0.055262 LLEG_JOINT4:0.991784,0.115309,0.000000,-0.055393 RARM_JOINT2:0.773849,0.000000,-0.075333,0.628874 RARM_JOINT3:0.965909,0.000000,0.208202,0.153856 RLEG_JOINT2:0.999757,0.018694,0.000000,-0.011681 RLEG_JOINT4:0.994582,0.100946,0.000000,0.024828 WAIST:0.999980,-0.000000,0.002526,0.005757 WAIST_JOINT0:0.996682,0.000000,-0.081150,0.006291 WAIST_JOINT1:0.997619,0.062833,0.000000,-0.028420 END:
KINECT_DATA_Sensor  AnkleLeft:0.090382,0.738734,-0.085909,-0.662362 AnkleRight:0.098299,0.708888,0.070548,0.694866 ElbowLeft:-0.409496,0.754993,-0.031557,-0.511178 ElbowRight:0.035376,0.832766,0.167968,0.526342 FootLeft:0.000000,0.000000,0.000000,0.000000 FootRight:0.000000,0.000000,0.000000,0.000000 HandLeft:-0.044949,0.200931,-0.622516,0.755037 HandRight:0.016467,0.655230,-0.108202,0.747459 HandTipLeft:0.000000,0.000000,0.000000,0.000000 HandTipRight:0.000000,0.000000,0.000000,0.000000 Head:0.000000,0.000000,0.000000,0.000000 HipLeft:0.106024,-0.682018,0.708667,-0.146292 HipRight:-0.113271,0.682485,0.700586,-0.174822 KneeLeft:0.036292,-0.703173,0.049966,0.708332 KneeRight:0.008997,0.709777,0.017407,0.704154 Neck:0.081123,-0.031133,0.993394,-0.074960 ShoulderLeft:-0.039783,0.785274,-0.606226,0.119379 ShoulderRight:0.065319,0.785982,0.614705,0.010165 SpineBase:-0.003796,-0.019873,0.998968,-0.040675 SpineMid:0.038187,-0.021564,0.998245,-0.039804 SpineShoulder:0.081062,-0.027032,0.994769,-0.055977 ThumbLeft:0.000000,0.000000,0.000000,0.000000 ThumbRight:0.000000,0.000000,0.000000,0.000000 WristLeft:0.011424,0.270548,-0.496368,0.824798 WristRight:-0.079246,0.639136,-0.080595,0.760743 END:
