EastLYD/RoboCupatHomeSim/InteractiveCleanUp/JapanOpen2016/Motion_Data/File2.dat
KINECT_DATA POSITION:9.619581,1.065444,-11.296499 HEAD_JOINT1:0.982723,0.169650,-0.000000,0.073989 LARM_JOINT2:0.821244,0.000000,-0.028613,-0.569860 LARM_JOINT3:0.951441,0.000000,-0.254309,-0.173455 LLEG_JOINT2:0.997654,0.019264,0.000000,0.065694 LLEG_JOINT4:0.995651,0.087268,0.000000,-0.032608 RARM_JOINT2:0.801021,0.000000,-0.058471,0.595775 RARM_JOINT3:0.974755,0.000000,0.169325,0.145538 RLEG_JOINT2:0.999064,0.015417,0.000000,-0.040421 RLEG_JOINT4:0.994352,0.099816,0.000000,0.036081 WAIST:0.999965,0.000000,0.006916,-0.004756 WAIST_JOINT0:0.999971,0.000000,-0.004755,0.005911 WAIST_JOINT1:0.997744,0.067003,0.000000,-0.004187 END:
KINECT_DATA_Sensor  AnkleLeft:0.058359,0.711998,-0.093207,-0.693517 AnkleRight:0.079717,0.745048,0.083445,0.656951 ElbowLeft:-0.034973,0.886780,-0.169718,-0.428479 ElbowRight:0.025468,0.868691,0.187840,0.457650 FootLeft:0.000000,0.000000,0.000000,0.000000 FootRight:0.000000,0.000000,0.000000,0.000000 HandLeft:0.117618,-0.616282,-0.230358,0.743840 HandRight:-0.019176,0.694082,-0.060630,0.717081 HandTipLeft:0.000000,0.000000,0.000000,0.000000 HandTipRight:0.000000,0.000000,0.000000,0.000000 Head:0.000000,0.000000,0.000000,0.000000 HipLeft:0.115386,-0.682561,0.702844,-0.163727 HipRight:-0.124260,0.672237,0.707645,-0.178594 KneeLeft:0.028997,-0.701613,0.056977,0.709684 KneeRight:-0.021278,0.711697,0.042737,0.700863 Neck:0.004154,-0.010715,0.996514,-0.082626 ShoulderLeft:0.019040,0.782138,-0.619780,0.061401 ShoulderRight:0.025106,0.786877,0.614264,-0.053612 SpineBase:-0.006861,-0.008667,0.999014,-0.043004 SpineMid:-0.001519,-0.008896,0.999036,-0.042957 SpineShoulder:0.004024,-0.009913,0.998032,-0.061785 ThumbLeft:0.000000,0.000000,0.000000,0.000000 ThumbRight:0.000000,0.000000,0.000000,0.000000 WristLeft:0.098810,-0.624512,-0.154086,0.759262 WristRight:-0.068586,0.688138,-0.030092,0.721704 END:
KINECT_DATA POSITION:9.566418,1.055448,-11.266863 HEAD_JOINT1:0.982529,0.168594,-0.000000,0.078821 LARM_JOINT2:0.830462,0.000000,-0.043156,-0.555401 LARM_JOINT3:0.948475,0.000000,-0.274643,-0.158010 LLEG_JOINT2:0.997666,0.018931,0.000000,0.065610 LLEG_JOINT4:0.995607,0.087799,0.000000,-0.032523 RARM_JOINT2:0.801045,0.000000,-0.059022,0.595687 RARM_JOINT3:0.974645,0.000000,0.165681,0.150387 RLEG_JOINT2:0.999045,0.014914,0.000000,-0.041062 RLEG_JOINT4:0.994327,0.099745,0.000000,0.036954 WAIST:0.999974,0.000000,0.005965,-0.003998 WAIST_JOINT0:0.999962,0.000000,-0.006265,0.006125 WAIST_JOINT1:0.997769,0.066569,0.000000,-0.005118 END:
KINECT_DATA_Sensor  AnkleLeft:0.062072,0.743113,-0.091228,-0.660006 AnkleRight:0.079339,0.739010,0.082909,0.663849 ElbowLeft:-0.059278,0.872508,-0.176631,-0.451682 ElbowRight:0.025291,0.867607,0.188046,0.459627 FootLeft:0.000000,0.000000,0.000000,0.000000 FootRight:0.000000,0.000000,0.000000,0.000000 HandLeft:0.120022,-0.520632,-0.253576,0.806372 HandRight:0.006670,0.689125,-0.062081,0.721947 HandTipLeft:0.000000,0.000000,0.000000,0.000000 HandTipRight:0.000000,0.000000,0.000000,0.000000 Head:0.000000,0.000000,0.000000,0.000000 HipLeft:0.116776,-0.681977,0.703139,-0.163909 HipRight:-0.124129,0.672834,0.707219,-0.178119 KneeLeft:0.029771,-0.702197,0.057185,0.709058 KneeRight:-0.021512,0.711086,0.042313,0.701501 Neck:0.005674,-0.010874,0.996548,-0.082113 ShoulderLeft:0.017089,0.781731,-0.620206,0.062847 ShoulderRight:0.025110,0.786705,0.614568,-0.052649 SpineBase:-0.005993,-0.009028,0.999041,-0.042416 SpineMid:-0.000337,-0.009268,0.999059,-0.042364 SpineShoulder:0.005546,-0.010054,0.998049,-0.061364 ThumbLeft:0.000000,0.000000,0.000000,0.000000 ThumbRight:0.000000,0.000000,0.000000,0.000000 WristLeft:0.112268,-0.524633,-0.178799,0.824734 WristRight:-0.069083,0.679475,-0.031188,0.729773 END:
KINECT_DATA POSITION:9.386620,1.025933,-11.120176 HEAD_JOINT1:0.981784,0.168151,-0.000000,0.088458 LARM_JOINT2:0.836288,0.000000,-0.046781,-0.546291 LARM_JOINT3:0.942815,0.000000,-0.300279,-0.144681 LLEG_JOINT2:0.997510,0.021814,0.000000,0.067068 LLEG_JOINT4:0.995730,0.085749,0.000000,-0.034200 RARM_JOINT2:0.798975,0.000000,-0.058555,0.598507 RARM_JOINT3:0.974645,0.000000,0.157653,0.158782 RLEG_JOINT2:0.999102,0.013709,0.000000,-0.040078 RLEG_JOINT4:0.994277,0.102294,0.000000,0.030820 WAIST:0.999996,0.000000,0.000451,-0.002811 WAIST_JOINT0:0.999920,0.000000,-0.010743,0.006682 WAIST_JOINT1:0.997827,0.065435,0.000000,-0.007744 END:
KINECT_DATA_Sensor  AnkleLeft:0.061777,0.748267,-0.092650,-0.653985 AnkleRight:0.080901,0.756704,0.083725,0.643307 ElbowLeft:-0.073200,0.862067,-0.180247,-0.467966 ElbowRight:0.025516,0.864507,0.185428,0.466469 FootLeft:0.000000,0.000000,0.000000,0.000000 FootRight:0.000000,0.000000,0.000000,0.000000 HandLeft:-0.237145,0.719980,0.239008,-0.606849 HandRight:0.053567,0.701258,-0.067386,0.707691 HandTipLeft:0.000000,0.000000,0.000000,0.000000 HandTipRight:0.000000,0.000000,0.000000,0.000000 Head:0.000000,0.000000,0.000000,0.000000 HipLeft:0.122431,-0.680595,0.703078,-0.165780 HipRight:-0.122292,0.674229,0.706976,-0.175060 KneeLeft:-0.029915,0.706041,-0.060916,-0.704911 KneeRight:-0.020610,0.707359,0.040030,0.705419 Neck:0.010194,-0.011676,0.996583,-0.081133 ShoulderLeft:0.012749,0.781655,-0.620076,0.066015 ShoulderRight:0.026565,0.787024,0.614424,-0.048691 SpineBase:-0.000645,-0.010440,0.999123,-0.040542 SpineMid:0.004558,-0.010651,0.999113,-0.040487 SpineShoulder:0.010028,-0.011119,0.998073,-0.060218 ThumbLeft:0.000000,0.000000,0.000000,0.000000 ThumbRight:0.000000,0.000000,0.000000,0.000000 WristLeft:-0.182086,0.739217,0.141921,-0.632663 WristRight:-0.070044,0.682982,-0.032455,0.726344 END:
KINECT_DATA POSITION:9.183942,1.024970,-10.955358 HEAD_JOINT1:0.982541,0.163489,-0.000000,0.088799 LARM_JOINT2:0.858138,0.000000,-0.083673,-0.506556 LARM_JOINT3:0.929227,0.000000,-0.358845,-0.088130 LLEG_JOINT2:0.997461,0.020891,0.000000,0.068076 LLEG_JOINT4:0.995190,0.091578,0.000000,-0.034777 RARM_JOINT2:0.796905,0.000000,-0.062809,0.600831 RARM_JOINT3:0.974440,0.000000,0.161781,0.155861 RLEG_JOINT2:0.999159,0.013548,0.000000,-0.038704 RLEG_JOINT4:0.994302,0.102337,0.000000,0.029828 WAIST:0.999998,0.000000,0.001266,-0.001426 WAIST_JOINT0:0.999872,0.000000,-0.013880,0.007998 WAIST_JOINT1:0.998006,0.062479,0.000000,-0.008993 END:
KINECT_DATA_Sensor  AnkleLeft:0.065768,0.756129,-0.096193,-0.643965 AnkleRight:0.075155,0.704609,0.088567,0.700024 ElbowLeft:-0.138337,0.823504,-0.189169,-0.516641 ElbowRight:0.025492,0.860191,0.182863,0.475377 FootLeft:0.000000,0.000000,0.000000,0.000000 FootRight:0.000000,0.000000,0.000000,0.000000 HandLeft:-0.443387,0.886862,0.036985,-0.124565 HandRight:0.047557,0.664595,-0.072445,0.742161 HandTipLeft:0.000000,0.000000,0.000000,0.000000 HandTipRight:0.000000,0.000000,0.000000,0.000000 Head:0.000000,0.000000,0.000000,0.000000 HipLeft:0.123144,-0.680417,0.703766,-0.163039 HipRight:-0.123681,0.675525,0.705754,-0.174013 KneeLeft:-0.032210,0.705291,-0.061982,-0.705468 KneeRight:-0.018804,0.708049,0.037951,0.704892 Neck:0.013389,-0.011801,0.996816,-0.077718 ShoulderLeft:0.008705,0.780311,-0.621771,0.066632 ShoulderRight:0.026614,0.786751,0.615106,-0.044270 SpineBase:-0.001568,-0.010796,0.999213,-0.038149 SpineMid:0.005670,-0.011072,0.999198,-0.038069 SpineShoulder:0.013228,-0.011267,0.998203,-0.057343 ThumbLeft:0.000000,0.000000,0.000000,0.000000 ThumbRight:0.000000,0.000000,0.000000,0.000000 WristLeft:-0.312032,0.936984,-0.009116,-0.156887 WristRight:-0.070014,0.647288,-0.037198,0.758111 END:
KINECT_DATA POSITION:9.134510,1.021951,-10.936773 HEAD_JOINT1:0.983073,0.161863,-0.000000,0.085840 LARM_JOINT2:0.876992,0.000000,-0.141330,-0.459250 LARM_JOINT3:0.937123,0.000000,-0.347140,-0.035984 LLEG_JOINT2:0.997465,0.019800,0.000000,0.068355 LLEG_JOINT4:0.994938,0.093247,0.000000,-0.037455 RARM_JOINT2:0.796352,0.000000,-0.063614,0.601479 RARM_JOINT3:0.974981,0.000000,0.159512,0.154815 RLEG_JOINT2:0.999139,0.014730,0.000000,-0.038794 RLEG_JOINT4:0.994184,0.102500,0.000000,0.033051 WAIST:0.999997,0.000000,0.002418,-0.000768 WAIST_JOINT0:0.999828,0.000000,-0.016852,0.007776 WAIST_JOINT1:0.998175,0.059792,0.000000,-0.008511 END:
KINECT_DATA_Sensor  AnkleLeft:0.064130,0.732607,-0.097395,-0.670588 AnkleRight:0.078306,0.702382,0.087233,0.702081 ElbowLeft:-0.217583,0.790831,-0.181844,-0.542381 ElbowRight:0.023840,0.859315,0.180231,0.478043 FootLeft:0.000000,0.000000,0.000000,0.000000 FootRight:0.000000,0.000000,0.000000,0.000000 HandLeft:-0.452564,0.814279,0.115411,-0.344695 HandRight:0.051912,0.691637,-0.071768,0.716794 HandTipLeft:0.000000,0.000000,0.000000,0.000000 HandTipRight:0.000000,0.000000,0.000000,0.000000 Head:0.000000,0.000000,0.000000,0.000000 HipLeft:0.123110,-0.680381,0.704147,-0.161567 HipRight:-0.125447,0.676191,0.704945,-0.173439 KneeLeft:-0.033575,0.704406,-0.061912,-0.706294 KneeRight:-0.017613,0.708854,0.038366,0.704091 Neck:0.016555,-0.011238,0.996997,-0.074810 ShoulderLeft:0.004230,0.780701,-0.621213,0.067687 ShoulderRight:0.026117,0.786576,0.615610,-0.040506 SpineBase:-0.002715,-0.009712,0.999278,-0.036639 SpineMid:0.006705,-0.010057,0.999259,-0.036546 SpineShoulder:0.016446,-0.010326,0.998315,-0.054674 ThumbLeft:0.000000,0.000000,0.000000,0.000000 ThumbRight:0.000000,0.000000,0.000000,0.000000 WristLeft:-0.381976,0.838356,0.048728,-0.385849 WristRight:-0.072430,0.672685,-0.036340,0.735479 END:
KINECT_DATA POSITION:9.068606,1.014590,-11.018694 HEAD_JOINT1:0.983465,0.158775,-0.000000,0.087099 LARM_JOINT2:0.890674,0.000000,-0.249169,-0.380283 LARM_JOINT3:0.959618,0.000000,-0.277404,-0.046690 LLEG_JOINT2:0.997480,0.018864,0.000000,0.068392 LLEG_JOINT4:0.994792,0.093895,0.000000,-0.039661 RARM_JOINT2:0.795131,0.000000,-0.067300,0.602691 RARM_JOINT3:0.975480,0.000000,0.157016,0.154225 RLEG_JOINT2:0.999095,0.016676,0.000000,-0.039137 RLEG_JOINT4:0.994488,0.100689,0.000000,0.029260 WAIST:0.999995,-0.000000,0.002968,0.000871 WAIST_JOINT0:0.999653,0.000000,-0.025010,0.008270 WAIST_JOINT1:0.998350,0.056446,0.000000,-0.010583 END:
KINECT_DATA_Sensor  AnkleLeft:0.065466,0.740017,-0.095981,-0.662478 AnkleRight:0.075977,0.698240,0.089651,0.706152 ElbowLeft:-0.311589,0.832158,-0.189017,-0.417969 ElbowRight:0.022898,0.856294,0.178874,0.483984 FootLeft:0.000000,0.000000,0.000000,0.000000 FootRight:0.000000,0.000000,0.000000,0.000000 HandLeft:-0.469722,0.810842,0.117281,-0.328850 HandRight:0.065032,0.675065,-0.056504,0.732711 HandTipLeft:0.000000,0.000000,0.000000,0.000000 HandTipRight:0.000000,0.000000,0.000000,0.000000 Head:0.000000,0.000000,0.000000,0.000000 HipLeft:0.124448,-0.679901,0.704954,-0.159019 HipRight:-0.127313,0.677743,0.703519,-0.171804 KneeLeft:0.035390,-0.703884,0.062452,0.706679 KneeRight:-0.015346,0.709296,0.038819,0.703674 Neck:0.024733,-0.012481,0.997057,-0.071483 ShoulderLeft:-0.005424,0.780759,-0.620527,0.073017 ShoulderRight:0.026936,0.787546,0.614786,-0.032927 SpineBase:-0.003334,-0.009310,0.999383,-0.033697 SpineMid:0.010491,-0.009775,0.999334,-0.033565 SpineShoulder:0.024649,-0.011107,0.998324,-0.051167 ThumbLeft:0.000000,0.000000,0.000000,0.000000 ThumbRight:0.000000,0.000000,0.000000,0.000000 WristLeft:-0.403802,0.833859,0.045906,-0.373519 WristRight:-0.073985,0.655072,-0.041344,0.750798 END:
KINECT_DATA POSITION:9.067554,1.019412,-11.133265 HEAD_JOINT1:0.983750,0.158213,-0.000000,0.084885 LARM_JOINT2:0.887394,0.000000,-0.293629,-0.355407 LARM_JOINT3:0.969975,0.000000,-0.243104,-0.006995 LLEG_JOINT2:0.997537,0.017542,0.000000,0.067911 LLEG_JOINT4:0.994807,0.093405,0.000000,-0.040435 RARM_JOINT2:0.797571,0.000000,-0.064968,0.599716 RARM_JOINT3:0.974840,0.000000,0.159811,0.155393 RLEG_JOINT2:0.999079,0.015758,0.000000,-0.039910 RLEG_JOINT4:0.994458,0.101171,0.000000,0.028605 WAIST:0.999992,-0.000000,0.003448,0.001852 WAIST_JOINT0:0.999521,0.000000,-0.030162,0.006934 WAIST_JOINT1:0.998368,0.055860,0.000000,-0.011835 END:
KINECT_DATA_Sensor  AnkleLeft:0.064576,0.741604,-0.094383,-0.661019 AnkleRight:0.083041,0.759050,0.082587,0.640411 ElbowLeft:-0.360292,0.801525,-0.148475,-0.453544 ElbowRight:0.020816,0.861934,0.181168,0.473090 FootLeft:0.000000,0.000000,0.000000,0.000000 FootRight:0.000000,0.000000,0.000000,0.000000 HandLeft:-0.494197,0.817467,0.064443,-0.288729 HandRight:0.043711,0.643714,-0.062292,0.761473 HandTipLeft:0.000000,0.000000,0.000000,0.000000 HandTipRight:0.000000,0.000000,0.000000,0.000000 Head:0.000000,0.000000,0.000000,0.000000 HipLeft:0.124756,-0.679559,0.705537,-0.157650 HipRight:-0.127930,0.678511,0.702763,-0.171405 KneeLeft:0.036661,-0.703423,0.061885,0.707123 KneeRight:-0.015866,0.709672,0.038011,0.703327 Neck:0.029814,-0.013133,0.996946,-0.070975 ShoulderLeft:-0.010365,0.781147,-0.619462,0.077256 ShoulderRight:0.028496,0.787403,0.615085,-0.029255 SpineBase:-0.003876,-0.009486,0.999416,-0.032609 SpineMid:0.012739,-0.010027,0.999342,-0.032447 SpineShoulder:0.029730,-0.011679,0.998216,-0.050443 ThumbLeft:0.000000,0.000000,0.000000,0.000000 ThumbRight:0.000000,0.000000,0.000000,0.000000 WristLeft:-0.450596,0.830839,0.007147,-0.326525 WristRight:-0.071972,0.627914,-0.043867,0.773705 END:
KINECT_DATA POSITION:9.091631,1.036996,-11.273408 HEAD_JOINT1:0.984552,0.154739,-0.000000,0.081933 LARM_JOINT2:0.882813,0.000000,-0.329700,-0.334573 LARM_JOINT3:0.974787,0.000000,-0.222056,0.021946 LLEG_JOINT2:0.997509,0.018086,0.000000,0.068184 LLEG_JOINT4:0.995097,0.089141,0.000000,-0.042843 RARM_JOINT2:0.802824,0.000000,-0.063622,0.592812 RARM_JOINT3:0.973782,0.000000,0.162726,0.158964 RLEG_JOINT2:0.999108,0.013621,0.000000,-0.039960 RLEG_JOINT4:0.994462,0.100918,0.000000,0.029329 WAIST:0.999999,-0.000000,0.000479,0.001659 WAIST_JOINT0:0.999316,0.000000,-0.036538,0.005626 WAIST_JOINT1:0.998343,0.056275,0.000000,-0.011977 END:
KINECT_DATA_Sensor  AnkleLeft:0.061685,0.734329,-0.091322,-0.669788 AnkleRight:0.080092,0.743821,0.082131,0.658460 ElbowLeft:-0.396239,0.773201,-0.105373,-0.483789 ElbowRight:0.019630,0.866986,0.188475,0.460898 FootLeft:0.000000,0.000000,0.000000,0.000000 FootRight:0.000000,0.000000,0.000000,0.000000 HandLeft:-0.509663,0.854359,-0.088462,-0.049896 HandRight:0.023873,0.630565,-0.054108,0.773880 HandTipLeft:0.000000,0.000000,0.000000,0.000000 HandTipRight:0.000000,0.000000,0.000000,0.000000 Head:0.000000,0.000000,0.000000,0.000000 HipLeft:0.126114,-0.679299,0.705149,-0.159415 HipRight:-0.125820,0.678787,0.703287,-0.169723 KneeLeft:-0.036508,0.705549,-0.062223,-0.704979 KneeRight:-0.017435,0.707565,0.036723,0.705478 Neck:0.035957,-0.013617,0.996710,-0.071352 ShoulderLeft:-0.016390,0.780746,-0.618959,0.084005 ShoulderRight:0.030400,0.787277,0.615286,-0.026349 SpineBase:-0.000899,-0.009446,0.999412,-0.032946 SpineMid:0.017300,-0.010045,0.999263,-0.032769 SpineShoulder:0.035890,-0.012003,0.997989,-0.050857 ThumbLeft:0.000000,0.000000,0.000000,0.000000 ThumbRight:0.000000,0.000000,0.000000,0.000000 WristLeft:-0.470786,0.868911,-0.129305,-0.081451 WristRight:-0.072225,0.618925,-0.046009,0.780768 END:
KINECT_DATA POSITION:9.096737,1.080223,-11.403775 HEAD_JOINT1:0.985076,0.151393,-0.000000,0.081889 LARM_JOINT2:0.876750,0.000000,-0.390383,-0.280909 LARM_JOINT3:0.988186,0.000000,-0.151734,-0.021550 LLEG_JOINT2:0.997542,0.018371,0.000000,0.067619 LLEG_JOINT4:0.994997,0.091000,0.000000,-0.041220 RARM_JOINT2:0.804633,0.000000,-0.065263,0.590174 RARM_JOINT3:0.974236,0.000000,0.159810,0.159140 RLEG_JOINT2:0.999113,0.011192,0.000000,-0.040599 RLEG_JOINT4:0.994445,0.101118,0.000000,0.029230 WAIST:0.999991,0.000000,-0.003858,0.001616 WAIST_JOINT0:0.998697,0.000000,-0.050697,0.005916 WAIST_JOINT1:0.998314,0.056699,0.000000,-0.012461 END:
KINECT_DATA_Sensor  AnkleLeft:0.063248,0.744390,-0.093073,-0.658194 AnkleRight:0.078925,0.746477,0.080279,0.655818 ElbowLeft:-0.428767,0.841236,-0.164146,-0.285548 ElbowRight:0.020850,0.865409,0.192339,0.462209 FootLeft:0.000000,0.000000,0.000000,0.000000 FootRight:0.000000,0.000000,0.000000,0.000000 HandLeft:-0.497026,0.860848,-0.105097,-0.029321 HandRight:0.024528,0.684757,-0.040674,0.727223 HandTipLeft:0.000000,0.000000,0.000000,0.000000 HandTipRight:0.000000,0.000000,0.000000,0.000000 Head:0.000000,0.000000,0.000000,0.000000 HipLeft:0.127805,-0.678850,0.704698,-0.161957 HipRight:-0.122219,0.679392,0.703880,-0.167459 KneeLeft:-0.036142,0.708619,-0.061841,-0.701946 KneeRight:-0.019477,0.704495,0.035579,0.708549 Neck:0.050311,-0.014754,0.996056,-0.071582 ShoulderLeft:-0.029685,0.778921,-0.618634,0.098455 ShoulderRight:0.035712,0.786365,0.616457,-0.018335 SpineBase:0.003416,-0.009703,0.999377,-0.033774 SpineMid:0.026614,-0.010484,0.999028,-0.033539 SpineShoulder:0.050280,-0.012781,0.997339,-0.051226 ThumbLeft:0.000000,0.000000,0.000000,0.000000 ThumbRight:0.000000,0.000000,0.000000,0.000000 WristLeft:-0.443933,0.883079,-0.139886,-0.059396 WristRight:-0.076084,0.672840,-0.037410,0.734914 END:
KINECT_DATA POSITION:9.084281,1.121074,-11.573100 HEAD_JOINT1:0.985424,0.147586,-0.000000,0.084610 LARM_JOINT2:0.871285,0.000000,-0.391211,-0.296338 LARM_JOINT3:0.987316,0.000000,-0.158196,-0.013446 LLEG_JOINT2:0.997526,0.018926,0.000000,0.067708 LLEG_JOINT4:0.994993,0.090459,0.000000,-0.042503 RARM_JOINT2:0.802301,0.000000,-0.066052,0.593254 RARM_JOINT3:0.974406,0.000000,0.162589,0.155232 RLEG_JOINT2:0.999109,0.007657,0.000000,-0.041506 RLEG_JOINT4:0.994204,0.103685,0.000000,0.028410 WAIST:0.999952,0.000000,-0.009571,0.002054 WAIST_JOINT0:0.998207,0.000000,-0.059586,0.005654 WAIST_JOINT1:0.998209,0.058194,0.000000,-0.013900 END:
KINECT_DATA_Sensor  AnkleLeft:0.063014,0.746554,-0.093035,-0.655767 AnkleRight:0.070217,0.679563,0.086948,0.725054 ElbowLeft:-0.429900,0.822245,-0.114325,-0.355005 ElbowRight:0.023385,0.858873,0.190791,0.474752 FootLeft:0.000000,0.000000,0.000000,0.000000 FootRight:0.000000,0.000000,0.000000,0.000000 HandLeft:-0.111074,0.338817,-0.476253,0.803772 HandRight:0.019912,0.680307,-0.040890,0.731515 HandTipLeft:0.000000,0.000000,0.000000,0.000000 HandTipRight:0.000000,0.000000,0.000000,0.000000 Head:0.000000,0.000000,0.000000,0.000000 HipLeft:0.129808,-0.677735,0.704380,-0.166354 HipRight:-0.117230,0.680238,0.704277,-0.165915 KneeLeft:-0.036473,0.712550,-0.062406,-0.697888 KneeRight:-0.022116,0.700488,0.033563,0.712531 Neck:0.059159,-0.016041,0.995385,-0.073841 ShoulderLeft:-0.034324,0.777261,-0.619247,0.105929 ShoulderRight:0.042660,0.784913,0.618018,-0.012006 SpineBase:0.009037,-0.010168,0.999258,-0.036036 SpineMid:0.033861,-0.011060,0.998725,-0.035772 SpineShoulder:0.059162,-0.013585,0.996775,-0.052482 ThumbLeft:0.000000,0.000000,0.000000,0.000000 ThumbRight:0.000000,0.000000,0.000000,0.000000 WristLeft:-0.044558,0.372463,-0.472076,0.797765 WristRight:-0.076687,0.668944,-0.036304,0.738454 END:
KINECT_DATA POSITION:9.108411,1.136421,-11.672295 HEAD_JOINT1:0.985414,0.144366,-0.000000,0.090100 LARM_JOINT2:0.870222,0.000000,-0.395660,-0.293540 LARM_JOINT3:0.988839,0.000000,-0.148484,-0.012269 LLEG_JOINT2:0.997567,0.018609,0.000000,0.067178 LLEG_JOINT4:0.994941,0.090251,0.000000,-0.044123 RARM_JOINT2:0.800799,0.000000,-0.066581,0.595220 RARM_JOINT3:0.974070,0.000000,0.164835,0.154973 RLEG_JOINT2:0.999088,0.007254,0.000000,-0.042068 RLEG_JOINT4:0.993982,0.105721,0.000000,0.028694 WAIST:0.999929,0.000000,-0.011649,0.002618 WAIST_JOINT0:0.997913,0.000000,-0.064339,0.005482 WAIST_JOINT1:0.998059,0.060343,0.000000,-0.015388 END:
KINECT_DATA_Sensor  AnkleLeft:0.062355,0.739753,-0.092428,-0.663577 AnkleRight:0.071610,0.676633,0.087889,0.727540 ElbowLeft:-0.429067,0.830505,-0.119789,-0.334387 ElbowRight:0.025595,0.855186,0.190654,0.481303 FootLeft:0.000000,0.000000,0.000000,0.000000 FootRight:0.000000,0.000000,0.000000,0.000000 HandLeft:-0.048146,0.263972,-0.489964,0.829419 HandRight:-0.002569,0.940888,-0.054034,0.334371 HandTipLeft:0.000000,0.000000,0.000000,0.000000 HandTipRight:0.000000,0.000000,0.000000,0.000000 Head:0.000000,0.000000,0.000000,0.000000 HipLeft:0.130449,-0.676848,0.704580,-0.168604 HipRight:-0.115282,0.680614,0.704209,-0.166026 KneeLeft:-0.036847,0.713923,-0.062130,-0.696489 KneeRight:-0.022323,0.699065,0.033336,0.713932 Neck:0.063976,-0.017359,0.994848,-0.076706 ShoulderLeft:-0.036713,0.776125,-0.619600,0.111259 ShoulderRight:0.046701,0.783712,0.619288,-0.009836 SpineBase:0.011043,-0.010185,0.999184,-0.037499 SpineMid:0.037294,-0.011167,0.998549,-0.037219 SpineShoulder:0.063998,-0.014556,0.996363,-0.054346 ThumbLeft:0.000000,0.000000,0.000000,0.000000 ThumbRight:0.000000,0.000000,0.000000,0.000000 WristLeft:0.001085,0.293335,-0.468989,0.833068 WristRight:-0.083611,0.939492,0.006124,0.332155 END:
KINECT_DATA POSITION:9.103945,1.147665,-11.717165 HEAD_JOINT1:0.985211,0.144778,-0.000000,0.091639 LARM_JOINT2:0.870098,0.000000,-0.397847,-0.290943 LARM_JOINT3:0.990368,0.000000,-0.137742,-0.014117 LLEG_JOINT2:0.997555,0.018340,0.000000,0.067429 LLEG_JOINT4:0.994935,0.089556,0.000000,-0.045649 RARM_JOINT2:0.800287,0.000000,-0.066619,0.595905 RARM_JOINT3:0.972769,0.000000,0.171088,0.156361 RLEG_JOINT2:0.999072,0.007506,0.000000,-0.042419 RLEG_JOINT4:0.994042,0.105229,0.000000,0.028409 WAIST:0.999928,0.000000,-0.011642,0.002967 WAIST_JOINT0:0.998008,0.000000,-0.062851,0.005539 WAIST_JOINT1:0.998023,0.060835,0.000000,-0.015812 END:
KINECT_DATA_Sensor  AnkleLeft:0.062199,0.739247,-0.091152,-0.664331 AnkleRight:0.071342,0.677538,0.087839,0.726730 ElbowLeft:-0.428504,0.836941,-0.128627,-0.315228 ElbowRight:0.025961,0.854187,0.190264,0.483208 FootLeft:0.000000,0.000000,0.000000,0.000000 FootRight:0.000000,0.000000,0.000000,0.000000 HandLeft:0.135931,-0.009057,-0.467375,0.873499 HandRight:0.010204,0.690795,-0.071194,0.719465 HandTipLeft:0.000000,0.000000,0.000000,0.000000 HandTipRight:0.000000,0.000000,0.000000,0.000000 Head:0.000000,0.000000,0.000000,0.000000 HipLeft:0.130517,-0.676515,0.704816,-0.168901 HipRight:-0.115168,0.680702,0.704022,-0.166536 KneeLeft:-0.037464,0.713852,-0.062359,-0.696507 KneeRight:-0.022139,0.699105,0.033517,0.713890 Neck:0.062329,-0.017284,0.994931,-0.077003 ShoulderLeft:-0.033322,0.776098,-0.620228,0.108985 ShoulderRight:0.047959,0.783678,0.619231,-0.010082 SpineBase:0.010998,-0.010372,0.999169,-0.037855 SpineMid:0.036449,-0.011333,0.998564,-0.037579 SpineShoulder:0.062343,-0.014578,0.996435,-0.054933 ThumbLeft:0.000000,0.000000,0.000000,0.000000 ThumbRight:0.000000,0.000000,0.000000,0.000000 WristLeft:0.152958,0.004911,-0.439876,0.884923 WristRight:-0.077094,0.678113,-0.033906,0.730116 END:
KINECT_DATA POSITION:9.107899,1.150579,-11.742258 HEAD_JOINT1:0.984998,0.146378,-0.000000,0.091392 LARM_JOINT2:0.873249,0.000000,-0.393531,-0.287350 LARM_JOINT3:0.992259,0.000000,-0.123797,-0.009835 LLEG_JOINT2:0.997586,0.017822,0.000000,0.067118 LLEG_JOINT4:0.995044,0.089055,0.000000,-0.044239 RARM_JOINT2:0.802561,0.000000,-0.067317,0.592760 RARM_JOINT3:0.971420,0.000000,0.175377,0.159960 RLEG_JOINT2:0.999081,0.006819,0.000000,-0.042312 RLEG_JOINT4:0.994040,0.104919,0.000000,0.029605 WAIST:0.999934,0.000000,-0.011097,0.003080 WAIST_JOINT0:0.998275,0.000000,-0.058437,0.005660 WAIST_JOINT1:0.998030,0.060749,0.000000,-0.015667 END:
KINECT_DATA_Sensor  AnkleLeft:0.060614,0.738521,-0.091366,-0.665255 AnkleRight:0.071826,0.679911,0.085995,0.724684 ElbowLeft:-0.426730,0.840954,-0.143581,-0.300137 ElbowRight:0.025918,0.856966,0.193501,0.476963 FootLeft:0.000000,0.000000,0.000000,0.000000 FootRight:0.000000,0.000000,0.000000,0.000000 HandLeft:-0.018399,0.352130,-0.493642,0.794974 HandRight:-0.000473,0.669003,-0.081247,0.738805 HandTipLeft:0.000000,0.000000,0.000000,0.000000 HandTipRight:0.000000,0.000000,0.000000,0.000000 Head:0.000000,0.000000,0.000000,0.000000 HipLeft:0.130342,-0.676478,0.704966,-0.168554 HipRight:-0.115615,0.680679,0.703915,-0.166771 KneeLeft:-0.037654,0.713453,-0.061867,-0.696950 KneeRight:-0.022497,0.699492,0.032867,0.713529 Neck:0.057742,-0.016584,0.995248,-0.076632 ShoulderLeft:-0.029510,0.776182,-0.621005,0.104990 ShoulderRight:0.045811,0.784138,0.618753,-0.013206 SpineBase:0.010452,-0.010310,0.999181,-0.037717 SpineMid:0.033884,-0.011192,0.998661,-0.037465 SpineShoulder:0.057734,-0.014179,0.996714,-0.055023 ThumbLeft:0.000000,0.000000,0.000000,0.000000 ThumbRight:0.000000,0.000000,0.000000,0.000000 WristLeft:-0.022790,0.356051,-0.461580,0.812190 WristRight:-0.075873,0.657810,-0.036678,0.748455 END:
KINECT_DATA POSITION:9.105184,1.139610,-11.782551 HEAD_JOINT1:0.984658,0.149835,-0.000000,0.089432 LARM_JOINT2:0.880112,0.000000,-0.372860,-0.293900 LARM_JOINT3:0.990527,0.000000,-0.137215,0.005229 LLEG_JOINT2:0.997600,0.017537,0.000000,0.066984 LLEG_JOINT4:0.994976,0.089898,0.000000,-0.044049 RARM_JOINT2:0.807771,0.000000,-0.065277,0.585870 RARM_JOINT3:0.970330,0.000000,0.175055,0.166779 RLEG_JOINT2:0.999079,0.006508,0.000000,-0.042421 RLEG_JOINT4:0.993774,0.107834,0.000000,0.028003 WAIST:0.999956,0.000000,-0.008857,0.003048 WAIST_JOINT0:0.998602,0.000000,-0.052526,0.005968 WAIST_JOINT1:0.998080,0.060106,0.000000,-0.014980 END:
KINECT_DATA_Sensor  AnkleLeft:0.061239,0.737184,-0.091598,-0.666648 AnkleRight:0.080903,0.751098,0.081427,0.650136 ElbowLeft:-0.427036,0.809872,-0.122428,-0.383091 ElbowRight:0.022932,0.864311,0.199356,0.461192 FootLeft:0.000000,0.000000,0.000000,0.000000 FootRight:0.000000,0.000000,0.000000,0.000000 HandLeft:0.183849,0.042609,-0.458078,0.868647 HandRight:-0.005048,0.673479,-0.077354,0.735130 HandTipLeft:0.000000,0.000000,0.000000,0.000000 HandTipRight:0.000000,0.000000,0.000000,0.000000 Head:0.000000,0.000000,0.000000,0.000000 HipLeft:0.129197,-0.676979,0.705139,-0.166690 HipRight:-0.117306,0.680569,0.703612,-0.167318 KneeLeft:-0.037602,0.711906,-0.061628,-0.698554 KneeRight:-0.022898,0.701053,0.032694,0.711991 Neck:0.051746,-0.015531,0.995671,-0.075636 ShoulderLeft:-0.029165,0.776970,-0.620459,0.102457 ShoulderRight:0.038327,0.785885,0.616862,-0.019918 SpineBase:0.008241,-0.010080,0.999233,-0.036944 SpineMid:0.029769,-0.010874,0.998823,-0.036718 SpineShoulder:0.051714,-0.013498,0.997080,-0.054545 ThumbLeft:0.000000,0.000000,0.000000,0.000000 ThumbRight:0.000000,0.000000,0.000000,0.000000 WristLeft:0.162731,0.033715,-0.448133,0.878384 WristRight:-0.076786,0.663117,-0.038703,0.743560 END:
KINECT_DATA POSITION:9.057507,1.124177,-11.869156 HEAD_JOINT1:0.984163,0.154778,-0.000000,0.086409 LARM_JOINT2:0.881519,0.000000,-0.373677,-0.288598 LARM_JOINT3:0.990356,0.000000,-0.138506,-0.003466 LLEG_JOINT2:0.997621,0.017036,0.000000,0.066800 LLEG_JOINT4:0.995124,0.089083,0.000000,-0.042335 RARM_JOINT2:0.804642,0.000000,-0.063026,0.590406 RARM_JOINT3:0.971751,0.000000,0.167805,0.165956 RLEG_JOINT2:0.999103,0.007287,0.000000,-0.041715 RLEG_JOINT4:0.994091,0.105359,0.000000,0.026137 WAIST:0.999976,0.000000,-0.006116,0.003188 WAIST_JOINT0:0.998777,0.000000,-0.048794,0.008002 WAIST_JOINT1:0.998146,0.059079,0.000000,-0.014644 END:
KINECT_DATA_Sensor  AnkleLeft:0.060959,0.746892,-0.090739,-0.655899 AnkleRight:0.079828,0.762022,0.080261,0.637580 ElbowLeft:-0.429211,0.813825,-0.134234,-0.368034 ElbowRight:0.021749,0.865111,0.193026,0.462439 FootLeft:0.000000,0.000000,0.000000,0.000000 FootRight:0.000000,0.000000,0.000000,0.000000 HandLeft:0.152247,0.063806,-0.465531,0.869500 HandRight:0.008489,0.777789,-0.078962,0.623488 HandTipLeft:0.000000,0.000000,0.000000,0.000000 HandTipRight:0.000000,0.000000,0.000000,0.000000 Head:0.000000,0.000000,0.000000,0.000000 HipLeft:0.128139,-0.677420,0.705457,-0.164359 HipRight:-0.119586,0.680483,0.703139,-0.168041 KneeLeft:-0.037759,0.709985,-0.061338,-0.700524 KneeRight:-0.021844,0.703002,0.032568,0.710105 Neck:0.048429,-0.015006,0.995941,-0.074366 ShoulderLeft:-0.027767,0.777038,-0.620946,0.099333 ShoulderRight:0.035389,0.786464,0.616231,-0.021942 SpineBase:0.005520,-0.009916,0.999294,-0.035811 SpineMid:0.026741,-0.010674,0.998952,-0.035592 SpineShoulder:0.048382,-0.013157,0.997304,-0.053570 ThumbLeft:0.000000,0.000000,0.000000,0.000000 ThumbRight:0.000000,0.000000,0.000000,0.000000 WristLeft:0.153539,0.067825,-0.449910,0.877158 WristRight:-0.080856,0.777620,-0.026470,0.622952 END:
KINECT_DATA POSITION:9.029833,1.120127,-11.962593 HEAD_JOINT1:0.983852,0.157295,-0.000000,0.085403 LARM_JOINT2:0.878541,0.000000,-0.376217,-0.294324 LARM_JOINT3:0.989856,0.000000,-0.142052,0.002463 LLEG_JOINT2:0.997663,0.016021,0.000000,0.066423 LLEG_JOINT4:0.995179,0.088836,0.000000,-0.041568 RARM_JOINT2:0.805128,0.000000,-0.063805,0.589659 RARM_JOINT3:0.971996,0.000000,0.167098,0.165236 RLEG_JOINT2:0.999094,0.007538,0.000000,-0.041878 RLEG_JOINT4:0.994241,0.103273,0.000000,0.028615 WAIST:0.999988,0.000000,-0.003650,0.003271 WAIST_JOINT0:0.998907,0.000000,-0.046083,0.007837 WAIST_JOINT1:0.998188,0.058414,0.000000,-0.014451 END:
KINECT_DATA_Sensor  AnkleLeft:0.058389,0.734181,-0.091112,-0.670275 AnkleRight:0.070459,0.687166,0.085941,0.717950 ElbowLeft:-0.431257,0.799628,-0.112481,-0.402444 ElbowRight:0.021288,0.866793,0.193534,0.459088 FootLeft:0.000000,0.000000,0.000000,0.000000 FootRight:0.000000,0.000000,0.000000,0.000000 HandLeft:-0.030246,0.361181,-0.486034,0.795239 HandRight:0.020190,0.641432,-0.070404,0.763676 HandTipLeft:0.000000,0.000000,0.000000,0.000000 HandTipRight:0.000000,0.000000,0.000000,0.000000 Head:0.000000,0.000000,0.000000,0.000000 HipLeft:0.127068,-0.677757,0.705759,-0.162491 HipRight:-0.121518,0.680281,0.702786,-0.168949 KneeLeft:-0.038125,0.708226,-0.060494,-0.702355 KneeRight:-0.021809,0.704736,0.032742,0.708378 Neck:0.045615,-0.014771,0.996133,-0.073616 ShoulderLeft:-0.026851,0.776622,-0.621859,0.097106 ShoulderRight:0.032690,0.786282,0.616529,-0.024146 SpineBase:0.003067,-0.009810,0.999331,-0.035088 SpineMid:0.024105,-0.010547,0.999045,-0.034874 SpineShoulder:0.045560,-0.012998,0.997475,-0.052900 ThumbLeft:0.000000,0.000000,0.000000,0.000000 ThumbRight:0.000000,0.000000,0.000000,0.000000 WristLeft:-0.015317,0.369663,-0.481803,0.794343 WristRight:-0.073041,0.628538,-0.043157,0.773138 END:
KINECT_DATA POSITION:9.025452,1.119399,-11.992586 HEAD_JOINT1:0.983987,0.156939,-0.000000,0.084496 LARM_JOINT2:0.877416,0.000000,-0.374377,-0.299973 LARM_JOINT3:0.989253,0.000000,-0.146047,0.006971 LLEG_JOINT2:0.997685,0.015731,0.000000,0.066166 LLEG_JOINT4:0.995307,0.088351,0.000000,-0.039476 RARM_JOINT2:0.805905,0.000000,-0.063844,0.588592 RARM_JOINT3:0.971651,0.000000,0.167613,0.166735 RLEG_JOINT2:0.999069,0.006385,0.000000,-0.042664 RLEG_JOINT4:0.993844,0.106146,0.000000,0.031730 WAIST:0.999989,0.000000,-0.003174,0.003365 WAIST_JOINT0:0.998948,0.000000,-0.045122,0.008134 WAIST_JOINT1:0.998189,0.058394,0.000000,-0.014429 END:
KINECT_DATA_Sensor  AnkleLeft:0.056564,0.733968,-0.091990,-0.670543 AnkleRight:0.079852,0.741499,0.079471,0.661428 ElbowLeft:-0.430324,0.786235,-0.096014,-0.432941 ElbowRight:0.021222,0.868115,0.194558,0.456151 FootLeft:0.000000,0.000000,0.000000,0.000000 FootRight:0.000000,0.000000,0.000000,0.000000 HandLeft:-0.003928,0.309569,-0.479605,0.821055 HandRight:0.014969,0.683740,-0.073375,0.725873 HandTipLeft:0.000000,0.000000,0.000000,0.000000 HandTipRight:0.000000,0.000000,0.000000,0.000000 Head:0.000000,0.000000,0.000000,0.000000 HipLeft:0.126871,-0.677749,0.705883,-0.162141 HipRight:-0.121852,0.680280,0.702683,-0.169136 KneeLeft:-0.038187,0.707884,-0.060191,-0.702723 KneeRight:-0.023132,0.705046,0.032410,0.708043 Neck:0.044488,-0.014596,0.996187,-0.073621 ShoulderLeft:-0.026100,0.776071,-0.622712,0.096238 ShoulderRight:0.032002,0.786496,0.616260,-0.024969 SpineBase:0.002591,-0.009795,0.999337,-0.034972 SpineMid:0.023303,-0.010518,0.999069,-0.034762 SpineShoulder:0.044428,-0.012886,0.997529,-0.052880 ThumbLeft:0.000000,0.000000,0.000000,0.000000 ThumbRight:0.000000,0.000000,0.000000,0.000000 WristLeft:0.014657,0.317181,-0.487231,0.813503 WristRight:-0.074987,0.670801,-0.039327,0.736788 END:
KINECT_DATA POSITION:9.042621,1.115767,-12.014985 HEAD_JOINT1:0.983945,0.157304,-0.000000,0.084305 LARM_JOINT2:0.876882,0.000000,-0.369709,-0.307234 LARM_JOINT3:0.988172,0.000000,-0.153043,-0.009691 LLEG_JOINT2:0.997708,0.015046,0.000000,0.065968 LLEG_JOINT4:0.995276,0.088523,0.000000,-0.039863 RARM_JOINT2:0.805586,0.000000,-0.063519,0.589064 RARM_JOINT3:0.971162,0.000000,0.168541,0.168636 RLEG_JOINT2:0.999061,0.006358,0.000000,-0.042850 RLEG_JOINT4:0.994029,0.104764,0.000000,0.030496 WAIST:0.999988,0.000000,-0.003351,0.003543 WAIST_JOINT0:0.998899,0.000000,-0.046187,0.008168 WAIST_JOINT1:0.998188,0.058404,0.000000,-0.014465 END:
KINECT_DATA_Sensor  AnkleLeft:0.057399,0.741099,-0.090762,-0.662751 AnkleRight:0.076935,0.732772,0.080492,0.671302 ElbowLeft:-0.426035,0.776640,-0.085546,-0.456077 ElbowRight:0.021342,0.868189,0.193827,0.456316 FootLeft:0.000000,0.000000,0.000000,0.000000 FootRight:0.000000,0.000000,0.000000,0.000000 HandLeft:-0.057605,0.360498,-0.416135,0.832800 HandRight:0.014326,0.705752,-0.083725,0.703349 HandTipLeft:0.000000,0.000000,0.000000,0.000000 HandTipRight:0.000000,0.000000,0.000000,0.000000 Head:0.000000,0.000000,0.000000,0.000000 HipLeft:0.126966,-0.677591,0.705972,-0.162339 HipRight:-0.121776,0.680419,0.702576,-0.169078 KneeLeft:-0.038670,0.707966,-0.059682,-0.702657 KneeRight:-0.023150,0.704925,0.032402,0.708163 Neck:0.045678,-0.014525,0.996136,-0.073596 ShoulderLeft:-0.028663,0.775779,-0.622609,0.098509 ShoulderRight:0.031004,0.786293,0.616552,-0.025418 SpineBase:0.002758,-0.009621,0.999336,-0.035023 SpineMid:0.023982,-0.010363,0.999052,-0.034811 SpineShoulder:0.045625,-0.012787,0.997475,-0.052893 ThumbLeft:0.000000,0.000000,0.000000,0.000000 ThumbRight:0.000000,0.000000,0.000000,0.000000 WristLeft:-0.017433,0.362656,-0.490638,0.792118 WristRight:-0.075728,0.691708,-0.037408,0.717221 END:
KINECT_DATA POSITION:9.071692,1.097352,-11.980379 HEAD_JOINT1:0.983705,0.158141,-0.000000,0.085528 LARM_JOINT2:0.874619,0.000000,-0.365318,-0.318722 LARM_JOINT3:0.987448,0.000000,-0.157615,-0.010167 LLEG_JOINT2:0.997702,0.015349,0.000000,0.065997 LLEG_JOINT4:0.995238,0.087998,0.000000,-0.041921 RARM_JOINT2:0.808222,0.000000,-0.064595,0.585325 RARM_JOINT3:0.969921,0.000000,0.173402,0.170836 RLEG_JOINT2:0.999068,0.004506,0.000000,-0.042930 RLEG_JOINT4:0.993640,0.108589,0.000000,0.029790 WAIST:0.999986,0.000000,-0.003732,0.003661 WAIST_JOINT0:0.998900,0.000000,-0.046324,0.007302 WAIST_JOINT1:0.998121,0.059567,0.000000,-0.014346 END:
KINECT_DATA_Sensor  AnkleLeft:0.059600,0.749753,-0.088463,-0.653064 AnkleRight:0.072459,0.686789,0.087198,0.717960 ElbowLeft:-0.413897,0.788244,-0.091207,-0.446141 ElbowRight:0.022027,0.868816,0.198458,0.453087 FootLeft:0.000000,0.000000,0.000000,0.000000 FootRight:0.000000,0.000000,0.000000,0.000000 HandLeft:-0.095443,0.414442,-0.414954,0.804327 HandRight:0.000507,0.709324,-0.082015,0.700094 HandTipLeft:0.000000,0.000000,0.000000,0.000000 HandTipRight:0.000000,0.000000,0.000000,0.000000 Head:0.000000,0.000000,0.000000,0.000000 HipLeft:0.126890,-0.677379,0.706049,-0.162946 HipRight:-0.121327,0.680485,0.702564,-0.169185 KneeLeft:-0.038581,0.708235,-0.059988,-0.702365 KneeRight:-0.024427,0.704643,0.031082,0.708459 Neck:0.045579,-0.014250,0.996036,-0.075046 ShoulderLeft:-0.030679,0.775692,-0.622176,0.101282 ShoulderRight:0.028900,0.786493,0.616273,-0.028319 SpineBase:0.003130,-0.009427,0.999320,-0.035513 SpineMid:0.024116,-0.010171,0.999034,-0.035307 SpineShoulder:0.045528,-0.012558,0.997424,-0.053992 ThumbLeft:0.000000,0.000000,0.000000,0.000000 ThumbRight:0.000000,0.000000,0.000000,0.000000 WristLeft:-0.054539,0.420635,-0.474298,0.771448 WristRight:-0.076725,0.697786,-0.037937,0.711174 END:
KINECT_DATA POSITION:9.098569,1.078323,-11.926878 HEAD_JOINT1:0.983498,0.159403,-0.000000,0.085568 LARM_JOINT2:0.876609,0.000000,-0.355599,-0.324200 LARM_JOINT3:0.981452,0.000000,-0.191680,0.003419 LLEG_JOINT2:0.997722,0.015856,0.000000,0.065565 LLEG_JOINT4:0.995361,0.086903,0.000000,-0.041276 RARM_JOINT2:0.805862,0.000000,-0.063657,0.588672 RARM_JOINT3:0.970366,0.000000,0.175003,0.166622 RLEG_JOINT2:0.999069,0.005191,0.000000,-0.042834 RLEG_JOINT4:0.993814,0.107209,0.000000,0.028976 WAIST:0.999988,0.000000,-0.003241,0.003796 WAIST_JOINT0:0.998961,0.000000,-0.044900,0.007850 WAIST_JOINT1:0.998114,0.059790,0.000000,-0.013944 END:
KINECT_DATA_Sensor  AnkleLeft:0.058976,0.749580,-0.088312,-0.653340 AnkleRight:0.079866,0.755591,0.079557,0.645271 ElbowLeft:-0.408662,0.780496,-0.090773,-0.464308 ElbowRight:0.022184,0.866861,0.194319,0.458585 FootLeft:0.000000,0.000000,0.000000,0.000000 FootRight:0.000000,0.000000,0.000000,0.000000 HandLeft:0.111189,-0.064524,-0.459197,0.878983 HandRight:-0.006447,0.721980,-0.090524,0.685937 HandTipLeft:0.000000,0.000000,0.000000,0.000000 HandTipRight:0.000000,0.000000,0.000000,0.000000 Head:0.000000,0.000000,0.000000,0.000000 HipLeft:0.126583,-0.677287,0.706197,-0.162929 HipRight:-0.121806,0.680500,0.702390,-0.169502 KneeLeft:-0.037981,0.707935,-0.060158,-0.702685 KneeRight:-0.023795,0.704990,0.031388,0.708123 Neck:0.044640,-0.013668,0.996067,-0.075312 ShoulderLeft:-0.030776,0.775938,-0.621846,0.101389 ShoulderRight:0.027578,0.786115,0.616735,-0.030012 SpineBase:0.002648,-0.008966,0.999323,-0.035572 SpineMid:0.023412,-0.009703,0.999053,-0.035378 SpineShoulder:0.044592,-0.012051,0.997460,-0.054224 ThumbLeft:0.000000,0.000000,0.000000,0.000000 ThumbRight:0.000000,0.000000,0.000000,0.000000 WristLeft:0.184970,-0.022557,-0.447760,0.874522 WristRight:-0.077594,0.722481,-0.034513,0.686155 END:
KINECT_DATA POSITION:9.105231,1.055189,-11.814594 HEAD_JOINT1:0.983812,0.158549,-0.000000,0.083523 LARM_JOINT2:0.877306,0.000000,-0.351128,-0.327175 LARM_JOINT3:0.980700,0.000000,-0.195490,0.003377 LLEG_JOINT2:0.997769,0.015085,0.000000,0.065042 LLEG_JOINT4:0.995025,0.090389,0.000000,-0.041897 RARM_JOINT2:0.802694,0.000000,-0.058619,0.593503 RARM_JOINT3:0.971058,0.000000,0.177725,0.159562 RLEG_JOINT2:0.999020,0.006521,0.000000,-0.043778 RLEG_JOINT4:0.993870,0.106250,0.000000,0.030561 WAIST:0.999990,0.000000,-0.000588,0.004392 WAIST_JOINT0:0.999063,0.000000,-0.042374,0.008783 WAIST_JOINT1:0.998124,0.059722,0.000000,-0.013506 END:
KINECT_DATA_Sensor  AnkleLeft:0.059529,0.732093,-0.090892,-0.672484 AnkleRight:0.079669,0.748708,0.080106,0.653202 ElbowLeft:-0.405789,0.777718,-0.093627,-0.470876 ElbowRight:0.018990,0.864823,0.186949,0.465586 FootLeft:0.000000,0.000000,0.000000,0.000000 FootRight:0.000000,0.000000,0.000000,0.000000 HandLeft:0.095766,0.001743,-0.450215,0.887768 HandRight:-0.009364,0.718870,-0.089501,0.689295 HandTipLeft:0.000000,0.000000,0.000000,0.000000 HandTipRight:0.000000,0.000000,0.000000,0.000000 Head:0.000000,0.000000,0.000000,0.000000 HipLeft:0.125293,-0.677162,0.706849,-0.161610 HipRight:-0.123879,0.680521,0.701646,-0.170989 KneeLeft:-0.038429,0.706019,-0.059754,-0.704620 KneeRight:-0.023187,0.706869,0.032502,0.706217 Neck:0.042527,-0.012715,0.996177,-0.075238 ShoulderLeft:-0.028957,0.776025,-0.622144,0.099411 ShoulderRight:0.026620,0.785894,0.616989,-0.031419 SpineBase:-0.000017,-0.008311,0.999341,-0.035336 SpineMid:0.021023,-0.009053,0.999120,-0.035153 SpineShoulder:0.042481,-0.011242,0.997565,-0.054148 ThumbLeft:0.000000,0.000000,0.000000,0.000000 ThumbRight:0.000000,0.000000,0.000000,0.000000 WristLeft:0.154343,0.028746,-0.463580,0.872036 WristRight:-0.080168,0.718023,-0.041722,0.690127 END:
KINECT_DATA POSITION:9.129420,1.050358,-11.755681 HEAD_JOINT1:0.984065,0.157929,-0.000000,0.081702 LARM_JOINT2:0.875409,0.000000,-0.353028,-0.330197 LARM_JOINT3:0.981822,0.000000,-0.189563,0.009589 LLEG_JOINT2:0.997804,0.015582,0.000000,0.064378 LLEG_JOINT4:0.995039,0.090098,0.000000,-0.042180 RARM_JOINT2:0.802582,0.000000,-0.054703,0.594028 RARM_JOINT3:0.973150,0.000000,0.168990,0.156273 RLEG_JOINT2:0.998973,0.007049,0.000000,-0.044764 RLEG_JOINT4:0.993679,0.107829,0.000000,0.031210 WAIST:0.999988,-0.000000,0.000311,0.004964 WAIST_JOINT0:0.999147,0.000000,-0.040173,0.009525 WAIST_JOINT1:0.998103,0.060161,0.000000,-0.013056 END:
KINECT_DATA_Sensor  AnkleLeft:0.060510,0.735178,-0.090361,-0.669094 AnkleRight:0.079593,0.735003,0.083075,0.668232 ElbowLeft:-0.405106,0.773190,-0.086875,-0.480124 ElbowRight:0.017924,0.868078,0.184485,0.460526 FootLeft:0.000000,0.000000,0.000000,0.000000 FootRight:0.000000,0.000000,0.000000,0.000000 HandLeft:-0.063553,0.338873,-0.455097,0.820983 HandRight:-0.002510,0.780426,-0.066666,0.621679 HandTipLeft:0.000000,0.000000,0.000000,0.000000 HandTipRight:0.000000,0.000000,0.000000,0.000000 Head:0.000000,0.000000,0.000000,0.000000 HipLeft:0.124538,-0.676807,0.707351,-0.161484 HipRight:-0.124443,0.680761,0.701159,-0.171622 KneeLeft:-0.037958,0.705402,-0.060072,-0.705237 KneeRight:-0.023139,0.707503,0.033146,0.705554 Neck:0.040074,-0.011569,0.996255,-0.075739 ShoulderLeft:-0.024365,0.775435,-0.623614,0.095980 ShoulderRight:0.028001,0.786159,0.616573,-0.031731 SpineBase:-0.000934,-0.007577,0.999337,-0.035610 SpineMid:0.019352,-0.008298,0.999150,-0.035449 SpineShoulder:0.040034,-0.010239,0.997651,-0.054627 ThumbLeft:0.000000,0.000000,0.000000,0.000000 ThumbRight:0.000000,0.000000,0.000000,0.000000 WristLeft:-0.027506,0.349520,-0.489206,0.798597 WristRight:-0.081783,0.777842,-0.034557,0.622157 END:
KINECT_DATA POSITION:9.106951,1.047979,-11.641418 HEAD_JOINT1:0.984320,0.157853,-0.000000,0.078722 LARM_JOINT2:0.875137,0.000000,-0.354817,-0.328999 LARM_JOINT3:0.980723,0.000000,-0.189338,0.048312 LLEG_JOINT2:0.997807,0.015242,0.000000,0.064417 LLEG_JOINT4:0.995168,0.087894,0.000000,-0.043755 RARM_JOINT2:0.804205,0.000000,-0.055480,0.591756 RARM_JOINT3:0.971155,0.000000,0.178380,0.158237 RLEG_JOINT2:0.998979,0.008244,0.000000,-0.044425 RLEG_JOINT4:0.993678,0.107226,0.000000,0.033274 WAIST:0.999976,-0.000000,0.004679,0.005104 WAIST_JOINT0:0.999326,0.000000,-0.035348,0.009909 WAIST_JOINT1:0.998159,0.059433,0.000000,-0.012118 END:
KINECT_DATA_Sensor  AnkleLeft:0.059577,0.729979,-0.087592,-0.675210 AnkleRight:0.083075,0.751849,0.080178,0.649147 ElbowLeft:-0.410319,0.751463,-0.072342,-0.511574 ElbowRight:0.017320,0.872378,0.185894,0.451773 FootLeft:0.000000,0.000000,0.000000,0.000000 FootRight:0.000000,0.000000,0.000000,0.000000 HandLeft:0.101796,0.133622,-0.519753,0.837640 HandRight:-0.048316,0.858727,-0.087157,0.502650 HandTipLeft:0.000000,0.000000,0.000000,0.000000 HandTipRight:0.000000,0.000000,0.000000,0.000000 Head:0.000000,0.000000,0.000000,0.000000 HipLeft:0.122529,-0.677301,0.707830,-0.158829 HipRight:-0.127938,0.680365,0.700426,-0.173604 KneeLeft:0.038077,-0.702319,0.060110,0.708297 KneeRight:-0.022118,0.710566,0.033538,0.702482 Neck:0.034753,-0.010483,0.996526,-0.074960 ShoulderLeft:-0.018973,0.774779,-0.625550,0.089693 ShoulderRight:0.026470,0.786732,0.615808,-0.033643 SpineBase:-0.005268,-0.006940,0.999358,-0.034752 SpineMid:0.014527,-0.007627,0.999266,-0.034608 SpineShoulder:0.034703,-0.009388,0.997899,-0.053902 ThumbLeft:0.000000,0.000000,0.000000,0.000000 ThumbRight:0.000000,0.000000,0.000000,0.000000 WristLeft:0.106076,0.142154,-0.492090,0.852284 WristRight:-0.084612,0.858897,-0.023635,0.504557 END:
KINECT_DATA POSITION:8.965211,1.024153,-11.415016 HEAD_JOINT1:0.985596,0.150636,-0.000000,0.076867 LARM_JOINT2:0.904722,0.000000,-0.366364,-0.217381 LARM_JOINT3:0.981909,0.000000,-0.184188,0.043919 LLEG_JOINT2:0.997855,0.015403,0.000000,0.063631 LLEG_JOINT4:0.995365,0.087228,0.000000,-0.040502 RARM_JOINT2:0.804568,0.000000,-0.055042,0.591305 RARM_JOINT3:0.971942,0.000000,0.175386,0.156747 RLEG_JOINT2:0.998940,0.011914,0.000000,-0.044463 RLEG_JOINT4:0.994082,0.104194,0.000000,0.030749 WAIST:0.999931,-0.000000,0.009749,0.006623 WAIST_JOINT0:0.999440,0.000000,-0.031457,0.011417 WAIST_JOINT1:0.998497,0.053944,0.000000,-0.009675 END:
KINECT_DATA_Sensor  AnkleLeft:0.058633,0.739030,-0.088831,-0.665211 AnkleRight:0.082683,0.757464,0.081500,0.642472 ElbowLeft:-0.488689,0.755597,-0.167503,-0.402739 ElbowRight:0.011446,0.871831,0.180432,0.455219 FootLeft:0.000000,0.000000,0.000000,0.000000 FootRight:0.000000,0.000000,0.000000,0.000000 HandLeft:0.086985,0.215686,-0.626559,0.743867 HandRight:-0.016274,0.751405,-0.091550,0.653257 HandTipLeft:0.000000,0.000000,0.000000,0.000000 HandTipRight:0.000000,0.000000,0.000000,0.000000 Head:0.000000,0.000000,0.000000,0.000000 HipLeft:0.121148,-0.677379,0.709132,-0.153662 HipRight:-0.133440,0.681329,0.698438,-0.173692 KneeLeft:0.038190,-0.698740,0.060912,0.711754 KneeRight:-0.018691,0.714135,0.034977,0.698884 Neck:0.031715,-0.006420,0.997134,-0.068380 ShoulderLeft:-0.022778,0.779073,-0.620666,0.085441 ShoulderRight:0.018256,0.790324,0.611457,-0.034271 SpineBase:-0.010303,-0.004975,0.999451,-0.031106 SpineMid:0.010466,-0.005620,0.999449,-0.030996 SpineShoulder:0.031707,-0.005650,0.998284,-0.048900 ThumbLeft:0.000000,0.000000,0.000000,0.000000 ThumbRight:0.000000,0.000000,0.000000,0.000000 WristLeft:0.086042,0.240099,-0.544947,0.798738 WristRight:-0.083748,0.750040,-0.044790,0.654538 END:
KINECT_DATA POSITION:8.807524,1.098788,-11.398613 HEAD_JOINT1:0.985615,0.144915,-0.000000,0.086969 LARM_JOINT2:0.910525,0.000000,-0.379864,-0.163243 LARM_JOINT3:0.980405,0.000000,-0.182317,0.074604 LLEG_JOINT2:0.997932,0.015613,0.000000,0.062357 LLEG_JOINT4:0.995303,0.088467,0.000000,-0.039312 RARM_JOINT2:0.799501,0.000000,-0.051661,0.598439 RARM_JOINT3:0.974877,0.000000,0.160762,0.154179 RLEG_JOINT2:0.998865,0.011234,0.000000,-0.046285 RLEG_JOINT4:0.994063,0.104470,0.000000,0.030400 WAIST:0.999937,-0.000000,0.006440,0.009194 WAIST_JOINT0:0.999178,0.000000,-0.037280,0.015906 WAIST_JOINT1:0.998718,0.049664,0.000000,-0.009826 END:
KINECT_DATA_Sensor  AnkleLeft:0.058600,0.746502,-0.091339,-0.656474 AnkleRight:0.081288,0.742413,0.082313,0.659878 ElbowLeft:0.552117,-0.682870,0.112172,0.465052 ElbowRight:0.008989,0.866549,0.167591,0.470026 FootLeft:0.000000,0.000000,0.000000,0.000000 FootRight:0.000000,0.000000,0.000000,0.000000 HandLeft:0.251827,0.010971,-0.612920,0.748860 HandRight:0.037911,0.731461,-0.079957,0.676117 HandTipLeft:0.000000,0.000000,0.000000,0.000000 HandTipRight:0.000000,0.000000,0.000000,0.000000 Head:0.000000,0.000000,0.000000,0.000000 HipLeft:0.125003,-0.675380,0.710321,-0.153884 HipRight:-0.134684,0.684014,0.696762,-0.168839 KneeLeft:0.039138,-0.701072,0.061858,0.709323 KneeRight:-0.018522,0.711782,0.034032,0.701331 Neck:0.037889,-0.004360,0.997182,-0.064599 ShoulderLeft:-0.032288,0.777923,-0.621140,0.089321 ShoulderRight:0.016491,0.793506,0.607692,-0.028036 SpineBase:-0.006971,-0.001276,0.999599,-0.027400 SpineMid:0.015306,-0.001886,0.999507,-0.027365 SpineShoulder:0.037989,-0.002812,0.998277,-0.044641 ThumbLeft:0.000000,0.000000,0.000000,0.000000 ThumbRight:0.000000,0.000000,0.000000,0.000000 WristLeft:0.254627,0.026954,-0.574125,0.777701 WristRight:-0.084018,0.727801,-0.051471,0.678673 END:
KINECT_DATA POSITION:8.652851,1.175572,-11.464941 HEAD_JOINT1:0.985933,0.139642,-0.000000,0.091848 LARM_JOINT2:0.910601,0.000000,-0.392765,-0.128616 LARM_JOINT3:0.982949,0.000000,-0.173052,0.062170 LLEG_JOINT2:0.997949,0.016241,0.000000,0.061926 LLEG_JOINT4:0.994987,0.089382,0.000000,-0.044857 RARM_JOINT2:0.796683,0.000000,-0.052100,0.602148 RARM_JOINT3:0.975489,0.000000,0.159511,0.151585 RLEG_JOINT2:0.998848,0.011018,0.000000,-0.046709 RLEG_JOINT4:0.994351,0.102223,0.000000,0.028560 WAIST:0.999932,-0.000000,0.002197,0.011467 WAIST_JOINT0:0.998910,0.000000,-0.043673,0.016503 WAIST_JOINT1:0.998713,0.049177,0.000000,-0.012400 END:
KINECT_DATA_Sensor  AnkleLeft:0.059102,0.729162,-0.091562,-0.675608 AnkleRight:0.081178,0.751146,0.079002,0.650345 ElbowLeft:0.574369,-0.692897,0.133530,0.414926 ElbowRight:0.010284,0.861153,0.163751,0.481139 FootLeft:0.000000,0.000000,0.000000,0.000000 FootRight:0.000000,0.000000,0.000000,0.000000 HandLeft:0.250050,0.005019,-0.628324,0.736653 HandRight:0.048016,0.697096,-0.067524,0.712174 HandTipLeft:0.000000,0.000000,0.000000,0.000000 HandTipRight:0.000000,0.000000,0.000000,0.000000 Head:0.000000,0.000000,0.000000,0.000000 HipLeft:0.128348,-0.673512,0.711121,-0.155612 HipRight:-0.132884,0.686236,0.695600,-0.166022 KneeLeft:0.040223,-0.703968,0.063462,0.706246 KneeRight:-0.017197,0.708887,0.032677,0.704355 Neck:0.044375,-0.004730,0.996931,-0.064312 ShoulderLeft:-0.036569,0.777200,-0.621148,0.093795 ShoulderRight:0.020558,0.793393,0.607952,-0.022314 SpineBase:-0.002814,-0.000534,0.999648,-0.026378 SpineMid:0.020654,-0.001153,0.999438,-0.026359 SpineShoulder:0.044498,-0.002941,0.998030,-0.044122 ThumbLeft:0.000000,0.000000,0.000000,0.000000 ThumbRight:0.000000,0.000000,0.000000,0.000000 WristLeft:0.253021,0.023117,-0.583971,0.770989 WristRight:-0.081362,0.677107,-0.060550,0.728862 END:
KINECT_DATA POSITION:8.558570,1.256001,-11.599838 HEAD_JOINT1:0.986014,0.137688,-0.000000,0.093901 LARM_JOINT2:0.902716,0.000000,-0.419419,-0.095870 LARM_JOINT3:0.982481,0.000000,-0.179512,0.050058 LLEG_JOINT2:0.997974,0.016480,0.000000,0.061452 LLEG_JOINT4:0.995198,0.088181,0.000000,-0.042484 RARM_JOINT2:0.795762,0.000000,-0.052580,0.603323 RARM_JOINT3:0.976003,0.000000,0.160114,0.147587 RLEG_JOINT2:0.998842,0.008383,0.000000,-0.047382 RLEG_JOINT4:0.993992,0.105112,0.000000,0.030514 WAIST:0.999921,0.000000,-0.002039,0.012411 WAIST_JOINT0:0.998614,0.000000,-0.050252,0.015616 WAIST_JOINT1:0.998694,0.049246,0.000000,-0.013589 END:
KINECT_DATA_Sensor  AnkleLeft:0.056662,0.735957,-0.092974,-0.668215 AnkleRight:0.075597,0.683671,0.084640,0.720913 ElbowLeft:-0.595171,0.707234,-0.147152,-0.352047 ElbowRight:0.011809,0.858666,0.162846,0.485835 FootLeft:0.000000,0.000000,0.000000,0.000000 FootRight:0.000000,0.000000,0.000000,0.000000 HandLeft:0.257300,-0.072199,-0.634504,0.725250 HandRight:0.034409,0.719250,-0.061871,0.691134 HandTipLeft:0.000000,0.000000,0.000000,0.000000 HandTipRight:0.000000,0.000000,0.000000,0.000000 Head:0.000000,0.000000,0.000000,0.000000 HipLeft:0.130526,-0.672798,0.710997,-0.157445 HipRight:-0.130209,0.687800,0.695191,-0.163359 KneeLeft:-0.040619,0.706918,-0.063827,-0.703237 KneeRight:-0.018702,0.705883,0.030735,0.707414 Neck:0.051048,-0.005013,0.996598,-0.064511 ShoulderLeft:-0.041351,0.777742,-0.619306,0.099334 ShoulderRight:0.024330,0.793163,0.608272,-0.017470 SpineBase:0.001382,-0.000233,0.999657,-0.026166 SpineMid:0.026094,-0.000880,0.999317,-0.026152 SpineShoulder:0.051189,-0.003072,0.997705,-0.044208 ThumbLeft:0.000000,0.000000,0.000000,0.000000 ThumbRight:0.000000,0.000000,0.000000,0.000000 WristLeft:0.270999,-0.045171,-0.586428,0.761985 WristRight:-0.083960,0.713061,-0.055444,0.693845 END:
KINECT_DATA POSITION:8.527472,1.305060,-11.678195 HEAD_JOINT1:0.986210,0.134722,-0.000000,0.096127 LARM_JOINT2:0.888874,0.000000,-0.449032,-0.090953 LARM_JOINT3:0.978684,0.000000,-0.199319,0.049503 LLEG_JOINT2:0.998086,0.016702,0.000000,0.059542 LLEG_JOINT4:0.995119,0.087665,0.000000,-0.045320 RARM_JOINT2:0.795530,0.000000,-0.052852,0.603605 RARM_JOINT3:0.974322,0.000000,0.167551,0.150409 RLEG_JOINT2:0.998737,0.007297,0.000000,-0.049705 RLEG_JOINT4:0.993975,0.105736,0.000000,0.028884 WAIST:0.999881,0.000000,-0.004967,0.014591 WAIST_JOINT0:0.998234,0.000000,-0.056643,0.017909 WAIST_JOINT1:0.998675,0.049408,0.000000,-0.014364 END:
KINECT_DATA_Sensor  AnkleLeft:0.059163,0.746929,-0.090269,-0.656086 AnkleRight:0.080468,0.733786,0.079559,0.669890 ElbowLeft:-0.604919,0.713317,-0.119658,-0.333066 ElbowRight:0.012822,0.855448,0.161528,0.491887 FootLeft:0.000000,0.000000,0.000000,0.000000 FootRight:0.000000,0.000000,0.000000,0.000000 HandLeft:0.371493,-0.255345,-0.558378,0.696424 HandRight:0.027261,0.711676,-0.089143,0.696295 HandTipLeft:0.000000,0.000000,0.000000,0.000000 HandTipRight:0.000000,0.000000,0.000000,0.000000 Head:0.000000,0.000000,0.000000,0.000000 HipLeft:0.131801,-0.671185,0.711979,-0.158825 HipRight:-0.128161,0.689862,0.693969,-0.161469 KneeLeft:-0.040808,0.708906,-0.064083,-0.701199 KneeRight:-0.019451,0.703841,0.030163,0.709450 Neck:0.057898,-0.003550,0.996203,-0.064919 ShoulderLeft:-0.047883,0.777536,-0.617915,0.106424 ShoulderRight:0.026454,0.794869,0.606053,-0.013580 SpineBase:0.004220,0.000866,0.999647,-0.026224 SpineMid:0.030926,0.000165,0.999177,-0.026238 SpineShoulder:0.058066,-0.001779,0.997322,-0.044435 ThumbLeft:0.000000,0.000000,0.000000,0.000000 ThumbRight:0.000000,0.000000,0.000000,0.000000 WristLeft:0.363903,-0.260660,-0.551840,0.703636 WristRight:-0.082927,0.690161,-0.059318,0.716437 END:
KINECT_DATA POSITION:8.483893,1.318958,-11.685240 HEAD_JOINT1:0.985837,0.132836,-0.000000,0.102374 LARM_JOINT2:0.888107,0.000000,-0.449498,-0.096008 LARM_JOINT3:0.978900,0.000000,-0.197443,0.052638 LLEG_JOINT2:0.998161,0.016829,0.000000,0.058232 LLEG_JOINT4:0.995117,0.088386,0.000000,-0.043932 RARM_JOINT2:0.795232,0.000000,-0.055239,0.603784 RARM_JOINT3:0.975965,0.000000,0.164243,0.143238 RLEG_JOINT2:0.998648,0.007372,0.000000,-0.051462 RLEG_JOINT4:0.994290,0.103176,0.000000,0.027233 WAIST:0.999840,0.000000,-0.007348,0.016336 WAIST_JOINT0:0.997768,0.000000,-0.064514,0.017242 WAIST_JOINT1:0.998649,0.049995,0.000000,-0.014165 END:
KINECT_DATA_Sensor  AnkleLeft:0.057823,0.744138,-0.092724,-0.659028 AnkleRight:0.079942,0.751306,0.076765,0.650580 ElbowLeft:-0.604386,0.709894,-0.105783,-0.345799 ElbowRight:0.015447,0.850986,0.160767,0.499739 FootLeft:0.000000,0.000000,0.000000,0.000000 FootRight:0.000000,0.000000,0.000000,0.000000 HandLeft:0.346369,-0.222776,-0.565342,0.714695 HandRight:0.027367,0.708479,-0.056598,0.702926 HandTipLeft:0.000000,0.000000,0.000000,0.000000 HandTipRight:0.000000,0.000000,0.000000,0.000000 Head:0.000000,0.000000,0.000000,0.000000 HipLeft:0.133054,-0.669447,0.712945,-0.160770 HipRight:-0.127003,0.691224,0.693143,-0.160100 KneeLeft:-0.041145,0.710515,-0.064412,-0.699518 KneeRight:-0.019302,0.702177,0.030306,0.711095 Neck:0.066261,-0.001960,0.995633,-0.065727 ShoulderLeft:-0.055066,0.779033,-0.613879,0.115014 ShoulderRight:0.029858,0.795358,0.605335,-0.009113 SpineBase:0.006545,0.002636,0.999624,-0.026488 SpineMid:0.036269,0.001847,0.998987,-0.026555 SpineShoulder:0.066491,-0.000019,0.996766,-0.045134 ThumbLeft:0.000000,0.000000,0.000000,0.000000 ThumbRight:0.000000,0.000000,0.000000,0.000000 WristLeft:0.338674,-0.230607,-0.571957,0.710623 WristRight:-0.082947,0.688560,-0.059604,0.717950 END:
KINECT_DATA POSITION:8.388082,1.323140,-11.675060 HEAD_JOINT1:0.985869,0.132965,-0.000000,0.101890 LARM_JOINT2:0.885669,0.000000,-0.455995,-0.087514 LARM_JOINT3:0.983951,0.000000,-0.173822,0.040325 LLEG_JOINT2:0.998178,0.017326,0.000000,0.057792 LLEG_JOINT4:0.995140,0.087319,0.000000,-0.045525 RARM_JOINT2:0.795263,0.000000,-0.056654,0.603612 RARM_JOINT3:0.973955,0.000000,0.174354,0.144954 RLEG_JOINT2:0.998623,0.006979,0.000000,-0.052002 RLEG_JOINT4:0.994018,0.105734,0.000000,0.027364 WAIST:0.999804,0.000000,-0.009344,0.017440 WAIST_JOINT0:0.997568,0.000000,-0.067626,0.016896 WAIST_JOINT1:0.998555,0.051635,0.000000,-0.014861 END:
KINECT_DATA_Sensor  AnkleLeft:0.057895,0.745709,-0.091771,-0.657376 AnkleRight:0.073297,0.674200,0.085989,0.729855 ElbowLeft:-0.607907,0.716271,-0.114290,-0.323021 ElbowRight:0.017803,0.848240,0.161883,0.503951 FootLeft:0.000000,0.000000,0.000000,0.000000 FootRight:0.000000,0.000000,0.000000,0.000000 HandLeft:0.304099,-0.149097,-0.580149,0.740757 HandRight:0.008724,0.703662,-0.083423,0.705567 HandTipLeft:0.000000,0.000000,0.000000,0.000000 HandTipRight:0.000000,0.000000,0.000000,0.000000 Head:0.000000,0.000000,0.000000,0.000000 HipLeft:0.133533,-0.668258,0.713477,-0.162945 HipRight:-0.125541,0.692039,0.692626,-0.159971 KneeLeft:-0.041367,0.711850,-0.065178,-0.698077 KneeRight:-0.019097,0.700800,0.029699,0.712483 Neck:0.069088,-0.001768,0.995318,-0.067567 ShoulderLeft:-0.055470,0.778583,-0.613815,0.118163 ShoulderRight:0.033115,0.795367,0.605173,-0.007747 SpineBase:0.008468,0.003571,0.999574,-0.027699 SpineMid:0.038677,0.002732,0.998861,-0.027794 SpineShoulder:0.069354,0.000409,0.996494,-0.046790 ThumbLeft:0.000000,0.000000,0.000000,0.000000 ThumbRight:0.000000,0.000000,0.000000,0.000000 WristLeft:0.291910,-0.161059,-0.589157,0.736032 WristRight:-0.082828,0.688983,-0.058643,0.717637 END:
KINECT_DATA POSITION:8.387251,1.325001,-11.673546 HEAD_JOINT1:0.985425,0.136743,-0.000000,0.101190 LARM_JOINT2:0.887076,0.000000,-0.452971,-0.088957 LARM_JOINT3:0.983919,0.000000,-0.172182,0.047509 LLEG_JOINT2:0.998203,0.018121,0.000000,0.057126 LLEG_JOINT4:0.995169,0.087429,0.000000,-0.044659 RARM_JOINT2:0.795390,0.000000,-0.055871,0.603517 RARM_JOINT3:0.973704,0.000000,0.175182,0.145644 RLEG_JOINT2:0.998601,0.005705,0.000000,-0.052567 RLEG_JOINT4:0.993844,0.106749,0.000000,0.029631 WAIST:0.999794,0.000000,-0.009716,0.017800 WAIST_JOINT0:0.997627,0.000000,-0.066643,0.017280 WAIST_JOINT1:0.998497,0.052579,0.000000,-0.015468 END:
KINECT_DATA_Sensor  AnkleLeft:0.058068,0.745176,-0.092879,-0.657810 AnkleRight:0.082174,0.738948,0.077034,0.664281 ElbowLeft:-0.605162,0.718477,-0.119719,-0.321307 ElbowRight:0.018195,0.848933,0.162388,0.502605 FootLeft:0.000000,0.000000,0.000000,0.000000 FootRight:0.000000,0.000000,0.000000,0.000000 HandLeft:0.292528,-0.121824,-0.605877,0.729726 HandRight:-0.002351,0.780128,-0.087546,0.619461 HandTipLeft:0.000000,0.000000,0.000000,0.000000 HandTipRight:0.000000,0.000000,0.000000,0.000000 Head:0.000000,0.000000,0.000000,0.000000 HipLeft:0.133351,-0.667905,0.713739,-0.163392 HipRight:-0.124948,0.692227,0.692500,-0.160170 KneeLeft:-0.040607,0.712125,-0.065524,-0.697808 KneeRight:-0.020132,0.700526,0.028967,0.712755 Neck:0.068079,-0.002070,0.995316,-0.068606 ShoulderLeft:-0.054020,0.778569,-0.614023,0.117843 ShoulderRight:0.033299,0.795600,0.604840,-0.008921 SpineBase:0.008801,0.003598,0.999555,-0.028259 SpineMid:0.038357,0.002761,0.998858,-0.028353 SpineShoulder:0.068353,0.000233,0.996520,-0.047696 ThumbLeft:0.000000,0.000000,0.000000,0.000000 ThumbRight:0.000000,0.000000,0.000000,0.000000 WristLeft:0.276041,-0.132983,-0.591972,0.745444 WristRight:-0.089102,0.777408,-0.046881,0.620886 END:
KINECT_DATA POSITION:8.403245,1.323296,-11.669552 HEAD_JOINT1:0.985055,0.140246,-0.000000,0.099989 LARM_JOINT2:0.889007,0.000000,-0.448084,-0.094276 LARM_JOINT3:0.982587,0.000000,-0.178016,0.053226 LLEG_JOINT2:0.998221,0.019180,0.000000,0.056448 LLEG_JOINT4:0.995282,0.085672,0.000000,-0.045534 RARM_JOINT2:0.795051,0.000000,-0.056048,0.603948 RARM_JOINT3:0.973289,0.000000,0.172447,0.151557 RLEG_JOINT2:0.998570,0.006030,0.000000,-0.053118 RLEG_JOINT4:0.993760,0.107852,0.000000,0.028450 WAIST:0.999782,0.000000,-0.010134,0.018264 WAIST_JOINT0:0.997627,0.000000,-0.066473,0.017922 WAIST_JOINT1:0.998477,0.052763,0.000000,-0.016128 END:
KINECT_DATA_Sensor  AnkleLeft:0.058177,0.745086,-0.091684,-0.658070 AnkleRight:0.074908,0.674614,0.086112,0.729294 ElbowLeft:-0.603442,0.711884,-0.107953,-0.342672 ElbowRight:0.018880,0.849260,0.162207,0.502086 FootLeft:0.000000,0.000000,0.000000,0.000000 FootRight:0.000000,0.000000,0.000000,0.000000 HandLeft:0.244105,-0.074859,-0.624528,0.738088 HandRight:0.028186,0.706485,-0.098289,0.700302 HandTipLeft:0.000000,0.000000,0.000000,0.000000 HandTipRight:0.000000,0.000000,0.000000,0.000000 Head:0.000000,0.000000,0.000000,0.000000 HipLeft:0.133378,-0.667536,0.714009,-0.163698 HipRight:-0.124521,0.692534,0.692258,-0.160217 KneeLeft:-0.039727,0.712437,-0.066122,-0.697484 KneeRight:-0.019940,0.700260,0.029276,0.713008 Neck:0.067893,-0.002251,0.995319,-0.068741 ShoulderLeft:-0.053866,0.778265,-0.614413,0.117895 ShoulderRight:0.033222,0.795956,0.604372,-0.009162 SpineBase:0.009182,0.003598,0.999543,-0.028573 SpineMid:0.038460,0.002759,0.998845,-0.028666 SpineShoulder:0.068166,0.000087,0.996524,-0.047898 ThumbLeft:0.000000,0.000000,0.000000,0.000000 ThumbRight:0.000000,0.000000,0.000000,0.000000 WristLeft:0.236975,-0.078336,-0.612568,0.749977 WristRight:-0.080907,0.685381,-0.058185,0.721333 END:
KINECT_DATA POSITION:8.426126,1.317827,-11.659980 HEAD_JOINT1:0.985055,0.140840,-0.000000,0.099147 LARM_JOINT2:0.889470,0.000000,-0.447013,-0.094989 LARM_JOINT3:0.983664,0.000000,-0.173039,0.049622 LLEG_JOINT2:0.998256,0.018997,0.000000,0.055900 LLEG_JOINT4:0.995088,0.088271,0.000000,-0.044821 RARM_JOINT2:0.794563,0.000000,-0.055691,0.604622 RARM_JOINT3:0.973391,0.000000,0.173565,0.149619 RLEG_JOINT2:0.998560,0.005646,0.000000,-0.053351 RLEG_JOINT4:0.993842,0.106969,0.000000,0.028911 WAIST:0.999772,0.000000,-0.010616,0.018523 WAIST_JOINT0:0.997628,0.000000,-0.066488,0.017830 WAIST_JOINT1:0.998450,0.053069,0.000000,-0.016798 END:
KINECT_DATA_Sensor  AnkleLeft:0.058968,0.740289,-0.094071,-0.663058 AnkleRight:0.084056,0.756987,0.075310,0.643610 ElbowLeft:-0.601756,0.714556,-0.112290,-0.338659 ElbowRight:0.019124,0.848973,0.161861,0.502673 FootLeft:0.000000,0.000000,0.000000,0.000000 FootRight:0.000000,0.000000,0.000000,0.000000 HandLeft:0.312649,-0.141985,-0.587404,0.732835 HandRight:0.023787,0.695265,-0.098109,0.711628 HandTipLeft:0.000000,0.000000,0.000000,0.000000 HandTipRight:0.000000,0.000000,0.000000,0.000000 Head:0.000000,0.000000,0.000000,0.000000 HipLeft:0.133502,-0.667344,0.714086,-0.164045 HipRight:-0.124015,0.692749,0.692118,-0.160288 KneeLeft:-0.039675,0.712759,-0.065776,-0.697190 KneeRight:-0.020174,0.699931,0.029009,0.713336 Neck:0.067923,-0.002668,0.995296,-0.069034 ShoulderLeft:-0.053458,0.778062,-0.614694,0.117956 ShoulderRight:0.033721,0.795582,0.604836,-0.009210 SpineBase:0.009633,0.003414,0.999531,-0.028871 SpineMid:0.038706,0.002572,0.998828,-0.028958 SpineShoulder:0.068193,-0.000279,0.996507,-0.048199 ThumbLeft:0.000000,0.000000,0.000000,0.000000 ThumbRight:0.000000,0.000000,0.000000,0.000000 WristLeft:0.297325,-0.153735,-0.582437,0.740763 WristRight:-0.080025,0.677885,-0.058577,0.728448 END:
KINECT_DATA POSITION:8.437417,1.320510,-11.671913 HEAD_JOINT1:0.985931,0.137910,-0.000000,0.094456 LARM_JOINT2:0.890770,0.000000,-0.443629,-0.098599 LARM_JOINT3:0.982636,0.000000,-0.176759,0.056411 LLEG_JOINT2:0.998262,0.018584,0.000000,0.055918 LLEG_JOINT4:0.995035,0.088016,0.000000,-0.046463 RARM_JOINT2:0.794517,0.000000,-0.054571,0.604784 RARM_JOINT3:0.972922,0.000000,0.177304,0.148275 RLEG_JOINT2:0.998552,0.005113,0.000000,-0.053543 RLEG_JOINT4:0.993641,0.108730,0.000000,0.029237 WAIST:0.999771,0.000000,-0.010580,0.018597 WAIST_JOINT0:0.997680,0.000000,-0.065645,0.018060 WAIST_JOINT1:0.998389,0.054111,0.000000,-0.017061 END:
KINECT_DATA_Sensor  AnkleLeft:0.060191,0.745090,-0.092049,-0.657834 AnkleRight:0.083775,0.745233,0.077426,0.656974 ElbowLeft:-0.599447,0.711369,-0.106859,-0.350996 ElbowRight:0.019113,0.848843,0.162019,0.502842 FootLeft:0.000000,0.000000,0.000000,0.000000 FootRight:0.000000,0.000000,0.000000,0.000000 HandLeft:0.285010,-0.104126,-0.605811,0.735473 HandRight:0.002808,0.747599,-0.106076,0.655618 HandTipLeft:0.000000,0.000000,0.000000,0.000000 HandTipRight:0.000000,0.000000,0.000000,0.000000 Head:0.000000,0.000000,0.000000,0.000000 HipLeft:0.132848,-0.667217,0.714226,-0.164483 HipRight:-0.123408,0.692700,0.692143,-0.160857 KneeLeft:-0.040032,0.712693,-0.065545,-0.697259 KneeRight:-0.020637,0.699965,0.028719,0.713301 Neck:0.066822,-0.002851,0.995289,-0.070185 ShoulderLeft:-0.050214,0.777645,-0.615779,0.116458 ShoulderRight:0.035593,0.795426,0.604932,-0.009386 SpineBase:0.009561,0.003361,0.999506,-0.029748 SpineMid:0.038134,0.002509,0.998824,-0.029832 SpineShoulder:0.067092,-0.000464,0.996533,-0.049192 ThumbLeft:0.000000,0.000000,0.000000,0.000000 ThumbRight:0.000000,0.000000,0.000000,0.000000 WristLeft:0.268666,-0.116243,-0.597858,0.746238 WristRight:-0.085454,0.747233,-0.049767,0.657163 END:
KINECT_DATA POSITION:8.456374,1.319051,-11.675310 HEAD_JOINT1:0.986744,0.134574,-0.000000,0.090695 LARM_JOINT2:0.890185,0.000000,-0.445598,-0.094937 LARM_JOINT3:0.985308,0.000000,-0.162442,0.052742 LLEG_JOINT2:0.998250,0.018841,0.000000,0.056057 LLEG_JOINT4:0.995187,0.085137,0.000000,-0.048514 RARM_JOINT2:0.794580,0.000000,-0.053636,0.604786 RARM_JOINT3:0.973948,0.000000,0.174186,0.145208 RLEG_JOINT2:0.998540,0.005030,0.000000,-0.053789 RLEG_JOINT4:0.993770,0.107686,0.000000,0.028737 WAIST:0.999770,0.000000,-0.010724,0.018594 WAIST_JOINT0:0.997719,0.000000,-0.064980,0.018305 WAIST_JOINT1:0.998361,0.054600,0.000000,-0.017155 END:
KINECT_DATA_Sensor  AnkleLeft:0.058346,0.736821,-0.089671,-0.667569 AnkleRight:0.082178,0.743005,0.077549,0.659679 ElbowLeft:-0.600546,0.714662,-0.113119,-0.340303 ElbowRight:0.018902,0.849079,0.162042,0.502444 FootLeft:0.000000,0.000000,0.000000,0.000000 FootRight:0.000000,0.000000,0.000000,0.000000 HandLeft:0.202240,0.035083,-0.637461,0.742638 HandRight:0.006416,0.735948,-0.088942,0.671140 HandTipLeft:0.000000,0.000000,0.000000,0.000000 HandTipRight:0.000000,0.000000,0.000000,0.000000 Head:0.000000,0.000000,0.000000,0.000000 HipLeft:0.132625,-0.667129,0.714263,-0.164859 HipRight:-0.123044,0.692639,0.692211,-0.161108 KneeLeft:-0.039956,0.712786,-0.065819,-0.697142 KneeRight:-0.020866,0.699866,0.028845,0.713386 Neck:0.065968,-0.002883,0.995313,-0.070655 ShoulderLeft:-0.047803,0.777149,-0.616860,0.115057 ShoulderRight:0.036943,0.795203,0.605145,-0.009310 SpineBase:0.009688,0.003348,0.999490,-0.030228 SpineMid:0.037781,0.002497,0.998823,-0.030310 SpineShoulder:0.066234,-0.000532,0.996566,-0.049686 ThumbLeft:0.000000,0.000000,0.000000,0.000000 ThumbRight:0.000000,0.000000,0.000000,0.000000 WristLeft:0.169285,0.008874,-0.630256,0.757655 WristRight:-0.084400,0.733174,-0.051448,0.672819 END:
KINECT_DATA POSITION:8.483095,1.320349,-11.705292 HEAD_JOINT1:0.987128,0.132434,-0.000000,0.089664 LARM_JOINT2:0.890257,0.000000,-0.445064,-0.096754 LARM_JOINT3:0.986484,0.000000,-0.154730,0.053933 LLEG_JOINT2:0.998263,0.019444,0.000000,0.055618 LLEG_JOINT4:0.995524,0.083685,0.000000,-0.043926 RARM_JOINT2:0.794591,0.000000,-0.052788,0.604846 RARM_JOINT3:0.974487,0.000000,0.171239,0.145093 RLEG_JOINT2:0.998547,0.005013,0.000000,-0.053661 RLEG_JOINT4:0.993796,0.107112,0.000000,0.029942 WAIST:0.999769,0.000000,-0.010801,0.018585 WAIST_JOINT0:0.997708,0.000000,-0.065134,0.018347 WAIST_JOINT1:0.998345,0.054923,0.000000,-0.017065 END:
KINECT_DATA_Sensor  AnkleLeft:0.056289,0.747024,-0.091302,-0.656087 AnkleRight:0.082135,0.739113,0.076639,0.664147 ElbowLeft:-0.600742,0.710158,-0.103894,-0.352124 ElbowRight:0.018880,0.849858,0.161774,0.501213 FootLeft:0.000000,0.000000,0.000000,0.000000 FootRight:0.000000,0.000000,0.000000,0.000000 HandLeft:0.322143,-0.095366,-0.580707,0.741558 HandRight:0.008744,0.767118,-0.082944,0.636061 HandTipLeft:0.000000,0.000000,0.000000,0.000000 HandTipRight:0.000000,0.000000,0.000000,0.000000 Head:0.000000,0.000000,0.000000,0.000000 HipLeft:0.132268,-0.667039,0.714308,-0.165310 HipRight:-0.122737,0.692595,0.692257,-0.161333 KneeLeft:-0.039216,0.712871,-0.065937,-0.697086 KneeRight:-0.020791,0.699816,0.028751,0.713441 Neck:0.065983,-0.002833,0.995289,-0.070985 ShoulderLeft:-0.046317,0.776922,-0.617384,0.114391 ShoulderRight:0.038463,0.795012,0.605312,-0.008621 SpineBase:0.009755,0.003595,0.999473,-0.030755 SpineMid:0.037834,0.002729,0.998804,-0.030844 SpineShoulder:0.066254,-0.000452,0.996549,-0.050012 ThumbLeft:0.000000,0.000000,0.000000,0.000000 ThumbRight:0.000000,0.000000,0.000000,0.000000 WristLeft:0.286760,-0.125718,-0.587849,0.745920 WristRight:-0.086126,0.764100,-0.047314,0.637569 END:
KINECT_DATA POSITION:8.503416,1.327433,-11.766874 HEAD_JOINT1:0.987904,0.128185,-0.000000,0.087257 LARM_JOINT2:0.890596,0.000000,-0.443852,-0.099171 LARM_JOINT3:0.985333,0.000000,-0.159190,0.061467 LLEG_JOINT2:0.998270,0.018826,0.000000,0.055708 LLEG_JOINT4:0.994941,0.089125,0.000000,-0.046369 RARM_JOINT2:0.794653,0.000000,-0.051263,0.604895 RARM_JOINT3:0.973603,0.000000,0.175176,0.146325 RLEG_JOINT2:0.998555,0.005530,0.000000,-0.053450 RLEG_JOINT4:0.994034,0.105042,0.000000,0.029383 WAIST:0.999771,0.000000,-0.010702,0.018521 WAIST_JOINT0:0.997737,0.000000,-0.064601,0.018669 WAIST_JOINT1:0.998335,0.055158,0.000000,-0.016896 END:
KINECT_DATA_Sensor  AnkleLeft:0.060127,0.736603,-0.093586,-0.667115 AnkleRight:0.081126,0.743341,0.075471,0.659672 ElbowLeft:-0.600146,0.706204,-0.096563,-0.363010 ElbowRight:0.018255,0.850765,0.161246,0.499865 FootLeft:0.000000,0.000000,0.000000,0.000000 FootRight:0.000000,0.000000,0.000000,0.000000 HandLeft:0.255517,-0.020474,-0.621973,0.739893 HandRight:0.002943,0.738599,-0.100287,0.666637 HandTipLeft:0.000000,0.000000,0.000000,0.000000 HandTipRight:0.000000,0.000000,0.000000,0.000000 Head:0.000000,0.000000,0.000000,0.000000 HipLeft:0.131681,-0.666992,0.714360,-0.165747 HipRight:-0.122389,0.692476,0.692340,-0.161750 KneeLeft:-0.039668,0.712771,-0.065513,-0.697203 KneeRight:-0.020321,0.699908,0.029003,0.713354 Neck:0.065183,-0.002690,0.995328,-0.071177 ShoulderLeft:-0.043317,0.776383,-0.618662,0.112295 ShoulderRight:0.040458,0.794802,0.605469,-0.007769 SpineBase:0.009642,0.003793,0.999452,-0.031453 SpineMid:0.037390,0.002918,0.998798,-0.031547 SpineShoulder:0.065454,-0.000328,0.996589,-0.050264 ThumbLeft:0.000000,0.000000,0.000000,0.000000 ThumbRight:0.000000,0.000000,0.000000,0.000000 WristLeft:0.224400,-0.045458,-0.616740,0.753133 WristRight:-0.083888,0.737431,-0.050716,0.668271 END:
KINECT_DATA POSITION:8.537671,1.353146,-11.874866 HEAD_JOINT1:0.988647,0.124211,-0.000000,0.084552 LARM_JOINT2:0.889543,0.000000,-0.445769,-0.100016 LARM_JOINT3:0.985678,0.000000,-0.157571,0.060090 LLEG_JOINT2:0.998298,0.017934,0.000000,0.055499 LLEG_JOINT4:0.995136,0.087584,0.000000,-0.045101 RARM_JOINT2:0.795087,0.000000,-0.050012,0.604430 RARM_JOINT3:0.973863,0.000000,0.174760,0.145084 RLEG_JOINT2:0.998571,0.005188,0.000000,-0.053197 RLEG_JOINT4:0.993624,0.109060,0.000000,0.028602 WAIST:0.999784,0.000000,-0.009987,0.018200 WAIST_JOINT0:0.997828,0.000000,-0.063061,0.019060 WAIST_JOINT1:0.998313,0.055699,0.000000,-0.016404 END:
KINECT_DATA_Sensor  AnkleLeft:0.058333,0.739582,-0.092169,-0.664169 AnkleRight:0.075381,0.676512,0.086182,0.727476 ElbowLeft:-0.599955,0.705180,-0.091999,-0.366486 ElbowRight:0.017661,0.851722,0.161468,0.498182 FootLeft:0.000000,0.000000,0.000000,0.000000 FootRight:0.000000,0.000000,0.000000,0.000000 HandLeft:0.213126,0.026917,-0.631697,0.744857 HandRight:-0.000844,0.760364,-0.094758,0.642547 HandTipLeft:0.000000,0.000000,0.000000,0.000000 HandTipRight:0.000000,0.000000,0.000000,0.000000 Head:0.000000,0.000000,0.000000,0.000000 HipLeft:0.130501,-0.667166,0.714365,-0.165955 HipRight:-0.122162,0.692078,0.692574,-0.162624 KneeLeft:-0.039885,0.712260,-0.064519,-0.697805 KneeRight:-0.020646,0.700408,0.028785,0.712863 Neck:0.063441,-0.002526,0.995412,-0.071578 ShoulderLeft:-0.039915,0.775839,-0.619985,0.109991 ShoulderRight:0.041672,0.794571,0.605684,-0.008195 SpineBase:0.008920,0.003925,0.999428,-0.032391 SpineMid:0.036169,0.003040,0.998813,-0.032486 SpineShoulder:0.063714,-0.000163,0.996672,-0.050839 ThumbLeft:0.000000,0.000000,0.000000,0.000000 ThumbRight:0.000000,0.000000,0.000000,0.000000 WristLeft:0.184568,0.003343,-0.630154,0.754208 WristRight:-0.085697,0.758594,-0.048518,0.644078 END:
KINECT_DATA POSITION:8.551103,1.358420,-11.967981 HEAD_JOINT1:0.989043,0.122165,-0.000000,0.082889 LARM_JOINT2:0.888345,0.000000,-0.449833,-0.092155 LARM_JOINT3:0.987015,0.000000,-0.152588,0.050180 LLEG_JOINT2:0.998333,0.017088,0.000000,0.055133 LLEG_JOINT4:0.995338,0.085582,0.000000,-0.044478 RARM_JOINT2:0.795243,0.000000,-0.049810,0.604241 RARM_JOINT3:0.973592,0.000000,0.175269,0.146284 RLEG_JOINT2:0.998570,0.004640,0.000000,-0.053262 RLEG_JOINT4:0.993968,0.105988,0.000000,0.028169 WAIST:0.999790,0.000000,-0.008924,0.018456 WAIST_JOINT0:0.997884,0.000000,-0.062086,0.019285 WAIST_JOINT1:0.998292,0.056037,0.000000,-0.016500 END:
KINECT_DATA_Sensor  AnkleLeft:0.056491,0.743007,-0.090247,-0.660760 AnkleRight:0.078335,0.727474,0.078485,0.677116 ElbowLeft:-0.601434,0.716505,-0.115061,-0.334154 ElbowRight:0.017415,0.851764,0.161666,0.498055 FootLeft:0.000000,0.000000,0.000000,0.000000 FootRight:0.000000,0.000000,0.000000,0.000000 HandLeft:0.267849,-0.049778,-0.617137,0.738188 HandRight:0.006617,0.727731,-0.096616,0.678991 HandTipLeft:0.000000,0.000000,0.000000,0.000000 HandTipRight:0.000000,0.000000,0.000000,0.000000 Head:0.000000,0.000000,0.000000,0.000000 HipLeft:0.129648,-0.667109,0.714676,-0.165518 HipRight:-0.122508,0.692074,0.692320,-0.163459 KneeLeft:-0.040350,0.711475,-0.063865,-0.698639 KneeRight:-0.020946,0.701172,0.028232,0.712125 Neck:0.062355,-0.002408,0.995463,-0.071829 ShoulderLeft:-0.037952,0.775545,-0.620713,0.108651 ShoulderRight:0.042265,0.794464,0.605778,-0.008559 SpineBase:0.007831,0.003919,0.999426,-0.032727 SpineMid:0.035081,0.003025,0.998841,-0.032822 SpineShoulder:0.062624,-0.000088,0.996723,-0.051190 ThumbLeft:0.000000,0.000000,0.000000,0.000000 ThumbRight:0.000000,0.000000,0.000000,0.000000 WristLeft:0.245570,-0.064228,-0.599463,0.759088 WristRight:-0.083674,0.725665,-0.053498,0.680843 END:
KINECT_DATA POSITION:8.472939,1.325349,-11.895525 HEAD_JOINT1:0.987832,0.120469,-0.000000,0.098361 LARM_JOINT2:0.939633,0.000000,-0.312089,-0.140324 LARM_JOINT3:0.971151,0.000000,-0.238462,-0.000850 LLEG_JOINT2:0.998321,0.016199,0.000000,0.055614 LLEG_JOINT4:0.995127,0.088078,0.000000,-0.044328 RARM_JOINT2:0.794298,0.000000,-0.049825,0.605482 RARM_JOINT3:0.972199,0.000000,0.182849,0.146274 RLEG_JOINT2:0.998550,0.004540,0.000000,-0.053645 RLEG_JOINT4:0.994060,0.105460,0.000000,0.026882 WAIST:0.999757,0.000000,-0.010352,0.019485 WAIST_JOINT0:0.997973,0.000000,-0.060733,0.019012 WAIST_JOINT1:0.998406,0.054342,0.000000,-0.015273 END:
KINECT_DATA_Sensor  AnkleLeft:0.057514,0.751055,-0.091988,-0.651266 AnkleRight:0.072001,0.678287,0.083614,0.726465 ElbowLeft:-0.515923,0.734363,-0.272157,-0.347081 ElbowRight:0.017292,0.849070,0.157627,0.503919 FootLeft:0.000000,0.000000,0.000000,0.000000 FootRight:0.000000,0.000000,0.000000,0.000000 HandLeft:-0.012250,0.312585,-0.615539,0.723361 HandRight:-0.013303,0.750653,-0.122643,0.649078 HandTipLeft:0.000000,0.000000,0.000000,0.000000 HandTipRight:0.000000,0.000000,0.000000,0.000000 Head:0.000000,0.000000,0.000000,0.000000 HipLeft:0.131701,-0.666169,0.715006,-0.166252 HipRight:-0.123236,0.692962,0.691595,-0.162212 KneeLeft:-0.042116,0.712382,-0.064253,-0.697574 KneeRight:-0.020501,0.700145,0.027756,0.713166 Neck:0.060686,0.000589,0.995705,-0.069914 ShoulderLeft:-0.036010,0.775884,-0.621011,0.105135 ShoulderRight:0.041840,0.795244,0.604795,-0.007747 SpineBase:0.009268,0.005030,0.999447,-0.031539 SpineMid:0.034958,0.004218,0.998878,-0.031658 SpineShoulder:0.060953,0.002354,0.996898,-0.049742 ThumbLeft:0.000000,0.000000,0.000000,0.000000 ThumbRight:0.000000,0.000000,0.000000,0.000000 WristLeft:0.005739,0.333322,-0.589878,0.735464 WristRight:-0.086801,0.752151,-0.052949,0.651100 END:
KINECT_DATA POSITION:8.449799,1.294253,-11.727560 HEAD_JOINT1:0.984017,0.134069,-0.000000,0.117198 LARM_JOINT2:0.948699,0.000000,-0.116728,-0.293844 LARM_JOINT3:0.946806,0.000000,-0.279774,-0.159011 LLEG_JOINT2:0.998474,0.015347,0.000000,0.053047 LLEG_JOINT4:0.994840,0.091836,0.000000,-0.043114 RARM_JOINT2:0.792754,0.000000,-0.058627,0.606716 RARM_JOINT3:0.974411,0.000000,0.179884,0.134778 RLEG_JOINT2:0.998384,0.008781,0.000000,-0.056139 RLEG_JOINT4:0.994293,0.102876,0.000000,0.028249 WAIST:0.999729,0.000000,-0.005672,0.022558 WAIST_JOINT0:0.998793,0.000000,-0.044873,0.019957 WAIST_JOINT1:0.998352,0.054902,0.000000,-0.016719 END:
KINECT_DATA_Sensor  AnkleLeft:0.057474,0.737352,-0.095741,-0.666215 AnkleRight:0.080316,0.735432,0.077768,0.668312 ElbowLeft:-0.268708,0.811125,-0.378498,-0.355825 ElbowRight:0.023786,0.847456,0.158115,0.506214 FootLeft:0.000000,0.000000,0.000000,0.000000 FootRight:0.000000,0.000000,0.000000,0.000000 HandLeft:0.018620,0.354492,-0.358970,0.863209 HandRight:-0.018960,0.734643,-0.079412,0.673524 HandTipLeft:0.000000,0.000000,0.000000,0.000000 HandTipRight:0.000000,0.000000,0.000000,0.000000 Head:0.000000,0.000000,0.000000,0.000000 HipLeft:0.129964,-0.664795,0.716978,-0.164620 HipRight:-0.127385,0.694393,0.688470,-0.166132 KneeLeft:-0.042833,0.708959,-0.064137,-0.701020 KneeRight:-0.017255,0.703676,0.030179,0.709670 Neck:0.044517,0.002701,0.996498,-0.070734 ShoulderLeft:-0.021550,0.776158,-0.623684,0.090185 ShoulderRight:0.035588,0.795882,0.604130,-0.018210 SpineBase:0.004454,0.006556,0.999475,-0.031400 SpineMid:0.024541,0.005924,0.999184,-0.031525 SpineShoulder:0.044788,0.004277,0.997727,-0.050170 ThumbLeft:0.000000,0.000000,0.000000,0.000000 ThumbRight:0.000000,0.000000,0.000000,0.000000 WristLeft:0.063787,0.364872,-0.376153,0.849298 WristRight:-0.079824,0.731602,-0.053306,0.674941 END:
KINECT_DATA POSITION:8.616452,1.323287,-11.657536 HEAD_JOINT1:0.982517,0.148907,-0.000000,0.111745 LARM_JOINT2:0.900165,0.000000,-0.056022,-0.431932 LARM_JOINT3:0.961679,0.000000,-0.240375,-0.131887 LLEG_JOINT2:0.998578,0.014441,0.000000,0.051326 LLEG_JOINT4:0.994818,0.092776,0.000000,-0.041598 RARM_JOINT2:0.793791,0.000000,-0.055340,0.605668 RARM_JOINT3:0.975931,0.000000,0.174611,0.130649 RLEG_JOINT2:0.998216,0.011541,0.000000,-0.058585 RLEG_JOINT4:0.994362,0.100915,0.000000,0.032569 WAIST:0.999744,0.000000,-0.000400,0.022622 WAIST_JOINT0:0.999242,0.000000,-0.033722,0.019442 WAIST_JOINT1:0.998125,0.058851,0.000000,-0.016808 END:
KINECT_DATA_Sensor  AnkleLeft:0.057178,0.728008,-0.095794,-0.676431 AnkleRight:0.080477,0.728349,0.078440,0.675928 ElbowLeft:-0.171181,0.815530,-0.286895,-0.472545 ElbowRight:0.023539,0.851482,0.160230,0.498749 FootLeft:0.000000,0.000000,0.000000,0.000000 FootRight:0.000000,0.000000,0.000000,0.000000 HandLeft:0.004006,0.285405,-0.219208,0.932993 HandRight:-0.020767,0.771594,-0.063723,0.632574 HandTipLeft:0.000000,0.000000,0.000000,0.000000 HandTipRight:0.000000,0.000000,0.000000,0.000000 Head:0.000000,0.000000,0.000000,0.000000 HipLeft:0.125402,-0.664774,0.718090,-0.163391 HipRight:-0.129293,0.693048,0.688306,-0.170891 KneeLeft:-0.042059,0.705237,-0.062460,-0.704962 KneeRight:-0.017222,0.707488,0.033644,0.705714 Neck:0.032462,0.002699,0.996640,-0.075144 ShoulderLeft:-0.000571,0.773265,-0.629598,0.075283 ShoulderRight:0.041536,0.792712,0.607761,-0.022553 SpineBase:-0.000906,0.006689,0.999404,-0.033864 SpineMid:0.015888,0.006119,0.999278,-0.033971 SpineShoulder:0.032720,0.004176,0.998007,-0.053801 ThumbLeft:0.000000,0.000000,0.000000,0.000000 ThumbRight:0.000000,0.000000,0.000000,0.000000 WristLeft:0.103967,0.291460,-0.276335,0.909879 WristRight:-0.079348,0.768511,-0.043259,0.633422 END:
KINECT_DATA POSITION:8.834782,1.375693,-11.575174 HEAD_JOINT1:0.982510,0.157193,-0.000000,0.099822 LARM_JOINT2:0.859913,0.000000,0.020247,-0.510039 LARM_JOINT3:0.968898,0.000000,-0.176585,-0.173361 LLEG_JOINT2:0.998546,0.014391,0.000000,0.051955 LLEG_JOINT4:0.994867,0.092266,0.000000,-0.041546 RARM_JOINT2:0.795848,0.000000,-0.062565,0.602255 RARM_JOINT3:0.976403,0.000000,0.163795,0.140743 RLEG_JOINT2:0.998327,0.012367,0.000000,-0.056475 RLEG_JOINT4:0.994629,0.098098,0.000000,0.033003 WAIST:0.999813,-0.000000,0.000579,0.019348 WAIST_JOINT0:0.999657,0.000000,-0.020633,0.016153 WAIST_JOINT1:0.997904,0.062461,0.000000,-0.016897 END:
KINECT_DATA_Sensor  AnkleLeft:0.057655,0.720837,-0.094048,-0.684269 AnkleRight:0.075137,0.700507,0.080873,0.705056 ElbowLeft:-0.047900,0.857493,-0.256712,-0.443296 ElbowRight:0.028831,0.852794,0.170736,0.492708 FootLeft:0.000000,0.000000,0.000000,0.000000 FootRight:0.000000,0.000000,0.000000,0.000000 HandLeft:-0.025948,0.557991,-0.010810,0.829371 HandRight:0.032876,0.710099,-0.046166,0.701818 HandTipLeft:0.000000,0.000000,0.000000,0.000000 HandTipRight:0.000000,0.000000,0.000000,0.000000 Head:0.000000,0.000000,0.000000,0.000000 HipLeft:0.122672,-0.666665,0.716603,-0.164283 HipRight:-0.126662,0.690163,0.691054,-0.173426 KneeLeft:-0.040189,0.704652,-0.060583,-0.705818 KneeRight:-0.017501,0.708188,0.035019,0.704938 Neck:0.019094,0.000004,0.996722,-0.078621 ShoulderLeft:0.016204,0.772363,-0.631856,0.062857 ShoulderRight:0.041448,0.789011,0.612177,-0.031344 SpineBase:-0.001882,0.003723,0.999296,-0.037279 SpineMid:0.008704,0.003328,0.999260,-0.037317 SpineShoulder:0.019270,0.001404,0.998172,-0.057270 ThumbLeft:0.000000,0.000000,0.000000,0.000000 ThumbRight:0.000000,0.000000,0.000000,0.000000 WristLeft:0.014273,0.548762,-0.159304,0.820536 WristRight:-0.070723,0.693761,-0.042417,0.715468 END:
KINECT_DATA POSITION:9.132213,1.367584,-11.512840 HEAD_JOINT1:0.983101,0.158286,-0.000000,0.091964 LARM_JOINT2:0.839636,0.000000,0.045355,-0.541253 LARM_JOINT3:0.974796,0.000000,-0.137229,-0.175901 LLEG_JOINT2:0.998487,0.016440,0.000000,0.052464 LLEG_JOINT4:0.994847,0.092988,0.000000,-0.040400 RARM_JOINT2:0.797713,0.000000,-0.065774,0.599439 RARM_JOINT3:0.975014,0.000000,0.166979,0.146510 RLEG_JOINT2:0.998475,0.011286,0.000000,-0.054032 RLEG_JOINT4:0.994491,0.100362,0.000000,0.030261 WAIST:0.999881,0.000000,-0.002215,0.015252 WAIST_JOINT0:0.999820,0.000000,-0.013939,0.012864 WAIST_JOINT1:0.997840,0.063810,0.000000,-0.015630 END:
KINECT_DATA_Sensor  AnkleLeft:0.060291,0.716810,-0.094900,-0.688144 AnkleRight:0.078513,0.742899,0.079669,0.659992 ElbowLeft:0.001422,0.884628,-0.232286,-0.404321 ElbowRight:0.031390,0.854507,0.177514,0.487157 FootLeft:0.000000,0.000000,0.000000,0.000000 FootRight:0.000000,0.000000,0.000000,0.000000 HandLeft:0.009351,0.831870,0.042181,0.553286 HandRight:0.024871,0.694436,-0.061401,0.716499 HandTipLeft:0.000000,0.000000,0.000000,0.000000 HandTipRight:0.000000,0.000000,0.000000,0.000000 Head:0.000000,0.000000,0.000000,0.000000 HipLeft:0.123057,-0.669061,0.713821,-0.166352 HipRight:-0.122956,0.687817,0.694320,-0.172364 KneeLeft:-0.036332,0.706931,-0.059437,-0.703844 KneeRight:-0.019302,0.706077,0.035507,0.706981 Neck:0.012458,-0.001935,0.996719,-0.079948 ShoulderLeft:0.024018,0.773771,-0.630478,0.056566 ShoulderRight:0.040774,0.787586,0.613823,-0.035611 SpineBase:0.001065,0.001098,0.999240,-0.038946 SpineMid:0.006828,0.000873,0.999217,-0.038952 SpineShoulder:0.012566,-0.000686,0.998200,-0.058632 ThumbLeft:0.000000,0.000000,0.000000,0.000000 ThumbRight:0.000000,0.000000,0.000000,0.000000 WristLeft:-0.024983,0.833097,-0.090078,0.545170 WristRight:-0.068248,0.682379,-0.037356,0.726847 END:
KINECT_DATA POSITION:9.515877,1.308297,-11.429787 HEAD_JOINT1:0.984604,0.154422,-0.000000,0.081911 LARM_JOINT2:0.827018,0.000000,0.053350,-0.559638 LARM_JOINT3:0.974373,0.000000,-0.152571,-0.165288 LLEG_JOINT2:0.998402,0.017671,0.000000,0.053678 LLEG_JOINT4:0.995329,0.089801,0.000000,-0.035444 RARM_JOINT2:0.799992,0.000000,-0.062404,0.596757 RARM_JOINT3:0.974044,0.000000,0.173561,0.145308 RLEG_JOINT2:0.998622,0.011458,0.000000,-0.051206 RLEG_JOINT4:0.994737,0.097912,0.000000,0.030207 WAIST:0.999952,0.000000,-0.001213,0.009692 WAIST_JOINT0:0.999917,0.000000,-0.008836,0.009364 WAIST_JOINT1:0.997804,0.064919,0.000000,-0.013104 END:
KINECT_DATA_Sensor  AnkleLeft:0.058201,0.714362,-0.094181,-0.690962 AnkleRight:0.075536,0.749046,0.079688,0.653356 ElbowLeft:0.015752,0.881365,-0.212852,-0.421476 ElbowRight:0.029436,0.861705,0.182171,0.472665 FootLeft:0.000000,0.000000,0.000000,0.000000 FootRight:0.000000,0.000000,0.000000,0.000000 HandLeft:-0.046582,0.860176,0.013830,0.507677 HandRight:-0.022459,0.706289,-0.083038,0.702678 HandTipLeft:0.000000,0.000000,0.000000,0.000000 HandTipRight:0.000000,0.000000,0.000000,0.000000 Head:0.000000,0.000000,0.000000,0.000000 HipLeft:0.121718,-0.672697,0.710594,-0.166492 HipRight:-0.121856,0.683778,0.698240,-0.173376 KneeLeft:-0.032339,0.706602,-0.057273,-0.704548 KneeRight:-0.021160,0.706574,0.037525,0.706327 Neck:0.007585,-0.004623,0.996678,-0.080951 ShoulderLeft:0.031102,0.775820,-0.628123,0.050972 ShoulderRight:0.041591,0.785471,0.616335,-0.037897 SpineBase:0.000342,-0.002115,0.999183,-0.040362 SpineMid:0.003967,-0.002261,0.999175,-0.040354 SpineShoulder:0.007611,-0.003550,0.998179,-0.059731 ThumbLeft:0.000000,0.000000,0.000000,0.000000 ThumbRight:0.000000,0.000000,0.000000,0.000000 WristLeft:-0.029240,0.863436,-0.071848,0.498458 WristRight:-0.067506,0.700132,-0.029813,0.710190 END:
KINECT_DATA POSITION:9.653350,1.268353,-11.364901 HEAD_JOINT1:0.985597,0.151175,-0.000000,0.075793 LARM_JOINT2:0.824706,0.000000,0.053411,-0.563034 LARM_JOINT3:0.975459,0.000000,-0.155855,-0.155527 LLEG_JOINT2:0.998311,0.017452,0.000000,0.055415 LLEG_JOINT4:0.995311,0.090369,0.000000,-0.034497 RARM_JOINT2:0.801062,0.000000,-0.060599,0.595506 RARM_JOINT3:0.974355,0.000000,0.171042,0.146208 RLEG_JOINT2:0.998700,0.011829,0.000000,-0.049578 RLEG_JOINT4:0.994412,0.100357,0.000000,0.032768 WAIST:0.999974,0.000000,-0.000497,0.007234 WAIST_JOINT0:0.999951,0.000000,-0.005991,0.007831 WAIST_JOINT1:0.997804,0.065145,0.000000,-0.011974 END:
KINECT_DATA_Sensor  AnkleLeft:0.058213,0.712845,-0.094638,-0.692464 AnkleRight:0.079982,0.759219,0.079003,0.641052 ElbowLeft:0.016979,0.879072,-0.208242,-0.428461 ElbowRight:0.027481,0.863453,0.184191,0.468794 FootLeft:0.000000,0.000000,0.000000,0.000000 FootRight:0.000000,0.000000,0.000000,0.000000 HandLeft:-0.040809,0.836996,-0.013413,0.545520 HandRight:-0.048058,0.957160,-0.053614,0.280464 HandTipLeft:0.000000,0.000000,0.000000,0.000000 HandTipRight:0.000000,0.000000,0.000000,0.000000 Head:0.000000,0.000000,0.000000,0.000000 HipLeft:0.121325,-0.674259,0.709210,-0.166362 HipRight:-0.121953,0.681866,0.699954,-0.173930 KneeLeft:-0.031948,0.706205,-0.056631,-0.705016 KneeRight:-0.021516,0.706986,0.038351,0.705859 Neck:0.004903,-0.005803,0.996674,-0.081135 ShoulderLeft:0.033040,0.777045,-0.626667,0.048970 ShoulderRight:0.040052,0.784822,0.617119,-0.040184 SpineBase:-0.000234,-0.003470,0.999166,-0.040685 SpineMid:0.002313,-0.003574,0.999163,-0.040676 SpineShoulder:0.004893,-0.004796,0.998177,-0.059959 ThumbLeft:0.000000,0.000000,0.000000,0.000000 ThumbRight:0.000000,0.000000,0.000000,0.000000 WristLeft:-0.027547,0.838315,-0.071654,0.539754 WristRight:-0.075485,0.956428,0.006544,0.281966 END:
KINECT_DATA POSITION:9.723328,1.249713,-11.211252 HEAD_JOINT1:0.986005,0.148896,-0.000000,0.074996 LARM_JOINT2:0.824977,0.000000,0.052807,-0.562693 LARM_JOINT3:0.975309,0.000000,-0.162747,-0.149284 LLEG_JOINT2:0.998220,0.019108,0.000000,0.056487 LLEG_JOINT4:0.995088,0.091539,0.000000,-0.037694 RARM_JOINT2:0.799622,0.000000,-0.055972,0.597889 RARM_JOINT3:0.975579,0.000000,0.165624,0.144274 RLEG_JOINT2:0.998748,0.011974,0.000000,-0.048578 RLEG_JOINT4:0.994458,0.100129,0.000000,0.032053 WAIST:0.999982,0.000000,-0.001734,0.005770 WAIST_JOINT0:0.999920,0.000000,-0.008989,0.008879 WAIST_JOINT1:0.997831,0.064790,0.000000,-0.011617 END:
KINECT_DATA_Sensor  AnkleLeft:0.064328,0.725999,-0.092916,-0.678347 AnkleRight:0.077798,0.746543,0.081190,0.655766 ElbowLeft:0.014892,0.877043,-0.207438,-0.433062 ElbowRight:0.025226,0.864607,0.180935,0.468060 FootLeft:0.000000,0.000000,0.000000,0.000000 FootRight:0.000000,0.000000,0.000000,0.000000 HandLeft:-0.049035,0.789261,-0.041325,0.610700 HandRight:-0.009218,0.719667,-0.066217,0.691093 HandTipLeft:0.000000,0.000000,0.000000,0.000000 HandTipRight:0.000000,0.000000,0.000000,0.000000 Head:0.000000,0.000000,0.000000,0.000000 HipLeft:0.122618,-0.675026,0.708104,-0.167012 HipRight:-0.121356,0.681000,0.701084,-0.173185 KneeLeft:-0.030559,0.707204,-0.057499,-0.704005 KneeRight:-0.021687,0.706061,0.038811,0.706754 Neck:0.007666,-0.006956,0.996681,-0.080751 ShoulderLeft:0.034392,0.777245,-0.626406,0.048195 ShoulderRight:0.045045,0.785414,0.616336,-0.035013 SpineBase:0.001081,-0.004505,0.999172,-0.040416 SpineMid:0.004331,-0.004636,0.999163,-0.040401 SpineShoulder:0.007642,-0.005896,0.998175,-0.059616 ThumbLeft:0.000000,0.000000,0.000000,0.000000 ThumbRight:0.000000,0.000000,0.000000,0.000000 WristLeft:-0.022136,0.791270,-0.076321,0.606281 WristRight:-0.070066,0.718736,-0.028420,0.691160 END:
KINECT_DATA POSITION:9.706781,1.232509,-11.078798 HEAD_JOINT1:0.986000,0.148551,-0.000000,0.075742 LARM_JOINT2:0.825198,0.000000,0.052108,-0.562435 LARM_JOINT3:0.974745,0.000000,-0.164207,-0.151356 LLEG_JOINT2:0.998181,0.019861,0.000000,0.056922 LLEG_JOINT4:0.995018,0.092313,0.000000,-0.037649 RARM_JOINT2:0.799952,0.000000,-0.058235,0.597232 RARM_JOINT3:0.975303,0.000000,0.168297,0.143040 RLEG_JOINT2:0.998766,0.012893,0.000000,-0.047960 RLEG_JOINT4:0.994480,0.100350,0.000000,0.030647 WAIST:0.999983,0.000000,-0.002252,0.005401 WAIST_JOINT0:0.999930,0.000000,-0.008106,0.008601 WAIST_JOINT1:0.997868,0.064232,0.000000,-0.011597 END:
KINECT_DATA_Sensor  AnkleLeft:0.063524,0.713172,-0.095286,-0.691572 AnkleRight:0.073157,0.707942,0.087029,0.697059 ElbowLeft:0.013155,0.876078,-0.207011,-0.435271 ElbowRight:0.025866,0.863671,0.182360,0.469199 FootLeft:0.000000,0.000000,0.000000,0.000000 FootRight:0.000000,0.000000,0.000000,0.000000 HandLeft:-0.059877,0.829017,-0.030612,0.555165 HandRight:-0.021929,0.730319,-0.060500,0.680068 HandTipLeft:0.000000,0.000000,0.000000,0.000000 HandTipRight:0.000000,0.000000,0.000000,0.000000 Head:0.000000,0.000000,0.000000,0.000000 HipLeft:0.123600,-0.675271,0.707766,-0.166732 HipRight:-0.121492,0.680859,0.701378,-0.172449 KneeLeft:-0.030098,0.707613,-0.058068,-0.703566 KneeRight:-0.020837,0.705700,0.039294,0.707113 Neck:0.006854,-0.007166,0.996722,-0.080291 ShoulderLeft:0.033259,0.777369,-0.626316,0.048164 ShoulderRight:0.042856,0.785507,0.616302,-0.036244 SpineBase:0.001621,-0.004992,0.999202,-0.039604 SpineMid:0.004184,-0.005094,0.999194,-0.039591 SpineShoulder:0.006821,-0.006126,0.998213,-0.059044 ThumbLeft:0.000000,0.000000,0.000000,0.000000 ThumbRight:0.000000,0.000000,0.000000,0.000000 WristLeft:-0.029280,0.831715,-0.076313,0.549153 WristRight:-0.071071,0.728954,-0.027928,0.680290 END:
