EastLYD/RoboCupatHomeSim/InteractiveCleanUp/JapanOpen2016/Motion_Data/File62.dat
KINECT_DATA POSITION:10.653346,-1.085963,-6.643474 HEAD_JOINT1:0.978229,0.190653,-0.000000,0.081966 LARM_JOINT2:0.813342,0.000000,-0.008769,-0.581719 LARM_JOINT3:0.968769,0.000000,-0.177254,-0.173401 LLEG_JOINT2:0.998082,0.030798,0.000000,0.053692 LLEG_JOINT4:0.995739,0.089259,0.000000,-0.023178 RARM_JOINT2:0.795856,0.000000,-0.021864,0.605091 RARM_JOINT3:0.966695,0.000000,0.200023,0.159659 RLEG_JOINT2:0.999109,0.026857,0.000000,-0.032551 RLEG_JOINT4:0.993482,0.105626,0.000000,0.042858 WAIST:0.999866,0.000000,-0.015857,-0.004180 WAIST_JOINT0:0.999794,0.000000,-0.020103,0.002952 WAIST_JOINT1:0.997708,0.067428,0.000000,-0.005728 END:
KINECT_DATA_Sensor  AnkleLeft:0.071797,0.757281,-0.099304,-0.641490 AnkleRight:0.099449,0.687136,0.087223,0.714385 ElbowLeft:-0.015917,0.900002,-0.163834,-0.403611 ElbowRight:0.002381,0.846700,0.166948,0.505195 FootLeft:0.000000,0.000000,0.000000,0.000000 FootRight:0.000000,0.000000,0.000000,0.000000 HandLeft:0.022249,0.756134,0.114524,-0.643933 HandRight:-0.006986,0.796612,-0.167648,0.580737 HandTipLeft:0.000000,0.000000,0.000000,0.000000 HandTipRight:0.000000,0.000000,0.000000,0.000000 Head:0.000000,0.000000,0.000000,0.000000 HipLeft:0.129458,-0.680391,0.699274,-0.176986 HipRight:-0.103989,0.678753,0.709002,-0.160614 KneeLeft:-0.014098,0.718154,-0.056550,-0.693439 KneeRight:-0.006265,0.695765,0.045025,0.716830 Neck:0.019832,-0.009043,0.996264,-0.083563 ShoulderLeft:0.016368,0.777334,-0.625092,0.068869 ShoulderRight:0.042418,0.778239,0.625419,-0.037349 SpineBase:0.015774,-0.009215,0.998908,-0.042999 SpineMid:0.017626,-0.009294,0.998877,-0.042982 SpineShoulder:0.019677,-0.009081,0.997823,-0.062292 ThumbLeft:0.000000,0.000000,0.000000,0.000000 ThumbRight:0.000000,0.000000,0.000000,0.000000 WristLeft:-0.089618,0.748877,0.092486,-0.650076 WristRight:-0.113375,0.803690,-0.052889,0.581749 END:
KINECT_DATA POSITION:10.653443,-1.078030,-6.679249 HEAD_JOINT1:0.978028,0.190925,-0.000000,0.083717 LARM_JOINT2:0.813995,0.000000,-0.009341,-0.580797 LARM_JOINT3:0.968431,0.000000,-0.179357,-0.173123 LLEG_JOINT2:0.998030,0.031676,0.000000,0.054158 LLEG_JOINT4:0.995755,0.089134,0.000000,-0.022955 RARM_JOINT2:0.795096,0.000000,-0.022445,0.606068 RARM_JOINT3:0.965275,0.000000,0.206728,0.159713 RLEG_JOINT2:0.999183,0.024987,0.000000,-0.031769 RLEG_JOINT4:0.993666,0.105019,0.000000,0.039987 WAIST:0.999839,0.000000,-0.017483,-0.004144 WAIST_JOINT0:0.999762,0.000000,-0.021586,0.003082 WAIST_JOINT1:0.997711,0.067317,0.000000,-0.006405 END:
KINECT_DATA_Sensor  AnkleLeft:0.070537,0.750766,-0.101274,-0.648937 AnkleRight:0.097116,0.692375,0.086031,0.709778 ElbowLeft:-0.016412,0.901926,-0.164013,-0.399200 ElbowRight:0.003560,0.846828,0.166580,0.505095 FootLeft:0.000000,0.000000,0.000000,0.000000 FootRight:0.000000,0.000000,0.000000,0.000000 HandLeft:-0.000084,0.809614,0.123901,-0.573737 HandRight:-0.036946,0.798756,-0.180453,0.572766 HandTipLeft:0.000000,0.000000,0.000000,0.000000 HandTipRight:0.000000,0.000000,0.000000,0.000000 Head:0.000000,0.000000,0.000000,0.000000 HipLeft:0.130281,-0.680238,0.699083,-0.177726 HipRight:-0.102709,0.679048,0.709122,-0.159656 KneeLeft:-0.013940,0.719289,-0.057503,-0.692187 KneeRight:-0.006978,0.694626,0.043145,0.718042 Neck:0.021256,-0.009701,0.996241,-0.083417 ShoulderLeft:0.015421,0.777363,-0.624968,0.069881 ShoulderRight:0.043352,0.778432,0.625191,-0.036071 SpineBase:0.017381,-0.009485,0.998876,-0.043071 SpineMid:0.019151,-0.009561,0.998843,-0.043054 SpineShoulder:0.021110,-0.009557,0.997794,-0.062217 ThumbLeft:0.000000,0.000000,0.000000,0.000000 ThumbRight:0.000000,0.000000,0.000000,0.000000 WristLeft:-0.096459,0.805279,0.083416,-0.579019 WristRight:-0.112543,0.808253,-0.052173,0.575621 END:
KINECT_DATA POSITION:10.695438,-1.092427,-6.718934 HEAD_JOINT1:0.978086,0.189786,-0.000000,0.085613 LARM_JOINT2:0.815095,0.000000,-0.011775,-0.579207 LARM_JOINT3:0.967901,0.000000,-0.181912,-0.173425 LLEG_JOINT2:0.998046,0.031254,0.000000,0.054099 LLEG_JOINT4:0.995859,0.087640,0.000000,-0.024164 RARM_JOINT2:0.794200,0.000000,-0.022823,0.607228 RARM_JOINT3:0.953095,0.000000,0.256295,0.161003 RLEG_JOINT2:0.999143,0.025644,0.000000,-0.032489 RLEG_JOINT4:0.993576,0.105801,0.000000,0.040163 WAIST:0.999822,0.000000,-0.018430,-0.004124 WAIST_JOINT0:0.999727,0.000000,-0.023137,0.003200 WAIST_JOINT1:0.997727,0.067021,0.000000,-0.006939 END:
KINECT_DATA_Sensor  AnkleLeft:0.069533,0.749361,-0.099375,-0.650959 AnkleRight:0.098638,0.697683,0.086431,0.704300 ElbowLeft:-0.018243,0.904724,-0.164290,-0.392620 ElbowRight:0.001111,0.836894,0.165797,0.521649 FootLeft:0.000000,0.000000,0.000000,0.000000 FootRight:0.000000,0.000000,0.000000,0.000000 HandLeft:-0.022562,0.842369,0.131617,-0.522095 HandRight:-0.183496,0.863907,-0.228253,0.409749 HandTipLeft:0.000000,0.000000,0.000000,0.000000 HandTipRight:0.000000,0.000000,0.000000,0.000000 Head:0.000000,0.000000,0.000000,0.000000 HipLeft:0.131098,-0.680071,0.698965,-0.178225 HipRight:-0.102254,0.679131,0.709206,-0.159224 KneeLeft:-0.014264,0.719929,-0.057156,-0.691544 KneeRight:-0.006949,0.693944,0.044110,0.718643 Neck:0.022809,-0.010252,0.996231,-0.083060 ShoulderLeft:0.013619,0.777443,-0.624745,0.071351 ShoulderRight:0.043580,0.778587,0.625038,-0.035078 SpineBase:0.018314,-0.009730,0.998861,-0.042978 SpineMid:0.020397,-0.009820,0.998820,-0.042957 SpineShoulder:0.022662,-0.010036,0.997772,-0.061950 ThumbLeft:0.000000,0.000000,0.000000,0.000000 ThumbRight:0.000000,0.000000,0.000000,0.000000 WristLeft:-0.100981,0.840115,0.078043,-0.527181 WristRight:-0.139922,0.887041,-0.049016,0.437239 END:
KINECT_DATA POSITION:10.721438,-1.093915,-6.721723 HEAD_JOINT1:0.979252,0.183362,-0.000000,0.086282 LARM_JOINT2:0.816010,0.000000,-0.014220,-0.577863 LARM_JOINT3:0.968417,0.000000,-0.179351,-0.173210 LLEG_JOINT2:0.998076,0.031272,0.000000,0.053533 LLEG_JOINT4:0.996049,0.085870,0.000000,-0.022625 RARM_JOINT2:0.795070,0.000000,-0.019388,0.606208 RARM_JOINT3:0.921499,0.000000,0.356382,0.154375 RLEG_JOINT2:0.999161,0.025308,0.000000,-0.032212 RLEG_JOINT4:0.993902,0.103540,0.000000,0.037922 WAIST:0.999811,0.000000,-0.019006,-0.004184 WAIST_JOINT0:0.999701,0.000000,-0.024208,0.003436 WAIST_JOINT1:0.997777,0.066278,0.000000,-0.006982 END:
KINECT_DATA_Sensor  AnkleLeft:0.067954,0.752524,-0.098643,-0.647579 AnkleRight:0.095585,0.699076,0.085912,0.703403 ElbowLeft:-0.020926,0.906199,-0.164435,-0.389008 ElbowRight:-0.011784,0.806227,0.164955,0.568022 FootLeft:0.000000,0.000000,0.000000,0.000000 FootRight:0.000000,0.000000,0.000000,0.000000 HandLeft:-0.007575,0.789282,0.122174,-0.601706 HandRight:-0.349779,0.898020,-0.168848,0.206652 HandTipLeft:0.000000,0.000000,0.000000,0.000000 HandTipRight:0.000000,0.000000,0.000000,0.000000 Head:0.000000,0.000000,0.000000,0.000000 HipLeft:0.131797,-0.680114,0.698774,-0.178295 HipRight:-0.102297,0.679228,0.709224,-0.158701 KneeLeft:-0.013838,0.720343,-0.056725,-0.691157 KneeRight:-0.007018,0.693528,0.043720,0.719068 Neck:0.023863,-0.010306,0.996279,-0.082176 ShoulderLeft:0.011920,0.777757,-0.624307,0.072063 ShoulderRight:0.043226,0.779263,0.624274,-0.034102 SpineBase:0.018892,-0.009792,0.998869,-0.042512 SpineMid:0.021211,-0.009891,0.998823,-0.042489 SpineShoulder:0.023711,-0.010159,0.997789,-0.061251 ThumbLeft:0.000000,0.000000,0.000000,0.000000 ThumbRight:0.000000,0.000000,0.000000,0.000000 WristLeft:-0.094153,0.784184,0.089501,-0.606779 WristRight:-0.232490,0.938021,-0.051161,0.251888 END:
KINECT_DATA POSITION:10.790826,-1.093121,-6.698143 HEAD_JOINT1:0.979799,0.179069,-0.000000,0.089043 LARM_JOINT2:0.815942,0.000000,-0.013063,-0.577987 LARM_JOINT3:0.968816,0.000000,-0.174772,-0.175641 LLEG_JOINT2:0.998095,0.032224,0.000000,0.052619 LLEG_JOINT4:0.996031,0.086291,0.000000,-0.021807 RARM_JOINT2:0.804203,0.000000,0.004015,0.594341 RARM_JOINT3:0.886837,0.000000,0.435028,0.155792 RLEG_JOINT2:0.999141,0.024771,0.000000,-0.033226 RLEG_JOINT4:0.993532,0.106660,0.000000,0.038971 WAIST:0.999789,0.000000,-0.020067,-0.004410 WAIST_JOINT0:0.999488,0.000000,-0.031894,0.002528 WAIST_JOINT1:0.997870,0.064945,0.000000,-0.006137 END:
KINECT_DATA_Sensor  AnkleLeft:0.070602,0.763112,-0.098318,-0.634830 AnkleRight:0.096992,0.694283,0.088174,0.707665 ElbowLeft:-0.021573,0.906663,-0.164719,-0.387768 ElbowRight:-0.040190,0.792457,0.164967,0.585818 FootLeft:0.000000,0.000000,0.000000,0.000000 FootRight:0.000000,0.000000,0.000000,0.000000 HandLeft:0.014307,0.755436,0.111661,-0.645480 HandRight:-0.407898,0.863445,-0.209060,0.210654 HandTipLeft:0.000000,0.000000,0.000000,0.000000 HandTipRight:0.000000,0.000000,0.000000,0.000000 Head:0.000000,0.000000,0.000000,0.000000 HipLeft:0.132602,-0.680230,0.698445,-0.178546 HipRight:-0.102287,0.679429,0.709354,-0.157256 KneeLeft:-0.012419,0.721145,-0.056599,-0.690357 KneeRight:-0.008225,0.692719,0.044246,0.719802 Neck:0.031105,-0.009824,0.996229,-0.080401 ShoulderLeft:0.011245,0.777634,-0.624370,0.072944 ShoulderRight:0.051811,0.780043,0.623130,-0.023606 SpineBase:0.020005,-0.009032,0.998889,-0.041709 SpineMid:0.025386,-0.009256,0.998766,-0.041660 SpineShoulder:0.030951,-0.009962,0.997670,-0.059972 ThumbLeft:0.000000,0.000000,0.000000,0.000000 ThumbRight:0.000000,0.000000,0.000000,0.000000 WristLeft:-0.089063,0.747579,0.095813,-0.651163 WristRight:-0.319939,0.905322,-0.090068,0.264424 END:
KINECT_DATA POSITION:10.893393,-1.088911,-6.583786 HEAD_JOINT1:0.979955,0.178092,-0.000000,0.089282 LARM_JOINT2:0.815363,0.000000,-0.009945,-0.578865 LARM_JOINT3:0.969748,0.000000,-0.173896,-0.171318 LLEG_JOINT2:0.998135,0.034314,0.000000,0.050479 LLEG_JOINT4:0.996134,0.084825,0.000000,-0.022838 RARM_JOINT2:0.808864,0.000000,0.017577,0.587733 RARM_JOINT3:0.873837,0.000000,0.466449,0.137236 RLEG_JOINT2:0.999089,0.024667,0.000000,-0.034812 RLEG_JOINT4:0.993201,0.109383,0.000000,0.039828 WAIST:0.999761,0.000000,-0.021455,-0.004274 WAIST_JOINT0:0.999531,0.000000,-0.030502,0.002563 WAIST_JOINT1:0.997960,0.063579,0.000000,-0.005783 END:
KINECT_DATA_Sensor  AnkleLeft:0.070700,0.749297,-0.098235,-0.651081 AnkleRight:0.099008,0.695839,0.089811,0.705648 ElbowLeft:-0.021643,0.904311,-0.164647,-0.393250 ElbowRight:-0.055377,0.788114,0.163594,0.590802 FootLeft:0.000000,0.000000,0.000000,0.000000 FootRight:0.000000,0.000000,0.000000,0.000000 HandLeft:0.008610,0.780885,0.096240,-0.617157 HandRight:-0.446619,0.848292,-0.184095,0.216892 HandTipLeft:0.000000,0.000000,0.000000,0.000000 HandTipRight:0.000000,0.000000,0.000000,0.000000 Head:0.000000,0.000000,0.000000,0.000000 HipLeft:0.134157,-0.680162,0.698248,-0.178412 HipRight:-0.102773,0.680069,0.709218,-0.154773 KneeLeft:-0.009601,0.722187,-0.056698,-0.689304 KneeRight:-0.009244,0.691672,0.045230,0.720734 Neck:0.029736,-0.008865,0.996419,-0.078658 ShoulderLeft:0.012092,0.777980,-0.624209,0.070451 ShoulderRight:0.050809,0.780503,0.622648,-0.023304 SpineBase:0.021435,-0.007725,0.998945,-0.039869 SpineMid:0.025452,-0.007885,0.998851,-0.039838 SpineShoulder:0.029572,-0.009293,0.997790,-0.058769 ThumbLeft:0.000000,0.000000,0.000000,0.000000 ThumbRight:0.000000,0.000000,0.000000,0.000000 WristLeft:-0.094722,0.771782,0.092111,-0.622010 WristRight:-0.360973,0.890181,-0.107283,0.256451 END:
KINECT_DATA POSITION:10.922887,-1.070046,-6.544507 HEAD_JOINT1:0.979760,0.179657,-0.000000,0.088276 LARM_JOINT2:0.814609,0.000000,-0.008306,-0.579952 LARM_JOINT3:0.968925,0.000000,-0.177909,-0.171850 LLEG_JOINT2:0.998129,0.035058,0.000000,0.050094 LLEG_JOINT4:0.995933,0.087568,0.000000,-0.021209 RARM_JOINT2:0.810489,0.000000,0.020982,0.585377 RARM_JOINT3:0.868634,0.000000,0.486269,0.094959 RLEG_JOINT2:0.999081,0.024841,0.000000,-0.034940 RLEG_JOINT4:0.993191,0.109327,0.000000,0.040247 WAIST:0.999762,0.000000,-0.021374,-0.004392 WAIST_JOINT0:0.999620,0.000000,-0.027477,0.002115 WAIST_JOINT1:0.998052,0.062175,0.000000,-0.005060 END:
KINECT_DATA_Sensor  AnkleLeft:0.073201,0.753546,-0.100894,-0.645469 AnkleRight:0.100292,0.704418,0.088548,0.697062 ElbowLeft:-0.021913,0.902877,-0.163966,-0.396798 ElbowRight:-0.066899,0.762477,0.160247,0.623277 FootLeft:0.000000,0.000000,0.000000,0.000000 FootRight:0.000000,0.000000,0.000000,0.000000 HandLeft:0.003681,0.785963,0.113714,-0.607715 HandRight:-0.455737,0.821583,-0.178464,0.292327 HandTipLeft:0.000000,0.000000,0.000000,0.000000 HandTipRight:0.000000,0.000000,0.000000,0.000000 Head:0.000000,0.000000,0.000000,0.000000 HipLeft:0.134517,-0.680330,0.698143,-0.177914 HipRight:-0.103417,0.680094,0.709239,-0.154131 KneeLeft:-0.008718,0.722163,-0.056885,-0.689325 KneeRight:-0.009293,0.691709,0.045525,0.720680 Neck:0.026885,-0.007947,0.996624,-0.077172 ShoulderLeft:0.012221,0.778064,-0.624379,0.067955 ShoulderRight:0.047192,0.779968,0.623519,-0.025425 SpineBase:0.021378,-0.007402,0.998982,-0.039033 SpineMid:0.024000,-0.007505,0.998922,-0.039013 SpineShoulder:0.026714,-0.008591,0.997956,-0.057411 ThumbLeft:0.000000,0.000000,0.000000,0.000000 ThumbRight:0.000000,0.000000,0.000000,0.000000 WristLeft:-0.097041,0.778819,0.090563,-0.613043 WristRight:-0.389204,0.853443,-0.121366,0.324694 END:
KINECT_DATA POSITION:10.976589,-1.034813,-6.496525 HEAD_JOINT1:0.979516,0.181385,-0.000000,0.087451 LARM_JOINT2:0.814334,0.000000,-0.006902,-0.580355 LARM_JOINT3:0.968645,0.000000,-0.179453,-0.171823 LLEG_JOINT2:0.998194,0.035013,0.000000,0.048810 LLEG_JOINT4:0.996217,0.084995,0.000000,-0.018081 RARM_JOINT2:0.811821,0.000000,0.017912,0.583632 RARM_JOINT3:0.860349,0.000000,0.505445,0.065766 RLEG_JOINT2:0.999075,0.024196,0.000000,-0.035536 RLEG_JOINT4:0.993112,0.110297,0.000000,0.039535 WAIST:0.999737,0.000000,-0.022484,-0.004439 WAIST_JOINT0:0.999717,0.000000,-0.023692,0.002357 WAIST_JOINT1:0.998106,0.061364,0.000000,-0.004389 END:
KINECT_DATA_Sensor  AnkleLeft:0.065213,0.723991,-0.103666,-0.678851 AnkleRight:0.099945,0.705253,0.089413,0.696157 ElbowLeft:-0.022146,0.902491,-0.164203,-0.397563 ElbowRight:-0.071745,0.740379,0.160329,0.648835 FootLeft:0.000000,0.000000,0.000000,0.000000 FootRight:0.000000,0.000000,0.000000,0.000000 HandLeft:-0.006340,0.814028,0.117093,-0.568865 HandRight:-0.489291,0.810417,-0.155203,0.282367 HandTipLeft:0.000000,0.000000,0.000000,0.000000 HandTipRight:0.000000,0.000000,0.000000,0.000000 Head:0.000000,0.000000,0.000000,0.000000 HipLeft:0.135374,-0.680362,0.697906,-0.178066 HipRight:-0.103328,0.680445,0.709253,-0.152571 KneeLeft:-0.007858,0.722948,-0.055917,-0.688591 KneeRight:-0.010159,0.690881,0.045552,0.721461 Neck:0.023330,-0.006788,0.996783,-0.076382 ShoulderLeft:0.011088,0.777901,-0.624711,0.066958 ShoulderRight:0.041428,0.779656,0.624110,-0.030112 SpineBase:0.022518,-0.006669,0.998996,-0.038150 SpineMid:0.022810,-0.006680,0.998989,-0.038148 SpineShoulder:0.023152,-0.007688,0.998097,-0.056632 ThumbLeft:0.000000,0.000000,0.000000,0.000000 ThumbRight:0.000000,0.000000,0.000000,0.000000 WristLeft:-0.101954,0.807975,0.085615,-0.573978 WristRight:-0.420841,0.844211,-0.105628,0.314713 END:
KINECT_DATA POSITION:10.986053,-1.010276,-6.436837 HEAD_JOINT1:0.979429,0.181908,-0.000000,0.087341 LARM_JOINT2:0.814231,0.000000,-0.005866,-0.580511 LARM_JOINT3:0.969378,0.000000,-0.178337,-0.168824 LLEG_JOINT2:0.998174,0.035877,0.000000,0.048598 LLEG_JOINT4:0.996115,0.086259,0.000000,-0.017732 RARM_JOINT2:0.810924,0.000000,0.015533,0.584945 RARM_JOINT3:0.858524,0.000000,0.511201,0.040117 RLEG_JOINT2:0.999086,0.023482,0.000000,-0.035708 RLEG_JOINT4:0.993003,0.110978,0.000000,0.040369 WAIST:0.999733,0.000000,-0.022568,-0.004925 WAIST_JOINT0:0.999773,0.000000,-0.021190,0.002328 WAIST_JOINT1:0.998126,0.061094,0.000000,-0.003538 END:
KINECT_DATA_Sensor  AnkleLeft:0.071534,0.753367,-0.101848,-0.645715 AnkleRight:0.097747,0.687235,0.091746,0.713958 ElbowLeft:-0.021813,0.902268,-0.164621,-0.397917 ElbowRight:-0.073296,0.723505,0.158143,0.667952 FootLeft:0.000000,0.000000,0.000000,0.000000 FootRight:0.000000,0.000000,0.000000,0.000000 HandLeft:-0.009838,0.808379,0.103206,-0.579461 HandRight:-0.500001,0.806075,-0.128781,0.289235 HandTipLeft:0.000000,0.000000,0.000000,0.000000 HandTipRight:0.000000,0.000000,0.000000,0.000000 Head:0.000000,0.000000,0.000000,0.000000 HipLeft:0.135773,-0.680745,0.697522,-0.177805 HipRight:-0.103817,0.680246,0.709508,-0.151939 KneeLeft:-0.006767,0.723053,-0.056050,-0.688482 KneeRight:-0.011136,0.690778,0.045528,0.721546 Neck:0.020981,-0.006292,0.996841,-0.076346 ShoulderLeft:0.010422,0.777804,-0.624898,0.066444 ShoulderRight:0.037718,0.779263,0.624672,-0.033344 SpineBase:0.022646,-0.006475,0.999021,-0.037444 SpineMid:0.021705,-0.006440,0.999042,-0.037450 SpineShoulder:0.020809,-0.007165,0.998172,-0.056286 ThumbLeft:0.000000,0.000000,0.000000,0.000000 ThumbRight:0.000000,0.000000,0.000000,0.000000 WristLeft:-0.100862,0.800965,0.086573,-0.583770 WristRight:-0.438497,0.836557,-0.093507,0.314880 END:
KINECT_DATA POSITION:11.004144,-0.995769,-6.346238 HEAD_JOINT1:0.979693,0.181527,-0.000000,0.085139 LARM_JOINT2:0.813865,0.000000,-0.004876,-0.581033 LARM_JOINT3:0.968073,0.000000,-0.183692,-0.170563 LLEG_JOINT2:0.998217,0.036046,0.000000,0.047585 LLEG_JOINT4:0.996031,0.087354,0.000000,-0.017084 RARM_JOINT2:0.810649,0.000000,0.013790,0.585370 RARM_JOINT3:0.850745,0.000000,0.524070,0.039797 RLEG_JOINT2:0.999057,0.024385,0.000000,-0.035913 RLEG_JOINT4:0.993061,0.110524,0.000000,0.040178 WAIST:0.999701,0.000000,-0.024002,-0.004763 WAIST_JOINT0:0.999812,0.000000,-0.019210,0.002649 WAIST_JOINT1:0.998149,0.060753,0.000000,-0.002916 END:
KINECT_DATA_Sensor  AnkleLeft:0.071244,0.746628,-0.103498,-0.653268 AnkleRight:0.095330,0.665171,0.094877,0.734478 ElbowLeft:-0.021952,0.902110,-0.164915,-0.398143 ElbowRight:-0.072947,0.716130,0.157329,0.676080 FootLeft:0.000000,0.000000,0.000000,0.000000 FootRight:0.000000,0.000000,0.000000,0.000000 HandLeft:-0.027901,0.843510,0.122760,-0.522151 HandRight:-0.519846,0.805852,-0.136096,0.248678 HandTipLeft:0.000000,0.000000,0.000000,0.000000 HandTipRight:0.000000,0.000000,0.000000,0.000000 Head:0.000000,0.000000,0.000000,0.000000 HipLeft:0.137005,-0.680536,0.697358,-0.178306 HipRight:-0.103577,0.680681,0.709421,-0.150554 KneeLeft:-0.006119,0.724041,-0.055571,-0.687487 KneeRight:-0.010448,0.689742,0.046194,0.722505 Neck:0.019054,-0.005184,0.996897,-0.076197 ShoulderLeft:0.010373,0.777466,-0.625417,0.065512 ShoulderRight:0.035152,0.779328,0.624624,-0.035455 SpineBase:0.024083,-0.005949,0.999018,-0.036701 SpineMid:0.021469,-0.005853,0.999078,-0.036717 SpineShoulder:0.018895,-0.006113,0.998239,-0.055890 ThumbLeft:0.000000,0.000000,0.000000,0.000000 ThumbRight:0.000000,0.000000,0.000000,0.000000 WristLeft:-0.106864,0.839418,0.079075,-0.526977 WristRight:-0.452289,0.839978,-0.078365,0.289363 END:
KINECT_DATA POSITION:11.011187,-0.987338,-6.326818 HEAD_JOINT1:0.979761,0.181693,-0.000000,0.084001 LARM_JOINT2:0.814208,0.000000,-0.005689,-0.580545 LARM_JOINT3:0.968123,0.000000,-0.183235,-0.170773 LLEG_JOINT2:0.998202,0.036140,0.000000,0.047810 LLEG_JOINT4:0.996205,0.085162,0.000000,-0.017967 RARM_JOINT2:0.811265,0.000000,0.012858,0.584537 RARM_JOINT3:0.843775,0.000000,0.534914,0.043725 RLEG_JOINT2:0.999060,0.024610,0.000000,-0.035676 RLEG_JOINT4:0.993154,0.109566,0.000000,0.040493 WAIST:0.999714,0.000000,-0.023384,-0.004962 WAIST_JOINT0:0.999778,0.000000,-0.020969,0.002120 WAIST_JOINT1:0.998143,0.060869,0.000000,-0.002245 END:
KINECT_DATA_Sensor  AnkleLeft:0.071062,0.750865,-0.100921,-0.648820 AnkleRight:0.097296,0.683653,0.091795,0.717444 ElbowLeft:-0.022348,0.902930,-0.165667,-0.395945 ElbowRight:-0.073218,0.714579,0.158073,0.677517 FootLeft:0.000000,0.000000,0.000000,0.000000 FootRight:0.000000,0.000000,0.000000,0.000000 HandLeft:-0.011521,0.750401,0.122557,-0.649419 HandRight:-0.513599,0.801437,-0.160399,0.261128 HandTipLeft:0.000000,0.000000,0.000000,0.000000 HandTipRight:0.000000,0.000000,0.000000,0.000000 Head:0.000000,0.000000,0.000000,0.000000 HipLeft:0.136586,-0.680687,0.697347,-0.178094 HipRight:-0.104115,0.680440,0.709504,-0.150881 KneeLeft:-0.006039,0.723628,-0.055660,-0.687916 KneeRight:-0.010288,0.690173,0.046315,0.722088 Neck:0.020732,-0.004940,0.996848,-0.076424 ShoulderLeft:0.010224,0.777435,-0.625392,0.066137 ShoulderRight:0.037151,0.779253,0.624711,-0.033479 SpineBase:0.023492,-0.005685,0.999034,-0.036705 SpineMid:0.022011,-0.005631,0.999068,-0.036713 SpineShoulder:0.020586,-0.005798,0.998206,-0.055929 ThumbLeft:0.000000,0.000000,0.000000,0.000000 ThumbRight:0.000000,0.000000,0.000000,0.000000 WristLeft:-0.092696,0.744613,0.095188,-0.654139 WristRight:-0.461598,0.827854,-0.093889,0.304582 END:
KINECT_DATA POSITION:11.016935,-0.987025,-6.332088 HEAD_JOINT1:0.980049,0.180620,-0.000000,0.082953 LARM_JOINT2:0.814954,0.000000,-0.007696,-0.579474 LARM_JOINT3:0.968551,0.000000,-0.183378,-0.168174 LLEG_JOINT2:0.998168,0.036357,0.000000,0.048364 LLEG_JOINT4:0.996232,0.084889,0.000000,-0.017746 RARM_JOINT2:0.810136,0.000000,0.005164,0.586219 RARM_JOINT3:0.840771,0.000000,0.539431,0.046021 RLEG_JOINT2:0.999066,0.025286,0.000000,-0.035034 RLEG_JOINT4:0.993241,0.108920,0.000000,0.040107 WAIST:0.999729,0.000000,-0.022668,-0.005265 WAIST_JOINT0:0.999787,0.000000,-0.020575,0.001774 WAIST_JOINT1:0.998136,0.060990,0.000000,-0.002115 END:
KINECT_DATA_Sensor  AnkleLeft:0.071004,0.751925,-0.101007,-0.647584 AnkleRight:0.095604,0.671653,0.093589,0.728686 ElbowLeft:-0.023488,0.904106,-0.166045,-0.393026 ElbowRight:-0.067641,0.713630,0.160860,0.678441 FootLeft:0.000000,0.000000,0.000000,0.000000 FootRight:0.000000,0.000000,0.000000,0.000000 HandLeft:0.006083,-0.633539,-0.119327,0.764430 HandRight:-0.519249,0.816261,-0.126105,0.219537 HandTipLeft:0.000000,0.000000,0.000000,0.000000 HandTipRight:0.000000,0.000000,0.000000,0.000000 Head:0.000000,0.000000,0.000000,0.000000 HipLeft:0.136014,-0.680974,0.697253,-0.177801 HipRight:-0.104397,0.680144,0.709646,-0.151356 KneeLeft:-0.006031,0.723151,-0.055992,-0.688390 KneeRight:-0.009601,0.690681,0.046526,0.721598 Neck:0.020416,-0.005417,0.996834,-0.076648 ShoulderLeft:0.009568,0.777858,-0.624824,0.066641 ShoulderRight:0.036104,0.779024,0.625003,-0.034496 SpineBase:0.022796,-0.005782,0.999043,-0.036881 SpineMid:0.021514,-0.005735,0.999071,-0.036888 SpineShoulder:0.020290,-0.005958,0.998206,-0.056007 ThumbLeft:0.000000,0.000000,0.000000,0.000000 ThumbRight:0.000000,0.000000,0.000000,0.000000 WristLeft:0.075198,-0.622320,-0.109488,0.771412 WristRight:-0.468513,0.842330,-0.070497,0.256917 END:
KINECT_DATA POSITION:11.053959,-0.986742,-6.372046 HEAD_JOINT1:0.981296,0.175812,-0.000000,0.078409 LARM_JOINT2:0.814619,0.000000,-0.008387,-0.579936 LARM_JOINT3:0.969647,0.000000,-0.177255,-0.168421 LLEG_JOINT2:0.998170,0.035861,0.000000,0.048689 LLEG_JOINT4:0.996157,0.086213,0.000000,-0.015439 RARM_JOINT2:0.819111,0.000000,0.034292,0.572609 RARM_JOINT3:0.846085,0.000000,0.531485,0.040783 RLEG_JOINT2:0.999077,0.024206,0.000000,-0.035484 RLEG_JOINT4:0.993035,0.110220,0.000000,0.041639 WAIST:0.999750,0.000000,-0.021613,-0.005665 WAIST_JOINT0:0.999819,0.000000,-0.018931,0.001931 WAIST_JOINT1:0.998174,0.060371,0.000000,-0.001847 END:
KINECT_DATA_Sensor  AnkleLeft:0.070036,0.750167,-0.103229,-0.649375 AnkleRight:0.096787,0.677295,0.092683,0.723404 ElbowLeft:-0.024559,0.902592,-0.164847,-0.396926 ElbowRight:-0.093537,0.727703,0.157692,0.660933 FootLeft:0.000000,0.000000,0.000000,0.000000 FootRight:0.000000,0.000000,0.000000,0.000000 HandLeft:-0.015566,-0.594383,-0.102158,0.797515 HandRight:-0.526781,0.809929,-0.130846,0.222254 HandTipLeft:0.000000,0.000000,0.000000,0.000000 HandTipRight:0.000000,0.000000,0.000000,0.000000 Head:0.000000,0.000000,0.000000,0.000000 HipLeft:0.135412,-0.681520,0.697067,-0.176893 HipRight:-0.105032,0.679866,0.709763,-0.151615 KneeLeft:-0.006264,0.722440,-0.055587,-0.689168 KneeRight:-0.011022,0.691411,0.046382,0.720887 Neck:0.018656,-0.005748,0.996916,-0.076008 ShoulderLeft:0.011049,0.778185,-0.624643,0.064241 ShoulderRight:0.035339,0.779816,0.624044,-0.034738 SpineBase:0.021766,-0.005977,0.999076,-0.036586 SpineMid:0.020124,-0.005917,0.999110,-0.036595 SpineShoulder:0.018541,-0.006073,0.998274,-0.055393 ThumbLeft:0.000000,0.000000,0.000000,0.000000 ThumbRight:0.000000,0.000000,0.000000,0.000000 WristLeft:0.071299,-0.581054,-0.113550,0.802745 WristRight:-0.472587,0.839322,-0.083209,0.255491 END:
KINECT_DATA POSITION:11.095043,-0.980838,-6.409526 HEAD_JOINT1:0.982371,0.175006,-0.000000,0.065721 LARM_JOINT2:0.808778,0.000000,0.001130,-0.588113 LARM_JOINT3:0.971123,0.000000,-0.176117,-0.160943 LLEG_JOINT2:0.998232,0.034723,0.000000,0.048250 LLEG_JOINT4:0.996294,0.084503,0.000000,-0.016033 RARM_JOINT2:0.819322,0.000000,0.188752,0.541373 RARM_JOINT3:0.905687,0.000000,0.422943,-0.029166 RLEG_JOINT2:0.999054,0.025237,0.000000,-0.035418 RLEG_JOINT4:0.993355,0.107095,0.000000,0.042146 WAIST:0.999838,0.000000,-0.017113,-0.005635 WAIST_JOINT0:0.999981,-0.000000,0.003118,0.005224 WAIST_JOINT1:0.998332,0.057727,-0.000000,0.000673 END:
KINECT_DATA_Sensor  AnkleLeft:0.070832,0.758668,-0.099073,-0.639992 AnkleRight:0.097096,0.694971,0.089341,0.706828 ElbowLeft:-0.020684,0.888392,-0.160242,-0.429714 ElbowRight:-0.192597,0.755436,0.078876,0.621290 FootLeft:0.000000,0.000000,0.000000,0.000000 FootRight:0.000000,0.000000,0.000000,0.000000 HandLeft:0.019274,0.741190,0.089353,-0.665042 HandRight:-0.522399,0.821363,-0.109022,0.201435 HandTipLeft:0.000000,0.000000,0.000000,0.000000 HandTipRight:0.000000,0.000000,0.000000,0.000000 Head:0.000000,0.000000,0.000000,0.000000 HipLeft:0.132438,-0.682477,0.697719,-0.172838 HipRight:-0.108194,0.679723,0.709298,-0.152209 KneeLeft:-0.006498,0.719318,-0.054531,-0.692507 KneeRight:-0.010403,0.694634,0.046996,0.717752 Neck:-0.003398,-0.001885,0.997314,-0.073140 ShoulderLeft:0.022234,0.776828,-0.627598,0.046530 ShoulderRight:0.018029,0.781901,0.621026,-0.051306 SpineBase:0.017305,-0.004884,0.999222,-0.035104 SpineMid:0.006879,-0.004517,0.999348,-0.035153 SpineShoulder:-0.003548,-0.003034,0.998593,-0.052828 ThumbLeft:0.000000,0.000000,0.000000,0.000000 ThumbRight:0.000000,0.000000,0.000000,0.000000 WristLeft:-0.099558,0.729746,0.094114,-0.669852 WristRight:-0.483507,0.843127,-0.080315,0.221150 END:
KINECT_DATA POSITION:11.160966,-0.957909,-6.509995 HEAD_JOINT1:0.982594,0.176300,-0.000000,0.058539 LARM_JOINT2:0.805578,0.000000,0.002888,-0.592483 LARM_JOINT3:0.969237,0.000000,-0.185687,-0.161552 LLEG_JOINT2:0.998368,0.032787,0.000000,0.046769 LLEG_JOINT4:0.996327,0.084786,0.000000,-0.012024 RARM_JOINT2:0.824525,0.000000,0.171102,0.539335 RARM_JOINT3:0.902872,0.000000,0.429143,-0.025678 RLEG_JOINT2:0.999010,0.024996,0.000000,-0.036806 RLEG_JOINT4:0.993077,0.108244,0.000000,0.045622 WAIST:0.999925,0.000000,-0.011099,-0.005133 WAIST_JOINT0:0.999895,-0.000000,0.012584,0.007147 WAIST_JOINT1:0.998370,0.057000,-0.000000,0.002952 END:
KINECT_DATA_Sensor  AnkleLeft:0.069045,0.760306,-0.099281,-0.638209 AnkleRight:0.098800,0.697169,0.088939,0.704474 ElbowLeft:-0.018933,0.882753,-0.158314,-0.441956 ElbowRight:-0.187032,0.754221,0.089207,0.623067 FootLeft:0.000000,0.000000,0.000000,0.000000 FootRight:0.000000,0.000000,0.000000,0.000000 HandLeft:-0.021471,-0.646823,-0.139793,0.749411 HandRight:-0.509078,0.832990,-0.088278,0.197925 HandTipLeft:0.000000,0.000000,0.000000,0.000000 HandTipRight:0.000000,0.000000,0.000000,0.000000 Head:0.000000,0.000000,0.000000,0.000000 HipLeft:0.128583,-0.683100,0.698720,-0.169206 HipRight:-0.112383,0.679726,0.708206,-0.154230 KneeLeft:-0.006805,0.715103,-0.052526,-0.697009 KneeRight:-0.011449,0.698920,0.047427,0.713534 Neck:-0.012951,0.000834,0.997285,-0.072490 ShoulderLeft:0.026513,0.775433,-0.629623,0.039693 ShoulderRight:0.009945,0.782854,0.619299,-0.059243 SpineBase:0.011340,-0.002728,0.999344,-0.034290 SpineMid:-0.000847,-0.002310,0.999408,-0.034321 SpineShoulder:-0.013075,-0.000463,0.998562,-0.051989 ThumbLeft:0.000000,0.000000,0.000000,0.000000 ThumbRight:0.000000,0.000000,0.000000,0.000000 WristLeft:0.087284,-0.624970,-0.102103,0.769005 WristRight:-0.487871,0.844648,-0.073889,0.207584 END:
KINECT_DATA POSITION:11.135757,-0.934661,-6.536698 HEAD_JOINT1:0.982060,0.177758,-0.000000,0.062925 LARM_JOINT2:0.807140,0.000000,-0.002713,-0.590354 LARM_JOINT3:0.967016,0.000000,-0.190118,-0.169513 LLEG_JOINT2:0.998346,0.033365,0.000000,0.046824 LLEG_JOINT4:0.996311,0.084927,0.000000,-0.012300 RARM_JOINT2:0.823461,0.000000,0.113001,0.556006 RARM_JOINT3:0.880442,0.000000,0.474087,-0.007973 RLEG_JOINT2:0.999027,0.024498,0.000000,-0.036677 RLEG_JOINT4:0.992968,0.109716,0.000000,0.044471 WAIST:0.999887,0.000000,-0.014052,-0.005307 WAIST_JOINT0:0.999972,-0.000000,0.004523,0.005917 WAIST_JOINT1:0.998362,0.057162,-0.000000,0.002468 END:
KINECT_DATA_Sensor  AnkleLeft:0.068332,0.754425,-0.100479,-0.645040 AnkleRight:0.099065,0.695984,0.090027,0.705470 ElbowLeft:-0.021816,0.890720,-0.158204,-0.425574 ElbowRight:-0.148086,0.743093,0.116700,0.642078 FootLeft:0.000000,0.000000,0.000000,0.000000 FootRight:0.000000,0.000000,0.000000,0.000000 HandLeft:-0.011650,0.764945,0.160941,-0.623556 HandRight:-0.517346,0.826258,-0.085105,0.205933 HandTipLeft:0.000000,0.000000,0.000000,0.000000 HandTipRight:0.000000,0.000000,0.000000,0.000000 Head:0.000000,0.000000,0.000000,0.000000 HipLeft:0.130809,-0.682751,0.698198,-0.171056 HipRight:-0.110838,0.679958,0.708586,-0.152570 KneeLeft:-0.006483,0.717172,-0.052826,-0.694861 KneeRight:-0.011711,0.696800,0.047133,0.715619 Neck:-0.004790,-0.000239,0.997337,-0.072767 ShoulderLeft:0.021870,0.776337,-0.628286,0.045601 ShoulderRight:0.015829,0.782140,0.620682,-0.052539 SpineBase:0.014292,-0.002880,0.999312,-0.034110 SpineMid:0.004715,-0.002553,0.999403,-0.034136 SpineShoulder:-0.004888,-0.001151,0.998628,-0.052119 ThumbLeft:0.000000,0.000000,0.000000,0.000000 ThumbRight:0.000000,0.000000,0.000000,0.000000 WristLeft:-0.103375,0.764626,0.090843,-0.629610 WristRight:-0.487674,0.843030,-0.074061,0.214451 END:
KINECT_DATA POSITION:11.114009,-0.933135,-6.531537 HEAD_JOINT1:0.981083,0.180520,-0.000000,0.069914 LARM_JOINT2:0.810210,0.000000,-0.004366,-0.586124 LARM_JOINT3:0.967376,0.000000,-0.180682,-0.177590 LLEG_JOINT2:0.998291,0.034063,0.000000,0.047494 LLEG_JOINT4:0.996181,0.086423,0.000000,-0.012464 RARM_JOINT2:0.816445,0.000000,0.035544,0.576328 RARM_JOINT3:0.863610,0.000000,0.504122,0.006164 RLEG_JOINT2:0.999013,0.025417,0.000000,-0.036433 RLEG_JOINT4:0.993258,0.106951,0.000000,0.044713 WAIST:0.999833,0.000000,-0.017403,-0.005533 WAIST_JOINT0:0.999977,0.000000,-0.005910,0.003432 WAIST_JOINT1:0.998348,0.057444,-0.000000,0.001263 END:
KINECT_DATA_Sensor  AnkleLeft:0.071120,0.766988,-0.101182,-0.629629 AnkleRight:0.099308,0.702916,0.086960,0.698917 ElbowLeft:-0.023067,0.897123,-0.161196,-0.410676 ElbowRight:-0.095221,0.716615,0.146986,0.675123 FootLeft:0.000000,0.000000,0.000000,0.000000 FootRight:0.000000,0.000000,0.000000,0.000000 HandLeft:0.026173,0.752729,0.141013,-0.642518 HandRight:-0.493351,0.864676,0.046714,0.082206 HandTipLeft:0.000000,0.000000,0.000000,0.000000 HandTipRight:0.000000,0.000000,0.000000,0.000000 Head:0.000000,0.000000,0.000000,0.000000 HipLeft:0.133857,-0.682311,0.697410,-0.173644 HipRight:-0.109426,0.680107,0.708909,-0.151424 KneeLeft:-0.006507,0.719510,-0.053599,-0.692380 KneeRight:-0.010892,0.694404,0.047780,0.717915 Neck:0.005747,-0.002497,0.997299,-0.073186 ShoulderLeft:0.014760,0.777884,-0.625891,0.054216 ShoulderRight:0.022331,0.780909,0.622632,-0.044857 SpineBase:0.017632,-0.003466,0.999258,-0.034067 SpineMid:0.011665,-0.003262,0.999345,-0.034087 SpineShoulder:0.005696,-0.002595,0.998608,-0.052380 ThumbLeft:0.000000,0.000000,0.000000,0.000000 ThumbRight:0.000000,0.000000,0.000000,0.000000 WristLeft:-0.097830,0.747453,0.096822,-0.649899 WristRight:-0.480422,0.873203,0.032322,0.075277 END:
KINECT_DATA POSITION:11.141684,-0.954924,-6.410837 HEAD_JOINT1:0.981104,0.180175,-0.000000,0.070513 LARM_JOINT2:0.810299,0.000000,-0.003704,-0.586005 LARM_JOINT3:0.969989,0.000000,-0.177372,-0.166312 LLEG_JOINT2:0.998283,0.034244,0.000000,0.047514 LLEG_JOINT4:0.996183,0.085864,0.000000,-0.015729 RARM_JOINT2:0.809341,0.000000,0.101314,0.578534 RARM_JOINT3:0.887142,0.000000,0.456793,-0.065726 RLEG_JOINT2:0.999030,0.024743,0.000000,-0.036420 RLEG_JOINT4:0.993424,0.106583,0.000000,0.041828 WAIST:0.999841,0.000000,-0.016962,-0.005548 WAIST_JOINT0:0.999986,0.000000,-0.002852,0.004401 WAIST_JOINT1:0.998380,0.056880,-0.000000,0.001300 END:
KINECT_DATA_Sensor  AnkleLeft:0.069830,0.746166,-0.100742,-0.654379 AnkleRight:0.096374,0.701967,0.088637,0.700069 ElbowLeft:-0.023941,0.894697,-0.161233,-0.415870 ElbowRight:-0.130142,0.704178,0.099441,0.690875 FootLeft:0.000000,0.000000,0.000000,0.000000 FootRight:0.000000,0.000000,0.000000,0.000000 HandLeft:-0.000464,0.802341,0.105403,-0.587486 HandRight:-0.533481,0.834111,0.073475,0.119405 HandTipLeft:0.000000,0.000000,0.000000,0.000000 HandTipRight:0.000000,0.000000,0.000000,0.000000 Head:0.000000,0.000000,0.000000,0.000000 HipLeft:0.134715,-0.682439,0.697281,-0.172999 HipRight:-0.111046,0.680071,0.708710,-0.151335 KneeLeft:-0.006358,0.719204,-0.053737,-0.692689 KneeRight:-0.011400,0.694716,0.047311,0.717636 Neck:0.002659,-0.002289,0.997361,-0.072524 ShoulderLeft:0.015626,0.777322,-0.626746,0.052108 ShoulderRight:0.019232,0.781326,0.622018,-0.047476 SpineBase:0.017189,-0.003338,0.999307,-0.032850 SpineMid:0.009906,-0.003099,0.999406,-0.032873 SpineShoulder:0.002598,-0.002490,0.998648,-0.051858 ThumbLeft:0.000000,0.000000,0.000000,0.000000 ThumbRight:0.000000,0.000000,0.000000,0.000000 WristLeft:-0.107101,0.793847,0.086512,-0.592327 WristRight:-0.485189,0.867394,0.038993,0.103437 END:
KINECT_DATA POSITION:11.252883,-1.012582,-6.184459 HEAD_JOINT1:0.982259,0.177673,-0.000000,0.059997 LARM_JOINT2:0.808147,0.000000,0.002233,-0.588977 LARM_JOINT3:0.969790,0.000000,-0.185894,-0.157961 LLEG_JOINT2:0.998377,0.033368,0.000000,0.046156 LLEG_JOINT4:0.996021,0.087982,0.000000,-0.014220 RARM_JOINT2:0.814638,0.000000,0.172414,0.553749 RARM_JOINT3:0.919499,0.000000,0.373048,-0.123924 RLEG_JOINT2:0.999064,0.019850,0.000000,-0.038424 RLEG_JOINT4:0.992274,0.116397,0.000000,0.042931 WAIST:0.999943,0.000000,-0.009774,-0.004393 WAIST_JOINT0:0.999766,-0.000000,0.019698,0.008948 WAIST_JOINT1:0.998486,0.054897,-0.000000,0.003353 END:
KINECT_DATA_Sensor  AnkleLeft:0.071411,0.746314,-0.101514,-0.653919 AnkleRight:0.100429,0.712677,0.091585,0.688199 ElbowLeft:-0.023770,0.881059,-0.161859,-0.443814 ElbowRight:-0.183460,0.681378,0.053937,0.706510 FootLeft:0.000000,0.000000,0.000000,0.000000 FootRight:0.000000,0.000000,0.000000,0.000000 HandLeft:-0.007006,0.721941,0.105804,-0.683782 HandRight:-0.495081,0.851008,0.136899,0.109262 HandTipLeft:0.000000,0.000000,0.000000,0.000000 HandTipRight:0.000000,0.000000,0.000000,0.000000 Head:0.000000,0.000000,0.000000,0.000000 HipLeft:0.132698,-0.682811,0.698466,-0.168243 HipRight:-0.118669,0.680322,0.706687,-0.153860 KneeLeft:-0.006409,0.714131,-0.053048,-0.697970 KneeRight:-0.015803,0.699820,0.044446,0.712760 Neck:-0.019880,0.002913,0.997380,-0.069501 ShoulderLeft:0.022837,0.776462,-0.628587,0.038260 ShoulderRight:-0.002817,0.784949,0.615747,-0.068572 SpineBase:0.009993,-0.001021,0.999504,-0.029835 SpineMid:-0.004954,-0.000575,0.999542,-0.029847 SpineShoulder:-0.020060,0.000585,0.998541,-0.050131 ThumbLeft:0.000000,0.000000,0.000000,0.000000 ThumbRight:0.000000,0.000000,0.000000,0.000000 WristLeft:-0.105922,0.712022,0.096121,-0.687434 WristRight:-0.489918,0.863404,0.087758,0.082539 END:
KINECT_DATA POSITION:11.305007,-1.049626,-6.119752 HEAD_JOINT1:0.983140,0.175814,-0.000000,0.050262 LARM_JOINT2:0.806941,0.000000,0.007989,-0.590577 LARM_JOINT3:0.970870,0.000000,-0.185372,-0.151816 LLEG_JOINT2:0.998389,0.033180,0.000000,0.046018 LLEG_JOINT4:0.996156,0.086951,0.000000,-0.010648 RARM_JOINT2:0.819348,0.000000,0.187650,0.541717 RARM_JOINT3:0.929361,0.000000,0.347278,-0.125243 RLEG_JOINT2:0.999036,0.022526,0.000000,-0.037671 RLEG_JOINT4:0.992538,0.113782,0.000000,0.043844 WAIST:0.999972,0.000000,-0.005884,-0.004546 WAIST_JOINT0:0.999451,-0.000000,0.031393,0.010547 WAIST_JOINT1:0.998566,0.053178,-0.000000,0.006165 END:
KINECT_DATA_Sensor  AnkleLeft:0.070965,0.758157,-0.101349,-0.640227 AnkleRight:0.097155,0.685423,0.095156,0.715333 ElbowLeft:-0.022752,0.873430,-0.163667,-0.458057 ElbowRight:-0.199508,0.677174,0.044497,0.706861 FootLeft:0.000000,0.000000,0.000000,0.000000 FootRight:0.000000,0.000000,0.000000,0.000000 HandLeft:-0.014394,0.702245,0.102185,-0.704417 HandRight:-0.485710,0.851098,0.092708,0.176416 HandTipLeft:0.000000,0.000000,0.000000,0.000000 HandTipRight:0.000000,0.000000,0.000000,0.000000 Head:0.000000,0.000000,0.000000,0.000000 HipLeft:0.130492,-0.683574,0.698745,-0.165694 HipRight:-0.121982,0.680005,0.706156,-0.155103 KneeLeft:-0.006119,0.711404,-0.052746,-0.700774 KneeRight:-0.013634,0.702617,0.045850,0.709958 Neck:-0.031658,0.005868,0.997197,-0.067543 ShoulderLeft:0.027987,0.776586,-0.628733,0.028726 ShoulderRight:-0.012874,0.786877,0.612104,-0.077377 SpineBase:0.006149,0.000296,0.999564,-0.028869 SpineMid:-0.012735,0.000841,0.999502,-0.028858 SpineShoulder:-0.031811,0.003335,0.998318,-0.048351 ThumbLeft:0.000000,0.000000,0.000000,0.000000 ThumbRight:0.000000,0.000000,0.000000,0.000000 WristLeft:0.106652,-0.684530,-0.090978,0.715379 WristRight:-0.492557,0.854391,0.056242,0.155692 END:
KINECT_DATA POSITION:11.355879,-1.057968,-6.179869 HEAD_JOINT1:0.983726,0.173222,-0.000000,0.047714 LARM_JOINT2:0.807152,0.000000,0.007291,-0.590299 LARM_JOINT3:0.969112,0.000000,-0.188699,-0.158790 LLEG_JOINT2:0.998425,0.032841,0.000000,0.045475 LLEG_JOINT4:0.996288,0.085043,0.000000,-0.013352 RARM_JOINT2:0.820309,0.000000,0.186868,0.540532 RARM_JOINT3:0.929267,0.000000,0.348104,-0.123639 RLEG_JOINT2:0.998990,0.023864,0.000000,-0.038078 RLEG_JOINT4:0.992563,0.112866,0.000000,0.045605 WAIST:0.999976,0.000000,-0.005271,-0.004404 WAIST_JOINT0:0.999400,-0.000000,0.032940,0.010748 WAIST_JOINT1:0.998620,0.052177,-0.000000,0.005926 END:
KINECT_DATA_Sensor  AnkleLeft:0.070671,0.753613,-0.097993,-0.646119 AnkleRight:0.103333,0.722809,0.089086,0.677446 ElbowLeft:-0.024009,0.873491,-0.163183,-0.458048 ElbowRight:-0.201199,0.677166,0.045159,0.706347 FootLeft:0.000000,0.000000,0.000000,0.000000 FootRight:0.000000,0.000000,0.000000,0.000000 HandLeft:-0.005593,0.709392,0.125258,-0.693572 HandRight:-0.477586,0.861089,0.111582,0.134112 HandTipLeft:0.000000,0.000000,0.000000,0.000000 HandTipRight:0.000000,0.000000,0.000000,0.000000 Head:0.000000,0.000000,0.000000,0.000000 HipLeft:0.129880,-0.683643,0.698966,-0.164953 HipRight:-0.122301,0.680154,0.706015,-0.154841 KneeLeft:-0.006041,0.710964,-0.052229,-0.701261 KneeRight:-0.012889,0.703073,0.046974,0.709448 Neck:-0.033249,0.005329,0.997186,-0.066977 ShoulderLeft:0.028344,0.776773,-0.628579,0.026609 ShoulderRight:-0.014491,0.787341,0.611432,-0.077692 SpineBase:0.005538,0.000757,0.999576,-0.028574 SpineMid:-0.013798,0.001310,0.999496,-0.028554 SpineShoulder:-0.033366,0.003346,0.998321,-0.047221 ThumbLeft:0.000000,0.000000,0.000000,0.000000 ThumbRight:0.000000,0.000000,0.000000,0.000000 WristLeft:0.108199,-0.686978,-0.093709,0.712441 WristRight:-0.491225,0.859700,0.079755,0.115126 END:
KINECT_DATA POSITION:11.441900,-1.047054,-6.284976 HEAD_JOINT1:0.983569,0.174223,-0.000000,0.047314 LARM_JOINT2:0.806490,0.000000,0.006434,-0.591213 LARM_JOINT3:0.969105,0.000000,-0.188468,-0.159107 LLEG_JOINT2:0.998382,0.033293,0.000000,0.046102 LLEG_JOINT4:0.996320,0.084166,0.000000,-0.016225 RARM_JOINT2:0.818146,0.000000,0.152754,0.554349 RARM_JOINT3:0.907588,0.000000,0.402901,-0.118133 RLEG_JOINT2:0.998957,0.024871,0.000000,-0.038291 RLEG_JOINT4:0.992578,0.113088,0.000000,0.044717 WAIST:0.999962,0.000000,-0.007223,-0.004825 WAIST_JOINT0:0.999474,-0.000000,0.030668,0.010533 WAIST_JOINT1:0.998642,0.051776,-0.000000,0.005828 END:
KINECT_DATA_Sensor  AnkleLeft:0.071616,0.753003,-0.096052,-0.647018 AnkleRight:0.100000,0.696027,0.094530,0.704706 ElbowLeft:-0.024406,0.874930,-0.161204,-0.455978 ElbowRight:-0.177964,0.673697,0.062985,0.714488 FootLeft:0.000000,0.000000,0.000000,0.000000 FootRight:0.000000,0.000000,0.000000,0.000000 HandLeft:-0.008718,0.744399,0.131692,-0.654562 HandRight:-0.508048,0.847848,0.065427,0.136965 HandTipLeft:0.000000,0.000000,0.000000,0.000000 HandTipRight:0.000000,0.000000,0.000000,0.000000 Head:0.000000,0.000000,0.000000,0.000000 HipLeft:0.130942,-0.683642,0.698530,-0.165963 HipRight:-0.121068,0.680126,0.706558,-0.153450 KneeLeft:-0.005977,0.712349,-0.052676,-0.699820 KneeRight:-0.012531,0.701676,0.048149,0.710757 Neck:-0.031148,0.004536,0.997270,-0.066798 ShoulderLeft:0.028327,0.776238,-0.629236,0.026735 ShoulderRight:-0.011735,0.787332,0.611903,-0.074464 SpineBase:0.007512,0.000757,0.999566,-0.028487 SpineMid:-0.011742,0.001306,0.999525,-0.028468 SpineShoulder:-0.031238,0.003015,0.998413,-0.046757 ThumbLeft:0.000000,0.000000,0.000000,0.000000 ThumbRight:0.000000,0.000000,0.000000,0.000000 WristLeft:-0.113734,0.738235,0.086454,-0.659242 WristRight:-0.510630,0.847019,0.061462,0.134308 END:
KINECT_DATA POSITION:11.522806,-1.013665,-6.395507 HEAD_JOINT1:0.982756,0.177161,-0.000000,0.052965 LARM_JOINT2:0.807544,0.000000,0.005287,-0.589784 LARM_JOINT3:0.968638,0.000000,-0.189447,-0.160782 LLEG_JOINT2:0.998362,0.033373,0.000000,0.046467 LLEG_JOINT4:0.996255,0.084929,0.000000,-0.016226 RARM_JOINT2:0.812032,0.000000,0.034757,0.582577 RARM_JOINT3:0.849593,0.000000,0.522867,-0.069303 RLEG_JOINT2:0.998934,0.024989,0.000000,-0.038804 RLEG_JOINT4:0.992957,0.109458,0.000000,0.045334 WAIST:0.999932,0.000000,-0.010340,-0.005342 WAIST_JOINT0:0.999813,-0.000000,0.017949,0.007221 WAIST_JOINT1:0.998583,0.053059,-0.000000,0.004196 END:
KINECT_DATA_Sensor  AnkleLeft:0.071600,0.752068,-0.097022,-0.647961 AnkleRight:0.098996,0.705955,0.090423,0.695450 ElbowLeft:-0.022829,0.881092,-0.161188,-0.444043 ElbowRight:-0.100918,0.673511,0.129550,0.720705 FootLeft:0.000000,0.000000,0.000000,0.000000 FootRight:0.000000,0.000000,0.000000,0.000000 HandLeft:-0.020453,0.750232,0.146206,-0.644482 HandRight:-0.073919,-0.159828,-0.545694,0.819274 HandTipLeft:0.000000,0.000000,0.000000,0.000000 HandTipRight:0.000000,0.000000,0.000000,0.000000 Head:0.000000,0.000000,0.000000,0.000000 HipLeft:0.132274,-0.683461,0.697961,-0.168031 HipRight:-0.118180,0.680002,0.707431,-0.152227 KneeLeft:-0.005991,0.714562,-0.052594,-0.697567 KneeRight:-0.013029,0.699424,0.048992,0.712907 Neck:-0.018384,0.001385,0.997470,-0.068661 ShoulderLeft:0.025378,0.776536,-0.628640,0.034047 ShoulderRight:0.001841,0.784487,0.617032,-0.062031 SpineBase:0.010636,-0.000173,0.999511,-0.029420 SpineMid:-0.003805,0.000252,0.999560,-0.029419 SpineShoulder:-0.018437,0.000812,0.998678,-0.047968 ThumbLeft:0.000000,0.000000,0.000000,0.000000 ThumbRight:0.000000,0.000000,0.000000,0.000000 WristLeft:-0.108756,0.747963,0.083862,-0.649377 WristRight:-0.036909,-0.139317,-0.523531,0.839728 END:
KINECT_DATA POSITION:11.554818,-0.988203,-6.455314 HEAD_JOINT1:0.982109,0.178103,-0.000000,0.061160 LARM_JOINT2:0.810694,0.000000,-0.000880,-0.585469 LARM_JOINT3:0.966769,0.000000,-0.189097,-0.172045 LLEG_JOINT2:0.998358,0.033628,0.000000,0.046378 LLEG_JOINT4:0.995972,0.087821,0.000000,-0.018083 RARM_JOINT2:0.809260,0.000000,0.019490,0.587128 RARM_JOINT3:0.845379,0.000000,0.531703,-0.051247 RLEG_JOINT2:0.998942,0.024450,0.000000,-0.038940 RLEG_JOINT4:0.993074,0.109079,0.000000,0.043656 WAIST:0.999882,0.000000,-0.014428,-0.005328 WAIST_JOINT0:0.999978,-0.000000,0.004180,0.005070 WAIST_JOINT1:0.998522,0.054313,-0.000000,0.001916 END:
KINECT_DATA_Sensor  AnkleLeft:0.067923,0.708373,-0.102848,-0.694994 AnkleRight:0.097664,0.704835,0.090485,0.696765 ElbowLeft:-0.024857,0.892113,-0.162474,-0.420855 ElbowRight:-0.088270,0.674016,0.138656,0.720199 FootLeft:0.000000,0.000000,0.000000,0.000000 FootRight:0.000000,0.000000,0.000000,0.000000 HandLeft:-0.006708,0.727226,0.163735,-0.666549 HandRight:-0.085111,-0.117431,-0.522151,0.840431 HandTipLeft:0.000000,0.000000,0.000000,0.000000 HandTipRight:0.000000,0.000000,0.000000,0.000000 Head:0.000000,0.000000,0.000000,0.000000 HipLeft:0.134015,-0.682969,0.697620,-0.170059 HipRight:-0.114330,0.680427,0.708079,-0.150237 KneeLeft:-0.005989,0.717421,-0.052684,-0.694619 KneeRight:-0.013317,0.696500,0.048742,0.715776 Neck:-0.004537,-0.001473,0.997519,-0.070231 ShoulderLeft:0.018334,0.777381,-0.627167,0.044772 ShoulderRight:0.012674,0.782854,0.619961,-0.051262 SpineBase:0.014688,-0.001414,0.999434,-0.030232 SpineMid:0.005123,-0.001125,0.999529,-0.030245 SpineShoulder:-0.004588,-0.001605,0.998777,-0.049195 ThumbLeft:0.000000,0.000000,0.000000,0.000000 ThumbRight:0.000000,0.000000,0.000000,0.000000 WristLeft:-0.100287,0.727181,0.093388,-0.672629 WristRight:-0.057819,-0.101721,-0.516553,0.848223 END:
KINECT_DATA POSITION:11.548286,-0.983444,-6.433165 HEAD_JOINT1:0.981902,0.178664,-0.000000,0.062835 LARM_JOINT2:0.810624,0.000000,0.000615,-0.585567 LARM_JOINT3:0.969669,0.000000,-0.178206,-0.167287 LLEG_JOINT2:0.998383,0.033525,0.000000,0.045914 LLEG_JOINT4:0.995991,0.087787,0.000000,-0.017190 RARM_JOINT2:0.811180,0.000000,0.077756,0.579604 RARM_JOINT3:0.873862,0.000000,0.476574,-0.096143 RLEG_JOINT2:0.998958,0.022670,0.000000,-0.039598 RLEG_JOINT4:0.992707,0.111529,0.000000,0.045752 WAIST:0.999855,0.000000,-0.016176,-0.005328 WAIST_JOINT0:0.999981,-0.000000,0.003570,0.005093 WAIST_JOINT1:0.998534,0.054107,-0.000000,0.001278 END:
KINECT_DATA_Sensor  AnkleLeft:0.073839,0.752849,-0.098612,-0.646562 AnkleRight:0.097078,0.686211,0.092086,0.714990 ElbowLeft:-0.024361,0.891685,-0.162169,-0.421908 ElbowRight:-0.125387,0.669245,0.106537,0.724596 FootLeft:0.000000,0.000000,0.000000,0.000000 FootRight:0.000000,0.000000,0.000000,0.000000 HandLeft:0.011839,0.748044,0.114637,-0.653565 HandRight:-0.120229,-0.119301,-0.501837,0.848217 HandTipLeft:0.000000,0.000000,0.000000,0.000000 HandTipRight:0.000000,0.000000,0.000000,0.000000 Head:0.000000,0.000000,0.000000,0.000000 HipLeft:0.135822,-0.682659,0.697289,-0.171223 HipRight:-0.113694,0.680531,0.708211,-0.149632 KneeLeft:-0.005826,0.718638,-0.052270,-0.693392 KneeRight:-0.014978,0.695222,0.047994,0.717035 Neck:-0.003895,-0.001908,0.997542,-0.069938 ShoulderLeft:0.017636,0.777206,-0.627363,0.045330 ShoulderRight:0.012806,0.782516,0.620422,-0.050818 SpineBase:0.016416,-0.001954,0.999412,-0.030028 SpineMid:0.006300,-0.001650,0.999527,-0.030046 SpineShoulder:-0.003959,-0.002112,0.998787,-0.049042 ThumbLeft:0.000000,0.000000,0.000000,0.000000 ThumbRight:0.000000,0.000000,0.000000,0.000000 WristLeft:-0.101936,0.739428,0.092503,-0.659014 WristRight:-0.078873,-0.093549,-0.515338,0.848207 END:
KINECT_DATA POSITION:11.570633,-1.006416,-6.282818 HEAD_JOINT1:0.982086,0.178632,-0.000000,0.059982 LARM_JOINT2:0.808460,0.000000,0.004801,-0.588531 LARM_JOINT3:0.971058,0.000000,-0.180553,-0.156355 LLEG_JOINT2:0.998412,0.033862,0.000000,0.045013 LLEG_JOINT4:0.996155,0.086478,0.000000,-0.014055 RARM_JOINT2:0.822539,0.000000,0.136728,0.552029 RARM_JOINT3:0.910177,0.000000,0.393592,-0.129088 RLEG_JOINT2:0.998967,0.021614,0.000000,-0.039963 RLEG_JOINT4:0.992368,0.115008,0.000000,0.044498 WAIST:0.999889,0.000000,-0.013955,-0.005250 WAIST_JOINT0:0.999836,-0.000000,0.016280,0.007892 WAIST_JOINT1:0.998581,0.053201,-0.000000,0.002362 END:
KINECT_DATA_Sensor  AnkleLeft:0.073194,0.760665,-0.098503,-0.637439 AnkleRight:0.099609,0.702857,0.092941,0.698164 ElbowLeft:-0.023214,0.883747,-0.160856,-0.438836 ElbowRight:-0.176410,0.662181,0.080458,0.723825 FootLeft:0.000000,0.000000,0.000000,0.000000 FootRight:0.000000,0.000000,0.000000,0.000000 HandLeft:-0.009805,0.777777,0.096809,-0.620962 HandRight:-0.472076,0.853840,0.199548,0.091003 HandTipLeft:0.000000,0.000000,0.000000,0.000000 HandTipRight:0.000000,0.000000,0.000000,0.000000 Head:0.000000,0.000000,0.000000,0.000000 HipLeft:0.135711,-0.683065,0.697353,-0.169424 HipRight:-0.116553,0.680526,0.707661,-0.150054 KneeLeft:-0.004878,0.717088,-0.051957,-0.695026 KneeRight:-0.016035,0.696798,0.047439,0.715517 Neck:-0.016519,0.000327,0.997480,-0.068995 ShoulderLeft:0.021425,0.776596,-0.628495,0.037862 ShoulderRight:0.000241,0.784171,0.617348,-0.062905 SpineBase:0.014198,-0.001363,0.999494,-0.028425 SpineMid:-0.001118,-0.000927,0.999594,-0.028443 SpineShoulder:-0.016637,-0.000762,0.998703,-0.048118 ThumbLeft:0.000000,0.000000,0.000000,0.000000 ThumbRight:0.000000,0.000000,0.000000,0.000000 WristLeft:-0.110451,0.768570,0.084517,-0.624466 WristRight:-0.488692,0.860584,0.133483,0.052511 END:
KINECT_DATA POSITION:11.539447,-1.060306,-6.069410 HEAD_JOINT1:0.982653,0.177736,-0.000000,0.052938 LARM_JOINT2:0.806372,0.000000,0.007446,-0.591362 LARM_JOINT3:0.968971,0.000000,-0.188390,-0.160013 LLEG_JOINT2:0.998476,0.033262,0.000000,0.044030 LLEG_JOINT4:0.995895,0.089543,0.000000,-0.013203 RARM_JOINT2:0.829095,0.000000,0.167866,0.533313 RARM_JOINT3:0.928804,0.000000,0.346212,-0.132136 RLEG_JOINT2:0.998965,0.022724,0.000000,-0.039407 RLEG_JOINT4:0.992532,0.113198,0.000000,0.045453 WAIST:0.999952,0.000000,-0.008393,-0.004978 WAIST_JOINT0:0.999539,-0.000000,0.028419,0.010705 WAIST_JOINT1:0.998631,0.052131,-0.000000,0.004304 END:
KINECT_DATA_Sensor  AnkleLeft:0.074987,0.753340,-0.100239,-0.645607 AnkleRight:0.098074,0.693727,0.093601,0.707363 ElbowLeft:-0.022309,0.876724,-0.160166,-0.452995 ElbowRight:-0.204977,0.657621,0.063185,0.722168 FootLeft:0.000000,0.000000,0.000000,0.000000 FootRight:0.000000,0.000000,0.000000,0.000000 HandLeft:-0.015075,0.786734,0.128222,-0.603640 HandRight:-0.446502,0.872253,0.185770,0.072808 HandTipLeft:0.000000,0.000000,0.000000,0.000000 HandTipRight:0.000000,0.000000,0.000000,0.000000 Head:0.000000,0.000000,0.000000,0.000000 HipLeft:0.132763,-0.683593,0.698203,-0.166093 HipRight:-0.120780,0.680115,0.706820,-0.152516 KneeLeft:-0.004486,0.713185,-0.051079,-0.699098 KneeRight:-0.014903,0.700803,0.047559,0.711612 Neck:-0.028711,0.002857,0.997281,-0.067812 ShoulderLeft:0.026123,0.776042,-0.629449,0.029524 ShoulderRight:-0.010814,0.786359,0.613298,-0.073402 SpineBase:0.008651,-0.000223,0.999581,-0.027620 SpineMid:-0.009969,0.000292,0.999569,-0.027619 SpineShoulder:-0.028831,0.001359,0.998478,-0.046993 ThumbLeft:0.000000,0.000000,0.000000,0.000000 ThumbRight:0.000000,0.000000,0.000000,0.000000 WristLeft:-0.116489,0.780890,0.081540,-0.608270 WristRight:-0.477555,0.864293,0.150096,0.049094 END:
KINECT_DATA POSITION:11.502655,-1.112783,-5.954027 HEAD_JOINT1:0.982840,0.178044,-0.000000,0.048226 LARM_JOINT2:0.806033,0.000000,0.005890,-0.591841 LARM_JOINT3:0.969065,0.000000,-0.192104,-0.154951 LLEG_JOINT2:0.998545,0.032133,0.000000,0.043296 LLEG_JOINT4:0.996347,0.084902,0.000000,-0.009169 RARM_JOINT2:0.828156,0.000000,0.175844,0.532200 RARM_JOINT3:0.929612,0.000000,0.342892,-0.135076 RLEG_JOINT2:0.998958,0.023846,0.000000,-0.038912 RLEG_JOINT4:0.992169,0.116011,0.000000,0.046285 WAIST:0.999966,0.000000,-0.006706,-0.004805 WAIST_JOINT0:0.999394,-0.000000,0.032634,0.012151 WAIST_JOINT1:0.998616,0.052309,-0.000000,0.005399 END:
KINECT_DATA_Sensor  AnkleLeft:0.070329,0.764519,-0.097697,-0.633261 AnkleRight:0.101915,0.695464,0.095283,0.704886 ElbowLeft:-0.023597,0.875110,-0.160246,-0.456012 ElbowRight:-0.207848,0.655076,0.055147,0.724316 FootLeft:0.000000,0.000000,0.000000,0.000000 FootRight:0.000000,0.000000,0.000000,0.000000 HandLeft:-0.045690,0.827566,0.121085,-0.546247 HandRight:-0.450513,0.874051,0.171838,0.059537 HandTipLeft:0.000000,0.000000,0.000000,0.000000 HandTipRight:0.000000,0.000000,0.000000,0.000000 Head:0.000000,0.000000,0.000000,0.000000 HipLeft:0.131082,-0.683612,0.698676,-0.165360 HipRight:-0.121573,0.680005,0.706601,-0.153391 KneeLeft:-0.004790,0.711994,-0.049895,-0.700395 KneeRight:-0.013707,0.702026,0.047853,0.710409 Neck:-0.033114,0.004238,0.997134,-0.067890 ShoulderLeft:0.028424,0.775156,-0.630562,0.026788 ShoulderRight:-0.014200,0.787455,0.611331,-0.077370 SpineBase:0.006984,0.000589,0.999583,-0.028024 SpineMid:-0.012988,0.001149,0.999523,-0.028006 SpineShoulder:-0.033219,0.002669,0.998332,-0.047135 ThumbLeft:0.000000,0.000000,0.000000,0.000000 ThumbRight:0.000000,0.000000,0.000000,0.000000 WristLeft:-0.124288,0.822421,0.072353,-0.550402 WristRight:-0.480446,0.862444,0.153000,0.044190 END:
KINECT_DATA POSITION:11.512414,-1.125639,-5.853152 HEAD_JOINT1:0.982657,0.179380,-0.000000,0.046989 LARM_JOINT2:0.805747,0.000000,0.005361,-0.592235 LARM_JOINT3:0.969763,0.000000,-0.189349,-0.153972 LLEG_JOINT2:0.998501,0.033173,0.000000,0.043526 LLEG_JOINT4:0.995988,0.089139,0.000000,-0.007903 RARM_JOINT2:0.827204,0.000000,0.180040,0.532277 RARM_JOINT3:0.929695,0.000000,0.341842,-0.137156 RLEG_JOINT2:0.998989,0.023846,0.000000,-0.038118 RLEG_JOINT4:0.992103,0.117393,0.000000,0.044170 WAIST:0.999970,0.000000,-0.005764,-0.005086 WAIST_JOINT0:0.999317,-0.000000,0.034669,0.012778 WAIST_JOINT1:0.998616,0.052233,-0.000000,0.006194 END:
KINECT_DATA_Sensor  AnkleLeft:0.074485,0.768439,-0.101340,-0.627442 AnkleRight:0.103146,0.706478,0.095957,0.693571 ElbowLeft:-0.024286,0.873590,-0.159996,-0.458967 ElbowRight:-0.208764,0.655187,0.050823,0.724268 FootLeft:0.000000,0.000000,0.000000,0.000000 FootRight:0.000000,0.000000,0.000000,0.000000 HandLeft:0.010009,-0.679310,-0.121723,0.723617 HandRight:-0.436980,0.875394,0.206144,-0.015456 HandTipLeft:0.000000,0.000000,0.000000,0.000000 HandTipRight:0.000000,0.000000,0.000000,0.000000 Head:0.000000,0.000000,0.000000,0.000000 HipLeft:0.130195,-0.683880,0.698667,-0.164987 HipRight:-0.122067,0.679716,0.706700,-0.153821 KneeLeft:-0.003972,0.711347,-0.050605,-0.701006 KneeRight:-0.013391,0.702687,0.047476,0.709787 Neck:-0.035247,0.004711,0.997068,-0.067760 ShoulderLeft:0.029658,0.774653,-0.631189,0.025199 ShoulderRight:-0.015711,0.787854,0.610568,-0.079024 SpineBase:0.006071,0.000952,0.999584,-0.028195 SpineMid:-0.014500,0.001532,0.999497,-0.028169 SpineShoulder:-0.035340,0.003210,0.998262,-0.047048 ThumbLeft:0.000000,0.000000,0.000000,0.000000 ThumbRight:0.000000,0.000000,0.000000,0.000000 WristLeft:0.104071,-0.660731,-0.099431,0.736694 WristRight:-0.468791,0.861812,0.191468,-0.029228 END:
KINECT_DATA POSITION:11.521502,-1.141327,-5.804574 HEAD_JOINT1:0.982564,0.180094,-0.000000,0.046193 LARM_JOINT2:0.805631,0.000000,0.005790,-0.592390 LARM_JOINT3:0.969382,0.000000,-0.189041,-0.156726 LLEG_JOINT2:0.998468,0.033784,0.000000,0.043825 LLEG_JOINT4:0.996101,0.087752,0.000000,-0.009025 RARM_JOINT2:0.826392,0.000000,0.185410,0.531695 RARM_JOINT3:0.932221,0.000000,0.335053,-0.136762 RLEG_JOINT2:0.998995,0.024141,0.000000,-0.037760 RLEG_JOINT4:0.992260,0.116066,0.000000,0.044147 WAIST:0.999969,0.000000,-0.005683,-0.005424 WAIST_JOINT0:0.999287,-0.000000,0.035555,0.012710 WAIST_JOINT1:0.998631,0.051896,-0.000000,0.006510 END:
KINECT_DATA_Sensor  AnkleLeft:-0.062717,-0.691717,0.107828,0.711314 AnkleRight:0.101166,0.697816,0.096552,0.702492 ElbowLeft:-0.024298,0.873161,-0.159797,-0.459852 ElbowRight:-0.211055,0.655554,0.046542,0.723559 FootLeft:0.000000,0.000000,0.000000,0.000000 FootRight:0.000000,0.000000,0.000000,0.000000 HandLeft:-0.004471,0.697766,0.130758,-0.704277 HandRight:-0.427807,0.881996,0.197646,0.000840 HandTipLeft:0.000000,0.000000,0.000000,0.000000 HandTipRight:0.000000,0.000000,0.000000,0.000000 Head:0.000000,0.000000,0.000000,0.000000 HipLeft:0.130335,-0.684145,0.698438,-0.164751 HipRight:-0.122366,0.679534,0.706884,-0.153540 KneeLeft:-0.003510,0.711301,-0.051011,-0.701025 KneeRight:-0.013172,0.702739,0.047667,0.709727 Neck:-0.036131,0.004626,0.997059,-0.067435 ShoulderLeft:0.030033,0.774536,-0.631351,0.024271 ShoulderRight:-0.016474,0.787648,0.610756,-0.079467 SpineBase:0.006005,0.000980,0.999594,-0.027822 SpineMid:-0.014968,0.001563,0.999500,-0.027795 SpineShoulder:-0.036216,0.003237,0.998247,-0.046704 ThumbLeft:0.000000,0.000000,0.000000,0.000000 ThumbRight:0.000000,0.000000,0.000000,0.000000 WristLeft:0.106342,-0.676262,-0.096319,0.722554 WristRight:-0.472698,0.861945,0.182680,-0.015372 END:
KINECT_DATA POSITION:11.520808,-1.132016,-5.864096 HEAD_JOINT1:0.982528,0.180535,-0.000000,0.045236 LARM_JOINT2:0.805027,0.000000,0.006091,-0.593207 LARM_JOINT3:0.970594,0.000000,-0.184707,-0.154369 LLEG_JOINT2:0.998448,0.033970,0.000000,0.044140 LLEG_JOINT4:0.996168,0.086881,0.000000,-0.010099 RARM_JOINT2:0.826109,0.000000,0.177501,0.534824 RARM_JOINT3:0.928778,0.000000,0.344508,-0.136695 RLEG_JOINT2:0.998933,0.025970,0.000000,-0.038185 RLEG_JOINT4:0.992490,0.113697,0.000000,0.045119 WAIST:0.999974,0.000000,-0.004558,-0.005550 WAIST_JOINT0:0.999257,-0.000000,0.036415,0.012590 WAIST_JOINT1:0.998620,0.052086,-0.000000,0.006726 END:
KINECT_DATA_Sensor  AnkleLeft:0.072955,0.756177,-0.100115,-0.642535 AnkleRight:0.100702,0.696775,0.096250,0.703633 ElbowLeft:-0.023145,0.873155,-0.159254,-0.460111 ElbowRight:-0.205696,0.656154,0.050885,0.724267 FootLeft:0.000000,0.000000,0.000000,0.000000 FootRight:0.000000,0.000000,0.000000,0.000000 HandLeft:-0.008016,0.748541,0.114166,-0.653137 HandRight:-0.415944,0.886349,0.203253,-0.008001 HandTipLeft:0.000000,0.000000,0.000000,0.000000 HandTipRight:0.000000,0.000000,0.000000,0.000000 Head:0.000000,0.000000,0.000000,0.000000 HipLeft:0.129177,-0.684364,0.698521,-0.164400 HipRight:-0.122572,0.679314,0.706874,-0.154398 KneeLeft:-0.003450,0.710523,-0.051284,-0.701795 KneeRight:-0.012304,0.703545,0.049335,0.708829 Neck:-0.037019,0.004631,0.997018,-0.067550 ShoulderLeft:0.031413,0.774261,-0.631658,0.023264 ShoulderRight:-0.016230,0.787358,0.611088,-0.079848 SpineBase:0.004899,0.001019,0.999585,-0.028375 SpineMid:-0.015967,0.001611,0.999469,-0.028347 SpineShoulder:-0.037103,0.003274,0.998204,-0.046925 ThumbLeft:0.000000,0.000000,0.000000,0.000000 ThumbRight:0.000000,0.000000,0.000000,0.000000 WristLeft:-0.113476,0.740295,0.085215,-0.657134 WristRight:-0.474592,0.859619,0.187279,-0.027266 END:
KINECT_DATA POSITION:11.510618,-1.105527,-5.892766 HEAD_JOINT1:0.981544,0.185314,-0.000000,0.047222 LARM_JOINT2:0.804928,0.000000,0.006473,-0.593337 LARM_JOINT3:0.968455,0.000000,-0.189102,-0.162278 LLEG_JOINT2:0.998398,0.034080,0.000000,0.045164 LLEG_JOINT4:0.995958,0.089190,0.000000,-0.010601 RARM_JOINT2:0.814817,0.000000,0.050277,0.577534 RARM_JOINT3:0.861788,0.000000,0.496697,-0.103025 RLEG_JOINT2:0.998944,0.026193,0.000000,-0.037746 RLEG_JOINT4:0.992820,0.111504,0.000000,0.043301 WAIST:0.999969,0.000000,-0.005147,-0.006006 WAIST_JOINT0:0.999473,-0.000000,0.030648,0.010664 WAIST_JOINT1:0.998548,0.053419,-0.000000,0.006906 END:
KINECT_DATA_Sensor  AnkleLeft:0.075098,0.758894,-0.101459,-0.638864 AnkleRight:0.098605,0.700612,0.095578,0.700204 ElbowLeft:-0.021247,0.874539,-0.159678,-0.457420 ElbowRight:-0.116218,0.653452,0.118035,0.738622 FootLeft:0.000000,0.000000,0.000000,0.000000 FootRight:0.000000,0.000000,0.000000,0.000000 HandLeft:-0.002307,0.749725,0.149349,-0.644673 HandRight:-0.485707,0.861180,0.142863,0.045261 HandTipLeft:0.000000,0.000000,0.000000,0.000000 HandTipRight:0.000000,0.000000,0.000000,0.000000 Head:0.000000,0.000000,0.000000,0.000000 HipLeft:0.129009,-0.684463,0.698290,-0.165099 HipRight:-0.121702,0.678972,0.707359,-0.154367 KneeLeft:-0.003810,0.710958,-0.051758,-0.701317 KneeRight:-0.012132,0.703108,0.049506,0.709254 Neck:-0.031216,0.003941,0.997102,-0.069267 ShoulderLeft:0.031186,0.774470,-0.631286,0.026489 ShoulderRight:-0.008951,0.785844,0.613894,-0.074191 SpineBase:0.005514,0.000874,0.999563,-0.029043 SpineMid:-0.012771,0.001405,0.999496,-0.029022 SpineShoulder:-0.031281,0.002890,0.998345,-0.048164 ThumbLeft:0.000000,0.000000,0.000000,0.000000 ThumbRight:0.000000,0.000000,0.000000,0.000000 WristLeft:-0.111719,0.747328,0.083455,-0.649658 WristRight:-0.515691,0.845776,0.132513,0.034143 END:
KINECT_DATA POSITION:11.495010,-1.077922,-5.898857 HEAD_JOINT1:0.979174,0.192113,-0.000000,0.065659 LARM_JOINT2:0.810113,0.000000,0.001642,-0.586271 LARM_JOINT3:0.966802,0.000000,-0.192406,-0.168147 LLEG_JOINT2:0.998322,0.036179,0.000000,0.045207 LLEG_JOINT4:0.995688,0.091926,0.000000,-0.012431 RARM_JOINT2:0.804360,0.000000,0.027455,0.593507 RARM_JOINT3:0.835187,0.000000,0.532456,-0.137671 RLEG_JOINT2:0.998902,0.027663,0.000000,-0.037817 RLEG_JOINT4:0.992960,0.110237,0.000000,0.043335 WAIST:0.999924,0.000000,-0.011006,-0.005541 WAIST_JOINT0:0.999941,-0.000000,0.007679,0.007708 WAIST_JOINT1:0.998454,0.055430,-0.000000,0.004090 END:
KINECT_DATA_Sensor  AnkleLeft:0.078490,0.758997,-0.104386,-0.637860 AnkleRight:0.101855,0.713476,0.092355,0.687057 ElbowLeft:-0.023043,0.887472,-0.164708,-0.429806 ElbowRight:-0.092392,0.634256,0.122416,0.757758 FootLeft:0.000000,0.000000,0.000000,0.000000 FootRight:0.000000,0.000000,0.000000,0.000000 HandLeft:-0.050009,0.845360,0.150577,-0.510091 HandRight:-0.523404,0.808844,0.267725,0.011955 HandTipLeft:0.000000,0.000000,0.000000,0.000000 HandTipRight:0.000000,0.000000,0.000000,0.000000 Head:0.000000,0.000000,0.000000,0.000000 HipLeft:0.132284,-0.682881,0.698323,-0.168876 HipRight:-0.117066,0.679446,0.708220,-0.151897 KneeLeft:-0.003020,0.715057,-0.053567,-0.697004 KneeRight:-0.010532,0.698977,0.050301,0.713296 Neck:-0.008088,0.000488,0.997408,-0.071498 ShoulderLeft:0.019766,0.774290,-0.630973,0.044235 ShoulderRight:0.009484,0.782347,0.620244,-0.056047 SpineBase:0.011322,-0.000116,0.999480,-0.030184 SpineMid:0.001671,0.000176,0.999543,-0.030184 SpineShoulder:-0.008121,0.000165,0.998706,-0.050202 ThumbLeft:0.000000,0.000000,0.000000,0.000000 ThumbRight:0.000000,0.000000,0.000000,0.000000 WristLeft:-0.118643,0.845681,0.068659,-0.515785 WristRight:-0.515436,0.834652,0.190812,-0.035671 END:
KINECT_DATA POSITION:11.500681,-1.086270,-5.872357 HEAD_JOINT1:0.979577,0.190636,-0.000000,0.063937 LARM_JOINT2:0.808809,0.000000,0.005031,-0.588049 LARM_JOINT3:0.971354,0.000000,-0.173256,-0.162649 LLEG_JOINT2:0.998342,0.035867,0.000000,0.045015 LLEG_JOINT4:0.996112,0.087025,0.000000,-0.013699 RARM_JOINT2:0.808008,0.000000,0.131270,0.574362 RARM_JOINT3:0.870234,0.000000,0.454402,-0.190296 RLEG_JOINT2:0.998927,0.026693,0.000000,-0.037854 RLEG_JOINT4:0.992949,0.110406,0.000000,0.043159 WAIST:0.999912,0.000000,-0.012089,-0.005391 WAIST_JOINT0:0.999880,-0.000000,0.012685,0.008843 WAIST_JOINT1:0.998477,0.055011,-0.000000,0.004060 END:
KINECT_DATA_Sensor  AnkleLeft:0.073383,0.747939,-0.101508,-0.651842 AnkleRight:0.099954,0.702587,0.093247,0.698345 ElbowLeft:-0.021797,0.883695,-0.163747,-0.437945 ElbowRight:-0.154302,0.627480,0.060633,0.760778 FootLeft:0.000000,0.000000,0.000000,0.000000 FootRight:0.000000,0.000000,0.000000,0.000000 HandLeft:0.027023,0.744527,0.096614,-0.660011 HandRight:-0.525805,0.801232,0.275820,-0.074034 HandTipLeft:0.000000,0.000000,0.000000,0.000000 HandTipRight:0.000000,0.000000,0.000000,0.000000 Head:0.000000,0.000000,0.000000,0.000000 HipLeft:0.133079,-0.682721,0.698162,-0.169562 HipRight:-0.116589,0.679722,0.708110,-0.151545 KneeLeft:-0.003270,0.715806,-0.053308,-0.696254 KneeRight:-0.011099,0.698201,0.049551,0.714099 Neck:-0.013197,0.001294,0.997399,-0.070841 ShoulderLeft:0.023626,0.773449,-0.632186,0.039488 ShoulderRight:0.006747,0.782985,0.619182,-0.059172 SpineBase:0.012391,-0.000226,0.999468,-0.030170 SpineMid:-0.000353,0.000159,0.999545,-0.030171 SpineShoulder:-0.013258,0.000578,0.998669,-0.049844 ThumbLeft:0.000000,0.000000,0.000000,0.000000 ThumbRight:0.000000,0.000000,0.000000,0.000000 WristLeft:-0.104693,0.734351,0.084963,-0.665244 WristRight:-0.510001,0.819978,0.242810,-0.092614 END:
KINECT_DATA POSITION:11.517916,-1.118660,-5.870366 HEAD_JOINT1:0.981232,0.185497,-0.000000,0.052668 LARM_JOINT2:0.805869,0.000000,0.009331,-0.592021 LARM_JOINT3:0.970466,0.000000,-0.183545,-0.156548 LLEG_JOINT2:0.998424,0.034177,0.000000,0.044516 LLEG_JOINT4:0.996271,0.085200,0.000000,-0.013606 RARM_JOINT2:0.812399,0.000000,0.208448,0.544571 RARM_JOINT3:0.905215,0.000000,0.372677,-0.204198 RLEG_JOINT2:0.998935,0.026363,0.000000,-0.037870 RLEG_JOINT4:0.992748,0.111567,0.000000,0.044778 WAIST:0.999941,0.000000,-0.009445,-0.005379 WAIST_JOINT0:0.999420,-0.000000,0.031718,0.012379 WAIST_JOINT1:0.998545,0.053601,-0.000000,0.005850 END:
KINECT_DATA_Sensor  AnkleLeft:0.071589,0.748347,-0.098505,-0.652034 AnkleRight:0.100578,0.697896,0.093831,0.702866 ElbowLeft:-0.020896,0.874601,-0.161713,-0.456602 ElbowRight:-0.204149,0.628735,0.013909,0.750215 FootLeft:0.000000,0.000000,0.000000,0.000000 FootRight:0.000000,0.000000,0.000000,0.000000 HandLeft:-0.012662,-0.691181,-0.102344,0.715286 HandRight:-0.514234,0.820635,0.245919,-0.040562 HandTipLeft:0.000000,0.000000,0.000000,0.000000 HandTipRight:0.000000,0.000000,0.000000,0.000000 Head:0.000000,0.000000,0.000000,0.000000 HipLeft:0.131400,-0.683443,0.698194,-0.167825 HipRight:-0.118588,0.679819,0.707463,-0.152577 KneeLeft:-0.003962,0.713950,-0.051780,-0.698269 KneeRight:-0.011459,0.700083,0.049305,0.712265 Neck:-0.032347,0.004561,0.997097,-0.068778 ShoulderLeft:0.031140,0.772752,-0.633371,0.026932 ShoulderRight:-0.010550,0.785842,0.613624,-0.076198 SpineBase:0.009766,0.000462,0.999512,-0.029675 SpineMid:-0.011225,0.001085,0.999496,-0.029659 SpineShoulder:-0.032462,0.002819,0.998291,-0.048518 ThumbLeft:0.000000,0.000000,0.000000,0.000000 ThumbRight:0.000000,0.000000,0.000000,0.000000 WristLeft:0.102048,-0.669476,-0.097156,0.729348 WristRight:-0.520138,0.823036,0.220788,-0.057621 END:
KINECT_DATA POSITION:11.522858,-1.134993,-5.961895 HEAD_JOINT1:0.981830,0.184093,-0.000000,0.046035 LARM_JOINT2:0.804595,0.000000,0.010399,-0.593733 LARM_JOINT3:0.969163,0.000000,-0.190336,-0.156506 LLEG_JOINT2:0.998478,0.032814,0.000000,0.044336 LLEG_JOINT4:0.995803,0.090851,0.000000,-0.011100 RARM_JOINT2:0.815526,0.000000,0.211299,0.538768 RARM_JOINT3:0.911807,0.000000,0.358638,-0.199968 RLEG_JOINT2:0.998923,0.026198,0.000000,-0.038282 RLEG_JOINT4:0.992995,0.109691,0.000000,0.043928 WAIST:0.999970,0.000000,-0.005649,-0.005333 WAIST_JOINT0:0.999224,-0.000000,0.037332,0.012594 WAIST_JOINT1:0.998547,0.053476,-0.000000,0.006612 END:
KINECT_DATA_Sensor  AnkleLeft:0.075239,0.755721,-0.101653,-0.642566 AnkleRight:0.098858,0.707793,0.092711,0.693297 ElbowLeft:-0.019441,0.871585,-0.160952,-0.462662 ElbowRight:-0.210074,0.631802,0.013760,0.745993 FootLeft:0.000000,0.000000,0.000000,0.000000 FootRight:0.000000,0.000000,0.000000,0.000000 HandLeft:-0.011026,0.727307,0.129649,-0.673865 HandRight:-0.522403,0.828804,0.190970,0.060909 HandTipLeft:0.000000,0.000000,0.000000,0.000000 HandTipRight:0.000000,0.000000,0.000000,0.000000 Head:0.000000,0.000000,0.000000,0.000000 HipLeft:0.128654,-0.683965,0.698715,-0.165641 HipRight:-0.120649,0.679488,0.707027,-0.154443 KneeLeft:-0.004618,0.711285,-0.050747,-0.701054 KneeRight:-0.012006,0.702775,0.049420,0.709592 Neck:-0.037992,0.005193,0.996896,-0.068755 ShoulderLeft:0.034370,0.772497,-0.633682,0.022699 ShoulderRight:-0.014615,0.785778,0.613042,-0.080735 SpineBase:0.005988,0.001010,0.999537,-0.029804 SpineMid:-0.015923,0.001663,0.999428,-0.029774 SpineShoulder:-0.038096,0.003538,0.998098,-0.048342 ThumbLeft:0.000000,0.000000,0.000000,0.000000 ThumbRight:0.000000,0.000000,0.000000,0.000000 WristLeft:-0.109292,0.721414,0.086917,-0.678279 WristRight:-0.536375,0.828152,0.158236,0.037784 END:
KINECT_DATA POSITION:11.505071,-1.115248,-6.069517 HEAD_JOINT1:0.981800,0.184714,-0.000000,0.044162 LARM_JOINT2:0.805298,0.000000,0.007856,-0.592818 LARM_JOINT3:0.968625,0.000000,-0.192720,-0.156921 LLEG_JOINT2:0.998475,0.032521,0.000000,0.044601 LLEG_JOINT4:0.995949,0.089083,0.000000,-0.012244 RARM_JOINT2:0.816853,0.000000,0.200349,0.540935 RARM_JOINT3:0.905912,0.000000,0.370887,-0.204370 RLEG_JOINT2:0.998966,0.024308,0.000000,-0.038409 RLEG_JOINT4:0.992675,0.112232,0.000000,0.044723 WAIST:0.999956,0.000000,-0.007354,-0.005843 WAIST_JOINT0:0.999288,-0.000000,0.035686,0.012271 WAIST_JOINT1:0.998555,0.053253,-0.000000,0.007262 END:
KINECT_DATA_Sensor  AnkleLeft:0.072478,0.744571,-0.100805,-0.655895 AnkleRight:0.099589,0.706345,0.092870,0.694647 ElbowLeft:-0.022109,0.873080,-0.160971,-0.459706 ElbowRight:-0.205641,0.630766,0.022092,0.747903 FootLeft:0.000000,0.000000,0.000000,0.000000 FootRight:0.000000,0.000000,0.000000,0.000000 HandLeft:-0.020868,0.740383,0.136887,-0.657768 HandRight:-0.509215,0.815130,0.273952,-0.034832 HandTipLeft:0.000000,0.000000,0.000000,0.000000 HandTipRight:0.000000,0.000000,0.000000,0.000000 Head:0.000000,0.000000,0.000000,0.000000 HipLeft:0.129643,-0.684055,0.698184,-0.166737 HipRight:-0.119904,0.679387,0.707490,-0.153340 KneeLeft:-0.004747,0.712499,-0.050350,-0.699848 KneeRight:-0.013729,0.701505,0.048558,0.710876 Neck:-0.036438,0.005292,0.996967,-0.068563 ShoulderLeft:0.031787,0.772762,-0.633415,0.024770 ShoulderRight:-0.015217,0.786054,0.612725,-0.080349 SpineBase:0.007728,0.001282,0.999528,-0.029692 SpineMid:-0.014260,0.001935,0.999457,-0.029657 SpineShoulder:-0.036522,0.003807,0.998169,-0.048074 ThumbLeft:0.000000,0.000000,0.000000,0.000000 ThumbRight:0.000000,0.000000,0.000000,0.000000 WristLeft:-0.112585,0.735655,0.086041,-0.662369 WristRight:-0.511649,0.826232,0.226470,-0.065318 END:
KINECT_DATA POSITION:11.493052,-1.108204,-6.130826 HEAD_JOINT1:0.982394,0.181650,-0.000000,0.043651 LARM_JOINT2:0.805264,0.000000,0.007722,-0.592866 LARM_JOINT3:0.968922,0.000000,-0.190087,-0.158293 LLEG_JOINT2:0.998480,0.032298,0.000000,0.044662 LLEG_JOINT4:0.995686,0.092313,0.000000,-0.009344 RARM_JOINT2:0.815899,0.000000,0.200870,0.542180 RARM_JOINT3:0.901364,0.000000,0.393547,-0.180731 RLEG_JOINT2:0.998950,0.024783,0.000000,-0.038534 RLEG_JOINT4:0.992533,0.112317,0.000000,0.047567 WAIST:0.999943,0.000000,-0.008878,-0.005893 WAIST_JOINT0:0.999358,-0.000000,0.033910,0.011605 WAIST_JOINT1:0.998565,0.053083,-0.000000,0.007048 END:
KINECT_DATA_Sensor  AnkleLeft:0.075411,0.762633,-0.103066,-0.634099 AnkleRight:0.100539,0.694340,0.092701,0.706534 ElbowLeft:-0.022186,0.874579,-0.160559,-0.456990 ElbowRight:-0.204508,0.638861,0.023746,0.741262 FootLeft:0.000000,0.000000,0.000000,0.000000 FootRight:0.000000,0.000000,0.000000,0.000000 HandLeft:-0.009252,0.743863,0.133152,-0.654868 HandRight:-0.534461,0.816849,0.203407,-0.075736 HandTipLeft:0.000000,0.000000,0.000000,0.000000 HandTipRight:0.000000,0.000000,0.000000,0.000000 Head:0.000000,0.000000,0.000000,0.000000 HipLeft:0.130693,-0.683936,0.697927,-0.167479 HipRight:-0.119084,0.679577,0.707649,-0.152403 KneeLeft:-0.004995,0.713566,-0.050185,-0.698770 KneeRight:-0.013444,0.700426,0.049030,0.711912 Neck:-0.034673,0.005004,0.997041,-0.068426 ShoulderLeft:0.030698,0.772884,-0.633277,0.025864 ShoulderRight:-0.014031,0.785662,0.613466,-0.078730 SpineBase:0.009248,0.001150,0.999521,-0.029513 SpineMid:-0.012616,0.001795,0.999484,-0.029481 SpineShoulder:-0.034749,0.003629,0.998241,-0.047893 ThumbLeft:0.000000,0.000000,0.000000,0.000000 ThumbRight:0.000000,0.000000,0.000000,0.000000 WristLeft:-0.111948,0.738110,0.086869,-0.659632 WristRight:-0.519576,0.824244,0.215624,-0.064560 END:
KINECT_DATA POSITION:11.464133,-1.093207,-6.202245 HEAD_JOINT1:0.982247,0.182481,-0.000000,0.043488 LARM_JOINT2:0.804678,0.000000,0.008860,-0.593646 LARM_JOINT3:0.970913,0.000000,-0.181993,-0.155582 LLEG_JOINT2:0.998426,0.032432,0.000000,0.045751 LLEG_JOINT4:0.995999,0.088276,0.000000,-0.013906 RARM_JOINT2:0.807921,0.000000,0.232494,0.541488 RARM_JOINT3:0.891246,0.000000,0.438298,-0.116512 RLEG_JOINT2:0.998920,0.026118,0.000000,-0.038416 RLEG_JOINT4:0.993094,0.107749,0.000000,0.046413 WAIST:0.999962,0.000000,-0.006492,-0.005897 WAIST_JOINT0:0.999340,-0.000000,0.035045,0.009608 WAIST_JOINT1:0.998648,0.051570,-0.000000,0.006578 END:
KINECT_DATA_Sensor  AnkleLeft:0.074127,0.756131,-0.098362,-0.642726 AnkleRight:0.098159,0.703289,0.090512,0.698253 ElbowLeft:-0.021616,0.873510,-0.159087,-0.459569 ElbowRight:-0.211842,0.723685,0.020697,0.656487 FootLeft:0.000000,0.000000,0.000000,0.000000 FootRight:0.000000,0.000000,0.000000,0.000000 HandLeft:0.000190,0.764193,0.099850,-0.637211 HandRight:-0.636712,0.740176,0.175469,-0.126287 HandTipLeft:0.000000,0.000000,0.000000,0.000000 HandTipRight:0.000000,0.000000,0.000000,0.000000 Head:0.000000,0.000000,0.000000,0.000000 HipLeft:0.130238,-0.684441,0.698000,-0.165451 HipRight:-0.121234,0.679415,0.707252,-0.153270 KneeLeft:-0.005540,0.711883,-0.051066,-0.700417 KneeRight:-0.012516,0.702156,0.049865,0.710164 Neck:-0.035640,0.004123,0.997115,-0.066885 ShoulderLeft:0.030861,0.773969,-0.632030,0.023592 ShoulderRight:-0.015106,0.784365,0.615167,-0.078186 SpineBase:0.006840,0.000746,0.999573,-0.028412 SpineMid:-0.014309,0.001347,0.999494,-0.028390 SpineShoulder:-0.035718,0.002921,0.998277,-0.046462 ThumbLeft:0.000000,0.000000,0.000000,0.000000 ThumbRight:0.000000,0.000000,0.000000,0.000000 WristLeft:-0.114224,0.754008,0.085553,-0.641175 WristRight:-0.548541,0.809839,0.147484,-0.146673 END:
KINECT_DATA POSITION:11.485849,-1.086761,-6.373060 HEAD_JOINT1:0.981871,0.184471,-0.000000,0.043576 LARM_JOINT2:0.803171,0.000000,0.008856,-0.595683 LARM_JOINT3:0.970422,0.000000,-0.183217,-0.157202 LLEG_JOINT2:0.998440,0.031019,0.000000,0.046423 LLEG_JOINT4:0.995797,0.090553,0.000000,-0.013711 RARM_JOINT2:0.833151,0.000000,0.166938,0.527249 RARM_JOINT3:0.832640,0.000000,0.553075,0.028601 RLEG_JOINT2:0.998936,0.026363,0.000000,-0.037838 RLEG_JOINT4:0.992906,0.109990,0.000000,0.045166 WAIST:0.999972,0.000000,-0.003798,-0.006436 WAIST_JOINT0:0.999636,-0.000000,0.026203,0.006465 WAIST_JOINT1:0.998689,0.050776,-0.000000,0.006542 END:
KINECT_DATA_Sensor  AnkleLeft:0.073730,0.746971,-0.099811,-0.653174 AnkleRight:0.100264,0.715178,0.091876,0.685585 ElbowLeft:-0.020634,0.871885,-0.156053,-0.463722 ElbowRight:-0.202533,0.735293,0.088479,0.640700 FootLeft:0.000000,0.000000,0.000000,0.000000 FootRight:0.000000,0.000000,0.000000,0.000000 HandLeft:0.012407,0.717726,0.120356,-0.685733 HandRight:-0.586009,0.746932,-0.001810,-0.314139 HandTipLeft:0.000000,0.000000,0.000000,0.000000 HandTipRight:0.000000,0.000000,0.000000,0.000000 Head:0.000000,0.000000,0.000000,0.000000 HipLeft:0.129480,-0.685319,0.697749,-0.163462 HipRight:-0.123480,0.678827,0.707149,-0.154557 KneeLeft:-0.006485,0.710002,-0.050182,-0.702379 KneeRight:-0.012438,0.704058,0.049984,0.708272 Neck:-0.026783,0.002587,0.997443,-0.066207 ShoulderLeft:0.032976,0.775107,-0.630542,0.023215 ShoulderRight:-0.001380,0.783972,0.617452,-0.064341 SpineBase:0.004151,0.000096,0.999611,-0.027564 SpineMid:-0.011266,0.000522,0.999557,-0.027560 SpineShoulder:-0.026854,0.001651,0.998592,-0.045729 ThumbLeft:0.000000,0.000000,0.000000,0.000000 ThumbRight:0.000000,0.000000,0.000000,0.000000 WristLeft:-0.107450,0.708926,0.092123,-0.690935 WristRight:-0.581099,0.774389,0.158960,-0.193332 END:
KINECT_DATA POSITION:11.518709,-1.093905,-6.438386 HEAD_JOINT1:0.982038,0.184307,-0.000000,0.040394 LARM_JOINT2:0.802375,0.000000,0.009293,-0.596747 LARM_JOINT3:0.969132,0.000000,-0.186825,-0.160875 LLEG_JOINT2:0.998449,0.030137,0.000000,0.046820 LLEG_JOINT4:0.995950,0.088700,0.000000,-0.014696 RARM_JOINT2:0.862301,0.000000,0.303799,0.405145 RARM_JOINT3:0.864856,0.000000,0.488958,0.113773 RLEG_JOINT2:0.998930,0.026469,0.000000,-0.037919 RLEG_JOINT4:0.992718,0.110304,0.000000,0.048409 WAIST:0.999975,0.000000,-0.002180,-0.006723 WAIST_JOINT0:0.999753,-0.000000,0.021731,0.004755 WAIST_JOINT1:0.998710,0.050353,-0.000000,0.006569 END:
KINECT_DATA_Sensor  AnkleLeft:0.071621,0.740780,-0.097845,-0.660713 AnkleRight:0.099343,0.693037,0.093566,0.707867 ElbowLeft:-0.019490,0.871839,-0.154708,-0.464308 ElbowRight:-0.327631,0.848650,0.137150,0.391971 FootLeft:0.000000,0.000000,0.000000,0.000000 FootRight:0.000000,0.000000,0.000000,0.000000 HandLeft:0.011574,0.715464,0.141234,-0.684127 HandRight:-0.571891,0.737864,0.009222,-0.358347 HandTipLeft:0.000000,0.000000,0.000000,0.000000 HandTipRight:0.000000,0.000000,0.000000,0.000000 Head:0.000000,0.000000,0.000000,0.000000 HipLeft:0.128733,-0.685825,0.697692,-0.162167 HipRight:-0.124543,0.678515,0.707124,-0.155180 KneeLeft:-0.007101,0.708867,-0.049653,-0.703557 KneeRight:-0.012695,0.705193,0.050307,0.707114 Neck:-0.022248,0.001828,0.997582,-0.065813 ShoulderLeft:0.033667,0.775356,-0.630193,0.023374 ShoulderRight:0.005191,0.783251,0.619015,-0.057547 SpineBase:0.002536,-0.000212,0.999627,-0.027176 SpineMid:-0.009826,0.000124,0.999582,-0.027177 SpineShoulder:-0.022315,0.001018,0.998722,-0.045337 ThumbLeft:0.000000,0.000000,0.000000,0.000000 ThumbRight:0.000000,0.000000,0.000000,0.000000 WristLeft:0.103750,-0.690135,-0.096291,0.709702 WristRight:-0.561489,0.754772,0.045719,-0.336093 END:
KINECT_DATA POSITION:11.633213,-1.100104,-6.560135 HEAD_JOINT1:0.982490,0.182843,-0.000000,0.035809 LARM_JOINT2:0.801050,0.000000,0.007315,-0.598552 LARM_JOINT3:0.969902,0.000000,-0.182228,-0.161499 LLEG_JOINT2:0.998569,0.028263,0.000000,0.045397 LLEG_JOINT4:0.995989,0.088652,0.000000,-0.012105 RARM_JOINT2:0.862032,0.000000,0.309965,0.401027 RARM_JOINT3:0.848714,0.000000,0.512449,0.130693 RLEG_JOINT2:0.998854,0.026947,0.000000,-0.039566 RLEG_JOINT4:0.992687,0.109720,0.000000,0.050333 WAIST:0.999981,0.000000,0.000665,-0.006121 WAIST_JOINT0:0.999710,-0.000000,0.023117,0.006694 WAIST_JOINT1:0.998728,0.050003,-0.000000,0.006510 END:
KINECT_DATA_Sensor  AnkleLeft:-0.063387,-0.698445,0.101654,0.705566 AnkleRight:0.098392,0.685568,0.094466,0.715116 ElbowLeft:-0.019735,0.871372,-0.152419,-0.465930 ElbowRight:-0.313058,0.892721,0.176493,0.271834 FootLeft:0.000000,0.000000,0.000000,0.000000 FootRight:0.000000,0.000000,0.000000,0.000000 HandLeft:0.023055,0.729865,0.132244,-0.670281 HandRight:0.751137,-0.594556,-0.033800,0.284875 HandTipLeft:0.000000,0.000000,0.000000,0.000000 HandTipRight:0.000000,0.000000,0.000000,0.000000 Head:0.000000,0.000000,0.000000,0.000000 HipLeft:0.127463,-0.685800,0.698370,-0.160342 HipRight:-0.126601,0.678568,0.706390,-0.156624 KneeLeft:-0.007698,0.706827,-0.047780,-0.705729 KneeRight:-0.013222,0.707222,0.051363,0.705000 Neck:-0.023716,0.002221,0.997568,-0.065496 ShoulderLeft:0.033908,0.774758,-0.630951,0.022415 ShoulderRight:0.003586,0.784560,0.617253,-0.058755 SpineBase:-0.000337,-0.000009,0.999642,-0.026750 SpineMid:-0.012003,0.000304,0.999570,-0.026749 SpineShoulder:-0.023786,0.001315,0.998703,-0.044991 ThumbLeft:0.000000,0.000000,0.000000,0.000000 ThumbRight:0.000000,0.000000,0.000000,0.000000 WristLeft:-0.108269,0.722327,0.093176,-0.676639 WristRight:-0.481101,0.779015,0.004369,-0.402067 END:
KINECT_DATA POSITION:11.773197,-1.086613,-6.664562 HEAD_JOINT1:0.982576,0.182759,-0.000000,0.033809 LARM_JOINT2:0.800279,0.000000,0.006127,-0.599597 LARM_JOINT3:0.970179,0.000000,-0.182380,-0.159656 LLEG_JOINT2:0.998687,0.027039,0.000000,0.043506 LLEG_JOINT4:0.995911,0.089822,0.000000,-0.009712 RARM_JOINT2:0.868020,0.000000,0.295161,0.399275 RARM_JOINT3:0.835678,0.000000,0.530013,0.143976 RLEG_JOINT2:0.998743,0.028368,0.000000,-0.041314 RLEG_JOINT4:0.992882,0.107697,0.000000,0.050859 WAIST:0.999976,0.000000,0.004675,-0.005027 WAIST_JOINT0:0.999663,-0.000000,0.024838,0.007597 WAIST_JOINT1:0.998758,0.049366,-0.000000,0.006757 END:
KINECT_DATA_Sensor  AnkleLeft:0.070677,0.750205,-0.097150,-0.650200 AnkleRight:0.098572,0.696513,0.093415,0.704575 ElbowLeft:-0.020038,0.870959,-0.151873,-0.466865 ElbowRight:-0.309603,0.888319,0.181963,0.286224 FootLeft:0.000000,0.000000,0.000000,0.000000 FootRight:0.000000,0.000000,0.000000,0.000000 HandLeft:0.017291,0.700342,0.127511,-0.702114 HandRight:0.727441,-0.618689,-0.040470,0.293966 HandTipLeft:0.000000,0.000000,0.000000,0.000000 HandTipRight:0.000000,0.000000,0.000000,0.000000 Head:0.000000,0.000000,0.000000,0.000000 HipLeft:0.125108,-0.685609,0.699588,-0.157688 HipRight:-0.129315,0.678882,0.705219,-0.158312 KneeLeft:0.007807,-0.703940,0.046396,0.708699 KneeRight:-0.012870,0.710101,0.052794,0.701999 Neck:-0.025481,0.003324,0.997568,-0.064796 ShoulderLeft:0.034331,0.773884,-0.632050,0.020928 ShoulderRight:0.001709,0.784790,0.616851,-0.059964 SpineBase:-0.004381,0.001002,0.999645,-0.026256 SpineMid:-0.014903,0.001278,0.999544,-0.026244 SpineShoulder:-0.025539,0.002300,0.998685,-0.044382 ThumbLeft:0.000000,0.000000,0.000000,0.000000 ThumbRight:0.000000,0.000000,0.000000,0.000000 WristLeft:0.102182,-0.675151,-0.100591,0.723610 WristRight:-0.505665,0.757294,-0.007560,-0.413221 END:
KINECT_DATA POSITION:11.838062,-1.089213,-6.781578 HEAD_JOINT1:0.982634,0.182757,-0.000000,0.032091 LARM_JOINT2:0.800139,0.000000,0.005618,-0.599788 LARM_JOINT3:0.969731,0.000000,-0.184827,-0.159567 LLEG_JOINT2:0.998753,0.025105,0.000000,0.043156 LLEG_JOINT4:0.995778,0.091255,0.000000,-0.009959 RARM_JOINT2:0.860754,0.000000,0.308374,0.404980 RARM_JOINT3:0.835071,0.000000,0.532388,0.138637 RLEG_JOINT2:0.998678,0.029689,0.000000,-0.041951 RLEG_JOINT4:0.993256,0.103776,0.000000,0.051699 WAIST:0.999953,0.000000,0.008447,-0.004752 WAIST_JOINT0:0.999651,-0.000000,0.025151,0.008079 WAIST_JOINT1:0.998774,0.048962,-0.000000,0.007360 END:
KINECT_DATA_Sensor  AnkleLeft:0.071006,0.748553,-0.096239,-0.652200 AnkleRight:0.095916,0.693115,0.092485,0.708406 ElbowLeft:-0.020005,0.870520,-0.152205,-0.467578 ElbowRight:-0.313763,0.892445,0.165557,0.278722 FootLeft:0.000000,0.000000,0.000000,0.000000 FootRight:0.000000,0.000000,0.000000,0.000000 HandLeft:-0.001001,0.742532,0.133131,-0.656446 HandRight:0.748974,-0.611365,0.002240,0.255473 HandTipLeft:0.000000,0.000000,0.000000,0.000000 HandTipRight:0.000000,0.000000,0.000000,0.000000 Head:0.000000,0.000000,0.000000,0.000000 HipLeft:0.123053,-0.685935,0.700127,-0.155479 HipRight:-0.131853,0.678710,0.704519,-0.160063 KneeLeft:0.008950,-0.701237,0.045027,0.711449 KneeRight:-0.012384,0.712773,0.053953,0.699207 Neck:-0.025826,0.003858,0.997581,-0.064426 ShoulderLeft:0.033448,0.773701,-0.632316,0.021074 ShoulderRight:0.000363,0.785096,0.616401,-0.060615 SpineBase:-0.008151,0.001562,0.999630,-0.025893 SpineMid:-0.016963,0.001790,0.999520,-0.025879 SpineShoulder:-0.025876,0.002812,0.998692,-0.044002 ThumbLeft:0.000000,0.000000,0.000000,0.000000 ThumbRight:0.000000,0.000000,0.000000,0.000000 WristLeft:-0.111044,0.735751,0.091531,-0.661787 WristRight:-0.514302,0.765039,-0.044716,-0.384980 END:
KINECT_DATA POSITION:11.842834,-1.081719,-6.853938 HEAD_JOINT1:0.982505,0.183631,-0.000000,0.031051 LARM_JOINT2:0.800446,0.000000,0.004343,-0.599389 LARM_JOINT3:0.969550,0.000000,-0.184989,-0.160475 LLEG_JOINT2:0.998791,0.023684,0.000000,0.043081 LLEG_JOINT4:0.995620,0.093109,0.000000,-0.008429 RARM_JOINT2:0.843197,0.000000,0.294243,0.449934 RARM_JOINT3:0.839939,0.000000,0.533047,0.101803 RLEG_JOINT2:0.998602,0.030977,0.000000,-0.042826 RLEG_JOINT4:0.993309,0.103445,0.000000,0.051348 WAIST:0.999915,0.000000,0.012338,-0.004249 WAIST_JOINT0:0.999705,-0.000000,0.023068,0.007572 WAIST_JOINT1:0.998798,0.048467,-0.000000,0.007372 END:
KINECT_DATA_Sensor  AnkleLeft:0.072065,0.756450,-0.096582,-0.642854 AnkleRight:0.096252,0.699964,0.093475,0.701462 ElbowLeft:-0.020228,0.871635,-0.152624,-0.465348 ElbowRight:-0.294430,0.865877,0.101786,0.391419 FootLeft:0.000000,0.000000,0.000000,0.000000 FootRight:0.000000,0.000000,0.000000,0.000000 HandLeft:-0.006587,0.724144,0.133098,-0.676652 HandRight:0.680397,-0.651614,0.013104,0.335094 HandTipLeft:0.000000,0.000000,0.000000,0.000000 HandTipRight:0.000000,0.000000,0.000000,0.000000 Head:0.000000,0.000000,0.000000,0.000000 HipLeft:0.121183,-0.686210,0.700706,-0.153107 HipRight:-0.134535,0.678690,0.703569,-0.162080 KneeLeft:0.010084,-0.698425,0.044384,0.714235 KneeRight:-0.011945,0.715527,0.055096,0.696306 Neck:-0.023699,0.003866,0.997662,-0.063984 ShoulderLeft:0.032558,0.773637,-0.632418,0.021780 ShoulderRight:0.002192,0.784523,0.617373,-0.058053 SpineBase:-0.012066,0.001784,0.999602,-0.025429 SpineMid:-0.017872,0.001932,0.999515,-0.025418 SpineShoulder:-0.023742,0.002845,0.998765,-0.043543 ThumbLeft:0.000000,0.000000,0.000000,0.000000 ThumbRight:0.000000,0.000000,0.000000,0.000000 WristLeft:-0.108063,0.717233,0.095110,-0.681801 WristRight:-0.575720,0.737468,0.006371,-0.353054 END:
KINECT_DATA POSITION:11.825313,-1.079373,-6.923616 HEAD_JOINT1:0.982776,0.182159,-0.000000,0.031139 LARM_JOINT2:0.800953,0.000000,0.001527,-0.598726 LARM_JOINT3:0.970302,0.000000,-0.183359,-0.157775 LLEG_JOINT2:0.998783,0.022290,0.000000,0.043997 LLEG_JOINT4:0.995489,0.094650,0.000000,-0.006612 RARM_JOINT2:0.840170,0.000000,0.298008,0.453108 RARM_JOINT3:0.839882,0.000000,0.534932,0.091901 RLEG_JOINT2:0.998590,0.031708,0.000000,-0.042570 RLEG_JOINT4:0.993182,0.103101,0.000000,0.054404 WAIST:0.999850,0.000000,0.016656,-0.004679 WAIST_JOINT0:0.999661,-0.000000,0.025146,0.006769 WAIST_JOINT1:0.998785,0.048590,-0.000000,0.008186 END:
KINECT_DATA_Sensor  AnkleLeft:-0.062815,-0.697469,0.103736,0.706279 AnkleRight:0.096109,0.686905,0.094377,0.714155 ElbowLeft:-0.021208,0.872084,-0.152944,-0.464357 ElbowRight:-0.294030,0.868229,0.094283,0.388375 FootLeft:0.000000,0.000000,0.000000,0.000000 FootRight:0.000000,0.000000,0.000000,0.000000 HandLeft:-0.019637,0.743774,0.117862,-0.657665 HandRight:-0.046516,-0.312465,0.724003,-0.613206 HandTipLeft:0.000000,0.000000,0.000000,0.000000 HandTipRight:0.000000,0.000000,0.000000,0.000000 Head:0.000000,0.000000,0.000000,0.000000 HipLeft:0.118451,-0.687063,0.700797,-0.150991 HipRight:-0.136947,0.677912,0.703247,-0.164693 KneeLeft:0.011217,-0.695336,0.043828,0.717259 KneeRight:-0.011778,0.718518,0.055708,0.693174 Neck:-0.025768,0.003974,0.997604,-0.064076 ShoulderLeft:0.032927,0.773521,-0.632559,0.021213 ShoulderRight:-0.000166,0.783552,0.618351,-0.060732 SpineBase:-0.016353,0.001783,0.999533,-0.025739 SpineMid:-0.021064,0.001904,0.999445,-0.025731 SpineShoulder:-0.025817,0.002899,0.998705,-0.043740 ThumbLeft:0.000000,0.000000,0.000000,0.000000 ThumbRight:0.000000,0.000000,0.000000,0.000000 WristLeft:-0.111344,0.735649,0.092639,-0.661696 WristRight:0.009306,0.327257,-0.566665,0.756113 END:
KINECT_DATA POSITION:11.830961,-1.080498,-6.970644 HEAD_JOINT1:0.982896,0.181614,-0.000000,0.030529 LARM_JOINT2:0.800783,0.000000,0.000879,-0.598954 LARM_JOINT3:0.969388,0.000000,-0.182016,-0.164795 LLEG_JOINT2:0.998778,0.021655,0.000000,0.044424 LLEG_JOINT4:0.995602,0.093470,0.000000,-0.006250 RARM_JOINT2:0.840200,0.000000,0.297466,0.453407 RARM_JOINT3:0.845224,0.000000,0.527118,0.087997 RLEG_JOINT2:0.998549,0.031846,0.000000,-0.043414 RLEG_JOINT4:0.993379,0.100660,0.000000,0.055367 WAIST:0.999809,0.000000,0.018903,-0.004867 WAIST_JOINT0:0.999628,-0.000000,0.026555,0.006238 WAIST_JOINT1:0.998770,0.048826,-0.000000,0.008661 END:
KINECT_DATA_Sensor  AnkleLeft:0.072304,0.769972,-0.095407,-0.626747 AnkleRight:0.097068,0.709906,0.090061,0.691737 ElbowLeft:-0.020889,0.871747,-0.152901,-0.465018 ElbowRight:-0.294128,0.866443,0.091588,0.392909 FootLeft:0.000000,0.000000,0.000000,0.000000 FootRight:0.000000,0.000000,0.000000,0.000000 HandLeft:-0.002007,0.751604,0.136546,-0.645324 HandRight:-0.071115,-0.316363,0.722089,-0.611100 HandTipLeft:0.000000,0.000000,0.000000,0.000000 HandTipRight:0.000000,0.000000,0.000000,0.000000 Head:0.000000,0.000000,0.000000,0.000000 HipLeft:0.117212,-0.687308,0.700946,-0.150146 HipRight:-0.138411,0.677375,0.703119,-0.166222 KneeLeft:0.011732,-0.693723,0.043595,0.718825 KneeRight:-0.012537,0.720056,0.056507,0.691497 Neck:-0.027152,0.004112,0.997549,-0.064354 ShoulderLeft:0.033265,0.773453,-0.632634,0.020912 ShoulderRight:-0.001661,0.782758,0.619167,-0.062610 SpineBase:-0.018583,0.001898,0.999488,-0.025959 SpineMid:-0.022875,0.002010,0.999399,-0.025950 SpineShoulder:-0.027202,0.003032,0.998657,-0.043996 ThumbLeft:0.000000,0.000000,0.000000,0.000000 ThumbRight:0.000000,0.000000,0.000000,0.000000 WristLeft:-0.112515,0.745470,0.090201,-0.650753 WristRight:0.006614,0.301451,-0.551652,0.777665 END:
KINECT_DATA POSITION:11.841705,-1.092339,-6.961846 HEAD_JOINT1:0.982892,0.181637,-0.000000,0.030506 LARM_JOINT2:0.800754,0.000000,0.001093,-0.598992 LARM_JOINT3:0.968665,0.000000,-0.185732,-0.164899 LLEG_JOINT2:0.998785,0.021372,0.000000,0.044394 LLEG_JOINT4:0.995579,0.093643,0.000000,-0.007340 RARM_JOINT2:0.840161,0.000000,0.291445,0.457371 RARM_JOINT3:0.843608,0.000000,0.530305,0.084269 RLEG_JOINT2:0.998523,0.032097,0.000000,-0.043830 RLEG_JOINT4:0.993222,0.102009,0.000000,0.055723 WAIST:0.999808,0.000000,0.019029,-0.004705 WAIST_JOINT0:0.999407,-0.000000,0.033202,0.009079 WAIST_JOINT1:0.998774,0.048770,-0.000000,0.008518 END:
KINECT_DATA_Sensor  AnkleLeft:0.071558,0.761635,-0.095506,-0.636922 AnkleRight:0.097524,0.704366,0.091901,0.697074 ElbowLeft:-0.020704,0.871828,-0.152937,-0.464863 ElbowRight:-0.289500,0.864149,0.091131,0.401412 FootLeft:0.000000,0.000000,0.000000,0.000000 FootRight:0.000000,0.000000,0.000000,0.000000 HandLeft:-0.012505,0.743428,0.146598,-0.652432 HandRight:-0.016922,-0.355864,0.732671,-0.579886 HandTipLeft:0.000000,0.000000,0.000000,0.000000 HandTipRight:0.000000,0.000000,0.000000,0.000000 Head:0.000000,0.000000,0.000000,0.000000 HipLeft:0.117529,-0.687168,0.701021,-0.150192 HipRight:-0.138925,0.677400,0.702932,-0.166477 KneeLeft:0.012023,-0.693621,0.043493,0.718925 KneeRight:-0.012553,0.720151,0.056862,0.691369 Neck:-0.033953,0.004537,0.997340,-0.064341 ShoulderLeft:0.032252,0.773508,-0.632655,0.019800 ShoulderRight:-0.011445,0.785001,0.615209,-0.071842 SpineBase:-0.018717,0.001947,0.999491,-0.025772 SpineMid:-0.026326,0.002143,0.999319,-0.025757 SpineShoulder:-0.034014,0.003344,0.998451,-0.043893 ThumbLeft:0.000000,0.000000,0.000000,0.000000 ThumbRight:0.000000,0.000000,0.000000,0.000000 WristLeft:-0.111450,0.739201,0.091341,-0.657889 WristRight:-0.038033,0.353293,-0.549400,0.756239 END:
KINECT_DATA POSITION:11.834380,-1.098722,-6.946945 HEAD_JOINT1:0.982684,0.182697,-0.000000,0.030885 LARM_JOINT2:0.800710,0.000000,0.001202,-0.599050 LARM_JOINT3:0.968441,0.000000,-0.183013,-0.169201 LLEG_JOINT2:0.998792,0.021128,0.000000,0.044356 LLEG_JOINT4:0.995729,0.092030,0.000000,-0.007371 RARM_JOINT2:0.839116,0.000000,0.299314,0.454198 RARM_JOINT3:0.851225,0.000000,0.518530,0.080881 RLEG_JOINT2:0.998532,0.031336,0.000000,-0.044188 RLEG_JOINT4:0.993255,0.100699,0.000000,0.057490 WAIST:0.999806,0.000000,0.019169,-0.004602 WAIST_JOINT0:0.999573,-0.000000,0.027789,0.008993 WAIST_JOINT1:0.998797,0.048318,-0.000000,0.008357 END:
KINECT_DATA_Sensor  AnkleLeft:-0.060590,-0.696350,0.100753,0.708008 AnkleRight:0.091577,0.661016,0.095118,0.738663 ElbowLeft:-0.020759,0.872333,-0.152692,-0.463992 ElbowRight:-0.295055,0.865574,0.088309,0.394873 FootLeft:0.000000,0.000000,0.000000,0.000000 FootRight:0.000000,0.000000,0.000000,0.000000 HandLeft:0.016890,0.702384,0.152983,-0.694959 HandRight:-0.051070,-0.333000,0.732507,-0.591554 HandTipLeft:0.000000,0.000000,0.000000,0.000000 HandTipRight:0.000000,0.000000,0.000000,0.000000 Head:0.000000,0.000000,0.000000,0.000000 HipLeft:0.118043,-0.687119,0.701022,-0.150006 HipRight:-0.139563,0.677426,0.702757,-0.166579 KneeLeft:0.012240,-0.693508,0.043372,0.719038 KneeRight:-0.013276,0.720241,0.056488,0.691293 Neck:-0.028549,0.004126,0.997544,-0.063829 ShoulderLeft:0.032135,0.773306,-0.632876,0.020824 ShoulderRight:-0.004502,0.785441,0.615551,-0.064489 SpineBase:-0.018871,0.001833,0.999500,-0.025307 SpineMid:-0.023715,0.001955,0.999397,-0.025297 SpineShoulder:-0.028600,0.003036,0.998640,-0.043486 ThumbLeft:0.000000,0.000000,0.000000,0.000000 ThumbRight:0.000000,0.000000,0.000000,0.000000 WristLeft:0.102183,-0.675518,-0.101410,0.723153 WristRight:-0.017605,0.313482,-0.539073,0.781549 END:
KINECT_DATA POSITION:11.836210,-1.100481,-6.943750 HEAD_JOINT1:0.982533,0.183380,-0.000000,0.031628 LARM_JOINT2:0.800736,0.000000,0.001552,-0.599015 LARM_JOINT3:0.968881,0.000000,-0.182736,-0.166962 LLEG_JOINT2:0.998766,0.021611,0.000000,0.044716 LLEG_JOINT4:0.995812,0.091067,0.000000,-0.008045 RARM_JOINT2:0.838890,0.000000,0.299952,0.454195 RARM_JOINT3:0.850013,0.000000,0.520547,0.080673 RLEG_JOINT2:0.998534,0.031834,0.000000,-0.043775 RLEG_JOINT4:0.992903,0.103542,0.000000,0.058510 WAIST:0.999805,0.000000,0.019214,-0.004627 WAIST_JOINT0:0.999580,-0.000000,0.027395,0.009495 WAIST_JOINT1:0.998810,0.048058,-0.000000,0.008252 END:
KINECT_DATA_Sensor  AnkleLeft:0.068280,0.750679,-0.095027,-0.650222 AnkleRight:0.093898,0.653758,0.097625,0.744481 ElbowLeft:-0.020690,0.872314,-0.152629,-0.464053 ElbowRight:-0.295659,0.865272,0.087564,0.395249 FootLeft:0.000000,0.000000,0.000000,0.000000 FootRight:0.000000,0.000000,0.000000,0.000000 HandLeft:0.002683,0.735158,0.145584,-0.662073 HandRight:-0.097561,-0.299459,0.733172,-0.602715 HandTipLeft:0.000000,0.000000,0.000000,0.000000 HandTipRight:0.000000,0.000000,0.000000,0.000000 Head:0.000000,0.000000,0.000000,0.000000 HipLeft:0.118281,-0.687127,0.700995,-0.149909 HipRight:-0.139815,0.677376,0.702751,-0.166596 KneeLeft:0.012121,-0.693475,0.043949,0.719037 KneeRight:-0.012652,0.720284,0.056577,0.691252 Neck:-0.028162,0.003949,0.997575,-0.063524 ShoulderLeft:0.031748,0.773178,-0.633047,0.020952 ShoulderRight:-0.004373,0.785747,0.615215,-0.063977 SpineBase:-0.018920,0.001725,0.999504,-0.025097 SpineMid:-0.023547,0.001841,0.999406,-0.025089 SpineShoulder:-0.028213,0.002893,0.998662,-0.043242 ThumbLeft:0.000000,0.000000,0.000000,0.000000 ThumbRight:0.000000,0.000000,0.000000,0.000000 WristLeft:-0.109763,0.730152,0.093118,-0.667951 WristRight:0.016488,0.263911,-0.540463,0.798736 END:
KINECT_DATA POSITION:11.833673,-1.110019,-6.947744 HEAD_JOINT1:0.982293,0.184391,-0.000000,0.033175 LARM_JOINT2:0.800966,0.000000,0.002434,-0.598705 LARM_JOINT3:0.969239,0.000000,-0.182875,-0.164721 LLEG_JOINT2:0.998757,0.021935,0.000000,0.044759 LLEG_JOINT4:0.995465,0.094682,0.000000,-0.009249 RARM_JOINT2:0.836295,0.000000,0.308270,0.453410 RARM_JOINT3:0.854589,0.000000,0.514272,0.072118 RLEG_JOINT2:0.998517,0.032240,0.000000,-0.043872 RLEG_JOINT4:0.993216,0.101163,0.000000,0.057345 WAIST:0.999812,0.000000,0.018831,-0.004608 WAIST_JOINT0:0.999564,-0.000000,0.027955,0.009500 WAIST_JOINT1:0.998833,0.047591,-0.000000,0.008173 END:
KINECT_DATA_Sensor  AnkleLeft:0.070921,0.742998,-0.097412,-0.658358 AnkleRight:0.095811,0.685281,0.092825,0.715956 ElbowLeft:-0.020455,0.873063,-0.153050,-0.462513 ElbowRight:-0.299818,0.866001,0.081762,0.391748 FootLeft:0.000000,0.000000,0.000000,0.000000 FootRight:0.000000,0.000000,0.000000,0.000000 HandLeft:-0.018547,0.788706,0.136170,-0.599213 HandRight:-0.049008,-0.327539,0.739765,-0.585717 HandTipLeft:0.000000,0.000000,0.000000,0.000000 HandTipRight:0.000000,0.000000,0.000000,0.000000 Head:0.000000,0.000000,0.000000,0.000000 HipLeft:0.118889,-0.687061,0.700933,-0.150015 HipRight:-0.139929,0.677421,0.702746,-0.166337 KneeLeft:0.011948,-0.693748,0.044213,0.718760 KneeRight:-0.012404,0.720027,0.056926,0.691496 Neck:-0.028673,0.004013,0.997593,-0.063012 ShoulderLeft:0.030441,0.773428,-0.632796,0.021263 ShoulderRight:-0.006380,0.785588,0.615283,-0.065095 SpineBase:-0.018546,0.001630,0.999520,-0.024768 SpineMid:-0.023617,0.001756,0.999413,-0.024759 SpineShoulder:-0.028729,0.002881,0.998667,-0.042780 ThumbLeft:0.000000,0.000000,0.000000,0.000000 ThumbRight:0.000000,0.000000,0.000000,0.000000 WristLeft:-0.116613,0.783737,0.083776,-0.604267 WristRight:-0.018460,0.310343,-0.536926,0.784256 END:
KINECT_DATA POSITION:11.828707,-1.126552,-6.991422 HEAD_JOINT1:0.982144,0.184323,-0.000000,0.037666 LARM_JOINT2:0.801557,0.000000,0.002904,-0.597911 LARM_JOINT3:0.968057,0.000000,-0.185692,-0.168477 LLEG_JOINT2:0.998824,0.020885,0.000000,0.043758 LLEG_JOINT4:0.995512,0.094404,0.000000,-0.006673 RARM_JOINT2:0.834388,0.000000,0.401313,0.377815 RARM_JOINT3:0.882760,0.000000,0.465233,0.065518 RLEG_JOINT2:0.998459,0.033087,0.000000,-0.044555 RLEG_JOINT4:0.993205,0.100674,0.000000,0.058381 WAIST:0.999833,0.000000,0.017820,-0.003990 WAIST_JOINT0:0.999483,-0.000000,0.030311,0.010695 WAIST_JOINT1:0.998885,0.046578,-0.000000,0.007640 END:
KINECT_DATA_Sensor  AnkleLeft:0.072075,0.768135,-0.095679,-0.628983 AnkleRight:0.098895,0.700411,0.090131,0.701085 ElbowLeft:-0.021384,0.874162,-0.153742,-0.460159 ElbowRight:-0.381092,0.879480,0.090933,0.270211 FootLeft:0.000000,0.000000,0.000000,0.000000 FootRight:0.000000,0.000000,0.000000,0.000000 HandLeft:-0.027900,0.814810,0.148674,-0.559644 HandRight:0.099308,-0.375886,0.705466,-0.592592 HandTipLeft:0.000000,0.000000,0.000000,0.000000 HandTipRight:0.000000,0.000000,0.000000,0.000000 Head:0.000000,0.000000,0.000000,0.000000 HipLeft:0.120086,-0.686567,0.701159,-0.150270 HipRight:-0.139948,0.677998,0.702375,-0.165537 KneeLeft:0.012497,-0.694441,0.043184,0.718144 KneeRight:-0.011811,0.719366,0.057584,0.692139 Neck:-0.031067,0.004361,0.997589,-0.061902 ShoulderLeft:0.027066,0.773609,-0.632701,0.022034 ShoulderRight:-0.012910,0.786528,0.613500,-0.069456 SpineBase:-0.017568,0.001849,0.999554,-0.024085 SpineMid:-0.024309,0.002011,0.999413,-0.024072 SpineShoulder:-0.031123,0.003162,0.998638,-0.041759 ThumbLeft:0.000000,0.000000,0.000000,0.000000 ThumbRight:0.000000,0.000000,0.000000,0.000000 WristLeft:-0.121224,0.812192,0.079464,-0.565097 WristRight:0.066407,-0.479277,0.548131,-0.682228 END:
KINECT_DATA POSITION:11.825191,-1.147562,-7.104635 HEAD_JOINT1:0.981895,0.185271,-0.000000,0.039458 LARM_JOINT2:0.801477,0.000000,0.000733,-0.598025 LARM_JOINT3:0.968209,0.000000,-0.177792,-0.175957 LLEG_JOINT2:0.998874,0.018543,0.000000,0.043678 LLEG_JOINT4:0.995258,0.097084,0.000000,-0.006000 RARM_JOINT2:0.830500,0.000000,0.430701,0.353223 RARM_JOINT3:0.881501,0.000000,0.469840,0.046966 RLEG_JOINT2:0.998409,0.033205,0.000000,-0.045569 RLEG_JOINT4:0.993566,0.097767,0.000000,0.057168 WAIST:0.999780,0.000000,0.020647,-0.003762 WAIST_JOINT0:0.999137,-0.000000,0.040318,0.009990 WAIST_JOINT1:0.998897,0.046277,-0.000000,0.007932 END:
KINECT_DATA_Sensor  AnkleLeft:0.070931,0.758290,-0.097226,-0.640713 AnkleRight:0.095589,0.705162,0.089436,0.696858 ElbowLeft:-0.021660,0.876746,-0.153439,-0.455305 ElbowRight:-0.412070,0.858573,0.058410,0.299397 FootLeft:0.000000,0.000000,0.000000,0.000000 FootRight:0.000000,0.000000,0.000000,0.000000 HandLeft:0.035243,0.695912,0.146536,-0.702134 HandRight:0.043123,-0.398531,0.671543,-0.623172 HandTipLeft:0.000000,0.000000,0.000000,0.000000 HandTipRight:0.000000,0.000000,0.000000,0.000000 Head:0.000000,0.000000,0.000000,0.000000 HipLeft:0.119008,-0.686622,0.701631,-0.148666 HipRight:-0.142228,0.677702,0.701866,-0.166958 KneeLeft:0.014168,-0.692369,0.041710,0.720198 KneeRight:-0.012451,0.721329,0.058185,0.690031 Neck:-0.041109,0.005235,0.997235,-0.061679 ShoulderLeft:0.023903,0.773738,-0.632690,0.021483 ShoulderRight:-0.029354,0.784670,0.613442,-0.084382 SpineBase:-0.020401,0.002149,0.999511,-0.023601 SpineMid:-0.030728,0.002393,0.999247,-0.023578 SpineShoulder:-0.041178,0.003839,0.998286,-0.041421 ThumbLeft:0.000000,0.000000,0.000000,0.000000 ThumbRight:0.000000,0.000000,0.000000,0.000000 WristLeft:0.098669,-0.665032,-0.106441,0.732575 WristRight:0.043513,-0.427663,0.606372,-0.668972 END:
KINECT_DATA POSITION:11.824812,-1.161621,-7.149971 HEAD_JOINT1:0.981949,0.185461,-0.000000,0.037167 LARM_JOINT2:0.800894,0.000000,-0.000742,-0.598806 LARM_JOINT3:0.969272,0.000000,-0.173687,-0.174194 LLEG_JOINT2:0.998887,0.016525,0.000000,0.044174 LLEG_JOINT4:0.994891,0.100857,0.000000,-0.004377 RARM_JOINT2:0.837030,0.000000,0.418195,0.352836 RARM_JOINT3:0.881618,0.000000,0.467155,0.067195 RLEG_JOINT2:0.998404,0.033166,0.000000,-0.045703 RLEG_JOINT4:0.993145,0.100302,0.000000,0.060023 WAIST:0.999703,0.000000,0.024013,-0.004241 WAIST_JOINT0:0.998294,-0.000000,0.057026,0.012572 WAIST_JOINT1:0.998881,0.046449,-0.000000,0.008900 END:
KINECT_DATA_Sensor  AnkleLeft:0.072541,0.761370,-0.098739,-0.636635 AnkleRight:0.097135,0.695402,0.091657,0.706102 ElbowLeft:-0.021425,0.876559,-0.152711,-0.455923 ElbowRight:-0.407911,0.860982,0.071742,0.295249 FootLeft:0.000000,0.000000,0.000000,0.000000 FootRight:0.000000,0.000000,0.000000,0.000000 HandLeft:0.034953,0.703889,0.129940,-0.697448 HandRight:0.032088,-0.396602,0.632742,-0.664316 HandTipLeft:0.000000,0.000000,0.000000,0.000000 HandTipRight:0.000000,0.000000,0.000000,0.000000 Head:0.000000,0.000000,0.000000,0.000000 HipLeft:0.116778,-0.687342,0.701643,-0.147043 HipRight:-0.144172,0.676993,0.701699,-0.168858 KneeLeft:0.015486,-0.689936,0.040395,0.722576 KneeRight:-0.013099,0.723627,0.058555,0.687578 Neck:-0.057728,0.006578,0.996388,-0.061928 ShoulderLeft:0.023301,0.773782,-0.632776,0.017684 ShoulderRight:-0.051866,0.784860,0.608344,-0.105937 SpineBase:-0.023733,0.002388,0.999432,-0.023825 SpineMid:-0.040661,0.002791,0.998886,-0.023781 SpineShoulder:-0.057837,0.004669,0.997451,-0.041535 ThumbLeft:0.000000,0.000000,0.000000,0.000000 ThumbRight:0.000000,0.000000,0.000000,0.000000 WristLeft:0.099827,-0.674669,-0.105482,0.723692 WristRight:0.022738,-0.415196,0.602840,-0.680940 END:
