EastLYD/RoboCupatHomeSim/InteractiveCleanUp/JapanOpen2016/Motion_Data/File28.dat
KINECT_DATA POSITION:23.061255,-1.260360,-13.640654 HEAD_JOINT1:0.982065,0.156652,-0.000000,0.104924 LARM_JOINT2:0.830555,0.000000,-0.049032,-0.554775 LARM_JOINT3:0.967713,0.000000,-0.176076,-0.180360 LLEG_JOINT2:0.999163,0.005949,0.000000,0.040479 LLEG_JOINT4:0.994414,0.090693,0.000000,-0.053996 RARM_JOINT2:0.790189,0.000000,-0.028164,0.612216 RARM_JOINT3:0.974768,0.000000,0.191801,0.114189 RLEG_JOINT2:0.998389,-0.000791,-0.000000,-0.056740 RLEG_JOINT4:0.996118,0.081971,0.000000,0.032083 WAIST:0.999280,0.000000,-0.037834,-0.002716 WAIST_JOINT0:0.997929,0.000000,-0.064275,-0.002639 WAIST_JOINT1:0.995788,0.089840,0.000000,-0.018284 END:
KINECT_DATA_Sensor  AnkleLeft:0.078722,0.740228,-0.058073,-0.665201 AnkleRight:0.040937,0.674471,0.074929,0.733348 ElbowLeft:-0.028896,0.929627,-0.176074,-0.322423 ElbowRight:0.027147,0.828110,0.181372,0.529718 FootLeft:0.000000,0.000000,0.000000,0.000000 FootRight:0.000000,0.000000,0.000000,0.000000 HandLeft:-0.116298,0.864860,0.045967,0.486187 HandRight:-0.077724,0.739941,-0.021736,0.667812 HandTipLeft:0.000000,0.000000,0.000000,0.000000 HandTipRight:0.000000,0.000000,0.000000,0.000000 Head:0.000000,0.000000,0.000000,0.000000 HipLeft:0.134360,-0.671420,0.699697,-0.203879 HipRight:-0.079204,0.676863,0.711929,-0.169529 KneeLeft:-0.023776,0.731625,-0.029922,-0.680635 KneeRight:-0.040978,0.680238,0.043079,0.730576 Neck:0.064047,-0.020758,0.992052,-0.106298 ShoulderLeft:-0.024019,0.784604,-0.604241,0.136794 ShoulderRight:0.059936,0.785344,0.615165,-0.034854 SpineBase:0.036821,-0.017024,0.997020,-0.065622 SpineMid:0.050141,-0.017899,0.996439,-0.065389 SpineShoulder:0.063908,-0.019671,0.994160,-0.084699 ThumbLeft:0.000000,0.000000,0.000000,0.000000 ThumbRight:0.000000,0.000000,0.000000,0.000000 WristLeft:-0.112205,0.872469,-0.039633,0.473959 WristRight:-0.089523,0.739169,-0.026377,0.667022 END:
KINECT_DATA POSITION:22.796041,-1.238495,-13.710129 HEAD_JOINT1:0.982500,0.154756,-0.000000,0.103654 LARM_JOINT2:0.831632,0.000000,-0.049479,-0.553118 LARM_JOINT3:0.967701,0.000000,-0.177914,-0.178611 LLEG_JOINT2:0.999089,0.006424,0.000000,0.042191 LLEG_JOINT4:0.994164,0.093274,0.000000,-0.054202 RARM_JOINT2:0.790820,0.000000,-0.028130,0.611402 RARM_JOINT3:0.975877,0.000000,0.188750,0.109718 RLEG_JOINT2:0.998537,-0.000870,-0.000000,-0.054068 RLEG_JOINT4:0.995821,0.085227,0.000000,0.032814 WAIST:0.999328,0.000000,-0.036525,-0.003186 WAIST_JOINT0:0.998041,0.000000,-0.062535,-0.002063 WAIST_JOINT1:0.995871,0.089046,0.000000,-0.017666 END:
KINECT_DATA_Sensor  AnkleLeft:0.080189,0.739204,-0.060835,-0.665918 AnkleRight:0.045187,0.675526,0.074964,0.732122 ElbowLeft:-0.030747,0.928832,-0.177454,-0.323784 ElbowRight:0.025152,0.826928,0.181868,0.531490 FootLeft:0.000000,0.000000,0.000000,0.000000 FootRight:0.000000,0.000000,0.000000,0.000000 HandLeft:-0.123665,0.816665,0.024308,0.563182 HandRight:-0.076399,0.738252,-0.002248,0.670181 HandTipLeft:0.000000,0.000000,0.000000,0.000000 HandTipRight:0.000000,0.000000,0.000000,0.000000 Head:0.000000,0.000000,0.000000,0.000000 HipLeft:0.133743,-0.672203,0.699476,-0.202457 HipRight:-0.080504,0.676590,0.712047,-0.169514 KneeLeft:-0.024330,0.730802,-0.031139,-0.681445 KneeRight:-0.039611,0.681198,0.041342,0.729857 Neck:0.062365,-0.020708,0.992249,-0.105467 ShoulderLeft:-0.023796,0.784741,-0.604442,0.135149 ShoulderRight:0.057978,0.785685,0.614862,-0.035813 SpineBase:0.035603,-0.016962,0.997123,-0.064728 SpineMid:0.048692,-0.017810,0.996570,-0.064500 SpineShoulder:0.062224,-0.019605,0.994339,-0.083873 ThumbLeft:0.000000,0.000000,0.000000,0.000000 ThumbRight:0.000000,0.000000,0.000000,0.000000 WristLeft:-0.108312,0.825418,-0.052386,0.551552 WristRight:-0.091739,0.738309,-0.025395,0.667711 END:
KINECT_DATA POSITION:22.707443,-1.228798,-13.763058 HEAD_JOINT1:0.982994,0.154300,-0.000000,0.099568 LARM_JOINT2:0.831025,0.000000,-0.050776,-0.553913 LARM_JOINT3:0.966793,0.000000,-0.178876,-0.182526 LLEG_JOINT2:0.999125,0.005990,0.000000,0.041392 LLEG_JOINT4:0.994284,0.092374,0.000000,-0.053541 RARM_JOINT2:0.791585,0.000000,-0.030310,0.610307 RARM_JOINT3:0.975295,0.000000,0.194096,0.105483 RLEG_JOINT2:0.998543,-0.002742,-0.000000,-0.053896 RLEG_JOINT4:0.995878,0.084312,0.000000,0.033442 WAIST:0.999371,0.000000,-0.035370,-0.002668 WAIST_JOINT0:0.998089,0.000000,-0.061755,-0.001924 WAIST_JOINT1:0.995947,0.088341,0.000000,-0.016885 END:
KINECT_DATA_Sensor  AnkleLeft:0.078304,0.730037,-0.061073,-0.676154 AnkleRight:0.043558,0.672439,0.072435,0.735310 ElbowLeft:-0.032049,0.928670,-0.177018,-0.324361 ElbowRight:0.025067,0.825095,0.182497,0.534120 FootLeft:0.000000,0.000000,0.000000,0.000000 FootRight:0.000000,0.000000,0.000000,0.000000 HandLeft:-0.141025,0.742077,0.020837,0.654980 HandRight:-0.099225,0.818347,0.011284,0.565982 HandTipLeft:0.000000,0.000000,0.000000,0.000000 HandTipRight:0.000000,0.000000,0.000000,0.000000 Head:0.000000,0.000000,0.000000,0.000000 HipLeft:0.133236,-0.672089,0.699928,-0.201607 HipRight:-0.081938,0.676900,0.711560,-0.169629 KneeLeft:-0.024365,0.730057,-0.030675,-0.682262 KneeRight:-0.040552,0.681968,0.039527,0.729187 Neck:0.061492,-0.019501,0.992406,-0.104728 ShoulderLeft:-0.024488,0.784322,-0.605077,0.134613 ShoulderRight:0.056108,0.785929,0.614670,-0.036712 SpineBase:0.034466,-0.015949,0.997223,-0.064068 SpineMid:0.047696,-0.016798,0.996678,-0.063851 SpineShoulder:0.061364,-0.018464,0.994474,-0.083154 ThumbLeft:0.000000,0.000000,0.000000,0.000000 ThumbRight:0.000000,0.000000,0.000000,0.000000 WristLeft:-0.101810,0.758442,-0.065455,0.640403 WristRight:-0.095416,0.820229,-0.012380,0.563885 END:
KINECT_DATA POSITION:22.558754,-1.218224,-13.903332 HEAD_JOINT1:0.983736,0.152740,-0.000000,0.094522 LARM_JOINT2:0.830204,0.000000,-0.053057,-0.554930 LARM_JOINT3:0.968427,0.000000,-0.174057,-0.178476 LLEG_JOINT2:0.999100,0.004531,0.000000,0.042166 LLEG_JOINT4:0.994550,0.090787,0.000000,-0.051255 RARM_JOINT2:0.791761,0.000000,-0.033131,0.609932 RARM_JOINT3:0.975929,0.000000,0.187737,0.110988 RLEG_JOINT2:0.998641,-0.003061,-0.000000,-0.052028 RLEG_JOINT4:0.995860,0.086287,0.000000,0.028586 WAIST:0.999409,0.000000,-0.034258,-0.002811 WAIST_JOINT0:0.998134,0.000000,-0.061008,-0.002509 WAIST_JOINT1:0.995981,0.088079,0.000000,-0.016269 END:
KINECT_DATA_Sensor  AnkleLeft:0.075016,0.739136,-0.059729,-0.666695 AnkleRight:0.045102,0.697760,0.074406,0.711027 ElbowLeft:-0.032126,0.930815,-0.175546,-0.318960 ElbowRight:0.026197,0.824094,0.183419,0.535294 FootLeft:0.000000,0.000000,0.000000,0.000000 FootRight:0.000000,0.000000,0.000000,0.000000 HandLeft:-0.120127,0.818142,0.022802,0.561866 HandRight:-0.063160,0.759262,0.001846,0.647710 HandTipLeft:0.000000,0.000000,0.000000,0.000000 HandTipRight:0.000000,0.000000,0.000000,0.000000 Head:0.000000,0.000000,0.000000,0.000000 HipLeft:0.132653,-0.672416,0.699918,-0.200934 HipRight:-0.083148,0.676749,0.711477,-0.169996 KneeLeft:-0.025788,0.729280,-0.030062,-0.683068 KneeRight:-0.039661,0.682763,0.037996,0.728572 Neck:0.060691,-0.019209,0.992489,-0.104468 ShoulderLeft:-0.024069,0.784015,-0.605673,0.133797 ShoulderRight:0.055508,0.785310,0.615481,-0.037287 SpineBase:0.033419,-0.015440,0.997291,-0.063678 SpineMid:0.046786,-0.016292,0.996754,-0.063465 SpineShoulder:0.060575,-0.018101,0.994555,-0.082849 ThumbLeft:0.000000,0.000000,0.000000,0.000000 ThumbRight:0.000000,0.000000,0.000000,0.000000 WristLeft:-0.108640,0.825872,-0.051157,0.550922 WristRight:-0.093295,0.758121,-0.021363,0.645052 END:
KINECT_DATA POSITION:22.468918,-1.215591,-13.958764 HEAD_JOINT1:0.984676,0.149655,-0.000000,0.089535 LARM_JOINT2:0.829230,0.000000,-0.053793,-0.556314 LARM_JOINT3:0.970111,0.000000,-0.168353,-0.174760 LLEG_JOINT2:0.999076,0.004597,0.000000,0.042735 LLEG_JOINT4:0.994524,0.090905,0.000000,-0.051555 RARM_JOINT2:0.791177,0.000000,-0.032391,0.610728 RARM_JOINT3:0.969858,0.000000,0.213178,0.118032 RLEG_JOINT2:0.998708,-0.003258,-0.000000,-0.050708 RLEG_JOINT4:0.995941,0.085568,0.000000,0.027913 WAIST:0.999418,0.000000,-0.033957,-0.003254 WAIST_JOINT0:0.998336,0.000000,-0.057627,-0.001995 WAIST_JOINT1:0.996087,0.086969,0.000000,-0.015719 END:
KINECT_DATA_Sensor  AnkleLeft:0.074552,0.730825,-0.060607,-0.675769 AnkleRight:0.043174,0.685111,0.074454,0.723336 ElbowLeft:-0.034090,0.928783,-0.173221,-0.325875 ElbowRight:0.026010,0.826872,0.181562,0.531640 FootLeft:0.000000,0.000000,0.000000,0.000000 FootRight:0.000000,0.000000,0.000000,0.000000 HandLeft:-0.098707,0.856594,0.036839,0.505120 HandRight:-0.134191,0.761967,-0.080639,0.628407 HandTipLeft:0.000000,0.000000,0.000000,0.000000 HandTipRight:0.000000,0.000000,0.000000,0.000000 Head:0.000000,0.000000,0.000000,0.000000 HipLeft:0.132731,-0.672945,0.699596,-0.200230 HipRight:-0.083773,0.676609,0.711668,-0.169446 KneeLeft:-0.025834,0.729139,-0.030197,-0.683211 KneeRight:-0.039233,0.682943,0.037194,0.728468 Neck:0.057251,-0.018848,0.992826,-0.103265 ShoulderLeft:-0.020679,0.784578,-0.606076,0.129156 ShoulderRight:0.054336,0.785810,0.614907,-0.037950 SpineBase:0.033194,-0.015351,0.997351,-0.062873 SpineMid:0.044968,-0.016093,0.996890,-0.062688 SpineShoulder:0.057131,-0.017752,0.994850,-0.081819 ThumbLeft:0.000000,0.000000,0.000000,0.000000 ThumbRight:0.000000,0.000000,0.000000,0.000000 WristLeft:-0.111988,0.861002,-0.047406,0.493850 WristRight:-0.093207,0.765378,-0.024721,0.636315 END:
KINECT_DATA POSITION:22.414375,-1.234766,-13.962698 HEAD_JOINT1:0.985575,0.146272,-0.000000,0.085126 LARM_JOINT2:0.827620,0.000000,-0.048360,-0.559201 LARM_JOINT3:0.971247,0.000000,-0.170206,-0.166462 LLEG_JOINT2:0.999090,0.004269,0.000000,0.042426 LLEG_JOINT4:0.994883,0.088071,0.000000,-0.049513 RARM_JOINT2:0.787602,0.000000,0.016951,0.615951 RARM_JOINT3:0.961301,0.000000,0.243502,0.128870 RLEG_JOINT2:0.998723,-0.003503,-0.000000,-0.050392 RLEG_JOINT4:0.995959,0.085800,0.000000,0.026521 WAIST:0.999467,0.000000,-0.032529,-0.002783 WAIST_JOINT0:0.998781,0.000000,-0.049345,0.001549 WAIST_JOINT1:0.996480,0.082336,0.000000,-0.015749 END:
KINECT_DATA_Sensor  AnkleLeft:0.071786,0.740553,-0.058657,-0.665573 AnkleRight:0.042876,0.688202,0.074851,0.720373 ElbowLeft:-0.034563,0.924661,-0.170835,-0.338561 ElbowRight:-0.005999,0.842412,0.154896,0.516055 FootLeft:0.000000,0.000000,0.000000,0.000000 FootRight:0.000000,0.000000,0.000000,0.000000 HandLeft:-0.095523,0.862875,0.014585,0.496094 HandRight:-0.212773,0.900514,-0.121289,0.359293 HandTipLeft:0.000000,0.000000,0.000000,0.000000 HandTipRight:0.000000,0.000000,0.000000,0.000000 Head:0.000000,0.000000,0.000000,0.000000 HipLeft:0.133613,-0.673325,0.699723,-0.197913 HipRight:-0.086407,0.677136,0.711021,-0.168730 KneeLeft:-0.026117,0.728181,-0.030119,-0.684225 KneeRight:-0.038917,0.683967,0.036408,0.727564 Neck:0.048808,-0.017927,0.993815,-0.098123 ShoulderLeft:-0.018177,0.786098,-0.606150,0.119587 ShoulderRight:0.045714,0.789801,0.610277,-0.041074 SpineBase:0.031767,-0.015180,0.997559,-0.060302 SpineMid:0.040057,-0.015680,0.997261,-0.060173 SpineShoulder:0.048673,-0.016923,0.995660,-0.077500 ThumbLeft:0.000000,0.000000,0.000000,0.000000 ThumbRight:0.000000,0.000000,0.000000,0.000000 WristLeft:-0.114111,0.863983,-0.050188,0.487845 WristRight:-0.144120,0.913927,-0.044655,0.376792 END:
KINECT_DATA POSITION:22.382996,-1.299131,-13.794411 HEAD_JOINT1:0.985806,0.144953,-0.000000,0.084711 LARM_JOINT2:0.827306,0.000000,-0.045484,-0.559907 LARM_JOINT3:0.971332,0.000000,-0.173462,-0.162557 LLEG_JOINT2:0.999114,0.006840,0.000000,0.041523 LLEG_JOINT4:0.995163,0.085830,0.000000,-0.047780 RARM_JOINT2:0.786165,0.000000,0.064096,0.614685 RARM_JOINT3:0.940196,0.000000,0.302040,0.157488 RLEG_JOINT2:0.998550,-0.005516,-0.000000,-0.053545 RLEG_JOINT4:0.995465,0.089573,0.000000,0.032040 WAIST:0.999403,0.000000,-0.034450,-0.002456 WAIST_JOINT0:0.999192,0.000000,-0.039951,0.004470 WAIST_JOINT1:0.996727,0.079039,0.000000,-0.016960 END:
KINECT_DATA_Sensor  AnkleLeft:0.069889,0.728767,-0.061220,-0.678430 AnkleRight:0.046193,0.686933,0.073907,0.721475 ElbowLeft:-0.036595,0.922122,-0.168843,-0.346184 ElbowRight:-0.036670,0.859034,0.135799,0.492213 FootLeft:0.000000,0.000000,0.000000,0.000000 FootRight:0.000000,0.000000,0.000000,0.000000 HandLeft:-0.106050,0.815454,-0.001682,0.569021 HandRight:-0.288300,0.894598,-0.193554,0.281275 HandTipLeft:0.000000,0.000000,0.000000,0.000000 HandTipRight:0.000000,0.000000,0.000000,0.000000 Head:0.000000,0.000000,0.000000,0.000000 HipLeft:0.136891,-0.673475,0.699338,-0.196514 HipRight:-0.087186,0.678063,0.710779,-0.165601 KneeLeft:-0.023992,0.729633,-0.031568,-0.682688 KneeRight:-0.042242,0.682421,0.037182,0.728790 Neck:0.039417,-0.017873,0.994608,-0.094243 ShoulderLeft:-0.014292,0.787086,-0.606680,0.110586 ShoulderRight:0.037481,0.792365,0.607121,-0.046437 SpineBase:0.033661,-0.015707,0.997685,-0.056957 SpineMid:0.036354,-0.015860,0.997591,-0.056914 SpineShoulder:0.039277,-0.016792,0.996289,-0.074729 ThumbLeft:0.000000,0.000000,0.000000,0.000000 ThumbRight:0.000000,0.000000,0.000000,0.000000 WristLeft:-0.110650,0.818497,-0.063390,0.560180 WristRight:-0.209791,0.922545,-0.106511,0.305867 END:
KINECT_DATA POSITION:22.560129,-1.359320,-13.236308 HEAD_JOINT1:0.986303,0.144048,-0.000000,0.080350 LARM_JOINT2:0.825316,0.000000,-0.040584,-0.563210 LARM_JOINT3:0.970279,0.000000,-0.179683,-0.162086 LLEG_JOINT2:0.999350,0.013378,0.000000,0.033460 LLEG_JOINT4:0.995854,0.080550,0.000000,-0.042268 RARM_JOINT2:0.783306,0.000000,0.124687,0.609003 RARM_JOINT3:0.943610,0.000000,0.295788,0.148693 RLEG_JOINT2:0.998312,-0.004358,-0.000000,-0.057910 RLEG_JOINT4:0.995107,0.093831,0.000000,0.030951 WAIST:0.999451,0.000000,-0.033142,0.000528 WAIST_JOINT0:0.999611,0.000000,-0.026800,0.007652 WAIST_JOINT1:0.996961,0.075733,0.000000,-0.018280 END:
KINECT_DATA_Sensor  AnkleLeft:0.069982,0.721779,-0.063073,-0.685682 AnkleRight:0.049342,0.694630,0.078971,0.713315 ElbowLeft:-0.036786,0.916791,-0.167263,-0.360781 ElbowRight:-0.080332,0.859759,0.107489,0.492755 FootLeft:0.000000,0.000000,0.000000,0.000000 FootRight:0.000000,0.000000,0.000000,0.000000 HandLeft:-0.126885,0.797516,-0.002803,0.589797 HandRight:-0.226668,0.961240,-0.144038,0.062389 HandTipLeft:0.000000,0.000000,0.000000,0.000000 HandTipRight:0.000000,0.000000,0.000000,0.000000 Head:0.000000,0.000000,0.000000,0.000000 HipLeft:0.139792,-0.673251,0.700696,-0.190307 HipRight:-0.092654,0.681472,0.708130,-0.159882 KneeLeft:-0.015684,0.729243,-0.032995,-0.683279 KneeRight:-0.042326,0.683125,0.038989,0.728030 Neck:0.026633,-0.014419,0.995475,-0.090072 ShoulderLeft:-0.012579,0.787755,-0.607342,0.102076 ShoulderRight:0.022528,0.795067,0.603322,-0.058005 SpineBase:0.032342,-0.012824,0.998197,-0.048901 SpineMid:0.029352,-0.012678,0.998290,-0.048940 SpineShoulder:0.026381,-0.014831,0.996947,-0.071981 ThumbLeft:0.000000,0.000000,0.000000,0.000000 ThumbRight:0.000000,0.000000,0.000000,0.000000 WristLeft:-0.110079,0.804991,-0.070497,0.578707 WristRight:-0.291488,0.949878,-0.078527,0.081236 END:
KINECT_DATA POSITION:22.679916,-1.403000,-12.731028 HEAD_JOINT1:0.986420,0.145202,-0.000000,0.076758 LARM_JOINT2:0.824331,0.000000,-0.036458,-0.564933 LARM_JOINT3:0.971353,0.000000,-0.178262,-0.157147 LLEG_JOINT2:0.999412,0.018002,0.000000,0.029169 LLEG_JOINT4:0.996277,0.077034,0.000000,-0.038700 RARM_JOINT2:0.788696,0.000000,0.170342,0.590714 RARM_JOINT3:0.940239,0.000000,0.318368,0.120804 RLEG_JOINT2:0.998121,0.001250,0.000000,-0.061268 RLEG_JOINT4:0.995099,0.092125,0.000000,0.035928 WAIST:0.999568,0.000000,-0.029338,0.001813 WAIST_JOINT0:0.999852,0.000000,-0.013719,0.010343 WAIST_JOINT1:0.997243,0.072154,0.000000,-0.017336 END:
KINECT_DATA_Sensor  AnkleLeft:0.072840,0.743614,-0.061441,-0.661784 AnkleRight:0.053452,0.693109,0.079896,0.714395 ElbowLeft:-0.036950,0.913662,-0.167746,-0.368398 ElbowRight:-0.118548,0.872344,0.097797,0.464110 FootLeft:0.000000,0.000000,0.000000,0.000000 FootRight:0.000000,0.000000,0.000000,0.000000 HandLeft:-0.115754,0.812309,-0.018285,0.571332 HandRight:-0.375855,0.919604,-0.025372,-0.111436 HandTipLeft:0.000000,0.000000,0.000000,0.000000 HandTipRight:0.000000,0.000000,0.000000,0.000000 Head:0.000000,0.000000,0.000000,0.000000 HipLeft:0.140376,-0.673827,0.701452,-0.184975 HipRight:-0.098603,0.682808,0.706485,-0.157892 KneeLeft:-0.010159,0.726938,-0.034389,-0.685766 KneeRight:-0.039789,0.685751,0.044204,0.725402 Neck:0.014085,-0.011010,0.996034,-0.087157 ShoulderLeft:-0.013581,0.787303,-0.609124,0.094533 ShoulderRight:0.005127,0.796210,0.600904,-0.070272 SpineBase:0.028628,-0.010775,0.998589,-0.043412 SpineMid:0.021235,-0.010453,0.998773,-0.043490 SpineShoulder:0.013730,-0.012698,0.997496,-0.068205 ThumbLeft:0.000000,0.000000,0.000000,0.000000 ThumbRight:0.000000,0.000000,0.000000,0.000000 WristLeft:-0.110020,0.815841,-0.071793,0.563156 WristRight:-0.329481,0.936751,-0.026123,-0.115137 END:
KINECT_DATA POSITION:22.775532,-1.488980,-12.285471 HEAD_JOINT1:0.986747,0.145478,-0.000000,0.071883 LARM_JOINT2:0.823168,0.000000,-0.033911,-0.566784 LARM_JOINT3:0.969323,0.000000,-0.186077,-0.160585 LLEG_JOINT2:0.999453,0.021866,0.000000,0.024805 LLEG_JOINT4:0.996478,0.076162,0.000000,-0.035084 RARM_JOINT2:0.779804,0.000000,0.242591,0.577110 RARM_JOINT3:0.950751,0.000000,0.299865,0.078439 RLEG_JOINT2:0.997889,0.005229,0.000000,-0.064737 RLEG_JOINT4:0.994786,0.094600,0.000000,0.038097 WAIST:0.999691,0.000000,-0.024510,0.004140 WAIST_JOINT0:0.999882,0.000000,-0.001944,0.015249 WAIST_JOINT1:0.997542,0.067984,0.000000,-0.016972 END:
KINECT_DATA_Sensor  AnkleLeft:0.075385,0.752695,-0.062925,-0.651006 AnkleRight:0.060461,0.712115,0.082377,0.694587 ElbowLeft:-0.037797,0.912089,-0.167797,-0.372168 ElbowRight:-0.168766,0.863866,0.053600,0.471572 FootLeft:0.000000,0.000000,0.000000,0.000000 FootRight:0.000000,0.000000,0.000000,0.000000 HandLeft:-0.151013,0.791295,-0.031411,0.591660 HandRight:-0.370152,0.907571,0.005139,-0.198182 HandTipLeft:0.000000,0.000000,0.000000,0.000000 HandTipRight:0.000000,0.000000,0.000000,0.000000 Head:0.000000,0.000000,0.000000,0.000000 HipLeft:0.139084,-0.673303,0.703245,-0.181011 HipRight:-0.103709,0.684172,0.704212,-0.158867 KneeLeft:-0.005811,0.723703,-0.035865,-0.689155 KneeRight:-0.037868,0.689263,0.047618,0.721953 Neck:0.002544,-0.008498,0.996349,-0.084906 ShoulderLeft:-0.016267,0.786744,-0.610871,0.087207 ShoulderRight:-0.012701,0.799774,0.594748,-0.080464 SpineBase:0.023756,-0.008697,0.998850,-0.040727 SpineMid:0.013095,-0.008262,0.999047,-0.040818 SpineShoulder:0.002208,-0.010046,0.997938,-0.063349 ThumbLeft:0.000000,0.000000,0.000000,0.000000 ThumbRight:0.000000,0.000000,0.000000,0.000000 WristLeft:-0.108840,0.800763,-0.076594,0.584009 WristRight:-0.375401,0.906146,0.013944,-0.194367 END:
KINECT_DATA POSITION:22.878157,-1.518261,-12.118435 HEAD_JOINT1:0.986999,0.145288,-0.000000,0.068732 LARM_JOINT2:0.822833,0.000000,-0.038016,-0.567010 LARM_JOINT3:0.968211,0.000000,-0.188979,-0.163876 LLEG_JOINT2:0.999530,0.021736,0.000000,0.021596 LLEG_JOINT4:0.996679,0.074807,0.000000,-0.032178 RARM_JOINT2:0.765456,0.000000,0.287473,0.575705 RARM_JOINT3:0.958641,0.000000,0.282765,0.032421 RLEG_JOINT2:0.997599,0.009228,0.000000,-0.068631 RLEG_JOINT4:0.994948,0.091192,0.000000,0.041989 WAIST:0.999814,0.000000,-0.018302,0.006076 WAIST_JOINT0:0.999816,-0.000000,0.005825,0.018298 WAIST_JOINT1:0.997647,0.066591,0.000000,-0.016318 END:
KINECT_DATA_Sensor  AnkleLeft:0.074133,0.754606,-0.061997,-0.649023 AnkleRight:0.061622,0.716111,0.081718,0.690441 ElbowLeft:-0.039964,0.913793,-0.168286,-0.367511 ElbowRight:-0.189097,0.842813,0.006613,0.503850 FootLeft:0.000000,0.000000,0.000000,0.000000 FootRight:0.000000,0.000000,0.000000,0.000000 HandLeft:-0.167808,0.782063,-0.043536,0.598601 HandRight:-0.369516,0.903474,0.025714,-0.215714 HandTipLeft:0.000000,0.000000,0.000000,0.000000 HandTipRight:0.000000,0.000000,0.000000,0.000000 Head:0.000000,0.000000,0.000000,0.000000 HipLeft:0.136779,-0.672896,0.704872,-0.177926 HipRight:-0.109365,0.684797,0.701950,-0.162350 KneeLeft:-0.004757,0.719383,-0.034932,-0.693718 KneeRight:-0.036627,0.693755,0.051580,0.717427 Neck:-0.004241,-0.005895,0.996488,-0.083423 ShoulderLeft:-0.017686,0.785860,-0.612362,0.084409 ShoulderRight:-0.023127,0.800004,0.593030,-0.088174 SpineBase:0.017508,-0.006853,0.999041,-0.039556 SpineMid:0.006588,-0.006420,0.999172,-0.039628 SpineShoulder:-0.004598,-0.008061,0.998046,-0.061785 ThumbLeft:0.000000,0.000000,0.000000,0.000000 ThumbRight:0.000000,0.000000,0.000000,0.000000 WristLeft:-0.110096,0.793708,-0.077896,0.593159 WristRight:-0.406462,0.888528,0.034376,-0.210060 END:
KINECT_DATA POSITION:22.920694,-1.525748,-12.025345 HEAD_JOINT1:0.987273,0.144566,-0.000000,0.066282 LARM_JOINT2:0.822995,0.000000,-0.039918,-0.566645 LARM_JOINT3:0.969802,0.000000,-0.180007,-0.164562 LLEG_JOINT2:0.999563,0.021282,0.000000,0.020527 LLEG_JOINT4:0.996684,0.074919,0.000000,-0.031759 RARM_JOINT2:0.758438,0.000000,0.326202,0.564238 RARM_JOINT3:0.961889,0.000000,0.273438,0.001448 RLEG_JOINT2:0.997493,0.011943,0.000000,-0.069750 RLEG_JOINT4:0.995221,0.088759,0.000000,0.040701 WAIST:0.999866,0.000000,-0.014888,0.006847 WAIST_JOINT0:0.999654,-0.000000,0.015055,0.021576 WAIST_JOINT1:0.997729,0.065638,0.000000,-0.015111 END:
KINECT_DATA_Sensor  AnkleLeft:-0.068961,-0.699151,0.067196,0.708462 AnkleRight:0.056818,0.688367,0.085849,0.718020 ElbowLeft:-0.041968,0.913656,-0.169582,-0.367033 ElbowRight:-0.209610,0.826907,-0.025740,0.521178 FootLeft:0.000000,0.000000,0.000000,0.000000 FootRight:0.000000,0.000000,0.000000,0.000000 HandLeft:-0.135353,0.822623,-0.025335,0.551661 HandRight:-0.054255,0.268067,-0.398474,0.875451 HandTipLeft:0.000000,0.000000,0.000000,0.000000 HandTipRight:0.000000,0.000000,0.000000,0.000000 Head:0.000000,0.000000,0.000000,0.000000 HipLeft:0.135016,-0.672783,0.705788,-0.176061 HipRight:-0.111964,0.684892,0.701080,-0.163933 KneeLeft:-0.004747,0.716998,-0.034406,-0.696209 KneeRight:-0.035097,0.696252,0.053593,0.714933 Neck:-0.013183,-0.003602,0.996531,-0.082097 ShoulderLeft:-0.019477,0.785543,-0.613082,0.081690 ShoulderRight:-0.036766,0.802128,0.587766,-0.098842 SpineBase:0.014089,-0.005847,0.999118,-0.039115 SpineMid:0.000444,-0.005312,0.999218,-0.039191 SpineShoulder:-0.013532,-0.006058,0.998037,-0.060849 ThumbLeft:0.000000,0.000000,0.000000,0.000000 ThumbRight:0.000000,0.000000,0.000000,0.000000 WristLeft:-0.116200,0.827927,-0.072789,0.543816 WristRight:-0.071632,0.258930,-0.425575,0.864124 END:
KINECT_DATA POSITION:22.893250,-1.480848,-11.871219 HEAD_JOINT1:0.987669,0.142314,-0.000000,0.065246 LARM_JOINT2:0.824013,0.000000,-0.041387,-0.565057 LARM_JOINT3:0.969555,0.000000,-0.178628,-0.167494 LLEG_JOINT2:0.999524,0.022188,0.000000,0.021435 LLEG_JOINT4:0.996541,0.076541,0.000000,-0.032360 RARM_JOINT2:0.740167,0.000000,0.458458,0.491903 RARM_JOINT3:0.986002,0.000000,0.166456,0.009586 RLEG_JOINT2:0.997537,0.014358,0.000000,-0.068662 RLEG_JOINT4:0.995688,0.084025,0.000000,0.039310 WAIST:0.999914,0.000000,-0.011436,0.006405 WAIST_JOINT0:0.999738,-0.000000,0.012886,0.018915 WAIST_JOINT1:0.997801,0.064998,0.000000,-0.012974 END:
KINECT_DATA_Sensor  AnkleLeft:-0.071350,-0.700076,0.068312,0.707203 AnkleRight:0.054879,0.696008,0.084590,0.710919 ElbowLeft:-0.042928,0.915430,-0.172497,-0.361096 ElbowRight:-0.301860,0.868075,-0.066802,0.388413 FootLeft:0.000000,0.000000,0.000000,0.000000 FootRight:0.000000,0.000000,0.000000,0.000000 HandLeft:-0.134833,0.786848,-0.036416,0.601136 HandRight:-0.085040,0.317918,-0.375402,0.866470 HandTipLeft:0.000000,0.000000,0.000000,0.000000 HandTipRight:0.000000,0.000000,0.000000,0.000000 Head:0.000000,0.000000,0.000000,0.000000 HipLeft:0.131950,-0.673441,0.706133,-0.174478 HipRight:-0.113548,0.684169,0.701123,-0.165671 KneeLeft:-0.004345,0.714637,-0.035378,-0.698587 KneeRight:-0.033119,0.698753,0.054673,0.712501 Neck:-0.010347,-0.003371,0.996641,-0.081173 ShoulderLeft:-0.017989,0.783950,-0.615213,0.081309 ShoulderRight:-0.031502,0.797038,0.595614,-0.094771 SpineBase:0.010701,-0.005053,0.999141,-0.039708 SpineMid:0.000161,-0.004634,0.999199,-0.039759 SpineShoulder:-0.010578,-0.004775,0.998124,-0.060117 ThumbLeft:0.000000,0.000000,0.000000,0.000000 ThumbRight:0.000000,0.000000,0.000000,0.000000 WristLeft:-0.110260,0.792915,-0.079886,0.593925 WristRight:-0.078772,0.317128,-0.422131,0.845594 END:
KINECT_DATA POSITION:22.840088,-1.463544,-11.739159 HEAD_JOINT1:0.987894,0.142006,-0.000000,0.062449 LARM_JOINT2:0.823473,0.000000,-0.042795,-0.565738 LARM_JOINT3:0.969484,0.000000,-0.175644,-0.171025 LLEG_JOINT2:0.999532,0.022013,0.000000,0.021232 LLEG_JOINT4:0.996770,0.074397,0.000000,-0.030241 RARM_JOINT2:0.751215,0.000000,0.496558,0.434863 RARM_JOINT3:0.988285,0.000000,0.146200,0.043811 RLEG_JOINT2:0.997410,0.016028,0.000000,-0.070121 RLEG_JOINT4:0.995361,0.085873,0.000000,0.043378 WAIST:0.999957,0.000000,-0.006161,0.006897 WAIST_JOINT0:0.999396,-0.000000,0.026524,0.022437 WAIST_JOINT1:0.997837,0.064790,0.000000,-0.011121 END:
KINECT_DATA_Sensor  AnkleLeft:-0.067999,-0.692916,0.068265,0.714551 AnkleRight:0.059002,0.698639,0.085128,0.707938 ElbowLeft:-0.043100,0.914818,-0.173634,-0.362080 ElbowRight:-0.358077,0.905364,-0.011722,0.227947 FootLeft:0.000000,0.000000,0.000000,0.000000 FootRight:0.000000,0.000000,0.000000,0.000000 HandLeft:-0.132025,0.790909,-0.024698,0.597011 HandRight:-0.112074,0.380822,-0.390767,0.830491 HandTipLeft:0.000000,0.000000,0.000000,0.000000 HandTipRight:0.000000,0.000000,0.000000,0.000000 Head:0.000000,0.000000,0.000000,0.000000 HipLeft:0.128671,-0.673649,0.707123,-0.172099 HipRight:-0.117167,0.683712,0.700223,-0.168813 KneeLeft:-0.004508,0.710942,-0.035456,-0.702342 KneeRight:-0.032914,0.702497,0.056340,0.708689 Neck:-0.024300,-0.000831,0.996437,-0.080760 ShoulderLeft:-0.017932,0.782592,-0.617518,0.076810 ShoulderRight:-0.049980,0.798871,0.589053,-0.111013 SpineBase:0.005443,-0.003873,0.999183,-0.039865 SpineMid:-0.009379,-0.003281,0.999154,-0.039918 SpineShoulder:-0.024502,-0.002214,0.997905,-0.059842 ThumbLeft:0.000000,0.000000,0.000000,0.000000 ThumbRight:0.000000,0.000000,0.000000,0.000000 WristLeft:-0.110077,0.797629,-0.080115,0.587581 WristRight:-0.100405,0.384328,-0.408078,0.821999 END:
KINECT_DATA POSITION:22.674595,-1.444454,-11.673403 HEAD_JOINT1:0.987905,0.141672,-0.000000,0.063035 LARM_JOINT2:0.823732,0.000000,-0.044725,-0.565213 LARM_JOINT3:0.969127,0.000000,-0.175289,-0.173399 LLEG_JOINT2:0.999482,0.021996,0.000000,0.023483 LLEG_JOINT4:0.996337,0.079810,0.000000,-0.030691 RARM_JOINT2:0.758572,0.000000,0.535418,0.371342 RARM_JOINT3:0.986130,0.000000,0.143685,0.083075 RLEG_JOINT2:0.997482,0.020105,0.000000,-0.068010 RLEG_JOINT4:0.995351,0.084620,0.000000,0.045995 WAIST:0.999979,0.000000,-0.001083,0.006333 WAIST_JOINT0:0.999222,-0.000000,0.031887,0.023212 WAIST_JOINT1:0.997896,0.064223,0.000000,-0.008890 END:
KINECT_DATA_Sensor  AnkleLeft:-0.071259,-0.689591,0.072529,0.717026 AnkleRight:0.060909,0.680698,0.086279,0.724911 ElbowLeft:-0.043770,0.915430,-0.175267,-0.359657 ElbowRight:-0.407943,0.908290,0.050366,0.077809 FootLeft:0.000000,0.000000,0.000000,0.000000 FootRight:0.000000,0.000000,0.000000,0.000000 HandLeft:-0.135599,0.811252,-0.023392,0.568274 HandRight:-0.133032,0.390334,-0.386471,0.824974 HandTipLeft:0.000000,0.000000,0.000000,0.000000 HandTipRight:0.000000,0.000000,0.000000,0.000000 Head:0.000000,0.000000,0.000000,0.000000 HipLeft:0.125552,-0.674497,0.707493,-0.169539 HipRight:-0.120599,0.682633,0.700122,-0.171165 KneeLeft:-0.005555,0.707420,-0.036634,-0.705821 KneeRight:-0.029238,0.706173,0.057926,0.705059 Neck:-0.030138,0.000353,0.996335,-0.080047 ShoulderLeft:-0.017605,0.781147,-0.619647,0.074418 ShoulderRight:-0.057503,0.798519,0.587634,-0.117248 SpineBase:0.000461,-0.002927,0.999208,-0.039672 SpineMid:-0.014764,-0.002323,0.999099,-0.039712 SpineShoulder:-0.030300,-0.000786,0.997786,-0.059194 ThumbLeft:0.000000,0.000000,0.000000,0.000000 ThumbRight:0.000000,0.000000,0.000000,0.000000 WristLeft:-0.112865,0.817709,-0.076523,0.559247 WristRight:-0.076261,0.407657,-0.426727,0.803682 END:
KINECT_DATA POSITION:22.357426,-1.358206,-11.655342 HEAD_JOINT1:0.987770,0.138927,-0.000000,0.070777 LARM_JOINT2:0.825846,0.000000,-0.045286,-0.562074 LARM_JOINT3:0.968848,0.000000,-0.168829,-0.181191 LLEG_JOINT2:0.999437,0.019622,0.000000,0.027210 LLEG_JOINT4:0.996095,0.082631,0.000000,-0.031096 RARM_JOINT2:0.749003,0.000000,0.560018,0.354081 RARM_JOINT3:0.988739,0.000000,0.125934,0.080847 RLEG_JOINT2:0.997660,0.023006,0.000000,-0.064384 RLEG_JOINT4:0.995758,0.081473,0.000000,0.042766 WAIST:0.999964,-0.000000,0.005976,0.006101 WAIST_JOINT0:0.999458,-0.000000,0.025862,0.020349 WAIST_JOINT1:0.997957,0.063527,0.000000,-0.006834 END:
KINECT_DATA_Sensor  AnkleLeft:-0.070767,-0.693144,0.073590,0.713532 AnkleRight:0.065088,0.726449,0.082800,0.679102 ElbowLeft:-0.044706,0.914316,-0.180433,-0.359822 ElbowRight:-0.426275,0.902748,0.046399,0.034405 FootLeft:0.000000,0.000000,0.000000,0.000000 FootRight:0.000000,0.000000,0.000000,0.000000 HandLeft:-0.118596,0.740690,-0.014151,0.661145 HandRight:-0.122510,0.378964,-0.396763,0.827016 HandTipLeft:0.000000,0.000000,0.000000,0.000000 HandTipRight:0.000000,0.000000,0.000000,0.000000 Head:0.000000,0.000000,0.000000,0.000000 HipLeft:0.121171,-0.675554,0.708173,-0.165634 HipRight:-0.125468,0.681621,0.699414,-0.174559 KneeLeft:0.009470,-0.702427,0.037460,0.710706 KneeRight:-0.025223,0.711237,0.057357,0.700154 Neck:-0.024622,0.000620,0.996547,-0.079291 ShoulderLeft:-0.015683,0.779492,-0.621776,0.074441 ShoulderRight:-0.048241,0.795516,0.594042,-0.109276 SpineBase:-0.006507,-0.001687,0.999207,-0.039250 SpineMid:-0.015549,-0.001331,0.999107,-0.039264 SpineShoulder:-0.024731,-0.000143,0.997987,-0.058402 ThumbLeft:0.000000,0.000000,0.000000,0.000000 ThumbRight:0.000000,0.000000,0.000000,0.000000 WristLeft:-0.102048,0.749754,-0.091642,0.647346 WristRight:-0.069566,0.395575,-0.434288,0.806272 END:
KINECT_DATA POSITION:22.182400,-1.326608,-11.687576 HEAD_JOINT1:0.987691,0.138448,-0.000000,0.072785 LARM_JOINT2:0.826458,0.000000,-0.047503,-0.560991 LARM_JOINT3:0.968621,0.000000,-0.166760,-0.184294 LLEG_JOINT2:0.999446,0.017280,0.000000,0.028430 LLEG_JOINT4:0.995868,0.085668,0.000000,-0.030125 RARM_JOINT2:0.755701,0.000000,0.555219,0.347345 RARM_JOINT3:0.987316,0.000000,0.132981,0.086738 RLEG_JOINT2:0.997704,0.024641,0.000000,-0.063078 RLEG_JOINT4:0.995814,0.080396,0.000000,0.043482 WAIST:0.999927,-0.000000,0.010344,0.006254 WAIST_JOINT0:0.999284,-0.000000,0.030530,0.022366 WAIST_JOINT1:0.997956,0.063725,0.000000,-0.004818 END:
KINECT_DATA_Sensor  AnkleLeft:-0.070008,-0.690669,0.075331,0.715822 AnkleRight:0.061852,0.689937,0.085531,0.716133 ElbowLeft:-0.045198,0.915245,-0.183363,-0.355894 ElbowRight:-0.429489,0.900226,0.040778,0.058899 FootLeft:0.000000,0.000000,0.000000,0.000000 FootRight:0.000000,0.000000,0.000000,0.000000 HandLeft:-0.115601,0.843387,0.006896,0.524678 HandRight:-0.109650,0.369301,-0.381335,0.840344 HandTipLeft:0.000000,0.000000,0.000000,0.000000 HandTipRight:0.000000,0.000000,0.000000,0.000000 Head:0.000000,0.000000,0.000000,0.000000 HipLeft:0.117933,-0.675920,0.708829,-0.163662 HipRight:-0.128411,0.681188,0.698747,-0.176766 KneeLeft:0.011961,-0.699315,0.036824,0.713764 KneeRight:-0.023307,0.714332,0.057369,0.697062 Neck:-0.029818,0.002645,0.996385,-0.079503 ShoulderLeft:-0.015052,0.778300,-0.623476,0.072798 ShoulderRight:-0.054663,0.796755,0.590714,-0.115109 SpineBase:-0.010815,-0.000061,0.999163,-0.039441 SpineMid:-0.020276,0.000312,0.999016,-0.039440 SpineShoulder:-0.029906,0.001774,0.997836,-0.058531 ThumbLeft:0.000000,0.000000,0.000000,0.000000 ThumbRight:0.000000,0.000000,0.000000,0.000000 WristLeft:-0.115273,0.848172,-0.073476,0.511779 WristRight:-0.058902,0.380104,-0.447265,0.807469 END:
KINECT_DATA POSITION:22.056337,-1.303013,-11.716330 HEAD_JOINT1:0.987384,0.139700,-0.000000,0.074549 LARM_JOINT2:0.826430,0.000000,-0.048187,-0.560974 LARM_JOINT3:0.969473,0.000000,-0.163585,-0.182652 LLEG_JOINT2:0.999440,0.016054,0.000000,0.029346 LLEG_JOINT4:0.995814,0.086013,0.000000,-0.030925 RARM_JOINT2:0.751310,0.000000,0.575409,0.323169 RARM_JOINT3:0.987930,0.000000,0.110704,0.108346 RLEG_JOINT2:0.997691,0.026356,0.000000,-0.062597 RLEG_JOINT4:0.996228,0.074602,0.000000,0.044316 WAIST:0.999892,-0.000000,0.013146,0.006568 WAIST_JOINT0:0.999382,-0.000000,0.027615,0.021743 WAIST_JOINT1:0.997939,0.064018,0.000000,-0.004440 END:
KINECT_DATA_Sensor  AnkleLeft:-0.069659,-0.692311,0.074452,0.714360 AnkleRight:0.060022,0.692647,0.081608,0.714127 ElbowLeft:-0.044974,0.914578,-0.184027,-0.357292 ElbowRight:-0.437094,0.885738,0.112688,-0.108256 FootLeft:0.000000,0.000000,0.000000,0.000000 FootRight:0.000000,0.000000,0.000000,0.000000 HandLeft:-0.103056,0.775821,-0.007733,0.622432 HandRight:-0.097215,0.378655,-0.423984,0.816950 HandTipLeft:0.000000,0.000000,0.000000,0.000000 HandTipRight:0.000000,0.000000,0.000000,0.000000 Head:0.000000,0.000000,0.000000,0.000000 HipLeft:0.115807,-0.676050,0.709388,-0.162217 HipRight:-0.129989,0.681001,0.698229,-0.178373 KneeLeft:0.013610,-0.697283,0.036867,0.715718 KneeRight:-0.021712,0.716344,0.057961,0.694996 Neck:-0.027251,0.002728,0.996430,-0.079857 ShoulderLeft:-0.013347,0.777194,-0.624869,0.073012 ShoulderRight:-0.049530,0.795909,0.593004,-0.111449 SpineBase:-0.013616,0.000494,0.999119,-0.039699 SpineMid:-0.020415,0.000764,0.999003,-0.039695 SpineShoulder:-0.027322,0.001971,0.997894,-0.058794 ThumbLeft:0.000000,0.000000,0.000000,0.000000 ThumbRight:0.000000,0.000000,0.000000,0.000000 WristLeft:-0.104127,0.781063,-0.087588,0.609448 WristRight:-0.073441,0.391251,-0.408811,0.821220 END:
KINECT_DATA POSITION:21.944113,-1.274338,-11.765003 HEAD_JOINT1:0.986747,0.141476,-0.000000,0.079468 LARM_JOINT2:0.826842,0.000000,-0.048131,-0.560371 LARM_JOINT3:0.970059,0.000000,-0.162501,-0.180499 LLEG_JOINT2:0.999443,0.015090,0.000000,0.029755 LLEG_JOINT4:0.995860,0.085503,0.000000,-0.030861 RARM_JOINT2:0.751867,0.000000,0.563289,0.342640 RARM_JOINT3:0.989257,0.000000,0.120020,0.083461 RLEG_JOINT2:0.997675,0.027614,0.000000,-0.062312 RLEG_JOINT4:0.996369,0.072676,0.000000,0.044361 WAIST:0.999863,-0.000000,0.014998,0.007018 WAIST_JOINT0:0.999387,-0.000000,0.027363,0.021844 WAIST_JOINT1:0.997901,0.064596,0.000000,-0.004552 END:
KINECT_DATA_Sensor  AnkleLeft:-0.068247,-0.692621,0.073801,0.714263 AnkleRight:0.063754,0.727350,0.077742,0.678862 ElbowLeft:-0.044097,0.914474,-0.185374,-0.356973 ElbowRight:-0.431319,0.900152,0.060471,-0.005852 FootLeft:0.000000,0.000000,0.000000,0.000000 FootRight:0.000000,0.000000,0.000000,0.000000 HandLeft:-0.095179,0.758895,-0.018199,0.643962 HandRight:-0.100345,0.368496,-0.407859,0.829333 HandTipLeft:0.000000,0.000000,0.000000,0.000000 HandTipRight:0.000000,0.000000,0.000000,0.000000 Head:0.000000,0.000000,0.000000,0.000000 HipLeft:0.114331,-0.675922,0.709905,-0.161534 HipRight:-0.130939,0.680895,0.697737,-0.180002 KneeLeft:0.014847,-0.695909,0.036824,0.717032 KneeRight:-0.020425,0.717697,0.058298,0.693610 Neck:-0.027233,0.002823,0.996381,-0.080466 ShoulderLeft:-0.011934,0.776707,-0.625528,0.072792 ShoulderRight:-0.048072,0.795881,0.593218,-0.111148 SpineBase:-0.015500,0.000666,0.999068,-0.040268 SpineMid:-0.021359,0.000902,0.998960,-0.040263 SpineShoulder:-0.027304,0.002066,0.997862,-0.059348 ThumbLeft:0.000000,0.000000,0.000000,0.000000 ThumbRight:0.000000,0.000000,0.000000,0.000000 WristLeft:-0.099263,0.762697,-0.090636,0.632633 WristRight:-0.074998,0.377350,-0.425750,0.818975 END:
KINECT_DATA POSITION:21.883898,-1.262714,-11.785555 HEAD_JOINT1:0.985939,0.144917,-0.000000,0.083202 LARM_JOINT2:0.827247,0.000000,-0.048277,-0.559760 LARM_JOINT3:0.968872,0.000000,-0.167883,-0.181939 LLEG_JOINT2:0.999443,0.015531,0.000000,0.029547 LLEG_JOINT4:0.995469,0.090303,0.000000,-0.029789 RARM_JOINT2:0.746330,0.000000,0.586574,0.314520 RARM_JOINT3:0.990151,0.000000,0.092226,0.105339 RLEG_JOINT2:0.997680,0.028316,0.000000,-0.061912 RLEG_JOINT4:0.996549,0.071304,0.000000,0.042501 WAIST:0.999850,-0.000000,0.015718,0.007282 WAIST_JOINT0:0.999403,-0.000000,0.026652,0.021973 WAIST_JOINT1:0.997816,0.065948,0.000000,-0.003807 END:
KINECT_DATA_Sensor  AnkleLeft:0.077336,0.746722,-0.072196,-0.656668 AnkleRight:0.058176,0.691301,0.081349,0.715612 ElbowLeft:-0.043176,0.914521,-0.187451,-0.355877 ElbowRight:-0.439993,0.875632,0.125701,-0.154513 FootLeft:0.000000,0.000000,0.000000,0.000000 FootRight:0.000000,0.000000,0.000000,0.000000 HandLeft:-0.117898,0.823532,-0.015888,0.554655 HandRight:-0.116716,0.403890,-0.416494,0.806091 HandTipLeft:0.000000,0.000000,0.000000,0.000000 HandTipRight:0.000000,0.000000,0.000000,0.000000 Head:0.000000,0.000000,0.000000,0.000000 HipLeft:0.113096,-0.675711,0.710230,-0.161858 HipRight:-0.130996,0.680874,0.697508,-0.180922 KneeLeft:0.014548,-0.695401,0.037175,0.717512 KneeRight:-0.019507,0.718233,0.058318,0.693080 Neck:-0.026832,0.003729,0.996264,-0.081998 ShoulderLeft:-0.009897,0.776155,-0.626215,0.073074 ShoulderRight:-0.045508,0.795981,0.593357,-0.110775 SpineBase:-0.016222,0.001356,0.999018,-0.041209 SpineMid:-0.021522,0.001575,0.998918,-0.041201 SpineShoulder:-0.026888,0.002938,0.997793,-0.060642 ThumbLeft:0.000000,0.000000,0.000000,0.000000 ThumbRight:0.000000,0.000000,0.000000,0.000000 WristLeft:-0.106416,0.828307,-0.079267,0.544334 WristRight:-0.093818,0.415769,-0.402276,0.810252 END:
KINECT_DATA POSITION:21.863979,-1.257452,-11.779034 HEAD_JOINT1:0.985414,0.148096,-0.000000,0.083822 LARM_JOINT2:0.827059,0.000000,-0.048460,-0.560022 LARM_JOINT3:0.968977,0.000000,-0.168503,-0.180803 LLEG_JOINT2:0.999443,0.016129,0.000000,0.029217 LLEG_JOINT4:0.995798,0.086029,0.000000,-0.031382 RARM_JOINT2:0.753535,0.000000,0.567359,0.332098 RARM_JOINT3:0.988541,0.000000,0.119958,0.091633 RLEG_JOINT2:0.997663,0.028975,0.000000,-0.061877 RLEG_JOINT4:0.996728,0.069196,0.000000,0.041776 WAIST:0.999846,-0.000000,0.015914,0.007386 WAIST_JOINT0:0.999419,-0.000000,0.026011,0.022044 WAIST_JOINT1:0.997731,0.067274,0.000000,-0.002762 END:
KINECT_DATA_Sensor  AnkleLeft:-0.070036,-0.693036,0.074191,0.713647 AnkleRight:0.058620,0.708212,0.079344,0.699074 ElbowLeft:-0.042609,0.913819,-0.188530,-0.357177 ElbowRight:-0.437709,0.897559,0.050149,0.016858 FootLeft:0.000000,0.000000,0.000000,0.000000 FootRight:0.000000,0.000000,0.000000,0.000000 HandLeft:-0.112085,0.731348,-0.034913,0.671824 HandRight:-0.087810,0.328111,-0.382832,0.859111 HandTipLeft:0.000000,0.000000,0.000000,0.000000 HandTipRight:0.000000,0.000000,0.000000,0.000000 Head:0.000000,0.000000,0.000000,0.000000 HipLeft:0.112174,-0.675445,0.710451,-0.162636 HipRight:-0.130857,0.680795,0.697474,-0.181450 KneeLeft:0.013953,-0.695295,0.037429,0.717614 KneeRight:-0.018961,0.718380,0.058689,0.692911 Neck:-0.026605,0.004798,0.996150,-0.083396 ShoulderLeft:-0.007857,0.775325,-0.627235,0.073385 ShoulderRight:-0.043190,0.795930,0.593619,-0.110666 SpineBase:-0.016397,0.002315,0.998974,-0.042156 SpineMid:-0.021483,0.002530,0.998877,-0.042144 SpineShoulder:-0.026636,0.004043,0.997715,-0.061951 ThumbLeft:0.000000,0.000000,0.000000,0.000000 ThumbRight:0.000000,0.000000,0.000000,0.000000 WristLeft:-0.092064,0.738093,-0.094737,0.661641 WristRight:-0.035400,0.339669,-0.445655,0.827505 END:
KINECT_DATA POSITION:21.838448,-1.264766,-11.745394 HEAD_JOINT1:0.985277,0.149021,-0.000000,0.083801 LARM_JOINT2:0.827533,0.000000,-0.047453,-0.559408 LARM_JOINT3:0.968316,0.000000,-0.172352,-0.180719 LLEG_JOINT2:0.999440,0.017421,0.000000,0.028581 LLEG_JOINT4:0.995753,0.086496,0.000000,-0.031526 RARM_JOINT2:0.754829,0.000000,0.573104,0.319037 RARM_JOINT3:0.988560,0.000000,0.110047,0.103141 RLEG_JOINT2:0.997626,0.029800,0.000000,-0.062077 RLEG_JOINT4:0.996821,0.068404,0.000000,0.040840 WAIST:0.999849,-0.000000,0.015564,0.007731 WAIST_JOINT0:0.999289,-0.000000,0.029330,0.023681 WAIST_JOINT1:0.997700,0.067735,0.000000,-0.002723 END:
KINECT_DATA_Sensor  AnkleLeft:-0.071347,-0.690974,0.075326,0.715395 AnkleRight:0.059251,0.718102,0.079044,0.688891 ElbowLeft:-0.042035,0.913487,-0.190041,-0.357294 ElbowRight:-0.441936,0.891917,0.083829,-0.046370 FootLeft:0.000000,0.000000,0.000000,0.000000 FootRight:0.000000,0.000000,0.000000,0.000000 HandLeft:-0.125041,0.796715,-0.031908,0.590416 HandRight:-0.110222,0.362109,-0.382667,0.842789 HandTipLeft:0.000000,0.000000,0.000000,0.000000 HandTipRight:0.000000,0.000000,0.000000,0.000000 Head:0.000000,0.000000,0.000000,0.000000 HipLeft:0.111811,-0.675090,0.710694,-0.163299 HipRight:-0.130389,0.681038,0.697304,-0.181529 KneeLeft:0.012837,-0.695559,0.038113,0.717342 KneeRight:-0.018260,0.718172,0.059184,0.693104 Neck:-0.030021,0.005457,0.996017,-0.083777 ShoulderLeft:-0.008883,0.775204,-0.627345,0.073609 ShoulderRight:-0.048852,0.797147,0.590575,-0.115723 SpineBase:-0.016059,0.002921,0.998952,-0.042766 SpineMid:-0.022985,0.003217,0.998816,-0.042745 SpineShoulder:-0.030047,0.004702,0.997587,-0.062410 ThumbLeft:0.000000,0.000000,0.000000,0.000000 ThumbRight:0.000000,0.000000,0.000000,0.000000 WristLeft:-0.100473,0.802925,-0.084936,0.581379 WristRight:-0.054904,0.377282,-0.429766,0.818501 END:
KINECT_DATA POSITION:21.823479,-1.280283,-11.743843 HEAD_JOINT1:0.985349,0.148126,-0.000000,0.084532 LARM_JOINT2:0.827711,0.000000,-0.048163,-0.559083 LARM_JOINT3:0.967750,0.000000,-0.174268,-0.181906 LLEG_JOINT2:0.999452,0.017766,0.000000,0.027920 LLEG_JOINT4:0.995858,0.085469,0.000000,-0.031031 RARM_JOINT2:0.759686,0.000000,0.555538,0.338015 RARM_JOINT3:0.988042,0.000000,0.128377,0.085395 RLEG_JOINT2:0.997589,0.029768,0.000000,-0.062685 RLEG_JOINT4:0.996633,0.070634,0.000000,0.041628 WAIST:0.999850,-0.000000,0.015282,0.008170 WAIST_JOINT0:0.999055,-0.000000,0.034705,0.026181 WAIST_JOINT1:0.997655,0.068373,0.000000,-0.003151 END:
KINECT_DATA_Sensor  AnkleLeft:0.074461,0.727628,-0.071281,-0.678183 AnkleRight:0.059055,0.698684,0.081773,0.708284 ElbowLeft:-0.041865,0.914171,-0.190404,-0.355366 ElbowRight:-0.428033,0.901410,0.064538,0.009110 FootLeft:0.000000,0.000000,0.000000,0.000000 FootRight:0.000000,0.000000,0.000000,0.000000 HandLeft:-0.133936,0.813506,-0.029136,0.565173 HandRight:-0.076900,0.304526,-0.411149,0.855749 HandTipLeft:0.000000,0.000000,0.000000,0.000000 HandTipRight:0.000000,0.000000,0.000000,0.000000 Head:0.000000,0.000000,0.000000,0.000000 HipLeft:0.111568,-0.674802,0.710932,-0.163617 HipRight:-0.129811,0.681393,0.697045,-0.181606 KneeLeft:0.012449,-0.695742,0.038188,0.717167 KneeRight:-0.018390,0.717999,0.059282,0.693272 Neck:-0.035198,0.005911,0.995788,-0.084448 ShoulderLeft:-0.011190,0.775366,-0.627033,0.074241 ShoulderRight:-0.058224,0.798717,0.585975,-0.123668 SpineBase:-0.015814,0.003052,0.998936,-0.043207 SpineMid:-0.025412,0.003467,0.998738,-0.043176 SpineShoulder:-0.035233,0.005083,0.997379,-0.062991 ThumbLeft:0.000000,0.000000,0.000000,0.000000 ThumbRight:0.000000,0.000000,0.000000,0.000000 WristLeft:-0.103203,0.820657,-0.081018,0.556154 WristRight:-0.043957,0.316531,-0.429434,0.844667 END:
KINECT_DATA POSITION:21.777668,-1.295804,-11.749792 HEAD_JOINT1:0.985500,0.147211,-0.000000,0.084376 LARM_JOINT2:0.827827,0.000000,-0.049386,-0.558805 LARM_JOINT3:0.968561,0.000000,-0.170403,-0.181250 LLEG_JOINT2:0.999454,0.018045,0.000000,0.027690 LLEG_JOINT4:0.995957,0.084150,0.000000,-0.031437 RARM_JOINT2:0.755871,0.000000,0.575613,0.311975 RARM_JOINT3:0.989261,0.000000,0.098359,0.108114 RLEG_JOINT2:0.997607,0.028783,0.000000,-0.062871 RLEG_JOINT4:0.996619,0.070823,0.000000,0.041642 WAIST:0.999856,-0.000000,0.014742,0.008373 WAIST_JOINT0:0.998904,-0.000000,0.037827,0.027553 WAIST_JOINT1:0.997641,0.068562,0.000000,-0.003504 END:
KINECT_DATA_Sensor  AnkleLeft:0.073252,0.721631,-0.071014,-0.684719 AnkleRight:0.059529,0.706624,0.080452,0.700476 ElbowLeft:-0.042855,0.914262,-0.190130,-0.355160 ElbowRight:-0.440361,0.885760,0.111282,-0.095534 FootLeft:0.000000,0.000000,0.000000,0.000000 FootRight:0.000000,0.000000,0.000000,0.000000 HandLeft:-0.119651,0.792386,-0.026387,0.597588 HandRight:-0.131119,0.386181,-0.379030,0.830667 HandTipLeft:0.000000,0.000000,0.000000,0.000000 HandTipRight:0.000000,0.000000,0.000000,0.000000 Head:0.000000,0.000000,0.000000,0.000000 HipLeft:0.111397,-0.674620,0.711089,-0.163805 HipRight:-0.128920,0.681608,0.697079,-0.181304 KneeLeft:0.012250,-0.696114,0.038357,0.716802 KneeRight:-0.019034,0.717619,0.058576,0.693707 Neck:-0.038260,0.006108,0.995662,-0.084596 ShoulderLeft:-0.012353,0.775382,-0.626985,0.074293 ShoulderRight:-0.063584,0.799547,0.583344,-0.128031 SpineBase:-0.015300,0.002963,0.998930,-0.043554 SpineMid:-0.026664,0.003458,0.998691,-0.043518 SpineShoulder:-0.038306,0.005197,0.997254,-0.063168 ThumbLeft:0.000000,0.000000,0.000000,0.000000 ThumbRight:0.000000,0.000000,0.000000,0.000000 WristLeft:-0.100150,0.798355,-0.085681,0.587587 WristRight:-0.076601,0.403420,-0.412912,0.812950 END:
KINECT_DATA POSITION:21.751926,-1.307435,-11.750067 HEAD_JOINT1:0.985580,0.146993,-0.000000,0.083816 LARM_JOINT2:0.827852,0.000000,-0.049249,-0.558781 LARM_JOINT3:0.968443,0.000000,-0.170644,-0.181656 LLEG_JOINT2:0.999480,0.017359,0.000000,0.027158 LLEG_JOINT4:0.996097,0.083133,0.000000,-0.029651 RARM_JOINT2:0.755325,0.000000,0.577617,0.309585 RARM_JOINT3:0.988857,0.000000,0.097068,0.112869 RLEG_JOINT2:0.997606,0.029146,0.000000,-0.062707 RLEG_JOINT4:0.996745,0.067164,0.000000,0.044592 WAIST:0.999864,-0.000000,0.014066,0.008647 WAIST_JOINT0:0.998926,-0.000000,0.037289,0.027512 WAIST_JOINT1:0.997632,0.068679,0.000000,-0.003791 END:
KINECT_DATA_Sensor  AnkleLeft:-0.067263,-0.687024,0.074555,0.719663 AnkleRight:0.058298,0.693133,0.076822,0.714329 ElbowLeft:-0.043409,0.913305,-0.190062,-0.357584 ElbowRight:-0.440639,0.883313,0.117677,-0.108389 FootLeft:0.000000,0.000000,0.000000,0.000000 FootRight:0.000000,0.000000,0.000000,0.000000 HandLeft:-0.117700,0.823567,-0.015740,0.554650 HandRight:-0.078151,0.288032,-0.389453,0.871353 HandTipLeft:0.000000,0.000000,0.000000,0.000000 HandTipRight:0.000000,0.000000,0.000000,0.000000 Head:0.000000,0.000000,0.000000,0.000000 HipLeft:0.111464,-0.674386,0.711225,-0.164129 HipRight:-0.128208,0.681922,0.697007,-0.180902 KneeLeft:0.012588,-0.696581,0.037684,0.716377 KneeRight:-0.018425,0.717182,0.058544,0.694178 Neck:-0.037828,0.006136,0.995672,-0.084664 ShoulderLeft:-0.012743,0.775597,-0.626657,0.074751 ShoulderRight:-0.063399,0.799916,0.582909,-0.127798 SpineBase:-0.014647,0.003081,0.998930,-0.043756 SpineMid:-0.026113,0.003583,0.998696,-0.043717 SpineShoulder:-0.037870,0.005251,0.997262,-0.063294 ThumbLeft:0.000000,0.000000,0.000000,0.000000 ThumbRight:0.000000,0.000000,0.000000,0.000000 WristLeft:-0.105981,0.828479,-0.081117,0.543885 WristRight:-0.028295,0.304572,-0.416640,0.856064 END:
KINECT_DATA POSITION:21.728931,-1.322011,-11.739790 HEAD_JOINT1:0.985475,0.147621,-0.000000,0.083942 LARM_JOINT2:0.827942,0.000000,-0.048778,-0.558689 LARM_JOINT3:0.968527,0.000000,-0.168540,-0.183168 LLEG_JOINT2:0.999472,0.017767,0.000000,0.027189 LLEG_JOINT4:0.995943,0.084379,0.000000,-0.031283 RARM_JOINT2:0.756100,0.000000,0.577294,0.308292 RARM_JOINT3:0.988616,0.000000,0.100271,0.112180 RLEG_JOINT2:0.997604,0.029125,0.000000,-0.062758 RLEG_JOINT4:0.996506,0.070344,0.000000,0.045035 WAIST:0.999861,-0.000000,0.014187,0.008783 WAIST_JOINT0:0.998834,-0.000000,0.039085,0.028325 WAIST_JOINT1:0.997645,0.068471,0.000000,-0.004080 END:
KINECT_DATA_Sensor  AnkleLeft:-0.069360,-0.685635,0.074758,0.720767 AnkleRight:0.060732,0.692087,0.078838,0.714921 ElbowLeft:-0.043333,0.913018,-0.190113,-0.358299 ElbowRight:-0.440413,0.882037,0.122186,-0.114539 FootLeft:0.000000,0.000000,0.000000,0.000000 FootRight:0.000000,0.000000,0.000000,0.000000 HandLeft:-0.111143,0.790534,-0.012740,0.602113 HandRight:-0.119196,0.369911,-0.390574,0.834512 HandTipLeft:0.000000,0.000000,0.000000,0.000000 HandTipRight:0.000000,0.000000,0.000000,0.000000 Head:0.000000,0.000000,0.000000,0.000000 HipLeft:0.111440,-0.674337,0.711321,-0.163932 HipRight:-0.128299,0.681989,0.696906,-0.180977 KneeLeft:0.012409,-0.696483,0.038088,0.716454 KneeRight:-0.018388,0.717278,0.058466,0.694087 Neck:-0.039503,0.006106,0.995631,-0.084389 ShoulderLeft:-0.014026,0.775672,-0.626523,0.074864 ShoulderRight:-0.067003,0.800375,0.581333,-0.130241 SpineBase:-0.014784,0.002989,0.998932,-0.043678 SpineMid:-0.027007,0.003523,0.998676,-0.043638 SpineShoulder:-0.039553,0.005186,0.997210,-0.063096 ThumbLeft:0.000000,0.000000,0.000000,0.000000 ThumbRight:0.000000,0.000000,0.000000,0.000000 WristLeft:-0.101484,0.796484,-0.087097,0.589686 WristRight:-0.067958,0.388124,-0.410102,0.822532 END:
KINECT_DATA POSITION:21.706684,-1.343647,-11.754978 HEAD_JOINT1:0.985537,0.147681,-0.000000,0.083110 LARM_JOINT2:0.827690,0.000000,-0.048553,-0.559082 LARM_JOINT3:0.968669,0.000000,-0.168579,-0.182375 LLEG_JOINT2:0.999494,0.016992,0.000000,0.026900 LLEG_JOINT4:0.996150,0.082430,0.000000,-0.029851 RARM_JOINT2:0.757855,0.000000,0.572723,0.312480 RARM_JOINT3:0.988536,0.000000,0.102333,0.111013 RLEG_JOINT2:0.997581,0.029049,0.000000,-0.063157 RLEG_JOINT4:0.996541,0.070142,0.000000,0.044564 WAIST:0.999860,-0.000000,0.014062,0.009090 WAIST_JOINT0:0.998748,-0.000000,0.040550,0.029295 WAIST_JOINT1:0.997651,0.068348,0.000000,-0.004537 END:
KINECT_DATA_Sensor  AnkleLeft:-0.066318,-0.685269,0.073964,0.721483 AnkleRight:0.060850,0.698482,0.078460,0.708706 ElbowLeft:-0.043415,0.912475,-0.189509,-0.359986 ElbowRight:-0.439872,0.887156,0.110250,-0.085503 FootLeft:0.000000,0.000000,0.000000,0.000000 FootRight:0.000000,0.000000,0.000000,0.000000 HandLeft:-0.108962,0.780075,-0.015228,0.615937 HandRight:-0.100885,0.327976,-0.382260,0.857981 HandTipLeft:0.000000,0.000000,0.000000,0.000000 HandTipRight:0.000000,0.000000,0.000000,0.000000 Head:0.000000,0.000000,0.000000,0.000000 HipLeft:0.111459,-0.674159,0.711508,-0.163835 HipRight:-0.128108,0.682209,0.696736,-0.180936 KneeLeft:0.012987,-0.696543,0.037558,0.716414 KneeRight:-0.018502,0.717207,0.058477,0.694155 Neck:-0.041013,0.006088,0.995588,-0.084177 ShoulderLeft:-0.014418,0.775861,-0.626328,0.074462 ShoulderRight:-0.069437,0.801371,0.579296,-0.131909 SpineBase:-0.014690,0.002889,0.998933,-0.043679 SpineMid:-0.027702,0.003458,0.998657,-0.043637 SpineShoulder:-0.041068,0.005148,0.997156,-0.062988 ThumbLeft:0.000000,0.000000,0.000000,0.000000 ThumbRight:0.000000,0.000000,0.000000,0.000000 WristLeft:-0.100452,0.785905,-0.089208,0.603576 WristRight:-0.046858,0.344714,-0.418390,0.839003 END:
KINECT_DATA POSITION:21.697311,-1.364599,-11.804426 HEAD_JOINT1:0.985660,0.147384,-0.000000,0.082176 LARM_JOINT2:0.827822,0.000000,-0.047358,-0.558989 LARM_JOINT3:0.969467,0.000000,-0.165505,-0.180949 LLEG_JOINT2:0.999498,0.016816,0.000000,0.026834 LLEG_JOINT4:0.996021,0.084007,0.000000,-0.029761 RARM_JOINT2:0.762798,0.000000,0.557639,0.327382 RARM_JOINT3:0.987952,0.000000,0.121115,0.096342 RLEG_JOINT2:0.997578,0.028872,0.000000,-0.063279 RLEG_JOINT4:0.996642,0.068368,0.000000,0.045067 WAIST:0.999865,-0.000000,0.013770,0.008996 WAIST_JOINT0:0.998733,-0.000000,0.040562,0.029782 WAIST_JOINT1:0.997684,0.067877,0.000000,-0.004406 END:
KINECT_DATA_Sensor  AnkleLeft:-0.067323,-0.685149,0.074935,0.721403 AnkleRight:0.063666,0.734414,0.073622,0.671687 ElbowLeft:-0.043138,0.912345,-0.189916,-0.360135 ElbowRight:-0.435142,0.897528,0.070522,0.011069 FootLeft:0.000000,0.000000,0.000000,0.000000 FootRight:0.000000,0.000000,0.000000,0.000000 HandLeft:-0.094747,0.812605,-0.010841,0.574960 HandRight:-0.118775,0.360031,-0.371838,0.847353 HandTipLeft:0.000000,0.000000,0.000000,0.000000 HandTipRight:0.000000,0.000000,0.000000,0.000000 Head:0.000000,0.000000,0.000000,0.000000 HipLeft:0.111530,-0.674174,0.711488,-0.163815 HipRight:-0.127993,0.682194,0.696876,-0.180536 KneeLeft:0.013010,-0.696765,0.037318,0.716210 KneeRight:-0.018761,0.716987,0.058508,0.694373 Neck:-0.041161,0.006145,0.995631,-0.083585 ShoulderLeft:-0.015631,0.775976,-0.626131,0.074684 ShoulderRight:-0.070903,0.802176,0.577942,-0.132173 SpineBase:-0.014382,0.003035,0.998943,-0.043542 SpineMid:-0.027609,0.003612,0.998665,-0.043498 SpineShoulder:-0.041211,0.005237,0.997177,-0.062556 ThumbLeft:0.000000,0.000000,0.000000,0.000000 ThumbRight:0.000000,0.000000,0.000000,0.000000 WristLeft:-0.104470,0.814691,-0.084162,0.564164 WristRight:-0.062692,0.373602,-0.435288,0.816710 END:
KINECT_DATA POSITION:21.701653,-1.370782,-11.829996 HEAD_JOINT1:0.985654,0.147395,-0.000000,0.082219 LARM_JOINT2:0.827785,0.000000,-0.047330,-0.559046 LARM_JOINT3:0.969431,0.000000,-0.168205,-0.178635 LLEG_JOINT2:0.999506,0.016152,0.000000,0.026979 LLEG_JOINT4:0.995953,0.085492,0.000000,-0.027714 RARM_JOINT2:0.759579,0.000000,0.563326,0.325121 RARM_JOINT3:0.988571,0.000000,0.115586,0.096786 RLEG_JOINT2:0.997605,0.028339,0.000000,-0.063091 RLEG_JOINT4:0.996568,0.070033,0.000000,0.044140 WAIST:0.999868,-0.000000,0.013557,0.008956 WAIST_JOINT0:0.998708,-0.000000,0.040994,0.030031 WAIST_JOINT1:0.997702,0.067613,0.000000,-0.004372 END:
KINECT_DATA_Sensor  AnkleLeft:-0.066380,-0.685199,0.077060,0.721220 AnkleRight:0.059388,0.692835,0.078627,0.714332 ElbowLeft:-0.043171,0.912804,-0.189808,-0.359025 ElbowRight:-0.437020,0.896010,0.077398,-0.013780 FootLeft:0.000000,0.000000,0.000000,0.000000 FootRight:0.000000,0.000000,0.000000,0.000000 HandLeft:-0.103878,0.855207,-0.016552,0.507501 HandRight:-0.109410,0.361924,-0.382173,0.843198 HandTipLeft:0.000000,0.000000,0.000000,0.000000 HandTipRight:0.000000,0.000000,0.000000,0.000000 Head:0.000000,0.000000,0.000000,0.000000 HipLeft:0.111674,-0.674175,0.711474,-0.163772 HipRight:-0.127950,0.682218,0.696945,-0.180206 KneeLeft:0.013566,-0.696917,0.036929,0.716072 KneeRight:-0.019015,0.716825,0.058029,0.694574 Neck:-0.041647,0.006184,0.995634,-0.083307 ShoulderLeft:-0.016098,0.775908,-0.626217,0.074570 ShoulderRight:-0.072054,0.802385,0.577388,-0.132705 SpineBase:-0.014160,0.003121,0.998954,-0.043363 SpineMid:-0.027731,0.003710,0.998670,-0.043317 SpineShoulder:-0.041694,0.005294,0.997173,-0.062293 ThumbLeft:0.000000,0.000000,0.000000,0.000000 ThumbRight:0.000000,0.000000,0.000000,0.000000 WristLeft:-0.110230,0.856207,-0.075536,0.499053 WristRight:-0.067736,0.372910,-0.429630,0.819615 END:
KINECT_DATA POSITION:21.719402,-1.389555,-11.860275 HEAD_JOINT1:0.985592,0.147772,-0.000000,0.082291 LARM_JOINT2:0.827889,0.000000,-0.047437,-0.558882 LARM_JOINT3:0.968300,0.000000,-0.170807,-0.182262 LLEG_JOINT2:0.999526,0.015468,0.000000,0.026631 LLEG_JOINT4:0.995797,0.087158,0.000000,-0.028155 RARM_JOINT2:0.763325,0.000000,0.558249,0.325104 RARM_JOINT3:0.987982,0.000000,0.119208,0.098396 RLEG_JOINT2:0.997611,0.027721,0.000000,-0.063275 RLEG_JOINT4:0.996457,0.071534,0.000000,0.044221 WAIST:0.999865,-0.000000,0.013757,0.009027 WAIST_JOINT0:0.998670,-0.000000,0.041813,0.030167 WAIST_JOINT1:0.997700,0.067642,0.000000,-0.004498 END:
KINECT_DATA_Sensor  AnkleLeft:0.073136,0.736529,-0.072003,-0.668574 AnkleRight:0.060170,0.694842,0.079133,0.712259 ElbowLeft:-0.043223,0.912758,-0.189917,-0.359077 ElbowRight:-0.436003,0.896684,0.076537,0.000720 FootLeft:0.000000,0.000000,0.000000,0.000000 FootRight:0.000000,0.000000,0.000000,0.000000 HandLeft:-0.116632,0.776484,-0.023447,0.618805 HandRight:-0.094193,0.301156,-0.379724,0.869622 HandTipLeft:0.000000,0.000000,0.000000,0.000000 HandTipRight:0.000000,0.000000,0.000000,0.000000 Head:0.000000,0.000000,0.000000,0.000000 HipLeft:0.111455,-0.674132,0.711570,-0.163686 HipRight:-0.128001,0.682216,0.696902,-0.180346 KneeLeft:0.013858,-0.696768,0.036255,0.716246 KneeRight:-0.019543,0.716951,0.057660,0.694459 Neck:-0.042423,0.006125,0.995601,-0.083319 ShoulderLeft:-0.016245,0.776139,-0.625948,0.074386 ShoulderRight:-0.073239,0.802545,0.576793,-0.133671 SpineBase:-0.014365,0.003179,0.998947,-0.043451 SpineMid:-0.028211,0.003781,0.998652,-0.043403 SpineShoulder:-0.042469,0.005275,0.997138,-0.062322 ThumbLeft:0.000000,0.000000,0.000000,0.000000 ThumbRight:0.000000,0.000000,0.000000,0.000000 WristLeft:-0.099627,0.782953,-0.089437,0.607504 WristRight:-0.033988,0.317263,-0.436173,0.841393 END:
KINECT_DATA POSITION:21.733122,-1.402268,-11.892593 HEAD_JOINT1:0.985519,0.148272,-0.000000,0.082261 LARM_JOINT2:0.827778,0.000000,-0.047817,-0.559014 LARM_JOINT3:0.968626,0.000000,-0.170275,-0.181028 LLEG_JOINT2:0.999530,0.015400,0.000000,0.026491 LLEG_JOINT4:0.996065,0.084326,0.000000,-0.027259 RARM_JOINT2:0.767605,0.000000,0.558043,0.315230 RARM_JOINT3:0.987173,0.000000,0.117521,0.108062 RLEG_JOINT2:0.997584,0.027144,0.000000,-0.063946 RLEG_JOINT4:0.996437,0.071192,0.000000,0.045218 WAIST:0.999866,-0.000000,0.013700,0.008998 WAIST_JOINT0:0.998488,-0.000000,0.045256,0.031211 WAIST_JOINT1:0.997694,0.067731,0.000000,-0.004443 END:
KINECT_DATA_Sensor  AnkleLeft:-0.064775,-0.682959,0.075928,0.723606 AnkleRight:0.059238,0.690022,0.078656,0.717059 ElbowLeft:-0.043249,0.913073,-0.189711,-0.358380 ElbowRight:-0.437675,0.892913,0.100462,-0.032467 FootLeft:0.000000,0.000000,0.000000,0.000000 FootRight:0.000000,0.000000,0.000000,0.000000 HandLeft:-0.113870,0.796335,-0.023120,0.593591 HandRight:-0.116976,0.308742,-0.377123,0.865317 HandTipLeft:0.000000,0.000000,0.000000,0.000000 HandTipRight:0.000000,0.000000,0.000000,0.000000 Head:0.000000,0.000000,0.000000,0.000000 HipLeft:0.111309,-0.674090,0.711601,-0.163816 HipRight:-0.127860,0.682165,0.696975,-0.180356 KneeLeft:0.013791,-0.696815,0.036086,0.716209 KneeRight:-0.020444,0.716881,0.057738,0.694499 Neck:-0.045840,0.006422,0.995442,-0.083378 ShoulderLeft:-0.016840,0.776061,-0.626096,0.073824 ShoulderRight:-0.078535,0.802919,0.574552,-0.137994 SpineBase:-0.014304,0.003280,0.998940,-0.043626 SpineMid:-0.029855,0.003959,0.998596,-0.043570 SpineShoulder:-0.045892,0.005531,0.996981,-0.062395 ThumbLeft:0.000000,0.000000,0.000000,0.000000 ThumbRight:0.000000,0.000000,0.000000,0.000000 WristLeft:-0.102329,0.801242,-0.086043,0.583213 WristRight:-0.035433,0.332733,-0.427995,0.839556 END:
KINECT_DATA POSITION:21.730892,-1.423274,-11.926043 HEAD_JOINT1:0.985610,0.148096,-0.000000,0.081493 LARM_JOINT2:0.827604,0.000000,-0.048089,-0.559249 LARM_JOINT3:0.968434,0.000000,-0.170465,-0.181873 LLEG_JOINT2:0.999541,0.015318,0.000000,0.026133 LLEG_JOINT4:0.995819,0.086505,0.000000,-0.029364 RARM_JOINT2:0.771857,0.000000,0.536991,0.340408 RARM_JOINT3:0.986782,0.000000,0.141411,0.079143 RLEG_JOINT2:0.997582,0.026002,0.000000,-0.064449 RLEG_JOINT4:0.996457,0.070793,0.000000,0.045417 WAIST:0.999878,-0.000000,0.012643,0.009127 WAIST_JOINT0:0.998240,-0.000000,0.049222,0.033081 WAIST_JOINT1:0.997667,0.068128,0.000000,-0.004391 END:
KINECT_DATA_Sensor  AnkleLeft:-0.067487,-0.680217,0.076132,0.725917 AnkleRight:0.058266,0.690401,0.077507,0.716899 ElbowLeft:-0.043557,0.912872,-0.189534,-0.358949 ElbowRight:-0.424803,0.898719,0.045671,0.098801 FootLeft:0.000000,0.000000,0.000000,0.000000 FootRight:0.000000,0.000000,0.000000,0.000000 HandLeft:-0.115698,0.802253,-0.016234,0.585441 HandRight:-0.123496,0.277994,-0.369743,0.877928 HandTipLeft:0.000000,0.000000,0.000000,0.000000 HandTipRight:0.000000,0.000000,0.000000,0.000000 Head:0.000000,0.000000,0.000000,0.000000 HipLeft:0.111549,-0.673876,0.711596,-0.164557 HipRight:-0.126913,0.682424,0.697023,-0.179861 KneeLeft:0.013724,-0.697570,0.035856,0.715488 KneeRight:-0.021446,0.716118,0.057209,0.695301 Neck:-0.049622,0.007195,0.995215,-0.083857 ShoulderLeft:-0.017348,0.775801,-0.626454,0.073398 ShoulderRight:-0.084316,0.803671,0.571485,-0.142860 SpineBase:-0.013258,0.003448,0.998938,-0.043982 SpineMid:-0.031185,0.004237,0.998540,-0.043913 SpineShoulder:-0.049691,0.006061,0.996775,-0.062723 ThumbLeft:0.000000,0.000000,0.000000,0.000000 ThumbRight:0.000000,0.000000,0.000000,0.000000 WristLeft:-0.103627,0.807871,-0.085198,0.573888 WristRight:-0.022241,0.302836,-0.457289,0.835873 END:
KINECT_DATA POSITION:21.675528,-1.419735,-12.004269 HEAD_JOINT1:0.985499,0.149740,-0.000000,0.079811 LARM_JOINT2:0.827597,0.000000,-0.047392,-0.559319 LARM_JOINT3:0.968562,0.000000,-0.166789,-0.184576 LLEG_JOINT2:0.999522,0.015225,0.000000,0.026894 LLEG_JOINT4:0.995349,0.091476,0.000000,-0.030216 RARM_JOINT2:0.774940,0.000000,0.541708,0.325608 RARM_JOINT3:0.985618,0.000000,0.140652,0.093673 RLEG_JOINT2:0.997685,0.024691,0.000000,-0.063367 RLEG_JOINT4:0.996208,0.073624,0.000000,0.046369 WAIST:0.999899,-0.000000,0.011390,0.008536 WAIST_JOINT0:0.998607,-0.000000,0.042932,0.030683 WAIST_JOINT1:0.997654,0.068350,0.000000,-0.003807 END:
KINECT_DATA_Sensor  AnkleLeft:0.075804,0.721573,-0.074922,-0.684085 AnkleRight:0.060691,0.691321,0.077399,0.715822 ElbowLeft:-0.042921,0.913519,-0.189767,-0.357252 ElbowRight:-0.432493,0.896901,0.069762,0.060420 FootLeft:0.000000,0.000000,0.000000,0.000000 FootRight:0.000000,0.000000,0.000000,0.000000 HandLeft:-0.108463,0.810129,0.001347,0.576129 HandRight:-0.149325,0.371466,-0.362488,0.841616 HandTipLeft:0.000000,0.000000,0.000000,0.000000 HandTipRight:0.000000,0.000000,0.000000,0.000000 Head:0.000000,0.000000,0.000000,0.000000 HipLeft:0.111774,-0.674117,0.711195,-0.165151 HipRight:-0.125849,0.682270,0.697627,-0.178850 KneeLeft:0.013938,-0.698500,0.035909,0.714572 KneeRight:-0.021935,0.715186,0.055965,0.696344 Neck:-0.043753,0.006868,0.995471,-0.084118 ShoulderLeft:-0.016906,0.775371,-0.626761,0.075395 ShoulderRight:-0.075874,0.802352,0.576080,-0.136402 SpineBase:-0.011954,0.003540,0.998948,-0.044141 SpineMid:-0.027637,0.004232,0.998637,-0.044080 SpineShoulder:-0.043804,0.005865,0.997035,-0.062986 ThumbLeft:0.000000,0.000000,0.000000,0.000000 ThumbRight:0.000000,0.000000,0.000000,0.000000 WristLeft:-0.104150,0.816116,-0.082789,0.562365 WristRight:-0.070759,0.389782,-0.445341,0.802954 END:
KINECT_DATA POSITION:21.642763,-1.421098,-12.037123 HEAD_JOINT1:0.985362,0.151378,-0.000000,0.078401 LARM_JOINT2:0.827028,0.000000,-0.047275,-0.560170 LARM_JOINT3:0.968946,0.000000,-0.166060,-0.183213 LLEG_JOINT2:0.999530,0.014341,0.000000,0.027089 LLEG_JOINT4:0.995713,0.087915,0.000000,-0.028755 RARM_JOINT2:0.775475,0.000000,0.540973,0.325556 RARM_JOINT3:0.984886,0.000000,0.144614,0.095327 RLEG_JOINT2:0.997702,0.022919,0.000000,-0.063755 RLEG_JOINT4:0.995730,0.079044,0.000000,0.047693 WAIST:0.999913,-0.000000,0.010245,0.008274 WAIST_JOINT0:0.998541,-0.000000,0.043944,0.031392 WAIST_JOINT1:0.997678,0.068014,0.000000,-0.003458 END:
KINECT_DATA_Sensor  AnkleLeft:0.072172,0.729169,-0.072426,-0.676652 AnkleRight:0.064556,0.696987,0.078888,0.709802 ElbowLeft:-0.042949,0.914119,-0.188817,-0.356217 ElbowRight:-0.432466,0.896715,0.070840,0.062099 FootLeft:0.000000,0.000000,0.000000,0.000000 FootRight:0.000000,0.000000,0.000000,0.000000 HandLeft:-0.107574,0.769563,-0.009029,0.629379 HandRight:-0.122971,0.322685,-0.373794,0.860831 HandTipLeft:0.000000,0.000000,0.000000,0.000000 HandTipRight:0.000000,0.000000,0.000000,0.000000 Head:0.000000,0.000000,0.000000,0.000000 HipLeft:0.112383,-0.674182,0.710954,-0.165511 HipRight:-0.125279,0.682342,0.697936,-0.177763 KneeLeft:0.014557,-0.699336,0.035235,0.713776 KneeRight:-0.023573,0.714302,0.055188,0.697259 Neck:-0.044814,0.007171,0.995454,-0.083735 ShoulderLeft:-0.017788,0.775534,-0.626561,0.075185 ShoulderRight:-0.078246,0.803154,0.574356,-0.137613 SpineBase:-0.010776,0.003740,0.998973,-0.043844 SpineMid:-0.027552,0.004476,0.998651,-0.043775 SpineShoulder:-0.044860,0.006177,0.997008,-0.062650 ThumbLeft:0.000000,0.000000,0.000000,0.000000 ThumbRight:0.000000,0.000000,0.000000,0.000000 WristLeft:-0.097886,0.776627,-0.089033,0.615908 WristRight:-0.044016,0.342345,-0.449317,0.824000 END:
KINECT_DATA POSITION:21.617851,-1.422480,-12.042570 HEAD_JOINT1:0.985721,0.150323,-0.000000,0.075882 LARM_JOINT2:0.826444,0.000000,-0.048588,-0.560918 LARM_JOINT3:0.969559,0.000000,-0.165092,-0.180832 LLEG_JOINT2:0.999527,0.014345,0.000000,0.027203 LLEG_JOINT4:0.995570,0.089523,0.000000,-0.028753 RARM_JOINT2:0.767886,0.000000,0.562702,0.306134 RARM_JOINT3:0.986771,0.000000,0.126560,0.101323 RLEG_JOINT2:0.997724,0.022610,0.000000,-0.063525 RLEG_JOINT4:0.995993,0.076612,0.000000,0.046129 WAIST:0.999910,-0.000000,0.010807,0.007988 WAIST_JOINT0:0.998392,-0.000000,0.047746,0.030554 WAIST_JOINT1:0.997755,0.066920,0.000000,-0.002693 END:
KINECT_DATA_Sensor  AnkleLeft:0.072972,0.723448,-0.073878,-0.682525 AnkleRight:0.062637,0.708473,0.077119,0.698710 ElbowLeft:-0.044235,0.914789,-0.187689,-0.354934 ElbowRight:-0.443342,0.888632,0.109142,-0.043231 FootLeft:0.000000,0.000000,0.000000,0.000000 FootRight:0.000000,0.000000,0.000000,0.000000 HandLeft:-0.110542,0.825406,-0.004813,0.553591 HandRight:-0.134567,0.362816,-0.411712,0.825075 HandTipLeft:0.000000,0.000000,0.000000,0.000000 HandTipRight:0.000000,0.000000,0.000000,0.000000 Head:0.000000,0.000000,0.000000,0.000000 HipLeft:0.112433,-0.674469,0.710796,-0.164983 HipRight:-0.126189,0.682183,0.697986,-0.177535 KneeLeft:0.014413,-0.698973,0.035123,0.714139 KneeRight:-0.023864,0.714653,0.054992,0.696905 Neck:-0.048499,0.007830,0.995384,-0.082440 ShoulderLeft:-0.016786,0.776295,-0.626029,0.071920 ShoulderRight:-0.082131,0.802423,0.574181,-0.140316 SpineBase:-0.011290,0.004101,0.998995,-0.043187 SpineMid:-0.029623,0.004893,0.998619,-0.043105 SpineShoulder:-0.048540,0.006792,0.996898,-0.061582 ThumbLeft:0.000000,0.000000,0.000000,0.000000 ThumbRight:0.000000,0.000000,0.000000,0.000000 WristLeft:-0.104677,0.830297,-0.080302,0.541480 WristRight:-0.074471,0.386726,-0.425020,0.815018 END:
KINECT_DATA POSITION:21.578665,-1.418002,-12.003374 HEAD_JOINT1:0.986817,0.145336,-0.000000,0.071202 LARM_JOINT2:0.825529,0.000000,-0.047734,-0.562337 LARM_JOINT3:0.971044,0.000000,-0.159522,-0.177840 LLEG_JOINT2:0.999524,0.013079,0.000000,0.027931 LLEG_JOINT4:0.995740,0.088287,0.000000,-0.026611 RARM_JOINT2:0.769935,0.000000,0.556831,0.311671 RARM_JOINT3:0.980754,0.000000,0.174073,0.088436 RLEG_JOINT2:0.997742,0.024169,0.000000,-0.062668 RLEG_JOINT4:0.996108,0.074369,0.000000,0.047315 WAIST:0.999828,-0.000000,0.016999,0.007371 WAIST_JOINT0:0.997985,-0.000000,0.056668,0.028525 WAIST_JOINT1:0.997943,0.064083,0.000000,-0.001756 END:
KINECT_DATA_Sensor  AnkleLeft:0.072084,0.738597,-0.071429,-0.666465 AnkleRight:0.065934,0.742543,0.073187,0.662515 ElbowLeft:-0.044872,0.912023,-0.186003,-0.362771 ElbowRight:-0.450851,0.888848,0.054577,0.060862 FootLeft:0.000000,0.000000,0.000000,0.000000 FootRight:0.000000,0.000000,0.000000,0.000000 HandLeft:-0.090558,0.774728,-0.012564,0.625650 HandRight:-0.108407,0.411321,-0.435677,0.793251 HandTipLeft:0.000000,0.000000,0.000000,0.000000 HandTipRight:0.000000,0.000000,0.000000,0.000000 Head:0.000000,0.000000,0.000000,0.000000 HipLeft:0.111030,-0.675386,0.710868,-0.161841 HipRight:-0.131931,0.680691,0.697509,-0.180929 KneeLeft:0.015210,-0.694575,0.034385,0.718437 KneeRight:-0.022971,0.718957,0.055766,0.692433 Neck:-0.057222,0.007682,0.995203,-0.078974 ShoulderLeft:-0.012973,0.776601,-0.626628,0.063712 ShoulderRight:-0.089819,0.799248,0.576015,-0.146089 SpineBase:-0.017403,0.004019,0.998969,-0.041725 SpineMid:-0.037025,0.004838,0.998435,-0.041638 SpineShoulder:-0.057255,0.006864,0.996596,-0.058921 ThumbLeft:0.000000,0.000000,0.000000,0.000000 ThumbRight:0.000000,0.000000,0.000000,0.000000 WristLeft:-0.096859,0.778393,-0.092065,0.613389 WristRight:-0.081672,0.418920,-0.465257,0.775481 END:
KINECT_DATA POSITION:21.441372,-1.247775,-11.930073 HEAD_JOINT1:0.987992,0.139577,-0.000000,0.066260 LARM_JOINT2:0.824837,0.000000,-0.051607,-0.563010 LARM_JOINT3:0.971479,0.000000,-0.160555,-0.174501 LLEG_JOINT2:0.999379,0.010029,0.000000,0.033784 LLEG_JOINT4:0.995388,0.092686,0.000000,-0.024734 RARM_JOINT2:0.778440,0.000000,0.574415,0.253136 RARM_JOINT3:0.965003,0.000000,0.219181,0.143976 RLEG_JOINT2:0.997910,0.029601,0.000000,-0.057437 RLEG_JOINT4:0.996343,0.070873,0.000000,0.047717 WAIST:0.999457,-0.000000,0.032679,0.004262 WAIST_JOINT0:0.997630,-0.000000,0.066486,0.017699 WAIST_JOINT1:0.997978,0.063507,-0.000000,0.002489 END:
KINECT_DATA_Sensor  AnkleLeft:0.072921,0.742074,-0.073164,-0.662311 AnkleRight:0.062632,0.705897,0.078272,0.701185 ElbowLeft:-0.044908,0.907599,-0.185505,-0.373946 ElbowRight:-0.478189,0.863872,0.133801,-0.084608 FootLeft:0.000000,0.000000,0.000000,0.000000 FootRight:0.000000,0.000000,0.000000,0.000000 HandLeft:-0.100769,0.873188,-0.010246,0.476742 HandRight:-0.007112,0.418610,-0.532906,0.735341 HandTipLeft:0.000000,0.000000,0.000000,0.000000 HandTipRight:0.000000,0.000000,0.000000,0.000000 Head:0.000000,0.000000,0.000000,0.000000 HipLeft:0.104586,-0.678062,0.711092,-0.153756 HipRight:-0.143735,0.675206,0.698234,-0.189488 KneeLeft:0.018775,-0.683312,0.034531,0.729068 KneeRight:-0.018578,0.729732,0.057893,0.681025 Neck:-0.067757,0.007808,0.994574,-0.078556 ShoulderLeft:-0.005782,0.775705,-0.628597,0.055804 ShoulderRight:-0.096807,0.785944,0.590373,-0.156142 SpineBase:-0.032819,0.003064,0.998644,-0.040288 SpineMid:-0.050128,0.003763,0.997925,-0.040229 SpineShoulder:-0.067843,0.006595,0.995961,-0.058446 ThumbLeft:0.000000,0.000000,0.000000,0.000000 ThumbRight:0.000000,0.000000,0.000000,0.000000 WristLeft:-0.109144,0.873929,-0.078384,0.467110 WristRight:-0.029615,0.425917,-0.449129,0.784857 END:
KINECT_DATA POSITION:21.528505,-0.956906,-11.801624 HEAD_JOINT1:0.988781,0.135988,-0.000000,0.061794 LARM_JOINT2:0.821777,0.000000,-0.054023,-0.567242 LARM_JOINT3:0.972254,0.000000,-0.158909,-0.171666 LLEG_JOINT2:0.999373,0.008423,0.000000,0.034396 LLEG_JOINT4:0.995551,0.092059,0.000000,-0.020094 RARM_JOINT2:0.780299,0.000000,0.577274,0.240599 RARM_JOINT3:0.959815,0.000000,0.240109,0.145268 RLEG_JOINT2:0.997654,0.035776,0.000000,-0.058357 RLEG_JOINT4:0.996196,0.067698,0.000000,0.054862 WAIST:0.998850,-0.000000,0.047896,0.002133 WAIST_JOINT0:0.997466,-0.000000,0.068825,0.018007 WAIST_JOINT1:0.998004,0.062786,-0.000000,0.006835 END:
KINECT_DATA_Sensor  AnkleLeft:0.070709,0.735046,-0.072943,-0.670363 AnkleRight:0.070200,0.748280,0.075507,0.655322 ElbowLeft:-0.045229,0.898424,-0.182016,-0.397063 ElbowRight:-0.493769,0.860860,0.107947,-0.058824 FootLeft:0.000000,0.000000,0.000000,0.000000 FootRight:0.000000,0.000000,0.000000,0.000000 HandLeft:-0.096780,0.786882,-0.017729,0.609209 HandRight:0.047812,0.380152,-0.506152,0.772663 HandTipLeft:0.000000,0.000000,0.000000,0.000000 HandTipRight:0.000000,0.000000,0.000000,0.000000 Head:0.000000,0.000000,0.000000,0.000000 HipLeft:0.096988,-0.681395,0.710545,-0.146356 HipRight:-0.156184,0.671739,0.696550,-0.197968 KneeLeft:0.018383,-0.672363,0.032640,0.739273 KneeRight:-0.017499,0.739958,0.064253,0.669349 Neck:-0.069481,0.008115,0.994465,-0.078402 ShoulderLeft:0.003692,0.774127,-0.631153,0.048578 ShoulderRight:-0.089143,0.784298,0.594806,-0.152105 SpineBase:-0.047763,0.004895,0.998088,-0.038936 SpineMid:-0.058532,0.005315,0.997514,-0.038881 SpineShoulder:-0.069549,0.007054,0.995873,-0.057886 ThumbLeft:0.000000,0.000000,0.000000,0.000000 ThumbRight:0.000000,0.000000,0.000000,0.000000 WristLeft:-0.093851,0.791612,-0.101343,0.595208 WristRight:0.028118,0.377881,-0.476625,0.793249 END:
KINECT_DATA POSITION:21.569447,-0.715276,-11.720764 HEAD_JOINT1:0.989121,0.135101,-0.000000,0.058196 LARM_JOINT2:0.820583,0.000000,-0.054027,-0.568968 LARM_JOINT3:0.972309,0.000000,-0.160399,-0.169961 LLEG_JOINT2:0.999397,0.010057,0.000000,0.033220 LLEG_JOINT4:0.995686,0.090829,0.000000,-0.018981 RARM_JOINT2:0.781329,0.000000,0.573375,0.246506 RARM_JOINT3:0.955288,0.000000,0.258724,0.143132 RLEG_JOINT2:0.997508,0.037556,0.000000,-0.059729 RLEG_JOINT4:0.996212,0.066106,0.000000,0.056488 WAIST:0.998663,-0.000000,0.051651,0.002266 WAIST_JOINT0:0.997155,-0.000000,0.072961,0.018921 WAIST_JOINT1:0.998023,0.062375,-0.000000,0.007690 END:
KINECT_DATA_Sensor  AnkleLeft:0.070205,0.722947,-0.073974,-0.683335 AnkleRight:0.070275,0.750414,0.075652,0.652853 ElbowLeft:-0.045858,0.894002,-0.180721,-0.407428 ElbowRight:-0.494457,0.865254,0.081086,-0.016491 FootLeft:0.000000,0.000000,0.000000,0.000000 FootRight:0.000000,0.000000,0.000000,0.000000 HandLeft:-0.101621,0.800982,-0.012698,0.589864 HandRight:0.084523,0.387091,-0.471377,0.787921 HandTipLeft:0.000000,0.000000,0.000000,0.000000 HandTipRight:0.000000,0.000000,0.000000,0.000000 Head:0.000000,0.000000,0.000000,0.000000 HipLeft:0.094713,-0.682631,0.710075,-0.144350 HipRight:-0.158843,0.672252,0.694996,-0.199566 KneeLeft:0.016356,-0.669657,0.033019,0.741756 KneeRight:-0.017463,0.742492,0.066331,0.666334 Neck:-0.073374,0.008944,0.994189,-0.078261 ShoulderLeft:0.009851,0.773443,-0.632351,0.042679 ShoulderRight:-0.087926,0.784066,0.595224,-0.152372 SpineBase:-0.051477,0.006058,0.997918,-0.038386 SpineMid:-0.062319,0.006475,0.997299,-0.038318 SpineShoulder:-0.073440,0.007808,0.995614,-0.057440 ThumbLeft:0.000000,0.000000,0.000000,0.000000 ThumbRight:0.000000,0.000000,0.000000,0.000000 WristLeft:-0.095826,0.806551,-0.102558,0.574260 WristRight:0.050011,0.363588,-0.496581,0.786581 END:
KINECT_DATA POSITION:21.447887,-0.547447,-11.729467 HEAD_JOINT1:0.989533,0.134315,-0.000000,0.052763 LARM_JOINT2:0.820286,0.000000,-0.054050,-0.569394 LARM_JOINT3:0.972104,0.000000,-0.161483,-0.170111 LLEG_JOINT2:0.999404,0.008147,0.000000,0.033547 LLEG_JOINT4:0.995712,0.090614,0.000000,-0.018631 RARM_JOINT2:0.773003,0.000000,0.583964,0.247897 RARM_JOINT3:0.956436,0.000000,0.255482,0.141279 RLEG_JOINT2:0.997487,0.037916,0.000000,-0.059854 RLEG_JOINT4:0.996002,0.067059,0.000000,0.059015 WAIST:0.998523,-0.000000,0.054274,0.002379 WAIST_JOINT0:0.996943,-0.000000,0.076126,0.017609 WAIST_JOINT1:0.998001,0.062695,-0.000000,0.008007 END:
KINECT_DATA_Sensor  AnkleLeft:0.068033,0.719491,-0.073313,-0.687262 AnkleRight:0.072768,0.751674,0.075076,0.651195 ElbowLeft:-0.045809,0.891243,-0.180667,-0.413457 ElbowRight:-0.497523,0.864983,0.063206,-0.016749 FootLeft:0.000000,0.000000,0.000000,0.000000 FootRight:0.000000,0.000000,0.000000,0.000000 HandLeft:-0.105365,0.849168,-0.001271,0.517505 HandRight:0.062629,0.343642,-0.460670,0.815948 HandTipLeft:0.000000,0.000000,0.000000,0.000000 HandTipRight:0.000000,0.000000,0.000000,0.000000 Head:0.000000,0.000000,0.000000,0.000000 HipLeft:0.093122,-0.683166,0.710000,-0.143222 HipRight:-0.160053,0.672146,0.694273,-0.201464 KneeLeft:0.017995,-0.667671,0.032105,0.743546 KneeRight:-0.017412,0.744250,0.066552,0.664349 Neck:-0.076284,0.009668,0.993922,-0.078775 ShoulderLeft:0.014381,0.774346,-0.631424,0.038525 ShoulderRight:-0.087036,0.783006,0.596506,-0.153320 SpineBase:-0.054111,0.005787,0.997767,-0.038730 SpineMid:-0.065132,0.006215,0.997108,-0.038664 SpineShoulder:-0.076400,0.007939,0.995373,-0.057727 ThumbLeft:0.000000,0.000000,0.000000,0.000000 ThumbRight:0.000000,0.000000,0.000000,0.000000 WristLeft:-0.103992,0.853412,-0.095932,0.501668 WristRight:0.095138,0.344214,-0.501527,0.787995 END:
KINECT_DATA POSITION:21.338324,-0.463567,-11.771786 HEAD_JOINT1:0.989567,0.135406,-0.000000,0.049226 LARM_JOINT2:0.819757,0.000000,-0.051988,-0.570346 LARM_JOINT3:0.971501,0.000000,-0.165299,-0.169890 LLEG_JOINT2:0.999384,0.007514,0.000000,0.034274 LLEG_JOINT4:0.995502,0.093105,0.000000,-0.017552 RARM_JOINT2:0.768958,0.000000,0.588774,0.249097 RARM_JOINT3:0.956343,0.000000,0.255525,0.141829 RLEG_JOINT2:0.997550,0.037410,0.000000,-0.059121 RLEG_JOINT4:0.995942,0.068073,0.000000,0.058877 WAIST:0.998482,-0.000000,0.055034,0.002360 WAIST_JOINT0:0.996697,-0.000000,0.079448,0.016853 WAIST_JOINT1:0.998009,0.062581,-0.000000,0.007866 END:
KINECT_DATA_Sensor  AnkleLeft:0.068481,0.718622,-0.075807,-0.687856 AnkleRight:0.073610,0.753261,0.074978,0.649274 ElbowLeft:-0.044678,0.888898,-0.180005,-0.418883 ElbowRight:-0.497184,0.864241,0.067080,-0.037353 FootLeft:0.000000,0.000000,0.000000,0.000000 FootRight:0.000000,0.000000,0.000000,0.000000 HandLeft:-0.120140,0.854420,-0.003144,0.505493 HandRight:0.114129,0.309282,-0.473311,0.816882 HandTipLeft:0.000000,0.000000,0.000000,0.000000 HandTipRight:0.000000,0.000000,0.000000,0.000000 Head:0.000000,0.000000,0.000000,0.000000 HipLeft:0.092955,-0.683452,0.709800,-0.142959 HipRight:-0.160622,0.672116,0.693951,-0.202222 KneeLeft:0.018917,-0.667073,0.032225,0.744054 KneeRight:-0.017275,0.744757,0.065683,0.663870 Neck:-0.079470,0.009678,0.993684,-0.078631 ShoulderLeft:0.017712,0.775136,-0.630591,0.034732 ShoulderRight:-0.087715,0.782479,0.596717,-0.154798 SpineBase:-0.054880,0.005494,0.997727,-0.038713 SpineMid:-0.067110,0.005968,0.996979,-0.038643 SpineShoulder:-0.079599,0.007870,0.995130,-0.057600 ThumbLeft:0.000000,0.000000,0.000000,0.000000 ThumbRight:0.000000,0.000000,0.000000,0.000000 WristLeft:-0.103928,0.861026,-0.095288,0.488624 WristRight:0.117011,0.306023,-0.487538,0.809299 END:
KINECT_DATA POSITION:21.202066,-0.358455,-11.882663 HEAD_JOINT1:0.989440,0.137697,-0.000000,0.045250 LARM_JOINT2:0.819636,0.000000,-0.050564,-0.570649 LARM_JOINT3:0.972279,0.000000,-0.164470,-0.166205 LLEG_JOINT2:0.999328,0.008166,0.000000,0.035724 LLEG_JOINT4:0.995798,0.089868,0.000000,-0.017606 RARM_JOINT2:0.761829,0.000000,0.596571,0.252426 RARM_JOINT3:0.956980,0.000000,0.256470,0.135689 RLEG_JOINT2:0.997628,0.036649,0.000000,-0.058268 RLEG_JOINT4:0.996065,0.067328,0.000000,0.057625 WAIST:0.998542,-0.000000,0.053945,0.002163 WAIST_JOINT0:0.996481,-0.000000,0.082271,0.016036 WAIST_JOINT1:0.997994,0.062818,-0.000000,0.007909 END:
KINECT_DATA_Sensor  AnkleLeft:0.066638,0.728825,-0.074380,-0.677378 AnkleRight:0.072482,0.754881,0.073998,0.647630 ElbowLeft:-0.044076,0.887803,-0.179924,-0.421296 ElbowRight:-0.497884,0.864926,0.053513,-0.033928 FootLeft:0.000000,0.000000,0.000000,0.000000 FootRight:0.000000,0.000000,0.000000,0.000000 HandLeft:-0.113788,0.820478,-0.015186,0.560034 HandRight:0.072789,0.377305,-0.490335,0.782250 HandTipLeft:0.000000,0.000000,0.000000,0.000000 HandTipRight:0.000000,0.000000,0.000000,0.000000 Head:0.000000,0.000000,0.000000,0.000000 HipLeft:0.093542,-0.683565,0.709407,-0.143983 HipRight:-0.159924,0.672158,0.694078,-0.202197 KneeLeft:0.019292,-0.667871,0.033581,0.743269 KneeRight:-0.017221,0.744016,0.064705,0.664799 Neck:-0.082395,0.009957,0.993427,-0.078837 ShoulderLeft:0.020093,0.775055,-0.630742,0.032416 ShoulderRight:-0.089220,0.781252,0.597494,-0.157120 SpineBase:-0.053785,0.005233,0.997773,-0.039113 SpineMid:-0.068018,0.005790,0.996903,-0.039034 SpineShoulder:-0.082540,0.007996,0.994878,-0.057805 ThumbLeft:0.000000,0.000000,0.000000,0.000000 ThumbRight:0.000000,0.000000,0.000000,0.000000 WristLeft:-0.095084,0.827454,-0.102519,0.543846 WristRight:0.082403,0.378028,-0.501305,0.773949 END:
KINECT_DATA POSITION:21.090485,-0.239675,-12.120211 HEAD_JOINT1:0.989163,0.140144,-0.000000,0.043774 LARM_JOINT2:0.820103,0.000000,-0.048260,-0.570178 LARM_JOINT3:0.973369,0.000000,-0.161167,-0.163025 LLEG_JOINT2:0.999265,0.007000,0.000000,0.037690 LLEG_JOINT4:0.995411,0.093225,0.000000,-0.021594 RARM_JOINT2:0.756701,0.000000,0.602518,0.253723 RARM_JOINT3:0.958166,0.000000,0.253918,0.132075 RLEG_JOINT2:0.997781,0.033659,0.000000,-0.057445 RLEG_JOINT4:0.995904,0.069347,0.000000,0.058023 WAIST:0.998605,-0.000000,0.052771,0.001536 WAIST_JOINT0:0.996406,-0.000000,0.083417,0.014726 WAIST_JOINT1:0.997909,0.064132,-0.000000,0.008022 END:
KINECT_DATA_Sensor  AnkleLeft:0.067973,0.711383,-0.075447,-0.695430 AnkleRight:0.072510,0.755438,0.072682,0.647127 ElbowLeft:-0.041739,0.887427,-0.181131,-0.421808 ElbowRight:-0.497542,0.865160,0.049021,-0.039347 FootLeft:0.000000,0.000000,0.000000,0.000000 FootRight:0.000000,0.000000,0.000000,0.000000 HandLeft:-0.097300,0.859734,-0.010013,0.501288 HandRight:0.062664,0.421477,-0.504407,0.751002 HandTipLeft:0.000000,0.000000,0.000000,0.000000 HandTipRight:0.000000,0.000000,0.000000,0.000000 Head:0.000000,0.000000,0.000000,0.000000 HipLeft:0.093503,-0.683811,0.708802,-0.145806 HipRight:-0.158495,0.671729,0.694637,-0.202826 KneeLeft:0.021068,-0.668730,0.033800,0.742438 KneeRight:-0.018995,0.743134,0.062395,0.665957 Neck:-0.083573,0.009645,0.993236,-0.080035 ShoulderLeft:0.021013,0.775209,-0.630493,0.032990 ShoulderRight:-0.089961,0.779582,0.598900,-0.159618 SpineBase:-0.052571,0.004754,0.997779,-0.040634 SpineMid:-0.067999,0.005381,0.996846,-0.040556 SpineShoulder:-0.083731,0.007679,0.994702,-0.059148 ThumbLeft:0.000000,0.000000,0.000000,0.000000 ThumbRight:0.000000,0.000000,0.000000,0.000000 WristLeft:-0.098263,0.862003,-0.095346,0.488061 WristRight:0.053922,0.417525,-0.503595,0.754425 END:
KINECT_DATA POSITION:21.070826,-0.083470,-12.352741 HEAD_JOINT1:0.989002,0.141523,-0.000000,0.042971 LARM_JOINT2:0.820133,0.000000,-0.048999,-0.570071 LARM_JOINT3:0.972702,0.000000,-0.165152,-0.163018 LLEG_JOINT2:0.999237,0.004958,0.000000,0.038738 LLEG_JOINT4:0.995660,0.090695,0.000000,-0.020856 RARM_JOINT2:0.749697,0.000000,0.612426,0.250777 RARM_JOINT3:0.959341,0.000000,0.248500,0.133837 RLEG_JOINT2:0.997771,0.033595,0.000000,-0.057653 RLEG_JOINT4:0.995935,0.066596,0.000000,0.060649 WAIST:0.998585,-0.000000,0.053178,0.000936 WAIST_JOINT0:0.996295,-0.000000,0.084854,0.014004 WAIST_JOINT1:0.997807,0.065621,-0.000000,0.008704 END:
KINECT_DATA_Sensor  AnkleLeft:0.065190,0.725540,-0.072253,-0.681264 AnkleRight:0.071901,0.756164,0.069418,0.646705 ElbowLeft:-0.041012,0.887060,-0.181532,-0.422479 ElbowRight:-0.500676,0.863346,0.041172,-0.047560 FootLeft:0.000000,0.000000,0.000000,0.000000 FootRight:0.000000,0.000000,0.000000,0.000000 HandLeft:-0.108490,0.849326,-0.016167,0.516347 HandRight:0.092173,0.356352,-0.485985,0.792676 HandTipLeft:0.000000,0.000000,0.000000,0.000000 HandTipRight:0.000000,0.000000,0.000000,0.000000 Head:0.000000,0.000000,0.000000,0.000000 HipLeft:0.092392,-0.684182,0.708355,-0.146942 HipRight:-0.158087,0.671135,0.694921,-0.204133 KneeLeft:0.022849,-0.668448,0.032801,0.742684 KneeRight:-0.019642,0.743342,0.062902,0.665658 Neck:-0.084960,0.009669,0.992999,-0.081496 ShoulderLeft:0.023138,0.774828,-0.630886,0.032993 ShoulderRight:-0.089774,0.777918,0.600502,-0.161808 SpineBase:-0.052909,0.004860,0.997696,-0.042187 SpineMid:-0.068855,0.005534,0.996722,-0.042104 SpineShoulder:-0.085117,0.007794,0.994491,-0.060680 ThumbLeft:0.000000,0.000000,0.000000,0.000000 ThumbRight:0.000000,0.000000,0.000000,0.000000 WristLeft:-0.096352,0.853683,-0.096787,0.502567 WristRight:0.107887,0.358811,-0.498968,0.781439 END:
KINECT_DATA POSITION:21.062281,0.007561,-12.558198 HEAD_JOINT1:0.988921,0.142083,-0.000000,0.042996 LARM_JOINT2:0.820338,0.000000,-0.050569,-0.569638 LARM_JOINT3:0.973468,0.000000,-0.163297,-0.160293 LLEG_JOINT2:0.999197,0.003915,0.000000,0.039877 LLEG_JOINT4:0.995519,0.092043,0.000000,-0.021660 RARM_JOINT2:0.746311,0.000000,0.617484,0.248462 RARM_JOINT3:0.961135,0.000000,0.241705,0.133409 RLEG_JOINT2:0.997858,0.031306,0.000000,-0.057443 RLEG_JOINT4:0.995740,0.069825,0.000000,0.060225 WAIST:0.998621,-0.000000,0.052499,0.000257 WAIST_JOINT0:0.996082,-0.000000,0.087301,0.014081 WAIST_JOINT1:0.997748,0.066458,-0.000000,0.009092 END:
KINECT_DATA_Sensor  AnkleLeft:-0.058627,-0.659507,0.078013,0.745337 AnkleRight:0.072190,0.757416,0.070473,0.645092 ElbowLeft:-0.041614,0.887424,-0.181401,-0.421711 ElbowRight:-0.502282,0.861722,0.042282,-0.057959 FootLeft:0.000000,0.000000,0.000000,0.000000 FootRight:0.000000,0.000000,0.000000,0.000000 HandLeft:-0.098612,0.801922,-0.028570,0.588541 HandRight:0.076141,0.358858,-0.488926,0.791438 HandTipLeft:0.000000,0.000000,0.000000,0.000000 HandTipRight:0.000000,0.000000,0.000000,0.000000 Head:0.000000,0.000000,0.000000,0.000000 HipLeft:0.092634,-0.684531,0.707768,-0.147986 HipRight:-0.157542,0.670728,0.695383,-0.204322 KneeLeft:0.023928,-0.668961,0.032456,0.742203 KneeRight:-0.021467,0.742786,0.061553,0.666348 Neck:-0.087278,0.009609,0.992715,-0.082503 ShoulderLeft:0.025238,0.774184,-0.631648,0.031984 ShoulderRight:-0.090856,0.776664,0.601291,-0.164278 SpineBase:-0.052179,0.004619,0.997710,-0.042796 SpineMid:-0.069641,0.005367,0.996643,-0.042709 SpineShoulder:-0.087445,0.007737,0.994241,-0.061461 ThumbLeft:0.000000,0.000000,0.000000,0.000000 ThumbRight:0.000000,0.000000,0.000000,0.000000 WristLeft:-0.086461,0.806476,-0.105208,0.575372 WristRight:0.106864,0.369409,-0.497280,0.777708 END:
KINECT_DATA POSITION:21.069809,0.096806,-12.744152 HEAD_JOINT1:0.988855,0.143001,-0.000000,0.041426 LARM_JOINT2:0.820165,0.000000,-0.052743,-0.569691 LARM_JOINT3:0.972660,0.000000,-0.164465,-0.163966 LLEG_JOINT2:0.999213,0.002309,0.000000,0.039587 LLEG_JOINT4:0.995744,0.089966,0.000000,-0.019997 RARM_JOINT2:0.744712,0.000000,0.619254,0.248854 RARM_JOINT3:0.959997,0.000000,0.246085,0.133601 RLEG_JOINT2:0.997807,0.030663,0.000000,-0.058657 RLEG_JOINT4:0.995805,0.067410,0.000000,0.061873 WAIST:0.998549,-0.000000,0.053843,0.000548 WAIST_JOINT0:0.996001,-0.000000,0.088206,0.014190 WAIST_JOINT1:0.997684,0.067354,-0.000000,0.009513 END:
KINECT_DATA_Sensor  AnkleLeft:0.062474,0.732090,-0.070643,-0.674648 AnkleRight:0.064587,0.702214,0.073503,0.705210 ElbowLeft:-0.041788,0.888256,-0.181655,-0.419829 ElbowRight:-0.501748,0.861886,0.039937,-0.061704 FootLeft:0.000000,0.000000,0.000000,0.000000 FootRight:0.000000,0.000000,0.000000,0.000000 HandLeft:-0.116934,0.822056,-0.016790,0.557018 HandRight:0.117942,0.336383,-0.489629,0.795739 HandTipLeft:0.000000,0.000000,0.000000,0.000000 HandTipRight:0.000000,0.000000,0.000000,0.000000 Head:0.000000,0.000000,0.000000,0.000000 HipLeft:0.091121,-0.684380,0.708046,-0.148299 HipRight:-0.157920,0.670615,0.694994,-0.205720 KneeLeft:0.025092,-0.667977,0.031406,0.743096 KneeRight:-0.022681,0.743638,0.061652,0.665348 Neck:-0.088291,0.010159,0.992548,-0.083369 ShoulderLeft:0.025971,0.773647,-0.632255,0.032404 ShoulderRight:-0.091628,0.776064,0.601443,-0.166119 SpineBase:-0.053500,0.005346,0.997587,-0.043916 SpineMid:-0.070795,0.006107,0.996509,-0.043816 SpineShoulder:-0.088447,0.008328,0.994091,-0.062383 ThumbLeft:0.000000,0.000000,0.000000,0.000000 ThumbRight:0.000000,0.000000,0.000000,0.000000 WristLeft:-0.089117,0.830144,-0.101403,0.540960 WristRight:0.124158,0.338492,-0.491739,0.792591 END:
KINECT_DATA POSITION:21.055225,0.143061,-12.839890 HEAD_JOINT1:0.988886,0.143046,-0.000000,0.040533 LARM_JOINT2:0.819945,0.000000,-0.053276,-0.569958 LARM_JOINT3:0.973428,0.000000,-0.162356,-0.161489 LLEG_JOINT2:0.999202,0.001554,0.000000,0.039912 LLEG_JOINT4:0.995724,0.089823,0.000000,-0.021584 RARM_JOINT2:0.736839,0.000000,0.628128,0.250048 RARM_JOINT3:0.958121,0.000000,0.252392,0.135285 RLEG_JOINT2:0.997847,0.030047,0.000000,-0.058299 RLEG_JOINT4:0.995623,0.069709,0.000000,0.062253 WAIST:0.998602,-0.000000,0.052860,0.000286 WAIST_JOINT0:0.995866,-0.000000,0.089646,0.014629 WAIST_JOINT1:0.997660,0.067657,-0.000000,0.009847 END:
KINECT_DATA_Sensor  AnkleLeft:0.062951,0.736291,-0.068633,-0.670225 AnkleRight:0.072168,0.758551,0.068580,0.643963 ElbowLeft:-0.042680,0.887102,-0.181121,-0.422401 ElbowRight:-0.503084,0.860766,0.032413,-0.070271 FootLeft:0.000000,0.000000,0.000000,0.000000 FootRight:0.000000,0.000000,0.000000,0.000000 HandLeft:-0.107372,0.833727,-0.013177,0.541476 HandRight:0.085155,0.393510,-0.504927,0.763510 HandTipLeft:0.000000,0.000000,0.000000,0.000000 HandTipRight:0.000000,0.000000,0.000000,0.000000 Head:0.000000,0.000000,0.000000,0.000000 HipLeft:0.091658,-0.684419,0.707752,-0.149184 HipRight:-0.157473,0.670591,0.695224,-0.205365 KneeLeft:0.025716,-0.668721,0.030934,0.742425 KneeRight:-0.022955,0.742949,0.061161,0.666153 Neck:-0.089681,0.010447,0.992389,-0.083742 ShoulderLeft:0.026812,0.772800,-0.633274,0.032019 ShoulderRight:-0.092793,0.775297,0.601821,-0.167677 SpineBase:-0.052487,0.005498,0.997632,-0.044097 SpineMid:-0.070969,0.006315,0.996488,-0.043988 SpineShoulder:-0.089835,0.008627,0.993947,-0.062644 ThumbLeft:0.000000,0.000000,0.000000,0.000000 ThumbRight:0.000000,0.000000,0.000000,0.000000 WristLeft:-0.090519,0.839702,-0.101275,0.525785 WristRight:0.107780,0.405769,-0.499605,0.757713 END:
KINECT_DATA POSITION:21.042938,0.197120,-12.910069 HEAD_JOINT1:0.989108,0.142076,-0.000000,0.038475 LARM_JOINT2:0.818882,0.000000,-0.043201,-0.572333 LARM_JOINT3:0.972392,0.000000,-0.166687,-0.163305 LLEG_JOINT2:0.999211,0.000100,0.000000,0.039709 LLEG_JOINT4:0.995739,0.090011,0.000000,-0.020036 RARM_JOINT2:0.736830,0.000000,0.622266,0.264323 RARM_JOINT3:0.954360,0.000000,0.270050,0.127558 RLEG_JOINT2:0.997888,0.029626,0.000000,-0.057806 RLEG_JOINT4:0.995755,0.067503,0.000000,0.062564 WAIST:0.998493,-0.000000,0.054882,0.000035 WAIST_JOINT0:0.996281,-0.000000,0.085040,0.013842 WAIST_JOINT1:0.997644,0.067786,-0.000000,0.010545 END:
KINECT_DATA_Sensor  AnkleLeft:0.060496,0.725811,-0.069494,-0.681696 AnkleRight:0.065219,0.707686,0.071780,0.699839 ElbowLeft:-0.036462,0.879708,-0.182276,-0.437676 ElbowRight:-0.493947,0.868416,0.013093,-0.041215 FootLeft:0.000000,0.000000,0.000000,0.000000 FootRight:0.000000,0.000000,0.000000,0.000000 HandLeft:-0.103785,0.866404,0.002976,0.488430 HandRight:0.067851,0.461959,-0.521690,0.714023 HandTipLeft:0.000000,0.000000,0.000000,0.000000 HandTipRight:0.000000,0.000000,0.000000,0.000000 Head:0.000000,0.000000,0.000000,0.000000 HipLeft:0.090330,-0.684755,0.707798,-0.148234 HipRight:-0.158746,0.670063,0.695114,-0.206477 KneeLeft:0.026424,-0.667241,0.029687,0.743781 KneeRight:-0.023174,0.744269,0.060647,0.664717 Neck:-0.085558,0.010320,0.992731,-0.084018 ShoulderLeft:0.019742,0.772086,-0.634013,0.038998 ShoulderRight:-0.094937,0.774441,0.602539,-0.167851 SpineBase:-0.054470,0.005728,0.997519,-0.044221 SpineMid:-0.069922,0.006413,0.996555,-0.044127 SpineShoulder:-0.085705,0.008522,0.994300,-0.062853 ThumbLeft:0.000000,0.000000,0.000000,0.000000 ThumbRight:0.000000,0.000000,0.000000,0.000000 WristLeft:-0.096878,0.870998,-0.095356,0.472106 WristRight:0.072391,0.466147,-0.516543,0.714598 END:
KINECT_DATA POSITION:21.040657,0.211859,-12.912357 HEAD_JOINT1:0.989255,0.141815,-0.000000,0.035535 LARM_JOINT2:0.818114,0.000000,-0.038077,-0.573794 LARM_JOINT3:0.972735,0.000000,-0.168644,-0.159206 LLEG_JOINT2:0.999225,0.000726,0.000000,0.039361 LLEG_JOINT4:0.995845,0.089415,0.000000,-0.017273 RARM_JOINT2:0.735129,0.000000,0.623277,0.266666 RARM_JOINT3:0.956989,0.000000,0.261818,0.124994 RLEG_JOINT2:0.997952,0.029159,0.000000,-0.056943 RLEG_JOINT4:0.995446,0.070280,0.000000,0.064403 WAIST:0.998429,0.000000,0.056027,-0.000439 WAIST_JOINT0:0.996242,-0.000000,0.085595,0.013268 WAIST_JOINT1:0.997643,0.067693,-0.000000,0.011271 END:
KINECT_DATA_Sensor  AnkleLeft:0.060001,0.730251,-0.070564,-0.676871 AnkleRight:0.066850,0.693699,0.073620,0.713367 ElbowLeft:-0.033217,0.876007,-0.182574,-0.445170 ElbowRight:-0.492862,0.868913,0.010718,-0.044302 FootLeft:0.000000,0.000000,0.000000,0.000000 FootRight:0.000000,0.000000,0.000000,0.000000 HandLeft:-0.095289,0.820413,-0.017907,0.563491 HandRight:0.074911,0.424162,-0.515375,0.740853 HandTipLeft:0.000000,0.000000,0.000000,0.000000 HandTipRight:0.000000,0.000000,0.000000,0.000000 Head:0.000000,0.000000,0.000000,0.000000 HipLeft:0.089731,-0.685156,0.707612,-0.147630 HipRight:-0.159597,0.669569,0.695256,-0.206943 KneeLeft:0.025355,-0.666456,0.029541,0.744527 KneeRight:-0.023251,0.744999,0.060030,0.663952 Neck:-0.086233,0.010543,0.992667,-0.084056 ShoulderLeft:0.019887,0.772142,-0.633965,0.038591 ShoulderRight:-0.095743,0.773899,0.602915,-0.168545 SpineBase:-0.055568,0.005783,0.997463,-0.044106 SpineMid:-0.070818,0.006457,0.996497,-0.044012 SpineShoulder:-0.086387,0.008646,0.994244,-0.062782 ThumbLeft:0.000000,0.000000,0.000000,0.000000 ThumbRight:0.000000,0.000000,0.000000,0.000000 WristLeft:-0.086397,0.824772,-0.103704,0.549120 WristRight:0.096301,0.435421,-0.511504,0.734505 END:
KINECT_DATA POSITION:21.034252,0.241065,-12.885702 HEAD_JOINT1:0.989314,0.141740,-0.000000,0.034182 LARM_JOINT2:0.817547,0.000000,-0.032839,-0.574924 LARM_JOINT3:0.970669,0.000000,-0.178763,-0.160763 LLEG_JOINT2:0.999208,0.000468,0.000000,0.039799 LLEG_JOINT4:0.995936,0.088382,0.000000,-0.017334 RARM_JOINT2:0.735261,0.000000,0.622814,0.267385 RARM_JOINT3:0.958322,0.000000,0.257393,0.123968 RLEG_JOINT2:0.998006,0.027963,0.000000,-0.056590 RLEG_JOINT4:0.995187,0.073981,0.000000,0.064259 WAIST:0.998371,0.000000,0.057046,-0.000832 WAIST_JOINT0:0.996470,-0.000000,0.083035,0.012352 WAIST_JOINT1:0.997632,0.067755,-0.000000,0.011782 END:
KINECT_DATA_Sensor  AnkleLeft:0.058745,0.726648,-0.070008,-0.680904 AnkleRight:0.068753,0.699362,0.075271,0.707461 ElbowLeft:-0.030063,0.871793,-0.183164,-0.453347 ElbowRight:-0.492246,0.869197,0.010622,-0.045579 FootLeft:0.000000,0.000000,0.000000,0.000000 FootRight:0.000000,0.000000,0.000000,0.000000 HandLeft:-0.120884,0.781729,-0.035312,0.610770 HandRight:0.068879,0.415909,-0.512445,0.748114 HandTipLeft:0.000000,0.000000,0.000000,0.000000 HandTipRight:0.000000,0.000000,0.000000,0.000000 Head:0.000000,0.000000,0.000000,0.000000 HipLeft:0.089245,-0.685544,0.707396,-0.147157 HipRight:-0.160309,0.669194,0.695313,-0.207413 KneeLeft:0.025529,-0.665718,0.029445,0.745185 KneeRight:-0.024130,0.745619,0.059155,0.663302 Neck:-0.083908,0.010285,0.992850,-0.084282 ShoulderLeft:0.016192,0.772592,-0.633312,0.041908 ShoulderRight:-0.096484,0.773776,0.603031,-0.168270 SpineBase:-0.056552,0.005781,0.997412,-0.044031 SpineMid:-0.070158,0.006381,0.996547,-0.043948 SpineShoulder:-0.084052,0.008491,0.994439,-0.062877 ThumbLeft:0.000000,0.000000,0.000000,0.000000 ThumbRight:0.000000,0.000000,0.000000,0.000000 WristLeft:-0.079980,0.791650,-0.108833,0.595860 WristRight:0.098989,0.430449,-0.509792,0.738259 END:
KINECT_DATA POSITION:21.026037,0.258000,-12.858939 HEAD_JOINT1:0.989819,0.137519,-0.000000,0.036690 LARM_JOINT2:0.817749,0.000000,-0.039621,-0.574209 LARM_JOINT3:0.971044,0.000000,-0.178973,-0.158251 LLEG_JOINT2:0.999214,0.000337,0.000000,0.039642 LLEG_JOINT4:0.995896,0.089139,0.000000,-0.015683 RARM_JOINT2:0.735956,0.000000,0.622634,0.265887 RARM_JOINT3:0.958685,0.000000,0.257654,0.120574 RLEG_JOINT2:0.998000,0.028432,0.000000,-0.056459 RLEG_JOINT4:0.995373,0.071518,0.000000,0.064176 WAIST:0.998322,0.000000,0.057898,-0.001262 WAIST_JOINT0:0.996251,-0.000000,0.085425,0.013622 WAIST_JOINT1:0.997508,0.069619,-0.000000,0.011423 END:
KINECT_DATA_Sensor  AnkleLeft:-0.052033,-0.661538,0.076212,0.744212 AnkleRight:0.073053,0.756215,0.068228,0.646643 ElbowLeft:-0.032684,0.873266,-0.181509,-0.450991 ElbowRight:-0.491530,0.869725,0.010127,-0.043290 FootLeft:0.000000,0.000000,0.000000,0.000000 FootRight:0.000000,0.000000,0.000000,0.000000 HandLeft:-0.128119,0.768220,-0.043436,0.625729 HandRight:0.074553,0.405399,-0.513541,0.752575 HandTipLeft:0.000000,0.000000,0.000000,0.000000 HandTipRight:0.000000,0.000000,0.000000,0.000000 Head:0.000000,0.000000,0.000000,0.000000 HipLeft:0.088423,-0.685850,0.707207,-0.147135 HipRight:-0.160399,0.668639,0.695548,-0.208344 KneeLeft:0.025192,-0.665117,0.028960,0.745752 KneeRight:-0.024073,0.746163,0.059702,0.662643 Neck:-0.085963,0.009221,0.992481,-0.086641 ShoulderLeft:0.023105,0.771472,-0.634659,0.038783 ShoulderRight:-0.092016,0.773427,0.604179,-0.168261 SpineBase:-0.057367,0.005460,0.997337,-0.044694 SpineMid:-0.071585,0.006097,0.996418,-0.044611 SpineShoulder:-0.086109,0.007757,0.994160,-0.064579 ThumbLeft:0.000000,0.000000,0.000000,0.000000 ThumbRight:0.000000,0.000000,0.000000,0.000000 WristLeft:-0.077032,0.779716,-0.111146,0.611355 WristRight:0.102980,0.420154,-0.508831,0.744283 END:
KINECT_DATA POSITION:21.015701,0.270707,-12.812841 HEAD_JOINT1:0.989863,0.136916,-0.000000,0.037750 LARM_JOINT2:0.817814,0.000000,-0.037429,-0.574264 LARM_JOINT3:0.970089,0.000000,-0.184065,-0.158264 LLEG_JOINT2:0.999211,-0.000156,0.000000,0.039710 LLEG_JOINT4:0.995563,0.092436,0.000000,-0.017594 RARM_JOINT2:0.731353,0.000000,0.631097,0.258533 RARM_JOINT3:0.957850,0.000000,0.258526,0.125250 RLEG_JOINT2:0.997938,0.029761,0.000000,-0.056867 RLEG_JOINT4:0.995484,0.070192,0.000000,0.063907 WAIST:0.998251,0.000000,0.059106,-0.000861 WAIST_JOINT0:0.996490,-0.000000,0.082634,0.013356 WAIST_JOINT1:0.997432,0.070780,-0.000000,0.010949 END:
KINECT_DATA_Sensor  AnkleLeft:0.062700,0.732636,-0.070895,-0.674008 AnkleRight:0.072526,0.754930,0.068730,0.648149 ElbowLeft:-0.030898,0.869771,-0.182439,-0.457450 ElbowRight:-0.496739,0.865342,0.013694,-0.065153 FootLeft:0.000000,0.000000,0.000000,0.000000 FootRight:0.000000,0.000000,0.000000,0.000000 HandLeft:-0.139749,0.794855,-0.041801,0.589006 HandRight:0.078639,0.439036,-0.522214,0.726881 HandTipLeft:0.000000,0.000000,0.000000,0.000000 HandTipRight:0.000000,0.000000,0.000000,0.000000 Head:0.000000,0.000000,0.000000,0.000000 HipLeft:0.087434,-0.685638,0.707560,-0.147017 HipRight:-0.160715,0.668534,0.695178,-0.209669 KneeLeft:0.025855,-0.664179,0.028999,0.746563 KneeRight:-0.023275,0.747014,0.060657,0.661626 Neck:-0.083245,0.008596,0.992603,-0.087951 ShoulderLeft:0.021137,0.771452,-0.634523,0.042383 ShoulderRight:-0.090439,0.773384,0.604655,-0.167601 SpineBase:-0.058598,0.005405,0.997233,-0.045429 SpineMid:-0.070854,0.005964,0.996437,-0.045359 SpineShoulder:-0.083382,0.007328,0.994322,-0.065711 ThumbLeft:0.000000,0.000000,0.000000,0.000000 ThumbRight:0.000000,0.000000,0.000000,0.000000 WristLeft:-0.081394,0.807376,-0.108519,0.574232 WristRight:0.088436,0.449652,-0.507210,0.729883 END:
KINECT_DATA POSITION:21.007732,0.275339,-12.765753 HEAD_JOINT1:0.989839,0.136810,-0.000000,0.038749 LARM_JOINT2:0.816647,0.000000,-0.038124,-0.575877 LARM_JOINT3:0.971376,0.000000,-0.181123,-0.153700 LLEG_JOINT2:0.999158,0.000552,0.000000,0.041021 LLEG_JOINT4:0.995645,0.091725,0.000000,-0.016682 RARM_JOINT2:0.720896,0.000000,0.622591,0.304450 RARM_JOINT3:0.959793,0.000000,0.260269,0.105156 RLEG_JOINT2:0.998021,0.029960,0.000000,-0.055284 RLEG_JOINT4:0.995565,0.069192,0.000000,0.063740 WAIST:0.998314,0.000000,0.057988,-0.002411 WAIST_JOINT0:0.995300,-0.000000,0.096758,0.003994 WAIST_JOINT1:0.997383,0.071293,-0.000000,0.012047 END:
KINECT_DATA_Sensor  AnkleLeft:0.061552,0.726444,-0.072203,-0.680644 AnkleRight:0.072828,0.761924,0.067355,0.640024 ElbowLeft:-0.030674,0.869310,-0.180081,-0.459272 ElbowRight:-0.466281,0.883995,-0.032423,-0.009124 FootLeft:0.000000,0.000000,0.000000,0.000000 FootRight:0.000000,0.000000,0.000000,0.000000 HandLeft:-0.129842,0.793301,-0.043599,0.593222 HandRight:0.088442,0.454526,-0.524805,0.714258 HandTipLeft:0.000000,0.000000,0.000000,0.000000 HandTipRight:0.000000,0.000000,0.000000,0.000000 Head:0.000000,0.000000,0.000000,0.000000 HipLeft:0.087699,-0.686389,0.706517,-0.148368 HipRight:-0.159764,0.667530,0.696400,-0.209540 KneeLeft:0.025132,-0.665120,0.029326,0.745737 KneeRight:-0.022992,0.746186,0.060869,0.662550 Neck:-0.097315,0.009639,0.991286,-0.088260 ShoulderLeft:0.018477,0.771520,-0.634599,0.041229 ShoulderRight:-0.113833,0.758414,0.613496,-0.188344 SpineBase:-0.057350,0.004941,0.997270,-0.046240 SpineMid:-0.077196,0.005861,0.995931,-0.046132 SpineShoulder:-0.097507,0.007946,0.992998,-0.066217 ThumbLeft:0.000000,0.000000,0.000000,0.000000 ThumbRight:0.000000,0.000000,0.000000,0.000000 WristLeft:-0.079209,0.803868,-0.108464,0.579446 WristRight:0.081097,0.453887,-0.517787,0.720629 END:
KINECT_DATA POSITION:21.044468,0.228341,-12.676514 HEAD_JOINT1:0.989745,0.137947,-0.000000,0.037098 LARM_JOINT2:0.817436,0.000000,-0.046443,-0.574144 LARM_JOINT3:0.973822,0.000000,-0.167684,-0.153469 LLEG_JOINT2:0.999088,0.001936,0.000000,0.042645 LLEG_JOINT4:0.995793,0.089663,0.000000,-0.018877 RARM_JOINT2:0.713289,0.000000,0.638639,0.288719 RARM_JOINT3:0.958491,0.000000,0.260925,0.114950 RLEG_JOINT2:0.998062,0.029578,0.000000,-0.054745 RLEG_JOINT4:0.995738,0.068096,0.000000,0.062202 WAIST:0.998450,0.000000,0.055541,-0.003577 WAIST_JOINT0:0.995302,-0.000000,0.096358,0.009456 WAIST_JOINT1:0.997378,0.071194,-0.000000,0.013009 END:
KINECT_DATA_Sensor  AnkleLeft:0.061524,0.724603,-0.070918,-0.682741 AnkleRight:0.070620,0.762104,0.067478,0.640045 ElbowLeft:-0.034691,0.879056,-0.179152,-0.440412 ElbowRight:-0.480154,0.875779,-0.024645,-0.043089 FootLeft:0.000000,0.000000,0.000000,0.000000 FootRight:0.000000,0.000000,0.000000,0.000000 HandLeft:-0.109581,0.828407,-0.026384,0.548668 HandRight:0.091115,0.464635,-0.528419,0.704689 HandTipLeft:0.000000,0.000000,0.000000,0.000000 HandTipRight:0.000000,0.000000,0.000000,0.000000 Head:0.000000,0.000000,0.000000,0.000000 HipLeft:0.089027,-0.686899,0.705511,-0.149994 HipRight:-0.158432,0.667245,0.697399,-0.208129 KneeLeft:0.024431,-0.667030,0.030573,0.744002 KneeRight:-0.023527,0.744467,0.061099,0.664441 Neck:-0.096594,0.009732,0.991362,-0.088186 ShoulderLeft:0.025642,0.770672,-0.635679,0.036311 ShoulderRight:-0.104728,0.764682,0.609212,-0.182085 SpineBase:-0.054804,0.004889,0.997409,-0.046336 SpineMid:-0.075567,0.005853,0.996052,-0.046224 SpineShoulder:-0.096781,0.008056,0.993073,-0.066134 ThumbLeft:0.000000,0.000000,0.000000,0.000000 ThumbRight:0.000000,0.000000,0.000000,0.000000 WristLeft:-0.083228,0.834590,-0.101060,0.535089 WristRight:0.089874,0.469120,-0.516578,0.710631 END:
