EastLYD/RoboCupatHomeSim/InteractiveCleanUp/JapanOpen2016/Motion_Data/File59.dat
KINECT_DATA POSITION:14.843382,-1.488058,-5.605972 HEAD_JOINT1:0.969186,0.200432,-0.000000,0.143200 LARM_JOINT2:0.831813,0.000000,0.008864,-0.554985 LARM_JOINT3:0.974466,0.000000,-0.134075,-0.180110 LLEG_JOINT2:0.998263,0.033318,0.000000,0.048586 LLEG_JOINT4:0.995813,0.084674,0.000000,-0.034455 RARM_JOINT2:0.789642,0.000000,-0.046956,0.611769 RARM_JOINT3:0.974845,0.000000,0.180847,0.130272 RLEG_JOINT2:0.999528,0.019654,0.000000,-0.023619 RLEG_JOINT4:0.994980,0.096013,0.000000,0.028207 WAIST:0.999361,0.000000,-0.035723,-0.001154 WAIST_JOINT0:0.998184,0.000000,-0.060241,0.000236 WAIST_JOINT1:0.996286,0.084853,0.000000,-0.014629 END:
KINECT_DATA_Sensor  AnkleLeft:0.074679,0.751033,-0.091839,-0.649568 AnkleRight:0.086999,0.675251,0.076020,0.728483 ElbowLeft:0.011110,0.928698,-0.200781,-0.311581 ElbowRight:0.036375,0.822747,0.181494,0.537424 FootLeft:0.000000,0.000000,0.000000,0.000000 FootRight:0.000000,0.000000,0.000000,0.000000 HandLeft:-0.007250,0.826885,0.038263,0.561022 HandRight:-0.016472,0.841551,-0.054675,0.537150 HandTipLeft:0.000000,0.000000,0.000000,0.000000 HandTipRight:0.000000,0.000000,0.000000,0.000000 Head:0.000000,0.000000,0.000000,0.000000 HipLeft:0.128746,-0.673988,0.700784,-0.195105 HipRight:-0.080793,0.680607,0.709814,-0.162511 KneeLeft:-0.011992,0.731329,-0.056688,-0.679559 KneeRight:-0.002476,0.682167,0.031498,0.730513 Neck:0.058948,-0.015629,0.992970,-0.101451 ShoulderLeft:0.005244,0.772343,-0.625769,0.108956 ShoulderRight:0.082765,0.773544,0.628114,-0.015915 SpineBase:0.034918,-0.012412,0.997504,-0.060099 SpineMid:0.046768,-0.013125,0.997019,-0.059947 SpineShoulder:0.058904,-0.014433,0.994974,-0.079680 ThumbLeft:0.000000,0.000000,0.000000,0.000000 ThumbRight:0.000000,0.000000,0.000000,0.000000 WristLeft:-0.048707,0.827596,-0.037786,0.557930 WristRight:-0.082890,0.840272,-0.004556,0.535771 END:
KINECT_DATA POSITION:14.849700,-1.488915,-5.605757 HEAD_JOINT1:0.969643,0.198750,-0.000000,0.142449 LARM_JOINT2:0.832464,0.000000,0.008042,-0.554021 LARM_JOINT3:0.973346,0.000000,-0.138166,-0.183051 LLEG_JOINT2:0.998264,0.032868,0.000000,0.048865 LLEG_JOINT4:0.995696,0.085361,0.000000,-0.036110 RARM_JOINT2:0.789683,0.000000,-0.045410,0.611832 RARM_JOINT3:0.973731,0.000000,0.186853,0.130128 RLEG_JOINT2:0.999537,0.019539,0.000000,-0.023320 RLEG_JOINT4:0.995093,0.095255,0.000000,0.026758 WAIST:0.999357,0.000000,-0.035842,-0.001155 WAIST_JOINT0:0.998144,0.000000,-0.060902,-0.000111 WAIST_JOINT1:0.996212,0.085748,0.000000,-0.014481 END:
KINECT_DATA_Sensor  AnkleLeft:0.074189,0.739477,-0.092351,-0.662677 AnkleRight:0.086944,0.688285,0.074713,0.716326 ElbowLeft:0.010574,0.928344,-0.202030,-0.311850 ElbowRight:0.036353,0.823410,0.181201,0.536508 FootLeft:0.000000,0.000000,0.000000,0.000000 FootRight:0.000000,0.000000,0.000000,0.000000 HandLeft:-0.016818,0.823346,0.039437,0.565917 HandRight:-0.026992,0.744448,-0.071700,0.663271 HandTipLeft:0.000000,0.000000,0.000000,0.000000 HandTipRight:0.000000,0.000000,0.000000,0.000000 Head:0.000000,0.000000,0.000000,0.000000 HipLeft:0.128411,-0.673790,0.700875,-0.195683 HipRight:-0.080477,0.680483,0.709884,-0.162883 KneeLeft:-0.012511,0.731390,-0.056547,-0.679495 KneeRight:-0.002354,0.682083,0.031203,0.730605 Neck:0.059594,-0.015571,0.992840,-0.102349 ShoulderLeft:0.005752,0.772228,-0.625755,0.109828 ShoulderRight:0.084126,0.773217,0.628338,-0.015799 SpineBase:0.035041,-0.012167,0.997464,-0.060738 SpineMid:0.047163,-0.012904,0.996965,-0.060585 SpineShoulder:0.059566,-0.014291,0.994865,-0.080564 ThumbLeft:0.000000,0.000000,0.000000,0.000000 ThumbRight:0.000000,0.000000,0.000000,0.000000 WristLeft:-0.050824,0.824810,-0.038194,0.561824 WristRight:-0.080866,0.744153,-0.018265,0.662845 END:
KINECT_DATA POSITION:14.859951,-1.498690,-5.585515 HEAD_JOINT1:0.969904,0.197686,-0.000000,0.142152 LARM_JOINT2:0.832721,0.000000,0.008017,-0.553635 LARM_JOINT3:0.973353,0.000000,-0.135742,-0.184817 LLEG_JOINT2:0.998257,0.033589,0.000000,0.048519 LLEG_JOINT4:0.995645,0.086073,0.000000,-0.035806 RARM_JOINT2:0.789710,0.000000,-0.044679,0.611851 RARM_JOINT3:0.973953,0.000000,0.185420,0.130519 RLEG_JOINT2:0.999532,0.019627,0.000000,-0.023468 RLEG_JOINT4:0.995046,0.095846,0.000000,0.026415 WAIST:0.999352,0.000000,-0.035982,-0.001028 WAIST_JOINT0:0.998120,0.000000,-0.061282,-0.000300 WAIST_JOINT1:0.996192,0.085962,0.000000,-0.014586 END:
KINECT_DATA_Sensor  AnkleLeft:0.075136,0.739557,-0.093428,-0.662330 AnkleRight:0.085827,0.674928,0.077007,0.728818 ElbowLeft:0.010491,0.928250,-0.202541,-0.311799 ElbowRight:0.036150,0.823684,0.181014,0.536165 FootLeft:0.000000,0.000000,0.000000,0.000000 FootRight:0.000000,0.000000,0.000000,0.000000 HandLeft:-0.004341,0.825532,0.048880,0.562218 HandRight:-0.020646,0.744976,-0.068001,0.663295 HandTipLeft:0.000000,0.000000,0.000000,0.000000 HandTipRight:0.000000,0.000000,0.000000,0.000000 Head:0.000000,0.000000,0.000000,0.000000 HipLeft:0.128366,-0.673603,0.700964,-0.196035 HipRight:-0.080356,0.680530,0.709816,-0.163043 KneeLeft:-0.011861,0.731500,-0.056927,-0.679357 KneeRight:-0.002296,0.681984,0.031281,0.730694 Neck:0.059982,-0.015592,0.992798,-0.102520 ShoulderLeft:0.005588,0.772288,-0.625591,0.110345 ShoulderRight:0.084464,0.773157,0.628369,-0.015716 SpineBase:0.035173,-0.011974,0.997445,-0.061012 SpineMid:0.047434,-0.012723,0.996937,-0.060860 SpineShoulder:0.059961,-0.014268,0.994823,-0.080795 ThumbLeft:0.000000,0.000000,0.000000,0.000000 ThumbRight:0.000000,0.000000,0.000000,0.000000 WristLeft:-0.052636,0.826872,-0.037618,0.558657 WristRight:-0.081161,0.744246,-0.019072,0.662682 END:
KINECT_DATA POSITION:14.859133,-1.509577,-5.564749 HEAD_JOINT1:0.969889,0.197664,-0.000000,0.142280 LARM_JOINT2:0.832921,0.000000,0.007833,-0.553337 LARM_JOINT3:0.973774,0.000000,-0.131872,-0.185405 LLEG_JOINT2:0.998245,0.033538,0.000000,0.048810 LLEG_JOINT4:0.995898,0.083156,0.000000,-0.035663 RARM_JOINT2:0.789581,0.000000,-0.045064,0.611990 RARM_JOINT3:0.974629,0.000000,0.181774,0.130598 RLEG_JOINT2:0.999521,0.020056,0.000000,-0.023567 RLEG_JOINT4:0.994835,0.097937,0.000000,0.026677 WAIST:0.999361,0.000000,-0.035727,-0.001058 WAIST_JOINT0:0.998126,0.000000,-0.061196,-0.000279 WAIST_JOINT1:0.996181,0.086065,0.000000,-0.014704 END:
KINECT_DATA_Sensor  AnkleLeft:0.072817,0.739877,-0.091568,-0.662492 AnkleRight:0.087729,0.674735,0.078650,0.728595 ElbowLeft:0.010976,0.929032,-0.202674,-0.309359 ElbowRight:0.036504,0.823835,0.181163,0.535857 FootLeft:0.000000,0.000000,0.000000,0.000000 FootRight:0.000000,0.000000,0.000000,0.000000 HandLeft:0.004218,0.799576,0.052858,0.598220 HandRight:-0.005073,0.709115,-0.056494,0.702808 HandTipLeft:0.000000,0.000000,0.000000,0.000000 HandTipRight:0.000000,0.000000,0.000000,0.000000 Head:0.000000,0.000000,0.000000,0.000000 HipLeft:0.128146,-0.673606,0.700969,-0.196152 HipRight:-0.080465,0.680426,0.709804,-0.163475 KneeLeft:-0.012073,0.731319,-0.057071,-0.679536 KneeRight:-0.002077,0.682167,0.031666,0.730508 Neck:0.059878,-0.015824,0.992797,-0.102555 ShoulderLeft:0.005680,0.772420,-0.625421,0.110382 ShoulderRight:0.084434,0.773284,0.628212,-0.015872 SpineBase:0.034917,-0.011982,0.997438,-0.061272 SpineMid:0.047261,-0.012740,0.996930,-0.061119 SpineShoulder:0.059860,-0.014433,0.994817,-0.080913 ThumbLeft:0.000000,0.000000,0.000000,0.000000 ThumbRight:0.000000,0.000000,0.000000,0.000000 WristLeft:-0.050602,0.801365,-0.038868,0.594764 WristRight:-0.079563,0.698217,-0.025005,0.711011 END:
KINECT_DATA POSITION:14.830661,-1.528960,-5.533528 HEAD_JOINT1:0.969854,0.197569,-0.000000,0.142652 LARM_JOINT2:0.833164,0.000000,0.008221,-0.552965 LARM_JOINT3:0.974784,0.000000,-0.130426,-0.181068 LLEG_JOINT2:0.998230,0.033716,0.000000,0.048996 LLEG_JOINT4:0.995801,0.083049,0.000000,-0.038523 RARM_JOINT2:0.789254,0.000000,-0.045210,0.612400 RARM_JOINT3:0.973360,0.000000,0.184698,0.135853 RLEG_JOINT2:0.999521,0.020399,0.000000,-0.023284 RLEG_JOINT4:0.994938,0.096718,0.000000,0.027288 WAIST:0.999369,0.000000,-0.035514,-0.000996 WAIST_JOINT0:0.998115,0.000000,-0.061372,-0.000056 WAIST_JOINT1:0.996200,0.085806,0.000000,-0.014941 END:
KINECT_DATA_Sensor  AnkleLeft:0.074736,0.739563,-0.089786,-0.662872 AnkleRight:0.091318,0.709023,0.073098,0.695416 ElbowLeft:0.011267,0.929345,-0.202926,-0.308240 ElbowRight:0.037332,0.826400,0.180625,0.532018 FootLeft:0.000000,0.000000,0.000000,0.000000 FootRight:0.000000,0.000000,0.000000,0.000000 HandLeft:0.017335,0.802771,0.038830,0.594769 HandRight:-0.007170,0.720719,-0.074504,0.689175 HandTipLeft:0.000000,0.000000,0.000000,0.000000 HandTipRight:0.000000,0.000000,0.000000,0.000000 Head:0.000000,0.000000,0.000000,0.000000 HipLeft:0.128264,-0.673664,0.700976,-0.195851 HipRight:-0.080762,0.680468,0.709716,-0.163536 KneeLeft:-0.012118,0.731170,-0.057374,-0.679670 KneeRight:-0.001596,0.682326,0.031647,0.730361 Neck:0.060018,-0.016034,0.992812,-0.102303 ShoulderLeft:0.005214,0.772501,-0.625316,0.110430 ShoulderRight:0.084156,0.773632,0.627827,-0.015639 SpineBase:0.034692,-0.012151,0.997459,-0.061019 SpineMid:0.047213,-0.012916,0.996945,-0.060862 SpineShoulder:0.059992,-0.014665,0.994827,-0.080648 ThumbLeft:0.000000,0.000000,0.000000,0.000000 ThumbRight:0.000000,0.000000,0.000000,0.000000 WristLeft:-0.050073,0.802215,-0.038459,0.593687 WristRight:-0.078899,0.720411,-0.025003,0.688591 END:
KINECT_DATA POSITION:14.820853,-1.534203,-5.506635 HEAD_JOINT1:0.970018,0.196068,-0.000000,0.143606 LARM_JOINT2:0.833332,0.000000,0.009011,-0.552700 LARM_JOINT3:0.973574,0.000000,-0.133564,-0.185239 LLEG_JOINT2:0.998220,0.033474,0.000000,0.049358 LLEG_JOINT4:0.995700,0.084564,0.000000,-0.037828 RARM_JOINT2:0.787614,0.000000,-0.038780,0.614948 RARM_JOINT3:0.965515,0.000000,0.218045,0.142257 RLEG_JOINT2:0.999530,0.020145,0.000000,-0.023127 RLEG_JOINT4:0.995001,0.096348,0.000000,0.026249 WAIST:0.999335,0.000000,-0.036436,-0.001000 WAIST_JOINT0:0.998147,0.000000,-0.060843,0.000619 WAIST_JOINT1:0.996257,0.085082,0.000000,-0.015290 END:
KINECT_DATA_Sensor  AnkleLeft:0.074697,0.739336,-0.091568,-0.662886 AnkleRight:0.086800,0.675038,0.077449,0.728554 ElbowLeft:0.010824,0.929259,-0.202898,-0.308533 ElbowRight:0.032169,0.822534,0.175980,0.539846 FootLeft:0.000000,0.000000,0.000000,0.000000 FootRight:0.000000,0.000000,0.000000,0.000000 HandLeft:-0.010560,0.694050,0.046420,0.718351 HandRight:-0.128805,0.949251,-0.106333,0.266506 HandTipLeft:0.000000,0.000000,0.000000,0.000000 HandTipRight:0.000000,0.000000,0.000000,0.000000 Head:0.000000,0.000000,0.000000,0.000000 HipLeft:0.129241,-0.673603,0.700788,-0.196092 HipRight:-0.080596,0.680630,0.709741,-0.162835 KneeLeft:-0.012599,0.731789,-0.057429,-0.678990 KneeRight:-0.001650,0.681657,0.031364,0.730998 Neck:0.059399,-0.016291,0.992956,-0.101217 ShoulderLeft:0.005032,0.772810,-0.625063,0.109707 ShoulderRight:0.083177,0.774563,0.626807,-0.015713 SpineBase:0.035610,-0.012281,0.997455,-0.060539 SpineMid:0.047374,-0.012994,0.996965,-0.060390 SpineShoulder:0.059385,-0.014781,0.994907,-0.080093 ThumbLeft:0.000000,0.000000,0.000000,0.000000 ThumbRight:0.000000,0.000000,0.000000,0.000000 WristLeft:-0.043212,0.696603,-0.046486,0.714644 WristRight:-0.099924,0.954948,0.003303,0.279425 END:
KINECT_DATA POSITION:14.925276,-1.582333,-5.391002 HEAD_JOINT1:0.970184,0.193559,-0.000000,0.145870 LARM_JOINT2:0.833211,0.000000,0.012050,-0.552823 LARM_JOINT3:0.974100,0.000000,-0.132279,-0.183387 LLEG_JOINT2:0.998294,0.035102,0.000000,0.046654 LLEG_JOINT4:0.995828,0.083999,0.000000,-0.035660 RARM_JOINT2:0.788216,0.000000,-0.011578,0.615290 RARM_JOINT3:0.939200,0.000000,0.319275,0.126363 RLEG_JOINT2:0.999520,0.018882,0.000000,-0.024575 RLEG_JOINT4:0.994632,0.099646,0.000000,0.027907 WAIST:0.999297,0.000000,-0.037471,-0.000668 WAIST_JOINT0:0.998207,0.000000,-0.059826,0.002067 WAIST_JOINT1:0.996488,0.082194,0.000000,-0.015972 END:
KINECT_DATA_Sensor  AnkleLeft:0.075296,0.738665,-0.092443,-0.663445 AnkleRight:0.091872,0.703101,0.074663,0.701166 ElbowLeft:0.010108,0.928755,-0.202376,-0.310411 ElbowRight:0.001123,0.791757,0.165384,0.588020 FootLeft:0.000000,0.000000,0.000000,0.000000 FootRight:0.000000,0.000000,0.000000,0.000000 HandLeft:0.006167,0.811436,0.044165,0.582738 HandRight:-0.288457,0.886658,-0.149716,0.328961 HandTipLeft:0.000000,0.000000,0.000000,0.000000 HandTipRight:0.000000,0.000000,0.000000,0.000000 Head:0.000000,0.000000,0.000000,0.000000 HipLeft:0.131006,-0.673506,0.700743,-0.195413 HipRight:-0.081527,0.681325,0.709496,-0.160515 KneeLeft:-0.009797,0.732607,-0.057003,-0.678190 KneeRight:-0.003297,0.680847,0.031335,0.731748 Neck:0.058378,-0.016382,0.993394,-0.097429 ShoulderLeft:0.002339,0.773763,-0.624127,0.108401 ShoulderRight:0.079068,0.776682,0.624712,-0.015777 SpineBase:0.036693,-0.011348,0.997558,-0.058330 SpineMid:0.047461,-0.011977,0.997104,-0.058204 SpineShoulder:0.058352,-0.014931,0.995165,-0.077582 ThumbLeft:0.000000,0.000000,0.000000,0.000000 ThumbRight:0.000000,0.000000,0.000000,0.000000 WristLeft:-0.051840,0.811805,-0.038826,0.580326 WristRight:-0.199166,0.909738,-0.047040,0.361243 END:
KINECT_DATA POSITION:15.046099,-1.605132,-5.284631 HEAD_JOINT1:0.971402,0.188025,-0.000000,0.145002 LARM_JOINT2:0.832053,0.000000,0.012820,-0.554548 LARM_JOINT3:0.973662,0.000000,-0.135305,-0.183505 LLEG_JOINT2:0.998399,0.036057,0.000000,0.043584 LLEG_JOINT4:0.995964,0.083570,0.000000,-0.032728 RARM_JOINT2:0.791002,0.000000,0.021561,0.611434 RARM_JOINT3:0.926685,0.000000,0.363618,0.095065 RLEG_JOINT2:0.999490,0.018148,0.000000,-0.026260 RLEG_JOINT4:0.994450,0.101666,0.000000,0.027079 WAIST:0.999317,0.000000,-0.036964,0.000294 WAIST_JOINT0:0.998389,0.000000,-0.056618,0.003602 WAIST_JOINT1:0.996731,0.079303,0.000000,-0.015425 END:
KINECT_DATA_Sensor  AnkleLeft:0.074946,0.737024,-0.093545,-0.665153 AnkleRight:0.091768,0.702677,0.076824,0.701371 ElbowLeft:0.008281,0.928297,-0.201048,-0.312690 ElbowRight:-0.028764,0.779464,0.151420,0.607191 FootLeft:0.000000,0.000000,0.000000,0.000000 FootRight:0.000000,0.000000,0.000000,0.000000 HandLeft:-0.007851,0.808988,0.040532,0.586374 HandRight:-0.364227,0.818073,-0.180575,0.406802 HandTipLeft:0.000000,0.000000,0.000000,0.000000 HandTipRight:0.000000,0.000000,0.000000,0.000000 Head:0.000000,0.000000,0.000000,0.000000 HipLeft:0.131577,-0.673258,0.701257,-0.194034 HipRight:-0.083397,0.682338,0.708640,-0.159025 KneeLeft:-0.007546,0.732315,-0.056295,-0.678594 KneeRight:-0.004320,0.681166,0.031390,0.731443 Neck:0.055224,-0.013962,0.993939,-0.094028 ShoulderLeft:0.001804,0.774158,-0.624265,0.104732 ShoulderRight:0.074189,0.778824,0.622607,-0.017039 SpineBase:0.036210,-0.009679,0.997714,-0.056235 SpineMid:0.045640,-0.010210,0.997327,-0.056141 SpineShoulder:0.055116,-0.013558,0.995573,-0.074912 ThumbLeft:0.000000,0.000000,0.000000,0.000000 ThumbRight:0.000000,0.000000,0.000000,0.000000 WristLeft:-0.053416,0.809969,-0.040419,0.582635 WristRight:-0.250640,0.853710,-0.091938,0.447108 END:
KINECT_DATA POSITION:15.203392,-1.587561,-5.167246 HEAD_JOINT1:0.972153,0.186454,-0.000000,0.141962 LARM_JOINT2:0.829137,0.000000,0.013450,-0.558884 LARM_JOINT3:0.975165,0.000000,-0.129192,-0.179896 LLEG_JOINT2:0.998447,0.037638,0.000000,0.041082 LLEG_JOINT4:0.996112,0.082528,0.000000,-0.030837 RARM_JOINT2:0.794202,0.000000,0.036758,0.606541 RARM_JOINT3:0.920859,0.000000,0.381618,0.079917 RLEG_JOINT2:0.999437,0.018129,0.000000,-0.028224 RLEG_JOINT4:0.994162,0.104334,0.000000,0.027504 WAIST:0.999373,0.000000,-0.035417,0.000343 WAIST_JOINT0:0.998665,0.000000,-0.051448,0.004627 WAIST_JOINT1:0.997012,0.076117,0.000000,-0.013164 END:
KINECT_DATA_Sensor  AnkleLeft:0.075589,0.734155,-0.093663,-0.668229 AnkleRight:0.093297,0.708649,0.079093,0.694878 ElbowLeft:0.005655,0.925394,-0.197486,-0.323440 ElbowRight:-0.045470,0.772216,0.144462,0.617045 FootLeft:0.000000,0.000000,0.000000,0.000000 FootRight:0.000000,0.000000,0.000000,0.000000 HandLeft:0.013225,0.818502,0.053046,0.571896 HandRight:-0.395668,0.829842,-0.161080,0.358973 HandTipLeft:0.000000,0.000000,0.000000,0.000000 HandTipRight:0.000000,0.000000,0.000000,0.000000 Head:0.000000,0.000000,0.000000,0.000000 HipLeft:0.131627,-0.673699,0.701290,-0.192345 HipRight:-0.086404,0.682659,0.708239,-0.157823 KneeLeft:-0.004578,0.731393,-0.055791,-0.679655 KneeRight:-0.005691,0.682130,0.032773,0.730474 Neck:0.050161,-0.010908,0.994562,-0.090620 ShoulderLeft:0.003204,0.774802,-0.624466,0.098557 ShoulderRight:0.068729,0.780561,0.621003,-0.018901 SpineBase:0.034821,-0.007499,0.997912,-0.053874 SpineMid:0.042424,-0.007910,0.997618,-0.053815 SpineShoulder:0.050004,-0.011360,0.996102,-0.071778 ThumbLeft:0.000000,0.000000,0.000000,0.000000 ThumbRight:0.000000,0.000000,0.000000,0.000000 WristLeft:-0.056306,0.818962,-0.043353,0.569431 WristRight:-0.286253,0.867645,-0.087250,0.397037 END:
KINECT_DATA POSITION:15.275449,-1.568712,-5.101466 HEAD_JOINT1:0.972516,0.185595,-0.000000,0.140598 LARM_JOINT2:0.827845,0.000000,0.015377,-0.560747 LARM_JOINT3:0.975196,0.000000,-0.132080,-0.177619 LLEG_JOINT2:0.998501,0.037915,0.000000,0.039467 LLEG_JOINT4:0.996075,0.083956,0.000000,-0.028030 RARM_JOINT2:0.795859,0.000000,0.041294,0.604072 RARM_JOINT3:0.916561,0.000000,0.393240,0.072658 RLEG_JOINT2:0.999425,0.017384,0.000000,-0.029112 RLEG_JOINT4:0.993929,0.106044,0.000000,0.029325 WAIST:0.999379,0.000000,-0.035231,0.000290 WAIST_JOINT0:0.998786,0.000000,-0.048964,0.005307 WAIST_JOINT1:0.997119,0.074887,0.000000,-0.012091 END:
KINECT_DATA_Sensor  AnkleLeft:0.075801,0.732828,-0.095797,-0.669358 AnkleRight:0.095087,0.712932,0.078455,0.690313 ElbowLeft:0.005357,0.923342,-0.196565,-0.329808 ElbowRight:-0.052258,0.764882,0.142375,0.626063 FootLeft:0.000000,0.000000,0.000000,0.000000 FootRight:0.000000,0.000000,0.000000,0.000000 HandLeft:-0.001751,0.715238,0.047485,0.697264 HandRight:-0.400714,0.827589,-0.162803,0.357798 HandTipLeft:0.000000,0.000000,0.000000,0.000000 HandTipRight:0.000000,0.000000,0.000000,0.000000 Head:0.000000,0.000000,0.000000,0.000000 HipLeft:0.132101,-0.673954,0.701146,-0.191647 HipRight:-0.087577,0.682902,0.708103,-0.156734 KneeLeft:-0.003161,0.731318,-0.054854,-0.679820 KneeRight:-0.006888,0.682188,0.032952,0.730401 Neck:0.047691,-0.009742,0.994781,-0.089669 ShoulderLeft:0.003709,0.774864,-0.624794,0.095944 ShoulderRight:0.065965,0.781387,0.620224,-0.020144 SpineBase:0.034711,-0.006548,0.997996,-0.052505 SpineMid:0.041152,-0.006887,0.997751,-0.052462 SpineShoulder:0.047547,-0.010212,0.996329,-0.070459 ThumbLeft:0.000000,0.000000,0.000000,0.000000 ThumbRight:0.000000,0.000000,0.000000,0.000000 WristLeft:-0.048746,0.719535,-0.053451,0.690678 WristRight:-0.305124,0.861764,-0.090609,0.395034 END:
KINECT_DATA POSITION:15.336048,-1.547115,-5.051017 HEAD_JOINT1:0.972680,0.184792,-0.000000,0.140518 LARM_JOINT2:0.827387,0.000000,0.015505,-0.561418 LARM_JOINT3:0.974782,0.000000,-0.136126,-0.176831 LLEG_JOINT2:0.998493,0.038486,0.000000,0.039116 LLEG_JOINT4:0.996259,0.082599,0.000000,-0.025406 RARM_JOINT2:0.797422,0.000000,0.041307,0.602006 RARM_JOINT3:0.904931,0.000000,0.421352,0.059677 RLEG_JOINT2:0.999410,0.017504,0.000000,-0.029564 RLEG_JOINT4:0.993853,0.105970,0.000000,0.032029 WAIST:0.999398,0.000000,-0.034681,-0.000337 WAIST_JOINT0:0.998846,0.000000,-0.047701,0.005613 WAIST_JOINT1:0.997193,0.074103,0.000000,-0.010682 END:
KINECT_DATA_Sensor  AnkleLeft:0.074075,0.732459,-0.096349,-0.669875 AnkleRight:0.092583,0.681887,0.081451,0.720989 ElbowLeft:0.004688,0.922896,-0.196265,-0.331240 ElbowRight:-0.057452,0.750237,0.141959,0.643188 FootLeft:0.000000,0.000000,0.000000,0.000000 FootRight:0.000000,0.000000,0.000000,0.000000 HandLeft:-0.009491,0.786608,0.037877,0.616216 HandRight:-0.443366,0.816643,-0.169219,0.328460 HandTipLeft:0.000000,0.000000,0.000000,0.000000 HandTipRight:0.000000,0.000000,0.000000,0.000000 Head:0.000000,0.000000,0.000000,0.000000 HipLeft:0.132396,-0.674571,0.700695,-0.190923 HipRight:-0.089008,0.682633,0.708340,-0.156026 KneeLeft:-0.002038,0.731023,-0.054589,-0.680162 KneeRight:-0.007572,0.682482,0.033803,0.730081 Neck:0.046481,-0.009167,0.994888,-0.089179 ShoulderLeft:0.002787,0.775087,-0.624630,0.095232 ShoulderRight:0.063437,0.781994,0.619683,-0.021304 SpineBase:0.034278,-0.005854,0.998080,-0.051252 SpineMid:0.040351,-0.006166,0.997853,-0.051216 SpineShoulder:0.046372,-0.009371,0.996457,-0.069529 ThumbLeft:0.000000,0.000000,0.000000,0.000000 ThumbRight:0.000000,0.000000,0.000000,0.000000 WristLeft:-0.054433,0.787876,-0.048908,0.611471 WristRight:-0.332491,0.859943,-0.084841,0.377822 END:
KINECT_DATA POSITION:15.348643,-1.531827,-5.009854 HEAD_JOINT1:0.973111,0.179752,-0.000000,0.144027 LARM_JOINT2:0.828037,0.000000,0.015446,-0.560461 LARM_JOINT3:0.973709,0.000000,-0.140890,-0.179000 LLEG_JOINT2:0.998454,0.039724,0.000000,0.038886 LLEG_JOINT4:0.996460,0.080147,0.000000,-0.025390 RARM_JOINT2:0.800351,0.000000,0.039435,0.598233 RARM_JOINT3:0.875144,0.000000,0.480086,0.060332 RLEG_JOINT2:0.999379,0.018875,0.000000,-0.029740 RLEG_JOINT4:0.993858,0.106434,0.000000,0.030290 WAIST:0.999370,0.000000,-0.035479,-0.000461 WAIST_JOINT0:0.998832,0.000000,-0.047961,0.005889 WAIST_JOINT1:0.997259,0.073332,0.000000,-0.009890 END:
KINECT_DATA_Sensor  AnkleLeft:0.073327,0.732696,-0.095357,-0.669841 AnkleRight:0.092708,0.681878,0.084009,0.720687 ElbowLeft:0.003353,0.923423,-0.197565,-0.329008 ElbowRight:-0.061515,0.739940,0.144763,0.654025 FootLeft:0.000000,0.000000,0.000000,0.000000 FootRight:0.000000,0.000000,0.000000,0.000000 HandLeft:-0.022131,0.799048,0.029907,0.600114 HandRight:-0.507962,0.807919,-0.173568,0.243138 HandTipLeft:0.000000,0.000000,0.000000,0.000000 HandTipRight:0.000000,0.000000,0.000000,0.000000 Head:0.000000,0.000000,0.000000,0.000000 HipLeft:0.133549,-0.674569,0.700477,-0.190926 HipRight:-0.089308,0.682686,0.708477,-0.154998 KneeLeft:-0.000977,0.731597,-0.055247,-0.679495 KneeRight:-0.006749,0.681869,0.034959,0.730608 Neck:0.046776,-0.008617,0.994926,-0.088655 ShoulderLeft:0.001511,0.775283,-0.624384,0.095279 ShoulderRight:0.062490,0.782436,0.619236,-0.020884 SpineBase:0.035103,-0.005706,0.998100,-0.050317 SpineMid:0.040910,-0.005998,0.997879,-0.050283 SpineShoulder:0.046704,-0.008565,0.996509,-0.068668 ThumbLeft:0.000000,0.000000,0.000000,0.000000 ThumbRight:0.000000,0.000000,0.000000,0.000000 WristLeft:-0.057693,0.800118,-0.048187,0.595114 WristRight:-0.386958,0.865866,-0.079777,0.306881 END:
KINECT_DATA POSITION:15.343402,-1.520780,-4.999793 HEAD_JOINT1:0.973116,0.178275,-0.000000,0.145817 LARM_JOINT2:0.828478,0.000000,0.014810,-0.559826 LARM_JOINT3:0.973368,0.000000,-0.138864,-0.182405 LLEG_JOINT2:0.998458,0.039800,0.000000,0.038701 LLEG_JOINT4:0.996400,0.080445,0.000000,-0.026768 RARM_JOINT2:0.799909,0.000000,0.042922,0.598584 RARM_JOINT3:0.863924,0.000000,0.501297,0.048341 RLEG_JOINT2:0.999366,0.019257,0.000000,-0.029933 RLEG_JOINT4:0.994030,0.104586,0.000000,0.031078 WAIST:0.999362,0.000000,-0.035712,-0.000295 WAIST_JOINT0:0.998821,0.000000,-0.048182,0.005898 WAIST_JOINT1:0.997286,0.073000,0.000000,-0.009612 END:
KINECT_DATA_Sensor  AnkleLeft:0.074547,0.732589,-0.094702,-0.669916 AnkleRight:0.093497,0.693598,0.080923,0.709670 ElbowLeft:0.002544,0.924206,-0.198309,-0.326358 ElbowRight:-0.064651,0.733357,0.141309,0.661845 FootLeft:0.000000,0.000000,0.000000,0.000000 FootRight:0.000000,0.000000,0.000000,0.000000 HandLeft:-0.018100,0.790664,0.041399,0.610581 HandRight:-0.513898,0.788618,-0.188544,0.280075 HandTipLeft:0.000000,0.000000,0.000000,0.000000 HandTipRight:0.000000,0.000000,0.000000,0.000000 Head:0.000000,0.000000,0.000000,0.000000 HipLeft:0.133927,-0.674480,0.700525,-0.190801 HipRight:-0.089442,0.682873,0.708365,-0.154608 KneeLeft:-0.000920,0.731750,-0.055295,-0.679326 KneeRight:-0.006475,0.681701,0.035243,0.730753 Neck:0.047037,-0.008346,0.994929,-0.088512 ShoulderLeft:0.000544,0.775277,-0.624338,0.095641 ShoulderRight:0.061847,0.782458,0.619273,-0.020857 SpineBase:0.035327,-0.005605,0.998112,-0.049922 SpineMid:0.041155,-0.005897,0.997889,-0.049889 SpineShoulder:0.046996,-0.008058,0.996527,-0.068271 ThumbLeft:0.000000,0.000000,0.000000,0.000000 ThumbRight:0.000000,0.000000,0.000000,0.000000 WristLeft:-0.058518,0.792815,-0.048712,0.604688 WristRight:-0.412655,0.839853,-0.108173,0.335652 END:
KINECT_DATA POSITION:15.341391,-1.509341,-4.994321 HEAD_JOINT1:0.973200,0.177872,-0.000000,0.145747 LARM_JOINT2:0.828315,0.000000,0.014580,-0.560073 LARM_JOINT3:0.974206,0.000000,-0.134852,-0.180937 LLEG_JOINT2:0.998450,0.040076,0.000000,0.038632 LLEG_JOINT4:0.996550,0.079397,0.000000,-0.024170 RARM_JOINT2:0.799137,0.000000,0.051733,0.598919 RARM_JOINT3:0.853412,0.000000,0.521191,0.006970 RLEG_JOINT2:0.999369,0.019257,0.000000,-0.029849 RLEG_JOINT4:0.993999,0.105097,0.000000,0.030346 WAIST:0.999347,0.000000,-0.036123,-0.000473 WAIST_JOINT0:0.998880,0.000000,-0.046915,0.006104 WAIST_JOINT1:0.997298,0.072943,0.000000,-0.008766 END:
KINECT_DATA_Sensor  AnkleLeft:0.074652,0.749579,-0.093958,-0.650946 AnkleRight:0.093741,0.696522,0.081405,0.706713 ElbowLeft:0.002145,0.924402,-0.198541,-0.325664 ElbowRight:-0.072965,0.713542,0.133312,0.683931 FootLeft:0.000000,0.000000,0.000000,0.000000 FootRight:0.000000,0.000000,0.000000,0.000000 HandLeft:0.004745,0.845977,0.045438,0.531259 HandRight:-0.543389,0.760714,-0.173130,0.309951 HandTipLeft:0.000000,0.000000,0.000000,0.000000 HandTipRight:0.000000,0.000000,0.000000,0.000000 Head:0.000000,0.000000,0.000000,0.000000 HipLeft:0.134253,-0.674541,0.700330,-0.191073 HipRight:-0.089452,0.682854,0.708468,-0.154218 KneeLeft:-0.000577,0.732048,-0.055322,-0.679003 KneeRight:-0.006530,0.681374,0.035312,0.731054 Neck:0.045787,-0.007650,0.994985,-0.088602 ShoulderLeft:0.001109,0.774898,-0.624938,0.094784 ShoulderRight:0.060804,0.782357,0.619465,-0.021987 SpineBase:0.035770,-0.005340,0.998107,-0.049738 SpineMid:0.040756,-0.005589,0.997916,-0.049711 SpineShoulder:0.045775,-0.007202,0.996598,-0.068158 ThumbLeft:0.000000,0.000000,0.000000,0.000000 ThumbRight:0.000000,0.000000,0.000000,0.000000 WristLeft:-0.062797,0.845237,-0.043345,0.528916 WristRight:-0.449655,0.811221,-0.119863,0.354067 END:
KINECT_DATA POSITION:15.336122,-1.494643,-4.994178 HEAD_JOINT1:0.973297,0.178945,-0.000000,0.143776 LARM_JOINT2:0.827742,0.000000,0.016559,-0.560865 LARM_JOINT3:0.973566,0.000000,-0.135111,-0.184160 LLEG_JOINT2:0.998421,0.040634,0.000000,0.038776 LLEG_JOINT4:0.996576,0.079101,0.000000,-0.024085 RARM_JOINT2:0.796195,0.000000,0.070054,0.600971 RARM_JOINT3:0.854236,0.000000,0.519272,-0.025235 RLEG_JOINT2:0.999377,0.019158,0.000000,-0.029637 RLEG_JOINT4:0.993939,0.105424,0.000000,0.031157 WAIST:0.999353,0.000000,-0.035954,-0.000710 WAIST_JOINT0:0.998973,0.000000,-0.044820,0.006624 WAIST_JOINT1:0.997315,0.072815,0.000000,-0.007749 END:
KINECT_DATA_Sensor  AnkleLeft:0.072224,0.731207,-0.096149,-0.671472 AnkleRight:0.092915,0.683576,0.082681,0.719204 ElbowLeft:0.003340,0.923704,-0.198970,-0.327369 ElbowRight:-0.082936,0.700972,0.118036,0.698446 FootLeft:0.000000,0.000000,0.000000,0.000000 FootRight:0.000000,0.000000,0.000000,0.000000 HandLeft:-0.005365,0.799725,0.056266,0.597700 HandRight:-0.552077,0.745822,-0.177578,0.327758 HandTipLeft:0.000000,0.000000,0.000000,0.000000 HandTipRight:0.000000,0.000000,0.000000,0.000000 Head:0.000000,0.000000,0.000000,0.000000 HipLeft:0.134114,-0.674721,0.700213,-0.190962 HipRight:-0.089749,0.682740,0.708592,-0.153975 KneeLeft:-0.000122,0.731959,-0.055661,-0.679071 KneeRight:-0.006634,0.681460,0.035255,0.730976 Neck:0.043676,-0.006825,0.995085,-0.088608 ShoulderLeft:0.002019,0.774244,-0.625964,0.093336 ShoulderRight:0.059009,0.782428,0.619480,-0.023837 SpineBase:0.035647,-0.004931,0.998124,-0.049524 SpineMid:0.039647,-0.005130,0.997974,-0.049504 SpineShoulder:0.043687,-0.006268,0.996711,-0.067964 ThumbLeft:0.000000,0.000000,0.000000,0.000000 ThumbRight:0.000000,0.000000,0.000000,0.000000 WristLeft:-0.058703,0.802352,-0.047720,0.592037 WristRight:-0.466745,0.792472,-0.126324,0.371724 END:
KINECT_DATA POSITION:15.314322,-1.481175,-4.948115 HEAD_JOINT1:0.973186,0.180617,-0.000000,0.142431 LARM_JOINT2:0.827420,0.000000,0.017727,-0.561303 LARM_JOINT3:0.973042,0.000000,-0.135703,-0.186478 LLEG_JOINT2:0.998375,0.041340,0.000000,0.039224 LLEG_JOINT4:0.996673,0.077094,0.000000,-0.026435 RARM_JOINT2:0.796005,0.000000,0.067108,0.601559 RARM_JOINT3:0.847596,0.000000,0.529394,-0.036364 RLEG_JOINT2:0.999405,0.019016,0.000000,-0.028781 RLEG_JOINT4:0.994015,0.105111,0.000000,0.029761 WAIST:0.999397,0.000000,-0.034705,-0.001129 WAIST_JOINT0:0.999046,0.000000,-0.043130,0.006841 WAIST_JOINT1:0.997328,0.072737,0.000000,-0.006775 END:
KINECT_DATA_Sensor  AnkleLeft:0.073055,0.730077,-0.093559,-0.672976 AnkleRight:0.091378,0.680737,0.083685,0.721973 ElbowLeft:0.003854,0.922310,-0.199333,-0.331052 ElbowRight:-0.081638,0.696692,0.118212,0.702838 FootLeft:0.000000,0.000000,0.000000,0.000000 FootRight:0.000000,0.000000,0.000000,0.000000 HandLeft:-0.008560,0.802265,0.061393,0.593741 HandRight:0.164731,-0.330842,-0.569828,0.733964 HandTipLeft:0.000000,0.000000,0.000000,0.000000 HandTipRight:0.000000,0.000000,0.000000,0.000000 Head:0.000000,0.000000,0.000000,0.000000 HipLeft:0.133414,-0.675255,0.700071,-0.190084 HipRight:-0.090761,0.682413,0.708722,-0.154233 KneeLeft:0.000403,0.731148,-0.056187,-0.679901 KneeRight:-0.006496,0.682328,0.034820,0.730187 Neck:0.041994,-0.006399,0.995163,-0.088576 ShoulderLeft:0.002643,0.773747,-0.626732,0.092278 ShoulderRight:0.057488,0.782261,0.619771,-0.025423 SpineBase:0.034459,-0.004684,0.998187,-0.049131 SpineMid:0.038215,-0.004869,0.998050,-0.049113 SpineShoulder:0.042021,-0.005750,0.996795,-0.067826 ThumbLeft:0.000000,0.000000,0.000000,0.000000 ThumbRight:0.000000,0.000000,0.000000,0.000000 WristLeft:-0.059820,0.805766,-0.047881,0.587257 WristRight:0.127768,-0.368371,-0.477254,0.787532 END:
KINECT_DATA POSITION:15.278421,-1.468087,-4.918838 HEAD_JOINT1:0.972622,0.183272,-0.000000,0.142892 LARM_JOINT2:0.827228,0.000000,0.019282,-0.561536 LARM_JOINT3:0.972925,0.000000,-0.136925,-0.186195 LLEG_JOINT2:0.998367,0.041418,0.000000,0.039331 LLEG_JOINT4:0.996407,0.080506,0.000000,-0.026308 RARM_JOINT2:0.794590,0.000000,0.083824,0.601332 RARM_JOINT3:0.852707,0.000000,0.519992,-0.049996 RLEG_JOINT2:0.999384,0.020084,0.000000,-0.028776 RLEG_JOINT4:0.994441,0.101195,0.000000,0.029097 WAIST:0.999421,0.000000,-0.033988,-0.001285 WAIST_JOINT0:0.999078,0.000000,-0.042332,0.007085 WAIST_JOINT1:0.997334,0.072679,0.000000,-0.006470 END:
KINECT_DATA_Sensor  AnkleLeft:0.076120,0.733786,-0.095549,-0.668307 AnkleRight:0.090712,0.699563,0.080167,0.704242 ElbowLeft:0.004354,0.920577,-0.199698,-0.335619 ElbowRight:-0.090451,0.695495,0.107184,0.704710 FootLeft:0.000000,0.000000,0.000000,0.000000 FootRight:0.000000,0.000000,0.000000,0.000000 HandLeft:-0.005915,0.806670,0.061051,0.587810 HandRight:0.152259,-0.329291,-0.559555,0.745173 HandTipLeft:0.000000,0.000000,0.000000,0.000000 HandTipRight:0.000000,0.000000,0.000000,0.000000 Head:0.000000,0.000000,0.000000,0.000000 HipLeft:0.133094,-0.675536,0.700024,-0.189485 HipRight:-0.091358,0.682280,0.708734,-0.154413 KneeLeft:0.000529,0.730674,-0.056207,-0.680409 KneeRight:-0.005846,0.682834,0.035652,0.729679 Neck:0.041215,-0.006323,0.995194,-0.088603 ShoulderLeft:0.002534,0.773343,-0.627264,0.092050 ShoulderRight:0.056404,0.782122,0.620005,-0.026412 SpineBase:0.033763,-0.004691,0.998224,-0.048847 SpineMid:0.037474,-0.004873,0.998092,-0.048830 SpineShoulder:0.041244,-0.005641,0.996835,-0.067725 ThumbLeft:0.000000,0.000000,0.000000,0.000000 ThumbRight:0.000000,0.000000,0.000000,0.000000 WristLeft:-0.061051,0.809650,-0.048265,0.581730 WristRight:0.125071,-0.356668,-0.487404,0.787136 END:
KINECT_DATA POSITION:15.249780,-1.450241,-4.866564 HEAD_JOINT1:0.972328,0.185517,-0.000000,0.141992 LARM_JOINT2:0.826659,0.000000,0.020273,-0.562338 LARM_JOINT3:0.972684,0.000000,-0.138160,-0.186543 LLEG_JOINT2:0.998415,0.041212,0.000000,0.038332 LLEG_JOINT4:0.996523,0.080892,0.000000,-0.019968 RARM_JOINT2:0.793092,0.000000,0.091443,0.602198 RARM_JOINT3:0.856404,0.000000,0.512548,-0.062185 RLEG_JOINT2:0.999361,0.021429,0.000000,-0.028592 RLEG_JOINT4:0.994213,0.103325,0.000000,0.029400 WAIST:0.999434,0.000000,-0.033622,-0.001274 WAIST_JOINT0:0.999118,0.000000,-0.041365,0.007256 WAIST_JOINT1:0.997346,0.072565,0.000000,-0.006008 END:
KINECT_DATA_Sensor  AnkleLeft:0.071810,0.729446,-0.099830,-0.672894 AnkleRight:0.092028,0.685829,0.083876,0.717031 ElbowLeft:0.004727,0.919482,-0.199536,-0.338698 ElbowRight:-0.093434,0.693610,0.100644,0.707140 FootLeft:0.000000,0.000000,0.000000,0.000000 FootRight:0.000000,0.000000,0.000000,0.000000 HandLeft:-0.011940,0.778499,0.063488,0.624312 HandRight:0.138595,-0.345829,-0.557363,0.741984 HandTipLeft:0.000000,0.000000,0.000000,0.000000 HandTipRight:0.000000,0.000000,0.000000,0.000000 Head:0.000000,0.000000,0.000000,0.000000 HipLeft:0.132932,-0.675685,0.700014,-0.189102 HipRight:-0.091861,0.682365,0.708609,-0.154314 KneeLeft:0.001128,0.730427,-0.055381,-0.680740 KneeRight:-0.004742,0.683086,0.036425,0.729414 Neck:0.040259,-0.005857,0.995243,-0.088521 ShoulderLeft:0.002956,0.772439,-0.628477,0.091362 ShoulderRight:0.055631,0.781503,0.620818,-0.027278 SpineBase:0.033414,-0.004373,0.998254,-0.048501 SpineMid:0.036827,-0.004539,0.998134,-0.048486 SpineShoulder:0.040299,-0.005149,0.996886,-0.067586 ThumbLeft:0.000000,0.000000,0.000000,0.000000 ThumbRight:0.000000,0.000000,0.000000,0.000000 WristLeft:-0.059071,0.783646,-0.051363,0.616256 WristRight:0.128472,-0.361163,-0.490357,0.782691 END:
KINECT_DATA POSITION:15.238741,-1.443836,-4.840493 HEAD_JOINT1:0.972091,0.186902,-0.000000,0.141800 LARM_JOINT2:0.826085,0.000000,0.020995,-0.563154 LARM_JOINT3:0.973216,0.000000,-0.136238,-0.185177 LLEG_JOINT2:0.998423,0.041274,0.000000,0.038060 LLEG_JOINT4:0.996580,0.079845,0.000000,-0.021304 RARM_JOINT2:0.791540,0.000000,0.093952,0.603853 RARM_JOINT3:0.854905,0.000000,0.513605,-0.073132 RLEG_JOINT2:0.999363,0.021660,0.000000,-0.028348 RLEG_JOINT4:0.994183,0.103060,0.000000,0.031301 WAIST:0.999469,0.000000,-0.032565,-0.001438 WAIST_JOINT0:0.999149,0.000000,-0.040578,0.007401 WAIST_JOINT1:0.997356,0.072447,0.000000,-0.005617 END:
KINECT_DATA_Sensor  AnkleLeft:0.074688,0.743793,-0.096172,-0.657225 AnkleRight:0.095532,0.706505,0.079817,0.696674 ElbowLeft:0.005166,0.918271,-0.199048,-0.342245 ElbowRight:-0.093839,0.689389,0.096545,0.711770 FootLeft:0.000000,0.000000,0.000000,0.000000 FootRight:0.000000,0.000000,0.000000,0.000000 HandLeft:-0.005199,0.754937,0.067134,0.652332 HandRight:0.156505,-0.370948,-0.564004,0.720974 HandTipLeft:0.000000,0.000000,0.000000,0.000000 HandTipRight:0.000000,0.000000,0.000000,0.000000 Head:0.000000,0.000000,0.000000,0.000000 HipLeft:0.132410,-0.675946,0.700018,-0.188518 HipRight:-0.092749,0.682149,0.708603,-0.154767 KneeLeft:0.001543,0.729721,-0.055124,-0.681518 KneeRight:-0.004561,0.683834,0.036516,0.728709 Neck:0.039479,-0.005763,0.995284,-0.088415 ShoulderLeft:0.003182,0.772220,-0.628822,0.090820 ShoulderRight:0.054863,0.781425,0.620954,-0.027954 SpineBase:0.032387,-0.004173,0.998299,-0.048305 SpineMid:0.035929,-0.004344,0.998178,-0.048290 SpineShoulder:0.039524,-0.005009,0.996928,-0.067441 ThumbLeft:0.000000,0.000000,0.000000,0.000000 ThumbRight:0.000000,0.000000,0.000000,0.000000 WristLeft:-0.057048,0.761124,-0.053974,0.643834 WristRight:0.144139,-0.389737,-0.489382,0.766704 END:
KINECT_DATA POSITION:15.229567,-1.436042,-4.834104 HEAD_JOINT1:0.971977,0.187572,-0.000000,0.141698 LARM_JOINT2:0.825720,0.000000,0.021140,-0.563684 LARM_JOINT3:0.972952,0.000000,-0.137322,-0.185760 LLEG_JOINT2:0.998439,0.040648,0.000000,0.038300 LLEG_JOINT4:0.996795,0.077544,0.000000,-0.019641 RARM_JOINT2:0.791058,0.000000,0.096837,0.604028 RARM_JOINT3:0.854131,0.000000,0.514743,-0.074165 RLEG_JOINT2:0.999384,0.020749,0.000000,-0.028307 RLEG_JOINT4:0.994077,0.103739,0.000000,0.032402 WAIST:0.999480,0.000000,-0.032197,-0.001543 WAIST_JOINT0:0.999195,0.000000,-0.039402,0.007572 WAIST_JOINT1:0.997351,0.072525,0.000000,-0.005593 END:
KINECT_DATA_Sensor  AnkleLeft:0.069200,0.728742,-0.096961,-0.674348 AnkleRight:0.093894,0.688169,0.081416,0.714827 ElbowLeft:0.005647,0.918123,-0.198480,-0.342963 ElbowRight:-0.095282,0.687726,0.094262,0.713491 FootLeft:0.000000,0.000000,0.000000,0.000000 FootRight:0.000000,0.000000,0.000000,0.000000 HandLeft:-0.018424,0.710548,0.065384,0.700362 HandRight:0.151337,-0.340593,-0.570386,0.731951 HandTipLeft:0.000000,0.000000,0.000000,0.000000 HandTipRight:0.000000,0.000000,0.000000,0.000000 Head:0.000000,0.000000,0.000000,0.000000 HipLeft:0.132128,-0.676066,0.700004,-0.188338 HipRight:-0.092906,0.682034,0.708647,-0.154972 KneeLeft:0.001034,0.729475,-0.054759,-0.681811 KneeRight:-0.005286,0.684096,0.035937,0.728487 Neck:0.038304,-0.005873,0.995319,-0.088539 ShoulderLeft:0.003857,0.772010,-0.629183,0.090079 ShoulderRight:0.054052,0.781312,0.621117,-0.029028 SpineBase:0.032030,-0.004194,0.998308,-0.048357 SpineMid:0.035169,-0.004346,0.998202,-0.048344 SpineShoulder:0.038354,-0.005035,0.996969,-0.067506 ThumbLeft:0.000000,0.000000,0.000000,0.000000 ThumbRight:0.000000,0.000000,0.000000,0.000000 WristLeft:-0.052945,0.720518,-0.057021,0.689056 WristRight:0.129042,-0.366216,-0.496418,0.776404 END:
KINECT_DATA POSITION:15.224050,-1.438177,-4.815948 HEAD_JOINT1:0.971807,0.189059,-0.000000,0.140883 LARM_JOINT2:0.825529,0.000000,0.021323,-0.563956 LARM_JOINT3:0.973322,0.000000,-0.138037,-0.183277 LLEG_JOINT2:0.998403,0.041122,0.000000,0.038738 LLEG_JOINT4:0.996609,0.079328,0.000000,-0.021866 RARM_JOINT2:0.791148,0.000000,0.096634,0.603943 RARM_JOINT3:0.847772,0.000000,0.525061,-0.074798 RLEG_JOINT2:0.999432,0.019196,0.000000,-0.027691 RLEG_JOINT4:0.993897,0.106208,0.000000,0.029805 WAIST:0.999498,0.000000,-0.031637,-0.001666 WAIST_JOINT0:0.999250,0.000000,-0.037983,0.007563 WAIST_JOINT1:0.997363,0.072371,0.000000,-0.005402 END:
KINECT_DATA_Sensor  AnkleLeft:0.072107,0.727514,-0.097275,-0.675323 AnkleRight:0.093006,0.687559,0.083771,0.715259 ElbowLeft:0.005792,0.917832,-0.198240,-0.343877 ElbowRight:-0.095417,0.687904,0.094239,0.713305 FootLeft:0.000000,0.000000,0.000000,0.000000 FootRight:0.000000,0.000000,0.000000,0.000000 HandLeft:-0.000991,0.846223,0.058520,0.529605 HandRight:0.156394,-0.317674,-0.589011,0.726423 HandTipLeft:0.000000,0.000000,0.000000,0.000000 HandTipRight:0.000000,0.000000,0.000000,0.000000 Head:0.000000,0.000000,0.000000,0.000000 HipLeft:0.131923,-0.676260,0.699954,-0.187971 HipRight:-0.093420,0.681923,0.708646,-0.155161 KneeLeft:0.001161,0.729105,-0.055316,-0.682162 KneeRight:-0.006106,0.684494,0.034511,0.728175 Neck:0.036898,-0.005778,0.995386,-0.088389 ShoulderLeft:0.004691,0.771901,-0.629482,0.088880 ShoulderRight:0.053071,0.781160,0.621345,-0.030042 SpineBase:0.031487,-0.004140,0.998335,-0.048162 SpineMid:0.034196,-0.004270,0.998245,-0.048151 SpineShoulder:0.036945,-0.004953,0.997033,-0.067347 ThumbLeft:0.000000,0.000000,0.000000,0.000000 ThumbRight:0.000000,0.000000,0.000000,0.000000 WristLeft:-0.063874,0.847201,-0.044824,0.525511 WristRight:0.125026,-0.352270,-0.503375,0.779030 END:
KINECT_DATA POSITION:15.216520,-1.436046,-4.815900 HEAD_JOINT1:0.971773,0.189589,-0.000000,0.140405 LARM_JOINT2:0.825503,0.000000,0.021580,-0.563985 LARM_JOINT3:0.973083,0.000000,-0.139400,-0.183510 LLEG_JOINT2:0.998370,0.041928,0.000000,0.038713 LLEG_JOINT4:0.996874,0.076016,0.000000,-0.021515 RARM_JOINT2:0.791106,0.000000,0.094275,0.604370 RARM_JOINT3:0.842034,0.000000,0.534648,-0.071621 RLEG_JOINT2:0.999378,0.021528,0.000000,-0.027925 RLEG_JOINT4:0.994103,0.104060,0.000000,0.030513 WAIST:0.999509,0.000000,-0.031306,-0.001568 WAIST_JOINT0:0.999255,0.000000,-0.037859,0.007440 WAIST_JOINT1:0.997375,0.072209,0.000000,-0.005377 END:
KINECT_DATA_Sensor  AnkleLeft:0.070125,0.727738,-0.095735,-0.675511 AnkleRight:0.095531,0.705288,0.081154,0.697751 ElbowLeft:0.005969,0.917840,-0.198333,-0.343799 ElbowRight:-0.093677,0.690728,0.095592,0.710621 FootLeft:0.000000,0.000000,0.000000,0.000000 FootRight:0.000000,0.000000,0.000000,0.000000 HandLeft:-0.013780,0.757174,0.055697,0.650689 HandRight:0.173996,-0.336647,-0.586022,0.716221 HandTipLeft:0.000000,0.000000,0.000000,0.000000 HandTipRight:0.000000,0.000000,0.000000,0.000000 Head:0.000000,0.000000,0.000000,0.000000 HipLeft:0.131681,-0.676278,0.700051,-0.187715 HipRight:-0.093588,0.681989,0.708542,-0.155242 KneeLeft:0.001682,0.728876,-0.055955,-0.682353 KneeRight:-0.004505,0.684735,0.036205,0.727878 Neck:0.036793,-0.005741,0.995406,-0.088206 ShoulderLeft:0.004457,0.771733,-0.629693,0.088858 ShoulderRight:0.052710,0.780909,0.621684,-0.030212 SpineBase:0.031153,-0.004051,0.998348,-0.048113 SpineMid:0.033979,-0.004187,0.998256,-0.048101 SpineShoulder:0.036846,-0.004861,0.997048,-0.067189 ThumbLeft:0.000000,0.000000,0.000000,0.000000 ThumbRight:0.000000,0.000000,0.000000,0.000000 WristLeft:-0.056757,0.762226,-0.053434,0.642600 WristRight:0.145874,-0.367841,-0.505405,0.766798 END:
KINECT_DATA POSITION:15.198180,-1.431676,-4.859042 HEAD_JOINT1:0.972137,0.189236,-0.000000,0.138348 LARM_JOINT2:0.825406,0.000000,0.020977,-0.564149 LARM_JOINT3:0.973544,0.000000,-0.136474,-0.183270 LLEG_JOINT2:0.998403,0.041310,0.000000,0.038522 LLEG_JOINT4:0.996853,0.076416,0.000000,-0.021084 RARM_JOINT2:0.791493,0.000000,0.092098,0.604200 RARM_JOINT3:0.842895,0.000000,0.533575,-0.069463 RLEG_JOINT2:0.999362,0.021859,0.000000,-0.028243 RLEG_JOINT4:0.994231,0.102787,0.000000,0.030650 WAIST:0.999496,0.000000,-0.031711,-0.001476 WAIST_JOINT0:0.999271,0.000000,-0.037436,0.007486 WAIST_JOINT1:0.997366,0.072357,0.000000,-0.005021 END:
KINECT_DATA_Sensor  AnkleLeft:0.069635,0.727582,-0.095884,-0.675708 AnkleRight:0.096235,0.717611,0.078840,0.685242 ElbowLeft:0.005576,0.918176,-0.198425,-0.342855 ElbowRight:-0.092256,0.691415,0.097138,0.709929 FootLeft:0.000000,0.000000,0.000000,0.000000 FootRight:0.000000,0.000000,0.000000,0.000000 HandLeft:-0.001934,0.780306,0.060806,0.622432 HandRight:0.158525,-0.337709,-0.577135,0.726456 HandTipLeft:0.000000,0.000000,0.000000,0.000000 HandTipRight:0.000000,0.000000,0.000000,0.000000 Head:0.000000,0.000000,0.000000,0.000000 HipLeft:0.131588,-0.676180,0.700086,-0.187999 HipRight:-0.093219,0.682178,0.708492,-0.154865 KneeLeft:0.001308,0.729148,-0.055440,-0.682106 KneeRight:-0.004401,0.684430,0.036599,0.728146 Neck:0.036336,-0.005180,0.995409,-0.088396 ShoulderLeft:0.005195,0.771282,-0.630309,0.088359 ShoulderRight:0.052856,0.780711,0.621907,-0.030456 SpineBase:0.031567,-0.003621,0.998331,-0.048230 SpineMid:0.033967,-0.003737,0.998252,-0.048221 SpineShoulder:0.036398,-0.004325,0.997058,-0.067317 ThumbLeft:0.000000,0.000000,0.000000,0.000000 ThumbRight:0.000000,0.000000,0.000000,0.000000 WristLeft:-0.058537,0.783931,-0.051561,0.615928 WristRight:0.141759,-0.358523,-0.507514,0.770581 END:
KINECT_DATA POSITION:15.176145,-1.429527,-4.925644 HEAD_JOINT1:0.972562,0.187748,-0.000000,0.137380 LARM_JOINT2:0.825662,0.000000,0.020176,-0.563805 LARM_JOINT3:0.973788,0.000000,-0.135977,-0.182340 LLEG_JOINT2:0.998392,0.041166,0.000000,0.038969 LLEG_JOINT4:0.996835,0.076684,0.000000,-0.020980 RARM_JOINT2:0.791733,0.000000,0.091463,0.603981 RARM_JOINT3:0.842201,0.000000,0.534521,-0.070598 RLEG_JOINT2:0.999331,0.023017,0.000000,-0.028405 RLEG_JOINT4:0.994555,0.099083,0.000000,0.032299 WAIST:0.999539,0.000000,-0.030332,-0.001444 WAIST_JOINT0:0.999278,0.000000,-0.037256,0.007464 WAIST_JOINT1:0.997371,0.072320,0.000000,-0.004629 END:
KINECT_DATA_Sensor  AnkleLeft:0.069564,0.727507,-0.096186,-0.675753 AnkleRight:0.093622,0.705164,0.078047,0.698489 ElbowLeft:0.005097,0.918044,-0.198894,-0.342944 ElbowRight:-0.092110,0.691873,0.097225,0.709489 FootLeft:0.000000,0.000000,0.000000,0.000000 FootRight:0.000000,0.000000,0.000000,0.000000 HandLeft:0.001970,0.734152,0.060908,0.676245 HandRight:0.162645,-0.343030,-0.578172,0.722215 HandTipLeft:0.000000,0.000000,0.000000,0.000000 HandTipRight:0.000000,0.000000,0.000000,0.000000 Head:0.000000,0.000000,0.000000,0.000000 HipLeft:0.130603,-0.676360,0.700290,-0.187282 HipRight:-0.094133,0.682063,0.708337,-0.155524 KneeLeft:0.000941,0.728209,-0.055664,-0.683090 KneeRight:-0.003695,0.685417,0.037484,0.727176 Neck:0.036151,-0.004982,0.995421,-0.088349 ShoulderLeft:0.005318,0.771092,-0.630568,0.088163 ShoulderRight:0.052742,0.780583,0.622073,-0.030565 SpineBase:0.030211,-0.003211,0.998375,-0.048222 SpineMid:0.033204,-0.003355,0.998280,-0.048212 SpineShoulder:0.036221,-0.004078,0.997070,-0.067258 ThumbLeft:0.000000,0.000000,0.000000,0.000000 ThumbRight:0.000000,0.000000,0.000000,0.000000 WristLeft:-0.055374,0.739453,-0.056026,0.668583 WristRight:0.146404,-0.363773,-0.506769,0.767737 END:
KINECT_DATA POSITION:15.156015,-1.415716,-4.994416 HEAD_JOINT1:0.972631,0.187393,-0.000000,0.137381 LARM_JOINT2:0.825616,0.000000,0.020754,-0.563850 LARM_JOINT3:0.973773,0.000000,-0.134895,-0.183222 LLEG_JOINT2:0.998372,0.041076,0.000000,0.039570 LLEG_JOINT4:0.996660,0.078440,0.000000,-0.022718 RARM_JOINT2:0.791497,0.000000,0.088758,0.604694 RARM_JOINT3:0.843963,0.000000,0.532096,-0.067828 RLEG_JOINT2:0.999369,0.022254,0.000000,-0.027668 RLEG_JOINT4:0.994525,0.099790,0.000000,0.031004 WAIST:0.999544,0.000000,-0.030147,-0.001693 WAIST_JOINT0:0.999266,0.000000,-0.037625,0.007220 WAIST_JOINT1:0.997373,0.072291,0.000000,-0.004498 END:
KINECT_DATA_Sensor  AnkleLeft:0.071753,0.727347,-0.096380,-0.675669 AnkleRight:0.092961,0.704693,0.078723,0.698977 ElbowLeft:0.005578,0.917912,-0.198907,-0.343282 ElbowRight:-0.090431,0.691303,0.098390,0.710100 FootLeft:0.000000,0.000000,0.000000,0.000000 FootRight:0.000000,0.000000,0.000000,0.000000 HandLeft:0.008331,0.799580,0.064944,0.596979 HandRight:0.156214,-0.350279,-0.562466,0.732485 HandTipLeft:0.000000,0.000000,0.000000,0.000000 HandTipRight:0.000000,0.000000,0.000000,0.000000 Head:0.000000,0.000000,0.000000,0.000000 HipLeft:0.130463,-0.676589,0.700117,-0.187198 HipRight:-0.094272,0.681914,0.708441,-0.155619 KneeLeft:0.000629,0.728099,-0.055835,-0.683194 KneeRight:-0.003930,0.685538,0.036599,0.727106 Neck:0.036540,-0.005185,0.995409,-0.088307 ShoulderLeft:0.005331,0.771352,-0.630245,0.088198 ShoulderRight:0.053250,0.780471,0.622197,-0.030016 SpineBase:0.030048,-0.003252,0.998380,-0.048210 SpineMid:0.033318,-0.003410,0.998276,-0.048199 SpineShoulder:0.036611,-0.004239,0.997057,-0.067222 ThumbLeft:0.000000,0.000000,0.000000,0.000000 ThumbRight:0.000000,0.000000,0.000000,0.000000 WristLeft:-0.060037,0.802150,-0.050077,0.591982 WristRight:0.146379,-0.363793,-0.507216,0.767437 END:
KINECT_DATA POSITION:15.142645,-1.408578,-5.060434 HEAD_JOINT1:0.972776,0.186649,-0.000000,0.137366 LARM_JOINT2:0.825229,0.000000,0.020253,-0.564435 LARM_JOINT3:0.974012,0.000000,-0.134976,-0.181885 LLEG_JOINT2:0.998382,0.040900,0.000000,0.039508 LLEG_JOINT4:0.996762,0.077000,0.000000,-0.023176 RARM_JOINT2:0.790961,0.000000,0.089035,0.605354 RARM_JOINT3:0.844411,0.000000,0.530771,-0.072481 RLEG_JOINT2:0.999384,0.022106,0.000000,-0.027241 RLEG_JOINT4:0.994538,0.099361,0.000000,0.031973 WAIST:0.999522,0.000000,-0.030874,-0.001781 WAIST_JOINT0:0.999249,0.000000,-0.038097,0.007082 WAIST_JOINT1:0.997378,0.072221,0.000000,-0.004649 END:
KINECT_DATA_Sensor  AnkleLeft:0.070955,0.727687,-0.094887,-0.675599 AnkleRight:0.091584,0.687496,0.079481,0.715992 ElbowLeft:0.005285,0.918196,-0.197882,-0.343119 ElbowRight:-0.090336,0.689093,0.097619,0.712363 FootLeft:0.000000,0.000000,0.000000,0.000000 FootRight:0.000000,0.000000,0.000000,0.000000 HandLeft:0.006841,0.821157,0.063184,0.567152 HandRight:0.149649,-0.354011,-0.566715,0.728777 HandTipLeft:0.000000,0.000000,0.000000,0.000000 HandTipRight:0.000000,0.000000,0.000000,0.000000 Head:0.000000,0.000000,0.000000,0.000000 HipLeft:0.130890,-0.676559,0.699979,-0.187523 HipRight:-0.093818,0.681954,0.708566,-0.155151 KneeLeft:0.000573,0.728600,-0.055603,-0.682679 KneeRight:-0.003783,0.685008,0.036251,0.727623 Neck:0.036963,-0.005386,0.995398,-0.088248 ShoulderLeft:0.006463,0.771628,-0.630017,0.087330 ShoulderRight:0.054922,0.780472,0.622122,-0.028489 SpineBase:0.030777,-0.003330,0.998360,-0.048162 SpineMid:0.033899,-0.003481,0.998259,-0.048151 SpineShoulder:0.037036,-0.004393,0.997045,-0.067157 ThumbLeft:0.000000,0.000000,0.000000,0.000000 ThumbRight:0.000000,0.000000,0.000000,0.000000 WristLeft:-0.060879,0.822922,-0.048025,0.562838 WristRight:0.144069,-0.365414,-0.507453,0.766947 END:
KINECT_DATA POSITION:15.140422,-1.406693,-5.092371 HEAD_JOINT1:0.972636,0.186902,-0.000000,0.138012 LARM_JOINT2:0.824954,0.000000,0.020309,-0.564835 LARM_JOINT3:0.973927,0.000000,-0.134625,-0.182597 LLEG_JOINT2:0.998410,0.039681,0.000000,0.040032 LLEG_JOINT4:0.996689,0.077374,0.000000,-0.024985 RARM_JOINT2:0.791098,0.000000,0.087958,0.605332 RARM_JOINT3:0.844952,0.000000,0.528276,-0.083552 RLEG_JOINT2:0.999395,0.021686,0.000000,-0.027178 RLEG_JOINT4:0.994630,0.098255,0.000000,0.032510 WAIST:0.999519,0.000000,-0.030943,-0.001952 WAIST_JOINT0:0.999246,0.000000,-0.038170,0.007063 WAIST_JOINT1:0.997391,0.072045,0.000000,-0.004660 END:
KINECT_DATA_Sensor  AnkleLeft:0.071393,0.727609,-0.093289,-0.675860 AnkleRight:0.090743,0.687523,0.078139,0.716220 ElbowLeft:0.005184,0.917905,-0.197237,-0.344269 ElbowRight:-0.090606,0.685366,0.097915,0.715875 FootLeft:0.000000,0.000000,0.000000,0.000000 FootRight:0.000000,0.000000,0.000000,0.000000 HandLeft:-0.008355,0.710347,0.065259,0.700770 HandRight:0.121964,-0.359260,-0.580156,0.720747 HandTipLeft:0.000000,0.000000,0.000000,0.000000 HandTipRight:0.000000,0.000000,0.000000,0.000000 Head:0.000000,0.000000,0.000000,0.000000 HipLeft:0.130986,-0.676692,0.699840,-0.187493 HipRight:-0.093813,0.681872,0.708670,-0.155035 KneeLeft:-0.000529,0.728654,-0.054953,-0.682674 KneeRight:-0.004165,0.684949,0.036039,0.727688 Neck:0.037032,-0.005608,0.995412,-0.088050 ShoulderLeft:0.006265,0.771737,-0.629892,0.087286 ShoulderRight:0.054820,0.780542,0.622051,-0.028321 SpineBase:0.030859,-0.003423,0.998362,-0.048064 SpineMid:0.033976,-0.003573,0.998260,-0.048053 SpineShoulder:0.037106,-0.004560,0.997053,-0.066988 ThumbLeft:0.000000,0.000000,0.000000,0.000000 ThumbRight:0.000000,0.000000,0.000000,0.000000 WristLeft:-0.052202,0.719062,-0.057594,0.690585 WristRight:0.134821,-0.359481,-0.510308,0.769534 END:
KINECT_DATA POSITION:15.136701,-1.405074,-5.102777 HEAD_JOINT1:0.972495,0.187229,-0.000000,0.138559 LARM_JOINT2:0.824960,0.000000,0.020422,-0.564822 LARM_JOINT3:0.973232,0.000000,-0.140109,-0.182179 LLEG_JOINT2:0.998428,0.039073,0.000000,0.040186 LLEG_JOINT4:0.996660,0.077736,0.000000,-0.024999 RARM_JOINT2:0.791528,0.000000,0.087375,0.604854 RARM_JOINT3:0.846441,0.000000,0.524336,-0.092790 RLEG_JOINT2:0.999393,0.021527,0.000000,-0.027405 RLEG_JOINT4:0.994618,0.098235,0.000000,0.032940 WAIST:0.999509,0.000000,-0.031275,-0.002000 WAIST_JOINT0:0.999203,0.000000,-0.039248,0.007218 WAIST_JOINT1:0.997396,0.071965,0.000000,-0.004769 END:
KINECT_DATA_Sensor  AnkleLeft:0.071178,0.728224,-0.093157,-0.675237 AnkleRight:0.092098,0.699779,0.076262,0.704281 ElbowLeft:0.005230,0.918109,-0.197115,-0.343795 ElbowRight:-0.092126,0.676170,0.097662,0.724409 FootLeft:0.000000,0.000000,0.000000,0.000000 FootRight:0.000000,0.000000,0.000000,0.000000 HandLeft:-0.019012,0.774152,0.052044,0.630570 HandRight:0.114786,-0.361464,-0.574533,0.725314 HandTipLeft:0.000000,0.000000,0.000000,0.000000 HandTipRight:0.000000,0.000000,0.000000,0.000000 Head:0.000000,0.000000,0.000000,0.000000 HipLeft:0.131239,-0.676655,0.699766,-0.187729 HipRight:-0.093634,0.681850,0.708732,-0.154959 KneeLeft:-0.001045,0.728879,-0.054581,-0.682462 KneeRight:-0.004458,0.684708,0.036130,0.727908 Neck:0.038051,-0.005871,0.995380,-0.087953 ShoulderLeft:0.005783,0.771779,-0.629771,0.087821 ShoulderRight:0.055673,0.780808,0.621691,-0.027208 SpineBase:0.031189,-0.003535,0.998349,-0.048105 SpineMid:0.034652,-0.003702,0.998235,-0.048092 SpineShoulder:0.038133,-0.004720,0.997019,-0.066912 ThumbLeft:0.000000,0.000000,0.000000,0.000000 ThumbRight:0.000000,0.000000,0.000000,0.000000 WristLeft:-0.057521,0.778543,-0.052341,0.622754 WristRight:0.125036,-0.363097,-0.514856,0.766453 END:
KINECT_DATA POSITION:15.135193,-1.408105,-5.100894 HEAD_JOINT1:0.972227,0.187749,-0.000000,0.139734 LARM_JOINT2:0.825083,0.000000,0.020156,-0.564652 LARM_JOINT3:0.972775,0.000000,-0.140689,-0.184159 LLEG_JOINT2:0.998432,0.039019,0.000000,0.040132 LLEG_JOINT4:0.996376,0.080714,0.000000,-0.026825 RARM_JOINT2:0.791963,0.000000,0.086651,0.604389 RARM_JOINT3:0.845674,0.000000,0.524787,-0.097131 RLEG_JOINT2:0.999391,0.021274,0.000000,-0.027654 RLEG_JOINT4:0.994415,0.100524,0.000000,0.032161 WAIST:0.999482,0.000000,-0.032139,-0.001938 WAIST_JOINT0:0.999150,0.000000,-0.040635,0.006974 WAIST_JOINT1:0.997393,0.071977,0.000000,-0.005199 END:
KINECT_DATA_Sensor  AnkleLeft:0.074429,0.728449,-0.094056,-0.674519 AnkleRight:0.091966,0.689144,0.079524,0.714352 ElbowLeft:0.005149,0.918828,-0.196890,-0.341998 ElbowRight:-0.092904,0.671687,0.098399,0.728370 FootLeft:0.000000,0.000000,0.000000,0.000000 FootRight:0.000000,0.000000,0.000000,0.000000 HandLeft:-0.022398,0.783960,0.056407,0.617837 HandRight:0.112829,-0.356904,-0.580440,0.723173 HandTipLeft:0.000000,0.000000,0.000000,0.000000 HandTipRight:0.000000,0.000000,0.000000,0.000000 Head:0.000000,0.000000,0.000000,0.000000 HipLeft:0.131938,-0.676535,0.699609,-0.188256 HipRight:-0.093186,0.682035,0.708689,-0.154612 KneeLeft:-0.001135,0.729462,-0.054548,-0.681842 KneeRight:-0.004738,0.684090,0.036098,0.728488 Neck:0.039470,-0.006327,0.995318,-0.088002 ShoulderLeft:0.004058,0.772017,-0.629250,0.089540 ShoulderRight:0.055790,0.780813,0.621695,-0.026699 SpineBase:0.032035,-0.003705,0.998323,-0.048073 SpineMid:0.035790,-0.003886,0.998196,-0.048059 SpineShoulder:0.039561,-0.005031,0.996961,-0.066927 ThumbLeft:0.000000,0.000000,0.000000,0.000000 ThumbRight:0.000000,0.000000,0.000000,0.000000 WristLeft:-0.059485,0.788930,-0.050557,0.609504 WristRight:0.118485,-0.362951,-0.517007,0.766114 END:
KINECT_DATA POSITION:15.127769,-1.413371,-5.086792 HEAD_JOINT1:0.971838,0.188728,-0.000000,0.141115 LARM_JOINT2:0.825184,0.000000,0.019614,-0.564524 LARM_JOINT3:0.973116,0.000000,-0.138559,-0.183976 LLEG_JOINT2:0.998422,0.038803,0.000000,0.040600 LLEG_JOINT4:0.996552,0.079744,0.000000,-0.022928 RARM_JOINT2:0.792196,0.000000,0.085486,0.604250 RARM_JOINT3:0.845276,0.000000,0.526363,-0.091926 RLEG_JOINT2:0.999394,0.021542,0.000000,-0.027325 RLEG_JOINT4:0.994722,0.097579,0.000000,0.031727 WAIST:0.999445,0.000000,-0.033254,-0.002078 WAIST_JOINT0:0.999087,0.000000,-0.042170,0.006886 WAIST_JOINT1:0.997358,0.072427,0.000000,-0.005555 END:
KINECT_DATA_Sensor  AnkleLeft:0.070539,0.729996,-0.096137,-0.672970 AnkleRight:0.091739,0.705618,0.075635,0.698546 ElbowLeft:0.005233,0.919628,-0.196593,-0.340012 ElbowRight:-0.092516,0.670148,0.099968,0.729622 FootLeft:0.000000,0.000000,0.000000,0.000000 FootRight:0.000000,0.000000,0.000000,0.000000 HandLeft:-0.013160,0.789064,0.060405,0.611192 HandRight:0.133415,-0.365052,-0.566768,0.726438 HandTipLeft:0.000000,0.000000,0.000000,0.000000 HandTipRight:0.000000,0.000000,0.000000,0.000000 Head:0.000000,0.000000,0.000000,0.000000 HipLeft:0.132769,-0.676418,0.699324,-0.189147 HipRight:-0.092579,0.682034,0.708831,-0.154328 KneeLeft:-0.001587,0.730226,-0.054608,-0.681018 KneeRight:-0.004378,0.683280,0.036143,0.729249 Neck:0.040981,-0.006833,0.995203,-0.088570 ShoulderLeft:0.003055,0.771816,-0.629260,0.091227 ShoulderRight:0.056791,0.780621,0.621876,-0.025999 SpineBase:0.033148,-0.003934,0.998278,-0.048233 SpineMid:0.037107,-0.004125,0.998139,-0.048217 SpineShoulder:0.041077,-0.005438,0.996869,-0.067351 ThumbLeft:0.000000,0.000000,0.000000,0.000000 ThumbRight:0.000000,0.000000,0.000000,0.000000 WristLeft:-0.060344,0.793387,-0.049208,0.603716 WristRight:0.126910,-0.377478,-0.516201,0.758248 END:
KINECT_DATA POSITION:15.107313,-1.418780,-5.066872 HEAD_JOINT1:0.971632,0.189221,-0.000000,0.141872 LARM_JOINT2:0.825222,0.000000,0.019999,-0.564454 LARM_JOINT3:0.973664,0.000000,-0.135880,-0.183073 LLEG_JOINT2:0.998404,0.039283,0.000000,0.040578 LLEG_JOINT4:0.996553,0.079457,0.000000,-0.023846 RARM_JOINT2:0.792325,0.000000,0.085348,0.604101 RARM_JOINT3:0.845582,0.000000,0.526172,-0.090189 RLEG_JOINT2:0.999402,0.021708,0.000000,-0.026908 RLEG_JOINT4:0.994496,0.100249,0.000000,0.030460 WAIST:0.999411,0.000000,-0.034268,-0.002073 WAIST_JOINT0:0.999035,0.000000,-0.043372,0.006878 WAIST_JOINT1:0.997354,0.072455,0.000000,-0.005904 END:
KINECT_DATA_Sensor  AnkleLeft:0.071225,0.730508,-0.095716,-0.672401 AnkleRight:0.091175,0.684638,0.080628,0.718649 ElbowLeft:0.005410,0.919902,-0.196500,-0.339322 ElbowRight:-0.092626,0.669986,0.100618,0.729668 FootLeft:0.000000,0.000000,0.000000,0.000000 FootRight:0.000000,0.000000,0.000000,0.000000 HandLeft:-0.012432,0.692226,0.061973,0.718907 HandRight:0.142605,-0.376261,-0.562796,0.722047 HandTipLeft:0.000000,0.000000,0.000000,0.000000 HandTipRight:0.000000,0.000000,0.000000,0.000000 Head:0.000000,0.000000,0.000000,0.000000 HipLeft:0.133486,-0.676246,0.699220,-0.189641 HipRight:-0.091961,0.682105,0.708949,-0.153839 KneeLeft:-0.001303,0.730915,-0.054945,-0.680252 KneeRight:-0.003933,0.682553,0.035951,0.729941 Neck:0.042189,-0.007115,0.995144,-0.088647 ShoulderLeft:0.001959,0.771651,-0.629293,0.092423 ShoulderRight:0.057281,0.780479,0.622038,-0.025309 SpineBase:0.034145,-0.004194,0.998244,-0.048215 SpineMid:0.038206,-0.004390,0.998097,-0.048198 SpineShoulder:0.042282,-0.005724,0.996815,-0.067379 ThumbLeft:0.000000,0.000000,0.000000,0.000000 ThumbRight:0.000000,0.000000,0.000000,0.000000 WristLeft:-0.052058,0.696544,-0.057153,0.713337 WristRight:0.134542,-0.389436,-0.514128,0.752270 END:
KINECT_DATA POSITION:15.098315,-1.424606,-5.051088 HEAD_JOINT1:0.971546,0.189067,-0.000000,0.142661 LARM_JOINT2:0.825298,0.000000,0.020430,-0.564328 LARM_JOINT3:0.973404,0.000000,-0.137446,-0.183287 LLEG_JOINT2:0.998416,0.039432,0.000000,0.040121 LLEG_JOINT4:0.996321,0.082268,0.000000,-0.024019 RARM_JOINT2:0.792607,0.000000,0.086485,0.603568 RARM_JOINT3:0.844591,0.000000,0.527680,-0.090661 RLEG_JOINT2:0.999416,0.021400,0.000000,-0.026656 RLEG_JOINT4:0.994492,0.100727,0.000000,0.028988 WAIST:0.999385,0.000000,-0.035027,-0.001932 WAIST_JOINT0:0.999008,0.000000,-0.043967,0.007098 WAIST_JOINT1:0.997351,0.072485,0.000000,-0.006126 END:
KINECT_DATA_Sensor  AnkleLeft:0.073516,0.730476,-0.097586,-0.671920 AnkleRight:0.090675,0.684424,0.081439,0.718825 ElbowLeft:0.005458,0.919883,-0.196723,-0.339243 ElbowRight:-0.093465,0.670336,0.100558,0.729247 FootLeft:0.000000,0.000000,0.000000,0.000000 FootRight:0.000000,0.000000,0.000000,0.000000 HandLeft:-0.014019,0.727599,0.060198,0.683213 HandRight:0.127573,-0.351091,-0.574152,0.728567 HandTipLeft:0.000000,0.000000,0.000000,0.000000 HandTipRight:0.000000,0.000000,0.000000,0.000000 Head:0.000000,0.000000,0.000000,0.000000 HipLeft:0.134078,-0.675983,0.699247,-0.190061 HipRight:-0.091592,0.682218,0.708963,-0.153494 KneeLeft:-0.001011,0.731422,-0.054838,-0.679716 KneeRight:-0.003861,0.682015,0.035458,0.730468 Neck:0.042751,-0.007109,0.995115,-0.088706 ShoulderLeft:0.001783,0.771472,-0.629464,0.092748 ShoulderRight:0.057842,0.780561,0.621906,-0.024734 SpineBase:0.034885,-0.004259,0.998220,-0.048186 SpineMid:0.038855,-0.004451,0.998073,-0.048168 SpineShoulder:0.042842,-0.005741,0.996788,-0.067415 ThumbLeft:0.000000,0.000000,0.000000,0.000000 ThumbRight:0.000000,0.000000,0.000000,0.000000 WristLeft:-0.055042,0.734823,-0.054217,0.673844 WristRight:0.119021,-0.365931,-0.518292,0.763742 END:
KINECT_DATA POSITION:15.101059,-1.430310,-5.047679 HEAD_JOINT1:0.971589,0.188596,-0.000000,0.142993 LARM_JOINT2:0.825438,0.000000,0.020006,-0.564137 LARM_JOINT3:0.974011,0.000000,-0.136443,-0.180791 LLEG_JOINT2:0.998411,0.039647,0.000000,0.040032 LLEG_JOINT4:0.996396,0.081756,0.000000,-0.022627 RARM_JOINT2:0.792622,0.000000,0.086308,0.603574 RARM_JOINT3:0.845727,0.000000,0.526393,-0.087497 RLEG_JOINT2:0.999397,0.021603,0.000000,-0.027196 RLEG_JOINT4:0.994549,0.099404,0.000000,0.031495 WAIST:0.999381,0.000000,-0.035123,-0.001845 WAIST_JOINT0:0.998990,0.000000,-0.044326,0.007292 WAIST_JOINT1:0.997349,0.072508,0.000000,-0.006162 END:
KINECT_DATA_Sensor  AnkleLeft:0.072340,0.730880,-0.098310,-0.671503 AnkleRight:0.091187,0.684000,0.079210,0.719412 ElbowLeft:0.005405,0.920563,-0.196839,-0.337326 ElbowRight:-0.093318,0.670264,0.100661,0.729318 FootLeft:0.000000,0.000000,0.000000,0.000000 FootRight:0.000000,0.000000,0.000000,0.000000 HandLeft:-0.003142,0.753902,0.052925,0.654844 HandRight:0.133256,-0.353355,-0.563467,0.734770 HandTipLeft:0.000000,0.000000,0.000000,0.000000 HandTipRight:0.000000,0.000000,0.000000,0.000000 Head:0.000000,0.000000,0.000000,0.000000 HipLeft:0.134169,-0.675939,0.699247,-0.190154 HipRight:-0.091597,0.682320,0.708866,-0.153487 KneeLeft:-0.000864,0.731483,-0.054996,-0.679637 KneeRight:-0.004016,0.681946,0.035931,0.730508 Neck:0.043086,-0.007038,0.995099,-0.088720 ShoulderLeft:0.001664,0.771253,-0.629702,0.092963 ShoulderRight:0.058166,0.780593,0.621848,-0.024413 SpineBase:0.034975,-0.004202,0.998218,-0.048175 SpineMid:0.039067,-0.004400,0.998066,-0.048157 SpineShoulder:0.043175,-0.005710,0.996772,-0.067441 ThumbLeft:0.000000,0.000000,0.000000,0.000000 ThumbRight:0.000000,0.000000,0.000000,0.000000 WristLeft:-0.056549,0.757483,-0.051874,0.648329 WristRight:0.120886,-0.368820,-0.517826,0.762375 END:
KINECT_DATA POSITION:15.103433,-1.441537,-5.024147 HEAD_JOINT1:0.971666,0.188228,-0.000000,0.142950 LARM_JOINT2:0.826072,0.000000,0.020257,-0.563200 LARM_JOINT3:0.973769,0.000000,-0.138687,-0.180388 LLEG_JOINT2:0.998382,0.040467,0.000000,0.039956 LLEG_JOINT4:0.996552,0.079882,0.000000,-0.022426 RARM_JOINT2:0.792763,0.000000,0.087370,0.603235 RARM_JOINT3:0.843862,0.000000,0.529311,-0.087902 RLEG_JOINT2:0.999416,0.020602,0.000000,-0.027248 RLEG_JOINT4:0.994422,0.100874,0.000000,0.030812 WAIST:0.999348,0.000000,-0.036081,-0.001573 WAIST_JOINT0:0.998958,0.000000,-0.045034,0.007410 WAIST_JOINT1:0.997348,0.072495,0.000000,-0.006486 END:
KINECT_DATA_Sensor  AnkleLeft:0.071208,0.731445,-0.097921,-0.671066 AnkleRight:0.091360,0.683734,0.079731,0.719586 ElbowLeft:0.005181,0.921083,-0.197881,-0.335295 ElbowRight:-0.093901,0.670699,0.100492,0.728866 FootLeft:0.000000,0.000000,0.000000,0.000000 FootRight:0.000000,0.000000,0.000000,0.000000 HandLeft:0.001380,0.832385,0.043680,0.552472 HandRight:0.132355,-0.340807,-0.576008,0.731128 HandTipLeft:0.000000,0.000000,0.000000,0.000000 HandTipRight:0.000000,0.000000,0.000000,0.000000 Head:0.000000,0.000000,0.000000,0.000000 HipLeft:0.134767,-0.675622,0.699324,-0.190576 HipRight:-0.091016,0.682606,0.708789,-0.152918 KneeLeft:-0.000493,0.732121,-0.055734,-0.678891 KneeRight:-0.004559,0.681268,0.035097,0.731178 Neck:0.043769,-0.006989,0.995068,-0.088746 ShoulderLeft:0.001137,0.771089,-0.629817,0.093548 ShoulderRight:0.058529,0.780666,0.621741,-0.023918 SpineBase:0.035905,-0.004192,0.998187,-0.048123 SpineMid:0.039875,-0.004383,0.998036,-0.048106 SpineShoulder:0.043859,-0.005679,0.996743,-0.067438 ThumbLeft:0.000000,0.000000,0.000000,0.000000 ThumbRight:0.000000,0.000000,0.000000,0.000000 WristLeft:-0.063221,0.831930,-0.044192,0.549493 WristRight:0.116187,-0.361099,-0.519023,0.765979 END:
KINECT_DATA POSITION:15.092784,-1.447312,-5.012786 HEAD_JOINT1:0.971681,0.188000,-0.000000,0.143149 LARM_JOINT2:0.826496,0.000000,0.021048,-0.562549 LARM_JOINT3:0.973066,0.000000,-0.140149,-0.183031 LLEG_JOINT2:0.998383,0.040475,0.000000,0.039925 LLEG_JOINT4:0.996626,0.078963,0.000000,-0.022387 RARM_JOINT2:0.792643,0.000000,0.086953,0.603453 RARM_JOINT3:0.843602,0.000000,0.529743,-0.087792 RLEG_JOINT2:0.999412,0.020849,0.000000,-0.027226 RLEG_JOINT4:0.994303,0.102164,0.000000,0.030408 WAIST:0.999332,0.000000,-0.036515,-0.001372 WAIST_JOINT0:0.998923,0.000000,-0.045788,0.007495 WAIST_JOINT1:0.997349,0.072445,0.000000,-0.006821 END:
KINECT_DATA_Sensor  AnkleLeft:0.070415,0.731987,-0.097427,-0.670630 AnkleRight:0.095328,0.709283,0.077404,0.694146 ElbowLeft:0.005194,0.920732,-0.198704,-0.335770 ElbowRight:-0.093597,0.670352,0.100692,0.729198 FootLeft:0.000000,0.000000,0.000000,0.000000 FootRight:0.000000,0.000000,0.000000,0.000000 HandLeft:-0.009398,0.752430,0.048433,0.656821 HandRight:0.139928,-0.351669,-0.574466,0.725767 HandTipLeft:0.000000,0.000000,0.000000,0.000000 HandTipRight:0.000000,0.000000,0.000000,0.000000 Head:0.000000,0.000000,0.000000,0.000000 HipLeft:0.135002,-0.675465,0.699404,-0.190672 HipRight:-0.090648,0.682807,0.708703,-0.152635 KneeLeft:-0.000633,0.732401,-0.055860,-0.678578 KneeRight:-0.004205,0.680970,0.035109,0.731457 Neck:0.044513,-0.007137,0.995036,-0.088718 ShoulderLeft:0.000268,0.771046,-0.629750,0.094357 ShoulderRight:0.058633,0.780789,0.621592,-0.023538 SpineBase:0.036313,-0.004284,0.998173,-0.048101 SpineMid:0.040450,-0.004483,0.998014,-0.048083 SpineShoulder:0.044604,-0.005801,0.996712,-0.067396 ThumbLeft:0.000000,0.000000,0.000000,0.000000 ThumbRight:0.000000,0.000000,0.000000,0.000000 WristLeft:-0.058139,0.755771,-0.052039,0.650171 WristRight:0.123571,-0.372105,-0.517725,0.760413 END:
KINECT_DATA POSITION:15.087960,-1.456137,-4.997110 HEAD_JOINT1:0.971873,0.186774,-0.000000,0.143454 LARM_JOINT2:0.826982,0.000000,0.020495,-0.561855 LARM_JOINT3:0.973507,0.000000,-0.138070,-0.182267 LLEG_JOINT2:0.998360,0.040771,0.000000,0.040193 LLEG_JOINT4:0.996230,0.083459,0.000000,-0.023664 RARM_JOINT2:0.792829,0.000000,0.086238,0.603313 RARM_JOINT3:0.842299,0.000000,0.531286,-0.090927 RLEG_JOINT2:0.999439,0.019937,0.000000,-0.026919 RLEG_JOINT4:0.994486,0.100813,0.000000,0.028882 WAIST:0.999335,0.000000,-0.036431,-0.001480 WAIST_JOINT0:0.998890,0.000000,-0.046516,0.007433 WAIST_JOINT1:0.997335,0.072643,0.000000,-0.006715 END:
KINECT_DATA_Sensor  AnkleLeft:0.074582,0.731728,-0.100052,-0.670075 AnkleRight:0.089780,0.683040,0.080412,0.720368 ElbowLeft:0.004819,0.920976,-0.199346,-0.334727 ElbowRight:-0.093397,0.669491,0.101300,0.729930 FootLeft:0.000000,0.000000,0.000000,0.000000 FootRight:0.000000,0.000000,0.000000,0.000000 HandLeft:0.008831,0.812237,0.046909,0.581371 HandRight:0.138731,-0.360990,-0.577779,0.718757 HandTipLeft:0.000000,0.000000,0.000000,0.000000 HandTipRight:0.000000,0.000000,0.000000,0.000000 Head:0.000000,0.000000,0.000000,0.000000 HipLeft:0.134930,-0.675529,0.699322,-0.190795 HipRight:-0.090702,0.682719,0.708740,-0.152828 KneeLeft:-0.000543,0.732352,-0.056183,-0.678605 KneeRight:-0.004746,0.681027,0.034340,0.731437 Neck:0.045226,-0.007193,0.994986,-0.088910 ShoulderLeft:0.000065,0.771221,-0.629451,0.094919 ShoulderRight:0.059340,0.780921,0.621380,-0.022973 SpineBase:0.036239,-0.004282,0.998170,-0.048228 SpineMid:0.040768,-0.004501,0.997995,-0.048208 SpineShoulder:0.045317,-0.005862,0.996667,-0.067583 ThumbLeft:0.000000,0.000000,0.000000,0.000000 ThumbRight:0.000000,0.000000,0.000000,0.000000 WristLeft:-0.063826,0.811857,-0.046421,0.578498 WristRight:0.128147,-0.378028,-0.518798,0.755991 END:
KINECT_DATA POSITION:15.083739,-1.454901,-4.996955 HEAD_JOINT1:0.971857,0.186967,-0.000000,0.143308 LARM_JOINT2:0.826987,0.000000,0.020531,-0.561845 LARM_JOINT3:0.972825,0.000000,-0.137811,-0.186063 LLEG_JOINT2:0.998368,0.040731,0.000000,0.040027 LLEG_JOINT4:0.996414,0.080824,0.000000,-0.025043 RARM_JOINT2:0.793152,0.000000,0.087264,0.602740 RARM_JOINT3:0.842594,0.000000,0.530904,-0.090418 RLEG_JOINT2:0.999394,0.021815,0.000000,-0.027137 RLEG_JOINT4:0.994640,0.099121,0.000000,0.029436 WAIST:0.999335,0.000000,-0.036435,-0.001446 WAIST_JOINT0:0.998886,0.000000,-0.046603,0.007445 WAIST_JOINT1:0.997347,0.072492,0.000000,-0.006621 END:
KINECT_DATA_Sensor  AnkleLeft:0.073805,0.731833,-0.097111,-0.670479 AnkleRight:0.092488,0.703975,0.077562,0.699893 ElbowLeft:0.004769,0.921143,-0.199420,-0.334222 ElbowRight:-0.094354,0.669881,0.100943,0.729498 FootLeft:0.000000,0.000000,0.000000,0.000000 FootRight:0.000000,0.000000,0.000000,0.000000 HandLeft:-0.002303,0.774994,0.058986,0.629205 HandRight:0.136493,-0.353538,-0.578517,0.722287 HandTipLeft:0.000000,0.000000,0.000000,0.000000 HandTipRight:0.000000,0.000000,0.000000,0.000000 Head:0.000000,0.000000,0.000000,0.000000 HipLeft:0.134934,-0.675485,0.699358,-0.190819 HipRight:-0.090731,0.682730,0.708728,-0.152816 KneeLeft:-0.000475,0.732353,-0.056065,-0.678613 KneeRight:-0.003491,0.681019,0.035754,0.731384 Neck:0.045307,-0.007053,0.995005,-0.088675 ShoulderLeft:-0.000026,0.771256,-0.629417,0.094856 ShoulderRight:0.059339,0.781020,0.621262,-0.022785 SpineBase:0.036244,-0.004207,0.998170,-0.048225 SpineMid:0.040809,-0.004428,0.997994,-0.048205 SpineShoulder:0.045397,-0.005750,0.996672,-0.067455 ThumbLeft:0.000000,0.000000,0.000000,0.000000 ThumbRight:0.000000,0.000000,0.000000,0.000000 WristLeft:-0.061217,0.778364,-0.049803,0.622834 WristRight:0.124145,-0.371712,-0.519840,0.759068 END:
KINECT_DATA POSITION:15.071397,-1.454108,-5.000937 HEAD_JOINT1:0.971907,0.186382,-0.000000,0.143731 LARM_JOINT2:0.826926,0.000000,0.020117,-0.561952 LARM_JOINT3:0.972982,0.000000,-0.135884,-0.186658 LLEG_JOINT2:0.998381,0.040501,0.000000,0.039941 LLEG_JOINT4:0.996532,0.079654,0.000000,-0.024082 RARM_JOINT2:0.793133,0.000000,0.087310,0.602757 RARM_JOINT3:0.843622,0.000000,0.529516,-0.088970 RLEG_JOINT2:0.999376,0.022523,0.000000,-0.027207 RLEG_JOINT4:0.994613,0.098927,0.000000,0.030958 WAIST:0.999358,0.000000,-0.035803,-0.001475 WAIST_JOINT0:0.998874,0.000000,-0.046831,0.007528 WAIST_JOINT1:0.997353,0.072417,0.000000,-0.006503 END:
KINECT_DATA_Sensor  AnkleLeft:0.072375,0.732171,-0.096580,-0.670343 AnkleRight:0.094298,0.709333,0.076193,0.694369 ElbowLeft:0.004784,0.921403,-0.199214,-0.333628 ElbowRight:-0.094445,0.670135,0.100697,0.729286 FootLeft:0.000000,0.000000,0.000000,0.000000 FootRight:0.000000,0.000000,0.000000,0.000000 HandLeft:0.001409,0.782259,0.065271,0.619522 HandRight:0.141036,-0.356532,-0.571593,0.725449 HandTipLeft:0.000000,0.000000,0.000000,0.000000 HandTipRight:0.000000,0.000000,0.000000,0.000000 Head:0.000000,0.000000,0.000000,0.000000 HipLeft:0.134506,-0.675610,0.699421,-0.190445 HipRight:-0.091069,0.682643,0.708698,-0.153141 KneeLeft:-0.000513,0.731925,-0.055819,-0.679095 KneeRight:-0.003063,0.681475,0.036304,0.730934 Neck:0.045523,-0.007063,0.995004,-0.088566 ShoulderLeft:-0.000062,0.771320,-0.629343,0.094836 ShoulderRight:0.059576,0.781136,0.621107,-0.022415 SpineBase:0.035617,-0.004201,0.998192,-0.048234 SpineMid:0.040601,-0.004442,0.998002,-0.048213 SpineShoulder:0.045612,-0.005775,0.996668,-0.067375 ThumbLeft:0.000000,0.000000,0.000000,0.000000 ThumbRight:0.000000,0.000000,0.000000,0.000000 WristLeft:-0.061271,0.785973,-0.048917,0.613269 WristRight:0.126404,-0.375045,-0.518807,0.757761 END:
KINECT_DATA POSITION:15.063207,-1.452808,-5.010796 HEAD_JOINT1:0.971873,0.186247,-0.000000,0.144132 LARM_JOINT2:0.826711,0.000000,0.019999,-0.562271 LARM_JOINT3:0.973509,0.000000,-0.133404,-0.185699 LLEG_JOINT2:0.998356,0.040961,0.000000,0.040095 LLEG_JOINT4:0.996466,0.080542,0.000000,-0.023861 RARM_JOINT2:0.793165,0.000000,0.086524,0.602830 RARM_JOINT3:0.843611,0.000000,0.529883,-0.086857 RLEG_JOINT2:0.999394,0.021825,0.000000,-0.027108 RLEG_JOINT4:0.994566,0.099511,0.000000,0.030583 WAIST:0.999363,0.000000,-0.035666,-0.001474 WAIST_JOINT0:0.998875,0.000000,-0.046848,0.007406 WAIST_JOINT1:0.997369,0.072210,0.000000,-0.006411 END:
KINECT_DATA_Sensor  AnkleLeft:0.073069,0.732097,-0.097777,-0.670175 AnkleRight:0.091063,0.682604,0.079857,0.720682 ElbowLeft:0.004689,0.921465,-0.198830,-0.333686 ElbowRight:-0.094058,0.670666,0.101006,0.728806 FootLeft:0.000000,0.000000,0.000000,0.000000 FootRight:0.000000,0.000000,0.000000,0.000000 HandLeft:0.009887,0.791673,0.067651,0.607107 HandRight:0.141996,-0.354208,-0.568721,0.728649 HandTipLeft:0.000000,0.000000,0.000000,0.000000 HandTipRight:0.000000,0.000000,0.000000,0.000000 Head:0.000000,0.000000,0.000000,0.000000 HipLeft:0.134426,-0.675633,0.699459,-0.190283 HipRight:-0.091155,0.682625,0.708708,-0.153121 KneeLeft:-0.000303,0.731835,-0.056260,-0.679156 KneeRight:-0.003512,0.681576,0.035756,0.730865 Neck:0.045554,-0.006985,0.995027,-0.088300 ShoulderLeft:-0.000130,0.771318,-0.629369,0.094669 ShoulderRight:0.059538,0.781019,0.621265,-0.022229 SpineBase:0.035482,-0.004190,0.998200,-0.048163 SpineMid:0.040546,-0.004434,0.998007,-0.048141 SpineShoulder:0.045643,-0.005714,0.996680,-0.067184 ThumbLeft:0.000000,0.000000,0.000000,0.000000 ThumbRight:0.000000,0.000000,0.000000,0.000000 WristLeft:-0.061420,0.794631,-0.048162,0.602054 WristRight:0.125767,-0.373197,-0.518688,0.758861 END:
KINECT_DATA POSITION:15.059384,-1.448283,-5.023599 HEAD_JOINT1:0.971637,0.187214,-0.000000,0.144475 LARM_JOINT2:0.826556,0.000000,0.019991,-0.562500 LARM_JOINT3:0.973512,0.000000,-0.132479,-0.186343 LLEG_JOINT2:0.998382,0.040375,0.000000,0.040051 LLEG_JOINT4:0.996480,0.080290,0.000000,-0.024104 RARM_JOINT2:0.792565,0.000000,0.084793,0.603864 RARM_JOINT3:0.842838,0.000000,0.532137,-0.080343 RLEG_JOINT2:0.999392,0.021237,0.000000,-0.027639 RLEG_JOINT4:0.994455,0.100535,0.000000,0.030848 WAIST:0.999359,0.000000,-0.035786,-0.001375 WAIST_JOINT0:0.998885,0.000000,-0.046662,0.007210 WAIST_JOINT1:0.997384,0.071978,0.000000,-0.006671 END:
KINECT_DATA_Sensor  AnkleLeft:0.072592,0.732057,-0.097079,-0.670372 AnkleRight:0.091321,0.682718,0.080226,0.720500 ElbowLeft:0.004825,0.921894,-0.198343,-0.332790 ElbowRight:-0.092353,0.672204,0.101485,0.727539 FootLeft:0.000000,0.000000,0.000000,0.000000 FootRight:0.000000,0.000000,0.000000,0.000000 HandLeft:0.006629,0.770421,0.071306,0.633500 HandRight:0.159738,-0.353636,-0.565419,0.727823 HandTipLeft:0.000000,0.000000,0.000000,0.000000 HandTipRight:0.000000,0.000000,0.000000,0.000000 Head:0.000000,0.000000,0.000000,0.000000 HipLeft:0.134589,-0.675579,0.699505,-0.190187 HipRight:-0.091111,0.682707,0.708664,-0.152985 KneeLeft:-0.000749,0.731906,-0.055872,-0.679110 KneeRight:-0.004229,0.681499,0.035675,0.730937 Neck:0.045394,-0.007141,0.995056,-0.088049 ShoulderLeft:0.000041,0.771409,-0.629323,0.094233 ShoulderRight:0.059500,0.780791,0.621561,-0.022078 SpineBase:0.035587,-0.004298,0.998202,-0.048032 SpineMid:0.040518,-0.004535,0.998014,-0.048010 SpineShoulder:0.045481,-0.005846,0.996701,-0.066971 ThumbLeft:0.000000,0.000000,0.000000,0.000000 ThumbRight:0.000000,0.000000,0.000000,0.000000 WristLeft:-0.059641,0.775150,-0.049571,0.626999 WristRight:0.131878,-0.380262,-0.515374,0.756571 END:
KINECT_DATA POSITION:15.056221,-1.451575,-5.024076 HEAD_JOINT1:0.971554,0.187295,-0.000000,0.144922 LARM_JOINT2:0.826339,0.000000,0.020087,-0.562814 LARM_JOINT3:0.973000,0.000000,-0.136550,-0.186076 LLEG_JOINT2:0.998344,0.041119,0.000000,0.040241 LLEG_JOINT4:0.996841,0.075952,0.000000,-0.023230 RARM_JOINT2:0.791493,0.000000,0.081694,0.605693 RARM_JOINT3:0.838531,0.000000,0.540447,-0.069158 RLEG_JOINT2:0.999417,0.020489,0.000000,-0.027307 RLEG_JOINT4:0.994666,0.098591,0.000000,0.030307 WAIST:0.999359,0.000000,-0.035773,-0.001471 WAIST_JOINT0:0.998884,0.000000,-0.046708,0.007029 WAIST_JOINT1:0.997390,0.071889,0.000000,-0.006674 END:
KINECT_DATA_Sensor  AnkleLeft:0.069427,0.732587,-0.095152,-0.670405 AnkleRight:0.088664,0.678827,0.079172,0.724613 ElbowLeft:0.004814,0.921620,-0.197914,-0.333802 ElbowRight:-0.088585,0.677863,0.102722,0.722567 FootLeft:0.000000,0.000000,0.000000,0.000000 FootRight:0.000000,0.000000,0.000000,0.000000 HandLeft:-0.007825,0.770439,0.063015,0.634343 HandRight:0.180957,-0.352271,-0.565792,0.723214 HandTipLeft:0.000000,0.000000,0.000000,0.000000 HandTipRight:0.000000,0.000000,0.000000,0.000000 Head:0.000000,0.000000,0.000000,0.000000 HipLeft:0.134621,-0.675665,0.699431,-0.190131 HipRight:-0.091153,0.682654,0.708717,-0.152954 KneeLeft:-0.000308,0.731907,-0.056477,-0.679060 KneeRight:-0.004620,0.681506,0.034992,0.730961 Neck:0.045452,-0.007259,0.995061,-0.087950 ShoulderLeft:0.000112,0.771436,-0.629313,0.094086 ShoulderRight:0.059650,0.780589,0.621807,-0.021866 SpineBase:0.035581,-0.004362,0.998205,-0.047966 SpineMid:0.040544,-0.004600,0.998016,-0.047944 SpineShoulder:0.045538,-0.005949,0.996703,-0.066883 ThumbLeft:0.000000,0.000000,0.000000,0.000000 ThumbRight:0.000000,0.000000,0.000000,0.000000 WristLeft:-0.059733,0.775311,-0.049712,0.626780 WristRight:0.143165,-0.386236,-0.509801,0.755267 END:
KINECT_DATA POSITION:15.044250,-1.465315,-5.008256 HEAD_JOINT1:0.971096,0.188845,-0.000000,0.145982 LARM_JOINT2:0.826476,0.000000,0.020813,-0.562587 LARM_JOINT3:0.972355,0.000000,-0.138258,-0.188178 LLEG_JOINT2:0.998351,0.040617,0.000000,0.040572 LLEG_JOINT4:0.996809,0.076416,0.000000,-0.023092 RARM_JOINT2:0.789970,0.000000,0.072371,0.608860 RARM_JOINT3:0.826605,0.000000,0.560592,-0.049597 RLEG_JOINT2:0.999411,0.021202,0.000000,-0.026997 RLEG_JOINT4:0.994395,0.101361,0.000000,0.030088 WAIST:0.999351,0.000000,-0.035995,-0.001505 WAIST_JOINT0:0.998829,0.000000,-0.047908,0.006810 WAIST_JOINT1:0.997393,0.071847,0.000000,-0.006749 END:
KINECT_DATA_Sensor  AnkleLeft:0.069145,0.733276,-0.095380,-0.669647 AnkleRight:0.094516,0.707216,0.077673,0.696332 ElbowLeft:0.005150,0.921501,-0.198276,-0.333909 ElbowRight:-0.080025,0.686728,0.107212,0.714497 FootLeft:0.000000,0.000000,0.000000,0.000000 FootRight:0.000000,0.000000,0.000000,0.000000 HandLeft:-0.021883,0.700753,0.065119,0.710089 HandRight:0.202702,-0.332282,-0.579875,0.715713 HandTipLeft:0.000000,0.000000,0.000000,0.000000 HandTipRight:0.000000,0.000000,0.000000,0.000000 Head:0.000000,0.000000,0.000000,0.000000 HipLeft:0.134982,-0.675655,0.699353,-0.190199 HipRight:-0.091231,0.682633,0.708746,-0.152864 KneeLeft:-0.000882,0.732057,-0.056313,-0.678911 KneeRight:-0.003903,0.681345,0.035273,0.731102 Neck:0.046655,-0.007431,0.995006,-0.087930 ShoulderLeft:-0.000489,0.771493,-0.629136,0.094795 ShoulderRight:0.060601,0.780418,0.621970,-0.020722 SpineBase:0.035801,-0.004485,0.998205,-0.047801 SpineMid:0.041251,-0.004746,0.997995,-0.047776 SpineShoulder:0.046741,-0.006111,0.996650,-0.066829 ThumbLeft:0.000000,0.000000,0.000000,0.000000 ThumbRight:0.000000,0.000000,0.000000,0.000000 WristLeft:-0.055054,0.711240,-0.055034,0.698626 WristRight:0.153141,-0.377133,-0.507790,0.759255 END:
KINECT_DATA POSITION:15.046165,-1.477738,-4.970169 HEAD_JOINT1:0.970519,0.189487,-0.000000,0.148953 LARM_JOINT2:0.826814,0.000000,0.020906,-0.562087 LARM_JOINT3:0.971695,0.000000,-0.140557,-0.189878 LLEG_JOINT2:0.998395,0.040010,0.000000,0.040082 LLEG_JOINT4:0.996689,0.078243,0.000000,-0.022124 RARM_JOINT2:0.789030,0.000000,0.065637,0.610838 RARM_JOINT3:0.813575,0.000000,0.580408,-0.034959 RLEG_JOINT2:0.999379,0.022589,0.000000,-0.027026 RLEG_JOINT4:0.994741,0.098043,0.000000,0.029639 WAIST:0.999323,0.000000,-0.036768,-0.001210 WAIST_JOINT0:0.998761,0.000000,-0.049259,0.007074 WAIST_JOINT1:0.997378,0.072013,0.000000,-0.007169 END:
KINECT_DATA_Sensor  AnkleLeft:0.069409,0.733983,-0.096816,-0.668639 AnkleRight:0.092462,0.702175,0.077138,0.701749 ElbowLeft:0.005127,0.921834,-0.198805,-0.332675 ElbowRight:-0.074122,0.690607,0.110503,0.710885 FootLeft:0.000000,0.000000,0.000000,0.000000 FootRight:0.000000,0.000000,0.000000,0.000000 HandLeft:-0.030125,0.692739,0.062921,0.717806 HandRight:0.203125,-0.296504,-0.590143,0.722881 HandTipLeft:0.000000,0.000000,0.000000,0.000000 HandTipRight:0.000000,0.000000,0.000000,0.000000 Head:0.000000,0.000000,0.000000,0.000000 HipLeft:0.135553,-0.675316,0.699457,-0.190615 HipRight:-0.090776,0.682868,0.708643,-0.152562 KneeLeft:-0.001193,0.732558,-0.055741,-0.678417 KneeRight:-0.002669,0.680801,0.036032,0.731577 Neck:0.047958,-0.007536,0.994921,-0.088178 ShoulderLeft:-0.000628,0.771224,-0.629369,0.095433 ShoulderRight:0.062171,0.780346,0.621950,-0.019309 SpineBase:0.036538,-0.004583,0.998177,-0.047824 SpineMid:0.042269,-0.004857,0.997950,-0.047797 SpineShoulder:0.048045,-0.006217,0.996577,-0.066989 ThumbLeft:0.000000,0.000000,0.000000,0.000000 ThumbRight:0.000000,0.000000,0.000000,0.000000 WristLeft:-0.054829,0.697653,-0.055809,0.712151 WristRight:0.148224,-0.344987,-0.520342,0.766980 END:
KINECT_DATA POSITION:15.032310,-1.486462,-4.930544 HEAD_JOINT1:0.969963,0.190739,-0.000000,0.150965 LARM_JOINT2:0.827305,0.000000,0.021666,-0.561335 LARM_JOINT3:0.972238,0.000000,-0.139655,-0.187750 LLEG_JOINT2:0.998381,0.040354,0.000000,0.040099 LLEG_JOINT4:0.996502,0.079721,0.000000,-0.025051 RARM_JOINT2:0.789099,0.000000,0.064411,0.610880 RARM_JOINT3:0.809271,0.000000,0.586307,-0.036397 RLEG_JOINT2:0.999406,0.021800,0.000000,-0.026679 RLEG_JOINT4:0.994733,0.098513,0.000000,0.028313 WAIST:0.999309,0.000000,-0.037163,-0.001121 WAIST_JOINT0:0.998693,0.000000,-0.050621,0.007037 WAIST_JOINT1:0.997391,0.071815,0.000000,-0.007399 END:
KINECT_DATA_Sensor  AnkleLeft:0.072687,0.734141,-0.096189,-0.668207 AnkleRight:0.091012,0.695946,0.078360,0.707980 ElbowLeft:0.005220,0.921928,-0.199651,-0.331906 ElbowRight:-0.073085,0.693971,0.111619,0.707534 FootLeft:0.000000,0.000000,0.000000,0.000000 FootRight:0.000000,0.000000,0.000000,0.000000 HandLeft:-0.007740,0.804752,0.056894,0.590828 HandRight:0.188001,-0.310795,-0.589878,0.721184 HandTipLeft:0.000000,0.000000,0.000000,0.000000 HandTipRight:0.000000,0.000000,0.000000,0.000000 Head:0.000000,0.000000,0.000000,0.000000 HipLeft:0.136140,-0.675216,0.699425,-0.190665 HipRight:-0.090804,0.682959,0.708611,-0.152289 KneeLeft:-0.001056,0.732823,-0.056066,-0.678104 KneeRight:-0.002935,0.680526,0.035179,0.731873 Neck:0.049350,-0.007722,0.994864,-0.088041 ShoulderLeft:-0.002127,0.771252,-0.629140,0.096690 ShoulderRight:0.062469,0.780327,0.621972,-0.018401 SpineBase:0.036918,-0.004743,0.998177,-0.047519 SpineMid:0.043149,-0.005039,0.997927,-0.047488 SpineShoulder:0.049435,-0.006408,0.996522,-0.066775 ThumbLeft:0.000000,0.000000,0.000000,0.000000 ThumbRight:0.000000,0.000000,0.000000,0.000000 WristLeft:-0.063879,0.807161,-0.045648,0.585087 WristRight:0.158433,-0.339601,-0.527622,0.762355 END:
KINECT_DATA POSITION:15.032737,-1.492549,-4.922330 HEAD_JOINT1:0.969760,0.191087,-0.000000,0.151829 LARM_JOINT2:0.827467,0.000000,0.021450,-0.561104 LARM_JOINT3:0.971820,0.000000,-0.138610,-0.190665 LLEG_JOINT2:0.998381,0.040417,0.000000,0.040015 LLEG_JOINT4:0.996555,0.078994,0.000000,-0.025263 RARM_JOINT2:0.789283,0.000000,0.063649,0.610721 RARM_JOINT3:0.810321,0.000000,0.584829,-0.036815 RLEG_JOINT2:0.999393,0.022167,0.000000,-0.026888 RLEG_JOINT4:0.994676,0.099474,0.000000,0.026908 WAIST:0.999327,0.000000,-0.036659,-0.000910 WAIST_JOINT0:0.998658,0.000000,-0.051295,0.007098 WAIST_JOINT1:0.997379,0.071971,0.000000,-0.007434 END:
KINECT_DATA_Sensor  AnkleLeft:0.072442,0.734531,-0.095549,-0.667897 AnkleRight:0.089269,0.680489,0.082317,0.722627 ElbowLeft:0.005302,0.922004,-0.200046,-0.331454 ElbowRight:-0.072606,0.694675,0.112209,0.706799 FootLeft:0.000000,0.000000,0.000000,0.000000 FootRight:0.000000,0.000000,0.000000,0.000000 HandLeft:-0.019493,0.690479,0.065625,0.720106 HandRight:0.183780,-0.318936,-0.584643,0.722978 HandTipLeft:0.000000,0.000000,0.000000,0.000000 HandTipRight:0.000000,0.000000,0.000000,0.000000 Head:0.000000,0.000000,0.000000,0.000000 HipLeft:0.135830,-0.675178,0.699594,-0.190402 HipRight:-0.091106,0.683068,0.708400,-0.152600 KneeLeft:-0.001071,0.732469,-0.056205,-0.678476 KneeRight:-0.002677,0.680904,0.035431,0.731510 Neck:0.050010,-0.007660,0.994814,-0.088231 ShoulderLeft:-0.002350,0.771165,-0.629167,0.097203 ShoulderRight:0.063102,0.780316,0.621937,-0.017882 SpineBase:0.036400,-0.004645,0.998195,-0.047534 SpineMid:0.043218,-0.004969,0.997923,-0.047501 SpineShoulder:0.050098,-0.006354,0.996480,-0.066910 ThumbLeft:0.000000,0.000000,0.000000,0.000000 ThumbRight:0.000000,0.000000,0.000000,0.000000 WristLeft:-0.055498,0.695600,-0.055748,0.714110 WristRight:0.161362,-0.341571,-0.527185,0.761162 END:
KINECT_DATA POSITION:15.022874,-1.492655,-4.947901 HEAD_JOINT1:0.969873,0.189723,-0.000000,0.152814 LARM_JOINT2:0.827854,0.000000,0.021119,-0.560546 LARM_JOINT3:0.972261,0.000000,-0.138563,-0.188437 LLEG_JOINT2:0.998384,0.040862,0.000000,0.039485 LLEG_JOINT4:0.996688,0.077756,0.000000,-0.023830 RARM_JOINT2:0.789729,0.000000,0.061987,0.610316 RARM_JOINT3:0.810888,0.000000,0.584148,-0.035099 RLEG_JOINT2:0.999331,0.023612,0.000000,-0.027912 RLEG_JOINT4:0.994788,0.097387,0.000000,0.030222 WAIST:0.999320,0.000000,-0.036861,-0.000658 WAIST_JOINT0:0.998634,0.000000,-0.051781,0.006924 WAIST_JOINT1:0.997375,0.072031,0.000000,-0.007431 END:
KINECT_DATA_Sensor  AnkleLeft:0.071077,0.735012,-0.095779,-0.667481 AnkleRight:0.090473,0.679877,0.080043,0.723309 ElbowLeft:0.005109,0.922634,-0.200790,-0.329247 ElbowRight:-0.071482,0.696964,0.113717,0.704415 FootLeft:0.000000,0.000000,0.000000,0.000000 FootRight:0.000000,0.000000,0.000000,0.000000 HandLeft:-0.012484,0.694432,0.054984,0.717346 HandRight:0.182433,-0.324601,-0.592304,0.714513 HandTipLeft:0.000000,0.000000,0.000000,0.000000 HandTipRight:0.000000,0.000000,0.000000,0.000000 Head:0.000000,0.000000,0.000000,0.000000 HipLeft:0.135735,-0.674959,0.699784,-0.190551 HipRight:-0.090786,0.683246,0.708285,-0.152528 KneeLeft:-0.000570,0.732592,-0.056348,-0.678332 KneeRight:-0.002126,0.680763,0.036987,0.731566 Neck:0.050536,-0.007350,0.994784,-0.088295 ShoulderLeft:-0.002599,0.771385,-0.628831,0.097618 ShoulderRight:0.063488,0.780297,0.621931,-0.017521 SpineBase:0.036582,-0.004514,0.998180,-0.047726 SpineMid:0.043567,-0.004848,0.997900,-0.047693 SpineShoulder:0.050622,-0.006128,0.996451,-0.066971 ThumbLeft:0.000000,0.000000,0.000000,0.000000 ThumbRight:0.000000,0.000000,0.000000,0.000000 WristLeft:-0.056869,0.718670,-0.053708,0.690938 WristRight:0.165340,-0.344812,-0.523580,0.761335 END:
KINECT_DATA POSITION:15.004559,-1.496587,-4.963863 HEAD_JOINT1:0.970142,0.187409,-0.000000,0.153957 LARM_JOINT2:0.828176,0.000000,0.020660,-0.560087 LARM_JOINT3:0.971865,0.000000,-0.138729,-0.190351 LLEG_JOINT2:0.998369,0.041220,0.000000,0.039499 LLEG_JOINT4:0.996723,0.077722,0.000000,-0.022410 RARM_JOINT2:0.790030,0.000000,0.061084,0.610018 RARM_JOINT3:0.810642,0.000000,0.584444,-0.035842 RLEG_JOINT2:0.999322,0.023905,0.000000,-0.027997 RLEG_JOINT4:0.994919,0.095677,0.000000,0.031347 WAIST:0.999329,0.000000,-0.036625,-0.000610 WAIST_JOINT0:0.998613,0.000000,-0.052203,0.006795 WAIST_JOINT1:0.997369,0.072126,0.000000,-0.007225 END:
KINECT_DATA_Sensor  AnkleLeft:0.070336,0.735392,-0.096964,-0.666971 AnkleRight:0.090077,0.679592,0.078383,0.723807 ElbowLeft:0.004838,0.922918,-0.201399,-0.328083 ElbowRight:-0.072305,0.689448,0.113621,0.711705 FootLeft:0.000000,0.000000,0.000000,0.000000 FootRight:0.000000,0.000000,0.000000,0.000000 HandLeft:-0.011946,0.748895,0.059653,0.659891 HandRight:0.200753,-0.327026,-0.572824,0.724310 HandTipLeft:0.000000,0.000000,0.000000,0.000000 HandTipRight:0.000000,0.000000,0.000000,0.000000 Head:0.000000,0.000000,0.000000,0.000000 HipLeft:0.135459,-0.674924,0.699879,-0.190519 HipRight:-0.090849,0.683227,0.708255,-0.152715 KneeLeft:-0.000355,0.732430,-0.056654,-0.678481 KneeRight:-0.001943,0.680935,0.037214,0.731395 Neck:0.050960,-0.007131,0.994759,-0.088360 ShoulderLeft:-0.002505,0.771675,-0.628451,0.097773 ShoulderRight:0.064088,0.780422,0.621727,-0.017025 SpineBase:0.036347,-0.004388,0.998182,-0.047870 SpineMid:0.043659,-0.004739,0.997889,-0.047836 SpineShoulder:0.051048,-0.005947,0.996424,-0.067062 ThumbLeft:0.000000,0.000000,0.000000,0.000000 ThumbRight:0.000000,0.000000,0.000000,0.000000 WristLeft:-0.059648,0.754301,-0.050706,0.651844 WristRight:0.164333,-0.358346,-0.525504,0.753942 END:
KINECT_DATA POSITION:14.985392,-1.486005,-5.045390 HEAD_JOINT1:0.970236,0.185340,-0.000000,0.155856 LARM_JOINT2:0.828518,0.000000,0.020355,-0.559593 LARM_JOINT3:0.972265,0.000000,-0.134598,-0.191270 LLEG_JOINT2:0.998419,0.040405,0.000000,0.039084 LLEG_JOINT4:0.996527,0.080027,0.000000,-0.023027 RARM_JOINT2:0.790006,0.000000,0.060914,0.610066 RARM_JOINT3:0.810456,0.000000,0.584788,-0.034417 RLEG_JOINT2:0.999329,0.024026,0.000000,-0.027652 RLEG_JOINT4:0.995044,0.095009,0.000000,0.029343 WAIST:0.999316,0.000000,-0.036990,-0.000161 WAIST_JOINT0:0.998587,0.000000,-0.052668,0.007133 WAIST_JOINT1:0.997378,0.071962,0.000000,-0.007626 END:
KINECT_DATA_Sensor  AnkleLeft:0.071764,0.735416,-0.097662,-0.666690 AnkleRight:0.091541,0.703836,0.075810,0.700348 ElbowLeft:0.004418,0.923407,-0.201816,-0.326450 ElbowRight:-0.071514,0.693581,0.114019,0.707694 FootLeft:0.000000,0.000000,0.000000,0.000000 FootRight:0.000000,0.000000,0.000000,0.000000 HandLeft:-0.009063,0.690329,0.068762,0.720164 HandRight:0.189800,-0.323651,-0.580935,0.722316 HandTipLeft:0.000000,0.000000,0.000000,0.000000 HandTipRight:0.000000,0.000000,0.000000,0.000000 Head:0.000000,0.000000,0.000000,0.000000 HipLeft:0.135564,-0.674588,0.700125,-0.190734 HipRight:-0.090520,0.683576,0.707982,-0.152617 KneeLeft:-0.000948,0.732645,-0.056091,-0.678295 KneeRight:-0.001290,0.680697,0.036727,0.731642 Neck:0.051376,-0.007084,0.994761,-0.088093 ShoulderLeft:-0.002099,0.772001,-0.628107,0.097424 ShoulderRight:0.064996,0.780872,0.621095,-0.015970 SpineBase:0.036672,-0.004272,0.998165,-0.048004 SpineMid:0.044034,-0.004626,0.997867,-0.047971 SpineShoulder:0.051467,-0.005878,0.996410,-0.066954 ThumbLeft:0.000000,0.000000,0.000000,0.000000 ThumbRight:0.000000,0.000000,0.000000,0.000000 WristLeft:-0.054184,0.695573,-0.055774,0.714235 WristRight:0.162931,-0.349470,-0.523863,0.759534 END:
KINECT_DATA POSITION:14.981198,-1.473897,-5.120778 HEAD_JOINT1:0.970132,0.184885,-0.000000,0.157042 LARM_JOINT2:0.828388,0.000000,0.020364,-0.559784 LARM_JOINT3:0.973136,0.000000,-0.130824,-0.189451 LLEG_JOINT2:0.998406,0.040542,0.000000,0.039264 LLEG_JOINT4:0.996404,0.080306,0.000000,-0.027032 RARM_JOINT2:0.786952,0.000000,0.067520,0.613309 RARM_JOINT3:0.813943,0.000000,0.579493,-0.041042 RLEG_JOINT2:0.999344,0.023325,0.000000,-0.027721 RLEG_JOINT4:0.994912,0.096252,0.000000,0.029777 WAIST:0.999316,0.000000,-0.036974,-0.000128 WAIST_JOINT0:0.998442,0.000000,-0.055138,0.008609 WAIST_JOINT1:0.997482,0.070499,0.000000,-0.007667 END:
KINECT_DATA_Sensor  AnkleLeft:0.076257,0.745535,-0.094161,-0.655359 AnkleRight:0.091585,0.697971,0.076618,0.706101 ElbowLeft:0.003877,0.924532,-0.201016,-0.323757 ElbowRight:-0.073195,0.692966,0.106001,0.709369 FootLeft:0.000000,0.000000,0.000000,0.000000 FootRight:0.000000,0.000000,0.000000,0.000000 HandLeft:0.004669,0.764671,0.068260,0.640778 HandRight:0.187338,-0.325792,-0.579686,0.723000 HandTipLeft:0.000000,0.000000,0.000000,0.000000 HandTipRight:0.000000,0.000000,0.000000,0.000000 Head:0.000000,0.000000,0.000000,0.000000 HipLeft:0.136219,-0.674760,0.700022,-0.190033 HipRight:-0.091295,0.683768,0.707864,-0.151838 KneeLeft:-0.001007,0.732643,-0.056338,-0.678277 KneeRight:-0.001829,0.680698,0.036278,0.731663 Neck:0.053646,-0.007417,0.994780,-0.086488 ShoulderLeft:-0.002032,0.772382,-0.627831,0.096177 ShoulderRight:0.067952,0.781912,0.619576,-0.011010 SpineBase:0.036671,-0.004110,0.998219,-0.046864 SpineMid:0.045174,-0.004509,0.997871,-0.046827 SpineShoulder:0.053749,-0.006042,0.996384,-0.065520 ThumbLeft:0.000000,0.000000,0.000000,0.000000 ThumbRight:0.000000,0.000000,0.000000,0.000000 WristLeft:-0.058162,0.769293,-0.049386,0.634324 WristRight:0.163833,-0.348721,-0.525995,0.758209 END:
KINECT_DATA POSITION:14.987474,-1.462620,-5.240023 HEAD_JOINT1:0.970760,0.184307,-0.000000,0.153803 LARM_JOINT2:0.827194,0.000000,0.019000,-0.561595 LARM_JOINT3:0.974308,0.000000,-0.126135,-0.186586 LLEG_JOINT2:0.998447,0.039223,0.000000,0.039551 LLEG_JOINT4:0.996449,0.080106,0.000000,-0.025912 RARM_JOINT2:0.788220,0.000000,0.064599,0.611994 RARM_JOINT3:0.808099,0.000000,0.588469,-0.026084 RLEG_JOINT2:0.999353,0.022279,0.000000,-0.028244 RLEG_JOINT4:0.994943,0.095373,0.000000,0.031492 WAIST:0.999344,0.000000,-0.036214,-0.000179 WAIST_JOINT0:0.998659,0.000000,-0.051079,0.008457 WAIST_JOINT1:0.997610,0.068683,0.000000,-0.007513 END:
KINECT_DATA_Sensor  AnkleLeft:0.072750,0.734330,-0.095192,-0.668136 AnkleRight:0.092175,0.711441,0.072892,0.692851 ElbowLeft:0.002615,0.925437,-0.198009,-0.323036 ElbowRight:-0.073378,0.699085,0.108268,0.702975 FootLeft:0.000000,0.000000,0.000000,0.000000 FootRight:0.000000,0.000000,0.000000,0.000000 HandLeft:0.009022,0.771803,0.069236,0.632017 HandRight:0.197044,-0.289959,-0.594743,0.723449 HandTipLeft:0.000000,0.000000,0.000000,0.000000 HandTipRight:0.000000,0.000000,0.000000,0.000000 Head:0.000000,0.000000,0.000000,0.000000 HipLeft:0.136696,-0.675238,0.699876,-0.188526 HipRight:-0.092750,0.683924,0.707680,-0.151107 KneeLeft:-0.002040,0.732137,-0.055534,-0.678887 KneeRight:-0.003016,0.681234,0.035984,0.731175 Neck:0.049732,-0.007151,0.995145,-0.084633 ShoulderLeft:-0.001384,0.772382,-0.628388,0.092478 ShoulderRight:0.063526,0.781712,0.620248,-0.013528 SpineBase:0.035936,-0.004055,0.998323,-0.045214 SpineMid:0.042853,-0.004368,0.998050,-0.045185 SpineShoulder:0.049823,-0.005819,0.996705,-0.063734 ThumbLeft:0.000000,0.000000,0.000000,0.000000 ThumbRight:0.000000,0.000000,0.000000,0.000000 WristLeft:-0.057290,0.775972,-0.049104,0.626238 WristRight:0.157129,-0.326735,-0.527331,0.768425 END:
KINECT_DATA POSITION:15.000443,-1.459745,-5.311918 HEAD_JOINT1:0.972372,0.183003,-0.000000,0.144923 LARM_JOINT2:0.825781,0.000000,0.019649,-0.563649 LARM_JOINT3:0.973445,0.000000,-0.128724,-0.189301 LLEG_JOINT2:0.998491,0.037831,0.000000,0.039803 LLEG_JOINT4:0.996498,0.079073,0.000000,-0.027199 RARM_JOINT2:0.791958,0.000000,0.091489,0.603683 RARM_JOINT3:0.807124,0.000000,0.590232,-0.013316 RLEG_JOINT2:0.999355,0.022343,0.000000,-0.028106 RLEG_JOINT4:0.994940,0.095317,0.000000,0.031781 WAIST:0.999368,0.000000,-0.035560,-0.000205 WAIST_JOINT0:0.998824,0.000000,-0.047770,0.008327 WAIST_JOINT1:0.997852,0.064995,0.000000,-0.008192 END:
KINECT_DATA_Sensor  AnkleLeft:0.071705,0.732686,-0.092822,-0.670383 AnkleRight:0.091552,0.703921,0.073703,0.700486 ElbowLeft:0.000698,0.924869,-0.193912,-0.327132 ElbowRight:-0.094994,0.715107,0.098616,0.685472 FootLeft:0.000000,0.000000,0.000000,0.000000 FootRight:0.000000,0.000000,0.000000,0.000000 HandLeft:-0.018888,0.726271,0.075628,0.682974 HandRight:0.182374,-0.214076,-0.594846,0.753040 HandTipLeft:0.000000,0.000000,0.000000,0.000000 HandTipRight:0.000000,0.000000,0.000000,0.000000 Head:0.000000,0.000000,0.000000,0.000000 HipLeft:0.138271,-0.675888,0.699535,-0.186298 HipRight:-0.094836,0.684199,0.707399,-0.149885 KneeLeft:-0.003121,0.731703,-0.054672,-0.679421 KneeRight:-0.002917,0.681702,0.035943,0.730740 Neck:0.046528,-0.007833,0.995620,-0.080716 ShoulderLeft:-0.001681,0.773822,-0.627335,0.087448 ShoulderRight:0.058979,0.782533,0.619662,-0.013497 SpineBase:0.035283,-0.004666,0.998465,-0.042437 SpineMid:0.040917,-0.004905,0.998250,-0.042410 SpineShoulder:0.046594,-0.006472,0.997080,-0.060160 ThumbLeft:0.000000,0.000000,0.000000,0.000000 ThumbRight:0.000000,0.000000,0.000000,0.000000 WristLeft:-0.057583,0.737133,-0.053452,0.671164 WristRight:0.141211,-0.247309,-0.556522,0.780500 END:
KINECT_DATA POSITION:15.012060,-1.449834,-5.357301 HEAD_JOINT1:0.975560,0.179175,-0.000000,0.127194 LARM_JOINT2:0.822763,0.000000,0.023134,-0.567913 LARM_JOINT3:0.973715,0.000000,-0.132577,-0.185210 LLEG_JOINT2:0.998496,0.037447,0.000000,0.040045 LLEG_JOINT4:0.996537,0.078756,0.000000,-0.026670 RARM_JOINT2:0.801261,0.000000,0.134855,0.582919 RARM_JOINT3:0.817450,0.000000,0.575720,-0.017975 RLEG_JOINT2:0.999387,0.021850,0.000000,-0.027347 RLEG_JOINT4:0.994829,0.096568,0.000000,0.031468 WAIST:0.999414,0.000000,-0.034233,-0.000721 WAIST_JOINT0:0.999227,0.000000,-0.038716,0.006757 WAIST_JOINT1:0.998093,0.061184,0.000000,-0.008211 END:
KINECT_DATA_Sensor  AnkleLeft:0.070607,0.727976,-0.092806,-0.675612 AnkleRight:0.090101,0.687217,0.076615,0.716760 ElbowLeft:-0.000330,0.920068,-0.188362,-0.343504 ElbowRight:-0.135349,0.724569,0.086716,0.670195 FootLeft:0.000000,0.000000,0.000000,0.000000 FootRight:0.000000,0.000000,0.000000,0.000000 HandLeft:-0.018019,0.760092,0.075135,0.645206 HandRight:0.203039,-0.193781,-0.572930,0.770049 HandTipLeft:0.000000,0.000000,0.000000,0.000000 HandTipRight:0.000000,0.000000,0.000000,0.000000 Head:0.000000,0.000000,0.000000,0.000000 HipLeft:0.139371,-0.676963,0.699009,-0.183531 HipRight:-0.097342,0.684083,0.707413,-0.148737 KneeLeft:-0.003123,0.730848,-0.054196,-0.680378 KneeRight:-0.003175,0.682631,0.035412,0.729898 Neck:0.037685,-0.007953,0.996305,-0.076760 ShoulderLeft:-0.001070,0.774803,-0.627109,0.080088 ShoulderRight:0.048099,0.782752,0.620147,-0.020071 SpineBase:0.034001,-0.005282,0.998627,-0.039488 SpineMid:0.035849,-0.005355,0.998563,-0.039479 SpineShoulder:0.037708,-0.006754,0.997670,-0.056452 ThumbLeft:0.000000,0.000000,0.000000,0.000000 ThumbRight:0.000000,0.000000,0.000000,0.000000 WristLeft:-0.065819,0.768501,-0.053399,0.634210 WristRight:0.154169,-0.229100,-0.577912,0.767960 END:
KINECT_DATA POSITION:15.053127,-1.457482,-5.365098 HEAD_JOINT1:0.978757,0.174562,-0.000000,0.107530 LARM_JOINT2:0.819082,0.000000,0.024118,-0.573169 LARM_JOINT3:0.974876,0.000000,-0.131251,-0.179973 LLEG_JOINT2:0.998508,0.037113,0.000000,0.040061 LLEG_JOINT4:0.996619,0.078006,0.000000,-0.025801 RARM_JOINT2:0.814507,0.000000,0.219963,0.536838 RARM_JOINT3:0.844716,0.000000,0.534222,-0.032573 RLEG_JOINT2:0.999407,0.021697,0.000000,-0.026745 RLEG_JOINT4:0.994837,0.096406,0.000000,0.031713 WAIST:0.999507,0.000000,-0.031373,-0.001495 WAIST_JOINT0:0.999631,0.000000,-0.026215,0.007088 WAIST_JOINT1:0.998236,0.058904,0.000000,-0.007384 END:
KINECT_DATA_Sensor  AnkleLeft:0.069373,0.721376,-0.092389,-0.682838 AnkleRight:0.090220,0.694285,0.075958,0.709972 ElbowLeft:-0.001201,0.914696,-0.182055,-0.360812 ElbowRight:-0.206606,0.766591,0.070706,0.603865 FootLeft:0.000000,0.000000,0.000000,0.000000 FootRight:0.000000,0.000000,0.000000,0.000000 HandLeft:-0.017333,0.728450,0.083535,0.679767 HandRight:-0.199191,0.105628,0.720970,-0.655261 HandTipLeft:0.000000,0.000000,0.000000,0.000000 HandTipRight:0.000000,0.000000,0.000000,0.000000 Head:0.000000,0.000000,0.000000,0.000000 HipLeft:0.138271,-0.678518,0.698597,-0.180156 HipRight:-0.099903,0.683696,0.707417,-0.148794 KneeLeft:-0.002660,0.728953,-0.053426,-0.682471 KneeRight:-0.003523,0.684664,0.035407,0.727990 Neck:0.025268,-0.007286,0.996878,-0.074444 ShoulderLeft:0.001949,0.775366,-0.627426,0.071695 ShoulderRight:0.035045,0.784104,0.618863,-0.031011 SpineBase:0.031204,-0.005702,0.998792,-0.037524 SpineMid:0.028234,-0.005590,0.998880,-0.037541 SpineShoulder:0.025243,-0.006458,0.998189,-0.054217 ThumbLeft:0.000000,0.000000,0.000000,0.000000 ThumbRight:0.000000,0.000000,0.000000,0.000000 WristLeft:-0.065894,0.740886,-0.059686,0.665720 WristRight:0.153953,-0.152387,-0.575657,0.788477 END:
KINECT_DATA POSITION:15.151238,-1.472017,-5.352139 HEAD_JOINT1:0.980681,0.173271,-0.000000,0.090784 LARM_JOINT2:0.815072,0.000000,0.022901,-0.578907 LARM_JOINT3:0.976663,0.000000,-0.127588,-0.172772 LLEG_JOINT2:0.998568,0.036493,0.000000,0.039127 LLEG_JOINT4:0.996455,0.081431,0.000000,-0.021114 RARM_JOINT2:0.827924,0.000000,0.197768,0.524814 RARM_JOINT3:0.815349,0.000000,0.578969,-0.000462 RLEG_JOINT2:0.999384,0.022489,0.000000,-0.026929 RLEG_JOINT4:0.994833,0.096423,0.000000,0.031764 WAIST:0.999635,0.000000,-0.026941,-0.001754 WAIST_JOINT0:0.999902,0.000000,-0.010125,0.009668 WAIST_JOINT1:0.998362,0.056784,0.000000,-0.007056 END:
KINECT_DATA_Sensor  AnkleLeft:0.068428,0.712841,-0.097043,-0.691200 AnkleRight:0.091096,0.705375,0.076143,0.698821 ElbowLeft:-0.001974,0.910551,-0.174583,-0.374719 ElbowRight:-0.208496,0.772367,0.097991,0.591925 FootLeft:0.000000,0.000000,0.000000,0.000000 FootRight:0.000000,0.000000,0.000000,0.000000 HandLeft:-0.011679,0.761645,0.093834,0.641058 HandRight:0.181902,-0.059850,-0.656342,0.729756 HandTipLeft:0.000000,0.000000,0.000000,0.000000 HandTipRight:0.000000,0.000000,0.000000,0.000000 Head:0.000000,0.000000,0.000000,0.000000 HipLeft:0.136848,-0.679749,0.698668,-0.176288 HipRight:-0.103907,0.683285,0.706935,-0.150225 KneeLeft:-0.001988,0.725944,-0.052165,-0.685770 KneeRight:-0.003410,0.687853,0.036257,0.724936 Neck:0.009249,-0.006544,0.997323,-0.072244 ShoulderLeft:0.005858,0.776880,-0.626585,0.061761 ShoulderRight:0.018235,0.787794,0.613962,-0.045802 SpineBase:0.026800,-0.006018,0.998991,-0.035531 SpineMid:0.018027,-0.005706,0.999188,-0.035583 SpineShoulder:0.009169,-0.006165,0.998577,-0.052182 ThumbLeft:0.000000,0.000000,0.000000,0.000000 ThumbRight:0.000000,0.000000,0.000000,0.000000 WristLeft:-0.067418,0.773512,-0.058736,0.627443 WristRight:0.145871,-0.087532,-0.604484,0.778241 END:
