EastLYD/RoboCupatHomeSim/InteractiveCleanUp/JapanOpen2016/Motion_Data/File58.dat
KINECT_DATA POSITION:1.404604,-0.845584,-6.635523 HEAD_JOINT1:0.981812,0.169605,-0.000000,0.085315 LARM_JOINT2:0.828863,0.000000,0.020913,-0.559060 LARM_JOINT3:0.971004,0.000000,-0.173407,-0.164563 LLEG_JOINT2:0.998239,0.013351,0.000000,0.057791 LLEG_JOINT4:0.995292,0.091118,0.000000,-0.033043 RARM_JOINT2:0.813741,0.000000,-0.097495,0.572992 RARM_JOINT3:0.964404,0.000000,0.220600,0.145808 RLEG_JOINT2:0.998714,0.023514,0.000000,-0.044926 RLEG_JOINT4:0.994292,0.100041,0.000000,0.037072 WAIST:0.999932,-0.000000,0.011630,0.000127 WAIST_JOINT0:0.999958,0.000000,-0.003852,0.008295 WAIST_JOINT1:0.998007,0.061686,0.000000,-0.013300 END:
KINECT_DATA_Sensor  AnkleLeft:0.064242,0.744602,-0.085720,-0.658857 AnkleRight:0.084813,0.736037,0.089800,0.665577 ElbowLeft:-0.006348,0.879412,-0.193596,-0.434874 ElbowRight:0.016745,0.822487,0.226263,0.521574 FootLeft:0.000000,0.000000,0.000000,0.000000 FootRight:0.000000,0.000000,0.000000,0.000000 HandLeft:-0.099372,0.757927,-0.019648,0.644427 HandRight:-0.111258,0.930682,-0.041414,0.346030 HandTipLeft:0.000000,0.000000,0.000000,0.000000 HandTipRight:0.000000,0.000000,0.000000,0.000000 Head:0.000000,0.000000,0.000000,0.000000 HipLeft:0.106778,-0.683301,0.707019,-0.147726 HipRight:-0.124360,0.676126,0.704382,-0.176731 KneeLeft:0.030918,-0.697703,0.050761,0.713918 KneeRight:-0.015544,0.715369,0.048148,0.696913 Neck:0.002368,-0.015942,0.996936,-0.076543 ShoulderLeft:0.038417,0.777495,-0.626454,0.039763 ShoulderRight:0.042573,0.783097,0.619473,-0.034646 SpineBase:-0.012103,-0.012700,0.999103,-0.038550 SpineMid:-0.005080,-0.012971,0.999163,-0.038460 SpineShoulder:0.002206,-0.014355,0.998302,-0.056412 ThumbLeft:0.000000,0.000000,0.000000,0.000000 ThumbRight:0.000000,0.000000,0.000000,0.000000 WristLeft:-0.055307,0.767431,-0.090005,0.632368 WristRight:-0.110781,0.928865,0.032401,0.351976 END:
KINECT_DATA POSITION:1.389426,-0.845347,-6.699216 HEAD_JOINT1:0.981482,0.171551,-0.000000,0.085223 LARM_JOINT2:0.828264,0.000000,0.021628,-0.559920 LARM_JOINT3:0.970791,0.000000,-0.172724,-0.166528 LLEG_JOINT2:0.998248,0.013021,0.000000,0.057727 LLEG_JOINT4:0.995279,0.091515,0.000000,-0.032323 RARM_JOINT2:0.813197,0.000000,-0.098555,0.573583 RARM_JOINT3:0.964878,0.000000,0.216420,0.148904 RLEG_JOINT2:0.998707,0.023876,0.000000,-0.044874 RLEG_JOINT4:0.994335,0.098502,0.000000,0.039929 WAIST:0.999917,-0.000000,0.012849,0.000259 WAIST_JOINT0:0.999959,0.000000,-0.003501,0.008311 WAIST_JOINT1:0.997996,0.061845,0.000000,-0.013374 END:
KINECT_DATA_Sensor  AnkleLeft:0.064150,0.745727,-0.086097,-0.657544 AnkleRight:0.085686,0.735159,0.087121,0.666790 ElbowLeft:-0.005519,0.877802,-0.193019,-0.438381 ElbowRight:0.017523,0.822457,0.226052,0.521688 FootLeft:0.000000,0.000000,0.000000,0.000000 FootRight:0.000000,0.000000,0.000000,0.000000 HandLeft:-0.098256,0.714801,-0.015241,0.692223 HandRight:-0.075342,0.831382,-0.066035,0.546596 HandTipLeft:0.000000,0.000000,0.000000,0.000000 HandTipRight:0.000000,0.000000,0.000000,0.000000 Head:0.000000,0.000000,0.000000,0.000000 HipLeft:0.105769,-0.683342,0.707261,-0.147101 HipRight:-0.124900,0.676020,0.704192,-0.177510 KneeLeft:0.031144,-0.696807,0.050614,0.714792 KneeRight:-0.015218,0.716228,0.048258,0.696029 Neck:0.002001,-0.016044,0.996931,-0.076592 ShoulderLeft:0.038948,0.777581,-0.626334,0.039437 ShoulderRight:0.042647,0.783187,0.619340,-0.034879 SpineBase:-0.013329,-0.012593,0.999080,-0.038778 SpineMid:-0.005873,-0.012882,0.999151,-0.038683 SpineShoulder:0.001842,-0.014420,0.998293,-0.056565 ThumbLeft:0.000000,0.000000,0.000000,0.000000 ThumbRight:0.000000,0.000000,0.000000,0.000000 WristLeft:-0.050593,0.726889,-0.093432,0.678486 WristRight:-0.114769,0.829092,0.006593,0.547166 END:
KINECT_DATA POSITION:1.355806,-0.854750,-6.739187 HEAD_JOINT1:0.981342,0.172583,-0.000000,0.084752 LARM_JOINT2:0.827290,0.000000,0.021698,-0.561355 LARM_JOINT3:0.970913,0.000000,-0.173861,-0.164624 LLEG_JOINT2:0.998244,0.012798,0.000000,0.057834 LLEG_JOINT4:0.995158,0.091818,0.000000,-0.035065 RARM_JOINT2:0.812834,0.000000,-0.098921,0.574034 RARM_JOINT3:0.965240,0.000000,0.216739,0.146072 RLEG_JOINT2:0.998711,0.025035,0.000000,-0.044161 RLEG_JOINT4:0.994546,0.096236,0.000000,0.040209 WAIST:0.999911,-0.000000,0.013325,0.000364 WAIST_JOINT0:0.999959,0.000000,-0.003035,0.008555 WAIST_JOINT1:0.997981,0.062047,0.000000,-0.013570 END:
KINECT_DATA_Sensor  AnkleLeft:0.063783,0.729080,-0.085750,-0.676033 AnkleRight:0.083905,0.722583,0.087260,0.680603 ElbowLeft:-0.004556,0.877521,-0.191507,-0.439615 ElbowRight:0.018193,0.822960,0.225881,0.520944 FootLeft:0.000000,0.000000,0.000000,0.000000 FootRight:0.000000,0.000000,0.000000,0.000000 HandLeft:-0.098486,0.699717,-0.023570,0.707207 HandRight:-0.074834,0.756155,-0.065255,0.646816 HandTipLeft:0.000000,0.000000,0.000000,0.000000 HandTipRight:0.000000,0.000000,0.000000,0.000000 Head:0.000000,0.000000,0.000000,0.000000 HipLeft:0.105277,-0.683301,0.707424,-0.146861 HipRight:-0.124988,0.675975,0.704126,-0.177881 KneeLeft:0.031430,-0.696440,0.050624,0.715137 KneeRight:-0.013847,0.716575,0.048507,0.695683 Neck:0.001480,-0.016186,0.996917,-0.076765 ShoulderLeft:0.039960,0.777415,-0.626520,0.038755 ShoulderRight:0.043023,0.783319,0.619142,-0.034980 SpineBase:-0.013814,-0.012622,0.999065,-0.038981 SpineMid:-0.006375,-0.012912,0.999140,-0.038886 SpineShoulder:0.001320,-0.014538,0.998281,-0.056763 ThumbLeft:0.000000,0.000000,0.000000,0.000000 ThumbRight:0.000000,0.000000,0.000000,0.000000 WristLeft:-0.048882,0.711157,-0.093501,0.695071 WristRight:-0.113890,0.753764,-0.008334,0.647147 END:
KINECT_DATA POSITION:1.291661,-0.813019,-6.779659 HEAD_JOINT1:0.981150,0.174979,-0.000000,0.082021 LARM_JOINT2:0.830806,0.000000,0.019411,-0.556223 LARM_JOINT3:0.976238,0.000000,-0.179686,-0.121125 LLEG_JOINT2:0.998226,0.012293,0.000000,0.058258 LLEG_JOINT4:0.995170,0.092361,0.000000,-0.033250 RARM_JOINT2:0.814129,0.000000,-0.098755,0.572226 RARM_JOINT3:0.970556,0.000000,0.208303,0.120960 RLEG_JOINT2:0.998706,0.024714,0.000000,-0.044454 RLEG_JOINT4:0.994367,0.098089,0.000000,0.040167 WAIST:0.999900,-0.000000,0.014131,0.000270 WAIST_JOINT0:0.999966,0.000000,-0.002034,0.008027 WAIST_JOINT1:0.997995,0.061945,0.000000,-0.013025 END:
KINECT_DATA_Sensor  AnkleLeft:0.062890,0.731651,-0.087047,-0.673168 AnkleRight:0.085455,0.729245,0.087902,0.673181 ElbowLeft:-0.017888,0.855800,-0.195992,-0.478407 ElbowRight:0.012941,0.813938,0.227549,0.534378 FootLeft:0.000000,0.000000,0.000000,0.000000 FootRight:0.000000,0.000000,0.000000,0.000000 HandLeft:-0.081036,0.850496,-0.096347,0.510692 HandRight:-0.097567,0.789635,0.005606,0.605744 HandTipLeft:0.000000,0.000000,0.000000,0.000000 HandTipRight:0.000000,0.000000,0.000000,0.000000 Head:0.000000,0.000000,0.000000,0.000000 HipLeft:0.104649,-0.683494,0.707442,-0.146324 HipRight:-0.125525,0.675873,0.704070,-0.178112 KneeLeft:0.031981,-0.695845,0.050534,0.715698 KneeRight:-0.014387,0.717120,0.048537,0.695109 Neck:0.000552,-0.015747,0.996933,-0.076659 ShoulderLeft:0.041089,0.777019,-0.627012,0.037537 ShoulderRight:0.042900,0.782155,0.620602,-0.035308 SpineBase:-0.014599,-0.012341,0.999061,-0.038888 SpineMid:-0.007229,-0.012627,0.999141,-0.038796 SpineShoulder:0.000396,-0.014135,0.998293,-0.056667 ThumbLeft:0.000000,0.000000,0.000000,0.000000 ThumbRight:0.000000,0.000000,0.000000,0.000000 WristLeft:-0.050055,0.853501,-0.106962,0.507533 WristRight:-0.118373,0.787575,0.012272,0.604617 END:
KINECT_DATA POSITION:1.252565,-0.740859,-6.824660 HEAD_JOINT1:0.981116,0.176654,-0.000000,0.078772 LARM_JOINT2:0.839108,0.000000,0.015345,-0.543748 LARM_JOINT3:0.977771,0.000000,-0.188240,-0.092359 LLEG_JOINT2:0.998281,0.011266,0.000000,0.057510 LLEG_JOINT4:0.994714,0.096296,0.000000,-0.035643 RARM_JOINT2:0.829484,0.000000,-0.102681,0.549011 RARM_JOINT3:0.973636,0.000000,0.211655,0.085059 RLEG_JOINT2:0.998685,0.024681,0.000000,-0.044931 RLEG_JOINT4:0.994457,0.097031,0.000000,0.040504 WAIST:0.999884,-0.000000,0.015159,0.001272 WAIST_JOINT0:0.999961,0.000000,-0.001069,0.008712 WAIST_JOINT1:0.997983,0.062236,0.000000,-0.012520 END:
KINECT_DATA_Sensor  AnkleLeft:0.064875,0.717387,-0.088491,-0.687980 AnkleRight:0.084979,0.728650,0.086799,0.674028 ElbowLeft:-0.040675,0.822979,-0.206755,-0.527545 ElbowRight:-0.011182,0.781004,0.250835,0.571830 FootLeft:0.000000,0.000000,0.000000,0.000000 FootRight:0.000000,0.000000,0.000000,0.000000 HandLeft:-0.014023,0.565586,-0.168335,0.807205 HandRight:-0.173739,0.591897,0.017366,0.786874 HandTipLeft:0.000000,0.000000,0.000000,0.000000 HandTipRight:0.000000,0.000000,0.000000,0.000000 Head:0.000000,0.000000,0.000000,0.000000 HipLeft:0.103550,-0.682956,0.708219,-0.145853 HipRight:-0.125870,0.676428,0.703302,-0.178797 KneeLeft:0.032858,-0.695013,0.050019,0.716502 KneeRight:-0.014094,0.717888,0.048123,0.694350 Neck:-0.000417,-0.014023,0.996928,-0.077060 ShoulderLeft:0.042273,0.775386,-0.628998,0.036746 ShoulderRight:0.042793,0.781324,0.621610,-0.036095 SpineBase:-0.015682,-0.011683,0.999039,-0.039229 SpineMid:-0.008270,-0.011974,0.999128,-0.039142 SpineShoulder:-0.000580,-0.012805,0.998295,-0.056943 ThumbLeft:0.000000,0.000000,0.000000,0.000000 ThumbRight:0.000000,0.000000,0.000000,0.000000 WristLeft:0.029049,0.572735,-0.146678,0.805988 WristRight:-0.154753,0.593225,0.017955,0.789818 END:
KINECT_DATA POSITION:1.192938,-0.672505,-6.894207 HEAD_JOINT1:0.981374,0.176279,-0.000000,0.076363 LARM_JOINT2:0.849662,0.000000,0.015506,-0.527099 LARM_JOINT3:0.979875,0.000000,-0.181266,-0.083592 LLEG_JOINT2:0.998258,0.010209,0.000000,0.058107 LLEG_JOINT4:0.994689,0.096115,0.000000,-0.036810 RARM_JOINT2:0.845353,0.000000,-0.102278,0.524325 RARM_JOINT3:0.971874,0.000000,0.220502,0.082708 RLEG_JOINT2:0.998714,0.024870,0.000000,-0.044169 RLEG_JOINT4:0.994381,0.098358,0.000000,0.039151 WAIST:0.999861,-0.000000,0.016601,0.001476 WAIST_JOINT0:0.999982,0.000000,-0.001340,0.005861 WAIST_JOINT1:0.997901,0.063703,0.000000,-0.011610 END:
KINECT_DATA_Sensor  AnkleLeft:0.064253,0.715938,-0.087347,-0.689692 AnkleRight:0.085879,0.731172,0.088043,0.671015 ElbowLeft:-0.053426,0.810557,-0.224054,-0.538464 ElbowRight:-0.025951,0.778740,0.274045,0.563728 FootLeft:0.000000,0.000000,0.000000,0.000000 FootRight:0.000000,0.000000,0.000000,0.000000 HandLeft:0.106543,0.161877,-0.126061,0.972910 HandRight:-0.194636,0.911061,0.119685,0.343162 HandTipLeft:0.000000,0.000000,0.000000,0.000000 HandTipRight:0.000000,0.000000,0.000000,0.000000 Head:0.000000,0.000000,0.000000,0.000000 HipLeft:0.101688,-0.682875,0.708593,-0.145730 HipRight:-0.126160,0.676302,0.703070,-0.179975 KneeLeft:0.034110,-0.693905,0.049901,0.717525 KneeRight:-0.013344,0.718912,0.047562,0.693344 Neck:0.000096,-0.013208,0.996808,-0.078739 ShoulderLeft:0.044520,0.775730,-0.628415,0.036806 ShoulderRight:0.045508,0.778412,0.625088,-0.035612 SpineBase:-0.017118,-0.010906,0.998984,-0.040238 SpineMid:-0.008726,-0.011243,0.999093,-0.040145 SpineShoulder:-0.000046,-0.011942,0.998227,-0.058320 ThumbLeft:0.000000,0.000000,0.000000,0.000000 ThumbRight:0.000000,0.000000,0.000000,0.000000 WristLeft:0.114619,0.162869,-0.125070,0.971954 WristRight:-0.127682,0.917664,0.123465,0.355453 END:
KINECT_DATA POSITION:1.141053,-0.636951,-6.956303 HEAD_JOINT1:0.981590,0.175900,-0.000000,0.074430 LARM_JOINT2:0.853693,0.000000,0.011383,-0.520652 LARM_JOINT3:0.969440,0.000000,-0.216121,-0.116095 LLEG_JOINT2:0.998266,0.009367,0.000000,0.058121 LLEG_JOINT4:0.994791,0.095011,0.000000,-0.036926 RARM_JOINT2:0.846390,0.000000,-0.100601,0.522976 RARM_JOINT3:0.967623,0.000000,0.222080,0.119941 RLEG_JOINT2:0.998729,0.025503,0.000000,-0.043482 RLEG_JOINT4:0.994884,0.094626,0.000000,0.035394 WAIST:0.999827,-0.000000,0.018539,0.001590 WAIST_JOINT0:0.999989,0.000000,-0.000804,0.004681 WAIST_JOINT1:0.997826,0.064990,0.000000,-0.010956 END:
KINECT_DATA_Sensor  AnkleLeft:0.061782,0.705354,-0.086793,-0.700803 AnkleRight:0.079015,0.714651,0.090345,0.689107 ElbowLeft:-0.058357,0.810976,-0.230068,-0.534772 ElbowRight:-0.023977,0.786563,0.275098,0.552326 FootLeft:0.000000,0.000000,0.000000,0.000000 FootRight:0.000000,0.000000,0.000000,0.000000 HandLeft:0.004586,0.105926,-0.193816,0.975292 HandRight:-0.148686,0.952859,0.009558,0.264311 HandTipLeft:0.000000,0.000000,0.000000,0.000000 HandTipRight:0.000000,0.000000,0.000000,0.000000 Head:0.000000,0.000000,0.000000,0.000000 HipLeft:0.099360,-0.682959,0.708955,-0.145180 HipRight:-0.126605,0.676100,0.702849,-0.181286 KneeLeft:0.034714,-0.692481,0.049469,0.718901 KneeRight:-0.012423,0.720267,0.047430,0.691962 Neck:-0.000322,-0.012835,0.996700,-0.080148 ShoulderLeft:0.045982,0.775914,-0.628069,0.037048 ShoulderRight:0.046375,0.777474,0.626136,-0.036575 SpineBase:-0.019041,-0.010156,0.998916,-0.041235 SpineMid:-0.009880,-0.010534,0.999049,-0.041140 SpineShoulder:-0.000441,-0.011400,0.998161,-0.059538 ThumbLeft:0.000000,0.000000,0.000000,0.000000 ThumbRight:0.000000,0.000000,0.000000,0.000000 WristLeft:0.114465,0.132731,-0.137934,0.974810 WristRight:-0.118735,0.944184,0.126577,0.279993 END:
KINECT_DATA POSITION:1.102066,-0.636427,-6.986368 HEAD_JOINT1:0.981643,0.175751,-0.000000,0.074082 LARM_JOINT2:0.852209,0.000000,-0.006620,-0.523160 LARM_JOINT3:0.963650,0.000000,-0.241247,-0.114795 LLEG_JOINT2:0.998297,0.009053,0.000000,0.057625 LLEG_JOINT4:0.995004,0.094291,0.000000,-0.032818 RARM_JOINT2:0.842282,0.000000,-0.099125,0.529845 RARM_JOINT3:0.965643,0.000000,0.221736,0.135525 RLEG_JOINT2:0.998688,0.024861,0.000000,-0.044765 RLEG_JOINT4:0.994545,0.095618,0.000000,0.041681 WAIST:0.999812,-0.000000,0.019321,0.001877 WAIST_JOINT0:0.999990,0.000000,-0.001423,0.004347 WAIST_JOINT1:0.997806,0.065241,0.000000,-0.011231 END:
KINECT_DATA_Sensor  AnkleLeft:0.062111,0.733484,-0.086424,-0.671323 AnkleRight:0.084044,0.723404,0.085929,0.679882 ElbowLeft:-0.068170,0.815772,-0.220056,-0.530513 ElbowRight:-0.014964,0.800115,0.268594,0.536143 FootLeft:0.000000,0.000000,0.000000,0.000000 FootRight:0.000000,0.000000,0.000000,0.000000 HandLeft:0.011750,0.079796,-0.243883,0.966445 HandRight:-0.123209,0.949900,-0.016249,0.286785 HandTipLeft:0.000000,0.000000,0.000000,0.000000 HandTipRight:0.000000,0.000000,0.000000,0.000000 Head:0.000000,0.000000,0.000000,0.000000 HipLeft:0.098441,-0.682831,0.709253,-0.144951 HipRight:-0.126775,0.676162,0.702604,-0.181884 KneeLeft:0.034763,-0.691903,0.049122,0.719478 KneeRight:-0.013626,0.720810,0.047647,0.691358 Neck:0.000367,-0.013079,0.996686,-0.080285 ShoulderLeft:0.044365,0.776247,-0.627667,0.038809 ShoulderRight:0.045617,0.776986,0.626754,-0.037292 SpineBase:-0.019836,-0.009843,0.998887,-0.041653 SpineMid:-0.009918,-0.010256,0.999034,-0.041553 SpineShoulder:0.000258,-0.011514,0.998145,-0.059783 ThumbLeft:0.000000,0.000000,0.000000,0.000000 ThumbRight:0.000000,0.000000,0.000000,0.000000 WristLeft:0.098627,0.110076,-0.164811,0.975189 WristRight:-0.121422,0.942113,0.102266,0.295332 END:
KINECT_DATA POSITION:1.024976,-0.684040,-6.913590 HEAD_JOINT1:0.981516,0.176477,-0.000000,0.074036 LARM_JOINT2:0.851479,0.000000,-0.037645,-0.523036 LARM_JOINT3:0.957019,0.000000,-0.272697,-0.098751 LLEG_JOINT2:0.998286,0.008951,0.000000,0.057834 LLEG_JOINT4:0.994810,0.095762,0.000000,-0.034394 RARM_JOINT2:0.835855,0.000000,-0.097837,0.540161 RARM_JOINT3:0.952349,0.000000,0.252049,0.171764 RLEG_JOINT2:0.998704,0.024846,0.000000,-0.044408 RLEG_JOINT4:0.994455,0.097247,0.000000,0.040032 WAIST:0.999781,-0.000000,0.020812,0.002096 WAIST_JOINT0:0.999987,0.000000,-0.002731,0.004203 WAIST_JOINT1:0.997839,0.064640,0.000000,-0.011830 END:
KINECT_DATA_Sensor  AnkleLeft:0.060748,0.706623,-0.088645,-0.699382 AnkleRight:0.087022,0.745378,0.085240,0.655418 ElbowLeft:-0.093534,0.808320,-0.202968,-0.544678 ElbowRight:-0.002237,0.819692,0.258365,0.511221 FootLeft:0.000000,0.000000,0.000000,0.000000 FootRight:0.000000,0.000000,0.000000,0.000000 HandLeft:0.008265,0.054809,-0.326428,0.943595 HandRight:-0.144072,0.920338,-0.093149,0.351490 HandTipLeft:0.000000,0.000000,0.000000,0.000000 HandTipRight:0.000000,0.000000,0.000000,0.000000 Head:0.000000,0.000000,0.000000,0.000000 HipLeft:0.098232,-0.683057,0.709381,-0.143395 HipRight:-0.128011,0.676242,0.702172,-0.182383 KneeLeft:0.035065,-0.690786,0.049404,0.720517 KneeRight:-0.013299,0.721859,0.047211,0.690300 Neck:0.001706,-0.013746,0.996744,-0.079437 ShoulderLeft:0.042028,0.776531,-0.627387,0.040236 ShoulderRight:0.045001,0.776747,0.627133,-0.036637 SpineBase:-0.021353,-0.010386,0.998885,-0.040796 SpineMid:-0.010025,-0.010848,0.999063,-0.040676 SpineShoulder:0.001592,-0.012140,0.998173,-0.059162 ThumbLeft:0.000000,0.000000,0.000000,0.000000 ThumbRight:0.000000,0.000000,0.000000,0.000000 WristLeft:0.094452,0.098733,-0.203820,0.969427 WristRight:-0.139679,0.919686,0.040790,0.364697 END:
KINECT_DATA POSITION:0.997899,-0.749836,-6.803811 HEAD_JOINT1:0.981708,0.175636,-0.000000,0.073489 LARM_JOINT2:0.853535,0.000000,-0.073331,-0.515849 LARM_JOINT3:0.958743,0.000000,-0.278305,-0.057949 LLEG_JOINT2:0.998277,0.009379,0.000000,0.057919 LLEG_JOINT4:0.994883,0.094639,0.000000,-0.035369 RARM_JOINT2:0.833266,0.000000,-0.098130,0.544095 RARM_JOINT3:0.958470,0.000000,0.239337,0.155090 RLEG_JOINT2:0.998664,0.024881,0.000000,-0.045297 RLEG_JOINT4:0.994297,0.097720,0.000000,0.042702 WAIST:0.999738,-0.000000,0.022779,0.002428 WAIST_JOINT0:0.999982,0.000000,-0.003624,0.004713 WAIST_JOINT1:0.997914,0.063341,0.000000,-0.012452 END:
KINECT_DATA_Sensor  AnkleLeft:0.062996,0.723078,-0.086049,-0.682484 AnkleRight:0.089617,0.753893,0.083204,0.645517 ElbowLeft:-0.128596,0.790308,-0.185221,-0.569710 ElbowRight:-0.001793,0.820425,0.254085,0.512192 FootLeft:0.000000,0.000000,0.000000,0.000000 FootRight:0.000000,0.000000,0.000000,0.000000 HandLeft:0.058392,0.087989,-0.356103,0.928461 HandRight:-0.108431,0.806961,-0.046642,0.578690 HandTipLeft:0.000000,0.000000,0.000000,0.000000 HandTipRight:0.000000,0.000000,0.000000,0.000000 Head:0.000000,0.000000,0.000000,0.000000 HipLeft:0.098225,-0.683280,0.709624,-0.141115 HipRight:-0.130216,0.676385,0.701557,-0.182662 KneeLeft:0.034953,-0.689374,0.050063,0.721828 KneeRight:-0.013778,0.723203,0.047587,0.688856 Neck:0.002555,-0.014444,0.996887,-0.077470 ShoulderLeft:0.039821,0.776535,-0.627494,0.040733 ShoulderRight:0.043938,0.777022,0.626920,-0.035749 SpineBase:-0.023331,-0.010624,0.998905,-0.039142 SpineMid:-0.010591,-0.011123,0.999121,-0.039003 SpineShoulder:0.002456,-0.012622,0.998236,-0.057969 ThumbLeft:0.000000,0.000000,0.000000,0.000000 ThumbRight:0.000000,0.000000,0.000000,0.000000 WristLeft:0.099298,0.118060,-0.247951,0.956411 WristRight:-0.144997,0.802037,0.000683,0.579407 END:
KINECT_DATA POSITION:0.997624,-0.808723,-6.639326 HEAD_JOINT1:0.981899,0.174595,-0.000000,0.073426 LARM_JOINT2:0.860806,0.000000,-0.086658,-0.501501 LARM_JOINT3:0.962913,0.000000,-0.268062,-0.030677 LLEG_JOINT2:0.998351,0.008341,0.000000,0.056794 LLEG_JOINT4:0.994717,0.097478,0.000000,-0.032203 RARM_JOINT2:0.832788,0.000000,-0.099872,0.544509 RARM_JOINT3:0.959276,0.000000,0.239568,0.149658 RLEG_JOINT2:0.998598,0.026183,0.000000,-0.046014 RLEG_JOINT4:0.994238,0.098004,0.000000,0.043438 WAIST:0.999721,-0.000000,0.023461,0.002776 WAIST_JOINT0:0.999976,0.000000,-0.004891,0.004856 WAIST_JOINT1:0.998024,0.061355,0.000000,-0.013590 END:
KINECT_DATA_Sensor  AnkleLeft:0.064051,0.731338,-0.088142,-0.673256 AnkleRight:0.089759,0.744939,0.085336,0.655536 ElbowLeft:-0.154310,0.768429,-0.183060,-0.593459 ElbowRight:-0.003533,0.818209,0.253756,0.515878 FootLeft:0.000000,0.000000,0.000000,0.000000 FootRight:0.000000,0.000000,0.000000,0.000000 HandLeft:0.103738,0.115321,-0.351018,0.923432 HandRight:-0.135441,0.923733,-0.018884,0.357794 HandTipLeft:0.000000,0.000000,0.000000,0.000000 HandTipRight:0.000000,0.000000,0.000000,0.000000 Head:0.000000,0.000000,0.000000,0.000000 HipLeft:0.099314,-0.683386,0.709754,-0.139173 HipRight:-0.131978,0.676804,0.701051,-0.181784 KneeLeft:0.035144,-0.688867,0.048798,0.722389 KneeRight:-0.013184,0.723649,0.048767,0.688317 Neck:0.003861,-0.015689,0.997050,-0.075030 ShoulderLeft:0.036046,0.777135,-0.626919,0.041634 ShoulderRight:0.041875,0.777259,0.626833,-0.034577 SpineBase:-0.024015,-0.010791,0.998971,-0.036930 SpineMid:-0.010262,-0.011298,0.999207,-0.036778 SpineShoulder:0.003790,-0.013355,0.998333,-0.056018 ThumbLeft:0.000000,0.000000,0.000000,0.000000 ThumbRight:0.000000,0.000000,0.000000,0.000000 WristLeft:0.119842,0.134773,-0.270231,0.945753 WristRight:-0.138118,0.920160,0.043663,0.363760 END:
KINECT_DATA POSITION:1.006107,-0.882222,-6.473911 HEAD_JOINT1:0.982287,0.173537,-0.000000,0.070695 LARM_JOINT2:0.868662,0.000000,-0.107197,-0.483669 LARM_JOINT3:0.961195,0.000000,-0.274743,-0.024895 LLEG_JOINT2:0.998342,0.009466,0.000000,0.056780 LLEG_JOINT4:0.994899,0.095016,0.000000,-0.033882 RARM_JOINT2:0.831920,0.000000,-0.093928,0.546888 RARM_JOINT3:0.946228,0.000000,0.271632,0.175693 RLEG_JOINT2:0.998573,0.026274,0.000000,-0.046502 RLEG_JOINT4:0.994299,0.097263,0.000000,0.043701 WAIST:0.999682,-0.000000,0.025051,0.002789 WAIST_JOINT0:0.999973,0.000000,-0.005506,0.004928 WAIST_JOINT1:0.998099,0.060147,0.000000,-0.013468 END:
KINECT_DATA_Sensor  AnkleLeft:0.062186,0.714460,-0.087383,-0.691407 AnkleRight:0.084485,0.711239,0.089661,0.692071 ElbowLeft:-0.180661,0.763886,-0.183719,-0.591681 ElbowRight:-0.006039,0.824152,0.248696,0.508809 FootLeft:0.000000,0.000000,0.000000,0.000000 FootRight:0.000000,0.000000,0.000000,0.000000 HandLeft:0.098269,0.090682,-0.392422,0.910014 HandRight:-0.169851,0.862480,-0.152796,0.451589 HandTipLeft:0.000000,0.000000,0.000000,0.000000 HandTipRight:0.000000,0.000000,0.000000,0.000000 Head:0.000000,0.000000,0.000000,0.000000 HipLeft:0.099618,-0.683735,0.709800,-0.136987 HipRight:-0.134245,0.676851,0.700678,-0.181387 KneeLeft:0.034246,-0.687818,0.049632,0.723375 KneeRight:-0.013548,0.724700,0.049136,0.687177 Neck:0.004562,-0.015736,0.997135,-0.073848 ShoulderLeft:0.033619,0.777755,-0.626252,0.042123 ShoulderRight:0.040314,0.777736,0.626374,-0.034009 SpineBase:-0.025570,-0.010628,0.999006,-0.034939 SpineMid:-0.010697,-0.011147,0.999276,-0.034777 SpineShoulder:0.004488,-0.013385,0.998401,-0.054737 ThumbLeft:0.000000,0.000000,0.000000,0.000000 ThumbRight:0.000000,0.000000,0.000000,0.000000 WristLeft:0.136378,0.126236,-0.286964,0.939743 WristRight:-0.154112,0.868898,0.000252,0.470388 END:
KINECT_DATA POSITION:1.031289,-0.938792,-6.352031 HEAD_JOINT1:0.983237,0.169446,-0.000000,0.067325 LARM_JOINT2:0.874546,0.000000,-0.136962,-0.465199 LARM_JOINT3:0.968054,0.000000,-0.250741,0.000244 LLEG_JOINT2:0.998372,0.010047,0.000000,0.056138 LLEG_JOINT4:0.995083,0.094392,0.000000,-0.030009 RARM_JOINT2:0.834138,0.000000,-0.086322,0.544760 RARM_JOINT3:0.928975,0.000000,0.302514,0.213285 RLEG_JOINT2:0.998531,0.027312,0.000000,-0.046796 RLEG_JOINT4:0.994356,0.097285,0.000000,0.042320 WAIST:0.999635,-0.000000,0.026833,0.003013 WAIST_JOINT0:0.999974,0.000000,-0.005032,0.005180 WAIST_JOINT1:0.998167,0.058999,0.000000,-0.013513 END:
KINECT_DATA_Sensor  AnkleLeft:0.059380,0.708104,-0.090299,-0.697789 AnkleRight:0.083882,0.711662,0.091653,0.691449 ElbowLeft:-0.214017,0.753433,-0.175025,-0.596575 ElbowRight:-0.006142,0.842222,0.247761,0.478789 FootLeft:0.000000,0.000000,0.000000,0.000000 FootRight:0.000000,0.000000,0.000000,0.000000 HandLeft:0.161314,0.091380,-0.382705,0.905077 HandRight:-0.190504,0.864058,-0.191143,0.424942 HandTipLeft:0.000000,0.000000,0.000000,0.000000 HandTipRight:0.000000,0.000000,0.000000,0.000000 Head:0.000000,0.000000,0.000000,0.000000 HipLeft:0.099390,-0.683906,0.710025,-0.135128 HipRight:-0.136190,0.676938,0.700181,-0.181531 KneeLeft:0.033452,-0.686592,0.049783,0.724565 KneeRight:-0.012979,0.725906,0.049905,0.685858 Neck:0.004198,-0.015749,0.997225,-0.072640 ShoulderLeft:0.031445,0.778736,-0.625139,0.042227 ShoulderRight:0.037650,0.778808,0.625170,-0.034690 SpineBase:-0.027339,-0.010402,0.999007,-0.033602 SpineMid:-0.011764,-0.010925,0.999312,-0.033435 SpineShoulder:0.004129,-0.013308,0.998468,-0.053546 ThumbLeft:0.000000,0.000000,0.000000,0.000000 ThumbRight:0.000000,0.000000,0.000000,0.000000 WristLeft:0.159945,0.107152,-0.305429,0.932550 WristRight:-0.167985,0.876188,-0.052320,0.448707 END:
KINECT_DATA POSITION:1.026803,-0.974391,-6.305099 HEAD_JOINT1:0.984503,0.164359,-0.000000,0.061157 LARM_JOINT2:0.880105,0.000000,-0.162458,-0.446119 LARM_JOINT3:0.969674,0.000000,-0.244160,0.010871 LLEG_JOINT2:0.998372,0.009830,0.000000,0.056191 LLEG_JOINT4:0.994948,0.095117,0.000000,-0.032117 RARM_JOINT2:0.836622,0.000000,-0.087275,0.540783 RARM_JOINT3:0.931754,0.000000,0.294198,0.212794 RLEG_JOINT2:0.998548,0.026002,0.000000,-0.047178 RLEG_JOINT4:0.993845,0.100707,0.000000,0.046160 WAIST:0.999609,-0.000000,0.027801,0.002857 WAIST_JOINT0:0.999977,0.000000,-0.004220,0.005322 WAIST_JOINT1:0.998201,0.058419,0.000000,-0.013516 END:
KINECT_DATA_Sensor  AnkleLeft:0.061294,0.707301,-0.088915,-0.698615 AnkleRight:0.091412,0.740400,0.087235,0.660183 ElbowLeft:-0.246358,0.734932,-0.164142,-0.610115 ElbowRight:-0.006649,0.845308,0.251923,0.471111 FootLeft:0.000000,0.000000,0.000000,0.000000 FootRight:0.000000,0.000000,0.000000,0.000000 HandLeft:0.166167,0.056306,-0.391607,0.903251 HandRight:-0.165396,0.878772,-0.123149,0.430394 HandTipLeft:0.000000,0.000000,0.000000,0.000000 HandTipRight:0.000000,0.000000,0.000000,0.000000 Head:0.000000,0.000000,0.000000,0.000000 HipLeft:0.098703,-0.684126,0.710043,-0.134418 HipRight:-0.136585,0.676695,0.700219,-0.181993 KneeLeft:0.033491,-0.685884,0.049592,0.725247 KneeRight:-0.014318,0.726560,0.049313,0.685182 Neck:0.003504,-0.015916,0.997252,-0.072269 ShoulderLeft:0.029395,0.779412,-0.624358,0.042776 ShoulderRight:0.034706,0.779823,0.623981,-0.036306 SpineBase:-0.028302,-0.010628,0.998978,-0.033606 SpineMid:-0.012602,-0.011155,0.999299,-0.033434 SpineShoulder:0.003422,-0.013512,0.998504,-0.052867 ThumbLeft:0.000000,0.000000,0.000000,0.000000 ThumbRight:0.000000,0.000000,0.000000,0.000000 WristLeft:0.189205,0.082086,-0.323490,0.923481 WristRight:-0.170994,0.879239,-0.060139,0.440548 END:
KINECT_DATA POSITION:1.024783,-1.007804,-6.283903 HEAD_JOINT1:0.985184,0.162448,-0.000000,0.054988 LARM_JOINT2:0.880372,0.000000,-0.213555,-0.423485 LARM_JOINT3:0.969915,0.000000,-0.243341,0.007048 LLEG_JOINT2:0.998338,0.009413,0.000000,0.056851 LLEG_JOINT4:0.994760,0.097386,0.000000,-0.031112 RARM_JOINT2:0.837276,0.000000,-0.089507,0.539405 RARM_JOINT3:0.932540,0.000000,0.290273,0.214734 RLEG_JOINT2:0.998595,0.025940,0.000000,-0.046213 RLEG_JOINT4:0.993472,0.104187,0.000000,0.046457 WAIST:0.999585,-0.000000,0.028721,0.002275 WAIST_JOINT0:0.999972,0.000000,-0.005943,0.004557 WAIST_JOINT1:0.998255,0.057416,0.000000,-0.013781 END:
KINECT_DATA_Sensor  AnkleLeft:0.062299,0.708141,-0.090737,-0.697439 AnkleRight:0.090147,0.710193,0.093374,0.691940 ElbowLeft:-0.285877,0.741358,-0.141971,-0.590345 ElbowRight:-0.006909,0.845512,0.254186,0.469522 FootLeft:0.000000,0.000000,0.000000,0.000000 FootRight:0.000000,0.000000,0.000000,0.000000 HandLeft:0.108681,0.102705,-0.412594,0.898558 HandRight:-0.167152,0.911755,-0.110547,0.358529 HandTipLeft:0.000000,0.000000,0.000000,0.000000 HandTipRight:0.000000,0.000000,0.000000,0.000000 Head:0.000000,0.000000,0.000000,0.000000 HipLeft:0.098212,-0.684655,0.709750,-0.133628 HipRight:-0.137057,0.676185,0.700518,-0.182385 KneeLeft:0.033794,-0.685205,0.049403,0.725886 KneeRight:-0.014120,0.727172,0.049000,0.684559 Neck:0.005428,-0.017026,0.997305,-0.071156 ShoulderLeft:0.024062,0.779747,-0.623931,0.046107 ShoulderRight:0.031855,0.779621,0.624367,-0.036642 SpineBase:-0.029197,-0.011167,0.998951,-0.033450 SpineMid:-0.012092,-0.011738,0.999305,-0.033254 SpineShoulder:0.005340,-0.014471,0.998539,-0.051781 ThumbLeft:0.000000,0.000000,0.000000,0.000000 ThumbRight:0.000000,0.000000,0.000000,0.000000 WristLeft:0.155921,0.130335,-0.379797,0.902472 WristRight:-0.173388,0.912004,-0.042377,0.369309 END:
KINECT_DATA POSITION:0.969936,-1.068150,-6.218100 HEAD_JOINT1:0.985115,0.162867,-0.000000,0.054976 LARM_JOINT2:0.876513,0.000000,-0.240405,-0.417050 LARM_JOINT3:0.972003,0.000000,-0.234904,-0.005571 LLEG_JOINT2:0.998257,0.010076,0.000000,0.058144 LLEG_JOINT4:0.994691,0.098053,0.000000,-0.031244 RARM_JOINT2:0.837333,0.000000,-0.089596,0.539301 RARM_JOINT3:0.934430,0.000000,0.284489,0.214259 RLEG_JOINT2:0.998691,0.024273,0.000000,-0.045027 RLEG_JOINT4:0.993659,0.102341,0.000000,0.046572 WAIST:0.999600,-0.000000,0.028244,0.001656 WAIST_JOINT0:0.999936,0.000000,-0.011003,0.002685 WAIST_JOINT1:0.998313,0.056404,0.000000,-0.013796 END:
KINECT_DATA_Sensor  AnkleLeft:0.063247,0.710785,-0.091822,-0.694517 AnkleRight:0.091080,0.731391,0.087551,0.670154 ElbowLeft:-0.300195,0.753792,-0.128643,-0.570203 ElbowRight:-0.007315,0.846225,0.254342,0.468146 FootLeft:0.000000,0.000000,0.000000,0.000000 FootRight:0.000000,0.000000,0.000000,0.000000 HandLeft:0.070704,0.108608,-0.405365,0.904922 HandRight:-0.142059,0.864414,-0.118256,0.467571 HandTipLeft:0.000000,0.000000,0.000000,0.000000 HandTipRight:0.000000,0.000000,0.000000,0.000000 Head:0.000000,0.000000,0.000000,0.000000 HipLeft:0.099236,-0.685143,0.709245,-0.133049 HipRight:-0.137229,0.675925,0.700943,-0.181581 KneeLeft:0.033781,-0.685583,0.050348,0.725465 KneeRight:-0.014822,0.726822,0.047418,0.685026 Neck:0.010734,-0.017965,0.997344,-0.069766 ShoulderLeft:0.016831,0.781092,-0.622032,0.051842 ShoulderRight:0.031401,0.779120,0.625152,-0.034220 SpineBase:-0.028694,-0.011998,0.998989,-0.032452 SpineMid:-0.009214,-0.012629,0.999359,-0.032212 SpineShoulder:0.010653,-0.015238,0.998537,-0.050779 ThumbLeft:0.000000,0.000000,0.000000,0.000000 ThumbRight:0.000000,0.000000,0.000000,0.000000 WristLeft:0.135723,0.137528,-0.395385,0.897962 WristRight:-0.166242,0.861884,-0.061426,0.475127 END:
KINECT_DATA POSITION:0.869004,-1.139968,-6.144369 HEAD_JOINT1:0.984710,0.163959,-0.000000,0.058856 LARM_JOINT2:0.871996,0.000000,-0.266462,-0.410635 LARM_JOINT3:0.977554,0.000000,-0.210521,-0.008359 LLEG_JOINT2:0.998151,0.010572,0.000000,0.059859 LLEG_JOINT4:0.994657,0.098298,0.000000,-0.031529 RARM_JOINT2:0.836593,0.000000,-0.090867,0.540236 RARM_JOINT3:0.937234,0.000000,0.277492,0.211164 RLEG_JOINT2:0.998744,0.024317,0.000000,-0.043804 RLEG_JOINT4:0.993639,0.103503,0.000000,0.044365 WAIST:0.999643,-0.000000,0.026704,0.001015 WAIST_JOINT0:0.999859,0.000000,-0.016690,0.001675 WAIST_JOINT1:0.998373,0.055255,0.000000,-0.014078 END:
KINECT_DATA_Sensor  AnkleLeft:0.063448,0.713844,-0.092808,-0.691222 AnkleRight:0.091362,0.733578,0.088971,0.667533 ElbowLeft:-0.312928,0.771025,-0.117881,-0.541942 ElbowRight:-0.006666,0.845573,0.253979,0.469528 FootLeft:0.000000,0.000000,0.000000,0.000000 FootRight:0.000000,0.000000,0.000000,0.000000 HandLeft:0.080060,0.104488,-0.397874,0.907948 HandRight:-0.131801,0.869851,-0.098384,0.465089 HandTipLeft:0.000000,0.000000,0.000000,0.000000 HandTipRight:0.000000,0.000000,0.000000,0.000000 Head:0.000000,0.000000,0.000000,0.000000 HipLeft:0.101295,-0.685510,0.708611,-0.132987 HipRight:-0.136920,0.675716,0.701525,-0.180342 KneeLeft:0.034222,-0.686698,0.051434,0.724312 KneeRight:-0.014285,0.725741,0.047085,0.686207 Neck:0.016593,-0.018930,0.997331,-0.068535 ShoulderLeft:0.010553,0.782760,-0.619649,0.056662 ShoulderRight:0.032591,0.779346,0.625026,-0.029992 SpineBase:-0.027143,-0.013309,0.999053,-0.031284 SpineMid:-0.005558,-0.013982,0.999406,-0.030989 SpineShoulder:0.016496,-0.016239,0.998504,-0.049545 ThumbLeft:0.000000,0.000000,0.000000,0.000000 ThumbRight:0.000000,0.000000,0.000000,0.000000 WristLeft:0.129250,0.125190,-0.394596,0.901064 WristRight:-0.165350,0.865195,-0.057350,0.469903 END:
KINECT_DATA POSITION:0.798343,-1.177265,-6.110525 HEAD_JOINT1:0.984330,0.164524,-0.000000,0.063453 LARM_JOINT2:0.869782,0.000000,-0.280099,-0.406232 LARM_JOINT3:0.977783,0.000000,-0.208916,-0.017161 LLEG_JOINT2:0.998106,0.010726,0.000000,0.060571 LLEG_JOINT4:0.994654,0.098181,0.000000,-0.032000 RARM_JOINT2:0.835594,0.000000,-0.090258,0.541883 RARM_JOINT3:0.936077,0.000000,0.279654,0.213432 RLEG_JOINT2:0.998764,0.023691,0.000000,-0.043700 RLEG_JOINT4:0.993332,0.106576,0.000000,0.043975 WAIST:0.999654,-0.000000,0.026305,0.000854 WAIST_JOINT0:0.999783,0.000000,-0.020813,0.000923 WAIST_JOINT1:0.998389,0.054871,0.000000,-0.014426 END:
KINECT_DATA_Sensor  AnkleLeft:0.063656,0.716071,-0.092735,-0.688906 AnkleRight:0.094585,0.745941,0.089135,0.653208 ElbowLeft:-0.320317,0.778295,-0.112634,-0.528174 ElbowRight:-0.006733,0.845588,0.252356,0.470375 FootLeft:0.000000,0.000000,0.000000,0.000000 FootRight:0.000000,0.000000,0.000000,0.000000 HandLeft:0.021235,0.180458,-0.401160,0.897806 HandRight:-0.139925,0.876476,-0.117513,0.445422 HandTipLeft:0.000000,0.000000,0.000000,0.000000 HandTipRight:0.000000,0.000000,0.000000,0.000000 Head:0.000000,0.000000,0.000000,0.000000 HipLeft:0.101801,-0.685613,0.708479,-0.132772 HipRight:-0.136676,0.675644,0.701734,-0.179985 KneeLeft:0.034506,-0.686972,0.051930,0.724004 KneeRight:-0.014736,0.725462,0.046679,0.686519 Neck:0.020859,-0.019530,0.997266,-0.068142 ShoulderLeft:0.006585,0.783943,-0.617873,0.060199 ShoulderRight:0.034049,0.779273,0.625179,-0.026954 SpineBase:-0.026749,-0.013948,0.999065,-0.030955 SpineMid:-0.003258,-0.014672,0.999418,-0.030618 SpineShoulder:0.020747,-0.016928,0.998438,-0.049045 ThumbLeft:0.000000,0.000000,0.000000,0.000000 ThumbRight:0.000000,0.000000,0.000000,0.000000 WristLeft:0.085170,0.204314,-0.409176,0.885199 WristRight:-0.165593,0.874114,-0.052998,0.453536 END:
KINECT_DATA POSITION:0.700897,-1.230242,-6.044924 HEAD_JOINT1:0.983859,0.165918,-0.000000,0.067035 LARM_JOINT2:0.868206,0.000000,-0.286862,-0.404880 LARM_JOINT3:0.979298,0.000000,-0.201719,-0.016852 LLEG_JOINT2:0.997983,0.011319,0.000000,0.062467 LLEG_JOINT4:0.994664,0.097653,0.000000,-0.033265 RARM_JOINT2:0.834817,0.000000,-0.090163,0.543094 RARM_JOINT3:0.937000,0.000000,0.279738,0.209229 RLEG_JOINT2:0.998823,0.021369,0.000000,-0.043553 RLEG_JOINT4:0.992861,0.109634,0.000000,0.046989 WAIST:0.999679,-0.000000,0.025352,0.000008 WAIST_JOINT0:0.999686,0.000000,-0.025070,-0.000048 WAIST_JOINT1:0.998425,0.054302,0.000000,-0.014108 END:
KINECT_DATA_Sensor  AnkleLeft:0.063986,0.718296,-0.092533,-0.686581 AnkleRight:0.097278,0.748372,0.087399,0.650260 ElbowLeft:-0.323582,0.782349,-0.108799,-0.520949 ElbowRight:-0.006548,0.845349,0.251262,0.471391 FootLeft:0.000000,0.000000,0.000000,0.000000 FootRight:0.000000,0.000000,0.000000,0.000000 HandLeft:0.048156,0.143139,-0.394025,0.906607 HandRight:-0.153429,0.890222,-0.103831,0.416153 HandTipLeft:0.000000,0.000000,0.000000,0.000000 HandTipRight:0.000000,0.000000,0.000000,0.000000 Head:0.000000,0.000000,0.000000,0.000000 HipLeft:0.102486,-0.686041,0.707876,-0.133252 HipRight:-0.136355,0.675191,0.702415,-0.179267 KneeLeft:0.034829,-0.687696,0.053086,0.723217 KneeRight:-0.016785,0.724771,0.045508,0.687280 Neck:0.025285,-0.020045,0.997183,-0.067719 ShoulderLeft:0.001549,0.784456,-0.616831,0.064391 ShoulderRight:0.034668,0.778773,0.625874,-0.024349 SpineBase:-0.025749,-0.014108,0.999095,-0.030767 SpineMid:-0.000557,-0.014879,0.999427,-0.030402 SpineShoulder:0.025153,-0.017575,0.998359,-0.048349 ThumbLeft:0.000000,0.000000,0.000000,0.000000 ThumbRight:0.000000,0.000000,0.000000,0.000000 WristLeft:0.098415,0.160577,-0.408008,0.893341 WristRight:-0.166751,0.888832,-0.046699,0.424253 END:
KINECT_DATA POSITION:0.639383,-1.251075,-6.004941 HEAD_JOINT1:0.983923,0.165252,-0.000000,0.067735 LARM_JOINT2:0.868160,0.000000,-0.286943,-0.404921 LARM_JOINT3:0.980902,0.000000,-0.193532,-0.019420 LLEG_JOINT2:0.997944,0.011111,0.000000,0.063119 LLEG_JOINT4:0.994562,0.099081,0.000000,-0.032077 RARM_JOINT2:0.834516,0.000000,-0.090576,0.543488 RARM_JOINT3:0.936839,0.000000,0.280758,0.208586 RLEG_JOINT2:0.998835,0.021166,0.000000,-0.043375 RLEG_JOINT4:0.992788,0.109873,0.000000,0.047963 WAIST:0.999681,0.000000,0.025257,-0.000248 WAIST_JOINT0:0.999657,0.000000,-0.026181,-0.000506 WAIST_JOINT1:0.998429,0.054268,0.000000,-0.013949 END:
KINECT_DATA_Sensor  AnkleLeft:0.066891,0.739858,-0.092426,-0.663018 AnkleRight:0.096854,0.740159,0.087974,0.659580 ElbowLeft:-0.323325,0.783588,-0.109300,-0.519138 ElbowRight:-0.006189,0.845037,0.251053,0.472066 FootLeft:0.000000,0.000000,0.000000,0.000000 FootRight:0.000000,0.000000,0.000000,0.000000 HandLeft:0.079977,0.091528,-0.373801,0.919511 HandRight:-0.155511,0.877297,-0.111128,0.440247 HandTipLeft:0.000000,0.000000,0.000000,0.000000 HandTipRight:0.000000,0.000000,0.000000,0.000000 Head:0.000000,0.000000,0.000000,0.000000 HipLeft:0.102426,-0.686140,0.707764,-0.133387 HipRight:-0.136301,0.674972,0.702645,-0.179232 KneeLeft:0.035254,-0.687751,0.053232,0.723134 KneeRight:-0.016973,0.724695,0.045421,0.687362 Neck:0.026427,-0.020169,0.997147,-0.067771 ShoulderLeft:0.000720,0.783999,-0.617322,0.065263 ShoulderRight:0.035321,0.777902,0.626952,-0.023508 SpineBase:-0.025637,-0.014069,0.999095,-0.030874 SpineMid:0.000073,-0.014858,0.999424,-0.030501 SpineShoulder:0.026291,-0.017726,0.998331,-0.048264 ThumbLeft:0.000000,0.000000,0.000000,0.000000 ThumbRight:0.000000,0.000000,0.000000,0.000000 WristLeft:0.123900,0.103602,-0.399780,0.902270 WristRight:-0.164896,0.876709,-0.050427,0.449052 END:
KINECT_DATA POSITION:0.609264,-1.262940,-5.974603 HEAD_JOINT1:0.983613,0.166368,-0.000000,0.069472 LARM_JOINT2:0.868244,0.000000,-0.278089,-0.410875 LARM_JOINT3:0.976052,0.000000,-0.217093,-0.013928 LLEG_JOINT2:0.997978,0.010634,0.000000,0.062671 LLEG_JOINT4:0.994260,0.102358,0.000000,-0.031133 RARM_JOINT2:0.834634,0.000000,-0.090478,0.543323 RARM_JOINT3:0.934517,0.000000,0.287769,0.209443 RLEG_JOINT2:0.998830,0.022231,0.000000,-0.042953 RLEG_JOINT4:0.992972,0.108424,0.000000,0.047447 WAIST:0.999660,0.000000,0.026066,-0.000102 WAIST_JOINT0:0.999679,0.000000,-0.025341,-0.000450 WAIST_JOINT1:0.998400,0.054843,0.000000,-0.013799 END:
KINECT_DATA_Sensor  AnkleLeft:0.067366,0.729139,-0.095598,-0.674299 AnkleRight:0.091038,0.699502,0.093440,0.702623 ElbowLeft:-0.316728,0.775411,-0.108346,-0.535428 ElbowRight:-0.005773,0.845770,0.251241,0.470657 FootLeft:0.000000,0.000000,0.000000,0.000000 FootRight:0.000000,0.000000,0.000000,0.000000 HandLeft:0.025975,0.159674,-0.404315,0.900199 HandRight:-0.179305,0.876690,-0.125624,0.428350 HandTipLeft:0.000000,0.000000,0.000000,0.000000 HandTipRight:0.000000,0.000000,0.000000,0.000000 Head:0.000000,0.000000,0.000000,0.000000 HipLeft:0.101520,-0.686130,0.707933,-0.133230 HipRight:-0.136465,0.674958,0.702450,-0.179926 KneeLeft:0.035353,-0.687140,0.052709,0.723748 KneeRight:-0.015866,0.725267,0.045786,0.686760 Neck:0.025628,-0.019918,0.997123,-0.068501 ShoulderLeft:0.001765,0.783582,-0.617886,0.064912 ShoulderRight:0.035351,0.777340,0.627611,-0.024447 SpineBase:-0.026453,-0.013855,0.999062,-0.031348 SpineMid:-0.000732,-0.014657,0.999412,-0.030981 SpineShoulder:0.025489,-0.017534,0.998330,-0.048791 ThumbLeft:0.000000,0.000000,0.000000,0.000000 ThumbRight:0.000000,0.000000,0.000000,0.000000 WristLeft:0.087156,0.183036,-0.412514,0.888107 WristRight:-0.164310,0.880612,-0.049196,0.441707 END:
KINECT_DATA POSITION:0.587781,-1.274705,-5.919158 HEAD_JOINT1:0.982621,0.170987,-0.000000,0.072252 LARM_JOINT2:0.869046,0.000000,-0.248558,-0.427759 LARM_JOINT3:0.964994,0.000000,-0.262271,-0.001068 LLEG_JOINT2:0.998016,0.010450,0.000000,0.062081 LLEG_JOINT4:0.994488,0.100486,0.000000,-0.029936 RARM_JOINT2:0.834578,0.000000,-0.089960,0.543495 RARM_JOINT3:0.934816,0.000000,0.283335,0.214101 RLEG_JOINT2:0.998824,0.023059,0.000000,-0.042660 RLEG_JOINT4:0.993268,0.105769,0.000000,0.047246 WAIST:0.999635,-0.000000,0.026999,0.000206 WAIST_JOINT0:0.999728,0.000000,-0.023310,0.000607 WAIST_JOINT1:0.998330,0.056264,0.000000,-0.013073 END:
KINECT_DATA_Sensor  AnkleLeft:0.067548,0.744831,-0.093349,-0.657229 AnkleRight:0.090047,0.700748,0.091871,0.701715 ElbowLeft:-0.295498,0.755871,-0.112220,-0.573364 ElbowRight:-0.004593,0.846554,0.250786,0.469501 FootLeft:0.000000,0.000000,0.000000,0.000000 FootRight:0.000000,0.000000,0.000000,0.000000 HandLeft:-0.011614,0.210411,-0.428471,0.878638 HandRight:-0.155179,0.882004,-0.134396,0.424176 HandTipLeft:0.000000,0.000000,0.000000,0.000000 HandTipRight:0.000000,0.000000,0.000000,0.000000 Head:0.000000,0.000000,0.000000,0.000000 HipLeft:0.099998,-0.685826,0.708394,-0.133497 HipRight:-0.136401,0.674849,0.702294,-0.180990 KneeLeft:0.035252,-0.686450,0.052403,0.724430 KneeRight:-0.014908,0.725938,0.045952,0.686061 Neck:0.023490,-0.018870,0.997081,-0.070159 ShoulderLeft:0.005156,0.782671,-0.619164,0.063525 ShoulderRight:0.036010,0.777531,0.627261,-0.026326 SpineBase:-0.027397,-0.013195,0.999009,-0.032495 SpineMid:-0.002265,-0.014008,0.999382,-0.032153 SpineShoulder:0.023357,-0.016635,0.998326,-0.050230 ThumbLeft:0.000000,0.000000,0.000000,0.000000 ThumbRight:0.000000,0.000000,0.000000,0.000000 WristLeft:0.052908,0.237856,-0.430484,0.869085 WristRight:-0.163033,0.883567,-0.048925,0.436275 END:
KINECT_DATA POSITION:0.570828,-1.283438,-5.915654 HEAD_JOINT1:0.981430,0.176269,-0.000000,0.075662 LARM_JOINT2:0.862864,0.000000,-0.271594,-0.426266 LARM_JOINT3:0.975028,0.000000,-0.222066,0.002638 LLEG_JOINT2:0.998021,0.009834,0.000000,0.062116 LLEG_JOINT4:0.994474,0.100762,0.000000,-0.029456 RARM_JOINT2:0.833723,0.000000,-0.091215,0.544597 RARM_JOINT3:0.938486,0.000000,0.274707,0.209235 RLEG_JOINT2:0.998827,0.021725,0.000000,-0.043279 RLEG_JOINT4:0.993019,0.107538,0.000000,0.048468 WAIST:0.999638,-0.000000,0.026911,0.000455 WAIST_JOINT0:0.999738,0.000000,-0.022883,-0.000046 WAIST_JOINT1:0.998181,0.058846,0.000000,-0.013148 END:
KINECT_DATA_Sensor  AnkleLeft:0.065653,0.736818,-0.094548,-0.666221 AnkleRight:0.091017,0.700839,0.091571,0.701538 ElbowLeft:-0.303767,0.757037,-0.094124,-0.570755 ElbowRight:-0.001329,0.845494,0.251238,0.471187 FootLeft:0.000000,0.000000,0.000000,0.000000 FootRight:0.000000,0.000000,0.000000,0.000000 HandLeft:0.019745,0.215627,-0.398840,0.891090 HandRight:-0.124822,0.874359,-0.103514,0.457383 HandTipLeft:0.000000,0.000000,0.000000,0.000000 HandTipRight:0.000000,0.000000,0.000000,0.000000 Head:0.000000,0.000000,0.000000,0.000000 HipLeft:0.098936,-0.685462,0.708707,-0.134488 HipRight:-0.135355,0.674804,0.702337,-0.181776 KneeLeft:0.035907,-0.686438,0.052173,0.724425 KneeRight:-0.016094,0.725910,0.045236,0.686112 Neck:0.023168,-0.019005,0.996874,-0.073099 ShoulderLeft:0.007174,0.782228,-0.619556,0.064941 ShoulderRight:0.037670,0.775924,0.629063,-0.028332 SpineBase:-0.027334,-0.012945,0.998964,-0.034003 SpineMid:-0.002381,-0.013790,0.999335,-0.033669 SpineShoulder:0.023049,-0.016590,0.998206,-0.052704 ThumbLeft:0.000000,0.000000,0.000000,0.000000 ThumbRight:0.000000,0.000000,0.000000,0.000000 WristLeft:0.062701,0.228394,-0.422221,0.875005 WristRight:-0.159197,0.870362,-0.052646,0.462984 END:
KINECT_DATA POSITION:0.492582,-1.301459,-5.922830 HEAD_JOINT1:0.979780,0.184606,-0.000000,0.077142 LARM_JOINT2:0.856679,0.000000,-0.290714,-0.426130 LARM_JOINT3:0.982826,0.000000,-0.184192,-0.011203 LLEG_JOINT2:0.997923,0.010938,0.000000,0.063485 LLEG_JOINT4:0.994804,0.097232,0.000000,-0.030169 RARM_JOINT2:0.833700,0.000000,-0.090706,0.544716 RARM_JOINT3:0.938344,0.000000,0.275974,0.208204 RLEG_JOINT2:0.998843,0.021943,0.000000,-0.042792 RLEG_JOINT4:0.993191,0.105730,0.000000,0.048921 WAIST:0.999679,0.000000,0.025327,-0.000228 WAIST_JOINT0:0.999566,0.000000,-0.029109,-0.004610 WAIST_JOINT1:0.998022,0.061310,0.000000,-0.013922 END:
KINECT_DATA_Sensor  AnkleLeft:0.061232,0.720959,-0.094732,-0.683736 AnkleRight:0.096643,0.749429,0.083247,0.649682 ElbowLeft:-0.304273,0.784458,-0.090364,-0.532803 ElbowRight:0.001181,0.846585,0.253435,0.468042 FootLeft:0.000000,0.000000,0.000000,0.000000 FootRight:0.000000,0.000000,0.000000,0.000000 HandLeft:-0.131932,0.566899,-0.338537,0.739332 HandRight:-0.145866,0.904543,-0.089880,0.390444 HandTipLeft:0.000000,0.000000,0.000000,0.000000 HandTipRight:0.000000,0.000000,0.000000,0.000000 Head:0.000000,0.000000,0.000000,0.000000 HipLeft:0.098935,-0.685546,0.708264,-0.136382 HipRight:-0.133161,0.674263,0.703223,-0.181976 KneeLeft:0.035647,-0.687600,0.053390,0.723246 KneeRight:-0.015999,0.724828,0.045568,0.687235 Neck:0.029925,-0.021332,0.996461,-0.075599 ShoulderLeft:0.001572,0.784185,-0.616130,0.073725 ShoulderRight:0.040829,0.772606,0.632996,-0.027002 SpineBase:-0.025750,-0.013733,0.998937,-0.035680 SpineMid:0.001795,-0.014711,0.999267,-0.035288 SpineShoulder:0.029834,-0.018296,0.997877,-0.054933 ThumbLeft:0.000000,0.000000,0.000000,0.000000 ThumbRight:0.000000,0.000000,0.000000,0.000000 WristLeft:-0.105619,0.568838,-0.385417,0.718833 WristRight:-0.158417,0.903085,-0.038408,0.397325 END:
KINECT_DATA POSITION:0.383739,-1.323784,-5.878723 HEAD_JOINT1:0.979403,0.185685,-0.000000,0.079314 LARM_JOINT2:0.855383,0.000000,-0.290134,-0.429117 LARM_JOINT3:0.982906,0.000000,-0.184061,-0.004123 LLEG_JOINT2:0.997820,0.012044,0.000000,0.064879 LLEG_JOINT4:0.995329,0.091641,0.000000,-0.030363 RARM_JOINT2:0.833527,0.000000,-0.089618,0.545161 RARM_JOINT3:0.936374,0.000000,0.280303,0.211265 RLEG_JOINT2:0.998888,0.019904,0.000000,-0.042728 RLEG_JOINT4:0.992757,0.109567,0.000000,0.049283 WAIST:0.999723,0.000000,0.023518,-0.000748 WAIST_JOINT0:0.999515,0.000000,-0.030548,-0.006091 WAIST_JOINT1:0.997992,0.061666,0.000000,-0.014477 END:
KINECT_DATA_Sensor  AnkleLeft:0.057140,0.722304,-0.092530,-0.682972 AnkleRight:0.091399,0.696602,0.091544,0.705699 ElbowLeft:-0.301462,0.783876,-0.086188,-0.535939 ElbowRight:0.001534,0.847071,0.253723,0.467003 FootLeft:0.000000,0.000000,0.000000,0.000000 FootRight:0.000000,0.000000,0.000000,0.000000 HandLeft:-0.086818,0.471786,-0.366558,0.797192 HandRight:-0.160019,0.900654,-0.104861,0.390156 HandTipLeft:0.000000,0.000000,0.000000,0.000000 HandTipRight:0.000000,0.000000,0.000000,0.000000 Head:0.000000,0.000000,0.000000,0.000000 HipLeft:0.099886,-0.685571,0.707811,-0.137909 HipRight:-0.131586,0.673886,0.703908,-0.181871 KneeLeft:0.035536,-0.688913,0.054733,0.721900 KneeRight:-0.017647,0.723596,0.044447,0.688565 Neck:0.031581,-0.022189,0.996377,-0.075790 ShoulderLeft:0.000733,0.784748,-0.615230,0.075241 ShoulderRight:0.042116,0.771003,0.634899,-0.026143 SpineBase:-0.023954,-0.014764,0.998938,-0.036493 SpineMid:0.003502,-0.015761,0.999219,-0.036073 SpineShoulder:0.031463,-0.019315,0.997787,-0.055295 ThumbLeft:0.000000,0.000000,0.000000,0.000000 ThumbRight:0.000000,0.000000,0.000000,0.000000 WristLeft:-0.058603,0.477831,-0.392572,0.783665 WristRight:-0.157793,0.901921,-0.039388,0.400110 END:
KINECT_DATA POSITION:0.304255,-1.334009,-5.702519 HEAD_JOINT1:0.979858,0.185987,-0.000000,0.072710 LARM_JOINT2:0.856543,0.000000,-0.260855,-0.445296 LARM_JOINT3:0.974680,0.000000,-0.223604,0.000169 LLEG_JOINT2:0.997907,0.010895,0.000000,0.063745 LLEG_JOINT4:0.995095,0.094489,0.000000,-0.029284 RARM_JOINT2:0.834460,0.000000,-0.088417,0.543928 RARM_JOINT3:0.934193,0.000000,0.284188,0.215686 RLEG_JOINT2:0.998864,0.021782,0.000000,-0.042394 RLEG_JOINT4:0.992749,0.108610,0.000000,0.051515 WAIST:0.999607,-0.000000,0.028021,0.000356 WAIST_JOINT0:0.999774,0.000000,-0.021097,-0.002616 WAIST_JOINT1:0.998173,0.059233,0.000000,-0.011927 END:
KINECT_DATA_Sensor  AnkleLeft:0.060683,0.737157,-0.092535,-0.666599 AnkleRight:0.094496,0.701305,0.089954,0.700821 ElbowLeft:-0.284551,0.761887,-0.092625,-0.574439 ElbowRight:0.000360,0.853177,0.250352,0.457616 FootLeft:0.000000,0.000000,0.000000,0.000000 FootRight:0.000000,0.000000,0.000000,0.000000 HandLeft:0.041482,0.150298,-0.384549,0.909842 HandRight:-0.172724,0.871337,-0.143181,0.436391 HandTipLeft:0.000000,0.000000,0.000000,0.000000 HandTipRight:0.000000,0.000000,0.000000,0.000000 Head:0.000000,0.000000,0.000000,0.000000 HipLeft:0.097552,-0.685600,0.708714,-0.134763 HipRight:-0.135445,0.674420,0.702252,-0.183450 KneeLeft:0.036124,-0.685621,0.054060,0.725049 KneeRight:-0.015533,0.726700,0.044721,0.685321 Neck:0.022033,-0.017297,0.996945,-0.072907 ShoulderLeft:0.007402,0.783525,-0.617879,0.065266 ShoulderRight:0.036253,0.772967,0.632651,-0.031003 SpineBase:-0.028451,-0.013033,0.998889,-0.035231 SpineMid:-0.003545,-0.013907,0.999288,-0.034895 SpineShoulder:0.021874,-0.015782,0.998210,-0.053373 ThumbLeft:0.000000,0.000000,0.000000,0.000000 ThumbRight:0.000000,0.000000,0.000000,0.000000 WristLeft:0.085601,0.164550,-0.401304,0.896968 WristRight:-0.151341,0.877792,-0.052401,0.451476 END:
KINECT_DATA POSITION:0.234850,-1.284149,-5.633044 HEAD_JOINT1:0.980307,0.187913,-0.000000,0.060714 LARM_JOINT2:0.860323,0.000000,-0.227106,-0.456363 LARM_JOINT3:0.963124,0.000000,-0.269001,0.005539 LLEG_JOINT2:0.998008,0.010513,0.000000,0.062210 LLEG_JOINT4:0.994837,0.097287,0.000000,-0.028875 RARM_JOINT2:0.836908,0.000000,-0.078358,0.541705 RARM_JOINT3:0.934012,0.000000,0.284791,0.215673 RLEG_JOINT2:0.998834,0.023637,0.000000,-0.042084 RLEG_JOINT4:0.992891,0.108215,0.000000,0.049560 WAIST:0.999442,-0.000000,0.033362,0.001348 WAIST_JOINT0:0.999973,0.000000,-0.006760,0.002728 WAIST_JOINT1:0.998349,0.056962,0.000000,-0.007386 END:
KINECT_DATA_Sensor  AnkleLeft:0.060676,0.715573,-0.095176,-0.689358 AnkleRight:0.095010,0.709160,0.091394,0.692613 ElbowLeft:-0.268417,0.747958,-0.113162,-0.596411 ElbowRight:-0.006523,0.862407,0.243801,0.443591 FootLeft:0.000000,0.000000,0.000000,0.000000 FootRight:0.000000,0.000000,0.000000,0.000000 HandLeft:0.032364,0.176632,-0.412200,0.893221 HandRight:-0.189073,0.880048,-0.152638,0.408007 HandTipLeft:0.000000,0.000000,0.000000,0.000000 HandTipRight:0.000000,0.000000,0.000000,0.000000 Head:0.000000,0.000000,0.000000,0.000000 HipLeft:0.094289,-0.685274,0.709929,-0.132328 HipRight:-0.140621,0.674578,0.700643,-0.185118 KneeLeft:0.035758,-0.681861,0.053574,0.728640 KneeRight:-0.013581,0.730325,0.045074,0.681476 Neck:0.007280,-0.011416,0.997384,-0.071005 ShoulderLeft:0.017816,0.779046,-0.624610,0.051308 ShoulderRight:0.027613,0.774885,0.630249,-0.039713 SpineBase:-0.033690,-0.008646,0.998805,-0.034326 SpineMid:-0.013446,-0.009340,0.999283,-0.034144 SpineShoulder:0.007212,-0.009853,0.998595,-0.051573 ThumbLeft:0.000000,0.000000,0.000000,0.000000 ThumbRight:0.000000,0.000000,0.000000,0.000000 WristLeft:0.072940,0.192742,-0.417429,0.885033 WristRight:-0.152898,0.889953,-0.058146,0.425705 END:
KINECT_DATA POSITION:0.098278,-1.228729,-5.700326 HEAD_JOINT1:0.980268,0.188326,-0.000000,0.060070 LARM_JOINT2:0.859166,0.000000,-0.243315,-0.450147 LARM_JOINT3:0.971843,0.000000,-0.235535,0.006733 LLEG_JOINT2:0.998052,0.009923,0.000000,0.061596 LLEG_JOINT4:0.995129,0.095271,0.000000,-0.025343 RARM_JOINT2:0.837775,0.000000,-0.077205,0.540530 RARM_JOINT3:0.939663,0.000000,0.266701,0.214252 RLEG_JOINT2:0.998847,0.023983,0.000000,-0.041588 RLEG_JOINT4:0.992720,0.109461,0.000000,0.050257 WAIST:0.999428,-0.000000,0.033764,0.001784 WAIST_JOINT0:0.999988,0.000000,-0.004253,0.002204 WAIST_JOINT1:0.998289,0.057893,0.000000,-0.008195 END:
KINECT_DATA_Sensor  AnkleLeft:0.055538,0.708206,-0.096665,-0.697148 AnkleRight:0.100412,0.733349,0.088007,0.666612 ElbowLeft:-0.278985,0.747430,-0.104160,-0.593858 ElbowRight:-0.005939,0.865408,0.245439,0.436798 FootLeft:0.000000,0.000000,0.000000,0.000000 FootRight:0.000000,0.000000,0.000000,0.000000 HandLeft:0.089649,0.102585,-0.377718,0.915843 HandRight:-0.141849,0.886722,-0.108699,0.426365 HandTipLeft:0.000000,0.000000,0.000000,0.000000 HandTipRight:0.000000,0.000000,0.000000,0.000000 Head:0.000000,0.000000,0.000000,0.000000 HipLeft:0.092968,-0.684890,0.710457,-0.132413 HipRight:-0.139904,0.674603,0.700576,-0.185826 KneeLeft:0.036061,-0.681510,0.053041,0.728992 KneeRight:-0.012693,0.730644,0.044674,0.681177 Neck:0.004880,-0.011842,0.997314,-0.072118 ShoulderLeft:0.019065,0.778522,-0.625269,0.050768 ShoulderRight:0.025790,0.773777,0.631475,-0.042937 SpineBase:-0.034130,-0.008587,0.998753,-0.035412 SpineMid:-0.014848,-0.009269,0.999226,-0.035240 SpineShoulder:0.004808,-0.010180,0.998562,-0.052406 ThumbLeft:0.000000,0.000000,0.000000,0.000000 ThumbRight:0.000000,0.000000,0.000000,0.000000 WristLeft:0.120683,0.110300,-0.401372,0.901205 WristRight:-0.148993,0.886813,-0.059432,0.433395 END:
KINECT_DATA POSITION:-0.002334,-1.178720,-6.004310 HEAD_JOINT1:0.979587,0.192529,-0.000000,0.057808 LARM_JOINT2:0.860506,0.000000,-0.265890,-0.434547 LARM_JOINT3:0.978520,0.000000,-0.206034,0.007009 LLEG_JOINT2:0.997879,0.009869,0.000000,0.064348 LLEG_JOINT4:0.994951,0.097264,0.000000,-0.024758 RARM_JOINT2:0.837676,0.000000,-0.086714,0.539241 RARM_JOINT3:0.938211,0.000000,0.266620,0.220622 RLEG_JOINT2:0.999022,0.019343,0.000000,-0.039757 RLEG_JOINT4:0.992376,0.111662,0.000000,0.052174 WAIST:0.999598,0.000000,0.028344,-0.001036 WAIST_JOINT0:0.999902,0.000000,-0.012886,-0.005484 WAIST_JOINT1:0.997892,0.063348,0.000000,-0.014088 END:
KINECT_DATA_Sensor  AnkleLeft:0.060710,0.743009,-0.095971,-0.659577 AnkleRight:0.099058,0.722899,0.086164,0.678365 ElbowLeft:-0.289579,0.762228,-0.095865,-0.570931 ElbowRight:0.000706,0.856474,0.259619,0.446150 FootLeft:0.000000,0.000000,0.000000,0.000000 FootRight:0.000000,0.000000,0.000000,0.000000 HandLeft:-0.101680,0.523782,-0.374676,0.758243 HandRight:-0.113752,0.874624,-0.094258,0.461745 HandTipLeft:0.000000,0.000000,0.000000,0.000000 HandTipRight:0.000000,0.000000,0.000000,0.000000 Head:0.000000,0.000000,0.000000,0.000000 HipLeft:0.093304,-0.685714,0.708706,-0.137211 HipRight:-0.132796,0.672586,0.704020,-0.185333 KneeLeft:0.036286,-0.685412,0.052821,0.725330 KneeRight:-0.016296,0.726915,0.042115,0.685241 Neck:0.013948,-0.023223,0.996482,-0.079303 ShoulderLeft:0.012386,0.781535,-0.620509,0.063385 ShoulderRight:0.031303,0.768086,0.638225,-0.041615 SpineBase:-0.028668,-0.011959,0.998728,-0.039728 SpineMid:-0.007459,-0.012800,0.999111,-0.039465 SpineShoulder:0.013947,-0.018369,0.998130,-0.056611 ThumbLeft:0.000000,0.000000,0.000000,0.000000 ThumbRight:0.000000,0.000000,0.000000,0.000000 WristLeft:-0.075265,0.529725,-0.396290,0.746110 WristRight:-0.148519,0.870547,-0.055259,0.465871 END:
KINECT_DATA POSITION:-0.007097,-1.138169,-6.291533 HEAD_JOINT1:0.979680,0.191572,-0.000000,0.059392 LARM_JOINT2:0.861608,0.000000,-0.272254,-0.428380 LARM_JOINT3:0.982073,0.000000,-0.188303,0.008578 LLEG_JOINT2:0.997625,0.010108,0.000000,0.068139 LLEG_JOINT4:0.995326,0.092617,0.000000,-0.027361 RARM_JOINT2:0.838237,0.000000,-0.087747,0.538200 RARM_JOINT3:0.934096,0.000000,0.274788,0.227941 RLEG_JOINT2:0.999124,0.017642,0.000000,-0.037941 RLEG_JOINT4:0.992458,0.111672,0.000000,0.050571 WAIST:0.999751,0.000000,0.021926,-0.004053 WAIST_JOINT0:0.999725,0.000000,-0.020646,-0.011113 WAIST_JOINT1:0.997674,0.066223,0.000000,-0.016146 END:
KINECT_DATA_Sensor  AnkleLeft:0.057124,0.742964,-0.092681,-0.660417 AnkleRight:0.099584,0.743254,0.082711,0.656365 ElbowLeft:-0.292087,0.768189,-0.091280,-0.562351 ElbowRight:0.001660,0.850348,0.266633,0.453665 FootLeft:0.000000,0.000000,0.000000,0.000000 FootRight:0.000000,0.000000,0.000000,0.000000 HandLeft:-0.081325,0.525519,-0.369387,0.762082 HandRight:-0.116143,0.863604,-0.120051,0.475696 HandTipLeft:0.000000,0.000000,0.000000,0.000000 HandTipRight:0.000000,0.000000,0.000000,0.000000 Head:0.000000,0.000000,0.000000,0.000000 HipLeft:0.096465,-0.686732,0.706374,-0.141881 HipRight:-0.126439,0.670679,0.707311,-0.184154 KneeLeft:0.036956,-0.689959,0.053353,0.720933 KneeRight:-0.018022,0.722507,0.041864,0.689860 Neck:0.022103,-0.027332,0.996058,-0.081448 ShoulderLeft:0.008514,0.783485,-0.617182,0.071874 ShoulderRight:0.038024,0.764032,0.642938,-0.037943 SpineBase:-0.022227,-0.016638,0.998718,-0.042335 SpineMid:-0.000269,-0.017564,0.998965,-0.041959 SpineShoulder:0.021941,-0.023575,0.997710,-0.059477 ThumbLeft:0.000000,0.000000,0.000000,0.000000 ThumbRight:0.000000,0.000000,0.000000,0.000000 WristLeft:-0.070175,0.525921,-0.390609,0.752268 WristRight:-0.151992,0.860974,-0.053234,0.482482 END:
KINECT_DATA POSITION:0.036718,-1.108348,-6.403887 HEAD_JOINT1:0.979611,0.191520,-0.000000,0.060687 LARM_JOINT2:0.861921,0.000000,-0.272987,-0.427284 LARM_JOINT3:0.982277,0.000000,-0.187187,0.009608 LLEG_JOINT2:0.997539,0.010164,0.000000,0.069371 LLEG_JOINT4:0.995238,0.094114,0.000000,-0.025393 RARM_JOINT2:0.838126,0.000000,-0.087175,0.538466 RARM_JOINT3:0.934080,0.000000,0.273854,0.229127 RLEG_JOINT2:0.999135,0.018646,0.000000,-0.037164 RLEG_JOINT4:0.993127,0.106081,0.000000,0.049456 WAIST:0.999786,0.000000,0.020147,-0.004777 WAIST_JOINT0:0.999643,0.000000,-0.023659,-0.012422 WAIST_JOINT1:0.997658,0.066354,0.000000,-0.016574 END:
KINECT_DATA_Sensor  AnkleLeft:0.053090,0.719320,-0.097681,-0.685725 AnkleRight:0.097565,0.758253,0.077853,0.639900 ElbowLeft:-0.292655,0.769197,-0.090079,-0.560870 ElbowRight:0.001911,0.850285,0.267214,0.453440 FootLeft:0.000000,0.000000,0.000000,0.000000 FootRight:0.000000,0.000000,0.000000,0.000000 HandLeft:-0.063947,0.487169,-0.375819,0.785709 HandRight:-0.096440,0.785453,-0.134422,0.596400 HandTipLeft:0.000000,0.000000,0.000000,0.000000 HandTipRight:0.000000,0.000000,0.000000,0.000000 Head:0.000000,0.000000,0.000000,0.000000 HipLeft:0.098352,-0.687142,0.705547,-0.142710 HipRight:-0.125148,0.670363,0.707936,-0.183788 KneeLeft:0.037362,-0.691171,0.053695,0.719725 KneeRight:-0.017205,0.721300,0.042589,0.691098 Neck:0.025242,-0.028133,0.995996,-0.081011 ShoulderLeft:0.006915,0.784032,-0.616232,0.074191 ShoulderRight:0.040471,0.762948,0.644212,-0.035536 SpineBase:-0.020478,-0.018732,0.998722,-0.042248 SpineMid:0.002103,-0.019682,0.998929,-0.041814 SpineShoulder:0.025038,-0.024805,0.997593,-0.059716 ThumbLeft:0.000000,0.000000,0.000000,0.000000 ThumbRight:0.000000,0.000000,0.000000,0.000000 WristLeft:-0.051508,0.488791,-0.392858,0.777234 WristRight:-0.142523,0.782159,-0.074210,0.602003 END:
KINECT_DATA POSITION:0.074957,-1.064836,-6.480420 HEAD_JOINT1:0.979576,0.191749,-0.000000,0.060527 LARM_JOINT2:0.861246,0.000000,-0.275234,-0.427201 LARM_JOINT3:0.981649,0.000000,-0.190348,0.011569 LLEG_JOINT2:0.997478,0.010605,0.000000,0.070177 LLEG_JOINT4:0.994878,0.096050,0.000000,-0.031482 RARM_JOINT2:0.837963,0.000000,-0.087159,0.538722 RARM_JOINT3:0.932937,0.000000,0.277254,0.229693 RLEG_JOINT2:0.999153,0.018086,0.000000,-0.036951 RLEG_JOINT4:0.993124,0.106176,0.000000,0.049302 WAIST:0.999781,0.000000,0.020349,-0.004914 WAIST_JOINT0:0.999642,0.000000,-0.023737,-0.012369 WAIST_JOINT1:0.997677,0.066139,0.000000,-0.016326 END:
KINECT_DATA_Sensor  AnkleLeft:0.060404,0.732935,-0.093895,-0.671075 AnkleRight:0.097367,0.760161,0.077362,0.637723 ElbowLeft:-0.293820,0.768687,-0.087935,-0.561300 ElbowRight:0.001771,0.850304,0.266755,0.453676 FootLeft:0.000000,0.000000,0.000000,0.000000 FootRight:0.000000,0.000000,0.000000,0.000000 HandLeft:-0.058851,0.448542,-0.388920,0.802551 HandRight:-0.126236,0.865986,-0.128331,0.466545 HandTipLeft:0.000000,0.000000,0.000000,0.000000 HandTipRight:0.000000,0.000000,0.000000,0.000000 Head:0.000000,0.000000,0.000000,0.000000 HipLeft:0.098602,-0.687330,0.705332,-0.142699 HipRight:-0.125342,0.670258,0.707888,-0.184223 KneeLeft:0.037492,-0.691014,0.054496,0.719808 KneeRight:-0.017545,0.721455,0.042132,0.690956 Neck:0.025315,-0.027812,0.996051,-0.080422 ShoulderLeft:0.007026,0.784020,-0.616267,0.074010 ShoulderRight:0.040649,0.762985,0.644173,-0.035253 SpineBase:-0.020689,-0.019258,0.998709,-0.042217 SpineMid:0.002004,-0.020212,0.998921,-0.041769 SpineShoulder:0.025096,-0.024782,0.997598,-0.059623 ThumbLeft:0.000000,0.000000,0.000000,0.000000 ThumbRight:0.000000,0.000000,0.000000,0.000000 WristLeft:-0.035365,0.456337,-0.395032,0.796527 WristRight:-0.152271,0.865150,-0.051564,0.475048 END:
KINECT_DATA POSITION:0.021955,-1.064047,-6.389868 HEAD_JOINT1:0.978782,0.199776,-0.000000,0.045557 LARM_JOINT2:0.870928,0.000000,-0.180131,-0.457206 LARM_JOINT3:0.942920,0.000000,-0.331983,0.026233 LLEG_JOINT2:0.997760,0.008512,0.000000,0.066346 LLEG_JOINT4:0.995043,0.095434,0.000000,-0.027961 RARM_JOINT2:0.841571,0.000000,-0.085873,0.533277 RARM_JOINT3:0.932294,0.000000,0.282217,0.226233 RLEG_JOINT2:0.998993,0.021621,0.000000,-0.039316 RLEG_JOINT4:0.993485,0.103599,0.000000,0.047476 WAIST:0.999507,0.000000,0.031353,-0.001445 WAIST_JOINT0:0.999991,0.000000,-0.000082,-0.004249 WAIST_JOINT1:0.998123,0.060796,0.000000,-0.007396 END:
KINECT_DATA_Sensor  AnkleLeft:0.054616,0.706084,-0.095529,-0.699526 AnkleRight:0.096219,0.763698,0.080114,0.633316 ElbowLeft:-0.250199,0.713368,-0.136382,-0.640240 ElbowRight:-0.000836,0.861723,0.258949,0.436323 FootLeft:0.000000,0.000000,0.000000,0.000000 FootRight:0.000000,0.000000,0.000000,0.000000 HandLeft:0.021521,0.183304,-0.460571,0.868223 HandRight:-0.190132,0.921169,-0.118570,0.318180 HandTipLeft:0.000000,0.000000,0.000000,0.000000 HandTipRight:0.000000,0.000000,0.000000,0.000000 Head:0.000000,0.000000,0.000000,0.000000 HipLeft:0.093704,-0.686709,0.707685,-0.137231 HipRight:-0.135757,0.671906,0.702948,-0.189676 KneeLeft:0.038203,-0.683028,0.053164,0.727452 KneeRight:-0.014822,0.728997,0.043715,0.682959 Neck:0.001228,-0.012925,0.997137,-0.074494 ShoulderLeft:0.026412,0.782633,-0.620096,0.047630 ShoulderRight:0.028117,0.769574,0.636265,-0.046180 SpineBase:-0.031712,-0.013818,0.998601,-0.039987 SpineMid:-0.015626,-0.014460,0.998982,-0.039759 SpineShoulder:0.001016,-0.012617,0.998377,-0.055522 ThumbLeft:0.000000,0.000000,0.000000,0.000000 ThumbRight:0.000000,0.000000,0.000000,0.000000 WristLeft:0.079784,0.214635,-0.441624,0.867488 WristRight:-0.151757,0.929545,-0.035148,0.334186 END:
KINECT_DATA POSITION:-0.657886,-1.121930,-5.965889 HEAD_JOINT1:0.980334,0.196308,-0.000000,0.020190 LARM_JOINT2:0.878649,0.000000,-0.145491,-0.454762 LARM_JOINT3:0.949390,0.000000,-0.312543,0.031229 LLEG_JOINT2:0.998462,0.003451,0.000000,0.055332 LLEG_JOINT4:0.995214,0.095179,0.000000,-0.022131 RARM_JOINT2:0.846025,0.000000,-0.065030,0.529162 RARM_JOINT3:0.935345,0.000000,0.271048,0.227292 RLEG_JOINT2:0.998592,0.030128,0.000000,-0.043657 RLEG_JOINT4:0.993647,0.102065,0.000000,0.047412 WAIST:0.998106,-0.000000,0.060557,0.010825 WAIST_JOINT0:0.998565,-0.000000,0.050943,0.016484 WAIST_JOINT1:0.998627,0.052192,-0.000000,0.004404 END:
KINECT_DATA_Sensor  AnkleLeft:-0.047339,-0.678288,0.096047,0.726952 AnkleRight:0.098063,0.739459,0.088483,0.660118 ElbowLeft:-0.252272,0.685042,-0.184948,-0.657929 ElbowRight:-0.016751,0.890566,0.231779,0.391011 FootLeft:0.000000,0.000000,0.000000,0.000000 FootRight:0.000000,0.000000,0.000000,0.000000 HandLeft:0.125880,0.262269,-0.437367,0.850928 HandRight:-0.160589,0.885598,-0.175568,0.398876 HandTipLeft:0.000000,0.000000,0.000000,0.000000 HandTipRight:0.000000,0.000000,0.000000,0.000000 Head:0.000000,0.000000,0.000000,0.000000 HipLeft:0.076402,-0.681764,0.717600,-0.120049 HipRight:-0.163492,0.678643,0.688449,-0.196855 KneeLeft:0.041727,-0.661696,0.051364,0.746846 KneeRight:-0.005006,0.748967,0.043858,0.661135 Neck:-0.050944,0.010981,0.996378,-0.067194 ShoulderLeft:0.056779,0.770244,-0.635217,0.000368 ShoulderRight:-0.008717,0.783347,0.616473,-0.079079 SpineBase:-0.060819,0.010585,0.997568,-0.032349 SpineMid:-0.055786,0.010422,0.997862,-0.032402 SpineShoulder:-0.050750,0.011676,0.997502,-0.047731 ThumbLeft:0.000000,0.000000,0.000000,0.000000 ThumbRight:0.000000,0.000000,0.000000,0.000000 WristLeft:0.120342,0.261649,-0.430869,0.855225 WristRight:-0.140361,0.895648,-0.082682,0.413856 END:
KINECT_DATA POSITION:-1.712906,-1.171102,-6.045914 HEAD_JOINT1:0.981915,0.189082,0.000000,-0.009524 LARM_JOINT2:0.881296,0.000000,-0.082041,-0.465388 LARM_JOINT3:0.942245,0.000000,-0.330008,0.057170 LLEG_JOINT2:0.998952,0.000807,0.000000,0.045754 LLEG_JOINT4:0.996056,0.087824,0.000000,-0.012642 RARM_JOINT2:0.857544,0.000000,-0.041838,0.512707 RARM_JOINT3:0.937327,0.000000,0.260034,0.231951 RLEG_JOINT2:0.998050,0.033265,0.000000,-0.052823 RLEG_JOINT4:0.993234,0.100612,0.000000,0.057997 WAIST:0.996001,-0.000000,0.086024,0.024130 WAIST_JOINT0:0.994405,-0.000000,0.100840,0.031462 WAIST_JOINT1:0.998649,0.051437,-0.000000,0.007364 END:
KINECT_DATA_Sensor  AnkleLeft:-0.031573,-0.651436,0.098446,0.751627 AnkleRight:0.108005,0.763237,0.080573,0.631912 ElbowLeft:0.231723,-0.607061,0.221833,0.727029 ElbowRight:-0.036640,0.913467,0.225293,0.336867 FootLeft:0.000000,0.000000,0.000000,0.000000 FootRight:0.000000,0.000000,0.000000,0.000000 HandLeft:0.205891,0.272462,-0.427733,0.836910 HandRight:-0.149969,0.906365,-0.167178,0.357859 HandTipLeft:0.000000,0.000000,0.000000,0.000000 HandTipRight:0.000000,0.000000,0.000000,0.000000 Head:0.000000,0.000000,0.000000,0.000000 HipLeft:0.059161,-0.673697,0.729244,-0.104093 HipRight:-0.184067,0.683418,0.675652,-0.206286 KneeLeft:0.045850,-0.642232,0.052585,0.763329 KneeRight:-0.001905,0.766247,0.042415,0.641142 Neck:-0.101253,0.027696,0.992233,-0.066747 ShoulderLeft:0.088950,0.756506,-0.646699,-0.039580 ShoulderRight:-0.041635,0.786951,0.604485,-0.116500 SpineBase:-0.086534,0.026744,0.995463,-0.029167 SpineMid:-0.093464,0.026947,0.994836,-0.028980 SpineShoulder:-0.100857,0.027732,0.993424,-0.046556 ThumbLeft:0.000000,0.000000,0.000000,0.000000 ThumbRight:0.000000,0.000000,0.000000,0.000000 WristLeft:0.203157,0.277391,-0.411281,0.844174 WristRight:-0.139739,0.913551,-0.099903,0.368670 END:
KINECT_DATA POSITION:-2.632593,-1.126956,-6.225300 HEAD_JOINT1:0.983112,0.181741,0.000000,-0.021474 LARM_JOINT2:0.881168,0.000000,-0.074656,-0.466872 LARM_JOINT3:0.930897,0.000000,-0.359122,0.066807 LLEG_JOINT2:0.998987,-0.001671,0.000000,0.044961 LLEG_JOINT4:0.996353,0.084459,0.000000,-0.012160 RARM_JOINT2:0.859327,0.000000,-0.033734,0.510313 RARM_JOINT3:0.938242,0.000000,0.253249,0.235726 RLEG_JOINT2:0.997972,0.028497,0.000000,-0.056919 RLEG_JOINT4:0.991950,0.108532,0.000000,0.065244 WAIST:0.994393,-0.000000,0.101079,0.031069 WAIST_JOINT0:0.991175,-0.000000,0.126838,0.038518 WAIST_JOINT1:0.998540,0.052995,-0.000000,0.010466 END:
KINECT_DATA_Sensor  AnkleLeft:0.036654,0.736556,-0.094790,-0.668697 AnkleRight:0.116138,0.774844,0.076927,0.616613 ElbowLeft:0.233536,-0.578257,0.232015,0.746491 ElbowRight:-0.039882,0.924246,0.216177,0.312164 FootLeft:0.000000,0.000000,0.000000,0.000000 FootRight:0.000000,0.000000,0.000000,0.000000 HandLeft:0.205297,0.229173,-0.476153,0.823779 HandRight:-0.126637,0.914042,-0.171360,0.345146 HandTipLeft:0.000000,0.000000,0.000000,0.000000 HandTipRight:0.000000,0.000000,0.000000,0.000000 Head:0.000000,0.000000,0.000000,0.000000 HipLeft:0.047952,-0.669665,0.734649,-0.097676 HipRight:-0.195645,0.685021,0.667868,-0.215457 KneeLeft:0.051619,-0.630390,0.055740,0.772552 KneeRight:-0.004107,0.775936,0.036110,0.629763 Neck:-0.127502,0.037671,0.988772,-0.068220 ShoulderLeft:0.107689,0.748381,-0.651729,-0.059822 ShoulderRight:-0.057033,0.787766,0.597922,-0.136606 SpineBase:-0.101727,0.035532,0.993714,-0.030343 SpineMid:-0.114023,0.035905,0.992379,-0.029901 SpineShoulder:-0.126987,0.037302,0.990046,-0.047880 ThumbLeft:0.000000,0.000000,0.000000,0.000000 ThumbRight:0.000000,0.000000,0.000000,0.000000 WristLeft:0.236532,0.270410,-0.408456,0.839104 WristRight:-0.132761,0.918690,-0.113642,0.354216 END:
KINECT_DATA POSITION:-3.211948,-1.105866,-6.341898 HEAD_JOINT1:0.983665,0.177974,0.000000,-0.026977 LARM_JOINT2:0.884052,0.000000,-0.068167,-0.462390 LARM_JOINT3:0.914536,0.000000,-0.397987,0.072315 LLEG_JOINT2:0.999033,-0.003764,0.000000,0.043815 LLEG_JOINT4:0.996458,0.083267,0.000000,-0.011768 RARM_JOINT2:0.858941,0.000000,-0.028819,0.511262 RARM_JOINT3:0.939224,0.000000,0.251963,0.233181 RLEG_JOINT2:0.998027,0.025481,0.000000,-0.057389 RLEG_JOINT4:0.991509,0.114668,0.000000,0.061333 WAIST:0.993715,-0.000000,0.106306,0.035055 WAIST_JOINT0:0.989582,-0.000000,0.137881,0.041420 WAIST_JOINT1:0.998471,0.054356,-0.000000,0.010038 END:
KINECT_DATA_Sensor  AnkleLeft:0.028227,0.704603,-0.096673,-0.702419 AnkleRight:0.117301,0.780199,0.079395,0.609283 ElbowLeft:0.233402,-0.572676,0.244239,0.746936 ElbowRight:-0.041857,0.927218,0.210460,0.306954 FootLeft:0.000000,0.000000,0.000000,0.000000 FootRight:0.000000,0.000000,0.000000,0.000000 HandLeft:0.180029,0.237233,-0.527948,0.795349 HandRight:-0.108824,0.892214,-0.176659,0.401127 HandTipLeft:0.000000,0.000000,0.000000,0.000000 HandTipRight:0.000000,0.000000,0.000000,0.000000 Head:0.000000,0.000000,0.000000,0.000000 HipLeft:0.043489,-0.667121,0.737423,-0.096262 HipRight:-0.199272,0.686323,0.664096,-0.219609 KneeLeft:0.055164,-0.626176,0.056503,0.775672 KneeRight:-0.003868,0.779218,0.031097,0.625969 Neck:-0.138675,0.041081,0.987063,-0.069204 ShoulderLeft:0.115831,0.744474,-0.654019,-0.067826 ShoulderRight:-0.063569,0.787190,0.595899,-0.145586 SpineBase:-0.107105,0.039175,0.992969,-0.031728 SpineMid:-0.122216,0.039654,0.991222,-0.031128 SpineShoulder:-0.138108,0.040787,0.988368,-0.048904 ThumbLeft:0.000000,0.000000,0.000000,0.000000 ThumbRight:0.000000,0.000000,0.000000,0.000000 WristLeft:0.219179,0.293654,-0.441623,0.818961 WristRight:-0.124059,0.894873,-0.128039,0.409166 END:
KINECT_DATA POSITION:-3.662035,-1.120893,-6.348157 HEAD_JOINT1:0.983364,0.179768,0.000000,-0.026041 LARM_JOINT2:0.886591,0.000000,-0.080214,-0.455547 LARM_JOINT3:0.927378,0.000000,-0.362725,0.091653 LLEG_JOINT2:0.998980,-0.004835,0.000000,0.044890 LLEG_JOINT4:0.996206,0.086618,0.000000,-0.008422 RARM_JOINT2:0.859892,0.000000,-0.038529,0.509019 RARM_JOINT3:0.940572,0.000000,0.241169,0.239087 RLEG_JOINT2:0.998137,0.026284,0.000000,-0.055055 RLEG_JOINT4:0.991649,0.112204,0.000000,0.063583 WAIST:0.993487,-0.000000,0.108464,0.034909 WAIST_JOINT0:0.989690,-0.000000,0.137152,0.041267 WAIST_JOINT1:0.998469,0.054527,-0.000000,0.009258 END:
KINECT_DATA_Sensor  AnkleLeft:-0.018159,-0.631476,0.103602,0.768229 AnkleRight:0.119149,0.779577,0.075923,0.610162 ElbowLeft:0.252274,-0.545969,0.232462,0.764354 ElbowRight:-0.038363,0.923980,0.217005,0.312567 FootLeft:0.000000,0.000000,0.000000,0.000000 FootRight:0.000000,0.000000,0.000000,0.000000 HandLeft:0.177465,0.334148,-0.496196,0.781435 HandRight:-0.050893,0.877582,-0.150788,0.452243 HandTipLeft:0.000000,0.000000,0.000000,0.000000 HandTipRight:0.000000,0.000000,0.000000,0.000000 Head:0.000000,0.000000,0.000000,0.000000 HipLeft:0.041507,-0.667639,0.737308,-0.094402 HipRight:-0.199578,0.685855,0.663936,-0.221271 KneeLeft:0.056504,-0.624381,0.056625,0.777013 KneeRight:-0.001770,0.780618,0.030299,0.624271 Neck:-0.137949,0.039831,0.987217,-0.069177 ShoulderLeft:0.116251,0.744977,-0.653401,-0.067544 ShoulderRight:-0.062068,0.787433,0.595912,-0.144867 SpineBase:-0.109304,0.037891,0.992766,-0.032136 SpineMid:-0.122998,0.038331,0.991162,-0.031610 SpineShoulder:-0.137411,0.039586,0.988498,-0.049232 ThumbLeft:0.000000,0.000000,0.000000,0.000000 ThumbRight:0.000000,0.000000,0.000000,0.000000 WristLeft:0.207830,0.361109,-0.465149,0.781053 WristRight:-0.117851,0.870526,-0.131368,0.459389 END:
KINECT_DATA POSITION:-3.663102,-1.132380,-6.345284 HEAD_JOINT1:0.980370,0.196635,0.000000,-0.014461 LARM_JOINT2:0.884329,0.000000,-0.157565,-0.439472 LARM_JOINT3:0.972150,0.000000,-0.223320,0.071084 LLEG_JOINT2:0.998970,-0.004513,0.000000,0.045159 LLEG_JOINT4:0.996511,0.083450,0.000000,-0.001023 RARM_JOINT2:0.858087,0.000000,-0.053168,0.510745 RARM_JOINT3:0.937303,0.000000,0.245158,0.247709 RLEG_JOINT2:0.998194,0.026980,0.000000,-0.053679 RLEG_JOINT4:0.991670,0.112639,0.000000,0.062475 WAIST:0.993768,-0.000000,0.106035,0.034384 WAIST_JOINT0:0.991966,-0.000000,0.120272,0.039221 WAIST_JOINT1:0.998819,0.048504,-0.000000,0.002966 END:
KINECT_DATA_Sensor  AnkleLeft:-0.012729,-0.642840,0.107489,0.758314 AnkleRight:0.118448,0.766072,0.079061,0.626780 ElbowLeft:0.303324,-0.553592,0.174574,0.755681 ElbowRight:-0.034604,0.919807,0.223695,0.320498 FootLeft:0.000000,0.000000,0.000000,0.000000 FootRight:0.000000,0.000000,0.000000,0.000000 HandLeft:0.224245,0.295456,-0.395598,0.840192 HandRight:-0.061112,0.890239,-0.169067,0.418517 HandTipLeft:0.000000,0.000000,0.000000,0.000000 HandTipRight:0.000000,0.000000,0.000000,0.000000 Head:0.000000,0.000000,0.000000,0.000000 HipLeft:0.045653,-0.668419,0.736580,-0.092641 HipRight:-0.198984,0.686478,0.664329,-0.218680 KneeLeft:0.056144,-0.626104,0.056576,0.775655 KneeRight:-0.000496,0.779140,0.030409,0.626111 Neck:-0.120832,0.032039,0.990185,-0.062509 ShoulderLeft:0.091451,0.751438,-0.651545,-0.049676 ShoulderRight:-0.064741,0.789457,0.595109,-0.135687 SpineBase:-0.106874,0.034735,0.993251,-0.028706 SpineMid:-0.113277,0.034919,0.992541,-0.028481 SpineShoulder:-0.120317,0.033010,0.991235,-0.043440 ThumbLeft:0.000000,0.000000,0.000000,0.000000 ThumbRight:0.000000,0.000000,0.000000,0.000000 WristLeft:0.261500,0.308740,-0.391106,0.826640 WristRight:-0.124392,0.887152,-0.121165,0.427560 END:
KINECT_DATA POSITION:-3.462218,-1.168596,-6.384373 HEAD_JOINT1:0.978911,0.204132,0.000000,-0.008004 LARM_JOINT2:0.880606,0.000000,-0.164239,-0.444475 LARM_JOINT3:0.985559,0.000000,-0.158125,0.060581 LLEG_JOINT2:0.998854,-0.001691,0.000000,0.047835 LLEG_JOINT4:0.996493,0.083435,0.000000,-0.006291 RARM_JOINT2:0.853752,0.000000,-0.067983,0.516222 RARM_JOINT3:0.937978,0.000000,0.239712,0.250470 RLEG_JOINT2:0.998399,0.025725,0.000000,-0.050368 RLEG_JOINT4:0.991805,0.113551,0.000000,0.058550 WAIST:0.994912,-0.000000,0.095654,0.031631 WAIST_JOINT0:0.995313,-0.000000,0.092021,0.029723 WAIST_JOINT1:0.998906,0.046729,0.000000,-0.001656 END:
KINECT_DATA_Sensor  AnkleLeft:0.027454,0.719023,-0.103394,-0.686704 AnkleRight:0.116641,0.757697,0.080490,0.637033 ElbowLeft:0.301605,-0.555624,0.153748,0.759394 ElbowRight:-0.023396,0.912952,0.229346,0.336708 FootLeft:0.000000,0.000000,0.000000,0.000000 FootRight:0.000000,0.000000,0.000000,0.000000 HandLeft:0.223144,0.391582,-0.342570,0.824328 HandRight:-0.055446,0.899985,-0.161252,0.401186 HandTipLeft:0.000000,0.000000,0.000000,0.000000 HandTipRight:0.000000,0.000000,0.000000,0.000000 Head:0.000000,0.000000,0.000000,0.000000 HipLeft:0.054952,-0.670742,0.733600,-0.094431 HipRight:-0.192853,0.687128,0.667468,-0.212484 KneeLeft:0.054071,-0.633984,0.058144,0.769259 KneeRight:-0.000114,0.772441,0.029535,0.634400 Neck:-0.091616,0.024291,0.993606,-0.061340 ShoulderLeft:0.059755,0.764445,-0.641596,-0.020156 ShoulderRight:-0.058731,0.789826,0.598509,-0.120468 SpineBase:-0.096468,0.027666,0.994632,-0.025216 SpineMid:-0.093603,0.027593,0.994906,-0.025295 SpineShoulder:-0.091176,0.025506,0.994635,-0.041682 ThumbLeft:0.000000,0.000000,0.000000,0.000000 ThumbRight:0.000000,0.000000,0.000000,0.000000 WristLeft:0.231552,0.383464,-0.367721,0.814936 WristRight:-0.124434,0.897522,-0.104928,0.409831 END:
KINECT_DATA POSITION:-3.358977,-1.209926,-6.402433 HEAD_JOINT1:0.978301,0.207009,0.000000,-0.008581 LARM_JOINT2:0.879599,0.000000,-0.161126,-0.447597 LARM_JOINT3:0.987380,0.000000,-0.145107,0.063433 LLEG_JOINT2:0.998752,-0.000075,0.000000,0.049938 LLEG_JOINT4:0.996348,0.084896,0.000000,-0.009156 RARM_JOINT2:0.854241,0.000000,-0.064700,0.515835 RARM_JOINT3:0.937717,0.000000,0.245122,0.246176 RLEG_JOINT2:0.998507,0.024223,0.000000,-0.048963 RLEG_JOINT4:0.991936,0.113094,0.000000,0.057216 WAIST:0.995531,-0.000000,0.089774,0.029305 WAIST_JOINT0:0.996424,-0.000000,0.080900,0.024373 WAIST_JOINT1:0.998853,0.047853,0.000000,-0.001889 END:
KINECT_DATA_Sensor  AnkleLeft:0.031891,0.726120,-0.102694,-0.679108 AnkleRight:0.114221,0.752498,0.080288,0.643625 ElbowLeft:0.297265,-0.554376,0.149248,0.762906 ElbowRight:-0.024287,0.911408,0.231659,0.339235 FootLeft:0.000000,0.000000,0.000000,0.000000 FootRight:0.000000,0.000000,0.000000,0.000000 HandLeft:0.229814,0.405467,-0.346734,0.813976 HandRight:-0.081682,0.893011,-0.161113,0.412191 HandTipLeft:0.000000,0.000000,0.000000,0.000000 HandTipRight:0.000000,0.000000,0.000000,0.000000 Head:0.000000,0.000000,0.000000,0.000000 HipLeft:0.058417,-0.672232,0.731605,-0.097194 HipRight:-0.188269,0.686840,0.670103,-0.209208 KneeLeft:0.052743,-0.638554,0.058967,0.765499 KneeRight:-0.001336,0.768563,0.029259,0.639104 Neck:-0.080278,0.021570,0.994558,-0.062810 ShoulderLeft:0.051986,0.767526,-0.638832,-0.009807 ShoulderRight:-0.052009,0.787024,0.604159,-0.113490 SpineBase:-0.090546,0.025049,0.995254,-0.025384 SpineMid:-0.085015,0.024908,0.995741,-0.025523 SpineShoulder:-0.079862,0.022883,0.995621,-0.042854 ThumbLeft:0.000000,0.000000,0.000000,0.000000 ThumbRight:0.000000,0.000000,0.000000,0.000000 WristLeft:0.226696,0.402016,-0.353699,0.813565 WristRight:-0.125279,0.892688,-0.102948,0.420494 END:
KINECT_DATA POSITION:-3.345761,-1.245818,-6.385899 HEAD_JOINT1:0.977380,0.211234,0.000000,-0.010453 LARM_JOINT2:0.879690,0.000000,-0.156313,-0.449124 LARM_JOINT3:0.986587,0.000000,-0.150023,0.064334 LLEG_JOINT2:0.998660,0.001643,0.000000,0.051730 LLEG_JOINT4:0.996192,0.086726,0.000000,-0.008971 RARM_JOINT2:0.854727,0.000000,-0.062531,0.515298 RARM_JOINT3:0.937259,0.000000,0.247251,0.245788 RLEG_JOINT2:0.998596,0.022040,0.000000,-0.048160 RLEG_JOINT4:0.991642,0.115990,0.000000,0.056500 WAIST:0.995895,-0.000000,0.086010,0.028207 WAIST_JOINT0:0.996734,-0.000000,0.077537,0.022575 WAIST_JOINT1:0.998768,0.049615,0.000000,-0.000871 END:
KINECT_DATA_Sensor  AnkleLeft:-0.024806,-0.666225,0.108149,0.737450 AnkleRight:0.114465,0.750784,0.081047,0.645487 ElbowLeft:0.294805,-0.549635,0.149365,0.767256 ElbowRight:-0.023675,0.910372,0.232573,0.341428 FootLeft:0.000000,0.000000,0.000000,0.000000 FootRight:0.000000,0.000000,0.000000,0.000000 HandLeft:0.196573,0.453569,-0.362537,0.790064 HandRight:-0.088504,0.892299,-0.163482,0.411392 HandTipLeft:0.000000,0.000000,0.000000,0.000000 HandTipRight:0.000000,0.000000,0.000000,0.000000 Head:0.000000,0.000000,0.000000,0.000000 HipLeft:0.060207,-0.672823,0.730519,-0.100128 HipRight:-0.185430,0.686856,0.671401,-0.207524 KneeLeft:0.051943,-0.641476,0.060552,0.762983 KneeRight:-0.002715,0.766041,0.027932,0.642179 Neck:-0.076870,0.021650,0.994685,-0.064986 ShoulderLeft:0.051899,0.767543,-0.638858,-0.006642 ShoulderRight:-0.047845,0.785072,0.607412,-0.111460 SpineBase:-0.086761,0.024657,0.995577,-0.026304 SpineMid:-0.081416,0.024516,0.996028,-0.026436 SpineShoulder:-0.076457,0.022779,0.995814,-0.044610 ThumbLeft:0.000000,0.000000,0.000000,0.000000 ThumbRight:0.000000,0.000000,0.000000,0.000000 WristLeft:0.205006,0.453701,-0.367049,0.785750 WristRight:-0.125857,0.893028,-0.101256,0.420010 END:
KINECT_DATA POSITION:-3.364557,-1.266664,-6.398201 HEAD_JOINT1:0.977374,0.211185,0.000000,-0.011863 LARM_JOINT2:0.878027,0.000000,-0.155462,-0.452659 LARM_JOINT3:0.986932,0.000000,-0.150119,0.058562 LLEG_JOINT2:0.998637,0.002347,0.000000,0.052131 LLEG_JOINT4:0.996459,0.082841,0.000000,-0.014381 RARM_JOINT2:0.856770,0.000000,-0.057381,0.512497 RARM_JOINT3:0.937096,0.000000,0.249461,0.244173 RLEG_JOINT2:0.998627,0.020475,0.000000,-0.048213 RLEG_JOINT4:0.991557,0.116532,0.000000,0.056874 WAIST:0.996173,-0.000000,0.082813,0.027954 WAIST_JOINT0:0.996897,-0.000000,0.075710,0.021547 WAIST_JOINT1:0.998629,0.052347,-0.000000,0.000745 END:
KINECT_DATA_Sensor  AnkleLeft:0.033742,0.728691,-0.099744,-0.676699 AnkleRight:0.114674,0.752520,0.079270,0.643646 ElbowLeft:0.290691,-0.554434,0.150204,0.765206 ElbowRight:-0.024317,0.911150,0.233992,0.338323 FootLeft:0.000000,0.000000,0.000000,0.000000 FootRight:0.000000,0.000000,0.000000,0.000000 HandLeft:0.228944,0.336481,-0.321120,0.855130 HandRight:-0.099489,0.886576,-0.160712,0.422204 HandTipLeft:0.000000,0.000000,0.000000,0.000000 HandTipRight:0.000000,0.000000,0.000000,0.000000 Head:0.000000,0.000000,0.000000,0.000000 HipLeft:0.060590,-0.672510,0.730396,-0.102865 HipRight:-0.182158,0.687117,0.672529,-0.205897 KneeLeft:0.051611,-0.643964,0.061033,0.760869 KneeRight:-0.003794,0.763912,0.027024,0.644743 Neck:-0.075201,0.023110,0.994570,-0.068133 ShoulderLeft:0.055596,0.766144,-0.640235,-0.005609 ShoulderRight:-0.042174,0.783114,0.610625,-0.109961 SpineBase:-0.083577,0.025199,0.995791,-0.027950 SpineMid:-0.078970,0.025070,0.996166,-0.028066 SpineShoulder:-0.074765,0.024067,0.995785,-0.047363 ThumbLeft:0.000000,0.000000,0.000000,0.000000 ThumbRight:0.000000,0.000000,0.000000,0.000000 WristLeft:0.251772,0.337794,-0.330339,0.844619 WristRight:-0.124180,0.888117,-0.102873,0.430400 END:
KINECT_DATA POSITION:-3.378622,-1.271088,-6.424272 HEAD_JOINT1:0.977439,0.210877,0.000000,-0.012008 LARM_JOINT2:0.876417,0.000000,-0.151895,-0.456969 LARM_JOINT3:0.986319,0.000000,-0.153799,0.059336 LLEG_JOINT2:0.998638,0.002460,0.000000,0.052121 LLEG_JOINT4:0.996289,0.084956,0.000000,-0.013792 RARM_JOINT2:0.858146,0.000000,-0.055457,0.510402 RARM_JOINT3:0.936518,0.000000,0.248424,0.247427 RLEG_JOINT2:0.998604,0.019112,0.000000,-0.049243 RLEG_JOINT4:0.991348,0.117681,0.000000,0.058134 WAIST:0.996329,-0.000000,0.080940,0.027883 WAIST_JOINT0:0.996974,-0.000000,0.074998,0.020425 WAIST_JOINT1:0.998590,0.053073,-0.000000,0.001042 END:
KINECT_DATA_Sensor  AnkleLeft:0.033039,0.715228,-0.102191,-0.690590 AnkleRight:0.115076,0.752968,0.078513,0.643143 ElbowLeft:0.284898,-0.559472,0.151761,0.763409 ElbowRight:-0.025095,0.911267,0.235698,0.336764 FootLeft:0.000000,0.000000,0.000000,0.000000 FootRight:0.000000,0.000000,0.000000,0.000000 HandLeft:0.158230,0.496343,-0.365062,0.771581 HandRight:-0.099927,0.902612,-0.161972,0.386097 HandTipLeft:0.000000,0.000000,0.000000,0.000000 HandTipRight:0.000000,0.000000,0.000000,0.000000 Head:0.000000,0.000000,0.000000,0.000000 HipLeft:0.060816,-0.672229,0.730444,-0.104215 HipRight:-0.180210,0.687284,0.673213,-0.204815 KneeLeft:0.051544,-0.645413,0.060991,0.759648 KneeRight:-0.005426,0.762641,0.026749,0.646245 Neck:-0.074395,0.023364,0.994579,-0.068787 ShoulderLeft:0.056291,0.766233,-0.640072,-0.005082 ShoulderRight:-0.040529,0.781806,0.612520,-0.109346 SpineBase:-0.081715,0.025417,0.995916,-0.028775 SpineMid:-0.077627,0.025299,0.996243,-0.028879 SpineShoulder:-0.073948,0.024397,0.995802,-0.048119 ThumbLeft:0.000000,0.000000,0.000000,0.000000 ThumbRight:0.000000,0.000000,0.000000,0.000000 WristLeft:0.178153,0.498987,-0.369499,0.763377 WristRight:-0.128405,0.904466,-0.097010,0.395022 END:
KINECT_DATA POSITION:-3.379604,-1.293486,-6.453252 HEAD_JOINT1:0.977536,0.210441,0.000000,-0.011720 LARM_JOINT2:0.875526,0.000000,-0.150934,-0.458991 LARM_JOINT3:0.984351,0.000000,-0.165391,0.060814 LLEG_JOINT2:0.998661,0.002256,0.000000,0.051678 LLEG_JOINT4:0.996354,0.084503,0.000000,-0.011728 RARM_JOINT2:0.858054,0.000000,-0.054140,0.510697 RARM_JOINT3:0.936834,0.000000,0.245225,0.249415 RLEG_JOINT2:0.998610,0.020005,0.000000,-0.048755 RLEG_JOINT4:0.991608,0.115406,0.000000,0.058262 WAIST:0.996397,-0.000000,0.079967,0.028244 WAIST_JOINT0:0.997037,-0.000000,0.074369,0.019671 WAIST_JOINT1:0.998570,0.053450,-0.000000,0.000948 END:
KINECT_DATA_Sensor  AnkleLeft:0.034206,0.735198,-0.102559,-0.669176 AnkleRight:0.114574,0.749077,0.077338,0.647901 ElbowLeft:0.282030,-0.564647,0.152974,0.760416 ElbowRight:-0.025474,0.910942,0.234900,0.338169 FootLeft:0.000000,0.000000,0.000000,0.000000 FootRight:0.000000,0.000000,0.000000,0.000000 HandLeft:0.198029,0.360564,-0.361599,0.836674 HandRight:-0.089894,0.918073,-0.158776,0.351925 HandTipLeft:0.000000,0.000000,0.000000,0.000000 HandTipRight:0.000000,0.000000,0.000000,0.000000 Head:0.000000,0.000000,0.000000,0.000000 HipLeft:0.061068,-0.671719,0.730764,-0.105112 HipRight:-0.179308,0.687502,0.673331,-0.204485 KneeLeft:0.051709,-0.646147,0.060744,0.759032 KneeRight:-0.004174,0.762058,0.026880,0.646937 Neck:-0.073692,0.023692,0.994601,-0.069120 ShoulderLeft:0.056757,0.766646,-0.639538,-0.004943 ShoulderRight:-0.039171,0.781305,0.613390,-0.108541 SpineBase:-0.080771,0.025621,0.995973,-0.029276 SpineMid:-0.076802,0.025504,0.996287,-0.029378 SpineShoulder:-0.073241,0.024685,0.995829,-0.048497 ThumbLeft:0.000000,0.000000,0.000000,0.000000 ThumbRight:0.000000,0.000000,0.000000,0.000000 WristLeft:0.228132,0.376389,-0.339837,0.831142 WristRight:-0.132845,0.918433,-0.092623,0.360906 END:
KINECT_DATA POSITION:-3.343572,-1.322309,-6.496847 HEAD_JOINT1:0.977603,0.209806,0.000000,-0.016537 LARM_JOINT2:0.866186,0.000000,-0.124454,-0.483976 LARM_JOINT3:0.965174,0.000000,-0.245133,0.091377 LLEG_JOINT2:0.998713,0.002227,0.000000,0.050660 LLEG_JOINT4:0.996293,0.085019,0.000000,-0.013155 RARM_JOINT2:0.858245,0.000000,-0.055030,0.510281 RARM_JOINT3:0.935642,0.000000,0.249146,0.250000 RLEG_JOINT2:0.998549,0.024441,0.000000,-0.047982 RLEG_JOINT4:0.992251,0.111824,0.000000,0.054162 WAIST:0.996357,-0.000000,0.080006,0.029513 WAIST_JOINT0:0.996624,-0.000000,0.079134,0.021884 WAIST_JOINT1:0.998564,0.053521,-0.000000,0.002535 END:
KINECT_DATA_Sensor  AnkleLeft:-0.024914,-0.665225,0.104752,0.738839 AnkleRight:0.113716,0.751630,0.078846,0.644906 ElbowLeft:0.253118,-0.557982,0.157335,0.774489 ElbowRight:-0.024653,0.909967,0.233100,0.342077 FootLeft:0.000000,0.000000,0.000000,0.000000 FootRight:0.000000,0.000000,0.000000,0.000000 HandLeft:0.145341,0.383032,-0.450786,0.793067 HandRight:-0.087503,0.901739,-0.177220,0.384452 HandTipLeft:0.000000,0.000000,0.000000,0.000000 HandTipRight:0.000000,0.000000,0.000000,0.000000 Head:0.000000,0.000000,0.000000,0.000000 HipLeft:0.060830,-0.670663,0.731666,-0.105721 HipRight:-0.179444,0.688175,0.672524,-0.204761 KneeLeft:0.051967,-0.646094,0.060848,0.759052 KneeRight:0.000191,0.762275,0.028854,0.646609 Neck:-0.078740,0.027674,0.994107,-0.069179 ShoulderLeft:0.064679,0.763700,-0.642203,-0.012390 ShoulderRight:-0.037830,0.781946,0.612584,-0.108951 SpineBase:-0.080859,0.026808,0.995923,-0.029685 SpineMid:-0.079400,0.026765,0.996040,-0.029724 SpineShoulder:-0.078321,0.027510,0.995364,-0.048584 ThumbLeft:0.000000,0.000000,0.000000,0.000000 ThumbRight:0.000000,0.000000,0.000000,0.000000 WristLeft:0.181811,0.418478,-0.391729,0.798980 WristRight:-0.129978,0.904318,-0.097574,0.394708 END:
KINECT_DATA POSITION:-3.269306,-1.377928,-6.490111 HEAD_JOINT1:0.977297,0.211475,0.000000,-0.013012 LARM_JOINT2:0.866115,0.000000,-0.126836,-0.483485 LARM_JOINT3:0.975093,0.000000,-0.205766,0.082795 LLEG_JOINT2:0.998730,0.001924,0.000000,0.050344 LLEG_JOINT4:0.996227,0.085649,0.000000,-0.013978 RARM_JOINT2:0.856480,0.000000,-0.058661,0.512837 RARM_JOINT3:0.935051,0.000000,0.252713,0.248627 RLEG_JOINT2:0.998534,0.024415,0.000000,-0.048304 RLEG_JOINT4:0.992396,0.110995,0.000000,0.053206 WAIST:0.996257,-0.000000,0.081128,0.029843 WAIST_JOINT0:0.996606,-0.000000,0.079696,0.020636 WAIST_JOINT1:0.998706,0.050863,-0.000000,0.000567 END:
KINECT_DATA_Sensor  AnkleLeft:0.032982,0.714527,-0.102192,-0.691318 AnkleRight:0.112262,0.752117,0.078964,0.644578 ElbowLeft:0.254763,-0.558535,0.153689,0.774284 ElbowRight:-0.024612,0.908881,0.231788,0.345838 FootLeft:0.000000,0.000000,0.000000,0.000000 FootRight:0.000000,0.000000,0.000000,0.000000 HandLeft:0.195747,0.423655,-0.364315,0.805899 HandRight:-0.096937,0.895505,-0.186125,0.392469 HandTipLeft:0.000000,0.000000,0.000000,0.000000 HandTipRight:0.000000,0.000000,0.000000,0.000000 Head:0.000000,0.000000,0.000000,0.000000 HipLeft:0.061102,-0.670445,0.732016,-0.104507 HipRight:-0.180899,0.688220,0.672078,-0.204792 KneeLeft:0.052182,-0.645220,0.060677,0.759794 KneeRight:0.000105,0.763013,0.028786,0.645742 Neck:-0.079027,0.025430,0.994399,-0.065405 ShoulderLeft:0.061908,0.765865,-0.639869,-0.013626 ShoulderRight:-0.040786,0.781841,0.612642,-0.108305 SpineBase:-0.081968,0.026928,0.995861,-0.028573 SpineMid:-0.080071,0.026873,0.996016,-0.028624 SpineShoulder:-0.078588,0.026245,0.995494,-0.046107 ThumbLeft:0.000000,0.000000,0.000000,0.000000 ThumbRight:0.000000,0.000000,0.000000,0.000000 WristLeft:0.186224,0.414513,-0.382389,0.804536 WristRight:-0.130381,0.900133,-0.098791,0.403736 END:
KINECT_DATA POSITION:-3.176570,-1.415307,-6.546783 HEAD_JOINT1:0.977511,0.210440,0.000000,-0.013708 LARM_JOINT2:0.863305,0.000000,-0.136228,-0.485949 LARM_JOINT3:0.985082,0.000000,-0.158555,0.066879 LLEG_JOINT2:0.998753,0.000846,0.000000,0.049913 LLEG_JOINT4:0.996119,0.086772,0.000000,-0.014759 RARM_JOINT2:0.856601,0.000000,-0.059311,0.512559 RARM_JOINT3:0.934024,0.000000,0.253985,0.251179 RLEG_JOINT2:0.998487,0.025469,0.000000,-0.048740 RLEG_JOINT4:0.992658,0.107912,0.000000,0.054631 WAIST:0.996136,-0.000000,0.082640,0.029743 WAIST_JOINT0:0.996548,-0.000000,0.080680,0.019577 WAIST_JOINT1:0.998769,0.049603,-0.000000,0.000310 END:
KINECT_DATA_Sensor  AnkleLeft:0.033017,0.707551,-0.101349,-0.698577 AnkleRight:0.111415,0.752683,0.077082,0.644293 ElbowLeft:0.257587,-0.554939,0.142728,0.778023 ElbowRight:-0.025684,0.909456,0.231943,0.344141 FootLeft:0.000000,0.000000,0.000000,0.000000 FootRight:0.000000,0.000000,0.000000,0.000000 HandLeft:0.200767,0.454407,-0.312428,0.809689 HandRight:-0.102970,0.906261,-0.189549,0.363538 HandTipLeft:0.000000,0.000000,0.000000,0.000000 HandTipRight:0.000000,0.000000,0.000000,0.000000 Head:0.000000,0.000000,0.000000,0.000000 HipLeft:0.061005,-0.670637,0.732088,-0.102818 HipRight:-0.182385,0.688030,0.671856,-0.204840 KneeLeft:0.052600,-0.644071,0.059626,0.760822 KneeRight:0.000309,0.764022,0.029910,0.644497 Neck:-0.079752,0.025044,0.994422,-0.064329 ShoulderLeft:0.059655,0.767783,-0.637772,-0.014022 ShoulderRight:-0.043901,0.781876,0.612219,-0.109223 SpineBase:-0.083447,0.026779,0.995775,-0.027401 SpineMid:-0.081175,0.026717,0.995963,-0.027462 SpineShoulder:-0.079313,0.025895,0.995507,-0.044783 ThumbLeft:0.000000,0.000000,0.000000,0.000000 ThumbRight:0.000000,0.000000,0.000000,0.000000 WristLeft:0.189173,0.438873,-0.350361,0.805513 WristRight:-0.134056,0.911881,-0.096856,0.375661 END:
KINECT_DATA POSITION:-3.153935,-1.421613,-6.619990 HEAD_JOINT1:0.977555,0.209347,0.000000,-0.023667 LARM_JOINT2:0.861570,0.000000,-0.140912,-0.487690 LARM_JOINT3:0.985949,0.000000,-0.148432,0.076638 LLEG_JOINT2:0.998750,-0.000297,0.000000,0.049992 LLEG_JOINT4:0.996221,0.085912,0.000000,-0.012771 RARM_JOINT2:0.858156,0.000000,-0.057915,0.510112 RARM_JOINT3:0.936588,0.000000,0.249234,0.246343 RLEG_JOINT2:0.998478,0.024647,0.000000,-0.049345 RLEG_JOINT4:0.992126,0.112328,0.000000,0.055391 WAIST:0.995988,-0.000000,0.084646,0.029024 WAIST_JOINT0:0.996282,-0.000000,0.084173,0.018371 WAIST_JOINT1:0.998775,0.049461,-0.000000,0.001219 END:
KINECT_DATA_Sensor  AnkleLeft:0.032586,0.718487,-0.100710,-0.687439 AnkleRight:0.113252,0.754307,0.080256,0.641681 ElbowLeft:0.260140,-0.541123,0.134097,0.788372 ElbowRight:-0.027394,0.911555,0.233741,0.337167 FootLeft:0.000000,0.000000,0.000000,0.000000 FootRight:0.000000,0.000000,0.000000,0.000000 HandLeft:0.204815,0.494173,-0.337481,0.774565 HandRight:-0.108998,0.916783,-0.157360,0.350522 HandTipLeft:0.000000,0.000000,0.000000,0.000000 HandTipRight:0.000000,0.000000,0.000000,0.000000 Head:0.000000,0.000000,0.000000,0.000000 HipLeft:0.059760,-0.671308,0.731774,-0.101396 HipRight:-0.183699,0.687367,0.671995,-0.205433 KneeLeft:0.052940,-0.642587,0.058505,0.762140 KneeRight:-0.001294,0.765265,0.030142,0.643008 Neck:-0.083230,0.025217,0.994129,-0.064382 ShoulderLeft:0.062299,0.767596,-0.637664,-0.017326 ShoulderRight:-0.045828,0.780464,0.613494,-0.111360 SpineBase:-0.085400,0.026898,0.995615,-0.027105 SpineMid:-0.083882,0.026857,0.995744,-0.027146 SpineShoulder:-0.082788,0.026070,0.995226,-0.044622 ThumbLeft:0.000000,0.000000,0.000000,0.000000 ThumbRight:0.000000,0.000000,0.000000,0.000000 WristLeft:0.176906,0.482521,-0.352910,0.781878 WristRight:-0.134393,0.918540,-0.094712,0.359517 END:
KINECT_DATA POSITION:-3.176787,-1.432532,-6.629753 HEAD_JOINT1:0.977643,0.208593,0.000000,-0.026517 LARM_JOINT2:0.861245,0.000000,-0.144440,-0.487232 LARM_JOINT3:0.984164,0.000000,-0.158429,0.079513 LLEG_JOINT2:0.998745,-0.000429,0.000000,0.050081 LLEG_JOINT4:0.996111,0.086805,0.000000,-0.015114 RARM_JOINT2:0.858952,0.000000,-0.057916,0.508770 RARM_JOINT3:0.935697,0.000000,0.248379,0.250557 RLEG_JOINT2:0.998442,0.023817,0.000000,-0.050470 RLEG_JOINT4:0.991851,0.112939,0.000000,0.058966 WAIST:0.995923,-0.000000,0.085519,0.028722 WAIST_JOINT0:0.996123,-0.000000,0.086095,0.018043 WAIST_JOINT1:0.998799,0.048969,-0.000000,0.001469 END:
KINECT_DATA_Sensor  AnkleLeft:-0.026705,-0.660669,0.101429,0.743314 AnkleRight:0.114744,0.755037,0.078731,0.640745 ElbowLeft:0.262774,-0.536383,0.129980,0.791422 ElbowRight:-0.028242,0.912282,0.234916,0.334301 FootLeft:0.000000,0.000000,0.000000,0.000000 FootRight:0.000000,0.000000,0.000000,0.000000 HandLeft:0.198494,0.439813,-0.362977,0.797128 HandRight:-0.105406,0.921860,-0.164059,0.334885 HandTipLeft:0.000000,0.000000,0.000000,0.000000 HandTipRight:0.000000,0.000000,0.000000,0.000000 Head:0.000000,0.000000,0.000000,0.000000 HipLeft:0.059559,-0.671629,0.731587,-0.100731 HipRight:-0.184501,0.687105,0.671960,-0.205708 KneeLeft:0.052852,-0.641937,0.058304,0.762709 KneeRight:-0.002947,0.765786,0.030429,0.642368 Neck:-0.085155,0.025232,0.993998,-0.063880 ShoulderLeft:0.063694,0.767460,-0.637624,-0.019594 ShoulderRight:-0.046918,0.780062,0.613788,-0.112098 SpineBase:-0.086247,0.026816,0.995554,-0.026729 SpineMid:-0.085270,0.026790,0.995638,-0.026756 SpineShoulder:-0.084718,0.026067,0.995086,-0.044125 ThumbLeft:0.000000,0.000000,0.000000,0.000000 ThumbRight:0.000000,0.000000,0.000000,0.000000 WristLeft:0.193939,0.444744,-0.346693,0.802742 WristRight:-0.135627,0.924186,-0.092749,0.344795 END:
KINECT_DATA POSITION:-3.196254,-1.434071,-6.623578 HEAD_JOINT1:0.978431,0.205632,0.000000,-0.019690 LARM_JOINT2:0.859307,0.000000,-0.134241,-0.493529 LARM_JOINT3:0.977000,0.000000,-0.201845,0.068774 LLEG_JOINT2:0.998730,-0.001574,0.000000,0.050365 LLEG_JOINT4:0.995948,0.088681,0.000000,-0.014951 RARM_JOINT2:0.859247,0.000000,-0.056873,0.508390 RARM_JOINT3:0.936363,0.000000,0.246307,0.250115 RLEG_JOINT2:0.998402,0.023986,0.000000,-0.051173 RLEG_JOINT4:0.992030,0.109687,0.000000,0.062008 WAIST:0.995884,-0.000000,0.085936,0.028814 WAIST_JOINT0:0.996205,-0.000000,0.084987,0.018803 WAIST_JOINT1:0.998825,0.048412,-0.000000,0.001999 END:
KINECT_DATA_Sensor  AnkleLeft:-0.027131,-0.661291,0.102228,0.742635 AnkleRight:0.114448,0.754402,0.075042,0.641988 ElbowLeft:0.252096,-0.547048,0.137863,0.786244 ElbowRight:-0.029270,0.912952,0.234147,0.332921 FootLeft:0.000000,0.000000,0.000000,0.000000 FootRight:0.000000,0.000000,0.000000,0.000000 HandLeft:0.134588,0.367904,-0.383672,0.836259 HandRight:-0.088511,0.893746,-0.166172,0.407150 HandTipLeft:0.000000,0.000000,0.000000,0.000000 HandTipRight:0.000000,0.000000,0.000000,0.000000 Head:0.000000,0.000000,0.000000,0.000000 HipLeft:0.059665,-0.671541,0.731710,-0.100367 HipRight:-0.185225,0.687094,0.671778,-0.205689 KneeLeft:0.053962,-0.641583,0.057861,0.762962 KneeRight:-0.003333,0.766062,0.030937,0.642013 Neck:-0.084037,0.025947,0.994111,-0.063313 ShoulderLeft:0.062444,0.767496,-0.637726,-0.018877 ShoulderRight:-0.046689,0.780939,0.612873,-0.111090 SpineBase:-0.086650,0.027115,0.995522,-0.026297 SpineMid:-0.084922,0.027069,0.995671,-0.026344 SpineShoulder:-0.083602,0.026597,0.995186,-0.043686 ThumbLeft:0.000000,0.000000,0.000000,0.000000 ThumbRight:0.000000,0.000000,0.000000,0.000000 WristLeft:0.201899,0.396883,-0.350542,0.823918 WristRight:-0.128144,0.894219,-0.104247,0.416033 END:
KINECT_DATA POSITION:-3.141615,-1.115204,-6.339037 HEAD_JOINT1:0.981997,0.185019,-0.000000,0.038089 LARM_JOINT2:0.879310,0.000000,-0.042560,-0.474343 LARM_JOINT3:0.859378,0.000000,-0.495907,-0.124685 LLEG_JOINT2:0.998910,0.006559,0.000000,0.046214 LLEG_JOINT4:0.996337,0.083856,0.000000,-0.016739 RARM_JOINT2:0.843485,0.000000,-0.061298,0.533643 RARM_JOINT3:0.938166,0.000000,0.257527,0.231352 RLEG_JOINT2:0.998238,0.028315,0.000000,-0.052145 RLEG_JOINT4:0.992893,0.108598,0.000000,0.048686 WAIST:0.997087,-0.000000,0.068506,0.033523 WAIST_JOINT0:0.997664,-0.000000,0.063333,0.025619 WAIST_JOINT1:0.998805,0.048243,0.000000,-0.007886 END:
KINECT_DATA_Sensor  AnkleLeft:-0.028764,-0.673888,0.103943,0.730919 AnkleRight:0.110746,0.743896,0.081840,0.653954 ElbowLeft:-0.167243,0.719604,-0.260333,-0.621632 ElbowRight:-0.019573,0.895474,0.214264,0.389658 FootLeft:0.000000,0.000000,0.000000,0.000000 FootRight:0.000000,0.000000,0.000000,0.000000 HandLeft:-0.058356,0.037961,-0.519561,0.851593 HandRight:-0.098182,0.897699,-0.185761,0.387285 HandTipLeft:0.000000,0.000000,0.000000,0.000000 HandTipRight:0.000000,0.000000,0.000000,0.000000 Head:0.000000,0.000000,0.000000,0.000000 HipLeft:0.074300,-0.666722,0.733147,-0.111608 HipRight:-0.176100,0.692026,0.671112,-0.199240 KneeLeft:0.049079,-0.654653,0.062807,0.751715 KneeRight:0.003010,0.755018,0.031907,0.654921 Neck:-0.062828,0.020686,0.995860,-0.062360 ShoulderLeft:0.048608,0.770180,-0.635965,-0.002801 ShoulderRight:-0.032207,0.791273,0.603337,-0.093987 SpineBase:-0.069549,0.024417,0.996949,-0.025672 SpineMid:-0.065766,0.024319,0.997206,-0.025764 SpineShoulder:-0.062384,0.022362,0.996875,-0.043005 ThumbLeft:0.000000,0.000000,0.000000,0.000000 ThumbRight:0.000000,0.000000,0.000000,0.000000 WristLeft:0.077765,0.128093,-0.444953,0.882928 WristRight:-0.142572,0.900512,-0.097697,0.399007 END:
KINECT_DATA POSITION:-2.775398,-0.888348,-6.086671 HEAD_JOINT1:0.980274,0.176072,-0.000000,0.089786 LARM_JOINT2:0.870402,0.000000,-0.004638,-0.492319 LARM_JOINT3:0.864084,0.000000,-0.438870,-0.246479 LLEG_JOINT2:0.998703,0.013671,0.000000,0.049039 LLEG_JOINT4:0.995682,0.091194,0.000000,-0.017360 RARM_JOINT2:0.822460,0.000000,-0.084311,0.562539 RARM_JOINT3:0.939501,0.000000,0.270932,0.209602 RLEG_JOINT2:0.998291,0.031653,0.000000,-0.049119 RLEG_JOINT4:0.994035,0.101218,0.000000,0.040613 WAIST:0.998545,-0.000000,0.044455,0.030512 WAIST_JOINT0:0.999417,-0.000000,0.020881,0.026994 WAIST_JOINT1:0.998835,0.045718,0.000000,-0.015471 END:
KINECT_DATA_Sensor  AnkleLeft:0.043975,0.723830,-0.111896,-0.679423 AnkleRight:0.106696,0.745262,0.079594,0.653350 ElbowLeft:-0.105211,0.794239,-0.263964,-0.537064 ElbowRight:0.001317,0.860804,0.200489,0.467781 FootLeft:0.000000,0.000000,0.000000,0.000000 FootRight:0.000000,0.000000,0.000000,0.000000 HandLeft:0.115434,-0.490060,-0.359431,0.785701 HandRight:-0.098948,0.894429,-0.172229,0.400678 HandTipLeft:0.000000,0.000000,0.000000,0.000000 HandTipRight:0.000000,0.000000,0.000000,0.000000 Head:0.000000,0.000000,0.000000,0.000000 HipLeft:0.092631,-0.667263,0.728692,-0.123238 HipRight:-0.162225,0.693506,0.676456,-0.187455 KneeLeft:0.044522,-0.672705,0.066955,0.735529 KneeRight:0.006714,0.738909,0.034935,0.672865 Neck:-0.020902,0.010042,0.997949,-0.059659 ShoulderLeft:0.020837,0.776998,-0.628560,0.027430 ShoulderRight:-0.005587,0.800264,0.596766,-0.058451 SpineBase:-0.045501,0.016083,0.998551,-0.023793 SpineMid:-0.032948,0.015783,0.999044,-0.023993 SpineShoulder:-0.020555,0.012445,0.998885,-0.040635 ThumbLeft:0.000000,0.000000,0.000000,0.000000 ThumbRight:0.000000,0.000000,0.000000,0.000000 WristLeft:0.204548,-0.446425,-0.330503,0.805998 WristRight:-0.156697,0.893315,-0.090240,0.411450 END:
KINECT_DATA POSITION:-2.239066,-0.860766,-6.009376 HEAD_JOINT1:0.976891,0.164426,-0.000000,0.136557 LARM_JOINT2:0.859877,0.000000,-0.006568,-0.510460 LARM_JOINT3:0.940562,0.000000,-0.246890,-0.233216 LLEG_JOINT2:0.998561,0.014054,0.000000,0.051756 LLEG_JOINT4:0.996015,0.086406,0.000000,-0.022086 RARM_JOINT2:0.809082,0.000000,-0.098785,0.579334 RARM_JOINT3:0.940626,0.000000,0.276754,0.196543 RLEG_JOINT2:0.998331,0.033077,0.000000,-0.047343 RLEG_JOINT4:0.994827,0.093999,0.000000,0.038521 WAIST:0.999373,-0.000000,0.024720,0.025365 WAIST_JOINT0:0.999490,0.000000,-0.021283,0.023788 WAIST_JOINT1:0.998514,0.048993,0.000000,-0.023849 END:
KINECT_DATA_Sensor  AnkleLeft:0.049666,0.777338,-0.102108,-0.618751 AnkleRight:0.101510,0.738417,0.076828,0.662219 ElbowLeft:-0.060816,0.872539,-0.244157,-0.418764 ElbowRight:0.015923,0.833501,0.201137,0.514361 FootLeft:0.000000,0.000000,0.000000,0.000000 FootRight:0.000000,0.000000,0.000000,0.000000 HandLeft:-0.085561,0.704689,0.156012,-0.686843 HandRight:-0.083214,0.864067,-0.152663,0.472396 HandTipLeft:0.000000,0.000000,0.000000,0.000000 HandTipRight:0.000000,0.000000,0.000000,0.000000 Head:0.000000,0.000000,0.000000,0.000000 HipLeft:0.104691,-0.669563,0.723327,-0.132374 HipRight:-0.145757,0.692705,0.683315,-0.178873 KneeLeft:0.043385,-0.687193,0.065085,0.722252 KneeRight:0.006468,0.725252,0.038667,0.687367 Neck:0.020397,-0.004569,0.997780,-0.063231 ShoulderLeft:0.000489,0.781731,-0.620907,0.058057 ShoulderRight:0.027050,0.800894,0.597723,-0.023746 SpineBase:-0.025886,0.004395,0.999329,-0.025533 SpineMid:-0.002708,0.003801,0.999661,-0.025628 SpineShoulder:0.020619,-0.001131,0.998839,-0.043524 ThumbLeft:0.000000,0.000000,0.000000,0.000000 ThumbRight:0.000000,0.000000,0.000000,0.000000 WristLeft:0.157607,-0.685926,-0.131697,0.698084 WristRight:-0.157787,0.858463,-0.086933,0.480196 END:
