EastLYD/RoboCupatHomeSim/InteractiveCleanUp/JapanOpen2016/Motion_Data/File24.dat
KINECT_DATA POSITION:6.748528,0.086078,-1.930046 HEAD_JOINT1:0.980039,0.151005,-0.000000,0.129310 LARM_JOINT2:0.841252,0.000000,-0.023828,-0.540118 LARM_JOINT3:0.971782,0.000000,-0.188582,-0.141692 LLEG_JOINT2:0.998559,0.025935,0.000000,0.046972 LLEG_JOINT4:0.995266,0.086675,0.000000,-0.043976 RARM_JOINT2:0.794855,0.000000,-0.076146,0.602002 RARM_JOINT3:0.967273,0.000000,0.226696,0.113982 RLEG_JOINT2:0.999716,0.023817,0.000000,-0.001290 RLEG_JOINT4:0.995927,0.085058,0.000000,0.029906 WAIST:0.999913,0.000000,-0.012737,-0.003395 WAIST_JOINT0:0.999224,0.000000,-0.039301,0.002624 WAIST_JOINT1:0.997308,0.071346,0.000000,-0.016920 END:
KINECT_DATA_Sensor  AnkleLeft:0.084960,0.761713,-0.073494,-0.638102 AnkleRight:0.097729,0.721203,0.053884,0.683675 ElbowLeft:-0.052050,0.871584,-0.191418,-0.448320 ElbowRight:0.017227,0.784270,0.201016,0.586700 FootLeft:0.000000,0.000000,0.000000,0.000000 FootRight:0.000000,0.000000,0.000000,0.000000 HandLeft:0.009326,-0.556163,-0.143416,0.818552 HandRight:0.059893,-0.338182,-0.125764,0.930714 HandTipLeft:0.000000,0.000000,0.000000,0.000000 HandTipRight:0.000000,0.000000,0.000000,0.000000 Head:0.000000,0.000000,0.000000,0.000000 HipLeft:0.126437,-0.679396,0.701482,-0.174237 HipRight:-0.109846,0.674145,0.709185,-0.174696 KneeLeft:-0.013103,0.715627,-0.048969,-0.696641 KneeRight:0.013768,0.698277,0.019939,0.715417 Neck:0.038141,-0.022927,0.995214,-0.086998 ShoulderLeft:0.006531,0.786516,-0.611662,0.084972 ShoulderRight:0.056514,0.786229,0.614907,-0.023232 SpineBase:0.012204,-0.017196,0.998677,-0.046901 SpineMid:0.024911,-0.017792,0.998441,-0.046679 SpineShoulder:0.037991,-0.020627,0.996890,-0.065896 ThumbLeft:0.000000,0.000000,0.000000,0.000000 ThumbRight:0.000000,0.000000,0.000000,0.000000 WristLeft:0.124133,-0.527375,-0.080264,0.836675 WristRight:-0.039416,-0.347560,-0.117017,0.929492 END:
KINECT_DATA POSITION:6.764513,0.082904,-1.935911 HEAD_JOINT1:0.980143,0.150295,-0.000000,0.129352 LARM_JOINT2:0.840782,0.000000,-0.024172,-0.540834 LARM_JOINT3:0.972473,0.000000,-0.188137,-0.137478 LLEG_JOINT2:0.998539,0.026502,0.000000,0.047095 LLEG_JOINT4:0.995322,0.084677,0.000000,-0.046512 RARM_JOINT2:0.794105,0.000000,-0.075564,0.603065 RARM_JOINT3:0.967859,0.000000,0.225354,0.111646 RLEG_JOINT2:0.999725,0.023399,0.000000,-0.001278 RLEG_JOINT4:0.995935,0.085433,0.000000,0.028553 WAIST:0.999911,0.000000,-0.012924,-0.003414 WAIST_JOINT0:0.999232,0.000000,-0.039109,0.002603 WAIST_JOINT1:0.997272,0.071823,0.000000,-0.017001 END:
KINECT_DATA_Sensor  AnkleLeft:0.083150,0.741069,-0.073449,-0.662199 AnkleRight:0.098759,0.745898,0.051236,0.656703 ElbowLeft:-0.051122,0.872591,-0.190762,-0.446746 ElbowRight:0.017645,0.783593,0.200087,0.587908 FootLeft:0.000000,0.000000,0.000000,0.000000 FootRight:0.000000,0.000000,0.000000,0.000000 HandLeft:0.017407,-0.503153,-0.125604,0.854844 HandRight:0.076624,-0.559324,-0.101756,0.819104 HandTipLeft:0.000000,0.000000,0.000000,0.000000 HandTipRight:0.000000,0.000000,0.000000,0.000000 Head:0.000000,0.000000,0.000000,0.000000 HipLeft:0.126340,-0.679364,0.701447,-0.174572 HipRight:-0.109491,0.674124,0.709213,-0.174887 KneeLeft:-0.012790,0.715767,-0.049446,-0.696469 KneeRight:0.013467,0.698170,0.019650,0.715536 Neck:0.037915,-0.022914,0.995175,-0.087548 ShoulderLeft:0.007591,0.786484,-0.611731,0.084674 ShoulderRight:0.057286,0.786133,0.614956,-0.023285 SpineBase:0.012383,-0.017299,0.998655,-0.047276 SpineMid:0.024883,-0.017889,0.998422,-0.047055 SpineShoulder:0.037754,-0.020714,0.996866,-0.066365 ThumbLeft:0.000000,0.000000,0.000000,0.000000 ThumbRight:0.000000,0.000000,0.000000,0.000000 WristLeft:0.117363,-0.481736,-0.090416,0.863702 WristRight:-0.008474,-0.562471,-0.123576,0.817486 END:
KINECT_DATA POSITION:6.789114,0.067367,-1.932049 HEAD_JOINT1:0.980027,0.151417,-0.000000,0.128921 LARM_JOINT2:0.840355,0.000000,-0.023997,-0.541505 LARM_JOINT3:0.972300,0.000000,-0.189363,-0.137018 LLEG_JOINT2:0.998534,0.026844,0.000000,0.046995 LLEG_JOINT4:0.995259,0.085572,0.000000,-0.046218 RARM_JOINT2:0.793813,0.000000,-0.071437,0.603951 RARM_JOINT3:0.962199,0.000000,0.244705,0.119549 RLEG_JOINT2:0.999727,0.023333,0.000000,-0.001537 RLEG_JOINT4:0.995787,0.087269,0.000000,0.028151 WAIST:0.999914,0.000000,-0.012725,-0.003254 WAIST_JOINT0:0.999258,0.000000,-0.038431,0.002748 WAIST_JOINT1:0.997275,0.071797,0.000000,-0.016963 END:
KINECT_DATA_Sensor  AnkleLeft:0.084436,0.746202,-0.073840,-0.656202 AnkleRight:0.099156,0.738076,0.053950,0.665207 ElbowLeft:-0.050957,0.871876,-0.190267,-0.448368 ElbowRight:0.016631,0.788127,0.197464,0.582741 FootLeft:0.000000,0.000000,0.000000,0.000000 FootRight:0.000000,0.000000,0.000000,0.000000 HandLeft:0.019045,-0.496826,-0.128358,0.858094 HandRight:0.104905,-0.405418,-0.171518,0.891747 HandTipLeft:0.000000,0.000000,0.000000,0.000000 HandTipRight:0.000000,0.000000,0.000000,0.000000 Head:0.000000,0.000000,0.000000,0.000000 HipLeft:0.126176,-0.679324,0.701524,-0.174536 HipRight:-0.109615,0.674245,0.709030,-0.175085 KneeLeft:-0.012582,0.715632,-0.049737,-0.696591 KneeRight:0.013349,0.698323,0.019680,0.715387 Neck:0.037234,-0.022667,0.995210,-0.087499 ShoulderLeft:0.008130,0.786204,-0.612165,0.084086 ShoulderRight:0.056963,0.786032,0.615096,-0.023783 SpineBase:0.012175,-0.017187,0.998657,-0.047339 SpineMid:0.024440,-0.017767,0.998432,-0.047124 SpineShoulder:0.037073,-0.020508,0.996896,-0.066360 ThumbLeft:0.000000,0.000000,0.000000,0.000000 ThumbRight:0.000000,0.000000,0.000000,0.000000 WristLeft:0.116811,-0.475681,-0.091678,0.866993 WristRight:-0.019125,-0.423950,-0.125696,0.896717 END:
KINECT_DATA POSITION:6.854598,0.020313,-1.853049 HEAD_JOINT1:0.980781,0.150088,-0.000000,0.124668 LARM_JOINT2:0.838582,0.000000,-0.023342,-0.544275 LARM_JOINT3:0.973003,0.000000,-0.186334,-0.136183 LLEG_JOINT2:0.998590,0.027562,0.000000,0.045366 LLEG_JOINT4:0.995311,0.085529,0.000000,-0.045173 RARM_JOINT2:0.792096,0.000000,-0.034986,0.609394 RARM_JOINT3:0.942463,0.000000,0.306329,0.133889 RLEG_JOINT2:0.999747,0.022383,0.000000,-0.002193 RLEG_JOINT4:0.995553,0.089723,0.000000,0.028709 WAIST:0.999931,0.000000,-0.011471,-0.002681 WAIST_JOINT0:0.999404,0.000000,-0.034196,0.004727 WAIST_JOINT1:0.997363,0.070513,0.000000,-0.017198 END:
KINECT_DATA_Sensor  AnkleLeft:0.086784,0.760810,-0.072144,-0.639086 AnkleRight:0.099308,0.723818,0.056922,0.680430 ElbowLeft:-0.051647,0.867133,-0.187074,-0.458712 ElbowRight:-0.002474,0.805177,0.177263,0.565917 FootLeft:0.000000,0.000000,0.000000,0.000000 FootRight:0.000000,0.000000,0.000000,0.000000 HandLeft:0.013379,-0.553305,-0.111326,0.825397 HandRight:0.187743,-0.489751,-0.237734,0.817544 HandTipLeft:0.000000,0.000000,0.000000,0.000000 HandTipRight:0.000000,0.000000,0.000000,0.000000 Head:0.000000,0.000000,0.000000,0.000000 HipLeft:0.126307,-0.679239,0.701884,-0.173321 HipRight:-0.111505,0.674657,0.708358,-0.175025 KneeLeft:-0.011250,0.714807,-0.049535,-0.697475 KneeRight:0.012593,0.699240,0.019098,0.714520 Neck:0.032874,-0.022063,0.995550,-0.085516 ShoulderLeft:0.011032,0.786685,-0.612123,0.079435 ShoulderRight:0.054265,0.788053,0.612668,-0.025803 SpineBase:0.010923,-0.016427,0.998744,-0.046057 SpineMid:0.021662,-0.016921,0.998569,-0.045878 SpineShoulder:0.032709,-0.020067,0.997123,-0.065371 ThumbLeft:0.000000,0.000000,0.000000,0.000000 ThumbRight:0.000000,0.000000,0.000000,0.000000 WristLeft:0.124756,-0.530123,-0.086814,0.834188 WristRight:0.072660,-0.517590,-0.176997,0.833962 END:
KINECT_DATA POSITION:6.925553,-0.046586,-1.673949 HEAD_JOINT1:0.983087,0.144192,-0.000000,0.112905 LARM_JOINT2:0.834594,0.000000,-0.017245,-0.550595 LARM_JOINT3:0.972876,0.000000,-0.190773,-0.130839 LLEG_JOINT2:0.998705,0.028225,0.000000,0.042326 LLEG_JOINT4:0.995553,0.084094,0.000000,-0.042459 RARM_JOINT2:0.792343,0.000000,0.054935,0.607598 RARM_JOINT3:0.937197,0.000000,0.322253,0.133472 RLEG_JOINT2:0.999708,0.023793,0.000000,-0.004209 RLEG_JOINT4:0.995447,0.090198,0.000000,0.030810 WAIST:0.999976,0.000000,-0.006909,-0.001080 WAIST_JOINT0:0.999739,0.000000,-0.020888,0.009237 WAIST_JOINT1:0.997742,0.065246,0.000000,-0.015906 END:
KINECT_DATA_Sensor  AnkleLeft:0.087002,0.769532,-0.070675,-0.628694 AnkleRight:0.101849,0.729806,0.056923,0.673624 ElbowLeft:-0.051736,0.856464,-0.182866,-0.479951 ElbowRight:-0.058119,0.841712,0.135049,0.519523 FootLeft:0.000000,0.000000,0.000000,0.000000 FootRight:0.000000,0.000000,0.000000,0.000000 HandLeft:0.036702,-0.650110,-0.108342,0.751180 HandRight:0.074621,0.019605,-0.335133,0.939007 HandTipLeft:0.000000,0.000000,0.000000,0.000000 HandTipRight:0.000000,0.000000,0.000000,0.000000 Head:0.000000,0.000000,0.000000,0.000000 HipLeft:0.125985,-0.679141,0.702986,-0.169427 HipRight:-0.117050,0.675538,0.706374,-0.176018 KneeLeft:-0.009515,0.711655,-0.049062,-0.700749 KneeRight:0.013234,0.702435,0.020458,0.711330 Neck:0.019616,-0.017768,0.996548,-0.078684 ShoulderLeft:0.016952,0.787347,-0.612775,0.065609 ShoulderRight:0.043030,0.792717,0.607182,-0.032837 SpineBase:0.006337,-0.015016,0.998947,-0.042878 SpineMid:0.012726,-0.015290,0.998886,-0.042781 SpineShoulder:0.019386,-0.017213,0.997815,-0.060774 ThumbLeft:0.000000,0.000000,0.000000,0.000000 ThumbRight:0.000000,0.000000,0.000000,0.000000 WristLeft:0.139882,-0.626526,-0.073893,0.763176 WristRight:0.019140,0.001199,-0.269791,0.962728 END:
KINECT_DATA POSITION:7.089196,-0.124951,-1.414382 HEAD_JOINT1:0.985441,0.139248,-0.000000,0.097554 LARM_JOINT2:0.829941,0.000000,-0.003601,-0.557839 LARM_JOINT3:0.973273,0.000000,-0.192471,-0.125282 LLEG_JOINT2:0.998828,0.031115,0.000000,0.037066 LLEG_JOINT4:0.995742,0.083040,0.000000,-0.040026 RARM_JOINT2:0.798120,0.000000,0.151184,0.583222 RARM_JOINT3:0.947748,0.000000,0.292320,0.127758 RLEG_JOINT2:0.999651,0.024974,0.000000,-0.008612 RLEG_JOINT4:0.995327,0.091336,0.000000,0.031333 WAIST:0.999991,0.000000,-0.004186,0.001064 WAIST_JOINT0:0.999884,-0.000000,0.003367,0.014855 WAIST_JOINT1:0.998211,0.058347,0.000000,-0.013081 END:
KINECT_DATA_Sensor  AnkleLeft:0.088206,0.760354,-0.072129,-0.639437 AnkleRight:0.102305,0.731855,0.059960,0.671064 ElbowLeft:-0.049366,0.843442,-0.181656,-0.503160 ElbowRight:-0.126162,0.881727,0.105526,0.442161 FootLeft:0.000000,0.000000,0.000000,0.000000 FootRight:0.000000,0.000000,0.000000,0.000000 HandLeft:0.029255,-0.567232,-0.090814,0.818013 HandRight:-0.067104,0.398645,-0.329927,0.853069 HandTipLeft:0.000000,0.000000,0.000000,0.000000 HandTipRight:0.000000,0.000000,0.000000,0.000000 Head:0.000000,0.000000,0.000000,0.000000 HipLeft:0.126875,-0.678665,0.704241,-0.165415 HipRight:-0.122295,0.677543,0.704082,-0.173919 KneeLeft:-0.005114,0.709861,-0.048950,-0.702620 KneeRight:0.012434,0.704317,0.022940,0.709405 Neck:-0.004092,-0.010776,0.997361,-0.071682 ShoulderLeft:0.022190,0.785556,-0.616596,0.047101 ShoulderRight:0.017809,0.796898,0.601625,-0.051798 SpineBase:0.003640,-0.011899,0.999198,-0.038062 SpineMid:-0.000412,-0.011744,0.999204,-0.038110 SpineShoulder:-0.004341,-0.011445,0.998453,-0.054246 ThumbLeft:0.000000,0.000000,0.000000,0.000000 ThumbRight:0.000000,0.000000,0.000000,0.000000 WristLeft:0.137564,-0.546832,-0.088816,0.821074 WristRight:-0.076855,0.397259,-0.300540,0.863686 END:
KINECT_DATA POSITION:7.349702,-0.167730,-1.216972 HEAD_JOINT1:0.986048,0.141601,-0.000000,0.087510 LARM_JOINT2:0.827095,0.000000,0.008093,-0.562004 LARM_JOINT3:0.973371,0.000000,-0.195528,-0.119655 LLEG_JOINT2:0.998971,0.032440,0.000000,0.031684 LLEG_JOINT4:0.995999,0.082991,0.000000,-0.033153 RARM_JOINT2:0.802548,0.000000,0.197332,0.563007 RARM_JOINT3:0.951771,0.000000,0.280691,0.123875 RLEG_JOINT2:0.999515,0.027729,0.000000,-0.014143 RLEG_JOINT4:0.995327,0.090156,0.000000,0.034588 WAIST:0.999993,-0.000000,0.001900,0.003140 WAIST_JOINT0:0.999539,-0.000000,0.024385,0.018091 WAIST_JOINT1:0.998454,0.054565,0.000000,-0.010593 END:
KINECT_DATA_Sensor  AnkleLeft:0.088201,0.764065,-0.074119,-0.634769 AnkleRight:0.103299,0.739291,0.061179,0.662597 ElbowLeft:-0.045813,0.831003,-0.184067,-0.522929 ElbowRight:-0.164884,0.891825,0.092744,0.410926 FootLeft:0.000000,0.000000,0.000000,0.000000 FootRight:0.000000,0.000000,0.000000,0.000000 HandLeft:0.044642,-0.528027,-0.086884,0.843591 HandRight:-0.055869,0.406728,-0.333829,0.848534 HandTipLeft:0.000000,0.000000,0.000000,0.000000 HandTipRight:0.000000,0.000000,0.000000,0.000000 Head:0.000000,0.000000,0.000000,0.000000 HipLeft:0.125026,-0.678355,0.705912,-0.160908 HipRight:-0.129614,0.678914,0.701346,-0.174326 KneeLeft:-0.001550,0.705594,-0.047561,-0.707017 KneeRight:0.011784,0.708566,0.027400,0.705014 Neck:-0.024745,-0.005030,0.997349,-0.068251 ShoulderLeft:0.029089,0.783937,-0.619367,0.031332 ShoulderRight:-0.001836,0.798839,0.597609,-0.068673 SpineBase:-0.002361,-0.007331,0.999382,-0.034305 SpineMid:-0.013638,-0.006944,0.999291,-0.034385 SpineShoulder:-0.025012,-0.006722,0.998396,-0.050336 ThumbLeft:0.000000,0.000000,0.000000,0.000000 ThumbRight:0.000000,0.000000,0.000000,0.000000 WristLeft:0.139277,-0.511519,-0.087983,0.843332 WristRight:-0.078677,0.399306,-0.324926,0.853691 END:
KINECT_DATA POSITION:7.679128,-0.188841,-1.112044 HEAD_JOINT1:0.986738,0.142455,-0.000000,0.077811 LARM_JOINT2:0.824993,0.000000,0.016207,-0.564910 LARM_JOINT3:0.971516,0.000000,-0.203598,-0.121261 LLEG_JOINT2:0.999138,0.033867,0.000000,0.024009 LLEG_JOINT4:0.996558,0.078482,0.000000,-0.026686 RARM_JOINT2:0.797060,0.000000,0.251519,0.549030 RARM_JOINT3:0.959769,0.000000,0.257671,0.111578 RLEG_JOINT2:0.999335,0.029441,0.000000,-0.021504 RLEG_JOINT4:0.995098,0.091561,0.000000,0.037374 WAIST:0.999949,-0.000000,0.007387,0.006940 WAIST_JOINT0:0.998844,-0.000000,0.042669,0.022146 WAIST_JOINT1:0.998616,0.051809,0.000000,-0.009028 END:
KINECT_DATA_Sensor  AnkleLeft:0.086105,0.774585,-0.071887,-0.622444 AnkleRight:0.104261,0.737943,0.065077,0.663577 ElbowLeft:-0.043639,0.823133,-0.187568,-0.534196 ElbowRight:-0.200501,0.902989,0.066145,0.374212 FootLeft:0.000000,0.000000,0.000000,0.000000 FootRight:0.000000,0.000000,0.000000,0.000000 HandLeft:0.059902,-0.589781,-0.094316,0.799797 HandRight:-0.357504,0.831445,0.045319,-0.422891 HandTipLeft:0.000000,0.000000,0.000000,0.000000 HandTipRight:0.000000,0.000000,0.000000,0.000000 Head:0.000000,0.000000,0.000000,0.000000 HipLeft:0.122716,-0.676571,0.708761,-0.157639 HipRight:-0.135922,0.681289,0.697593,-0.175316 KneeLeft:-0.002408,-0.701562,0.045772,0.711133 KneeRight:0.010271,0.712543,0.031153,0.700861 Neck:-0.042691,0.001670,0.996922,-0.065731 ShoulderLeft:0.032774,0.781842,-0.622299,0.019832 ShoulderRight:-0.021388,0.800785,0.592459,-0.085318 SpineBase:-0.007876,-0.001837,0.999460,-0.031850 SpineMid:-0.025260,-0.001283,0.999172,-0.031877 SpineShoulder:-0.042975,-0.001405,0.997955,-0.047304 ThumbLeft:0.000000,0.000000,0.000000,0.000000 ThumbRight:0.000000,0.000000,0.000000,0.000000 WristLeft:0.149504,-0.571034,-0.076648,0.803550 WristRight:-0.335996,0.843447,0.080400,-0.411387 END:
KINECT_DATA POSITION:8.074206,-0.216144,-1.049089 HEAD_JOINT1:0.987418,0.147516,-0.000000,0.056972 LARM_JOINT2:0.820144,0.000000,0.019695,-0.571818 LARM_JOINT3:0.971838,0.000000,-0.200431,-0.123926 LLEG_JOINT2:0.999327,0.034524,0.000000,0.012385 LLEG_JOINT4:0.996857,0.076073,0.000000,-0.022107 RARM_JOINT2:0.794574,0.000000,0.291908,0.532392 RARM_JOINT3:0.965064,0.000000,0.240890,0.103075 RLEG_JOINT2:0.998965,0.031350,0.000000,-0.032961 RLEG_JOINT4:0.994951,0.091524,0.000000,0.041189 WAIST:0.999812,-0.000000,0.013495,0.013943 WAIST_JOINT0:0.997925,-0.000000,0.057943,0.028086 WAIST_JOINT1:0.998834,0.048056,0.000000,-0.004603 END:
KINECT_DATA_Sensor  AnkleLeft:0.085056,0.770913,-0.070212,-0.627318 AnkleRight:0.105786,0.752518,0.065601,0.646701 ElbowLeft:-0.043542,0.822127,-0.190083,-0.534865 ElbowRight:-0.229784,0.904467,0.039466,0.357186 FootLeft:0.000000,0.000000,0.000000,0.000000 FootRight:0.000000,0.000000,0.000000,0.000000 HandLeft:0.069095,-0.653541,-0.080047,0.749469 HandRight:-0.339063,0.833610,0.037682,-0.434408 HandTipLeft:0.000000,0.000000,0.000000,0.000000 HandTipRight:0.000000,0.000000,0.000000,0.000000 Head:0.000000,0.000000,0.000000,0.000000 HipLeft:0.119652,-0.672696,0.713828,-0.153667 HipRight:-0.142514,0.685728,0.691666,-0.176255 KneeLeft:-0.006268,-0.696866,0.042801,0.715896 KneeRight:0.008132,0.717106,0.035594,0.696007 Neck:-0.058281,0.014754,0.996281,-0.061723 ShoulderLeft:0.031747,0.777671,-0.627772,0.011100 ShoulderRight:-0.043083,0.805013,0.583091,-0.100515 SpineBase:-0.014135,0.005463,0.999457,-0.029253 SpineMid:-0.036118,0.006105,0.998904,-0.029126 SpineShoulder:-0.058505,0.009521,0.997316,-0.042987 ThumbLeft:0.000000,0.000000,0.000000,0.000000 ThumbRight:0.000000,0.000000,0.000000,0.000000 WristLeft:0.156324,-0.635126,-0.061733,0.753901 WristRight:-0.364783,0.828863,0.079137,-0.416722 END:
KINECT_DATA POSITION:8.395230,-0.273904,-0.968027 HEAD_JOINT1:0.987700,0.149301,-0.000000,0.046444 LARM_JOINT2:0.817230,0.000000,0.021223,-0.575921 LARM_JOINT3:0.971824,0.000000,-0.197970,-0.127928 LLEG_JOINT2:0.999365,0.035596,0.000000,0.001462 LLEG_JOINT4:0.996985,0.075524,0.000000,-0.017819 RARM_JOINT2:0.779985,0.000000,0.371143,0.503862 RARM_JOINT3:0.976450,0.000000,0.193616,0.095173 RLEG_JOINT2:0.998422,0.035105,0.000000,-0.043838 RLEG_JOINT4:0.994918,0.088269,0.000000,0.048445 WAIST:0.999594,-0.000000,0.019578,0.020715 WAIST_JOINT0:0.996875,-0.000000,0.071667,0.033214 WAIST_JOINT1:0.998937,0.045870,0.000000,-0.004472 END:
KINECT_DATA_Sensor  AnkleLeft:0.084611,0.757765,-0.071234,-0.643085 AnkleRight:0.107450,0.753760,0.064505,0.645089 ElbowLeft:-0.043291,0.820786,-0.191536,-0.536423 ElbowRight:-0.280995,0.919735,0.008368,0.273969 FootLeft:0.000000,0.000000,0.000000,0.000000 FootRight:0.000000,0.000000,0.000000,0.000000 HandLeft:0.052518,-0.537830,-0.090977,0.836483 HandRight:-0.345367,0.846067,0.015912,-0.405758 HandTipLeft:0.000000,0.000000,0.000000,0.000000 HandTipRight:0.000000,0.000000,0.000000,0.000000 Head:0.000000,0.000000,0.000000,0.000000 HipLeft:0.117926,-0.669104,0.718220,-0.150176 HipRight:-0.149645,0.689999,0.685414,-0.178086 KneeLeft:-0.010010,-0.692145,0.040357,0.720560 KneeRight:0.007417,0.721645,0.041043,0.691005 Neck:-0.072385,0.020918,0.995384,-0.059441 ShoulderLeft:0.031865,0.774884,-0.631289,0.003809 ShoulderRight:-0.061461,0.808013,0.574667,-0.114434 SpineBase:-0.020351,0.011499,0.999377,-0.026433 SpineMid:-0.046097,0.012176,0.998521,-0.026128 SpineShoulder:-0.072424,0.016641,0.996424,-0.040221 ThumbLeft:0.000000,0.000000,0.000000,0.000000 ThumbRight:0.000000,0.000000,0.000000,0.000000 WristLeft:0.146752,-0.519639,-0.080860,0.837795 WristRight:-0.380402,0.837783,0.053768,-0.387973 END:
KINECT_DATA POSITION:8.607195,-0.333038,-0.942087 HEAD_JOINT1:0.987404,0.150050,-0.000000,0.050193 LARM_JOINT2:0.817680,0.000000,0.022046,-0.575250 LARM_JOINT3:0.972366,0.000000,-0.193734,-0.130277 LLEG_JOINT2:0.999344,0.035795,0.000000,-0.005578 LLEG_JOINT4:0.996996,0.076004,0.000000,-0.014942 RARM_JOINT2:0.766154,0.000000,0.428474,0.478977 RARM_JOINT3:0.981988,0.000000,0.167888,0.086681 RLEG_JOINT2:0.997920,0.039485,0.000000,-0.050961 RLEG_JOINT4:0.995187,0.084886,0.000000,0.048960 WAIST:0.999269,-0.000000,0.028435,0.025557 WAIST_JOINT0:0.995074,-0.000000,0.090976,0.039380 WAIST_JOINT1:0.998955,0.045034,0.000000,-0.007815 END:
KINECT_DATA_Sensor  AnkleLeft:0.085592,0.756356,-0.070656,-0.644676 AnkleRight:0.105040,0.749174,0.068898,0.650353 ElbowLeft:-0.041733,0.819260,-0.193917,-0.538022 ElbowRight:-0.320112,0.924986,-0.010383,0.204500 FootLeft:0.000000,0.000000,0.000000,0.000000 FootRight:0.000000,0.000000,0.000000,0.000000 HandLeft:0.053734,-0.571417,-0.082565,0.814726 HandRight:-0.369297,0.823421,0.028127,-0.429890 HandTipLeft:0.000000,0.000000,0.000000,0.000000 HandTipRight:0.000000,0.000000,0.000000,0.000000 Head:0.000000,0.000000,0.000000,0.000000 HipLeft:0.114826,-0.666882,0.721742,-0.145508 HipRight:-0.157821,0.691954,0.680279,-0.183066 KneeLeft:-0.011783,-0.685503,0.038578,0.726951 KneeRight:0.008185,0.727998,0.045630,0.684010 Neck:-0.091463,0.021635,0.993862,-0.058356 ShoulderLeft:0.033898,0.772867,-0.633649,-0.004161 ShoulderRight:-0.084507,0.809666,0.564861,-0.135023 SpineBase:-0.029302,0.014879,0.999161,-0.024457 SpineMid:-0.059908,0.015621,0.997793,-0.023989 SpineShoulder:-0.091428,0.018397,0.994880,-0.038943 ThumbLeft:0.000000,0.000000,0.000000,0.000000 ThumbRight:0.000000,0.000000,0.000000,0.000000 WristLeft:0.149871,-0.552651,-0.069850,0.816846 WristRight:-0.393691,0.818046,0.056976,-0.415405 END:
KINECT_DATA POSITION:8.881306,-0.354929,-0.912607 HEAD_JOINT1:0.987484,0.149600,-0.000000,0.049958 LARM_JOINT2:0.817825,0.000000,0.022280,-0.575035 LARM_JOINT3:0.972004,0.000000,-0.193624,-0.133113 LLEG_JOINT2:0.999270,0.036120,0.000000,-0.012469 LLEG_JOINT4:0.997151,0.075239,0.000000,-0.005430 RARM_JOINT2:0.761520,0.000000,0.458452,0.458158 RARM_JOINT3:0.982757,0.000000,0.159316,0.093851 RLEG_JOINT2:0.997229,0.045039,0.000000,-0.059218 RLEG_JOINT4:0.995200,0.081231,0.000000,0.054573 WAIST:0.998802,-0.000000,0.038685,0.029969 WAIST_JOINT0:0.993055,-0.000000,0.109117,0.043990 WAIST_JOINT1:0.998929,0.045202,0.000000,-0.009872 END:
KINECT_DATA_Sensor  AnkleLeft:0.082474,0.758819,-0.073786,-0.641831 AnkleRight:0.106416,0.754133,0.069971,0.644254 ElbowLeft:-0.039587,0.817140,-0.196821,-0.540348 ElbowRight:-0.344660,0.929020,-0.007212,0.134459 FootLeft:0.000000,0.000000,0.000000,0.000000 FootRight:0.000000,0.000000,0.000000,0.000000 HandLeft:0.062962,-0.598729,-0.083397,0.794106 HandRight:-0.373010,0.785085,0.058643,-0.490985 HandTipLeft:0.000000,0.000000,0.000000,0.000000 HandTipRight:0.000000,0.000000,0.000000,0.000000 Head:0.000000,0.000000,0.000000,0.000000 HipLeft:0.110343,-0.664387,0.725592,-0.141174 HipRight:-0.166540,0.692904,0.675613,-0.188934 KneeLeft:-0.013780,-0.677759,0.036554,0.734245 KneeRight:0.008384,0.735315,0.052093,0.675669 Neck:-0.109250,0.024139,0.992018,-0.058161 ShoulderLeft:0.039576,0.769351,-0.637470,-0.012830 ShoulderRight:-0.102609,0.808188,0.559377,-0.152973 SpineBase:-0.039620,0.019109,0.998757,-0.023444 SpineMid:-0.073806,0.019901,0.996814,-0.022776 SpineShoulder:-0.109222,0.020509,0.993055,-0.038627 ThumbLeft:0.000000,0.000000,0.000000,0.000000 ThumbRight:0.000000,0.000000,0.000000,0.000000 WristLeft:0.152140,-0.580063,-0.060373,0.797957 WristRight:-0.400747,0.775578,0.068057,-0.482958 END:
KINECT_DATA POSITION:9.180463,-0.343163,-0.732970 HEAD_JOINT1:0.988358,0.144939,-0.000000,0.046274 LARM_JOINT2:0.816855,0.000000,0.015608,-0.576632 LARM_JOINT3:0.969860,0.000000,-0.197567,-0.142615 LLEG_JOINT2:0.999186,0.036408,0.000000,-0.017370 LLEG_JOINT4:0.997470,0.071084,0.000000,0.000292 RARM_JOINT2:0.764216,0.000000,0.518427,0.383676 RARM_JOINT3:0.976100,0.000000,0.150444,0.156829 RLEG_JOINT2:0.996285,0.053430,0.000000,-0.067543 RLEG_JOINT4:0.995345,0.071359,0.000000,0.064775 WAIST:0.997844,-0.000000,0.056571,0.033278 WAIST_JOINT0:0.992516,-0.000000,0.114421,0.042653 WAIST_JOINT1:0.998921,0.045735,0.000000,-0.008058 END:
KINECT_DATA_Sensor  AnkleLeft:0.078949,0.758959,-0.071716,-0.642343 AnkleRight:0.105692,0.750741,0.069140,0.648411 ElbowLeft:-0.038824,0.817530,-0.198511,-0.539194 ElbowRight:-0.403814,0.903934,0.079601,-0.116194 FootLeft:0.000000,0.000000,0.000000,0.000000 FootRight:0.000000,0.000000,0.000000,0.000000 HandLeft:0.069949,-0.597037,-0.112721,0.791168 HandRight:-0.443350,0.764456,0.001313,-0.468023 HandTipLeft:0.000000,0.000000,0.000000,0.000000 HandTipRight:0.000000,0.000000,0.000000,0.000000 Head:0.000000,0.000000,0.000000,0.000000 HipLeft:0.103523,-0.663070,0.729122,-0.134173 HipRight:-0.181714,0.691713,0.669911,-0.199327 KneeLeft:-0.015181,-0.664297,0.034800,0.746504 KneeRight:0.008837,0.747723,0.061321,0.661114 Neck:-0.114837,0.028150,0.991229,-0.059034 ShoulderLeft:0.042712,0.767401,-0.639537,-0.016244 ShoulderRight:-0.107189,0.804927,0.561801,-0.158060 SpineBase:-0.057468,0.023838,0.997829,-0.021586 SpineMid:-0.085529,0.024436,0.995817,-0.020906 SpineShoulder:-0.114765,0.024187,0.992335,-0.038919 ThumbLeft:0.000000,0.000000,0.000000,0.000000 ThumbRight:0.000000,0.000000,0.000000,0.000000 WristLeft:0.151610,-0.576174,-0.060695,0.800846 WristRight:-0.387071,0.788890,0.009716,-0.477215 END:
KINECT_DATA POSITION:9.693133,-0.201514,-0.470591 HEAD_JOINT1:0.988621,0.143867,-0.000000,0.043940 LARM_JOINT2:0.818879,0.000000,0.014235,-0.573789 LARM_JOINT3:0.970177,0.000000,-0.186455,-0.154890 LLEG_JOINT2:0.998963,0.037536,0.000000,-0.025769 LLEG_JOINT4:0.997382,0.071688,0.000000,0.009528 RARM_JOINT2:0.761876,0.000000,0.507491,0.402490 RARM_JOINT3:0.979775,0.000000,0.152499,0.129554 RLEG_JOINT2:0.995132,0.063368,0.000000,-0.075478 RLEG_JOINT4:0.995510,0.064409,0.000000,0.069365 WAIST:0.996614,-0.000000,0.073563,0.036743 WAIST_JOINT0:0.991756,-0.000000,0.121077,0.041945 WAIST_JOINT1:0.999008,0.044129,0.000000,-0.005940 END:
KINECT_DATA_Sensor  AnkleLeft:0.080475,0.764233,-0.072447,-0.635785 AnkleRight:0.105082,0.753968,0.073729,0.644247 ElbowLeft:-0.036778,0.821710,-0.206668,-0.529838 ElbowRight:-0.396724,0.916329,0.026830,-0.047246 FootLeft:0.000000,0.000000,0.000000,0.000000 FootRight:0.000000,0.000000,0.000000,0.000000 HandLeft:0.047628,-0.557207,-0.093827,0.823680 HandRight:-0.405477,0.872276,-0.144494,-0.232043 HandTipLeft:0.000000,0.000000,0.000000,0.000000 HandTipRight:0.000000,0.000000,0.000000,0.000000 Head:0.000000,0.000000,0.000000,0.000000 HipLeft:0.094203,-0.661798,0.733233,-0.124574 HipRight:-0.193819,0.691905,0.664653,-0.204789 KneeLeft:-0.019245,-0.651115,0.030969,0.758103 KneeRight:0.010413,0.759503,0.071316,0.646499 Neck:-0.120843,0.032093,0.990439,-0.058289 ShoulderLeft:0.044575,0.763927,-0.643422,-0.020889 ShoulderRight:-0.113945,0.799127,0.567549,-0.162178 SpineBase:-0.074350,0.030470,0.996588,-0.018893 SpineMid:-0.096895,0.030890,0.994649,-0.018199 SpineShoulder:-0.120636,0.028674,0.991590,-0.037066 ThumbLeft:0.000000,0.000000,0.000000,0.000000 ThumbRight:0.000000,0.000000,0.000000,0.000000 WristLeft:0.147217,-0.535786,-0.064676,0.828901 WristRight:-0.394248,0.886471,-0.105232,-0.218322 END:
KINECT_DATA POSITION:9.887288,-0.070389,-0.434542 HEAD_JOINT1:0.988877,0.142734,-0.000000,0.041829 LARM_JOINT2:0.822740,0.000000,0.027091,-0.567771 LARM_JOINT3:0.967334,0.000000,-0.190458,-0.167302 LLEG_JOINT2:0.998806,0.037445,0.000000,-0.031374 LLEG_JOINT4:0.997422,0.069928,0.000000,0.016103 RARM_JOINT2:0.764075,0.000000,0.505318,0.401051 RARM_JOINT3:0.980241,0.000000,0.153587,0.124650 RLEG_JOINT2:0.994780,0.067106,0.000000,-0.076879 RLEG_JOINT4:0.995872,0.062171,0.000000,0.066140 WAIST:0.995905,-0.000000,0.081849,0.038387 WAIST_JOINT0:0.992086,-0.000000,0.118409,0.041775 WAIST_JOINT1:0.999010,0.044312,0.000000,-0.003885 END:
KINECT_DATA_Sensor  AnkleLeft:0.079791,0.776923,-0.070647,-0.620511 AnkleRight:0.103546,0.765182,0.076473,0.630814 ElbowLeft:-0.027133,0.820821,-0.220913,-0.526036 ElbowRight:-0.397154,0.917259,0.012611,-0.027293 FootLeft:0.000000,0.000000,0.000000,0.000000 FootRight:0.000000,0.000000,0.000000,0.000000 HandLeft:0.051695,-0.553647,-0.093891,0.825825 HandRight:0.006904,0.463694,-0.411545,0.784583 HandTipLeft:0.000000,0.000000,0.000000,0.000000 HandTipRight:0.000000,0.000000,0.000000,0.000000 Head:0.000000,0.000000,0.000000,0.000000 HipLeft:0.086383,-0.660980,0.735988,-0.118178 HipRight:-0.196840,0.691755,0.663218,-0.207054 KneeLeft:-0.021675,-0.644609,0.027426,0.763713 KneeRight:0.012144,0.765118,0.073771,0.639534 Neck:-0.117196,0.034857,0.990748,-0.058891 ShoulderLeft:0.041124,0.766016,-0.641257,-0.017809 ShoulderRight:-0.112590,0.799475,0.567948,-0.159993 SpineBase:-0.082662,0.032834,0.995852,-0.019201 SpineMid:-0.099263,0.033150,0.994334,-0.018651 SpineShoulder:-0.116925,0.031493,0.991931,-0.037551 ThumbLeft:0.000000,0.000000,0.000000,0.000000 ThumbRight:0.000000,0.000000,0.000000,0.000000 WristLeft:0.144551,-0.533369,-0.058321,0.831397 WristRight:-0.001011,0.458863,-0.419097,0.783455 END:
KINECT_DATA POSITION:9.695363,-0.061799,-0.506878 HEAD_JOINT1:0.988951,0.142505,-0.000000,0.040853 LARM_JOINT2:0.820447,0.000000,0.018954,-0.571408 LARM_JOINT3:0.969572,0.000000,-0.183999,-0.161477 LLEG_JOINT2:0.998971,0.035748,0.000000,-0.027912 LLEG_JOINT4:0.996856,0.077761,0.000000,0.015207 RARM_JOINT2:0.761405,0.000000,0.510437,0.399646 RARM_JOINT3:0.982810,0.000000,0.148903,0.109142 RLEG_JOINT2:0.994865,0.069261,0.000000,-0.073800 RLEG_JOINT4:0.996235,0.059298,0.000000,0.063237 WAIST:0.995209,-0.000000,0.089777,0.038716 WAIST_JOINT0:0.991267,-0.000000,0.124225,0.044252 WAIST_JOINT1:0.998976,0.045145,0.000000,-0.002878 END:
KINECT_DATA_Sensor  AnkleLeft:0.084493,0.774816,-0.074798,-0.622034 AnkleRight:0.103666,0.779255,0.074767,0.613534 ElbowLeft:-0.028579,0.821315,-0.216402,-0.527062 ElbowRight:-0.399472,0.916499,-0.001977,-0.021142 FootLeft:0.000000,0.000000,0.000000,0.000000 FootRight:0.000000,0.000000,0.000000,0.000000 HandLeft:0.046510,-0.483159,-0.085725,0.870083 HandRight:-0.059356,0.523563,-0.414407,0.742041 HandTipLeft:0.000000,0.000000,0.000000,0.000000 HandTipRight:0.000000,0.000000,0.000000,0.000000 Head:0.000000,0.000000,0.000000,0.000000 HipLeft:0.081174,-0.661070,0.737104,-0.114342 HipRight:-0.199507,0.690118,0.662390,-0.212544 KneeLeft:-0.017924,-0.638722,0.028836,0.768688 KneeRight:0.015297,0.770113,0.073081,0.633523 Neck:-0.123962,0.035459,0.989872,-0.059411 ShoulderLeft:0.051173,0.762178,-0.644847,-0.025260 ShoulderRight:-0.111087,0.799822,0.566943,-0.162851 SpineBase:-0.090696,0.031251,0.995173,-0.020720 SpineMid:-0.106749,0.031581,0.993579,-0.020213 SpineShoulder:-0.123671,0.032467,0.991043,-0.038530 ThumbLeft:0.000000,0.000000,0.000000,0.000000 ThumbRight:0.000000,0.000000,0.000000,0.000000 WristLeft:0.138756,-0.466236,-0.068078,0.871055 WristRight:-0.037917,0.529286,-0.424933,0.733383 END:
KINECT_DATA POSITION:9.607629,-0.063830,-0.545192 HEAD_JOINT1:0.989178,0.141274,-0.000000,0.039600 LARM_JOINT2:0.821409,0.000000,0.018665,-0.570033 LARM_JOINT3:0.968541,0.000000,-0.186704,-0.164530 LLEG_JOINT2:0.999055,0.034586,0.000000,-0.026339 LLEG_JOINT4:0.997080,0.075203,0.000000,0.013228 RARM_JOINT2:0.763545,0.000000,0.503438,0.404412 RARM_JOINT3:0.983187,0.000000,0.153547,0.098828 RLEG_JOINT2:0.994975,0.069715,0.000000,-0.071869 RLEG_JOINT4:0.996385,0.058135,0.000000,0.061939 WAIST:0.994856,-0.000000,0.093659,0.038585 WAIST_JOINT0:0.990330,-0.000000,0.131918,0.042948 WAIST_JOINT1:0.998940,0.045981,0.000000,-0.002102 END:
KINECT_DATA_Sensor  AnkleLeft:0.081261,0.769283,-0.072614,-0.629546 AnkleRight:0.102848,0.779055,0.074692,0.613935 ElbowLeft:-0.026933,0.821882,-0.218928,-0.525219 ElbowRight:-0.393070,0.919411,-0.012561,0.004707 FootLeft:0.000000,0.000000,0.000000,0.000000 FootRight:0.000000,0.000000,0.000000,0.000000 HandLeft:0.056002,-0.483265,-0.097437,0.868231 HandRight:-0.070857,0.510557,-0.417100,0.748558 HandTipLeft:0.000000,0.000000,0.000000,0.000000 HandTipRight:0.000000,0.000000,0.000000,0.000000 Head:0.000000,0.000000,0.000000,0.000000 HipLeft:0.078295,-0.661347,0.737429,-0.112643 HipRight:-0.200912,0.689185,0.662087,-0.215175 KneeLeft:-0.016125,-0.635821,0.029037,0.771121 KneeRight:0.016580,0.772547,0.072237,0.630618 Neck:-0.131566,0.035779,0.988839,-0.060057 ShoulderLeft:0.051827,0.762169,-0.644741,-0.026851 ShoulderRight:-0.121018,0.796642,0.566533,-0.172501 SpineBase:-0.094616,0.030887,0.994799,-0.021633 SpineMid:-0.112498,0.031272,0.992936,-0.021074 SpineShoulder:-0.131259,0.033132,0.990015,-0.039298 ThumbLeft:0.000000,0.000000,0.000000,0.000000 ThumbRight:0.000000,0.000000,0.000000,0.000000 WristLeft:0.138072,-0.466290,-0.065945,0.871298 WristRight:-0.034024,0.521553,-0.429565,0.736409 END:
KINECT_DATA POSITION:9.653565,-0.018551,-0.549233 HEAD_JOINT1:0.988994,0.142386,-0.000000,0.040216 LARM_JOINT2:0.824138,0.000000,0.027266,-0.565733 LARM_JOINT3:0.964735,0.000000,-0.198163,-0.173257 LLEG_JOINT2:0.999050,0.034428,0.000000,-0.026732 LLEG_JOINT4:0.997167,0.073577,0.000000,0.015602 RARM_JOINT2:0.770529,0.000000,0.487116,0.411100 RARM_JOINT3:0.978973,0.000000,0.177987,0.099660 RLEG_JOINT2:0.994969,0.070047,0.000000,-0.071621 RLEG_JOINT4:0.996491,0.056365,0.000000,0.061884 WAIST:0.994854,-0.000000,0.094028,0.037749 WAIST_JOINT0:0.990297,-0.000000,0.133812,0.037500 WAIST_JOINT1:0.998945,0.045921,0.000000,-0.001041 END:
KINECT_DATA_Sensor  AnkleLeft:0.078916,0.766561,-0.073130,-0.633094 AnkleRight:0.101792,0.782314,0.073638,0.610082 ElbowLeft:-0.021991,0.820409,-0.226216,-0.524664 ElbowRight:-0.382706,0.922871,-0.014857,0.040315 FootLeft:0.000000,0.000000,0.000000,0.000000 FootRight:0.000000,0.000000,0.000000,0.000000 HandLeft:0.091701,-0.659618,-0.102270,0.738943 HandRight:-0.037317,0.486312,-0.443956,0.751672 HandTipLeft:0.000000,0.000000,0.000000,0.000000 HandTipRight:0.000000,0.000000,0.000000,0.000000 Head:0.000000,0.000000,0.000000,0.000000 HipLeft:0.077598,-0.661911,0.737002,-0.112601 HipRight:-0.201311,0.688647,0.662542,-0.215123 KneeLeft:-0.016845,-0.635539,0.028029,0.771375 KneeRight:0.016371,0.772804,0.072921,0.630229 Neck:-0.132728,0.035811,0.988686,-0.060007 ShoulderLeft:0.042825,0.765418,-0.641759,-0.021137 ShoulderRight:-0.132728,0.791240,0.569268,-0.179597 SpineBase:-0.094940,0.031406,0.994748,-0.021823 SpineMid:-0.113201,0.031802,0.992836,-0.021242 SpineShoulder:-0.132401,0.033450,0.989851,-0.039319 ThumbLeft:0.000000,0.000000,0.000000,0.000000 ThumbRight:0.000000,0.000000,0.000000,0.000000 WristLeft:0.148744,-0.643868,-0.035471,0.749701 WristRight:-0.020437,0.495880,-0.433795,0.752002 END:
KINECT_DATA POSITION:9.610246,0.049984,-0.722468 HEAD_JOINT1:0.988416,0.145680,-0.000000,0.042548 LARM_JOINT2:0.818085,0.000000,0.017433,-0.574833 LARM_JOINT3:0.966196,0.000000,-0.200936,-0.161526 LLEG_JOINT2:0.999185,0.032744,0.000000,-0.023601 LLEG_JOINT4:0.997168,0.073638,0.000000,0.015296 RARM_JOINT2:0.793509,0.000000,0.466990,0.390209 RARM_JOINT3:0.959629,0.000000,0.255234,0.118186 RLEG_JOINT2:0.995486,0.064682,0.000000,-0.069449 RLEG_JOINT4:0.996264,0.059038,0.000000,0.063026 WAIST:0.995849,-0.000000,0.084467,0.033921 WAIST_JOINT0:0.991378,-0.000000,0.126288,0.034940 WAIST_JOINT1:0.998921,0.046427,-0.000000,0.001231 END:
KINECT_DATA_Sensor  AnkleLeft:0.079625,0.788047,-0.070665,-0.606340 AnkleRight:0.101384,0.780999,0.070671,0.612183 ElbowLeft:-0.028896,0.821438,-0.211958,-0.528658 ElbowRight:-0.388504,0.916529,0.010468,0.094499 FootLeft:0.000000,0.000000,0.000000,0.000000 FootRight:0.000000,0.000000,0.000000,0.000000 HandLeft:-0.156589,0.986524,-0.002404,0.047374 HandRight:0.022973,0.467357,-0.501542,0.727671 HandTipLeft:0.000000,0.000000,0.000000,0.000000 HandTipRight:0.000000,0.000000,0.000000,0.000000 Head:0.000000,0.000000,0.000000,0.000000 HipLeft:0.081232,-0.663694,0.734171,-0.117919 HipRight:-0.194096,0.688053,0.667214,-0.209129 KneeLeft:-0.016236,-0.643130,0.027051,0.765106 KneeRight:0.012819,0.766487,0.070233,0.638279 Neck:-0.127131,0.034452,0.989449,-0.060351 ShoulderLeft:0.050453,0.762485,-0.644602,-0.023640 ShoulderRight:-0.116954,0.790762,0.576571,-0.169069 SpineBase:-0.085276,0.030390,0.995622,-0.023259 SpineMid:-0.105586,0.030858,0.993674,-0.022634 SpineShoulder:-0.126786,0.032626,0.990583,-0.040079 ThumbLeft:0.000000,0.000000,0.000000,0.000000 ThumbRight:0.000000,0.000000,0.000000,0.000000 WristLeft:-0.126639,0.987362,-0.090326,0.030341 WristRight:-0.003436,0.464966,-0.463355,0.754385 END:
KINECT_DATA POSITION:9.388650,0.134625,-1.011491 HEAD_JOINT1:0.987487,0.151477,-0.000000,0.043860 LARM_JOINT2:0.819036,0.000000,0.019939,-0.573396 LARM_JOINT3:0.966191,0.000000,-0.201629,-0.160688 LLEG_JOINT2:0.999371,0.030245,0.000000,-0.018543 LLEG_JOINT4:0.997085,0.075825,0.000000,0.008510 RARM_JOINT2:0.807647,0.000000,0.455571,0.374381 RARM_JOINT3:0.938804,0.000000,0.319407,0.128945 RLEG_JOINT2:0.996241,0.057572,0.000000,-0.064721 RLEG_JOINT4:0.995736,0.060360,0.000000,0.069756 WAIST:0.996728,-0.000000,0.075093,0.029904 WAIST_JOINT0:0.993144,-0.000000,0.110894,0.036991 WAIST_JOINT1:0.998837,0.048122,-0.000000,0.002839 END:
KINECT_DATA_Sensor  AnkleLeft:0.078714,0.764686,-0.070323,-0.635700 AnkleRight:0.099133,0.725878,0.068521,0.677184 ElbowLeft:-0.028442,0.822102,-0.212551,-0.527411 ElbowRight:-0.393918,0.908973,0.027899,0.133486 FootLeft:0.000000,0.000000,0.000000,0.000000 FootRight:0.000000,0.000000,0.000000,0.000000 HandLeft:-0.124958,0.812582,-0.076075,0.564188 HandRight:0.033659,0.453024,-0.523975,0.720477 HandTipLeft:0.000000,0.000000,0.000000,0.000000 HandTipRight:0.000000,0.000000,0.000000,0.000000 Head:0.000000,0.000000,0.000000,0.000000 HipLeft:0.083514,-0.666218,0.730719,-0.123406 HipRight:-0.185102,0.687240,0.671808,-0.205213 KneeLeft:-0.013860,-0.650615,0.026796,0.758809 KneeRight:0.009774,0.760036,0.064710,0.646577 Neck:-0.111768,0.031488,0.991282,-0.062259 ShoulderLeft:0.046426,0.764142,-0.643223,-0.013983 ShoulderRight:-0.100036,0.796480,0.575729,-0.155400 SpineBase:-0.075881,0.027211,0.996394,-0.026467 SpineMid:-0.093300,0.027670,0.994914,-0.025987 SpineShoulder:-0.111397,0.030532,0.992408,-0.042256 ThumbLeft:0.000000,0.000000,0.000000,0.000000 ThumbRight:0.000000,0.000000,0.000000,0.000000 WristLeft:-0.061251,0.823168,-0.143063,0.546055 WristRight:0.022301,0.455186,-0.500235,0.736256 END:
KINECT_DATA POSITION:9.405148,0.159502,-1.024532 HEAD_JOINT1:0.986909,0.155373,-0.000000,0.043244 LARM_JOINT2:0.817166,0.000000,0.015107,-0.576204 LARM_JOINT3:0.968792,0.000000,-0.191068,-0.157909 LLEG_JOINT2:0.999396,0.029683,0.000000,-0.018053 LLEG_JOINT4:0.997125,0.075001,0.000000,0.010779 RARM_JOINT2:0.790601,0.000000,0.477593,0.383216 RARM_JOINT3:0.954935,0.000000,0.268037,0.127497 RLEG_JOINT2:0.996188,0.058586,0.000000,-0.064632 RLEG_JOINT4:0.995955,0.058121,0.000000,0.068522 WAIST:0.996586,-0.000000,0.077110,0.029502 WAIST_JOINT0:0.992258,-0.000000,0.119117,0.035153 WAIST_JOINT1:0.998799,0.048921,-0.000000,0.002736 END:
KINECT_DATA_Sensor  AnkleLeft:0.077514,0.773138,-0.070290,-0.625546 AnkleRight:0.099055,0.747743,0.065719,0.653260 ElbowLeft:-0.029476,0.821898,-0.207902,-0.529520 ElbowRight:-0.394634,0.913107,0.008970,0.102072 FootLeft:0.000000,0.000000,0.000000,0.000000 FootRight:0.000000,0.000000,0.000000,0.000000 HandLeft:-0.103105,0.809168,-0.053261,0.576003 HandRight:0.004796,0.481452,-0.472834,0.737977 HandTipLeft:0.000000,0.000000,0.000000,0.000000 HandTipRight:0.000000,0.000000,0.000000,0.000000 Head:0.000000,0.000000,0.000000,0.000000 HipLeft:0.082733,-0.666584,0.730564,-0.122872 HipRight:-0.187091,0.686410,0.671561,-0.206989 KneeLeft:-0.013410,-0.649126,0.026448,0.760103 KneeRight:0.010053,0.761353,0.065682,0.644923 Neck:-0.120127,0.031126,0.990256,-0.063194 ShoulderLeft:0.050662,0.762322,-0.644956,-0.018190 ShoulderRight:-0.107300,0.791540,0.578928,-0.163689 SpineBase:-0.077875,0.027223,0.996238,-0.026548 SpineMid:-0.098433,0.027765,0.994417,-0.025981 SpineShoulder:-0.119767,0.030213,0.991420,-0.042769 ThumbLeft:0.000000,0.000000,0.000000,0.000000 ThumbRight:0.000000,0.000000,0.000000,0.000000 WristLeft:-0.059573,0.817145,-0.142945,0.555241 WristRight:0.010709,0.479889,-0.486207,0.730202 END:
KINECT_DATA POSITION:9.421350,0.141396,-0.983727 HEAD_JOINT1:0.987353,0.153040,-0.000000,0.041386 LARM_JOINT2:0.818089,0.000000,0.014258,-0.574914 LARM_JOINT3:0.969941,0.000000,-0.187133,-0.155548 LLEG_JOINT2:0.999383,0.029020,0.000000,-0.019762 LLEG_JOINT4:0.997058,0.076189,0.000000,0.008354 RARM_JOINT2:0.771202,0.000000,0.504638,0.388058 RARM_JOINT3:0.969410,0.000000,0.211614,0.124354 RLEG_JOINT2:0.995897,0.062151,0.000000,-0.065770 RLEG_JOINT4:0.996363,0.056455,0.000000,0.063828 WAIST:0.995730,-0.000000,0.086563,0.032075 WAIST_JOINT0:0.990267,-0.000000,0.133089,0.040731 WAIST_JOINT1:0.998705,0.050846,-0.000000,0.001739 END:
KINECT_DATA_Sensor  AnkleLeft:0.078377,0.761407,-0.068870,-0.639823 AnkleRight:0.098273,0.768142,0.067729,0.629057 ElbowLeft:-0.025894,0.821810,-0.211546,-0.528399 ElbowRight:-0.398781,0.915912,-0.009598,0.044574 FootLeft:0.000000,0.000000,0.000000,0.000000 FootRight:0.000000,0.000000,0.000000,0.000000 HandLeft:-0.089237,0.873086,-0.055437,0.476114 HandRight:-0.024923,0.508761,-0.417168,0.752670 HandTipLeft:0.000000,0.000000,0.000000,0.000000 HandTipRight:0.000000,0.000000,0.000000,0.000000 Head:0.000000,0.000000,0.000000,0.000000 HipLeft:0.078621,-0.665377,0.732739,-0.119106 HipRight:-0.193960,0.685728,0.668007,-0.214298 KneeLeft:-0.012233,-0.641838,0.026207,0.766294 KneeRight:0.012476,0.767599,0.067209,0.637275 Neck:-0.133753,0.032947,0.988314,-0.065264 ShoulderLeft:0.058571,0.758580,-0.648466,-0.024868 ShoulderRight:-0.117857,0.790939,0.573760,-0.176988 SpineBase:-0.087454,0.027688,0.995424,-0.026760 SpineMid:-0.110025,0.028288,0.993183,-0.026125 SpineShoulder:-0.133445,0.031242,0.989574,-0.044271 ThumbLeft:0.000000,0.000000,0.000000,0.000000 ThumbRight:0.000000,0.000000,0.000000,0.000000 WristLeft:-0.069405,0.874128,-0.134085,0.461631 WristRight:0.006794,0.505813,-0.466887,0.725344 END:
KINECT_DATA POSITION:9.330304,0.227191,-1.098740 HEAD_JOINT1:0.988019,0.149348,-0.000000,0.038917 LARM_JOINT2:0.818668,0.000000,0.009872,-0.574183 LARM_JOINT3:0.970050,0.000000,-0.184250,-0.158287 LLEG_JOINT2:0.999477,0.025591,0.000000,-0.019774 LLEG_JOINT4:0.996723,0.078942,0.000000,0.017646 RARM_JOINT2:0.764973,0.000000,0.504981,0.399764 RARM_JOINT3:0.970906,0.000000,0.206442,0.121338 RLEG_JOINT2:0.995902,0.062478,0.000000,-0.065390 RLEG_JOINT4:0.996230,0.061526,0.000000,0.061161 WAIST:0.994293,-0.000000,0.100918,0.034605 WAIST_JOINT0:0.986911,-0.000000,0.154464,0.046338 WAIST_JOINT1:0.998566,0.053525,-0.000000,0.000914 END:
KINECT_DATA_Sensor  AnkleLeft:0.077765,0.796463,-0.071949,-0.595335 AnkleRight:0.099306,0.767358,0.074127,0.629131 ElbowLeft:-0.023600,0.818299,-0.213843,-0.533011 ElbowRight:-0.388648,0.919962,-0.030137,0.041408 FootLeft:0.000000,0.000000,0.000000,0.000000 FootRight:0.000000,0.000000,0.000000,0.000000 HandLeft:-0.075677,0.779604,-0.065761,0.618196 HandRight:-0.001545,0.555603,-0.421640,0.716605 HandTipLeft:0.000000,0.000000,0.000000,0.000000 HandTipRight:0.000000,0.000000,0.000000,0.000000 Head:0.000000,0.000000,0.000000,0.000000 HipLeft:0.067333,-0.664422,0.736001,-0.110959 HipRight:-0.198188,0.684659,0.665303,-0.222116 KneeLeft:-0.007840,-0.630822,0.025314,0.775475 KneeRight:0.013449,0.776806,0.065272,0.626203 Neck:-0.154806,0.034545,0.985005,-0.067872 ShoulderLeft:0.068277,0.754546,-0.651822,-0.033564 ShoulderRight:-0.137106,0.788177,0.566033,-0.198960 SpineBase:-0.102014,0.027683,0.993972,-0.029092 SpineMid:-0.127825,0.028430,0.990983,-0.028363 SpineShoulder:-0.154562,0.032262,0.986364,-0.046440 ThumbLeft:0.000000,0.000000,0.000000,0.000000 ThumbRight:0.000000,0.000000,0.000000,0.000000 WristLeft:-0.041171,0.784526,-0.144036,0.601728 WristRight:-0.007866,0.543164,-0.462800,0.700519 END:
KINECT_DATA POSITION:8.840071,0.341228,-1.389611 HEAD_JOINT1:0.988368,0.147885,-0.000000,0.035472 LARM_JOINT2:0.826636,0.000000,0.028273,-0.562026 LARM_JOINT3:0.965602,0.000000,-0.195822,-0.171072 LLEG_JOINT2:0.999826,0.017978,0.000000,-0.004994 LLEG_JOINT4:0.996524,0.083151,0.000000,0.005168 RARM_JOINT2:0.767860,0.000000,0.512214,0.384744 RARM_JOINT3:0.966753,0.000000,0.215126,0.138234 RLEG_JOINT2:0.996846,0.061418,0.000000,-0.050252 RLEG_JOINT4:0.996480,0.061891,0.000000,0.056549 WAIST:0.992531,-0.000000,0.119000,0.026852 WAIST_JOINT0:0.985659,-0.000000,0.161649,0.048431 WAIST_JOINT1:0.998417,0.055624,-0.000000,0.008281 END:
KINECT_DATA_Sensor  AnkleLeft:0.075820,0.760379,-0.067376,-0.641511 AnkleRight:0.101313,0.790500,0.071940,0.599726 ElbowLeft:-0.008497,0.804075,-0.232943,-0.546926 ElbowRight:-0.399203,0.916530,-0.013745,-0.020496 FootLeft:0.000000,0.000000,0.000000,0.000000 FootRight:0.000000,0.000000,0.000000,0.000000 HandLeft:-0.055210,0.782075,-0.071557,0.616595 HandRight:0.023425,0.545239,-0.443534,0.710946 HandTipLeft:0.000000,0.000000,0.000000,0.000000 HandTipRight:0.000000,0.000000,0.000000,0.000000 Head:0.000000,0.000000,0.000000,0.000000 HipLeft:0.054162,-0.671599,0.731529,-0.104335 HipRight:-0.206652,0.676099,0.667063,-0.234972 KneeLeft:0.001768,-0.617297,0.026164,0.786293 KneeRight:0.017560,0.787575,0.060329,0.613007 Neck:-0.160205,0.033126,0.983952,-0.071237 ShoulderLeft:0.063803,0.761222,-0.644663,-0.029663 ShoulderRight:-0.148798,0.791285,0.554137,-0.211329 SpineBase:-0.119781,0.024477,0.991928,-0.033660 SpineMid:-0.139601,0.025145,0.989333,-0.033164 SpineShoulder:-0.160115,0.029852,0.985391,-0.049773 ThumbLeft:0.000000,0.000000,0.000000,0.000000 ThumbRight:0.000000,0.000000,0.000000,0.000000 WristLeft:-0.035490,0.783453,-0.146236,0.602956 WristRight:0.028109,0.545670,-0.454569,0.703436 END:
KINECT_DATA POSITION:8.587747,0.326299,-1.444888 HEAD_JOINT1:0.988369,0.148714,-0.000000,0.031786 LARM_JOINT2:0.825173,0.000000,0.025329,-0.564311 LARM_JOINT3:0.966051,0.000000,-0.198403,-0.165474 LLEG_JOINT2:0.999851,0.017101,0.000000,0.002402 LLEG_JOINT4:0.996330,0.085410,0.000000,0.005600 RARM_JOINT2:0.763793,0.000000,0.518350,0.384621 RARM_JOINT3:0.969328,0.000000,0.214221,0.120464 RLEG_JOINT2:0.997230,0.060566,0.000000,-0.043170 RLEG_JOINT4:0.996347,0.063275,0.000000,0.057357 WAIST:0.992080,-0.000000,0.123639,0.022157 WAIST_JOINT0:0.986163,-0.000000,0.157562,0.051544 WAIST_JOINT1:0.998363,0.055949,-0.000000,0.011899 END:
KINECT_DATA_Sensor  AnkleLeft:0.078152,0.773047,-0.068706,-0.625756 AnkleRight:0.102648,0.780773,0.073218,0.611961 ElbowLeft:-0.009933,0.797339,-0.228939,-0.558336 ElbowRight:-0.400312,0.915884,-0.025771,-0.015593 FootLeft:0.000000,0.000000,0.000000,0.000000 FootRight:0.000000,0.000000,0.000000,0.000000 HandLeft:-0.072509,0.803200,-0.078580,0.586035 HandRight:0.024300,0.526348,-0.468301,0.709268 HandTipLeft:0.000000,0.000000,0.000000,0.000000 HandTipRight:0.000000,0.000000,0.000000,0.000000 Head:0.000000,0.000000,0.000000,0.000000 HipLeft:0.052013,-0.675081,0.728634,-0.103214 HipRight:-0.210953,0.672154,0.668744,-0.237674 KneeLeft:0.003642,-0.613878,0.028062,0.788893 KneeRight:0.018932,0.790180,0.058613,0.609772 Neck:-0.158026,0.031183,0.984316,-0.071962 ShoulderLeft:0.077486,0.756654,-0.648164,-0.036804 ShoulderRight:-0.130233,0.795139,0.556823,-0.201845 SpineBase:-0.124100,0.024124,0.991395,-0.033956 SpineMid:-0.140734,0.024691,0.989171,-0.033546 SpineShoulder:-0.157953,0.028179,0.985731,-0.050901 ThumbLeft:0.000000,0.000000,0.000000,0.000000 ThumbRight:0.000000,0.000000,0.000000,0.000000 WristLeft:-0.036539,0.806575,-0.147281,0.571323 WristRight:0.029156,0.531937,-0.457538,0.711936 END:
KINECT_DATA POSITION:8.511657,0.402914,-1.656258 HEAD_JOINT1:0.987397,0.155016,-0.000000,0.031901 LARM_JOINT2:0.826893,0.000000,0.034987,-0.561270 LARM_JOINT3:0.959032,0.000000,-0.219588,-0.178993 LLEG_JOINT2:0.999839,0.017924,0.000000,-0.000438 LLEG_JOINT4:0.996393,0.084686,0.000000,0.005448 RARM_JOINT2:0.789819,0.000000,0.482786,0.378290 RARM_JOINT3:0.947414,0.000000,0.297892,0.116904 RLEG_JOINT2:0.997405,0.055510,0.000000,-0.045853 RLEG_JOINT4:0.996200,0.064740,0.000000,0.058264 WAIST:0.993543,-0.000000,0.110908,0.023913 WAIST_JOINT0:0.990090,-0.000000,0.132747,0.045835 WAIST_JOINT1:0.998352,0.056679,-0.000000,0.008931 END:
KINECT_DATA_Sensor  AnkleLeft:0.077886,0.780483,-0.068759,-0.616484 AnkleRight:0.100030,0.760775,0.071162,0.637300 ElbowLeft:-0.007206,0.798853,-0.233787,-0.554189 ElbowRight:-0.392978,0.917448,-0.001779,0.062084 FootLeft:0.000000,0.000000,0.000000,0.000000 FootRight:0.000000,0.000000,0.000000,0.000000 HandLeft:-0.137000,0.783556,-0.095016,0.598535 HandRight:-0.065125,-0.456988,0.585098,-0.666769 HandTipLeft:0.000000,0.000000,0.000000,0.000000 HandTipRight:0.000000,0.000000,0.000000,0.000000 Head:0.000000,0.000000,0.000000,0.000000 HipLeft:0.057364,-0.673430,0.729054,-0.108080 HipRight:-0.201573,0.676294,0.670271,-0.229633 KneeLeft:0.002632,-0.623819,0.027750,0.781071 KneeRight:0.015851,0.782353,0.055061,0.620194 Neck:-0.133111,0.029337,0.988011,-0.072492 ShoulderLeft:0.065877,0.759895,-0.646344,-0.021430 ShoulderRight:-0.108771,0.795666,0.568134,-0.179745 SpineBase:-0.111508,0.024304,0.992886,-0.033940 SpineMid:-0.122001,0.024662,0.991652,-0.033681 SpineShoulder:-0.132958,0.027125,0.989403,-0.051654 ThumbLeft:0.000000,0.000000,0.000000,0.000000 ThumbRight:0.000000,0.000000,0.000000,0.000000 WristLeft:-0.038625,0.799689,-0.147325,0.580777 WristRight:0.054672,0.478575,-0.480712,0.732729 END:
KINECT_DATA POSITION:8.531155,0.417249,-1.719725 HEAD_JOINT1:0.986528,0.158617,-0.000000,0.040051 LARM_JOINT2:0.824092,0.000000,0.024452,-0.565929 LARM_JOINT3:0.959844,0.000000,-0.219956,-0.174122 LLEG_JOINT2:0.999814,0.018868,0.000000,-0.003933 LLEG_JOINT4:0.996637,0.081761,0.000000,0.005542 RARM_JOINT2:0.827080,0.000000,0.446242,0.341770 RARM_JOINT3:0.914154,0.000000,0.361506,0.183403 RLEG_JOINT2:0.997343,0.052804,0.000000,-0.050191 RLEG_JOINT4:0.995958,0.066522,0.000000,0.060357 WAIST:0.994583,-0.000000,0.100696,0.025771 WAIST_JOINT0:0.991530,-0.000000,0.122366,0.043539 WAIST_JOINT1:0.998464,0.055004,-0.000000,0.006601 END:
KINECT_DATA_Sensor  AnkleLeft:0.075211,0.778872,-0.068358,-0.618893 AnkleRight:0.101683,0.770408,0.067102,0.625803 ElbowLeft:-0.016384,0.807884,-0.224784,-0.544543 ElbowRight:-0.404017,0.909795,0.076231,0.056850 FootLeft:0.000000,0.000000,0.000000,0.000000 FootRight:0.000000,0.000000,0.000000,0.000000 HandLeft:0.110939,-0.662686,-0.141380,0.727016 HandRight:-0.002473,-0.500363,0.567501,-0.653891 HandTipLeft:0.000000,0.000000,0.000000,0.000000 HandTipRight:0.000000,0.000000,0.000000,0.000000 Head:0.000000,0.000000,0.000000,0.000000 HipLeft:0.062947,-0.671778,0.729593,-0.111563 HipRight:-0.195743,0.679733,0.670708,-0.223156 KneeLeft:0.001119,-0.631675,0.027100,0.774759 KneeRight:0.012828,0.776031,0.054411,0.628212 Neck:-0.123023,0.029383,0.989476,-0.070285 ShoulderLeft:0.058369,0.760849,-0.646113,-0.015472 ShoulderRight:-0.103113,0.796460,0.570989,-0.170265 SpineBase:-0.101409,0.024678,0.994003,-0.032638 SpineMid:-0.111879,0.025020,0.992879,-0.032376 SpineShoulder:-0.122820,0.027445,0.990798,-0.049803 ThumbLeft:0.000000,0.000000,0.000000,0.000000 ThumbRight:0.000000,0.000000,0.000000,0.000000 WristLeft:0.151837,-0.648099,-0.037017,0.745348 WristRight:0.037539,0.564427,-0.492448,0.661444 END:
KINECT_DATA POSITION:8.690574,0.316292,-1.625967 HEAD_JOINT1:0.986049,0.159627,-0.000000,0.047192 LARM_JOINT2:0.821930,0.000000,0.018566,-0.569286 LARM_JOINT3:0.965319,0.000000,-0.202534,-0.164741 LLEG_JOINT2:0.999682,0.023159,0.000000,-0.009994 LLEG_JOINT4:0.996863,0.078781,0.000000,0.007590 RARM_JOINT2:0.800483,0.000000,0.480776,0.357885 RARM_JOINT3:0.948272,0.000000,0.266822,0.172003 RLEG_JOINT2:0.996917,0.054582,0.000000,-0.056369 RLEG_JOINT4:0.996047,0.063902,0.000000,0.061702 WAIST:0.995481,-0.000000,0.090563,0.028546 WAIST_JOINT0:0.991621,-0.000000,0.122239,0.041785 WAIST_JOINT1:0.998545,0.053806,-0.000000,0.003501 END:
KINECT_DATA_Sensor  AnkleLeft:0.075318,0.777022,-0.069642,-0.621059 AnkleRight:0.099770,0.759566,0.067461,0.639183 ElbowLeft:-0.022430,0.814844,-0.218520,-0.536447 ElbowRight:-0.405667,0.912384,0.052475,0.015333 FootLeft:0.000000,0.000000,0.000000,0.000000 FootRight:0.000000,0.000000,0.000000,0.000000 HandLeft:-0.086412,0.714896,0.090054,-0.688002 HandRight:-0.049141,0.529595,-0.439283,0.723978 HandTipLeft:0.000000,0.000000,0.000000,0.000000 HandTipRight:0.000000,0.000000,0.000000,0.000000 Head:0.000000,0.000000,0.000000,0.000000 HipLeft:0.072453,-0.669089,0.730099,-0.118434 HipRight:-0.193812,0.683115,0.669311,-0.218662 KneeLeft:-0.003994,-0.639235,0.027324,0.768515 KneeRight:0.011941,0.769816,0.057825,0.635529 Neck:-0.122968,0.030599,0.989609,-0.067949 ShoulderLeft:0.057261,0.759187,-0.648152,-0.015982 ShoulderRight:-0.104703,0.793497,0.575052,-0.169452 SpineBase:-0.091373,0.026486,0.994995,-0.030580 SpineMid:-0.106729,0.026956,0.993465,-0.030167 SpineShoulder:-0.122784,0.028192,0.990861,-0.048197 ThumbLeft:0.000000,0.000000,0.000000,0.000000 ThumbRight:0.000000,0.000000,0.000000,0.000000 WristLeft:0.153377,-0.692011,-0.031763,0.704690 WristRight:0.019603,0.558768,-0.464588,0.686696 END:
KINECT_DATA POSITION:9.028233,0.008950,-1.254272 HEAD_JOINT1:0.985665,0.161729,-0.000000,0.048040 LARM_JOINT2:0.823014,0.000000,0.029530,-0.567253 LARM_JOINT3:0.965404,0.000000,-0.199292,-0.168162 LLEG_JOINT2:0.999388,0.029655,0.000000,-0.018578 LLEG_JOINT4:0.997244,0.073365,0.000000,0.011009 RARM_JOINT2:0.782635,0.000000,0.491309,0.382226 RARM_JOINT3:0.968617,0.000000,0.203628,0.142539 RLEG_JOINT2:0.995960,0.059414,0.000000,-0.067331 RLEG_JOINT4:0.995718,0.062683,0.000000,0.067950 WAIST:0.995700,-0.000000,0.086126,0.034102 WAIST_JOINT0:0.991978,-0.000000,0.119217,0.042032 WAIST_JOINT1:0.998645,0.052033,0.000000,-0.000606 END:
KINECT_DATA_Sensor  AnkleLeft:0.077135,0.794402,-0.068807,-0.598533 AnkleRight:0.103422,0.762490,0.067961,0.635055 ElbowLeft:-0.018406,0.815273,-0.224271,-0.533568 ElbowRight:-0.396618,0.917539,0.022947,0.016998 FootLeft:0.000000,0.000000,0.000000,0.000000 FootRight:0.000000,0.000000,0.000000,0.000000 HandLeft:0.069370,-0.642845,-0.085222,0.758073 HandRight:-0.091208,0.528868,-0.375557,0.755603 HandTipLeft:0.000000,0.000000,0.000000,0.000000 HandTipRight:0.000000,0.000000,0.000000,0.000000 Head:0.000000,0.000000,0.000000,0.000000 HipLeft:0.079496,-0.664212,0.733424,-0.120798 HipRight:-0.195386,0.687321,0.665831,-0.214670 KneeLeft:-0.010518,-0.642090,0.028967,0.766010 KneeRight:0.010979,0.767450,0.064695,0.637742 Neck:-0.119694,0.032099,0.990037,-0.066858 ShoulderLeft:0.051071,0.759535,-0.648315,-0.013652 ShoulderRight:-0.106826,0.794286,0.574441,-0.166478 SpineBase:-0.087050,0.030290,0.995388,-0.026597 SpineMid:-0.102768,0.030707,0.993888,-0.026115 SpineShoulder:-0.119405,0.030128,0.991338,-0.045643 ThumbLeft:0.000000,0.000000,0.000000,0.000000 ThumbRight:0.000000,0.000000,0.000000,0.000000 WristLeft:0.147536,-0.624839,-0.041182,0.765580 WristRight:-0.011837,0.562244,-0.451626,0.692658 END:
KINECT_DATA POSITION:9.144409,-0.095332,-1.075315 HEAD_JOINT1:0.985448,0.163202,-0.000000,0.047518 LARM_JOINT2:0.818982,0.000000,0.025005,-0.573274 LARM_JOINT3:0.967474,0.000000,-0.194117,-0.162215 LLEG_JOINT2:0.999245,0.032242,0.000000,-0.021658 LLEG_JOINT4:0.997451,0.070600,0.000000,0.010318 RARM_JOINT2:0.775838,0.000000,0.488072,0.399828 RARM_JOINT3:0.976671,0.000000,0.181899,0.114132 RLEG_JOINT2:0.995623,0.061310,0.000000,-0.070538 RLEG_JOINT4:0.995717,0.063607,0.000000,0.067097 WAIST:0.995644,-0.000000,0.085895,0.036262 WAIST_JOINT0:0.991395,-0.000000,0.122618,0.045839 WAIST_JOINT1:0.998653,0.051884,0.000000,-0.000833 END:
KINECT_DATA_Sensor  AnkleLeft:0.073964,0.762657,-0.071122,-0.638613 AnkleRight:0.104095,0.765892,0.070583,0.630548 ElbowLeft:-0.020755,0.815084,-0.217944,-0.536383 ElbowRight:-0.384785,0.921995,0.000049,0.043203 FootLeft:0.000000,0.000000,0.000000,0.000000 FootRight:0.000000,0.000000,0.000000,0.000000 HandLeft:0.056415,-0.553957,-0.091419,0.825585 HandRight:-0.098178,0.519958,-0.378318,0.759526 HandTipLeft:0.000000,0.000000,0.000000,0.000000 HandTipRight:0.000000,0.000000,0.000000,0.000000 Head:0.000000,0.000000,0.000000,0.000000 HipLeft:0.079623,-0.662303,0.735017,-0.121510 HipRight:-0.195198,0.688331,0.664722,-0.215040 KneeLeft:-0.012947,-0.642018,0.029808,0.766001 KneeRight:0.011303,0.767469,0.066689,0.637507 Neck:-0.124168,0.034200,0.989447,-0.066385 ShoulderLeft:0.061022,0.754015,-0.653654,-0.021767 ShoulderRight:-0.102374,0.795585,0.573878,-0.165008 SpineBase:-0.086929,0.031219,0.995358,-0.027049 SpineMid:-0.104939,0.031703,0.993621,-0.026479 SpineShoulder:-0.123834,0.032335,0.990742,-0.045286 ThumbLeft:0.000000,0.000000,0.000000,0.000000 ThumbRight:0.000000,0.000000,0.000000,0.000000 WristLeft:0.141504,-0.535688,-0.055495,0.830623 WristRight:-0.018974,0.528243,-0.444323,0.723310 END:
KINECT_DATA POSITION:9.211731,-0.182977,-0.974572 HEAD_JOINT1:0.985076,0.165409,-0.000000,0.047594 LARM_JOINT2:0.820366,0.000000,0.032659,-0.570906 LARM_JOINT3:0.965228,0.000000,-0.203740,-0.163781 LLEG_JOINT2:0.999185,0.032833,0.000000,-0.023482 LLEG_JOINT4:0.997404,0.071351,0.000000,0.009725 RARM_JOINT2:0.774099,0.000000,0.508037,0.377715 RARM_JOINT3:0.977609,0.000000,0.162360,0.133867 RLEG_JOINT2:0.995409,0.063208,0.000000,-0.071878 RLEG_JOINT4:0.995728,0.061556,0.000000,0.068824 WAIST:0.995694,-0.000000,0.084791,0.037466 WAIST_JOINT0:0.991996,-0.000000,0.117785,0.045498 WAIST_JOINT1:0.998641,0.052091,0.000000,-0.001308 END:
KINECT_DATA_Sensor  AnkleLeft:0.075266,0.760261,-0.071142,-0.641309 AnkleRight:0.104527,0.758911,0.070310,0.638894 ElbowLeft:-0.016765,0.813415,-0.223349,-0.536834 ElbowRight:-0.403687,0.912731,0.036550,-0.051210 FootLeft:0.000000,0.000000,0.000000,0.000000 FootRight:0.000000,0.000000,0.000000,0.000000 HandLeft:0.076010,-0.536511,-0.104748,0.833910 HandRight:-0.088403,0.482779,-0.401201,0.773400 HandTipLeft:0.000000,0.000000,0.000000,0.000000 HandTipRight:0.000000,0.000000,0.000000,0.000000 Head:0.000000,0.000000,0.000000,0.000000 HipLeft:0.079715,-0.661203,0.735884,-0.122190 HipRight:-0.193994,0.689122,0.664396,-0.214604 KneeLeft:-0.013717,-0.642769,0.029688,0.765362 KneeRight:0.012463,0.766865,0.068165,0.638056 Neck:-0.119214,0.034620,0.990031,-0.066548 ShoulderLeft:0.056357,0.755399,-0.652619,-0.016888 ShoulderRight:-0.100624,0.796609,0.573554,-0.162248 SpineBase:-0.085902,0.031627,0.995420,-0.027563 SpineMid:-0.101958,0.032068,0.993904,-0.027049 SpineShoulder:-0.118849,0.032957,0.991317,-0.045595 ThumbLeft:0.000000,0.000000,0.000000,0.000000 ThumbRight:0.000000,0.000000,0.000000,0.000000 WristLeft:0.140178,-0.521097,-0.056575,0.840005 WristRight:0.005134,0.507974,-0.420992,0.751467 END:
KINECT_DATA POSITION:9.196296,-0.201683,-0.955176 HEAD_JOINT1:0.985127,0.165349,-0.000000,0.046744 LARM_JOINT2:0.817761,0.000000,0.026473,-0.574949 LARM_JOINT3:0.965509,0.000000,-0.206268,-0.158889 LLEG_JOINT2:0.999220,0.032210,0.000000,-0.022836 LLEG_JOINT4:0.997394,0.070856,0.000000,0.013603 RARM_JOINT2:0.783636,0.000000,0.502670,0.365018 RARM_JOINT3:0.972775,0.000000,0.199100,0.118609 RLEG_JOINT2:0.995508,0.062456,0.000000,-0.071149 RLEG_JOINT4:0.995666,0.061637,0.000000,0.069638 WAIST:0.995818,-0.000000,0.083577,0.036904 WAIST_JOINT0:0.991480,-0.000000,0.121974,0.045711 WAIST_JOINT1:0.998642,0.052090,0.000000,-0.001208 END:
KINECT_DATA_Sensor  AnkleLeft:0.075194,0.786077,-0.071200,-0.609393 AnkleRight:0.104296,0.751646,0.070149,0.647479 ElbowLeft:-0.020880,0.812363,-0.216667,-0.541004 ElbowRight:-0.409532,0.911027,0.042046,-0.023346 FootLeft:0.000000,0.000000,0.000000,0.000000 FootRight:0.000000,0.000000,0.000000,0.000000 HandLeft:0.089063,-0.581854,-0.119780,0.799478 HandRight:-0.092538,0.447885,-0.495039,0.738764 HandTipLeft:0.000000,0.000000,0.000000,0.000000 HandTipRight:0.000000,0.000000,0.000000,0.000000 Head:0.000000,0.000000,0.000000,0.000000 HipLeft:0.080341,-0.661353,0.735579,-0.122809 HipRight:-0.192939,0.688894,0.665185,-0.213844 KneeLeft:-0.013219,-0.643763,0.029431,0.764544 KneeRight:0.012248,0.766028,0.067535,0.639132 Neck:-0.123812,0.034419,0.989492,-0.066261 ShoulderLeft:0.059370,0.753979,-0.653901,-0.020095 ShoulderRight:-0.103763,0.795704,0.573219,-0.165856 SpineBase:-0.084677,0.031143,0.995536,-0.027730 SpineMid:-0.103627,0.031666,0.993742,-0.027131 SpineShoulder:-0.123449,0.032891,0.990763,-0.045466 ThumbLeft:0.000000,0.000000,0.000000,0.000000 ThumbRight:0.000000,0.000000,0.000000,0.000000 WristLeft:0.144575,-0.565870,-0.049966,0.810181 WristRight:-0.005813,0.502850,-0.432287,0.748489 END:
KINECT_DATA POSITION:8.797788,-0.018150,-1.136017 HEAD_JOINT1:0.986048,0.160606,-0.000000,0.043755 LARM_JOINT2:0.817582,0.000000,0.017547,-0.575545 LARM_JOINT3:0.964959,0.000000,-0.208439,-0.159398 LLEG_JOINT2:0.999619,0.026699,0.000000,-0.006966 LLEG_JOINT4:0.996965,0.077428,0.000000,0.008085 RARM_JOINT2:0.786863,0.000000,0.510020,0.347457 RARM_JOINT3:0.971817,0.000000,0.226435,0.065558 RLEG_JOINT2:0.997053,0.055467,0.000000,-0.053002 RLEG_JOINT4:0.995730,0.067391,0.000000,0.063082 WAIST:0.996211,-0.000000,0.083256,0.025154 WAIST_JOINT0:0.991023,-0.000000,0.126798,0.042367 WAIST_JOINT1:0.998696,0.050669,-0.000000,0.006167 END:
KINECT_DATA_Sensor  AnkleLeft:0.080475,0.810505,-0.067756,-0.576207 AnkleRight:0.104327,0.753026,0.069694,0.645918 ElbowLeft:-0.026423,0.813894,-0.209250,-0.541380 ElbowRight:-0.426623,0.898135,-0.009839,0.106060 FootLeft:0.000000,0.000000,0.000000,0.000000 FootRight:0.000000,0.000000,0.000000,0.000000 HandLeft:-0.021281,0.019815,-0.163638,0.986092 HandRight:-0.047330,0.414788,-0.514276,0.749154 HandTipLeft:0.000000,0.000000,0.000000,0.000000 HandTipRight:0.000000,0.000000,0.000000,0.000000 Head:0.000000,0.000000,0.000000,0.000000 HipLeft:0.078463,-0.669302,0.728753,-0.121644 HipRight:-0.190502,0.681552,0.673918,-0.212204 KneeLeft:-0.007092,-0.644827,0.029700,0.763719 KneeRight:0.013267,0.764972,0.058778,0.641239 Neck:-0.128678,0.029440,0.989133,-0.064737 ShoulderLeft:0.059341,0.755107,-0.652551,-0.021659 ShoulderRight:-0.110409,0.791997,0.575430,-0.171555 SpineBase:-0.083866,0.025468,0.995733,-0.028889 SpineMid:-0.105733,0.026097,0.993648,-0.028322 SpineShoulder:-0.128320,0.029225,0.990284,-0.044914 ThumbLeft:0.000000,0.000000,0.000000,0.000000 ThumbRight:0.000000,0.000000,0.000000,0.000000 WristLeft:0.081945,0.039168,-0.133985,0.986813 WristRight:-0.024374,0.432411,-0.492976,0.754587 END:
KINECT_DATA POSITION:8.473355,0.085184,-1.391840 HEAD_JOINT1:0.987103,0.154936,-0.000000,0.040272 LARM_JOINT2:0.817177,0.000000,0.007889,-0.576332 LARM_JOINT3:0.968558,0.000000,-0.197755,-0.150955 LLEG_JOINT2:0.999813,0.019020,0.000000,0.003587 LLEG_JOINT4:0.996212,0.086897,0.000000,0.003172 RARM_JOINT2:0.793755,0.000000,0.526273,0.304942 RARM_JOINT3:0.974787,0.000000,0.216284,0.054876 RLEG_JOINT2:0.997789,0.051684,0.000000,-0.041775 RLEG_JOINT4:0.995635,0.070864,0.000000,0.060735 WAIST:0.995933,-0.000000,0.088104,0.018850 WAIST_JOINT0:0.990674,-0.000000,0.129933,0.041018 WAIST_JOINT1:0.998668,0.050856,-0.000000,0.008751 END:
KINECT_DATA_Sensor  AnkleLeft:0.080678,0.786467,-0.070605,-0.608256 AnkleRight:0.104781,0.743925,0.070604,0.656211 ElbowLeft:-0.029946,0.813987,-0.202463,-0.543634 ElbowRight:-0.459696,0.882316,-0.002642,0.100951 FootLeft:0.000000,0.000000,0.000000,0.000000 FootRight:0.000000,0.000000,0.000000,0.000000 HandLeft:0.082222,-0.637888,-0.108460,0.758007 HandRight:-0.087872,0.435087,-0.517183,0.731778 HandTipLeft:0.000000,0.000000,0.000000,0.000000 HandTipRight:0.000000,0.000000,0.000000,0.000000 Head:0.000000,0.000000,0.000000,0.000000 HipLeft:0.074542,-0.674817,0.724647,-0.118124 HipRight:-0.191319,0.677002,0.677248,-0.215408 KneeLeft:0.001045,-0.641643,0.028286,0.766481 KneeRight:0.014582,0.767606,0.053100,0.638552 Neck:-0.131895,0.025256,0.988787,-0.065312 ShoulderLeft:0.060794,0.756712,-0.650518,-0.022756 ShoulderRight:-0.112963,0.791336,0.574646,-0.175523 SpineBase:-0.088473,0.021136,0.995411,-0.029725 SpineMid:-0.109731,0.021767,0.993292,-0.029266 SpineShoulder:-0.131608,0.025250,0.989932,-0.045568 ThumbLeft:0.000000,0.000000,0.000000,0.000000 ThumbRight:0.000000,0.000000,0.000000,0.000000 WristLeft:0.150301,-0.619883,-0.048381,0.768645 WristRight:-0.067552,0.448170,-0.508521,0.732111 END:
KINECT_DATA POSITION:8.412888,0.121816,-1.559687 HEAD_JOINT1:0.986964,0.156078,-0.000000,0.039273 LARM_JOINT2:0.817373,0.000000,0.004002,-0.576095 LARM_JOINT3:0.968332,0.000000,-0.200535,-0.148726 LLEG_JOINT2:0.999857,0.015435,0.000000,0.006968 LLEG_JOINT4:0.995932,0.090092,0.000000,0.001489 RARM_JOINT2:0.800658,0.000000,0.542915,0.253355 RARM_JOINT3:0.978101,0.000000,0.199804,0.058277 RLEG_JOINT2:0.998062,0.048607,0.000000,-0.038841 RLEG_JOINT4:0.995691,0.069127,0.000000,0.061818 WAIST:0.995798,-0.000000,0.090152,0.016099 WAIST_JOINT0:0.990540,-0.000000,0.130892,0.041203 WAIST_JOINT1:0.998634,0.051407,-0.000000,0.009395 END:
KINECT_DATA_Sensor  AnkleLeft:0.079275,0.768701,-0.071569,-0.630629 AnkleRight:0.102891,0.746593,0.066275,0.653926 ElbowLeft:-0.030982,0.813811,-0.199953,-0.544767 ElbowRight:-0.497717,0.863375,0.013915,0.081652 FootLeft:0.000000,0.000000,0.000000,0.000000 FootRight:0.000000,0.000000,0.000000,0.000000 HandLeft:0.095756,-0.650402,-0.113566,0.744923 HandRight:-0.104340,0.452312,-0.509369,0.724617 HandTipLeft:0.000000,0.000000,0.000000,0.000000 HandTipRight:0.000000,0.000000,0.000000,0.000000 Head:0.000000,0.000000,0.000000,0.000000 HipLeft:0.072576,-0.677443,0.722764,-0.115828 HipRight:-0.191834,0.675377,0.678559,-0.215927 KneeLeft:0.003984,-0.640257,0.026617,0.767690 KneeRight:0.012772,0.768751,0.050809,0.637399 Neck:-0.132587,0.023446,0.988666,-0.066413 ShoulderLeft:0.060452,0.758258,-0.648771,-0.022054 ShoulderRight:-0.114066,0.792107,0.572775,-0.177437 SpineBase:-0.090398,0.019598,0.995274,-0.029550 SpineMid:-0.111070,0.020208,0.993180,-0.029136 SpineShoulder:-0.132389,0.022802,0.989858,-0.046195 ThumbLeft:0.000000,0.000000,0.000000,0.000000 ThumbRight:0.000000,0.000000,0.000000,0.000000 WristLeft:0.151490,-0.634626,-0.046919,0.756373 WristRight:-0.110372,0.446873,-0.518773,0.720414 END:
KINECT_DATA POSITION:8.399732,0.157781,-1.654863 HEAD_JOINT1:0.987176,0.154813,-0.000000,0.038942 LARM_JOINT2:0.818219,0.000000,0.001252,-0.574906 LARM_JOINT3:0.968068,0.000000,-0.204175,-0.145454 LLEG_JOINT2:0.999872,0.013695,0.000000,0.008304 LLEG_JOINT4:0.995775,0.091825,0.000000,0.000635 RARM_JOINT2:0.811945,0.000000,0.544068,0.211507 RARM_JOINT3:0.975514,0.000000,0.202642,0.085492 RLEG_JOINT2:0.998181,0.047079,0.000000,-0.037651 RLEG_JOINT4:0.995500,0.070065,0.000000,0.063798 WAIST:0.995780,-0.000000,0.090538,0.014976 WAIST_JOINT0:0.990573,-0.000000,0.130614,0.041300 WAIST_JOINT1:0.998597,0.051887,-0.000000,0.010569 END:
KINECT_DATA_Sensor  AnkleLeft:0.079872,0.770034,-0.070824,-0.629009 AnkleRight:0.102563,0.730627,0.067156,0.671681 ElbowLeft:-0.032612,0.814876,-0.200707,-0.542798 ElbowRight:-0.516206,0.849899,0.101181,-0.031071 FootLeft:0.000000,0.000000,0.000000,0.000000 FootRight:0.000000,0.000000,0.000000,0.000000 HandLeft:0.107268,-0.617112,-0.113449,0.771230 HandRight:-0.125392,0.447943,-0.532114,0.707445 HandTipLeft:0.000000,0.000000,0.000000,0.000000 HandTipRight:0.000000,0.000000,0.000000,0.000000 Head:0.000000,0.000000,0.000000,0.000000 HipLeft:0.071663,-0.678379,0.722044,-0.115413 HipRight:-0.191809,0.674803,0.679201,-0.215722 KneeLeft:0.005375,-0.640055,0.025736,0.767879 KneeRight:0.011886,0.768946,0.049669,0.637271 Neck:-0.132598,0.023635,0.988618,-0.067038 ShoulderLeft:0.060100,0.758358,-0.648721,-0.021043 ShoulderRight:-0.114509,0.792585,0.571742,-0.178350 SpineBase:-0.090714,0.019705,0.995239,-0.029708 SpineMid:-0.111235,0.020314,0.993155,-0.029295 SpineShoulder:-0.132421,0.022732,0.989828,-0.046779 ThumbLeft:0.000000,0.000000,0.000000,0.000000 ThumbRight:0.000000,0.000000,0.000000,0.000000 WristLeft:0.151154,-0.604489,-0.055896,0.780142 WristRight:-0.111196,0.464959,-0.492111,0.727513 END:
KINECT_DATA POSITION:8.239213,0.297669,-1.952374 HEAD_JOINT1:0.987709,0.151724,-0.000000,0.037567 LARM_JOINT2:0.819226,0.000000,-0.007577,-0.573421 LARM_JOINT3:0.969505,0.000000,-0.194181,-0.149514 LLEG_JOINT2:0.999914,0.008308,0.000000,0.010118 LLEG_JOINT4:0.995475,0.095019,0.000000,-0.000612 RARM_JOINT2:0.805590,0.000000,0.555593,0.205771 RARM_JOINT3:0.969148,0.000000,0.234790,0.075006 RLEG_JOINT2:0.998230,0.047348,0.000000,-0.035999 RLEG_JOINT4:0.995562,0.068660,0.000000,0.064351 WAIST:0.995052,-0.000000,0.098233,0.014870 WAIST_JOINT0:0.990136,-0.000000,0.133845,0.041434 WAIST_JOINT1:0.998486,0.053700,-0.000000,0.011938 END:
KINECT_DATA_Sensor  AnkleLeft:0.079336,0.775558,-0.068222,-0.622545 AnkleRight:0.101528,0.721360,0.067917,0.681703 ElbowLeft:-0.034729,0.817950,-0.201893,-0.537578 ElbowRight:-0.527992,0.847671,0.044519,0.026392 FootLeft:0.000000,0.000000,0.000000,0.000000 FootRight:0.000000,0.000000,0.000000,0.000000 HandLeft:0.081228,-0.609775,-0.096241,0.782505 HandRight:0.053219,-0.478189,0.552207,-0.680860 HandTipLeft:0.000000,0.000000,0.000000,0.000000 HandTipRight:0.000000,0.000000,0.000000,0.000000 Head:0.000000,0.000000,0.000000,0.000000 HipLeft:0.065524,-0.679158,0.722313,-0.112763 HipRight:-0.195155,0.673228,0.678000,-0.221349 KneeLeft:0.010496,-0.634269,0.023611,0.772680 KneeRight:0.012789,0.773826,0.048911,0.631378 Neck:-0.136299,0.024700,0.987954,-0.068990 ShoulderLeft:0.062991,0.758020,-0.648822,-0.021627 ShoulderRight:-0.116671,0.792196,0.570275,-0.183301 SpineBase:-0.098377,0.020181,0.994431,-0.031961 SpineMid:-0.116968,0.020775,0.992416,-0.031577 SpineShoulder:-0.136179,0.023101,0.989209,-0.048851 ThumbLeft:0.000000,0.000000,0.000000,0.000000 ThumbRight:0.000000,0.000000,0.000000,0.000000 WristLeft:0.150801,-0.593529,-0.058343,0.788402 WristRight:-0.097693,0.447743,-0.531473,0.712403 END:
KINECT_DATA POSITION:8.096294,0.514559,-2.103722 HEAD_JOINT1:0.988717,0.146513,-0.000000,0.031179 LARM_JOINT2:0.827903,0.000000,0.005465,-0.560845 LARM_JOINT3:0.965050,0.000000,-0.195118,-0.174952 LLEG_JOINT2:0.999906,0.004445,0.000000,0.012995 LLEG_JOINT4:0.995005,0.099828,0.000000,0.000301 RARM_JOINT2:0.787758,0.000000,0.575059,0.220780 RARM_JOINT3:0.961034,0.000000,0.271841,0.050165 RLEG_JOINT2:0.998345,0.047606,0.000000,-0.032266 RLEG_JOINT4:0.995624,0.069939,0.000000,0.061974 WAIST:0.994146,-0.000000,0.107283,0.012839 WAIST_JOINT0:0.990905,-0.000000,0.130167,0.034116 WAIST_JOINT1:0.998322,0.055222,-0.000000,0.017418 END:
KINECT_DATA_Sensor  AnkleLeft:0.079909,0.767971,-0.069740,-0.631642 AnkleRight:0.103378,0.747648,0.067437,0.652524 ElbowLeft:-0.025027,0.817621,-0.224163,-0.529736 ElbowRight:-0.519970,0.849823,-0.033135,0.079587 FootLeft:0.000000,0.000000,0.000000,0.000000 FootRight:0.000000,0.000000,0.000000,0.000000 HandLeft:0.040938,-0.511160,-0.094572,0.853285 HandRight:-0.047773,0.447219,-0.539883,0.711504 HandTipLeft:0.000000,0.000000,0.000000,0.000000 HandTipRight:0.000000,0.000000,0.000000,0.000000 Head:0.000000,0.000000,0.000000,0.000000 HipLeft:0.058003,-0.680963,0.721918,-0.108440 HipRight:-0.199983,0.670366,0.678057,-0.225509 KneeLeft:0.013747,-0.627501,0.021996,0.778183 KneeRight:0.013880,0.779467,0.048221,0.624431 Neck:-0.131794,0.027114,0.988286,-0.072019 ShoulderLeft:0.050843,0.764977,-0.641950,-0.011171 ShoulderRight:-0.123814,0.788543,0.572479,-0.187452 SpineBase:-0.107203,0.022170,0.993432,-0.033288 SpineMid:-0.119185,0.022570,0.992066,-0.033018 SpineShoulder:-0.131665,0.025071,0.989661,-0.051056 ThumbLeft:0.000000,0.000000,0.000000,0.000000 ThumbRight:0.000000,0.000000,0.000000,0.000000 WristLeft:0.142854,-0.490517,-0.071455,0.856668 WristRight:0.007541,-0.455770,0.591027,-0.665511 END:
KINECT_DATA POSITION:8.000078,0.713716,-2.236736 HEAD_JOINT1:0.988844,0.145875,-0.000000,0.030134 LARM_JOINT2:0.823656,0.000000,-0.006534,-0.567052 LARM_JOINT3:0.968327,0.000000,-0.187793,-0.164548 LLEG_JOINT2:0.999856,0.001591,0.000000,0.016896 LLEG_JOINT4:0.994565,0.104116,0.000000,-0.000890 RARM_JOINT2:0.801837,0.000000,0.557018,0.216305 RARM_JOINT3:0.945161,0.000000,0.318016,0.074412 RLEG_JOINT2:0.998503,0.045822,0.000000,-0.029881 RLEG_JOINT4:0.995451,0.071309,0.000000,0.063190 WAIST:0.993570,-0.000000,0.112775,0.010001 WAIST_JOINT0:0.987286,-0.000000,0.156797,0.026087 WAIST_JOINT1:0.998202,0.056150,-0.000000,0.020972 END:
KINECT_DATA_Sensor  AnkleLeft:0.082044,0.765849,-0.069730,-0.633942 AnkleRight:0.103882,0.754385,0.066875,0.644701 ElbowLeft:-0.029021,0.818143,-0.215040,-0.532501 ElbowRight:-0.519690,0.851976,-0.001880,0.063679 FootLeft:0.000000,0.000000,0.000000,0.000000 FootRight:0.000000,0.000000,0.000000,0.000000 HandLeft:0.056881,-0.605194,-0.091639,0.788737 HandRight:0.017627,-0.470959,0.554763,-0.685656 HandTipLeft:0.000000,0.000000,0.000000,0.000000 HandTipRight:0.000000,0.000000,0.000000,0.000000 Head:0.000000,0.000000,0.000000,0.000000 HipLeft:0.054230,-0.683130,0.720310,-0.107455 HipRight:-0.203260,0.667311,0.678805,-0.229359 KneeLeft:0.016326,-0.623445,0.021297,0.781407 KneeRight:0.012307,0.782757,0.047374,0.620399 Neck:-0.159536,0.029233,0.984061,-0.072919 ShoulderLeft:0.070587,0.758335,-0.647314,-0.030513 ShoulderRight:-0.142878,0.769870,0.585537,-0.209839 SpineBase:-0.112464,0.022382,0.992791,-0.034901 SpineMid:-0.135620,0.023191,0.989893,-0.034368 SpineShoulder:-0.159481,0.026525,0.985485,-0.051789 ThumbLeft:0.000000,0.000000,0.000000,0.000000 ThumbRight:0.000000,0.000000,0.000000,0.000000 WristLeft:0.148890,-0.584018,-0.049952,0.796404 WristRight:-0.019744,-0.478423,0.587828,-0.652058 END:
KINECT_DATA POSITION:7.953908,0.875496,-2.356601 HEAD_JOINT1:0.988872,0.145467,-0.000000,0.031176 LARM_JOINT2:0.825170,0.000000,0.003844,-0.564871 LARM_JOINT3:0.966026,0.000000,-0.197042,-0.167236 LLEG_JOINT2:0.999824,-0.000189,0.000000,0.018757 LLEG_JOINT4:0.994602,0.103758,0.000000,-0.000699 RARM_JOINT2:0.796748,0.000000,0.561974,0.222211 RARM_JOINT3:0.948081,0.000000,0.311380,0.064694 RLEG_JOINT2:0.998523,0.046354,0.000000,-0.028345 RLEG_JOINT4:0.995470,0.069153,0.000000,0.065253 WAIST:0.992955,-0.000000,0.118203,0.008284 WAIST_JOINT0:0.987163,-0.000000,0.158403,0.020425 WAIST_JOINT1:0.998110,0.057083,-0.000000,0.022746 END:
KINECT_DATA_Sensor  AnkleLeft:0.081280,0.769819,-0.067786,-0.629426 AnkleRight:0.105290,0.769046,0.063278,0.627279 ElbowLeft:-0.021256,0.810524,-0.220915,-0.542030 ElbowRight:-0.515249,0.853765,-0.021578,0.071678 FootLeft:0.000000,0.000000,0.000000,0.000000 FootRight:0.000000,0.000000,0.000000,0.000000 HandLeft:0.055062,-0.470915,-0.107809,0.873833 HandRight:-0.034484,0.510433,-0.506437,0.694111 HandTipLeft:0.000000,0.000000,0.000000,0.000000 HandTipRight:0.000000,0.000000,0.000000,0.000000 Head:0.000000,0.000000,0.000000,0.000000 HipLeft:0.050447,-0.684679,0.719315,-0.106095 HipRight:-0.206014,0.664916,0.678888,-0.233574 KneeLeft:0.017581,-0.619334,0.020500,0.784663 KneeRight:0.012332,0.786033,0.048084,0.616188 Neck:-0.160621,0.028193,0.983790,-0.074592 ShoulderLeft:0.066411,0.762148,-0.643399,-0.027537 ShoulderRight:-0.149126,0.764930,0.588602,-0.214919 SpineBase:-0.117745,0.021965,0.992127,-0.036580 SpineMid:-0.138817,0.022738,0.989398,-0.036104 SpineShoulder:-0.160536,0.026103,0.985259,-0.053027 ThumbLeft:0.000000,0.000000,0.000000,0.000000 ThumbRight:0.000000,0.000000,0.000000,0.000000 WristLeft:0.139553,-0.452061,-0.068461,0.878339 WristRight:-0.000022,-0.490758,0.591507,-0.639747 END:
KINECT_DATA POSITION:7.936811,0.998978,-2.468812 HEAD_JOINT1:0.988619,0.147296,-0.000000,0.030610 LARM_JOINT2:0.820577,0.000000,-0.009882,-0.571450 LARM_JOINT3:0.968270,0.000000,-0.196403,-0.154528 LLEG_JOINT2:0.999787,-0.000953,0.000000,0.020596 LLEG_JOINT4:0.994518,0.104560,0.000000,-0.000656 RARM_JOINT2:0.791197,0.000000,0.566173,0.231206 RARM_JOINT3:0.953025,0.000000,0.299269,0.046697 RLEG_JOINT2:0.998603,0.045753,0.000000,-0.026433 RLEG_JOINT4:0.995668,0.068388,0.000000,0.062990 WAIST:0.992700,-0.000000,0.120441,0.006357 WAIST_JOINT0:0.985478,-0.000000,0.168245,0.022966 WAIST_JOINT1:0.998029,0.057718,-0.000000,0.024613 END:
KINECT_DATA_Sensor  AnkleLeft:0.079003,0.743437,-0.070783,-0.660341 AnkleRight:0.103857,0.782444,0.062007,0.610861 ElbowLeft:-0.028033,0.810756,-0.209793,-0.545780 ElbowRight:-0.508494,0.856769,-0.036821,0.077614 FootLeft:0.000000,0.000000,0.000000,0.000000 FootRight:0.000000,0.000000,0.000000,0.000000 HandLeft:0.076391,-0.491377,-0.121043,0.859105 HandRight:0.023970,-0.470930,0.578668,-0.665427 HandTipLeft:0.000000,0.000000,0.000000,0.000000 HandTipRight:0.000000,0.000000,0.000000,0.000000 Head:0.000000,0.000000,0.000000,0.000000 HipLeft:0.049418,-0.686261,0.717863,-0.106193 HipRight:-0.207927,0.663252,0.679285,-0.235447 KneeLeft:0.017918,-0.617712,0.020144,0.785942 KneeRight:0.011979,0.787316,0.047808,0.614577 Neck:-0.171244,0.028469,0.981954,-0.075040 ShoulderLeft:0.080216,0.756499,-0.647943,-0.038003 ShoulderRight:-0.149559,0.762331,0.590024,-0.219899 SpineBase:-0.119824,0.021936,0.991857,-0.037162 SpineMid:-0.145145,0.022879,0.988469,-0.036589 SpineShoulder:-0.171179,0.026372,0.983418,-0.053771 ThumbLeft:0.000000,0.000000,0.000000,0.000000 ThumbRight:0.000000,0.000000,0.000000,0.000000 WristLeft:0.142222,-0.474079,-0.065326,0.866461 WristRight:-0.002728,-0.481369,0.590750,-0.647526 END:
KINECT_DATA POSITION:7.961349,1.033697,-2.537477 HEAD_JOINT1:0.988481,0.148449,-0.000000,0.029470 LARM_JOINT2:0.819514,0.000000,-0.011584,-0.572942 LARM_JOINT3:0.968947,0.000000,-0.194090,-0.153202 LLEG_JOINT2:0.999783,-0.001640,0.000000,0.020768 LLEG_JOINT4:0.994624,0.103529,0.000000,-0.002137 RARM_JOINT2:0.804155,0.000000,0.551654,0.221387 RARM_JOINT3:0.943536,0.000000,0.326334,0.056970 RLEG_JOINT2:0.998647,0.044600,0.000000,-0.026757 RLEG_JOINT4:0.995551,0.069496,0.000000,0.063621 WAIST:0.992757,-0.000000,0.119995,0.005962 WAIST_JOINT0:0.985225,-0.000000,0.169890,0.021669 WAIST_JOINT1:0.998004,0.057850,-0.000000,0.025328 END:
KINECT_DATA_Sensor  AnkleLeft:0.078689,0.747835,-0.068080,-0.655680 AnkleRight:0.103487,0.778770,0.062579,0.615542 ElbowLeft:-0.029103,0.810318,-0.207901,-0.547096 ElbowRight:-0.513467,0.854787,-0.010397,0.074716 FootLeft:0.000000,0.000000,0.000000,0.000000 FootRight:0.000000,0.000000,0.000000,0.000000 HandLeft:0.079550,-0.549570,-0.111652,0.824123 HandRight:0.023191,-0.449203,0.582590,-0.676954 HandTipLeft:0.000000,0.000000,0.000000,0.000000 HandTipRight:0.000000,0.000000,0.000000,0.000000 Head:0.000000,0.000000,0.000000,0.000000 HipLeft:0.049759,-0.686599,0.717403,-0.106953 HipRight:-0.207969,0.663175,0.679370,-0.235382 KneeLeft:0.018292,-0.618127,0.019572,0.785622 KneeRight:0.010754,0.787018,0.047379,0.615013 Neck:-0.173108,0.029057,0.981616,-0.074966 ShoulderLeft:0.082130,0.756375,-0.647733,-0.039916 ShoulderRight:-0.150199,0.760903,0.591297,-0.220986 SpineBase:-0.119334,0.022248,0.991904,-0.037303 SpineMid:-0.145822,0.023238,0.988357,-0.036695 SpineShoulder:-0.173050,0.026814,0.983068,-0.053964 ThumbLeft:0.000000,0.000000,0.000000,0.000000 ThumbRight:0.000000,0.000000,0.000000,0.000000 WristLeft:0.146699,-0.532016,-0.055597,0.832074 WristRight:-0.028355,-0.474470,0.592132,-0.650733 END:
KINECT_DATA POSITION:7.991518,0.871057,-2.527869 HEAD_JOINT1:0.988358,0.149961,-0.000000,0.025709 LARM_JOINT2:0.823493,0.000000,0.004020,-0.567312 LARM_JOINT3:0.966713,0.000000,-0.198831,-0.161038 LLEG_JOINT2:0.999747,-0.000195,0.000000,0.022504 LLEG_JOINT4:0.994971,0.100159,0.000000,-0.001033 RARM_JOINT2:0.832666,0.000000,0.504828,0.227631 RARM_JOINT3:0.902996,0.000000,0.426161,0.054641 RLEG_JOINT2:0.998787,0.042828,0.000000,-0.024310 RLEG_JOINT4:0.995531,0.070068,0.000000,0.063310 WAIST:0.993333,-0.000000,0.115226,0.003498 WAIST_JOINT0:0.986949,-0.000000,0.160481,0.013360 WAIST_JOINT1:0.997954,0.057911,-0.000000,0.027100 END:
KINECT_DATA_Sensor  AnkleLeft:0.075888,0.743056,-0.069015,-0.661321 AnkleRight:0.101344,0.759250,0.064271,0.639639 ElbowLeft:-0.021438,0.807653,-0.218124,-0.547411 ElbowRight:-0.501835,0.852618,0.013795,0.144965 FootLeft:0.000000,0.000000,0.000000,0.000000 FootRight:0.000000,0.000000,0.000000,0.000000 HandLeft:0.073696,-0.577459,-0.098984,0.807039 HandRight:-0.020553,-0.446247,0.596159,-0.667110 HandTipLeft:0.000000,0.000000,0.000000,0.000000 HandTipRight:0.000000,0.000000,0.000000,0.000000 Head:0.000000,0.000000,0.000000,0.000000 HipLeft:0.052095,-0.688655,0.714882,-0.109475 HipRight:-0.205386,0.663195,0.681119,-0.232521 KneeLeft:0.016566,-0.621988,0.020019,0.782596 KneeRight:0.010069,0.783921,0.046182,0.619059 Neck:-0.162542,0.028165,0.983418,-0.075335 ShoulderLeft:0.070150,0.763350,-0.641452,-0.030249 ShoulderRight:-0.148250,0.757640,0.597760,-0.216069 SpineBase:-0.114406,0.021983,0.992494,-0.037193 SpineMid:-0.138082,0.022865,0.989478,-0.036657 SpineShoulder:-0.162467,0.026110,0.984872,-0.054317 ThumbLeft:0.000000,0.000000,0.000000,0.000000 ThumbRight:0.000000,0.000000,0.000000,0.000000 WristLeft:0.147645,-0.559381,-0.049370,0.814160 WristRight:-0.070257,-0.459152,0.628610,-0.623773 END:
KINECT_DATA POSITION:8.070426,0.854782,-2.731848 HEAD_JOINT1:0.988584,0.149041,-0.000000,0.022108 LARM_JOINT2:0.821436,0.000000,-0.004857,-0.570280 LARM_JOINT3:0.965265,0.000000,-0.199516,-0.168690 LLEG_JOINT2:0.999815,-0.003513,0.000000,0.018905 LLEG_JOINT4:0.994566,0.103986,0.000000,0.004959 RARM_JOINT2:0.799401,0.000000,0.568291,0.194946 RARM_JOINT3:0.959114,0.000000,0.274806,0.067691 RLEG_JOINT2:0.998738,0.042848,0.000000,-0.026190 RLEG_JOINT4:0.995553,0.069269,0.000000,0.063843 WAIST:0.992959,-0.000000,0.118346,0.005242 WAIST_JOINT0:0.986090,-0.000000,0.165507,0.015307 WAIST_JOINT1:0.997800,0.060880,-0.000000,0.026243 END:
KINECT_DATA_Sensor  AnkleLeft:0.077587,0.769649,-0.069183,-0.629948 AnkleRight:0.100885,0.761697,0.063519,0.636872 ElbowLeft:-0.022508,0.810896,-0.214154,-0.544132 ElbowRight:-0.530963,0.847111,0.018309,0.012086 FootLeft:0.000000,0.000000,0.000000,0.000000 FootRight:0.000000,0.000000,0.000000,0.000000 HandLeft:0.076537,-0.693874,-0.118835,0.706087 HandRight:0.055327,-0.457090,0.583659,-0.668842 HandTipLeft:0.000000,0.000000,0.000000,0.000000 HandTipRight:0.000000,0.000000,0.000000,0.000000 Head:0.000000,0.000000,0.000000,0.000000 HipLeft:0.046754,-0.687380,0.716734,-0.107773 HipRight:-0.204399,0.663489,0.680561,-0.234178 KneeLeft:0.018127,-0.619720,0.016422,0.784442 KneeRight:0.009682,0.785890,0.046153,0.616565 Neck:-0.167924,0.029152,0.982137,-0.079737 ShoulderLeft:0.078254,0.759136,-0.645349,-0.033373 ShoulderRight:-0.148057,0.754911,0.599730,-0.220254 SpineBase:-0.117528,0.023362,0.992002,-0.039662 SpineMid:-0.142322,0.024347,0.988750,-0.039065 SpineShoulder:-0.167894,0.026619,0.983817,-0.056637 ThumbLeft:0.000000,0.000000,0.000000,0.000000 ThumbRight:0.000000,0.000000,0.000000,0.000000 WristLeft:0.151607,-0.671999,-0.030661,0.724219 WristRight:0.019008,-0.488421,0.560349,-0.668649 END:
KINECT_DATA POSITION:8.211059,1.164358,-3.351927 HEAD_JOINT1:0.987184,0.159018,-0.000000,0.013440 LARM_JOINT2:0.819736,0.000000,-0.011668,-0.572623 LARM_JOINT3:0.969746,0.000000,-0.181507,-0.163243 LLEG_JOINT2:0.999898,-0.009495,0.000000,0.010698 LLEG_JOINT4:0.994378,0.105483,0.000000,0.009219 RARM_JOINT2:0.797026,0.000000,0.569424,0.201259 RARM_JOINT3:0.963359,0.000000,0.263990,0.047433 RLEG_JOINT2:0.998416,0.045585,0.000000,-0.032992 RLEG_JOINT4:0.995780,0.064675,0.000000,0.065110 WAIST:0.991036,-0.000000,0.133153,0.010895 WAIST_JOINT0:0.984087,-0.000000,0.175862,0.025403 WAIST_JOINT1:0.997055,0.072045,-0.000000,0.026281 END:
KINECT_DATA_Sensor  AnkleLeft:0.074674,0.775428,-0.065598,-0.623564 AnkleRight:0.098352,0.771119,0.062881,0.625899 ElbowLeft:-0.011750,0.812927,-0.218641,-0.539637 ElbowRight:-0.516987,0.854606,-0.022443,0.043246 FootLeft:0.000000,0.000000,0.000000,0.000000 FootRight:0.000000,0.000000,0.000000,0.000000 HandLeft:0.044732,-0.584600,-0.062122,0.807702 HandRight:-0.016422,-0.522126,0.595929,-0.609904 HandTipLeft:0.000000,0.000000,0.000000,0.000000 HandTipRight:0.000000,0.000000,0.000000,0.000000 Head:0.000000,0.000000,0.000000,0.000000 HipLeft:0.030720,-0.683622,0.721578,-0.105085 HipRight:-0.207461,0.662572,0.676086,-0.246710 KneeLeft:0.021715,-0.608540,0.010502,0.793156 KneeRight:0.009187,0.795125,0.048545,0.604429 Neck:-0.179311,0.034568,0.978689,-0.093916 ShoulderLeft:0.096889,0.749717,-0.653722,-0.034429 ShoulderRight:-0.146525,0.754466,0.595308,-0.234350 SpineBase:-0.132360,0.027483,0.989624,-0.048686 SpineMid:-0.155524,0.028617,0.986249,-0.048028 SpineShoulder:-0.179552,0.029557,0.981021,-0.066978 ThumbLeft:0.000000,0.000000,0.000000,0.000000 ThumbRight:0.000000,0.000000,0.000000,0.000000 WristLeft:0.136387,-0.568225,-0.040544,0.810478 WristRight:0.075238,-0.478872,0.550408,-0.679759 END:
KINECT_DATA POSITION:8.210343,1.328114,-3.550899 HEAD_JOINT1:0.987302,0.158288,-0.000000,0.013378 LARM_JOINT2:0.818200,0.000000,-0.011852,-0.574812 LARM_JOINT3:0.969843,0.000000,-0.186793,-0.156565 LLEG_JOINT2:0.999888,-0.010859,0.000000,0.010278 LLEG_JOINT4:0.994610,0.103364,0.000000,0.008227 RARM_JOINT2:0.798204,0.000000,0.566480,0.204870 RARM_JOINT3:0.961769,0.000000,0.271215,0.037991 RLEG_JOINT2:0.998314,0.046759,0.000000,-0.034382 RLEG_JOINT4:0.995927,0.059648,0.000000,0.067608 WAIST:0.990549,-0.000000,0.136675,0.011514 WAIST_JOINT0:0.982649,-0.000000,0.182850,0.031104 WAIST_JOINT1:0.996765,0.075633,-0.000000,0.027177 END:
KINECT_DATA_Sensor  AnkleLeft:0.070965,0.764147,-0.064242,-0.637899 AnkleRight:0.095635,0.757089,0.061518,0.643340 ElbowLeft:-0.008352,0.808948,-0.218598,-0.545663 ElbowRight:-0.509872,0.856582,-0.038985,0.069126 FootLeft:0.000000,0.000000,0.000000,0.000000 FootRight:0.000000,0.000000,0.000000,0.000000 HandLeft:0.067602,-0.536368,-0.072276,0.838162 HandRight:0.021094,-0.458587,0.560542,-0.689236 HandTipLeft:0.000000,0.000000,0.000000,0.000000 HandTipRight:0.000000,0.000000,0.000000,0.000000 Head:0.000000,0.000000,0.000000,0.000000 HipLeft:0.027428,-0.683047,0.722040,-0.106547 HipRight:-0.208374,0.661305,0.675318,-0.251402 KneeLeft:0.022973,-0.605922,0.009841,0.795131 KneeRight:0.009026,0.797237,0.049887,0.601534 Neck:-0.187175,0.035417,0.976975,-0.096082 ShoulderLeft:0.111284,0.743250,-0.658441,-0.040628 ShoulderRight:-0.142622,0.754570,0.594263,-0.239027 SpineBase:-0.135823,0.027825,0.988969,-0.052136 SpineMid:-0.161189,0.029155,0.985153,-0.051403 SpineShoulder:-0.187385,0.030949,0.979230,-0.070981 ThumbLeft:0.000000,0.000000,0.000000,0.000000 ThumbRight:0.000000,0.000000,0.000000,0.000000 WristLeft:0.132623,-0.523885,-0.040570,0.840422 WristRight:0.004111,-0.461277,0.579775,-0.671615 END:
KINECT_DATA POSITION:8.142742,1.068363,-3.479278 HEAD_JOINT1:0.986970,0.160142,-0.000000,0.015636 LARM_JOINT2:0.822402,0.000000,0.001966,-0.568903 LARM_JOINT3:0.958933,0.000000,-0.221164,-0.177580 LLEG_JOINT2:0.999834,-0.006857,0.000000,0.016880 LLEG_JOINT4:0.994878,0.100942,0.000000,0.005305 RARM_JOINT2:0.840865,0.000000,0.503186,0.199373 RARM_JOINT3:0.906203,0.000000,0.419739,0.051144 RLEG_JOINT2:0.998659,0.043074,0.000000,-0.028719 RLEG_JOINT4:0.995829,0.064549,0.000000,0.064477 WAIST:0.992227,-0.000000,0.124275,0.006350 WAIST_JOINT0:0.985261,-0.000000,0.169881,0.020009 WAIST_JOINT1:0.997124,0.070873,-0.000000,0.026864 END:
KINECT_DATA_Sensor  AnkleLeft:0.072154,0.764819,-0.065608,-0.636821 AnkleRight:0.097155,0.766499,0.060770,0.631939 ElbowLeft:-0.007489,0.808310,-0.222696,-0.544963 ElbowRight:-0.510264,0.851100,0.034440,0.118630 FootLeft:0.000000,0.000000,0.000000,0.000000 FootRight:0.000000,0.000000,0.000000,0.000000 HandLeft:-0.122748,0.742310,0.129701,-0.645822 HandRight:-0.053273,-0.442933,0.645165,-0.620270 HandTipLeft:0.000000,0.000000,0.000000,0.000000 HandTipRight:0.000000,0.000000,0.000000,0.000000 Head:0.000000,0.000000,0.000000,0.000000 HipLeft:0.037804,-0.687360,0.716440,-0.113232 HipRight:-0.202816,0.661959,0.678858,-0.244598 KneeLeft:0.020228,-0.615632,0.013660,0.787656 KneeRight:0.008293,0.789340,0.047140,0.612087 Neck:-0.172192,0.029060,0.980696,-0.087982 ShoulderLeft:0.093419,0.752008,-0.651810,-0.030009 ShoulderRight:-0.140208,0.750082,0.604620,-0.228370 SpineBase:-0.123182,0.024658,0.990823,-0.049872 SpineMid:-0.147286,0.025866,0.987528,-0.049256 SpineShoulder:-0.172159,0.027288,0.982383,-0.067378 ThumbLeft:0.000000,0.000000,0.000000,0.000000 ThumbRight:0.000000,0.000000,0.000000,0.000000 WristLeft:-0.146909,0.744276,0.016757,-0.651299 WristRight:-0.048283,-0.461710,0.605700,-0.646235 END:
KINECT_DATA POSITION:8.083836,0.659598,-3.270364 HEAD_JOINT1:0.986053,0.165360,-0.000000,0.018841 LARM_JOINT2:0.821577,0.000000,-0.001856,-0.570094 LARM_JOINT3:0.961269,0.000000,-0.219673,-0.166448 LLEG_JOINT2:0.999698,-0.002401,0.000000,0.024473 LLEG_JOINT4:0.995229,0.097566,0.000000,-0.000758 RARM_JOINT2:0.840422,0.000000,0.501272,0.205952 RARM_JOINT3:0.892278,0.000000,0.447437,0.060336 RLEG_JOINT2:0.998995,0.038132,0.000000,-0.023559 RLEG_JOINT4:0.995604,0.069558,0.000000,0.062725 WAIST:0.994696,-0.000000,0.102856,0.000247 WAIST_JOINT0:0.986976,-0.000000,0.160493,0.010986 WAIST_JOINT1:0.997483,0.065524,-0.000000,0.027083 END:
KINECT_DATA_Sensor  AnkleLeft:0.073468,0.769505,-0.064954,-0.631067 AnkleRight:0.097731,0.761658,0.059548,0.637793 ElbowLeft:-0.018674,0.816930,-0.212919,-0.535670 ElbowRight:-0.509740,0.848564,0.050262,0.132578 FootLeft:0.000000,0.000000,0.000000,0.000000 FootRight:0.000000,0.000000,0.000000,0.000000 HandLeft:0.107744,-0.652897,-0.142399,0.736098 HandRight:-0.035814,-0.380432,0.690174,-0.614531 HandTipLeft:0.000000,0.000000,0.000000,0.000000 HandTipRight:0.000000,0.000000,0.000000,0.000000 Head:0.000000,0.000000,0.000000,0.000000 HipLeft:0.055327,-0.689948,0.711078,-0.123605 HipRight:-0.194463,0.662561,0.685199,-0.231732 KneeLeft:0.017430,-0.632218,0.017693,0.774392 KneeRight:0.005963,0.775689,0.044273,0.629532 Neck:-0.161628,0.025251,0.983224,-0.080685 ShoulderLeft:0.080278,0.758569,-0.646114,-0.025813 ShoulderRight:-0.138545,0.747312,0.612155,-0.218164 SpineBase:-0.101590,0.021060,0.993572,-0.045282 SpineMid:-0.131147,0.022400,0.990104,-0.044634 SpineShoulder:-0.161550,0.024203,0.984613,-0.062076 ThumbLeft:0.000000,0.000000,0.000000,0.000000 ThumbRight:0.000000,0.000000,0.000000,0.000000 WristLeft:0.145797,-0.640307,-0.049719,0.752514 WristRight:-0.069225,-0.453093,0.612291,-0.644216 END:
KINECT_DATA POSITION:8.062065,0.553305,-3.197396 HEAD_JOINT1:0.985695,0.167793,-0.000000,0.015857 LARM_JOINT2:0.820800,0.000000,-0.002795,-0.571208 LARM_JOINT3:0.964953,0.000000,-0.206458,-0.161990 LLEG_JOINT2:0.999683,-0.003099,0.000000,0.024970 LLEG_JOINT4:0.994806,0.101793,0.000000,0.000093 RARM_JOINT2:0.829880,0.000000,0.520889,0.199932 RARM_JOINT3:0.914411,0.000000,0.398289,0.072239 RLEG_JOINT2:0.999052,0.037016,0.000000,-0.022904 RLEG_JOINT4:0.995563,0.071731,0.000000,0.060908 WAIST:0.995254,-0.000000,0.097315,0.000072 WAIST_JOINT0:0.987554,-0.000000,0.157001,0.009414 WAIST_JOINT1:0.997652,0.062764,-0.000000,0.027426 END:
KINECT_DATA_Sensor  AnkleLeft:0.075236,0.768309,-0.068560,-0.631934 AnkleRight:0.097849,0.759681,0.060439,0.640045 ElbowLeft:-0.022404,0.820557,-0.210467,-0.530931 ElbowRight:-0.520235,0.840961,0.022610,0.147068 FootLeft:0.000000,0.000000,0.000000,0.000000 FootRight:0.000000,0.000000,0.000000,0.000000 HandLeft:0.073378,-0.568708,-0.112114,0.811553 HandRight:-0.040273,0.516703,-0.416713,0.746824 HandTipLeft:0.000000,0.000000,0.000000,0.000000 HandTipRight:0.000000,0.000000,0.000000,0.000000 Head:0.000000,0.000000,0.000000,0.000000 HipLeft:0.059394,-0.689168,0.711315,-0.124700 HipRight:-0.191951,0.663332,0.686700,-0.227132 KneeLeft:0.018263,-0.636406,0.017414,0.770941 KneeRight:0.005884,0.772204,0.043085,0.633884 Neck:-0.158366,0.026589,0.983941,-0.077931 ShoulderLeft:0.071945,0.760616,-0.644797,-0.022902 ShoulderRight:-0.142656,0.748254,0.610715,-0.216315 SpineBase:-0.096136,0.020613,0.994210,-0.043350 SpineMid:-0.126811,0.021943,0.990765,-0.042692 SpineShoulder:-0.158317,0.024815,0.985306,-0.059090 ThumbLeft:0.000000,0.000000,0.000000,0.000000 ThumbRight:0.000000,0.000000,0.000000,0.000000 WristLeft:0.139628,-0.553046,-0.068792,0.818482 WristRight:-0.004275,-0.486563,0.632566,-0.602577 END:
KINECT_DATA POSITION:8.181531,0.660055,-2.990317 HEAD_JOINT1:0.986991,0.159864,-0.000000,0.017067 LARM_JOINT2:0.819823,0.000000,-0.002458,-0.572611 LARM_JOINT3:0.967870,0.000000,-0.195787,-0.157783 LLEG_JOINT2:0.999691,-0.004944,0.000000,0.024373 LLEG_JOINT4:0.994565,0.104118,0.000000,-0.000293 RARM_JOINT2:0.816313,0.000000,0.544593,0.192486 RARM_JOINT3:0.938460,0.000000,0.331168,0.098081 RLEG_JOINT2:0.998982,0.038649,0.000000,-0.023248 RLEG_JOINT4:0.995599,0.072416,0.000000,0.059490 WAIST:0.994667,-0.000000,0.103142,0.000366 WAIST_JOINT0:0.986746,-0.000000,0.161890,0.011125 WAIST_JOINT1:0.997753,0.060837,-0.000000,0.028054 END:
KINECT_DATA_Sensor  AnkleLeft:0.077764,0.777661,-0.066110,-0.620344 AnkleRight:0.099354,0.779183,0.061198,0.615839 ElbowLeft:-0.022017,0.818346,-0.209331,-0.534794 ElbowRight:-0.525286,0.847913,0.070648,0.011239 FootLeft:0.000000,0.000000,0.000000,0.000000 FootRight:0.000000,0.000000,0.000000,0.000000 HandLeft:0.076644,-0.647199,-0.081887,0.754025 HandRight:0.004387,-0.448371,0.594343,-0.667608 HandTipLeft:0.000000,0.000000,0.000000,0.000000 HandTipRight:0.000000,0.000000,0.000000,0.000000 Head:0.000000,0.000000,0.000000,0.000000 HipLeft:0.058156,-0.689407,0.712082,-0.119476 HipRight:-0.197805,0.662793,0.685231,-0.228116 KneeLeft:0.019427,-0.631819,0.016101,0.774705 KneeRight:0.006615,0.776051,0.044393,0.629072 Neck:-0.163473,0.027287,0.983202,-0.076463 ShoulderLeft:0.075950,0.760170,-0.644580,-0.029818 ShoulderRight:-0.144823,0.750331,0.607291,-0.217321 SpineBase:-0.102043,0.021460,0.993741,-0.040074 SpineMid:-0.132303,0.022672,0.990166,-0.039401 SpineShoulder:-0.163425,0.025360,0.984567,-0.057249 ThumbLeft:0.000000,0.000000,0.000000,0.000000 ThumbRight:0.000000,0.000000,0.000000,0.000000 WristLeft:0.145038,-0.632370,-0.047715,0.759470 WristRight:-0.016512,-0.481432,0.546651,-0.684926 END:
KINECT_DATA POSITION:8.354548,0.857738,-2.896500 HEAD_JOINT1:0.987808,0.154715,-0.000000,0.017257 LARM_JOINT2:0.817345,0.000000,-0.004001,-0.576134 LARM_JOINT3:0.968719,0.000000,-0.191986,-0.157242 LLEG_JOINT2:0.999740,-0.004814,0.000000,0.022288 LLEG_JOINT4:0.994731,0.102515,0.000000,-0.001143 RARM_JOINT2:0.803466,0.000000,0.546063,0.237188 RARM_JOINT3:0.959565,0.000000,0.276065,0.054979 RLEG_JOINT2:0.998704,0.043065,0.000000,-0.027130 RLEG_JOINT4:0.995657,0.066025,0.000000,0.065631 WAIST:0.993308,-0.000000,0.115478,0.001719 WAIST_JOINT0:0.985038,-0.000000,0.171448,0.017477 WAIST_JOINT1:0.997765,0.060374,-0.000000,0.028635 END:
KINECT_DATA_Sensor  AnkleLeft:0.075559,0.747733,-0.065674,-0.656409 AnkleRight:0.097964,0.765671,0.061820,0.632716 ElbowLeft:-0.020594,0.811060,-0.206727,-0.546829 ElbowRight:-0.499306,0.860356,-0.018902,0.100616 FootLeft:0.000000,0.000000,0.000000,0.000000 FootRight:0.000000,0.000000,0.000000,0.000000 HandLeft:0.067287,-0.639340,-0.088438,0.760851 HandRight:-0.067651,0.472061,-0.515487,0.711937 HandTipLeft:0.000000,0.000000,0.000000,0.000000 HandTipRight:0.000000,0.000000,0.000000,0.000000 Head:0.000000,0.000000,0.000000,0.000000 HipLeft:0.052529,-0.688624,0.714334,-0.112981 HipRight:-0.207106,0.660512,0.682351,-0.235005 KneeLeft:0.018792,-0.622143,0.015740,0.782520 KneeRight:0.006745,0.783984,0.049381,0.618777 Neck:-0.173665,0.028374,0.981369,-0.077137 ShoulderLeft:0.085220,0.756630,-0.647085,-0.039111 ShoulderRight:-0.148616,0.754148,0.599591,-0.222857 SpineBase:-0.114438,0.022524,0.992400,-0.039239 SpineMid:-0.143603,0.023669,0.988601,-0.038559 SpineShoulder:-0.173613,0.026399,0.982817,-0.056846 ThumbLeft:0.000000,0.000000,0.000000,0.000000 ThumbRight:0.000000,0.000000,0.000000,0.000000 WristLeft:0.145076,-0.621414,-0.043514,0.768703 WristRight:0.032989,-0.477973,0.576504,-0.661889 END:
KINECT_DATA POSITION:8.547410,1.018454,-2.906251 HEAD_JOINT1:0.987557,0.156982,-0.000000,0.009336 LARM_JOINT2:0.814702,0.000000,-0.002301,-0.579875 LARM_JOINT3:0.969249,0.000000,-0.190009,-0.156372 LLEG_JOINT2:0.999855,-0.005145,0.000000,0.016252 LLEG_JOINT4:0.994331,0.106061,0.000000,0.007567 RARM_JOINT2:0.801035,0.000000,0.547331,0.242430 RARM_JOINT3:0.964549,0.000000,0.259926,0.045639 RLEG_JOINT2:0.998366,0.046654,0.000000,-0.033009 RLEG_JOINT4:0.995516,0.064332,0.000000,0.069342 WAIST:0.992163,-0.000000,0.124832,0.005396 WAIST_JOINT0:0.983921,-0.000000,0.177320,0.021378 WAIST_JOINT1:0.997801,0.059875,-0.000000,0.028443 END:
KINECT_DATA_Sensor  AnkleLeft:0.080200,0.782578,-0.066796,-0.613741 AnkleRight:0.098222,0.759727,0.064782,0.639508 ElbowLeft:-0.017576,0.806111,-0.206104,-0.554434 ElbowRight:-0.493753,0.858749,-0.049808,0.127581 FootLeft:0.000000,0.000000,0.000000,0.000000 FootRight:0.000000,0.000000,0.000000,0.000000 HandLeft:0.071282,-0.632231,-0.089579,0.766276 HandRight:-0.072566,0.498039,-0.469354,0.725533 HandTipLeft:0.000000,0.000000,0.000000,0.000000 HandTipRight:0.000000,0.000000,0.000000,0.000000 Head:0.000000,0.000000,0.000000,0.000000 HipLeft:0.046377,-0.686473,0.717671,-0.107486 HipRight:-0.212686,0.661054,0.678632,-0.239230 KneeLeft:0.017819,-0.614779,0.013533,0.788382 KneeRight:0.006457,0.790064,0.053271,0.610671 Neck:-0.180016,0.032305,0.980133,-0.076748 ShoulderLeft:0.088918,0.754233,-0.649097,-0.043573 ShoulderRight:-0.153678,0.756084,0.594074,-0.227587 SpineBase:-0.123937,0.025474,0.991193,-0.039068 SpineMid:-0.151550,0.026555,0.987349,-0.038342 SpineShoulder:-0.180057,0.028741,0.981615,-0.056446 ThumbLeft:0.000000,0.000000,0.000000,0.000000 ThumbRight:0.000000,0.000000,0.000000,0.000000 WristLeft:0.143353,-0.615122,-0.038581,0.774329 WristRight:0.052722,-0.481848,0.586314,-0.649060 END:
KINECT_DATA POSITION:8.589869,1.099131,-2.955580 HEAD_JOINT1:0.987593,0.156749,-0.000000,0.009440 LARM_JOINT2:0.814388,0.000000,-0.002526,-0.580316 LARM_JOINT3:0.966941,0.000000,-0.198334,-0.160279 LLEG_JOINT2:0.999886,-0.004600,0.000000,0.014378 LLEG_JOINT4:0.994657,0.103168,0.000000,0.003850 RARM_JOINT2:0.804152,0.000000,0.544962,0.237395 RARM_JOINT3:0.969568,0.000000,0.239405,0.051222 RLEG_JOINT2:0.998258,0.047427,0.000000,-0.035090 RLEG_JOINT4:0.995698,0.062393,0.000000,0.068499 WAIST:0.991810,-0.000000,0.127522,0.007100 WAIST_JOINT0:0.983440,-0.000000,0.179766,0.023009 WAIST_JOINT1:0.997765,0.060898,-0.000000,0.027493 END:
KINECT_DATA_Sensor  AnkleLeft:0.076092,0.746770,-0.066194,-0.657391 AnkleRight:0.097252,0.771848,0.063094,0.625149 ElbowLeft:-0.016360,0.804919,-0.206550,-0.556035 ElbowRight:-0.497449,0.861417,-0.030363,0.097897 FootLeft:0.000000,0.000000,0.000000,0.000000 FootRight:0.000000,0.000000,0.000000,0.000000 HandLeft:-0.105021,0.775787,0.092575,-0.615269 HandRight:-0.056677,0.476639,-0.499960,0.720863 HandTipLeft:0.000000,0.000000,0.000000,0.000000 HandTipRight:0.000000,0.000000,0.000000,0.000000 Head:0.000000,0.000000,0.000000,0.000000 HipLeft:0.043953,-0.685522,0.718970,-0.105873 HipRight:-0.213065,0.661637,0.677406,-0.240751 KneeLeft:0.017422,-0.612584,0.013624,0.790096 KneeRight:0.006336,0.791801,0.053958,0.608359 Neck:-0.182539,0.032499,0.979540,-0.078262 ShoulderLeft:0.090703,0.753467,-0.649681,-0.044444 ShoulderRight:-0.155335,0.756561,0.592011,-0.230239 SpineBase:-0.126723,0.025812,0.990807,-0.039713 SpineMid:-0.154189,0.026905,0.986906,-0.038981 SpineShoulder:-0.182545,0.029327,0.981095,-0.057190 ThumbLeft:0.000000,0.000000,0.000000,0.000000 ThumbRight:0.000000,0.000000,0.000000,0.000000 WristLeft:-0.148960,0.772591,0.007103,-0.617141 WristRight:0.057895,-0.464996,0.560731,-0.682648 END:
KINECT_DATA POSITION:8.564416,1.184574,-3.075778 HEAD_JOINT1:0.987809,0.155238,-0.000000,0.011616 LARM_JOINT2:0.814437,0.000000,-0.006825,-0.580212 LARM_JOINT3:0.968762,0.000000,-0.194242,-0.154179 LLEG_JOINT2:0.999896,-0.005355,0.000000,0.013413 LLEG_JOINT4:0.994516,0.104528,0.000000,0.003514 RARM_JOINT2:0.806655,0.000000,0.542779,0.233876 RARM_JOINT3:0.971365,0.000000,0.231791,0.052182 RLEG_JOINT2:0.998208,0.048807,0.000000,-0.034621 RLEG_JOINT4:0.995924,0.059704,0.000000,0.067605 WAIST:0.991315,-0.000000,0.131252,0.008165 WAIST_JOINT0:0.982971,-0.000000,0.182105,0.024608 WAIST_JOINT1:0.997669,0.062843,-0.000000,0.026602 END:
KINECT_DATA_Sensor  AnkleLeft:0.077159,0.747343,-0.065516,-0.656683 AnkleRight:0.096406,0.772095,0.062279,0.625057 ElbowLeft:-0.016717,0.804708,-0.206254,-0.556439 ElbowRight:-0.498333,0.862338,-0.022945,0.086665 FootLeft:0.000000,0.000000,0.000000,0.000000 FootRight:0.000000,0.000000,0.000000,0.000000 HandLeft:0.079440,-0.568338,-0.094399,0.813493 HandRight:-0.087562,0.525235,-0.505863,0.678648 HandTipLeft:0.000000,0.000000,0.000000,0.000000 HandTipRight:0.000000,0.000000,0.000000,0.000000 Head:0.000000,0.000000,0.000000,0.000000 HipLeft:0.040353,-0.685177,0.719717,-0.104454 HipRight:-0.213386,0.661499,0.676418,-0.243606 KneeLeft:0.018154,-0.609640,0.013200,0.792361 KneeRight:0.008077,0.794101,0.054018,0.605327 Neck:-0.184837,0.031900,0.978895,-0.081124 ShoulderLeft:0.093427,0.752972,-0.649839,-0.044883 ShoulderRight:-0.155630,0.757031,0.590208,-0.233107 SpineBase:-0.130490,0.025676,0.990251,-0.041436 SpineMid:-0.157225,0.026787,0.986359,-0.040726 SpineShoulder:-0.184829,0.029113,0.980576,-0.058838 ThumbLeft:0.000000,0.000000,0.000000,0.000000 ThumbRight:0.000000,0.000000,0.000000,0.000000 WristLeft:0.140342,-0.554200,-0.050732,0.818897 WristRight:0.092982,-0.495938,0.546459,-0.668418 END:
