EastLYD/RoboCupatHomeSim/InteractiveCleanUp/JapanOpen2016/Motion_Data/File32.dat
KINECT_DATA POSITION:4.165757,1.425144,-18.627798 HEAD_JOINT1:0.982101,0.152129,-0.000000,0.111060 LARM_JOINT2:0.813216,0.000000,-0.063066,-0.578534 LARM_JOINT3:0.963021,0.000000,-0.198238,-0.182463 LLEG_JOINT2:0.998736,0.014163,0.000000,0.048219 LLEG_JOINT4:0.995154,0.090713,0.000000,-0.037954 RARM_JOINT2:0.785220,0.000000,-0.030880,0.618447 RARM_JOINT3:0.959084,0.000000,0.232987,0.160855 RLEG_JOINT2:0.999627,0.018337,0.000000,-0.020222 RLEG_JOINT4:0.995985,0.086432,0.000000,0.023302 WAIST:0.999818,0.000000,-0.018926,-0.002589 WAIST_JOINT0:0.999248,0.000000,-0.038173,0.006732 WAIST_JOINT1:0.997676,0.065570,0.000000,-0.018543 END:
KINECT_DATA_Sensor  AnkleLeft:0.071559,0.750579,-0.076737,-0.652397 AnkleRight:0.076131,0.691748,0.071745,0.714522 ElbowLeft:-0.048369,0.917232,-0.134679,-0.371763 ElbowRight:0.008985,0.840505,0.164291,0.516217 FootLeft:0.000000,0.000000,0.000000,0.000000 FootRight:0.000000,0.000000,0.000000,0.000000 HandLeft:-0.176415,0.363560,-0.056609,0.912961 HandRight:-0.076269,0.854621,-0.143411,0.493192 HandTipLeft:0.000000,0.000000,0.000000,0.000000 HandTipRight:0.000000,0.000000,0.000000,0.000000 Head:0.000000,0.000000,0.000000,0.000000 HipLeft:0.129623,-0.680244,0.700803,-0.171294 HipRight:-0.105960,0.677543,0.708727,-0.165572 KneeLeft:-0.023092,0.719428,-0.041814,-0.692922 KneeRight:-0.002614,0.694069,0.029118,0.719314 Neck:0.036728,-0.022753,0.995735,-0.081519 ShoulderLeft:0.004118,0.779634,-0.621095,0.079962 ShoulderRight:0.052625,0.784536,0.617508,-0.020441 SpineBase:0.018351,-0.017609,0.998792,-0.042033 SpineMid:0.027301,-0.017985,0.998588,-0.041874 SpineShoulder:0.036558,-0.020483,0.997295,-0.060388 ThumbLeft:0.000000,0.000000,0.000000,0.000000 ThumbRight:0.000000,0.000000,0.000000,0.000000 WristLeft:-0.113455,0.374500,-0.140179,0.909520 WristRight:-0.133728,0.852530,-0.074231,0.499800 END:
KINECT_DATA POSITION:4.183221,1.428074,-18.706345 HEAD_JOINT1:0.982005,0.153075,-0.000000,0.110612 LARM_JOINT2:0.813453,0.000000,-0.063274,-0.578178 LARM_JOINT3:0.963953,0.000000,-0.195579,-0.180398 LLEG_JOINT2:0.998795,0.013659,0.000000,0.047131 LLEG_JOINT4:0.994938,0.092621,0.000000,-0.038988 RARM_JOINT2:0.785497,0.000000,-0.029722,0.618151 RARM_JOINT3:0.959527,0.000000,0.230722,0.161476 RLEG_JOINT2:0.999617,0.018068,0.000000,-0.020964 RLEG_JOINT4:0.995963,0.086514,0.000000,0.023943 WAIST:0.999820,0.000000,-0.018836,-0.002054 WAIST_JOINT0:0.999218,0.000000,-0.039017,0.006385 WAIST_JOINT1:0.997666,0.065667,0.000000,-0.018696 END:
KINECT_DATA_Sensor  AnkleLeft:0.072015,0.736099,-0.078101,-0.668485 AnkleRight:0.080464,0.733697,0.066580,0.671403 ElbowLeft:-0.048613,0.917512,-0.135412,-0.370773 ElbowRight:0.008281,0.840787,0.163945,0.515878 FootLeft:0.000000,0.000000,0.000000,0.000000 FootRight:0.000000,0.000000,0.000000,0.000000 HandLeft:-0.167049,0.734025,0.021538,0.657904 HandRight:-0.065752,0.845135,-0.146182,0.509955 HandTipLeft:0.000000,0.000000,0.000000,0.000000 HandTipRight:0.000000,0.000000,0.000000,0.000000 Head:0.000000,0.000000,0.000000,0.000000 HipLeft:0.129326,-0.679888,0.701218,-0.171233 HipRight:-0.105878,0.677898,0.708403,-0.165556 KneeLeft:-0.023034,0.719336,-0.041075,-0.693064 KneeRight:-0.002946,0.694161,0.029088,0.719225 Neck:0.037591,-0.022432,0.995704,-0.081589 ShoulderLeft:0.003943,0.779489,-0.621215,0.080458 ShoulderRight:0.053542,0.784047,0.618076,-0.019657 SpineBase:0.018230,-0.017218,0.998797,-0.042149 SpineMid:0.027678,-0.017616,0.998580,-0.041984 SpineShoulder:0.037428,-0.020177,0.997264,-0.060477 ThumbLeft:0.000000,0.000000,0.000000,0.000000 ThumbRight:0.000000,0.000000,0.000000,0.000000 WristLeft:-0.165031,0.748595,-0.072885,0.638011 WristRight:-0.132119,0.842735,-0.076059,0.516291 END:
KINECT_DATA POSITION:4.174014,1.421224,-18.724705 HEAD_JOINT1:0.981973,0.154017,-0.000000,0.109576 LARM_JOINT2:0.812020,0.000000,-0.062596,-0.580263 LARM_JOINT3:0.963440,0.000000,-0.197485,-0.181060 LLEG_JOINT2:0.998915,0.011894,0.000000,0.045022 LLEG_JOINT4:0.994802,0.095175,0.000000,-0.036202 RARM_JOINT2:0.785913,0.000000,-0.029901,0.617613 RARM_JOINT3:0.957598,0.000000,0.236616,0.164375 RLEG_JOINT2:0.999595,0.017940,0.000000,-0.022081 RLEG_JOINT4:0.995970,0.086157,0.000000,0.024899 WAIST:0.999836,0.000000,-0.018041,-0.001316 WAIST_JOINT0:0.999247,0.000000,-0.038192,0.006878 WAIST_JOINT1:0.997671,0.065578,0.000000,-0.018744 END:
KINECT_DATA_Sensor  AnkleLeft:0.070407,0.724827,-0.080753,-0.680550 AnkleRight:0.076225,0.691658,0.070715,0.714702 ElbowLeft:-0.048184,0.914605,-0.133767,-0.378525 ElbowRight:0.008470,0.842028,0.163963,0.513842 FootLeft:0.000000,0.000000,0.000000,0.000000 FootRight:0.000000,0.000000,0.000000,0.000000 HandLeft:-0.180973,0.451617,-0.031863,0.873084 HandRight:-0.090056,0.854666,-0.167255,0.483180 HandTipLeft:0.000000,0.000000,0.000000,0.000000 HandTipRight:0.000000,0.000000,0.000000,0.000000 Head:0.000000,0.000000,0.000000,0.000000 HipLeft:0.128991,-0.679489,0.701790,-0.170723 HipRight:-0.106470,0.678274,0.707856,-0.165976 KneeLeft:-0.023236,0.718708,-0.038876,-0.693836 KneeRight:-0.003313,0.694765,0.029281,0.718633 Neck:0.036800,-0.021650,0.995755,-0.081542 ShoulderLeft:0.004515,0.779128,-0.621760,0.079710 ShoulderRight:0.053073,0.784014,0.618140,-0.020196 SpineBase:0.017390,-0.016923,0.998822,-0.042022 SpineMid:0.026852,-0.017320,0.998612,-0.041859 SpineShoulder:0.036630,-0.019593,0.997311,-0.060373 ThumbLeft:0.000000,0.000000,0.000000,0.000000 ThumbRight:0.000000,0.000000,0.000000,0.000000 WristLeft:-0.124955,0.462898,-0.130387,0.867820 WristRight:-0.133255,0.857161,-0.072782,0.492160 END:
KINECT_DATA POSITION:4.137693,1.406157,-18.673729 HEAD_JOINT1:0.982013,0.154585,-0.000000,0.108415 LARM_JOINT2:0.810877,0.000000,-0.063560,-0.581754 LARM_JOINT3:0.963924,0.000000,-0.198716,-0.177096 LLEG_JOINT2:0.998970,0.012457,0.000000,0.043624 LLEG_JOINT4:0.995095,0.092884,0.000000,-0.034045 RARM_JOINT2:0.786273,0.000000,-0.030045,0.617148 RARM_JOINT3:0.957233,0.000000,0.238116,0.164332 RLEG_JOINT2:0.999598,0.015577,0.000000,-0.023681 RLEG_JOINT4:0.995310,0.092370,0.000000,0.028746 WAIST:0.999865,0.000000,-0.016430,-0.000836 WAIST_JOINT0:0.999306,0.000000,-0.036595,0.007013 WAIST_JOINT1:0.997656,0.065874,0.000000,-0.018546 END:
KINECT_DATA_Sensor  AnkleLeft:0.068676,0.725977,-0.080117,-0.679575 AnkleRight:0.085196,0.736480,0.066224,0.667798 ElbowLeft:-0.047948,0.913647,-0.132481,-0.381311 ElbowRight:0.008633,0.842941,0.164102,0.512296 FootLeft:0.000000,0.000000,0.000000,0.000000 FootRight:0.000000,0.000000,0.000000,0.000000 HandLeft:-0.179904,0.809405,0.045634,0.557150 HandRight:-0.099274,0.867601,-0.164922,0.458490 HandTipLeft:0.000000,0.000000,0.000000,0.000000 HandTipRight:0.000000,0.000000,0.000000,0.000000 Head:0.000000,0.000000,0.000000,0.000000 HipLeft:0.128146,-0.679385,0.702184,-0.170153 HipRight:-0.107679,0.678402,0.707263,-0.167199 KneeLeft:-0.022113,0.717624,-0.038688,-0.695004 KneeRight:-0.005829,0.695978,0.028448,0.717476 Neck:0.035209,-0.021029,0.995799,-0.081863 ShoulderLeft:0.006088,0.779101,-0.621944,0.078419 ShoulderRight:0.052582,0.784052,0.618093,-0.021420 SpineBase:0.015757,-0.016532,0.998852,-0.042119 SpineMid:0.025239,-0.016931,0.998657,-0.041960 SpineShoulder:0.035042,-0.019044,0.997363,-0.060631 ThumbLeft:0.000000,0.000000,0.000000,0.000000 ThumbRight:0.000000,0.000000,0.000000,0.000000 WristLeft:-0.171161,0.824848,-0.054693,0.536040 WristRight:-0.134884,0.870503,-0.069996,0.468115 END:
KINECT_DATA POSITION:4.057480,1.385652,-18.492424 HEAD_JOINT1:0.981946,0.155873,-0.000000,0.107174 LARM_JOINT2:0.810230,0.000000,-0.063294,-0.582684 LARM_JOINT3:0.964105,0.000000,-0.195083,-0.180121 LLEG_JOINT2:0.998926,0.013622,0.000000,0.044296 LLEG_JOINT4:0.995300,0.091178,0.000000,-0.032631 RARM_JOINT2:0.786351,0.000000,-0.030189,0.617042 RARM_JOINT3:0.956672,0.000000,0.239929,0.164963 RLEG_JOINT2:0.999599,0.017191,0.000000,-0.022510 RLEG_JOINT4:0.995340,0.092273,0.000000,0.027986 WAIST:0.999895,0.000000,-0.014466,-0.001244 WAIST_JOINT0:0.999409,0.000000,-0.033631,0.007123 WAIST_JOINT1:0.997686,0.065612,0.000000,-0.017797 END:
KINECT_DATA_Sensor  AnkleLeft:0.067855,0.729719,-0.080297,-0.675617 AnkleRight:0.084521,0.720982,0.069477,0.684262 ElbowLeft:-0.047398,0.912841,-0.131880,-0.383513 ElbowRight:0.008062,0.843242,0.163873,0.511882 FootLeft:0.000000,0.000000,0.000000,0.000000 FootRight:0.000000,0.000000,0.000000,0.000000 HandLeft:-0.183526,0.450499,-0.026819,0.873298 HandRight:-0.097066,0.852699,-0.176968,0.481835 HandTipLeft:0.000000,0.000000,0.000000,0.000000 HandTipRight:0.000000,0.000000,0.000000,0.000000 Head:0.000000,0.000000,0.000000,0.000000 HipLeft:0.127098,-0.679916,0.702172,-0.168864 HipRight:-0.109262,0.677893,0.707333,-0.167937 KneeLeft:-0.021412,0.716350,-0.039752,-0.696279 KneeRight:-0.004201,0.697314,0.029008,0.716166 Neck:0.032307,-0.020744,0.995924,-0.081613 ShoulderLeft:0.007874,0.778867,-0.622523,0.075951 ShoulderRight:0.050639,0.783748,0.618563,-0.023553 SpineBase:0.013850,-0.016289,0.998902,-0.041693 SpineMid:0.022838,-0.016663,0.998737,-0.041545 SpineShoulder:0.032137,-0.018768,0.997484,-0.060335 ThumbLeft:0.000000,0.000000,0.000000,0.000000 ThumbRight:0.000000,0.000000,0.000000,0.000000 WristLeft:-0.122322,0.462000,-0.130818,0.868608 WristRight:-0.133295,0.857137,-0.074102,0.491994 END:
KINECT_DATA POSITION:3.998409,1.366248,-18.305922 HEAD_JOINT1:0.982027,0.156616,-0.000000,0.105332 LARM_JOINT2:0.810019,0.000000,-0.062972,-0.583012 LARM_JOINT3:0.963707,0.000000,-0.196023,-0.181226 LLEG_JOINT2:0.998931,0.014321,0.000000,0.043958 LLEG_JOINT4:0.995384,0.091182,0.000000,-0.029942 RARM_JOINT2:0.786515,0.000000,-0.029139,0.616883 RARM_JOINT3:0.956920,0.000000,0.238192,0.166038 RLEG_JOINT2:0.999584,0.018935,0.000000,-0.021758 RLEG_JOINT4:0.995484,0.091200,0.000000,0.026343 WAIST:0.999900,0.000000,-0.014148,-0.000784 WAIST_JOINT0:0.999477,0.000000,-0.031361,0.007848 WAIST_JOINT1:0.997648,0.066194,0.000000,-0.017808 END:
KINECT_DATA_Sensor  AnkleLeft:0.068144,0.743395,-0.081374,-0.660377 AnkleRight:0.085913,0.732980,0.068801,0.671286 ElbowLeft:-0.046792,0.912166,-0.132268,-0.385057 ElbowRight:0.008153,0.844340,0.163578,0.510163 FootLeft:0.000000,0.000000,0.000000,0.000000 FootRight:0.000000,0.000000,0.000000,0.000000 HandLeft:-0.183107,0.772204,0.059961,0.605456 HandRight:-0.087228,0.851142,-0.176511,0.486613 HandTipLeft:0.000000,0.000000,0.000000,0.000000 HandTipRight:0.000000,0.000000,0.000000,0.000000 Head:0.000000,0.000000,0.000000,0.000000 HipLeft:0.126573,-0.679571,0.702563,-0.169019 HipRight:-0.109329,0.678090,0.707020,-0.168415 KneeLeft:-0.020993,0.716138,-0.040350,-0.696476 KneeRight:-0.002110,0.697533,0.029357,0.715948 Neck:0.029903,-0.020168,0.995955,-0.082293 ShoulderLeft:0.010935,0.778100,-0.623703,0.073731 ShoulderRight:0.050663,0.783892,0.618320,-0.025034 SpineBase:0.013506,-0.015849,0.998895,-0.042122 SpineMid:0.021477,-0.016184,0.998756,-0.041994 SpineShoulder:0.029739,-0.018212,0.997532,-0.060940 ThumbLeft:0.000000,0.000000,0.000000,0.000000 ThumbRight:0.000000,0.000000,0.000000,0.000000 WristLeft:-0.166623,0.796634,-0.064239,0.577481 WristRight:-0.132436,0.854767,-0.075934,0.496052 END:
KINECT_DATA POSITION:4.013498,1.347513,-18.143726 HEAD_JOINT1:0.980886,0.162115,-0.000000,0.107616 LARM_JOINT2:0.810376,0.000000,-0.061902,-0.582631 LARM_JOINT3:0.964129,0.000000,-0.198344,-0.176395 LLEG_JOINT2:0.998948,0.015844,0.000000,0.043038 LLEG_JOINT4:0.995296,0.091870,0.000000,-0.030755 RARM_JOINT2:0.786180,0.000000,-0.029868,0.617276 RARM_JOINT3:0.957443,0.000000,0.236111,0.165994 RLEG_JOINT2:0.999576,0.019149,0.000000,-0.021952 RLEG_JOINT4:0.995458,0.091729,0.000000,0.025470 WAIST:0.999883,0.000000,-0.015313,-0.000438 WAIST_JOINT0:0.999410,0.000000,-0.033592,0.007137 WAIST_JOINT1:0.997486,0.068542,0.000000,-0.018004 END:
KINECT_DATA_Sensor  AnkleLeft:0.069447,0.734599,-0.082933,-0.669823 AnkleRight:0.082068,0.693540,0.074425,0.711848 ElbowLeft:-0.044410,0.912527,-0.134201,-0.383812 ElbowRight:0.011093,0.843385,0.164411,0.511417 FootLeft:0.000000,0.000000,0.000000,0.000000 FootRight:0.000000,0.000000,0.000000,0.000000 HandLeft:-0.176448,0.408538,-0.049732,0.894142 HandRight:-0.062103,0.808280,-0.174093,0.559033 HandTipLeft:0.000000,0.000000,0.000000,0.000000 HandTipRight:0.000000,0.000000,0.000000,0.000000 Head:0.000000,0.000000,0.000000,0.000000 HipLeft:0.125867,-0.678870,0.702930,-0.170832 HipRight:-0.107388,0.678195,0.707123,-0.168810 KneeLeft:-0.019563,0.716975,-0.041023,-0.695616 KneeRight:-0.001811,0.696747,0.029400,0.716712 Neck:0.032189,-0.020107,0.995674,-0.084809 ShoulderLeft:0.009702,0.778434,-0.622776,0.078082 ShoulderRight:0.052396,0.783594,0.618523,-0.025785 SpineBase:0.014625,-0.015460,0.998803,-0.044033 SpineMid:0.023193,-0.015838,0.998641,-0.043898 SpineShoulder:0.032046,-0.018038,0.997321,-0.063239 ThumbLeft:0.000000,0.000000,0.000000,0.000000 ThumbRight:0.000000,0.000000,0.000000,0.000000 WristLeft:-0.113187,0.418981,-0.134149,0.890869 WristRight:-0.123557,0.810070,-0.085770,0.566714 END:
KINECT_DATA POSITION:4.066214,1.328329,-18.016827 HEAD_JOINT1:0.981062,0.160195,-0.000000,0.108879 LARM_JOINT2:0.812227,0.000000,-0.064677,-0.579746 LARM_JOINT3:0.962803,0.000000,-0.201514,-0.180006 LLEG_JOINT2:0.998932,0.017282,0.000000,0.042850 LLEG_JOINT4:0.995559,0.090162,0.000000,-0.027061 RARM_JOINT2:0.786891,0.000000,-0.025159,0.616579 RARM_JOINT3:0.953571,0.000000,0.245215,0.174847 RLEG_JOINT2:0.999540,0.020382,0.000000,-0.022458 RLEG_JOINT4:0.995550,0.090185,0.000000,0.027326 WAIST:0.999888,0.000000,-0.014969,-0.000148 WAIST_JOINT0:0.999418,0.000000,-0.033212,0.007812 WAIST_JOINT1:0.997452,0.068915,0.000000,-0.018419 END:
KINECT_DATA_Sensor  AnkleLeft:0.068846,0.751584,-0.083705,-0.650673 AnkleRight:0.082927,0.693531,0.073085,0.711896 ElbowLeft:-0.046153,0.915988,-0.136546,-0.374420 ElbowRight:0.009028,0.848441,0.163759,0.503238 FootLeft:0.000000,0.000000,0.000000,0.000000 FootRight:0.000000,0.000000,0.000000,0.000000 HandLeft:-0.196722,0.754166,0.023264,0.626093 HandRight:-0.093845,0.833292,-0.225284,0.496048 HandTipLeft:0.000000,0.000000,0.000000,0.000000 HandTipRight:0.000000,0.000000,0.000000,0.000000 Head:0.000000,0.000000,0.000000,0.000000 HipLeft:0.125421,-0.678642,0.703217,-0.170882 HipRight:-0.107264,0.678250,0.706967,-0.169318 KneeLeft:-0.018615,0.716763,-0.042138,-0.695793 KneeRight:-0.001081,0.696996,0.030417,0.716428 Neck:0.031756,-0.020306,0.995654,-0.085166 ShoulderLeft:0.009990,0.778000,-0.623298,0.078207 ShoulderRight:0.052191,0.783787,0.618265,-0.026497 SpineBase:0.014247,-0.015474,0.998789,-0.044477 SpineMid:0.022794,-0.015855,0.998630,-0.044343 SpineShoulder:0.031617,-0.018165,0.997308,-0.063614 ThumbLeft:0.000000,0.000000,0.000000,0.000000 ThumbRight:0.000000,0.000000,0.000000,0.000000 WristLeft:-0.162049,0.774972,-0.067008,0.607181 WristRight:-0.128840,0.847199,-0.081623,0.508913 END:
KINECT_DATA POSITION:4.424147,1.256333,-17.589819 HEAD_JOINT1:0.984859,0.148412,-0.000000,0.089589 LARM_JOINT2:0.810723,0.000000,-0.070026,-0.581227 LARM_JOINT3:0.966231,0.000000,-0.195260,-0.168139 LLEG_JOINT2:0.999064,0.018005,0.000000,0.039325 LLEG_JOINT4:0.995295,0.093996,0.000000,-0.023492 RARM_JOINT2:0.805955,0.000000,0.072965,0.587463 RARM_JOINT3:0.946079,0.000000,0.282304,0.158870 RLEG_JOINT2:0.999324,0.024441,0.000000,-0.027449 RLEG_JOINT4:0.995290,0.091137,0.000000,0.033053 WAIST:0.999997,0.000000,-0.002313,-0.000274 WAIST_JOINT0:0.999889,0.000000,-0.009942,0.011088 WAIST_JOINT1:0.997749,0.065550,0.000000,-0.014150 END:
KINECT_DATA_Sensor  AnkleLeft:0.072872,0.739277,-0.086212,-0.663873 AnkleRight:0.089982,0.738194,0.072456,0.664623 ElbowLeft:-0.052407,0.909760,-0.135396,-0.388919 ElbowRight:-0.068356,0.887689,0.150790,0.429649 FootLeft:0.000000,0.000000,0.000000,0.000000 FootRight:0.000000,0.000000,0.000000,0.000000 HandLeft:-0.159171,0.698487,-0.020802,0.697386 HandRight:-0.333351,0.862534,0.062958,-0.375432 HandTipLeft:0.000000,0.000000,0.000000,0.000000 HandTipRight:0.000000,0.000000,0.000000,0.000000 Head:0.000000,0.000000,0.000000,0.000000 HipLeft:0.122154,-0.680280,0.703963,-0.163507 HipRight:-0.121934,0.676976,0.704779,-0.173555 KneeLeft:-0.014965,0.708287,-0.040314,-0.704613 KneeRight:-0.002200,0.705668,0.036892,0.707578 Neck:0.008764,-0.014878,0.996676,-0.079612 ShoulderLeft:0.018638,0.777165,-0.625925,0.062335 ShoulderRight:0.031040,0.786973,0.614443,-0.046583 SpineBase:0.001925,-0.010267,0.999186,-0.038958 SpineMid:0.005217,-0.010396,0.999174,-0.038924 SpineShoulder:0.008529,-0.014619,0.997999,-0.060925 ThumbLeft:0.000000,0.000000,0.000000,0.000000 ThumbRight:0.000000,0.000000,0.000000,0.000000 WristLeft:-0.154048,0.709554,-0.094365,0.681100 WristRight:-0.221397,0.894553,0.057978,-0.383923 END:
KINECT_DATA POSITION:4.759962,1.198763,-17.002369 HEAD_JOINT1:0.987482,0.143247,-0.000000,0.066023 LARM_JOINT2:0.807175,0.000000,-0.063221,-0.586917 LARM_JOINT3:0.968052,0.000000,-0.192683,-0.160466 LLEG_JOINT2:0.999243,0.020915,0.000000,0.032810 LLEG_JOINT4:0.995838,0.088747,0.000000,-0.020760 RARM_JOINT2:0.811319,0.000000,0.215259,0.543530 RARM_JOINT3:0.953672,0.000000,0.264472,0.143404 RLEG_JOINT2:0.999028,0.029559,0.000000,-0.032714 RLEG_JOINT4:0.994783,0.093838,0.000000,0.040016 WAIST:0.999926,-0.000000,0.012044,0.001722 WAIST_JOINT0:0.999627,-0.000000,0.022168,0.015953 WAIST_JOINT1:0.998285,0.058012,0.000000,-0.007893 END:
KINECT_DATA_Sensor  AnkleLeft:0.072322,0.720679,-0.083316,-0.684434 AnkleRight:0.096262,0.738900,0.077331,0.662405 ElbowLeft:-0.053862,0.899903,-0.137120,-0.410454 ElbowRight:-0.174445,0.928313,0.115411,0.307382 FootLeft:0.000000,0.000000,0.000000,0.000000 FootRight:0.000000,0.000000,0.000000,0.000000 HandLeft:-0.130696,0.496013,-0.081746,0.854522 HandRight:-0.116322,0.499365,-0.369685,0.774878 HandTipLeft:0.000000,0.000000,0.000000,0.000000 HandTipRight:0.000000,0.000000,0.000000,0.000000 Head:0.000000,0.000000,0.000000,0.000000 HipLeft:0.117942,-0.681748,0.706005,-0.151212 HipRight:-0.137006,0.678253,0.700540,-0.174490 KneeLeft:0.009147,-0.698360,0.039309,0.714608 KneeRight:-0.001503,0.715631,0.042788,0.697165 Neck:-0.022862,-0.003333,0.997380,-0.068547 ShoulderLeft:0.028728,0.777230,-0.627391,0.038320 ShoulderRight:-0.000143,0.792080,0.606114,-0.072352 SpineBase:-0.012262,-0.004340,0.999459,-0.030211 SpineMid:-0.017684,-0.004176,0.999378,-0.030234 SpineShoulder:-0.023245,-0.007168,0.998213,-0.054576 ThumbLeft:0.000000,0.000000,0.000000,0.000000 ThumbRight:0.000000,0.000000,0.000000,0.000000 WristLeft:-0.111555,0.500728,-0.141069,0.846715 WristRight:-0.087846,0.519926,-0.281059,0.801852 END:
KINECT_DATA POSITION:5.399984,1.109872,-16.654228 HEAD_JOINT1:0.989083,0.142481,-0.000000,0.037592 LARM_JOINT2:0.797856,0.000000,-0.043674,-0.601263 LARM_JOINT3:0.968541,0.000000,-0.194885,-0.154751 LLEG_JOINT2:0.999651,0.022115,0.000000,0.014477 LLEG_JOINT4:0.996288,0.085441,0.000000,-0.010458 RARM_JOINT2:0.789653,0.000000,0.334863,0.514116 RARM_JOINT3:0.963517,0.000000,0.250160,0.095159 RLEG_JOINT2:0.998014,0.036721,0.000000,-0.051174 RLEG_JOINT4:0.995024,0.087542,0.000000,0.047581 WAIST:0.999482,-0.000000,0.030139,0.011315 WAIST_JOINT0:0.996897,-0.000000,0.072918,0.029656 WAIST_JOINT1:0.998845,0.048016,0.000000,-0.001534 END:
KINECT_DATA_Sensor  AnkleLeft:0.071487,0.713300,-0.081163,-0.692464 AnkleRight:0.092806,0.738449,0.082050,0.662833 ElbowLeft:-0.051547,0.871949,-0.138729,-0.466692 ElbowRight:-0.260841,0.908285,0.017802,0.326593 FootLeft:0.000000,0.000000,0.000000,0.000000 FootRight:0.000000,0.000000,0.000000,0.000000 HandLeft:-0.125000,0.510047,-0.071523,0.848004 HandRight:0.369165,-0.675711,-0.122456,0.626208 HandTipLeft:0.000000,0.000000,0.000000,0.000000 HandTipRight:0.000000,0.000000,0.000000,0.000000 Head:0.000000,0.000000,0.000000,0.000000 HipLeft:0.110429,-0.678228,0.712826,-0.140329 HipRight:-0.154678,0.683547,0.689775,-0.181792 KneeLeft:0.001810,-0.685112,0.033697,0.727656 KneeRight:-0.004007,0.728524,0.053832,0.682891 Neck:-0.072920,0.013876,0.995454,-0.059676 ShoulderLeft:0.038808,0.775660,-0.629950,0.002875 ShoulderRight:-0.054959,0.802349,0.583116,-0.114851 SpineBase:-0.030525,0.005923,0.999213,-0.024635 SpineMid:-0.051612,0.006441,0.998346,-0.024505 SpineShoulder:-0.073132,0.009216,0.996325,-0.043632 ThumbLeft:0.000000,0.000000,0.000000,0.000000 ThumbRight:0.000000,0.000000,0.000000,0.000000 WristLeft:-0.097336,0.514959,-0.158276,0.836834 WristRight:0.368509,-0.682448,-0.164928,0.609315 END:
KINECT_DATA POSITION:5.606064,1.071560,-16.614210 HEAD_JOINT1:0.989609,0.141912,-0.000000,0.023147 LARM_JOINT2:0.793180,0.000000,-0.034718,-0.607997 LARM_JOINT3:0.968123,0.000000,-0.206066,-0.142392 LLEG_JOINT2:0.999677,0.025161,0.000000,0.003567 LLEG_JOINT4:0.996604,0.082309,0.000000,-0.002272 RARM_JOINT2:0.775314,0.000000,0.432503,0.460250 RARM_JOINT3:0.971127,0.000000,0.201553,0.127631 RLEG_JOINT2:0.996850,0.042817,0.000000,-0.066760 RLEG_JOINT4:0.994792,0.084381,0.000000,0.057168 WAIST:0.998817,-0.000000,0.044560,0.019459 WAIST_JOINT0:0.994065,-0.000000,0.103227,0.034336 WAIST_JOINT1:0.999046,0.043677,-0.000000,0.000526 END:
KINECT_DATA_Sensor  AnkleLeft:0.072096,0.731457,-0.081010,-0.673209 AnkleRight:0.096796,0.763243,0.081236,0.633634 ElbowLeft:-0.051852,0.851268,-0.141466,-0.502635 ElbowRight:-0.334446,0.932608,0.014174,0.134859 FootLeft:0.000000,0.000000,0.000000,0.000000 FootRight:0.000000,0.000000,0.000000,0.000000 HandLeft:-0.162458,0.771112,-0.069191,0.611724 HandRight:0.404230,-0.646376,-0.075836,0.642686 HandTipLeft:0.000000,0.000000,0.000000,0.000000 HandTipRight:0.000000,0.000000,0.000000,0.000000 Head:0.000000,0.000000,0.000000,0.000000 HipLeft:0.104362,-0.674486,0.718604,-0.133364 HipRight:-0.168605,0.686834,0.680734,-0.190875 KneeLeft:-0.002404,-0.674238,0.033364,0.737756 KneeRight:-0.006480,0.738737,0.062937,0.671017 Neck:-0.103358,0.022103,0.992764,-0.056997 ShoulderLeft:0.048816,0.770727,-0.634973,-0.020157 ShoulderRight:-0.084521,0.801695,0.575260,-0.138629 SpineBase:-0.045118,0.012604,0.998654,-0.022278 SpineMid:-0.073882,0.013241,0.996938,-0.021905 SpineShoulder:-0.103238,0.020016,0.993734,-0.037857 ThumbLeft:0.000000,0.000000,0.000000,0.000000 ThumbRight:0.000000,0.000000,0.000000,0.000000 WristLeft:-0.133684,0.780137,-0.130052,0.597161 WristRight:0.384278,-0.664327,-0.128402,0.628103 END:
KINECT_DATA POSITION:5.608368,1.115029,-16.753328 HEAD_JOINT1:0.989963,0.140163,-0.000000,0.018122 LARM_JOINT2:0.790473,0.000000,-0.034803,-0.611507 LARM_JOINT3:0.968416,0.000000,-0.212138,-0.131023 LLEG_JOINT2:0.999807,0.019506,0.000000,0.002334 LLEG_JOINT4:0.996291,0.086036,0.000000,-0.001301 RARM_JOINT2:0.797661,0.000000,0.451672,0.399661 RARM_JOINT3:0.945378,0.000000,0.244683,0.215384 RLEG_JOINT2:0.996191,0.050796,0.000000,-0.070880 RLEG_JOINT4:0.995146,0.076265,0.000000,0.062197 WAIST:0.997430,-0.000000,0.067398,0.024302 WAIST_JOINT0:0.992433,-0.000000,0.119059,0.030016 WAIST_JOINT1:0.999154,0.041112,-0.000000,0.000828 END:
KINECT_DATA_Sensor  AnkleLeft:0.069948,0.722934,-0.080691,-0.682615 AnkleRight:0.092225,0.730111,0.085889,0.671606 ElbowLeft:-0.056012,0.823301,-0.140308,-0.547131 ElbowRight:-0.374278,0.923227,0.085427,-0.016439 FootLeft:0.000000,0.000000,0.000000,0.000000 FootRight:0.000000,0.000000,0.000000,0.000000 HandLeft:-0.154328,0.794042,-0.080457,0.582415 HandRight:0.460051,-0.524398,-0.059700,0.714000 HandTipLeft:0.000000,0.000000,0.000000,0.000000 HandTipRight:0.000000,0.000000,0.000000,0.000000 Head:0.000000,0.000000,0.000000,0.000000 HipLeft:0.091312,-0.671842,0.725526,-0.117909 HipRight:-0.182322,0.686649,0.675680,-0.196798 KneeLeft:0.004026,-0.657169,0.031767,0.753063 KneeRight:-0.002617,0.754376,0.067750,0.652931 Neck:-0.119793,0.025539,0.990934,-0.055199 ShoulderLeft:0.061747,0.765415,-0.639460,-0.037642 ShoulderRight:-0.093205,0.793655,0.583037,-0.146603 SpineBase:-0.067920,0.019003,0.997337,-0.018588 SpineMid:-0.093416,0.019472,0.995272,-0.018096 SpineShoulder:-0.119560,0.024063,0.991921,-0.034909 ThumbLeft:0.000000,0.000000,0.000000,0.000000 ThumbRight:0.000000,0.000000,0.000000,0.000000 WristLeft:-0.135092,0.799972,-0.148087,0.565566 WristRight:0.389832,-0.556619,-0.104764,0.726106 END:
KINECT_DATA POSITION:5.075289,1.245136,-17.186594 HEAD_JOINT1:0.990445,0.137167,-0.000000,0.014260 LARM_JOINT2:0.793398,0.000000,-0.036706,-0.607596 LARM_JOINT3:0.968476,0.000000,-0.214054,-0.127419 LLEG_JOINT2:0.999794,0.008738,0.000000,0.018346 LLEG_JOINT4:0.995991,0.089014,0.000000,-0.008897 RARM_JOINT2:0.804134,0.000000,0.439064,0.400738 RARM_JOINT3:0.930349,0.000000,0.291004,0.223085 RLEG_JOINT2:0.996729,0.052218,0.000000,-0.061688 RLEG_JOINT4:0.995249,0.074278,0.000000,0.062943 WAIST:0.995167,-0.000000,0.096068,0.020358 WAIST_JOINT0:0.988557,-0.000000,0.147734,0.030494 WAIST_JOINT1:0.999156,0.040858,-0.000000,0.004235 END:
KINECT_DATA_Sensor  AnkleLeft:0.064223,0.713280,-0.076848,-0.693686 AnkleRight:0.092087,0.735562,0.086056,0.665629 ElbowLeft:-0.057171,0.801161,-0.144160,-0.578005 ElbowRight:-0.374069,0.924912,0.067700,0.005112 FootLeft:0.000000,0.000000,0.000000,0.000000 FootRight:0.000000,0.000000,0.000000,0.000000 HandLeft:-0.132934,0.743095,-0.102981,0.647714 HandRight:0.498462,-0.450967,-0.039219,0.739342 HandTipLeft:0.000000,0.000000,0.000000,0.000000 HandTipRight:0.000000,0.000000,0.000000,0.000000 Head:0.000000,0.000000,0.000000,0.000000 HipLeft:0.078931,-0.676968,0.723989,-0.106417 HipRight:-0.203382,0.679106,0.671610,-0.215387 KneeLeft:0.019308,-0.635366,0.034107,0.771216 KneeRight:0.000159,0.772804,0.065163,0.631290 Neck:-0.148529,0.024223,0.987058,-0.055397 ShoulderLeft:0.074704,0.762138,-0.640802,-0.054202 ShoulderRight:-0.118332,0.787278,0.579642,-0.173799 SpineBase:-0.096415,0.018982,0.994996,-0.018065 SpineMid:-0.122037,0.019442,0.992180,-0.017570 SpineShoulder:-0.148400,0.022260,0.988059,-0.034953 ThumbLeft:0.000000,0.000000,0.000000,0.000000 ThumbRight:0.000000,0.000000,0.000000,0.000000 WristLeft:-0.112566,0.749145,-0.174854,0.628917 WristRight:0.420252,-0.492985,-0.103767,0.754710 END:
KINECT_DATA POSITION:4.979769,1.381151,-17.427683 HEAD_JOINT1:0.990646,0.135632,-0.000000,0.014982 LARM_JOINT2:0.793384,0.000000,-0.036892,-0.607602 LARM_JOINT3:0.968129,0.000000,-0.214827,-0.128745 LLEG_JOINT2:0.999711,0.005238,0.000000,0.023478 LLEG_JOINT4:0.996204,0.086827,0.000000,-0.006230 RARM_JOINT2:0.804640,0.000000,0.435308,0.403810 RARM_JOINT3:0.933035,0.000000,0.285091,0.219473 RLEG_JOINT2:0.996995,0.051475,0.000000,-0.057898 RLEG_JOINT4:0.995310,0.073443,0.000000,0.062967 WAIST:0.993855,-0.000000,0.109385,0.016969 WAIST_JOINT0:0.985941,-0.000000,0.164013,0.031942 WAIST_JOINT1:0.999141,0.040580,-0.000000,0.008341 END:
KINECT_DATA_Sensor  AnkleLeft:-0.048226,-0.611680,0.083361,0.785221 AnkleRight:0.089085,0.734386,0.087202,0.667186 ElbowLeft:-0.056352,0.791215,-0.145187,-0.591375 ElbowRight:-0.372161,0.926296,0.058733,0.004770 FootLeft:0.000000,0.000000,0.000000,0.000000 FootRight:0.000000,0.000000,0.000000,0.000000 HandLeft:-0.147047,0.755154,-0.101349,0.630751 HandRight:-0.042520,0.755795,-0.472734,0.451097 HandTipLeft:0.000000,0.000000,0.000000,0.000000 HandTipRight:0.000000,0.000000,0.000000,0.000000 Head:0.000000,0.000000,0.000000,0.000000 HipLeft:0.071826,-0.680108,0.722610,-0.100641 HipRight:-0.212597,0.674460,0.670929,-0.223071 KneeLeft:0.022584,-0.625072,0.033592,0.779517 KneeRight:-0.000800,0.781123,0.064407,0.621045 Neck:-0.164734,0.024728,0.984465,-0.055491 ShoulderLeft:0.082374,0.759994,-0.641529,-0.063753 ShoulderRight:-0.132218,0.784256,0.576026,-0.188824 SpineBase:-0.109593,0.019261,0.993621,-0.018320 SpineMid:-0.136715,0.019754,0.990254,-0.017787 SpineShoulder:-0.164640,0.022510,0.985474,-0.035045 ThumbLeft:0.000000,0.000000,0.000000,0.000000 ThumbRight:0.000000,0.000000,0.000000,0.000000 WristLeft:-0.108588,0.765532,-0.176237,0.609188 WristRight:-0.099757,0.758014,-0.425570,0.484101 END:
KINECT_DATA POSITION:4.903491,1.421030,-17.556953 HEAD_JOINT1:0.990754,0.134972,-0.000000,0.013723 LARM_JOINT2:0.793345,0.000000,-0.038238,-0.607570 LARM_JOINT3:0.965894,0.000000,-0.222705,-0.132104 LLEG_JOINT2:0.999676,0.003735,0.000000,0.025189 LLEG_JOINT4:0.996491,0.083698,0.000000,-0.000864 RARM_JOINT2:0.805997,0.000000,0.432035,0.404616 RARM_JOINT3:0.934911,0.000000,0.282100,0.215313 RLEG_JOINT2:0.997147,0.050130,0.000000,-0.056427 RLEG_JOINT4:0.995147,0.075482,0.000000,0.063134 WAIST:0.993471,-0.000000,0.113002,0.015662 WAIST_JOINT0:0.985513,-0.000000,0.166460,0.032497 WAIST_JOINT1:0.999126,0.040551,-0.000000,0.010099 END:
KINECT_DATA_Sensor  AnkleLeft:-0.041613,-0.611381,0.084685,0.785691 AnkleRight:0.089281,0.734998,0.088180,0.666356 ElbowLeft:-0.056921,0.789056,-0.145321,-0.594165 ElbowRight:-0.370581,0.926985,0.057622,0.006887 FootLeft:0.000000,0.000000,0.000000,0.000000 FootRight:0.000000,0.000000,0.000000,0.000000 HandLeft:-0.181230,0.764298,-0.107190,0.609520 HandRight:-0.023529,0.727302,-0.465251,0.504004 HandTipLeft:0.000000,0.000000,0.000000,0.000000 HandTipRight:0.000000,0.000000,0.000000,0.000000 Head:0.000000,0.000000,0.000000,0.000000 HipLeft:0.070581,-0.681048,0.721929,-0.100050 HipRight:-0.216267,0.672629,0.670653,-0.225883 KneeLeft:0.023823,-0.622275,0.033111,0.781735 KneeRight:-0.001689,0.783350,0.063315,0.618345 Neck:-0.167335,0.024979,0.984007,-0.055720 ShoulderLeft:0.081500,0.759572,-0.642196,-0.063185 ShoulderRight:-0.136914,0.783657,0.574381,-0.192932 SpineBase:-0.113150,0.019662,0.993212,-0.018469 SpineMid:-0.139787,0.020151,0.989814,-0.017934 SpineShoulder:-0.167239,0.022781,0.985024,-0.035224 ThumbLeft:0.000000,0.000000,0.000000,0.000000 ThumbRight:0.000000,0.000000,0.000000,0.000000 WristLeft:-0.112563,0.782420,-0.174785,0.587025 WristRight:-0.073828,0.725831,-0.430148,0.531688 END:
KINECT_DATA POSITION:4.814669,1.443900,-17.593967 HEAD_JOINT1:0.990875,0.133925,-0.000000,0.015173 LARM_JOINT2:0.793525,0.000000,-0.039111,-0.607279 LARM_JOINT3:0.964812,0.000000,-0.224025,-0.137663 LLEG_JOINT2:0.999622,0.002337,0.000000,0.027381 LLEG_JOINT4:0.996099,0.087969,0.000000,-0.006974 RARM_JOINT2:0.805984,0.000000,0.429877,0.406935 RARM_JOINT3:0.932654,0.000000,0.290404,0.214061 RLEG_JOINT2:0.997263,0.050299,0.000000,-0.054181 RLEG_JOINT4:0.995088,0.074996,0.000000,0.064614 WAIST:0.993314,-0.000000,0.114575,0.014158 WAIST_JOINT0:0.985185,-0.000000,0.168384,0.032506 WAIST_JOINT1:0.999146,0.039602,-0.000000,0.011780 END:
KINECT_DATA_Sensor  AnkleLeft:0.063257,0.757317,-0.070893,-0.646099 AnkleRight:0.092284,0.746781,0.085394,0.653077 ElbowLeft:-0.057121,0.792738,-0.145683,-0.589135 ElbowRight:-0.369364,0.927608,0.054458,0.012172 FootLeft:0.000000,0.000000,0.000000,0.000000 FootRight:0.000000,0.000000,0.000000,0.000000 HandLeft:-0.185524,0.783676,-0.095746,0.585035 HandRight:-0.029642,0.733927,-0.482456,0.477187 HandTipLeft:0.000000,0.000000,0.000000,0.000000 HandTipRight:0.000000,0.000000,0.000000,0.000000 Head:0.000000,0.000000,0.000000,0.000000 HipLeft:0.070600,-0.681851,0.721237,-0.099564 HipRight:-0.218390,0.671081,0.671213,-0.226779 KneeLeft:0.025180,-0.621065,0.032916,0.782663 KneeRight:-0.001001,0.784312,0.063090,0.617150 Neck:-0.169109,0.025157,0.983744,-0.054919 ShoulderLeft:0.078187,0.760123,-0.642080,-0.061918 ShoulderRight:-0.143031,0.782878,0.572730,-0.196528 SpineBase:-0.114658,0.019897,0.993045,-0.017851 SpineMid:-0.141409,0.020371,0.989590,-0.017307 SpineShoulder:-0.169008,0.022963,0.984744,-0.034478 ThumbLeft:0.000000,0.000000,0.000000,0.000000 ThumbRight:0.000000,0.000000,0.000000,0.000000 WristLeft:-0.124976,0.800465,-0.170423,0.560886 WristRight:-0.084817,0.738770,-0.431402,0.510800 END:
KINECT_DATA POSITION:4.754344,1.462959,-17.569614 HEAD_JOINT1:0.990803,0.134411,-0.000000,0.015579 LARM_JOINT2:0.793555,0.000000,-0.039174,-0.607236 LARM_JOINT3:0.965564,0.000000,-0.220744,-0.137688 LLEG_JOINT2:0.999573,0.001687,0.000000,0.029167 LLEG_JOINT4:0.995548,0.094158,0.000000,-0.004252 RARM_JOINT2:0.806002,0.000000,0.430144,0.406618 RARM_JOINT3:0.931872,0.000000,0.291814,0.215546 RLEG_JOINT2:0.997323,0.049502,0.000000,-0.053817 RLEG_JOINT4:0.994733,0.076849,0.000000,0.067824 WAIST:0.993105,-0.000000,0.116550,0.012588 WAIST_JOINT0:0.984916,-0.000000,0.169866,0.032966 WAIST_JOINT1:0.999141,0.039214,-0.000000,0.013363 END:
KINECT_DATA_Sensor  AnkleLeft:0.066745,0.751982,-0.076302,-0.651341 AnkleRight:0.091461,0.724784,0.088554,0.677113 ElbowLeft:-0.056948,0.792300,-0.145812,-0.589709 ElbowRight:-0.369852,0.927451,0.054554,0.008216 FootLeft:0.000000,0.000000,0.000000,0.000000 FootRight:0.000000,0.000000,0.000000,0.000000 HandLeft:-0.177459,0.803342,-0.084625,0.562128 HandRight:-0.038245,0.745448,-0.487243,0.453253 HandTipLeft:0.000000,0.000000,0.000000,0.000000 HandTipRight:0.000000,0.000000,0.000000,0.000000 Head:0.000000,0.000000,0.000000,0.000000 HipLeft:0.069943,-0.682733,0.720584,-0.098703 HipRight:-0.220307,0.669511,0.671868,-0.227624 KneeLeft:0.025641,-0.619541,0.032837,0.783858 KneeRight:-0.002459,0.785490,0.063329,0.615620 Neck:-0.170455,0.025137,0.983521,-0.054773 ShoulderLeft:0.077114,0.760197,-0.642161,-0.061515 ShoulderRight:-0.146113,0.782608,0.571549,-0.198767 SpineBase:-0.116576,0.019804,0.992829,-0.017572 SpineMid:-0.143042,0.020266,0.989362,-0.017037 SpineShoulder:-0.170360,0.022885,0.984519,-0.034300 ThumbLeft:0.000000,0.000000,0.000000,0.000000 ThumbRight:0.000000,0.000000,0.000000,0.000000 WristLeft:-0.129910,0.816664,-0.166878,0.536968 WristRight:-0.094534,0.753747,-0.428865,0.488879 END:
KINECT_DATA POSITION:4.709488,1.589198,-17.609001 HEAD_JOINT1:0.990221,0.138503,-0.000000,0.016737 LARM_JOINT2:0.793854,0.000000,-0.037319,-0.606963 LARM_JOINT3:0.966544,0.000000,-0.215541,-0.139047 LLEG_JOINT2:0.999451,0.002447,0.000000,0.033053 LLEG_JOINT4:0.995970,0.089555,0.000000,-0.004878 RARM_JOINT2:0.816330,0.000000,0.430054,0.385563 RARM_JOINT3:0.915740,0.000000,0.345187,0.205587 RLEG_JOINT2:0.997713,0.046666,0.000000,-0.048908 RLEG_JOINT4:0.994472,0.079699,0.000000,0.068369 WAIST:0.993269,-0.000000,0.115541,0.008135 WAIST_JOINT0:0.986549,-0.000000,0.160804,0.029378 WAIST_JOINT1:0.999068,0.039380,-0.000000,0.017656 END:
KINECT_DATA_Sensor  AnkleLeft:-0.048815,-0.613610,0.084833,0.783519 AnkleRight:0.094565,0.737918,0.086345,0.662631 ElbowLeft:-0.055343,0.792732,-0.146904,-0.589009 ElbowRight:-0.384471,0.920210,0.057185,0.046103 FootLeft:0.000000,0.000000,0.000000,0.000000 FootRight:0.000000,0.000000,0.000000,0.000000 HandLeft:-0.155868,0.764443,-0.078922,0.620567 HandRight:-0.082986,0.733495,-0.509421,0.442254 HandTipLeft:0.000000,0.000000,0.000000,0.000000 HandTipRight:0.000000,0.000000,0.000000,0.000000 Head:0.000000,0.000000,0.000000,0.000000 HipLeft:0.068896,-0.685270,0.718186,-0.099335 HipRight:-0.219085,0.666853,0.675481,-0.225905 KneeLeft:0.024328,-0.620492,0.033195,0.783132 KneeRight:-0.003455,0.784710,0.061215,0.616824 Neck:-0.161748,0.024626,0.984938,-0.055930 ShoulderLeft:0.078409,0.760552,-0.641742,-0.059829 ShoulderRight:-0.132826,0.782042,0.579226,-0.187792 SpineBase:-0.115402,0.019596,0.992953,-0.018485 SpineMid:-0.138178,0.020015,0.990041,-0.018031 SpineShoulder:-0.161644,0.022477,0.985971,-0.035035 ThumbLeft:0.000000,0.000000,0.000000,0.000000 ThumbRight:0.000000,0.000000,0.000000,0.000000 WristLeft:-0.117689,0.777519,-0.174368,0.592630 WristRight:-0.100833,0.745159,-0.469065,0.463194 END:
KINECT_DATA POSITION:4.719496,1.666553,-17.656696 HEAD_JOINT1:0.990098,0.139434,-0.000000,0.016239 LARM_JOINT2:0.792455,0.000000,-0.041883,-0.608490 LARM_JOINT3:0.965939,0.000000,-0.218606,-0.138471 LLEG_JOINT2:0.999499,-0.002411,0.000000,0.031545 LLEG_JOINT4:0.995207,0.097590,0.000000,-0.006193 RARM_JOINT2:0.785510,0.000000,0.477182,0.394046 RARM_JOINT3:0.953707,0.000000,0.252843,0.162830 RLEG_JOINT2:0.997571,0.050123,0.000000,-0.048381 RLEG_JOINT4:0.995050,0.073758,0.000000,0.066598 WAIST:0.992564,-0.000000,0.121384,0.009054 WAIST_JOINT0:0.982598,-0.000000,0.181891,0.037630 WAIST_JOINT1:0.998825,0.043894,-0.000000,0.020527 END:
KINECT_DATA_Sensor  AnkleLeft:0.064610,0.716009,-0.076358,-0.690888 AnkleRight:0.091654,0.737656,0.085599,0.663427 ElbowLeft:-0.052711,0.795932,-0.149452,-0.584275 ElbowRight:-0.391333,0.920178,0.008675,0.007443 FootLeft:0.000000,0.000000,0.000000,0.000000 FootRight:0.000000,0.000000,0.000000,0.000000 HandLeft:-0.148850,0.756748,-0.098387,0.628884 HandRight:-0.070586,0.727106,-0.450690,0.513043 HandTipLeft:0.000000,0.000000,0.000000,0.000000 HandTipRight:0.000000,0.000000,0.000000,0.000000 Head:0.000000,0.000000,0.000000,0.000000 HipLeft:0.063391,-0.684734,0.719541,-0.096857 HipRight:-0.221426,0.665949,0.674303,-0.229776 KneeLeft:0.027714,-0.615956,0.029776,0.786730 KneeRight:-0.000637,0.788428,0.062901,0.611903 Neck:-0.183145,0.029342,0.980742,-0.061169 ShoulderLeft:0.083335,0.756911,-0.645144,-0.062687 ShoulderRight:-0.157909,0.781483,0.563811,-0.215561 SpineBase:-0.121231,0.020832,0.992196,-0.020405 SpineMid:-0.151675,0.021449,0.988000,-0.019755 SpineShoulder:-0.183091,0.026125,0.981971,-0.039090 ThumbLeft:0.000000,0.000000,0.000000,0.000000 ThumbRight:0.000000,0.000000,0.000000,0.000000 WristLeft:-0.115224,0.766358,-0.173626,0.607679 WristRight:-0.095768,0.718531,-0.448714,0.522683 END:
KINECT_DATA POSITION:4.828349,1.668041,-17.700554 HEAD_JOINT1:0.989210,0.144421,-0.000000,0.024620 LARM_JOINT2:0.796392,0.000000,-0.042633,-0.603276 LARM_JOINT3:0.964248,0.000000,-0.221662,-0.145232 LLEG_JOINT2:0.999570,-0.002045,0.000000,0.029258 LLEG_JOINT4:0.995475,0.094854,0.000000,-0.005686 RARM_JOINT2:0.798538,0.000000,0.460023,0.388222 RARM_JOINT3:0.943272,0.000000,0.275088,0.185918 RLEG_JOINT2:0.997360,0.051603,0.000000,-0.051096 RLEG_JOINT4:0.995144,0.072214,0.000000,0.066881 WAIST:0.992900,-0.000000,0.118387,0.011614 WAIST_JOINT0:0.983553,-0.000000,0.176027,0.040480 WAIST_JOINT1:0.998815,0.045032,-0.000000,0.018444 END:
KINECT_DATA_Sensor  AnkleLeft:0.062060,0.721572,-0.075605,-0.685395 AnkleRight:0.093339,0.747822,0.083297,0.652006 ElbowLeft:-0.052295,0.809762,-0.156827,-0.562988 ElbowRight:-0.387335,0.921158,0.037936,-0.000918 FootLeft:0.000000,0.000000,0.000000,0.000000 FootRight:0.000000,0.000000,0.000000,0.000000 HandLeft:-0.169900,0.723734,-0.129218,0.656236 HandRight:-0.066197,0.722880,-0.472924,0.499406 HandTipLeft:0.000000,0.000000,0.000000,0.000000 HandTipRight:0.000000,0.000000,0.000000,0.000000 Head:0.000000,0.000000,0.000000,0.000000 HipLeft:0.065003,-0.682765,0.720782,-0.100399 HipRight:-0.220155,0.667744,0.672892,-0.229927 KneeLeft:0.027891,-0.618315,0.029950,0.784864 KneeRight:0.000172,0.786703,0.063955,0.614009 Neck:-0.177903,0.029588,0.981661,-0.061776 ShoulderLeft:0.080973,0.753700,-0.649762,-0.056463 ShoulderRight:-0.154245,0.782322,0.564879,-0.212350 SpineBase:-0.118301,0.022333,0.992491,-0.021604 SpineMid:-0.147573,0.022962,0.988563,-0.020934 SpineShoulder:-0.177822,0.026616,0.982887,-0.040043 ThumbLeft:0.000000,0.000000,0.000000,0.000000 ThumbRight:0.000000,0.000000,0.000000,0.000000 WristLeft:-0.102731,0.739532,-0.170097,0.643122 WristRight:-0.086816,0.728282,-0.441137,0.517172 END:
KINECT_DATA POSITION:4.874176,1.688910,-17.762041 HEAD_JOINT1:0.988167,0.149477,-0.000000,0.034393 LARM_JOINT2:0.796332,0.000000,-0.049085,-0.602865 LARM_JOINT3:0.962072,0.000000,-0.225295,-0.153814 LLEG_JOINT2:0.999602,0.000673,0.000000,0.028194 LLEG_JOINT4:0.995315,0.096416,0.000000,-0.007146 RARM_JOINT2:0.817126,0.000000,0.438598,0.374081 RARM_JOINT3:0.917827,0.000000,0.334259,0.214159 RLEG_JOINT2:0.997515,0.047304,0.000000,-0.052215 RLEG_JOINT4:0.995153,0.075350,0.000000,0.063185 WAIST:0.994305,-0.000000,0.105885,0.012078 WAIST_JOINT0:0.986754,-0.000000,0.157766,0.037770 WAIST_JOINT1:0.998895,0.044893,-0.000000,0.013943 END:
KINECT_DATA_Sensor  AnkleLeft:0.066168,0.732152,-0.076597,-0.673578 AnkleRight:0.096621,0.789788,0.076448,0.600879 ElbowLeft:-0.056819,0.820123,-0.150718,-0.549048 ElbowRight:-0.388280,0.918253,0.072354,0.028552 FootLeft:0.000000,0.000000,0.000000,0.000000 FootRight:0.000000,0.000000,0.000000,0.000000 HandLeft:-0.202662,0.782607,-0.089424,0.581771 HandRight:0.011944,0.641207,-0.527595,0.557095 HandTipLeft:0.000000,0.000000,0.000000,0.000000 HandTipRight:0.000000,0.000000,0.000000,0.000000 Head:0.000000,0.000000,0.000000,0.000000 HipLeft:0.070389,-0.681822,0.720481,-0.105216 HipRight:-0.210957,0.670401,0.675590,-0.222797 KneeLeft:0.025711,-0.628082,0.030906,0.777108 KneeRight:-0.002198,0.778783,0.061090,0.624308 Neck:-0.159733,0.024832,0.984966,-0.060922 ShoulderLeft:0.069238,0.756311,-0.649110,-0.043081 ShoulderRight:-0.141876,0.784178,0.570768,-0.197887 SpineBase:-0.105867,0.020788,0.993920,-0.021960 SpineMid:-0.132279,0.021365,0.990751,-0.021399 SpineShoulder:-0.159602,0.023238,0.986107,-0.039743 ThumbLeft:0.000000,0.000000,0.000000,0.000000 ThumbRight:0.000000,0.000000,0.000000,0.000000 WristLeft:-0.137220,0.801299,-0.154653,0.561402 WristRight:-0.021052,0.659929,-0.466599,0.588503 END:
KINECT_DATA POSITION:4.931131,1.698285,-17.832888 HEAD_JOINT1:0.988131,0.150621,-0.000000,0.030183 LARM_JOINT2:0.796694,0.000000,-0.048452,-0.602438 LARM_JOINT3:0.967110,0.000000,-0.212333,-0.140046 LLEG_JOINT2:0.999612,-0.000072,0.000000,0.027852 LLEG_JOINT4:0.995269,0.097115,0.000000,-0.002945 RARM_JOINT2:0.812369,0.000000,0.448632,0.372539 RARM_JOINT3:0.923024,0.000000,0.316468,0.218805 RLEG_JOINT2:0.997623,0.044534,0.000000,-0.052580 RLEG_JOINT4:0.994846,0.079045,0.000000,0.063513 WAIST:0.994613,-0.000000,0.103041,0.011324 WAIST_JOINT0:0.987180,-0.000000,0.155437,0.036257 WAIST_JOINT1:0.998856,0.046003,-0.000000,0.013033 END:
KINECT_DATA_Sensor  AnkleLeft:0.064741,0.736622,-0.079261,-0.668517 AnkleRight:0.091802,0.747747,0.083481,0.652286 ElbowLeft:-0.056116,0.818862,-0.149910,-0.551219 ElbowRight:-0.391198,0.917254,0.074192,0.010176 FootLeft:0.000000,0.000000,0.000000,0.000000 FootRight:0.000000,0.000000,0.000000,0.000000 HandLeft:-0.129851,0.774395,-0.094350,0.612005 HandRight:0.143405,0.428585,-0.459321,0.764705 HandTipLeft:0.000000,0.000000,0.000000,0.000000 HandTipRight:0.000000,0.000000,0.000000,0.000000 Head:0.000000,0.000000,0.000000,0.000000 HipLeft:0.071887,-0.682135,0.719669,-0.107709 HipRight:-0.208431,0.670292,0.676709,-0.222103 KneeLeft:0.025605,-0.630345,0.029589,0.775328 KneeRight:-0.004577,0.776871,0.059739,0.626803 Neck:-0.157392,0.023169,0.985312,-0.062052 ShoulderLeft:0.069491,0.756787,-0.648639,-0.041379 ShoulderRight:-0.138451,0.783103,0.573675,-0.196158 SpineBase:-0.103012,0.019742,0.994218,-0.023024 SpineMid:-0.129696,0.020353,0.991090,-0.022485 SpineShoulder:-0.157283,0.021709,0.986472,-0.040778 ThumbLeft:0.000000,0.000000,0.000000,0.000000 ThumbRight:0.000000,0.000000,0.000000,0.000000 WristLeft:-0.130044,0.775225,-0.160752,0.596886 WristRight:0.138343,0.433987,-0.440279,0.773738 END:
KINECT_DATA POSITION:5.065228,1.665126,-17.853106 HEAD_JOINT1:0.988224,0.152110,-0.000000,0.016588 LARM_JOINT2:0.798921,0.000000,-0.038286,-0.600216 LARM_JOINT3:0.968934,0.000000,-0.205079,-0.138234 LLEG_JOINT2:0.999660,-0.000836,0.000000,0.026047 LLEG_JOINT4:0.995681,0.092771,0.000000,-0.003603 RARM_JOINT2:0.791451,0.000000,0.474959,0.384732 RARM_JOINT3:0.947880,0.000000,0.247134,0.201117 RLEG_JOINT2:0.997490,0.046918,0.000000,-0.053028 RLEG_JOINT4:0.995195,0.076427,0.000000,0.061202 WAIST:0.993897,-0.000000,0.109601,0.012510 WAIST_JOINT0:0.984738,-0.000000,0.169465,0.039649 WAIST_JOINT1:0.998516,0.052357,-0.000000,0.014994 END:
KINECT_DATA_Sensor  AnkleLeft:0.062366,0.742371,-0.074203,-0.662940 AnkleRight:0.088471,0.742824,0.085997,0.658019 ElbowLeft:-0.046404,0.807946,-0.161242,-0.564864 ElbowRight:-0.386918,0.919657,0.051581,-0.043194 FootLeft:0.000000,0.000000,0.000000,0.000000 FootRight:0.000000,0.000000,0.000000,0.000000 HandLeft:-0.097983,0.754996,-0.075034,0.644011 HandRight:-0.064345,0.720979,-0.424554,0.543878 HandTipLeft:0.000000,0.000000,0.000000,0.000000 HandTipRight:0.000000,0.000000,0.000000,0.000000 Head:0.000000,0.000000,0.000000,0.000000 HipLeft:0.067071,-0.681616,0.720564,-0.108114 HipRight:-0.211668,0.668920,0.674592,-0.229494 KneeLeft:0.025766,-0.625296,0.028659,0.779436 KneeRight:-0.003036,0.781057,0.060953,0.621471 Neck:-0.171579,0.027087,0.982369,-0.069128 ShoulderLeft:0.084026,0.752625,-0.651303,-0.047950 ShoulderRight:-0.143303,0.779778,0.571875,-0.210640 SpineBase:-0.109592,0.020417,0.993407,-0.026731 SpineMid:-0.140099,0.021230,0.989566,-0.026090 SpineShoulder:-0.171568,0.024260,0.983762,-0.046775 ThumbLeft:0.000000,0.000000,0.000000,0.000000 ThumbRight:0.000000,0.000000,0.000000,0.000000 WristLeft:-0.102805,0.756116,-0.164861,0.624932 WristRight:-0.057970,0.722644,-0.426021,0.541231 END:
KINECT_DATA POSITION:5.121143,1.583762,-17.862070 HEAD_JOINT1:0.987962,0.154446,-0.000000,0.008809 LARM_JOINT2:0.797227,0.000000,-0.029587,-0.602954 LARM_JOINT3:0.966586,0.000000,-0.214026,-0.141085 LLEG_JOINT2:0.999674,-0.002753,0.000000,0.025369 LLEG_JOINT4:0.995878,0.090412,0.000000,-0.007311 RARM_JOINT2:0.786832,0.000000,0.475482,0.393461 RARM_JOINT3:0.957650,0.000000,0.217084,0.189158 RLEG_JOINT2:0.997211,0.050500,0.000000,-0.054954 RLEG_JOINT4:0.995231,0.075799,0.000000,0.061403 WAIST:0.992745,-0.000000,0.119359,0.014522 WAIST_JOINT0:0.980938,-0.000000,0.187680,0.050363 WAIST_JOINT1:0.998027,0.059832,-0.000000,0.019024 END:
KINECT_DATA_Sensor  AnkleLeft:-0.046029,-0.596693,0.079368,0.797207 AnkleRight:0.088702,0.744532,0.089426,0.655596 ElbowLeft:-0.035661,0.792341,-0.169337,-0.585020 ElbowRight:-0.374370,0.923999,0.041679,-0.065851 FootLeft:0.000000,0.000000,0.000000,0.000000 FootRight:0.000000,0.000000,0.000000,0.000000 HandLeft:-0.125537,0.806089,-0.064536,0.574714 HandRight:-0.032796,0.676323,-0.406184,0.613617 HandTipLeft:0.000000,0.000000,0.000000,0.000000 HandTipRight:0.000000,0.000000,0.000000,0.000000 Head:0.000000,0.000000,0.000000,0.000000 HipLeft:0.056863,-0.680632,0.722375,-0.108081 HipRight:-0.214180,0.667417,0.672061,-0.238778 KneeLeft:0.028074,-0.617791,0.028537,0.785322 KneeRight:-0.001581,0.787258,0.063416,0.613352 Neck:-0.191310,0.033136,0.978002,-0.076248 ShoulderLeft:0.107815,0.742217,-0.658744,-0.059551 ShoulderRight:-0.146002,0.779950,0.564418,-0.227581 SpineBase:-0.119336,0.023089,0.992021,-0.033473 SpineMid:-0.154831,0.024274,0.987104,-0.032623 SpineShoulder:-0.191313,0.029817,0.979576,-0.054230 ThumbLeft:0.000000,0.000000,0.000000,0.000000 ThumbRight:0.000000,0.000000,0.000000,0.000000 WristLeft:-0.101876,0.812389,-0.157141,0.552224 WristRight:-0.022772,0.678875,-0.408416,0.609760 END:
KINECT_DATA POSITION:5.095125,1.490417,-17.768574 HEAD_JOINT1:0.987454,0.156759,-0.000000,0.019003 LARM_JOINT2:0.794825,0.000000,-0.040177,-0.605507 LARM_JOINT3:0.959965,0.000000,-0.232877,-0.155675 LLEG_JOINT2:0.999697,0.000317,0.000000,0.024620 LLEG_JOINT4:0.995622,0.093107,0.000000,-0.008205 RARM_JOINT2:0.799992,0.000000,0.460510,0.384634 RARM_JOINT3:0.951076,0.000000,0.242793,0.191066 RLEG_JOINT2:0.997106,0.051766,0.000000,-0.055673 RLEG_JOINT4:0.995667,0.071477,0.000000,0.059484 WAIST:0.993757,-0.000000,0.110520,0.015232 WAIST_JOINT0:0.984343,-0.000000,0.169953,0.046741 WAIST_JOINT1:0.998378,0.054619,-0.000000,0.016041 END:
KINECT_DATA_Sensor  AnkleLeft:0.066939,0.758910,-0.070052,-0.643947 AnkleRight:0.093736,0.796099,0.079177,0.592597 ElbowLeft:-0.043707,0.810491,-0.159000,-0.562061 ElbowRight:-0.377913,0.922486,0.064600,-0.045041 FootLeft:0.000000,0.000000,0.000000,0.000000 FootRight:0.000000,0.000000,0.000000,0.000000 HandLeft:-0.210990,0.774011,-0.086784,0.590642 HandRight:-0.111301,0.712574,-0.436338,0.538014 HandTipLeft:0.000000,0.000000,0.000000,0.000000 HandTipRight:0.000000,0.000000,0.000000,0.000000 Head:0.000000,0.000000,0.000000,0.000000 HipLeft:0.065147,-0.679179,0.722043,-0.114565 HipRight:-0.211122,0.669196,0.672601,-0.234971 KneeLeft:0.025876,-0.624646,0.030209,0.779894 KneeRight:-0.000186,0.781823,0.064453,0.620160 Neck:-0.173372,0.029890,0.982021,-0.068432 ShoulderLeft:0.098248,0.744152,-0.658542,-0.053919 ShoulderRight:-0.130760,0.782855,0.572069,-0.206826 SpineBase:-0.110573,0.022893,0.993074,-0.032451 SpineMid:-0.141498,0.023895,0.989142,-0.031721 SpineShoulder:-0.173240,0.028160,0.983216,-0.049815 ThumbLeft:0.000000,0.000000,0.000000,0.000000 ThumbRight:0.000000,0.000000,0.000000,0.000000 WristLeft:-0.123526,0.798325,-0.153962,0.568959 WristRight:-0.073639,0.735189,-0.406344,0.537550 END:
KINECT_DATA POSITION:4.987751,1.347599,-17.541611 HEAD_JOINT1:0.986546,0.160729,-0.000000,0.029871 LARM_JOINT2:0.794589,0.000000,-0.040998,-0.605762 LARM_JOINT3:0.963463,0.000000,-0.220446,-0.152128 LLEG_JOINT2:0.999645,0.004324,0.000000,0.026295 LLEG_JOINT4:0.995862,0.090202,0.000000,-0.011098 RARM_JOINT2:0.808259,0.000000,0.450556,0.379099 RARM_JOINT3:0.942179,0.000000,0.263055,0.207606 RLEG_JOINT2:0.997276,0.048878,0.000000,-0.055248 RLEG_JOINT4:0.995710,0.071882,0.000000,0.058257 WAIST:0.995501,-0.000000,0.093577,0.014894 WAIST_JOINT0:0.987339,-0.000000,0.153141,0.041339 WAIST_JOINT1:0.998899,0.046029,-0.000000,0.009047 END:
KINECT_DATA_Sensor  AnkleLeft:0.066117,0.755717,-0.071946,-0.647568 AnkleRight:0.088125,0.749178,0.082014,0.651337 ElbowLeft:-0.049420,0.828371,-0.148516,-0.537868 ElbowRight:-0.383647,0.918590,0.090592,-0.028298 FootLeft:0.000000,0.000000,0.000000,0.000000 FootRight:0.000000,0.000000,0.000000,0.000000 HandLeft:-0.189568,0.742006,-0.099193,0.635336 HandRight:-0.102670,0.695222,-0.453412,0.548217 HandTipLeft:0.000000,0.000000,0.000000,0.000000 HandTipRight:0.000000,0.000000,0.000000,0.000000 Head:0.000000,0.000000,0.000000,0.000000 HipLeft:0.079819,-0.678071,0.720631,-0.120576 HipRight:-0.203922,0.672354,0.675481,-0.223788 KneeLeft:0.023952,-0.637561,0.033546,0.769296 KneeRight:-0.000681,0.771032,0.062375,0.633734 Neck:-0.155733,0.022890,0.985734,-0.059600 ShoulderLeft:0.076902,0.751011,-0.654253,-0.044961 ShoulderRight:-0.128365,0.785879,0.574432,-0.189589 SpineBase:-0.093732,0.019939,0.995023,-0.027330 SpineMid:-0.124209,0.020768,0.991679,-0.026705 SpineShoulder:-0.155567,0.022283,0.986732,-0.040765 ThumbLeft:0.000000,0.000000,0.000000,0.000000 ThumbRight:0.000000,0.000000,0.000000,0.000000 WristLeft:-0.123618,0.759628,-0.151171,0.620348 WristRight:-0.074296,0.719973,-0.409591,0.555297 END:
KINECT_DATA POSITION:5.078461,1.315665,-17.485916 HEAD_JOINT1:0.986695,0.160474,-0.000000,0.026107 LARM_JOINT2:0.792628,0.000000,-0.036031,-0.608640 LARM_JOINT3:0.968761,0.000000,-0.206278,-0.137667 LLEG_JOINT2:0.999783,0.005176,0.000000,0.020203 LLEG_JOINT4:0.995895,0.090073,0.000000,-0.008981 RARM_JOINT2:0.799469,0.000000,0.458995,0.387523 RARM_JOINT3:0.951211,0.000000,0.228370,0.207470 RLEG_JOINT2:0.996929,0.050266,0.000000,-0.060043 RLEG_JOINT4:0.995467,0.073540,0.000000,0.060311 WAIST:0.995318,-0.000000,0.094881,0.018406 WAIST_JOINT0:0.986537,-0.000000,0.158165,0.041587 WAIST_JOINT1:0.998687,0.050370,-0.000000,0.009334 END:
KINECT_DATA_Sensor  AnkleLeft:-0.051619,-0.614971,0.083219,0.782446 AnkleRight:0.088804,0.738387,0.085308,0.663039 ElbowLeft:-0.044620,0.817991,-0.151390,-0.553155 ElbowRight:-0.378053,0.921608,0.076844,-0.042544 FootLeft:0.000000,0.000000,0.000000,0.000000 FootRight:0.000000,0.000000,0.000000,0.000000 HandLeft:-0.116517,0.793022,-0.070986,0.593718 HandRight:-0.088130,0.729515,-0.398359,0.548955 HandTipLeft:0.000000,0.000000,0.000000,0.000000 HandTipRight:0.000000,0.000000,0.000000,0.000000 Head:0.000000,0.000000,0.000000,0.000000 HipLeft:0.077898,-0.676035,0.723070,-0.118649 HipRight:-0.204226,0.674776,0.673069,-0.223488 KneeLeft:0.021874,-0.636509,0.031891,0.770299 KneeRight:-0.001094,0.772055,0.064008,0.632323 Neck:-0.160881,0.028632,0.984352,-0.065945 ShoulderLeft:0.081228,0.749460,-0.655469,-0.045519 ShoulderRight:-0.131653,0.783281,0.574876,-0.196615 SpineBase:-0.095182,0.021565,0.994857,-0.027115 SpineMid:-0.127537,0.022437,0.991229,-0.026398 SpineShoulder:-0.160835,0.025413,0.985670,-0.044064 ThumbLeft:0.000000,0.000000,0.000000,0.000000 ThumbRight:0.000000,0.000000,0.000000,0.000000 WristLeft:-0.123149,0.793065,-0.147783,0.577964 WristRight:-0.082522,0.731561,-0.397803,0.547504 END:
KINECT_DATA POSITION:5.195813,1.316554,-17.440247 HEAD_JOINT1:0.986906,0.159729,-0.000000,0.022430 LARM_JOINT2:0.795270,0.000000,-0.027111,-0.605649 LARM_JOINT3:0.966800,0.000000,-0.217318,-0.134426 LLEG_JOINT2:0.999858,0.005084,0.000000,0.016052 LLEG_JOINT4:0.995972,0.089613,0.000000,-0.002996 RARM_JOINT2:0.798490,0.000000,0.463262,0.384451 RARM_JOINT3:0.949279,0.000000,0.255836,0.182803 RLEG_JOINT2:0.996571,0.052414,0.000000,-0.064023 RLEG_JOINT4:0.995361,0.074259,0.000000,0.061166 WAIST:0.994762,-0.000000,0.100042,0.020978 WAIST_JOINT0:0.985320,-0.000000,0.165074,0.043528 WAIST_JOINT1:0.998575,0.052458,-0.000000,0.009763 END:
KINECT_DATA_Sensor  AnkleLeft:0.064221,0.751714,-0.074674,-0.652094 AnkleRight:0.089375,0.741360,0.088137,0.659264 ElbowLeft:-0.040649,0.806955,-0.161182,-0.566737 ElbowRight:-0.380904,0.921403,0.066944,-0.038037 FootLeft:0.000000,0.000000,0.000000,0.000000 FootRight:0.000000,0.000000,0.000000,0.000000 HandLeft:-0.126355,0.764176,-0.105808,0.623597 HandRight:-0.116400,0.684465,-0.489953,0.527167 HandTipLeft:0.000000,0.000000,0.000000,0.000000 HandTipRight:0.000000,0.000000,0.000000,0.000000 Head:0.000000,0.000000,0.000000,0.000000 HipLeft:0.073514,-0.674383,0.725439,-0.116370 HipRight:-0.206791,0.675305,0.670818,-0.226284 KneeLeft:0.021041,-0.632528,0.030482,0.773651 KneeRight:-0.001376,0.775527,0.066303,0.627821 Neck:-0.167792,0.031270,0.982995,-0.067746 ShoulderLeft:0.086836,0.747225,-0.657057,-0.048903 ShoulderRight:-0.135573,0.781732,0.573738,-0.203325 SpineBase:-0.100419,0.023969,0.994260,-0.028073 SpineMid:-0.133559,0.024893,0.990353,-0.027257 SpineShoulder:-0.167706,0.028183,0.984359,-0.046023 ThumbLeft:0.000000,0.000000,0.000000,0.000000 ThumbRight:0.000000,0.000000,0.000000,0.000000 WristLeft:-0.103015,0.768906,-0.158262,0.610840 WristRight:-0.080750,0.728447,-0.406326,0.545659 END:
KINECT_DATA POSITION:5.141765,1.745570,-17.357599 HEAD_JOINT1:0.990403,0.135828,-0.000000,0.025564 LARM_JOINT2:0.796963,0.000000,-0.030890,-0.603237 LARM_JOINT3:0.958540,0.000000,-0.242045,-0.150381 LLEG_JOINT2:0.999648,0.000027,0.000000,0.026540 LLEG_JOINT4:0.995377,0.095948,0.000000,-0.004224 RARM_JOINT2:0.819714,0.000000,0.469468,0.328128 RARM_JOINT3:0.933931,0.000000,0.335797,0.122531 RLEG_JOINT2:0.997545,0.047723,0.000000,-0.051255 RLEG_JOINT4:0.994665,0.080935,0.000000,0.063955 WAIST:0.993999,-0.000000,0.108926,0.010093 WAIST_JOINT0:0.984461,-0.000000,0.171941,0.035680 WAIST_JOINT1:0.998938,0.043015,-0.000000,0.016538 END:
KINECT_DATA_Sensor  AnkleLeft:0.065133,0.723076,-0.076045,-0.683474 AnkleRight:0.094130,0.745871,0.088504,0.653439 ElbowLeft:-0.049094,0.802985,-0.155929,-0.573141 ElbowRight:-0.435097,0.895312,0.041288,0.086034 FootLeft:0.000000,0.000000,0.000000,0.000000 FootRight:0.000000,0.000000,0.000000,0.000000 HandLeft:-0.214830,0.768474,-0.120896,0.590491 HandRight:-0.137086,0.642541,-0.566593,0.497313 HandTipLeft:0.000000,0.000000,0.000000,0.000000 HandTipRight:0.000000,0.000000,0.000000,0.000000 Head:0.000000,0.000000,0.000000,0.000000 HipLeft:0.069805,-0.682901,0.719345,-0.106378 HipRight:-0.213645,0.668398,0.676042,-0.224872 KneeLeft:0.023706,-0.625912,0.027864,0.779035 KneeRight:-0.002789,0.780664,0.062186,0.621843 Neck:-0.173071,0.025981,0.982857,-0.057998 ShoulderLeft:0.074509,0.755665,-0.648585,-0.052494 ShoulderRight:-0.154837,0.777931,0.572058,-0.208800 SpineBase:-0.108788,0.021687,0.993569,-0.022691 SpineMid:-0.140341,0.022398,0.989606,-0.021990 SpineShoulder:-0.172949,0.024234,0.983890,-0.038244 ThumbLeft:0.000000,0.000000,0.000000,0.000000 ThumbRight:0.000000,0.000000,0.000000,0.000000 WristLeft:-0.127742,0.791102,-0.164650,0.575092 WristRight:-0.137025,0.674522,-0.496749,0.528664 END:
KINECT_DATA POSITION:4.944227,2.076729,-17.570436 HEAD_JOINT1:0.990862,0.133134,-0.000000,0.021627 LARM_JOINT2:0.796257,0.000000,-0.035868,-0.603894 LARM_JOINT3:0.964390,0.000000,-0.221202,-0.144989 LLEG_JOINT2:0.999438,-0.003319,0.000000,0.033348 LLEG_JOINT4:0.995354,0.096208,0.000000,-0.003721 RARM_JOINT2:0.824974,0.000000,0.512376,0.238514 RARM_JOINT3:0.937238,0.000000,0.329132,0.115137 RLEG_JOINT2:0.998224,0.041784,0.000000,-0.042464 RLEG_JOINT4:0.994401,0.084706,0.000000,0.063175 WAIST:0.994131,-0.000000,0.108112,0.003838 WAIST_JOINT0:0.983807,-0.000000,0.176885,0.028899 WAIST_JOINT1:0.999040,0.039270,-0.000000,0.019418 END:
KINECT_DATA_Sensor  AnkleLeft:-0.049351,-0.603587,0.084934,0.791223 AnkleRight:0.093112,0.732614,0.087985,0.668480 ElbowLeft:-0.053650,0.805119,-0.149140,-0.571543 ElbowRight:-0.509007,0.856985,0.061288,0.052278 FootLeft:0.000000,0.000000,0.000000,0.000000 FootRight:0.000000,0.000000,0.000000,0.000000 HandLeft:-0.159675,0.766286,-0.090062,0.615791 HandRight:-0.111321,0.608010,-0.545350,0.566149 HandTipLeft:0.000000,0.000000,0.000000,0.000000 HandTipRight:0.000000,0.000000,0.000000,0.000000 Head:0.000000,0.000000,0.000000,0.000000 HipLeft:0.070769,-0.688410,0.714587,-0.102219 HipRight:-0.213447,0.666287,0.679558,-0.220687 KneeLeft:0.026177,-0.626554,0.026641,0.778482 KneeRight:-0.004064,0.779858,0.056473,0.623391 Neck:-0.176961,0.023170,0.982403,-0.055058 ShoulderLeft:0.066348,0.760585,-0.643690,-0.052645 ShoulderRight:-0.168857,0.772122,0.573713,-0.214868 SpineBase:-0.107827,0.018618,0.993812,-0.019070 SpineMid:-0.141784,0.019259,0.989539,-0.018422 SpineShoulder:-0.176894,0.021233,0.983386,-0.034786 ThumbLeft:0.000000,0.000000,0.000000,0.000000 ThumbRight:0.000000,0.000000,0.000000,0.000000 WristLeft:-0.127822,0.776386,-0.167836,0.593900 WristRight:-0.117550,0.607836,-0.537289,0.572746 END:
KINECT_DATA POSITION:4.863822,2.074347,-17.733395 HEAD_JOINT1:0.990577,0.131909,-0.000000,0.036840 LARM_JOINT2:0.798066,0.000000,-0.042966,-0.601036 LARM_JOINT3:0.965171,0.000000,-0.220319,-0.141080 LLEG_JOINT2:0.999397,-0.005850,0.000000,0.034218 LLEG_JOINT4:0.994710,0.102649,0.000000,-0.003891 RARM_JOINT2:0.830638,0.000000,0.513861,0.214448 RARM_JOINT3:0.936102,0.000000,0.338122,0.096885 RLEG_JOINT2:0.998352,0.040883,0.000000,-0.040284 RLEG_JOINT4:0.994344,0.085062,0.000000,0.063600 WAIST:0.993834,-0.000000,0.110850,0.002351 WAIST_JOINT0:0.983332,-0.000000,0.180463,0.022170 WAIST_JOINT1:0.999101,0.039243,-0.000000,0.016018 END:
KINECT_DATA_Sensor  AnkleLeft:0.067358,0.728424,-0.076352,-0.677519 AnkleRight:0.094569,0.742118,0.086182,0.657944 ElbowLeft:-0.057861,0.803538,-0.145317,-0.574335 ElbowRight:-0.525761,0.846078,0.076785,0.042801 FootLeft:0.000000,0.000000,0.000000,0.000000 FootRight:0.000000,0.000000,0.000000,0.000000 HandLeft:-0.167932,0.743744,-0.102645,0.638833 HandRight:0.120625,-0.576827,0.603793,-0.536800 HandTipLeft:0.000000,0.000000,0.000000,0.000000 HandTipRight:0.000000,0.000000,0.000000,0.000000 Head:0.000000,0.000000,0.000000,0.000000 HipLeft:0.068695,-0.690416,0.713466,-0.097836 HipRight:-0.213380,0.665394,0.680184,-0.221516 KneeLeft:0.027583,-0.624328,0.024752,0.780283 KneeRight:-0.004151,0.781442,0.055437,0.621496 Neck:-0.178855,0.018726,0.982170,-0.054792 ShoulderLeft:0.069076,0.765586,-0.637063,-0.057061 ShoulderRight:-0.167578,0.767300,0.580335,-0.215360 SpineBase:-0.110590,0.015283,0.993581,-0.018272 SpineMid:-0.144188,0.015893,0.989264,-0.017743 SpineShoulder:-0.178931,0.016034,0.983113,-0.034863 ThumbLeft:0.000000,0.000000,0.000000,0.000000 ThumbRight:0.000000,0.000000,0.000000,0.000000 WristLeft:-0.120010,0.757837,-0.173810,0.617309 WristRight:-0.139373,0.610949,-0.534914,0.566730 END:
KINECT_DATA POSITION:4.730192,2.028828,-17.963552 HEAD_JOINT1:0.990258,0.130746,-0.000000,0.047908 LARM_JOINT2:0.799758,0.000000,-0.043216,-0.598765 LARM_JOINT3:0.965994,0.000000,-0.218781,-0.137802 LLEG_JOINT2:0.999296,-0.005971,0.000000,0.037049 LLEG_JOINT4:0.994906,0.100519,0.000000,-0.007571 RARM_JOINT2:0.815457,0.000000,0.546774,0.189916 RARM_JOINT3:0.957424,0.000000,0.278710,0.075230 RLEG_JOINT2:0.998648,0.037088,0.000000,-0.036434 RLEG_JOINT4:0.994299,0.087416,0.000000,0.061051 WAIST:0.994502,0.000000,0.104716,-0.000313 WAIST_JOINT0:0.983365,0.000000,0.181640,-0.000266 WAIST_JOINT1:0.999102,0.039102,-0.000000,0.016285 END:
KINECT_DATA_Sensor  AnkleLeft:0.065322,0.717710,-0.074238,-0.689286 AnkleRight:0.093551,0.739761,0.085277,0.660855 ElbowLeft:-0.060261,0.802455,-0.144796,-0.575734 ElbowRight:-0.547038,0.833335,0.079380,-0.000483 FootLeft:0.000000,0.000000,0.000000,0.000000 FootRight:0.000000,0.000000,0.000000,0.000000 HandLeft:-0.160551,0.721569,-0.101286,0.665810 HandRight:-0.244266,0.642663,-0.592249,0.420189 HandTipLeft:0.000000,0.000000,0.000000,0.000000 HandTipRight:0.000000,0.000000,0.000000,0.000000 Head:0.000000,0.000000,0.000000,0.000000 HipLeft:0.071142,-0.692087,0.711415,-0.099213 HipRight:-0.207922,0.665083,0.683588,-0.217119 KneeLeft:0.027718,-0.629100,0.024832,0.776433 KneeRight:-0.005105,0.777411,0.051982,0.626821 Neck:-0.180228,0.017584,0.981951,-0.054603 ShoulderLeft:0.072161,0.766794,-0.634928,-0.060707 ShoulderRight:-0.168360,0.742098,0.612469,-0.214073 SpineBase:-0.104418,0.012504,0.994289,-0.018185 SpineMid:-0.141888,0.013181,0.989637,-0.017700 SpineShoulder:-0.180394,0.013982,0.982882,-0.034728 ThumbLeft:0.000000,0.000000,0.000000,0.000000 ThumbRight:0.000000,0.000000,0.000000,0.000000 WristLeft:-0.113249,0.736702,-0.179872,0.641944 WristRight:-0.267744,0.681929,-0.476618,0.485924 END:
KINECT_DATA POSITION:4.612247,1.920067,-18.077612 HEAD_JOINT1:0.989700,0.138945,-0.000000,0.034464 LARM_JOINT2:0.798834,0.000000,-0.035592,-0.600497 LARM_JOINT3:0.965690,0.000000,-0.219000,-0.139577 LLEG_JOINT2:0.999357,-0.003961,0.000000,0.035649 LLEG_JOINT4:0.994912,0.100173,0.000000,-0.010757 RARM_JOINT2:0.817272,0.000000,0.558861,0.140504 RARM_JOINT3:0.969622,0.000000,0.227387,0.090160 RLEG_JOINT2:0.998659,0.035523,0.000000,-0.037651 RLEG_JOINT4:0.994594,0.086836,0.000000,0.056936 WAIST:0.995167,-0.000000,0.098179,0.001906 WAIST_JOINT0:0.982672,-0.000000,0.185327,0.003218 WAIST_JOINT1:0.999180,0.036810,-0.000000,0.016882 END:
KINECT_DATA_Sensor  AnkleLeft:-0.053998,-0.596641,0.083685,0.796304 AnkleRight:0.098752,0.803025,0.074532,0.582961 ElbowLeft:-0.058496,0.805035,-0.146999,-0.571741 ElbowRight:-0.563544,0.801209,0.168082,-0.110595 FootLeft:0.000000,0.000000,0.000000,0.000000 FootRight:0.000000,0.000000,0.000000,0.000000 HandLeft:-0.167525,0.752759,-0.090993,0.630087 HandRight:0.287165,-0.576259,0.654234,-0.396786 HandTipLeft:0.000000,0.000000,0.000000,0.000000 HandTipRight:0.000000,0.000000,0.000000,0.000000 Head:0.000000,0.000000,0.000000,0.000000 HipLeft:0.075065,-0.690520,0.712280,-0.101017 HipRight:-0.204762,0.668421,0.683015,-0.211603 KneeLeft:0.027009,-0.634127,0.026406,0.772306 KneeRight:-0.005136,0.773377,0.050009,0.631951 Neck:-0.184567,0.020681,0.981218,-0.052139 ShoulderLeft:0.065102,0.764852,-0.638193,-0.058932 ShoulderRight:-0.182500,0.743112,0.604740,-0.220836 SpineBase:-0.097962,0.014274,0.994955,-0.016227 SpineMid:-0.140660,0.014959,0.989822,-0.015599 SpineShoulder:-0.184622,0.017632,0.982134,-0.031889 ThumbLeft:0.000000,0.000000,0.000000,0.000000 ThumbRight:0.000000,0.000000,0.000000,0.000000 WristLeft:-0.120673,0.767386,-0.171573,0.605903 WristRight:-0.312317,0.695318,-0.420649,0.491981 END:
KINECT_DATA POSITION:4.485092,1.834188,-18.157089 HEAD_JOINT1:0.989234,0.142581,-0.000000,0.032955 LARM_JOINT2:0.799920,0.000000,-0.031145,-0.599298 LARM_JOINT3:0.962530,0.000000,-0.229272,-0.144812 LLEG_JOINT2:0.999390,-0.003680,0.000000,0.034721 LLEG_JOINT4:0.995553,0.093829,0.000000,-0.008385 RARM_JOINT2:0.837209,0.000000,0.539624,0.088811 RARM_JOINT3:0.960340,0.000000,0.253216,0.116743 RLEG_JOINT2:0.998703,0.033951,0.000000,-0.037939 RLEG_JOINT4:0.994324,0.089492,0.000000,0.057542 WAIST:0.995590,-0.000000,0.093758,0.003249 WAIST_JOINT0:0.982801,-0.000000,0.184008,0.015592 WAIST_JOINT1:0.999183,0.036609,-0.000000,0.017100 END:
KINECT_DATA_Sensor  AnkleLeft:-0.046972,-0.598859,0.081983,0.795261 AnkleRight:0.093519,0.741178,0.082903,0.659572 ElbowLeft:-0.057540,0.807262,-0.151114,-0.567610 ElbowRight:-0.572748,0.773488,0.238593,-0.129421 FootLeft:0.000000,0.000000,0.000000,0.000000 FootRight:0.000000,0.000000,0.000000,0.000000 HandLeft:-0.192347,0.750287,-0.103551,0.623979 HandRight:0.307409,-0.529232,0.691871,-0.383050 HandTipLeft:0.000000,0.000000,0.000000,0.000000 HandTipRight:0.000000,0.000000,0.000000,0.000000 Head:0.000000,0.000000,0.000000,0.000000 HipLeft:0.077011,-0.689358,0.712957,-0.102699 HipRight:-0.202339,0.670319,0.682930,-0.208176 KneeLeft:0.027261,-0.637537,0.026705,0.769474 KneeRight:-0.005192,0.770611,0.048060,0.635469 Neck:-0.184128,0.022325,0.981284,-0.051777 ShoulderLeft:0.058804,0.765549,-0.638341,-0.054749 ShoulderRight:-0.187379,0.759396,0.581405,-0.223999 SpineBase:-0.093567,0.015800,0.995364,-0.015682 SpineMid:-0.138081,0.016487,0.990171,-0.014958 SpineShoulder:-0.184128,0.019564,0.982206,-0.031384 ThumbLeft:0.000000,0.000000,0.000000,0.000000 ThumbRight:0.000000,0.000000,0.000000,0.000000 WristLeft:-0.123242,0.770130,-0.170730,0.602132 WristRight:-0.321134,0.706731,-0.403868,0.484041 END:
KINECT_DATA POSITION:4.413695,1.753173,-18.137466 HEAD_JOINT1:0.988815,0.144334,-0.000000,0.037578 LARM_JOINT2:0.799938,0.000000,-0.032336,-0.599211 LARM_JOINT3:0.963051,0.000000,-0.228181,-0.143057 LLEG_JOINT2:0.999448,-0.003589,0.000000,0.033018 LLEG_JOINT4:0.995075,0.098606,0.000000,-0.010131 RARM_JOINT2:0.855754,0.000000,0.516363,0.032484 RARM_JOINT3:0.948748,0.000000,0.279673,0.147173 RLEG_JOINT2:0.998681,0.032910,0.000000,-0.039412 RLEG_JOINT4:0.994287,0.089699,0.000000,0.057865 WAIST:0.995808,-0.000000,0.091349,0.004584 WAIST_JOINT0:0.983363,-0.000000,0.179648,0.026908 WAIST_JOINT1:0.999140,0.037693,-0.000000,0.017260 END:
KINECT_DATA_Sensor  AnkleLeft:0.063364,0.709554,-0.075287,-0.697747 AnkleRight:0.094318,0.748077,0.080632,0.651908 ElbowLeft:-0.058118,0.810038,-0.152494,-0.563211 ElbowRight:-0.559269,0.732429,0.341298,-0.185154 FootLeft:0.000000,0.000000,0.000000,0.000000 FootRight:0.000000,0.000000,0.000000,0.000000 HandLeft:-0.183605,0.743205,-0.109991,0.633907 HandRight:0.437236,-0.493608,0.579272,-0.479186 HandTipLeft:0.000000,0.000000,0.000000,0.000000 HandTipRight:0.000000,0.000000,0.000000,0.000000 Head:0.000000,0.000000,0.000000,0.000000 HipLeft:0.077736,-0.688360,0.713582,-0.104492 HipRight:-0.200647,0.671686,0.682431,-0.207045 KneeLeft:0.027103,-0.639418,0.026337,0.767930 KneeRight:-0.005929,0.769093,0.047279,0.637358 Neck:-0.180685,0.023765,0.981833,-0.052832 ShoulderLeft:0.058960,0.765051,-0.639083,-0.052857 ShoulderRight:-0.181167,0.774720,0.564141,-0.220752 SpineBase:-0.091175,0.016936,0.995559,-0.016237 SpineMid:-0.135108,0.017638,0.990553,-0.015472 SpineShoulder:-0.180651,0.021127,0.982790,-0.032292 ThumbLeft:0.000000,0.000000,0.000000,0.000000 ThumbRight:0.000000,0.000000,0.000000,0.000000 WristLeft:-0.120275,0.760719,-0.171541,0.614340 WristRight:-0.180345,0.721816,-0.384930,0.546156 END:
KINECT_DATA POSITION:4.335892,1.705842,-18.127739 HEAD_JOINT1:0.988515,0.145241,-0.000000,0.041747 LARM_JOINT2:0.801125,0.000000,-0.031888,-0.597648 LARM_JOINT3:0.962892,0.000000,-0.228167,-0.144148 LLEG_JOINT2:0.999515,-0.001869,0.000000,0.031071 LLEG_JOINT4:0.995416,0.095181,0.000000,-0.009407 RARM_JOINT2:0.861825,0.000000,0.507148,0.007598 RARM_JOINT3:0.940331,0.000000,0.301131,0.158423 RLEG_JOINT2:0.998698,0.031091,0.000000,-0.040448 RLEG_JOINT4:0.993746,0.094391,0.000000,0.059658 WAIST:0.996027,-0.000000,0.088858,0.005919 WAIST_JOINT0:0.983681,-0.000000,0.176734,0.033703 WAIST_JOINT1:0.999090,0.039344,-0.000000,0.016497 END:
KINECT_DATA_Sensor  AnkleLeft:0.060923,0.705193,-0.075087,-0.702391 AnkleRight:0.094155,0.716093,0.085531,0.686316 ElbowLeft:-0.057890,0.811166,-0.155389,-0.560814 ElbowRight:-0.559020,0.718456,0.369078,-0.187348 FootLeft:0.000000,0.000000,0.000000,0.000000 FootRight:0.000000,0.000000,0.000000,0.000000 HandLeft:-0.183085,0.762238,-0.100422,0.612689 HandRight:0.444590,-0.509961,0.566996,-0.469888 HandTipLeft:0.000000,0.000000,0.000000,0.000000 HandTipRight:0.000000,0.000000,0.000000,0.000000 Head:0.000000,0.000000,0.000000,0.000000 HipLeft:0.077870,-0.687313,0.714332,-0.106147 HipRight:-0.198126,0.672962,0.682224,-0.206008 KneeLeft:0.025537,-0.641365,0.026831,0.766341 KneeRight:-0.006830,0.767482,0.045629,0.639408 Neck:-0.178203,0.024299,0.982186,-0.054444 ShoulderLeft:0.059793,0.763717,-0.640795,-0.050429 ShoulderRight:-0.176591,0.782187,0.555922,-0.218974 SpineBase:-0.088706,0.017618,0.995751,-0.017319 SpineMid:-0.132600,0.018366,0.990862,-0.016524 SpineShoulder:-0.178151,0.021826,0.983182,-0.033745 ThumbLeft:0.000000,0.000000,0.000000,0.000000 ThumbRight:0.000000,0.000000,0.000000,0.000000 WristLeft:-0.124536,0.778671,-0.167883,0.591589 WristRight:-0.158658,0.742813,-0.369080,0.535571 END:
KINECT_DATA POSITION:4.314242,1.690543,-18.104374 HEAD_JOINT1:0.988240,0.147240,-0.000000,0.041267 LARM_JOINT2:0.801012,0.000000,-0.032706,-0.597754 LARM_JOINT3:0.963545,0.000000,-0.226131,-0.142987 LLEG_JOINT2:0.999523,-0.000969,0.000000,0.030881 LLEG_JOINT4:0.995633,0.092822,0.000000,-0.009911 RARM_JOINT2:0.859739,0.000000,0.510673,0.007858 RARM_JOINT3:0.941936,0.000000,0.297515,0.155698 RLEG_JOINT2:0.998681,0.031144,0.000000,-0.040829 RLEG_JOINT4:0.993809,0.092838,0.000000,0.061039 WAIST:0.996075,-0.000000,0.088291,0.006218 WAIST_JOINT0:0.983686,-0.000000,0.176482,0.034866 WAIST_JOINT1:0.999064,0.040007,-0.000000,0.016440 END:
KINECT_DATA_Sensor  AnkleLeft:0.060720,0.713744,-0.073269,-0.693912 AnkleRight:0.095441,0.724840,0.082232,0.677300 ElbowLeft:-0.058042,0.811453,-0.155386,-0.560383 ElbowRight:-0.560451,0.718697,0.365710,-0.188750 FootLeft:0.000000,0.000000,0.000000,0.000000 FootRight:0.000000,0.000000,0.000000,0.000000 HandLeft:-0.180137,0.793890,-0.088458,0.573990 HandRight:0.424917,-0.497759,0.581135,-0.483696 HandTipLeft:0.000000,0.000000,0.000000,0.000000 HandTipRight:0.000000,0.000000,0.000000,0.000000 Head:0.000000,0.000000,0.000000,0.000000 HipLeft:0.077745,-0.686998,0.714540,-0.106875 HipRight:-0.197579,0.673163,0.682195,-0.205970 KneeLeft:0.024948,-0.641814,0.027463,0.765962 KneeRight:-0.006848,0.767123,0.045708,0.639833 Neck:-0.178334,0.024518,0.982123,-0.055050 ShoulderLeft:0.061408,0.762947,-0.641539,-0.050683 ShoulderRight:-0.175021,0.783354,0.554830,-0.218832 SpineBase:-0.088136,0.018031,0.995785,-0.017861 SpineMid:-0.132368,0.018808,0.990876,-0.017041 SpineShoulder:-0.178275,0.022141,0.983132,-0.034356 ThumbLeft:0.000000,0.000000,0.000000,0.000000 ThumbRight:0.000000,0.000000,0.000000,0.000000 WristLeft:-0.132573,0.807186,-0.161358,0.552122 WristRight:-0.157861,0.727854,-0.374948,0.552017 END:
KINECT_DATA POSITION:4.314050,1.664576,-18.036604 HEAD_JOINT1:0.987834,0.149521,-0.000000,0.042755 LARM_JOINT2:0.799839,0.000000,-0.032707,-0.599323 LARM_JOINT3:0.963632,0.000000,-0.225872,-0.142813 LLEG_JOINT2:0.999525,-0.000079,0.000000,0.030831 LLEG_JOINT4:0.995638,0.092822,0.000000,-0.009386 RARM_JOINT2:0.859208,0.000000,0.511625,0.000861 RARM_JOINT3:0.946582,0.000000,0.283767,0.153161 RLEG_JOINT2:0.998676,0.032364,0.000000,-0.039993 RLEG_JOINT4:0.994037,0.090411,0.000000,0.060962 WAIST:0.996162,-0.000000,0.087308,0.006270 WAIST_JOINT0:0.983830,-0.000000,0.175302,0.036710 WAIST_JOINT1:0.999017,0.041301,-0.000000,0.016084 END:
KINECT_DATA_Sensor  AnkleLeft:-0.049477,-0.604369,0.082455,0.790880 AnkleRight:0.096840,0.736184,0.079001,0.665142 ElbowLeft:-0.056521,0.810574,-0.153686,-0.562277 ElbowRight:-0.568312,0.717810,0.360372,-0.178611 FootLeft:0.000000,0.000000,0.000000,0.000000 FootRight:0.000000,0.000000,0.000000,0.000000 HandLeft:-0.178475,0.766795,-0.090937,0.609838 HandRight:0.481397,-0.518139,0.543291,-0.452354 HandTipLeft:0.000000,0.000000,0.000000,0.000000 HandTipRight:0.000000,0.000000,0.000000,0.000000 Head:0.000000,0.000000,0.000000,0.000000 HipLeft:0.077516,-0.686633,0.714744,-0.108014 HipRight:-0.196464,0.672992,0.682643,-0.206113 KneeLeft:0.024292,-0.642592,0.028013,0.765311 KneeRight:-0.005336,0.766509,0.046078,0.640556 Neck:-0.177608,0.024148,0.982189,-0.056367 ShoulderLeft:0.064402,0.761740,-0.642675,-0.050726 ShoulderRight:-0.170734,0.785204,0.554019,-0.217641 SpineBase:-0.087145,0.018036,0.995852,-0.018942 SpineMid:-0.131515,0.018863,0.990969,-0.018118 SpineShoulder:-0.177550,0.021927,0.983223,-0.035611 ThumbLeft:0.000000,0.000000,0.000000,0.000000 ThumbRight:0.000000,0.000000,0.000000,0.000000 WristLeft:-0.124996,0.782476,-0.165733,0.587061 WristRight:-0.206920,0.734235,-0.379497,0.523512 END:
KINECT_DATA POSITION:4.358173,1.652278,-17.995430 HEAD_JOINT1:0.987580,0.150929,-0.000000,0.043670 LARM_JOINT2:0.798977,0.000000,-0.033301,-0.600439 LARM_JOINT3:0.963900,0.000000,-0.227453,-0.138428 LLEG_JOINT2:0.999565,0.000674,0.000000,0.029499 LLEG_JOINT4:0.995688,0.092539,0.000000,-0.006484 RARM_JOINT2:0.858525,0.000000,0.512766,-0.002302 RARM_JOINT3:0.948524,0.000000,0.277426,0.152764 RLEG_JOINT2:0.998712,0.029001,0.000000,-0.041626 RLEG_JOINT4:0.993709,0.094817,0.000000,0.059595 WAIST:0.996281,-0.000000,0.085885,0.006881 WAIST_JOINT0:0.983886,-0.000000,0.174718,0.037984 WAIST_JOINT1:0.999009,0.041723,-0.000000,0.015474 END:
KINECT_DATA_Sensor  AnkleLeft:-0.048169,-0.605196,0.084440,0.790119 AnkleRight:0.103181,0.796710,0.071390,0.591194 ElbowLeft:-0.056053,0.812070,-0.152349,-0.560527 ElbowRight:-0.567861,0.715314,0.364356,-0.181947 FootLeft:0.000000,0.000000,0.000000,0.000000 FootRight:0.000000,0.000000,0.000000,0.000000 HandLeft:-0.180797,0.784642,-0.100022,0.584504 HandRight:0.489884,-0.518170,0.532575,-0.455936 HandTipLeft:0.000000,0.000000,0.000000,0.000000 HandTipRight:0.000000,0.000000,0.000000,0.000000 Head:0.000000,0.000000,0.000000,0.000000 HipLeft:0.078118,-0.686005,0.715109,-0.109146 HipRight:-0.195502,0.673447,0.682576,-0.205763 KneeLeft:0.023324,-0.643697,0.027882,0.764417 KneeRight:-0.008259,0.765514,0.044141,0.641850 Neck:-0.176992,0.024222,0.982281,-0.056665 ShoulderLeft:0.065558,0.761359,-0.642992,-0.050951 ShoulderRight:-0.168500,0.786556,0.553204,-0.216570 SpineBase:-0.085738,0.018225,0.995963,-0.019377 SpineMid:-0.130497,0.019079,0.991092,-0.018537 SpineShoulder:-0.176932,0.022023,0.983320,-0.035949 ThumbLeft:0.000000,0.000000,0.000000,0.000000 ThumbRight:0.000000,0.000000,0.000000,0.000000 WristLeft:-0.129733,0.797977,-0.160454,0.566265 WristRight:-0.195471,0.720925,-0.382033,0.544160 END:
KINECT_DATA POSITION:4.402293,1.651639,-17.962753 HEAD_JOINT1:0.987417,0.151722,-0.000000,0.044579 LARM_JOINT2:0.798333,0.000000,-0.034043,-0.601253 LARM_JOINT3:0.964667,0.000000,-0.225370,-0.136475 LLEG_JOINT2:0.999601,0.001810,0.000000,0.028174 LLEG_JOINT4:0.995608,0.093186,0.000000,-0.009033 RARM_JOINT2:0.848129,0.000000,0.527470,0.049531 RARM_JOINT3:0.960799,0.000000,0.258598,0.099964 RLEG_JOINT2:0.998686,0.029329,0.000000,-0.042032 RLEG_JOINT4:0.993840,0.094824,0.000000,0.057360 WAIST:0.996423,-0.000000,0.084172,0.007547 WAIST_JOINT0:0.984008,-0.000000,0.173703,0.039426 WAIST_JOINT1:0.999001,0.042099,-0.000000,0.014971 END:
KINECT_DATA_Sensor  AnkleLeft:0.063091,0.715250,-0.074924,-0.691971 AnkleRight:0.094357,0.733084,0.082562,0.668482 ElbowLeft:-0.056529,0.811729,-0.151201,-0.561283 ElbowRight:-0.559388,0.747968,0.313617,-0.171093 FootLeft:0.000000,0.000000,0.000000,0.000000 FootRight:0.000000,0.000000,0.000000,0.000000 HandLeft:-0.165753,0.716992,-0.114207,0.667386 HandRight:0.478414,-0.501307,0.563215,-0.450111 HandTipLeft:0.000000,0.000000,0.000000,0.000000 HandTipRight:0.000000,0.000000,0.000000,0.000000 Head:0.000000,0.000000,0.000000,0.000000 HipLeft:0.078954,-0.685321,0.715512,-0.110201 HipRight:-0.194477,0.674057,0.682516,-0.204935 KneeLeft:0.022111,-0.645014,0.028039,0.763336 KneeRight:-0.007802,0.764438,0.044205,0.643133 Neck:-0.175982,0.024474,0.982437,-0.057003 ShoulderLeft:0.065806,0.760514,-0.644026,-0.050177 ShoulderRight:-0.166952,0.787479,0.552748,-0.215576 SpineBase:-0.084044,0.018580,0.996097,-0.019533 SpineMid:-0.129134,0.019447,0.991261,-0.018671 SpineShoulder:-0.175916,0.022287,0.983487,-0.036205 ThumbLeft:0.000000,0.000000,0.000000,0.000000 ThumbRight:0.000000,0.000000,0.000000,0.000000 WristLeft:-0.110867,0.732035,-0.173517,0.649404 WristRight:-0.222449,0.713960,-0.394221,0.534198 END:
KINECT_DATA POSITION:4.413462,1.525662,-18.027079 HEAD_JOINT1:0.987420,0.153013,-0.000000,0.039867 LARM_JOINT2:0.797753,0.000000,-0.035829,-0.601919 LARM_JOINT3:0.964274,0.000000,-0.227190,-0.136237 LLEG_JOINT2:0.999625,0.001724,0.000000,0.027342 LLEG_JOINT4:0.995931,0.089691,0.000000,-0.008723 RARM_JOINT2:0.804136,0.000000,0.565903,0.181988 RARM_JOINT3:0.962872,0.000000,0.244233,-0.115012 RLEG_JOINT2:0.998641,0.030142,0.000000,-0.042521 RLEG_JOINT4:0.994009,0.093945,0.000000,0.055862 WAIST:0.996608,-0.000000,0.081853,0.008483 WAIST_JOINT0:0.984381,-0.000000,0.168543,0.050870 WAIST_JOINT1:0.998910,0.044572,-0.000000,0.013856 END:
KINECT_DATA_Sensor  AnkleLeft:0.058761,0.708560,-0.074103,-0.699285 AnkleRight:0.092558,0.722891,0.084113,0.679549 ElbowLeft:-0.055871,0.811929,-0.150330,-0.561294 ElbowRight:-0.542150,0.779618,-0.118426,0.290249 FootLeft:0.000000,0.000000,0.000000,0.000000 FootRight:0.000000,0.000000,0.000000,0.000000 HandLeft:-0.182783,0.758616,-0.102092,0.616984 HandRight:0.459702,-0.511529,0.598197,-0.411306 HandTipLeft:0.000000,0.000000,0.000000,0.000000 HandTipRight:0.000000,0.000000,0.000000,0.000000 Head:0.000000,0.000000,0.000000,0.000000 HipLeft:0.078608,-0.684405,0.716107,-0.112257 HipRight:-0.191232,0.674793,0.682790,-0.204654 KneeLeft:0.022353,-0.646795,0.027974,0.761823 KneeRight:-0.006872,0.762955,0.044510,0.644881 Neck:-0.172127,0.024386,0.982940,-0.060058 ShoulderLeft:0.067522,0.759332,-0.645470,-0.047152 ShoulderRight:-0.158828,0.801995,0.535254,-0.212323 SpineBase:-0.081753,0.018452,0.996249,-0.021547 SpineMid:-0.126023,0.019393,0.991622,-0.020704 SpineShoulder:-0.172073,0.022141,0.984087,-0.038389 ThumbLeft:0.000000,0.000000,0.000000,0.000000 ThumbRight:0.000000,0.000000,0.000000,0.000000 WristLeft:-0.121567,0.775155,-0.164293,0.597800 WristRight:-0.399206,0.587248,-0.545531,0.445164 END:
KINECT_DATA POSITION:4.464098,1.596400,-18.277180 HEAD_JOINT1:0.987722,0.151938,-0.000000,0.036338 LARM_JOINT2:0.798238,0.000000,-0.043817,-0.600746 LARM_JOINT3:0.968096,0.000000,-0.210947,-0.135247 LLEG_JOINT2:0.999683,-0.003129,0.000000,0.024963 LLEG_JOINT4:0.995459,0.095102,0.000000,-0.004223 RARM_JOINT2:0.790920,0.000000,0.584480,0.181190 RARM_JOINT3:0.978266,0.000000,0.158783,-0.133354 RLEG_JOINT2:0.998537,0.031936,0.000000,-0.043644 RLEG_JOINT4:0.994071,0.091267,0.000000,0.059104 WAIST:0.995860,-0.000000,0.090446,0.009104 WAIST_JOINT0:0.983679,-0.000000,0.172155,0.052331 WAIST_JOINT1:0.998552,0.052042,-0.000000,0.013602 END:
KINECT_DATA_Sensor  AnkleLeft:0.060698,0.725281,-0.074136,-0.681753 AnkleRight:0.093097,0.726373,0.082770,0.675917 ElbowLeft:-0.053621,0.810107,-0.152417,-0.563578 ElbowRight:-0.494001,0.715594,-0.246170,0.428121 FootLeft:0.000000,0.000000,0.000000,0.000000 FootRight:0.000000,0.000000,0.000000,0.000000 HandLeft:-0.132264,0.791712,-0.061233,0.593253 HandRight:0.313081,-0.580309,0.689703,-0.299219 HandTipLeft:0.000000,0.000000,0.000000,0.000000 HandTipRight:0.000000,0.000000,0.000000,0.000000 Head:0.000000,0.000000,0.000000,0.000000 HipLeft:0.068526,-0.684425,0.717618,-0.109041 HipRight:-0.191918,0.673239,0.682155,-0.211144 KneeLeft:0.024806,-0.640371,0.023623,0.767302 KneeRight:-0.006579,0.768484,0.046056,0.638175 Neck:-0.176147,0.024386,0.981640,-0.068997 ShoulderLeft:0.077733,0.758535,-0.645256,-0.047197 ShoulderRight:-0.153394,0.801438,0.535174,-0.218529 SpineBase:-0.090317,0.018998,0.995379,-0.026521 SpineMid:-0.132375,0.020104,0.990663,-0.025693 SpineShoulder:-0.176177,0.021806,0.983060,-0.045604 ThumbLeft:0.000000,0.000000,0.000000,0.000000 ThumbRight:0.000000,0.000000,0.000000,0.000000 WristLeft:-0.123909,0.796832,-0.159531,0.569434 WristRight:-0.485909,0.582709,-0.477974,0.442587 END:
KINECT_DATA POSITION:4.583325,1.696441,-18.424189 HEAD_JOINT1:0.987477,0.154493,-0.000000,0.031951 LARM_JOINT2:0.797903,0.000000,-0.039045,-0.601520 LARM_JOINT3:0.968678,0.000000,-0.212138,-0.129078 LLEG_JOINT2:0.999716,-0.005355,0.000000,0.023212 LLEG_JOINT4:0.995440,0.095385,0.000000,-0.001221 RARM_JOINT2:0.778809,0.000000,0.587937,0.218603 RARM_JOINT3:0.974811,0.000000,0.117972,-0.189277 RLEG_JOINT2:0.998457,0.031866,0.000000,-0.045470 RLEG_JOINT4:0.994135,0.089790,0.000000,0.060271 WAIST:0.995654,-0.000000,0.092636,0.009545 WAIST_JOINT0:0.983228,-0.000000,0.175813,0.048494 WAIST_JOINT1:0.998339,0.055842,-0.000000,0.014192 END:
KINECT_DATA_Sensor  AnkleLeft:-0.045558,-0.604665,0.082762,0.790857 AnkleRight:0.100227,0.797797,0.071217,0.590257 ElbowLeft:-0.048523,0.801752,-0.155496,-0.575030 ElbowRight:-0.401886,0.633216,-0.337916,0.568628 FootLeft:0.000000,0.000000,0.000000,0.000000 FootRight:0.000000,0.000000,0.000000,0.000000 HandLeft:-0.131407,0.787744,-0.073727,0.597291 HandRight:0.288053,-0.525287,0.745812,-0.291314 HandTipLeft:0.000000,0.000000,0.000000,0.000000 HandTipRight:0.000000,0.000000,0.000000,0.000000 Head:0.000000,0.000000,0.000000,0.000000 HipLeft:0.064992,-0.683954,0.718154,-0.110628 HipRight:-0.191302,0.672522,0.681938,-0.214657 KneeLeft:0.025674,-0.638825,0.021210,0.768631 KneeRight:-0.007834,0.769837,0.046828,0.636473 Neck:-0.179390,0.025734,0.980771,-0.072424 ShoulderLeft:0.084616,0.757155,-0.645913,-0.048504 ShoulderRight:-0.151311,0.793937,0.545267,-0.222379 SpineBase:-0.092480,0.019635,0.995063,-0.030177 SpineMid:-0.135141,0.020913,0.990172,-0.029306 SpineShoulder:-0.179472,0.022627,0.982257,-0.049484 ThumbLeft:0.000000,0.000000,0.000000,0.000000 ThumbRight:0.000000,0.000000,0.000000,0.000000 WristLeft:-0.109677,0.794238,-0.160816,0.575583 WristRight:0.380202,-0.416738,0.571561,-0.595897 END:
KINECT_DATA POSITION:4.612801,1.732874,-18.384563 HEAD_JOINT1:0.986960,0.156995,-0.000000,0.035547 LARM_JOINT2:0.797656,0.000000,-0.044494,-0.601469 LARM_JOINT3:0.962798,0.000000,-0.229596,-0.142499 LLEG_JOINT2:0.999683,-0.001199,0.000000,0.025145 LLEG_JOINT4:0.995659,0.092894,0.000000,-0.005739 RARM_JOINT2:0.816671,0.000000,0.506646,0.276329 RARM_JOINT3:0.946536,0.000000,0.256064,-0.196219 RLEG_JOINT2:0.998494,0.030411,0.000000,-0.045653 RLEG_JOINT4:0.994249,0.090034,0.000000,0.057991 WAIST:0.996728,-0.000000,0.080384,0.008458 WAIST_JOINT0:0.984828,-0.000000,0.167820,0.044174 WAIST_JOINT1:0.998443,0.053998,-0.000000,0.013974 END:
KINECT_DATA_Sensor  AnkleLeft:0.060522,0.728708,-0.073344,-0.678191 AnkleRight:0.090484,0.729024,0.080810,0.673652 ElbowLeft:-0.053141,0.816312,-0.151460,-0.554861 ElbowRight:-0.441406,0.731021,-0.171722,0.491202 FootLeft:0.000000,0.000000,0.000000,0.000000 FootRight:0.000000,0.000000,0.000000,0.000000 HandLeft:-0.198675,0.745214,-0.089647,0.630197 HandRight:0.444583,-0.485571,0.606821,-0.445349 HandTipLeft:0.000000,0.000000,0.000000,0.000000 HandTipRight:0.000000,0.000000,0.000000,0.000000 Head:0.000000,0.000000,0.000000,0.000000 HipLeft:0.075416,-0.683166,0.716260,-0.120700 HipRight:-0.187211,0.673246,0.683784,-0.210074 KneeLeft:0.023166,-0.648213,0.024372,0.760716 KneeRight:-0.009028,0.761860,0.046785,0.645987 Neck:-0.171292,0.024651,0.982548,-0.068190 ShoulderLeft:0.076958,0.757496,-0.646938,-0.041813 ShoulderRight:-0.149236,0.790117,0.553841,-0.216111 SpineBase:-0.080183,0.019576,0.996137,-0.029982 SpineMid:-0.124894,0.020905,0.991524,-0.029071 SpineShoulder:-0.171286,0.022437,0.983786,-0.048192 ThumbLeft:0.000000,0.000000,0.000000,0.000000 ThumbRight:0.000000,0.000000,0.000000,0.000000 WristLeft:-0.119165,0.768651,-0.160787,0.607554 WristRight:-0.429488,0.526924,-0.509945,0.527112 END:
KINECT_DATA POSITION:4.574744,1.649071,-17.985142 HEAD_JOINT1:0.986357,0.157243,-0.000000,0.048731 LARM_JOINT2:0.797011,0.000000,-0.052430,-0.601685 LARM_JOINT3:0.962787,0.000000,-0.227493,-0.145907 LLEG_JOINT2:0.999588,0.005528,0.000000,0.028150 LLEG_JOINT4:0.995999,0.089249,0.000000,-0.004496 RARM_JOINT2:0.844510,0.000000,0.397585,0.358789 RARM_JOINT3:0.882748,0.000000,0.427382,-0.195194 RLEG_JOINT2:0.998785,0.025819,0.000000,-0.041978 RLEG_JOINT4:0.993780,0.097137,0.000000,0.054450 WAIST:0.998175,-0.000000,0.060131,0.005530 WAIST_JOINT0:0.988974,-0.000000,0.143356,0.037132 WAIST_JOINT1:0.998829,0.047436,-0.000000,0.009552 END:
KINECT_DATA_Sensor  AnkleLeft:-0.047673,-0.624889,0.086466,0.774444 AnkleRight:0.094250,0.735218,0.080139,0.666445 ElbowLeft:-0.060431,0.840869,-0.138872,-0.519616 ElbowRight:-0.395276,0.740453,-0.065018,0.539684 FootLeft:0.000000,0.000000,0.000000,0.000000 FootRight:0.000000,0.000000,0.000000,0.000000 HandLeft:-0.193361,0.562156,-0.146083,0.790729 HandRight:0.391939,-0.490949,0.612561,-0.479711 HandTipLeft:0.000000,0.000000,0.000000,0.000000 HandTipRight:0.000000,0.000000,0.000000,0.000000 Head:0.000000,0.000000,0.000000,0.000000 HipLeft:0.091791,-0.683938,0.712336,-0.127985 HipRight:-0.178526,0.675268,0.688136,-0.196495 KneeLeft:0.018426,-0.663331,0.028652,0.747550 KneeRight:-0.010333,0.748441,0.043271,0.661708 Neck:-0.145946,0.016520,0.987323,-0.060165 ShoulderLeft:0.053695,0.765017,-0.641235,-0.026159 ShoulderRight:-0.138536,0.792823,0.560945,-0.193856 SpineBase:-0.059958,0.015728,0.997780,-0.024338 SpineMid:-0.102113,0.016744,0.994351,-0.023650 SpineShoulder:-0.145868,0.016207,0.988264,-0.042351 ThumbLeft:0.000000,0.000000,0.000000,0.000000 ThumbRight:0.000000,0.000000,0.000000,0.000000 WristLeft:-0.092866,0.576131,-0.178176,0.792277 WristRight:0.410770,-0.475121,0.587397,-0.510385 END:
KINECT_DATA POSITION:4.625800,1.646039,-17.933750 HEAD_JOINT1:0.985989,0.159637,-0.000000,0.048389 LARM_JOINT2:0.795480,0.000000,-0.050575,-0.603865 LARM_JOINT3:0.970854,0.000000,-0.200917,-0.130668 LLEG_JOINT2:0.999607,0.005506,0.000000,0.027476 LLEG_JOINT4:0.995687,0.092323,0.000000,-0.009107 RARM_JOINT2:0.781465,0.000000,0.562239,0.270553 RARM_JOINT3:0.968647,0.000000,0.167157,-0.183798 RLEG_JOINT2:0.998714,0.027232,0.000000,-0.042761 RLEG_JOINT4:0.993881,0.097103,0.000000,0.052651 WAIST:0.998159,-0.000000,0.060330,0.006214 WAIST_JOINT0:0.988310,-0.000000,0.148184,0.035859 WAIST_JOINT1:0.998746,0.049030,-0.000000,0.010123 END:
KINECT_DATA_Sensor  AnkleLeft:0.065313,0.734285,-0.076245,-0.671376 AnkleRight:0.093635,0.734929,0.082456,0.666568 ElbowLeft:-0.058221,0.836377,-0.138564,-0.527147 ElbowRight:-0.423482,0.687292,-0.253068,0.533150 FootLeft:0.000000,0.000000,0.000000,0.000000 FootRight:0.000000,0.000000,0.000000,0.000000 HandLeft:-0.128151,0.802636,-0.058699,0.579575 HandRight:0.435758,-0.512852,0.520194,-0.525828 HandTipLeft:0.000000,0.000000,0.000000,0.000000 HandTipRight:0.000000,0.000000,0.000000,0.000000 Head:0.000000,0.000000,0.000000,0.000000 HipLeft:0.090223,-0.683455,0.713162,-0.127080 HipRight:-0.176863,0.675635,0.688286,-0.196211 KneeLeft:0.018476,-0.663162,0.028619,0.747700 KneeRight:-0.009504,0.748619,0.044363,0.661446 Neck:-0.150102,0.018640,0.986454,-0.063480 ShoulderLeft:0.055979,0.764660,-0.641384,-0.028075 ShoulderRight:-0.142193,0.789036,0.563782,-0.198377 SpineBase:-0.060192,0.015407,0.997752,-0.025097 SpineMid:-0.104334,0.016504,0.994106,-0.024390 SpineShoulder:-0.150062,0.017475,0.987578,-0.043203 ThumbLeft:0.000000,0.000000,0.000000,0.000000 ThumbRight:0.000000,0.000000,0.000000,0.000000 WristLeft:-0.140350,0.802597,-0.139535,0.562735 WristRight:0.445010,-0.504100,0.520285,-0.526453 END:
KINECT_DATA POSITION:4.735985,1.706897,-17.972982 HEAD_JOINT1:0.985929,0.162574,-0.000000,0.038916 LARM_JOINT2:0.794485,0.000000,-0.035560,-0.606241 LARM_JOINT3:0.971941,0.000000,-0.201156,-0.121929 LLEG_JOINT2:0.999730,0.002969,0.000000,0.023042 LLEG_JOINT4:0.995746,0.092109,0.000000,-0.002568 RARM_JOINT2:0.795241,0.000000,0.568450,0.210849 RARM_JOINT3:0.985562,0.000000,0.135108,-0.102044 RLEG_JOINT2:0.998553,0.027915,0.000000,-0.045966 RLEG_JOINT4:0.993707,0.096779,0.000000,0.056392 WAIST:0.997662,-0.000000,0.067804,0.008560 WAIST_JOINT0:0.987112,-0.000000,0.155321,0.038531 WAIST_JOINT1:0.998346,0.056051,-0.000000,0.012802 END:
KINECT_DATA_Sensor  AnkleLeft:-0.048311,-0.617326,0.086133,0.780484 AnkleRight:0.092713,0.718898,0.084310,0.683727 ElbowLeft:-0.046295,0.814325,-0.148576,-0.559157 ElbowRight:-0.504074,0.768692,-0.154016,0.362354 FootLeft:0.000000,0.000000,0.000000,0.000000 FootRight:0.000000,0.000000,0.000000,0.000000 HandLeft:-0.103141,0.741944,-0.064948,0.659289 HandRight:0.478168,-0.511208,0.528956,-0.479821 HandTipLeft:0.000000,0.000000,0.000000,0.000000 HandTipRight:0.000000,0.000000,0.000000,0.000000 Head:0.000000,0.000000,0.000000,0.000000 HipLeft:0.080988,-0.682123,0.716198,-0.123328 HipRight:-0.177372,0.675532,0.686935,-0.200791 KneeLeft:0.018950,-0.657635,0.025375,0.752670 KneeRight:-0.010175,0.753593,0.045224,0.655705 Neck:-0.158062,0.024872,0.984505,-0.071744 ShoulderLeft:0.070157,0.760418,-0.644805,-0.032703 ShoulderRight:-0.138687,0.787606,0.563986,-0.205822 SpineBase:-0.067708,0.017250,0.997138,-0.028873 SpineMid:-0.112167,0.018522,0.993120,-0.028074 SpineShoulder:-0.158109,0.021851,0.985935,-0.049555 ThumbLeft:0.000000,0.000000,0.000000,0.000000 ThumbRight:0.000000,0.000000,0.000000,0.000000 WristLeft:-0.100329,0.746171,-0.156935,0.639167 WristRight:-0.412275,0.577861,-0.439226,0.550623 END:
KINECT_DATA POSITION:4.743408,1.746263,-17.985451 HEAD_JOINT1:0.985653,0.164019,-0.000000,0.039827 LARM_JOINT2:0.795105,0.000000,-0.035598,-0.605427 LARM_JOINT3:0.963422,0.000000,-0.232118,-0.133941 LLEG_JOINT2:0.999771,0.002262,0.000000,0.021264 LLEG_JOINT4:0.995883,0.090353,0.000000,-0.007283 RARM_JOINT2:0.802343,0.000000,0.564873,0.192783 RARM_JOINT3:0.986151,0.000000,0.138137,-0.091783 RLEG_JOINT2:0.998465,0.029055,0.000000,-0.047155 RLEG_JOINT4:0.993597,0.097692,0.000000,0.056755 WAIST:0.997173,-0.000000,0.074446,0.010183 WAIST_JOINT0:0.986370,-0.000000,0.158744,0.043296 WAIST_JOINT1:0.998119,0.059142,-0.000000,0.016134 END:
KINECT_DATA_Sensor  AnkleLeft:-0.050512,-0.614365,0.080331,0.783295 AnkleRight:0.093687,0.721372,0.086156,0.680751 ElbowLeft:-0.046317,0.806693,-0.155132,-0.568362 ElbowRight:-0.533999,0.825824,-0.033021,0.178239 FootLeft:0.000000,0.000000,0.000000,0.000000 FootRight:0.000000,0.000000,0.000000,0.000000 HandLeft:-0.198889,0.788024,-0.078687,0.577295 HandRight:0.505743,-0.495470,0.511056,-0.487396 HandTipLeft:0.000000,0.000000,0.000000,0.000000 HandTipRight:0.000000,0.000000,0.000000,0.000000 Head:0.000000,0.000000,0.000000,0.000000 HipLeft:0.073140,-0.680956,0.718355,-0.122132 HipRight:-0.178763,0.675039,0.685672,-0.205475 KneeLeft:0.019338,-0.652768,0.024803,0.756905 KneeRight:-0.009526,0.757975,0.045606,0.650618 Neck:-0.162770,0.029026,0.983437,-0.074259 ShoulderLeft:0.078541,0.755639,-0.649295,-0.035461 ShoulderRight:-0.136597,0.789373,0.560683,-0.209444 SpineBase:-0.074309,0.020486,0.996482,-0.032903 SpineMid:-0.117812,0.021906,0.992279,-0.031976 SpineShoulder:-0.162716,0.026465,0.984906,-0.052758 ThumbLeft:0.000000,0.000000,0.000000,0.000000 ThumbRight:0.000000,0.000000,0.000000,0.000000 WristLeft:-0.117370,0.810213,-0.153087,0.553483 WristRight:-0.377346,0.614730,-0.428979,0.543777 END:
KINECT_DATA POSITION:4.686312,1.761162,-17.929602 HEAD_JOINT1:0.985631,0.162787,-0.000000,0.045078 LARM_JOINT2:0.796910,0.000000,-0.036418,-0.602999 LARM_JOINT3:0.963471,0.000000,-0.230352,-0.136605 LLEG_JOINT2:0.999789,0.001932,0.000000,0.020430 LLEG_JOINT4:0.995561,0.093732,0.000000,-0.008544 RARM_JOINT2:0.794066,0.000000,0.554336,0.249342 RARM_JOINT3:0.970761,0.000000,0.165539,-0.173840 RLEG_JOINT2:0.998428,0.028988,0.000000,-0.047964 RLEG_JOINT4:0.993841,0.095254,0.000000,0.056626 WAIST:0.997057,-0.000000,0.075813,0.011361 WAIST_JOINT0:0.986411,-0.000000,0.157847,0.045582 WAIST_JOINT1:0.998111,0.059104,-0.000000,0.016779 END:
KINECT_DATA_Sensor  AnkleLeft:0.064746,0.720889,-0.072924,-0.686155 AnkleRight:0.092732,0.727485,0.083452,0.674687 ElbowLeft:-0.047540,0.810745,-0.159471,-0.561251 ElbowRight:-0.447336,0.732710,-0.212310,0.466853 FootLeft:0.000000,0.000000,0.000000,0.000000 FootRight:0.000000,0.000000,0.000000,0.000000 HandLeft:-0.178655,0.756516,-0.089687,0.622674 HandRight:-0.522940,0.456055,-0.362220,0.622370 HandTipLeft:0.000000,0.000000,0.000000,0.000000 HandTipRight:0.000000,0.000000,0.000000,0.000000 Head:0.000000,0.000000,0.000000,0.000000 HipLeft:0.071063,-0.680160,0.719135,-0.123194 HipRight:-0.179178,0.675557,0.684587,-0.207023 KneeLeft:0.019851,-0.651812,0.024809,0.757715 KneeRight:-0.009426,0.758875,0.045227,0.649595 Neck:-0.162480,0.030468,0.983463,-0.073980 ShoulderLeft:0.077813,0.754378,-0.650900,-0.034473 ShoulderRight:-0.137083,0.791509,0.557545,-0.209441 SpineBase:-0.075663,0.022694,0.996275,-0.034587 SpineMid:-0.118300,0.024155,0.992116,-0.033582 SpineShoulder:-0.162374,0.028160,0.984916,-0.052745 ThumbLeft:0.000000,0.000000,0.000000,0.000000 ThumbRight:0.000000,0.000000,0.000000,0.000000 WristLeft:-0.110719,0.775013,-0.160432,0.601131 WristRight:-0.471669,0.577038,-0.495886,0.445704 END:
KINECT_DATA POSITION:4.559572,1.765401,-17.875814 HEAD_JOINT1:0.985709,0.161787,-0.000000,0.046935 LARM_JOINT2:0.797677,0.000000,-0.037750,-0.601902 LARM_JOINT3:0.964099,0.000000,-0.225857,-0.139648 LLEG_JOINT2:0.999777,0.002347,0.000000,0.020989 LLEG_JOINT4:0.995438,0.095301,0.000000,-0.004502 RARM_JOINT2:0.805428,0.000000,0.560510,0.192650 RARM_JOINT3:0.986233,0.000000,0.139977,-0.088035 RLEG_JOINT2:0.998461,0.030459,0.000000,-0.046337 RLEG_JOINT4:0.993991,0.094561,0.000000,0.055145 WAIST:0.997026,-0.000000,0.076131,0.011939 WAIST_JOINT0:0.986259,-0.000000,0.158502,0.046586 WAIST_JOINT1:0.998133,0.058899,-0.000000,0.016155 END:
KINECT_DATA_Sensor  AnkleLeft:0.064978,0.733993,-0.076956,-0.671647 AnkleRight:0.092014,0.714096,0.085477,0.688691 ElbowLeft:-0.048379,0.813488,-0.160229,-0.556977 ElbowRight:-0.534347,0.833388,-0.005525,0.141091 FootLeft:0.000000,0.000000,0.000000,0.000000 FootRight:0.000000,0.000000,0.000000,0.000000 HandLeft:-0.172380,0.763804,-0.077310,0.617180 HandRight:0.482411,-0.469346,0.543613,-0.501476 HandTipLeft:0.000000,0.000000,0.000000,0.000000 HandTipRight:0.000000,0.000000,0.000000,0.000000 Head:0.000000,0.000000,0.000000,0.000000 HipLeft:0.070658,-0.679858,0.719380,-0.123667 HipRight:-0.179269,0.675901,0.684019,-0.207700 KneeLeft:0.020301,-0.651547,0.025914,0.757893 KneeRight:-0.006841,0.759164,0.044866,0.649316 Neck:-0.163457,0.030295,0.983330,-0.073668 ShoulderLeft:0.078538,0.753648,-0.651616,-0.035245 ShoulderRight:-0.137602,0.792317,0.556076,-0.209951 SpineBase:-0.075999,0.023174,0.996220,-0.035119 SpineMid:-0.118929,0.024668,0.992011,-0.034086 SpineShoulder:-0.163337,0.028170,0.984770,-0.052500 ThumbLeft:0.000000,0.000000,0.000000,0.000000 ThumbRight:0.000000,0.000000,0.000000,0.000000 WristLeft:-0.112838,0.781259,-0.158393,0.593138 WristRight:-0.357850,0.599234,-0.429604,0.572977 END:
KINECT_DATA POSITION:4.498258,1.761235,-17.856264 HEAD_JOINT1:0.985707,0.161733,-0.000000,0.047162 LARM_JOINT2:0.797576,0.000000,-0.038446,-0.601991 LARM_JOINT3:0.965134,0.000000,-0.222818,-0.137362 LLEG_JOINT2:0.999767,0.002528,0.000000,0.021436 LLEG_JOINT4:0.995775,0.091653,0.000000,-0.005605 RARM_JOINT2:0.805973,0.000000,0.558266,0.196843 RARM_JOINT3:0.985675,0.000000,0.143200,-0.089102 RLEG_JOINT2:0.998449,0.030622,0.000000,-0.046489 RLEG_JOINT4:0.993995,0.094747,0.000000,0.054754 WAIST:0.996955,-0.000000,0.077047,0.012029 WAIST_JOINT0:0.986132,-0.000000,0.159198,0.046892 WAIST_JOINT1:0.998146,0.058674,-0.000000,0.016177 END:
KINECT_DATA_Sensor  AnkleLeft:-0.049489,-0.614440,0.083679,0.782951 AnkleRight:0.093938,0.731986,0.083735,0.669598 ElbowLeft:-0.048544,0.814309,-0.159993,-0.555830 ElbowRight:-0.531395,0.835268,-0.004934,0.141150 FootLeft:0.000000,0.000000,0.000000,0.000000 FootRight:0.000000,0.000000,0.000000,0.000000 HandLeft:-0.162674,0.790560,-0.072561,0.585907 HandRight:0.484812,-0.470830,0.542719,-0.498730 HandTipLeft:0.000000,0.000000,0.000000,0.000000 HandTipRight:0.000000,0.000000,0.000000,0.000000 Head:0.000000,0.000000,0.000000,0.000000 HipLeft:0.070336,-0.679929,0.719392,-0.123386 HipRight:-0.179907,0.675832,0.683705,-0.208402 KneeLeft:0.020503,-0.650833,0.026446,0.758483 KneeRight:-0.006834,0.759768,0.045011,0.648598 Neck:-0.164242,0.030378,0.983214,-0.073436 ShoulderLeft:0.078961,0.753334,-0.651893,-0.035896 ShoulderRight:-0.138229,0.792421,0.555587,-0.210439 SpineBase:-0.076921,0.023142,0.996149,-0.035144 SpineMid:-0.119788,0.024636,0.991907,-0.034113 SpineShoulder:-0.164126,0.028207,0.984649,-0.052291 ThumbLeft:0.000000,0.000000,0.000000,0.000000 ThumbRight:0.000000,0.000000,0.000000,0.000000 WristLeft:-0.118938,0.803032,-0.153537,0.563399 WristRight:-0.358025,0.606113,-0.426579,0.567869 END:
KINECT_DATA POSITION:4.461084,1.763887,-17.802692 HEAD_JOINT1:0.985945,0.159923,-0.000000,0.048345 LARM_JOINT2:0.799280,0.000000,-0.034805,-0.599951 LARM_JOINT3:0.966269,0.000000,-0.223763,-0.127495 LLEG_JOINT2:0.999763,0.003111,0.000000,0.021539 LLEG_JOINT4:0.995550,0.094024,0.000000,-0.006227 RARM_JOINT2:0.826586,0.000000,0.455741,0.330236 RARM_JOINT3:0.930992,0.000000,0.306821,-0.197777 RLEG_JOINT2:0.998410,0.032395,0.000000,-0.046128 RLEG_JOINT4:0.994039,0.095056,0.000000,0.053394 WAIST:0.997164,-0.000000,0.074264,0.012161 WAIST_JOINT0:0.986332,-0.000000,0.158070,0.046507 WAIST_JOINT1:0.998267,0.057042,-0.000000,0.014486 END:
KINECT_DATA_Sensor  AnkleLeft:0.064887,0.734849,-0.076042,-0.670824 AnkleRight:0.093304,0.718100,0.087290,0.684110 ElbowLeft:-0.049182,0.812947,-0.161301,-0.557388 ElbowRight:-0.402943,0.750115,-0.121801,0.510029 FootLeft:0.000000,0.000000,0.000000,0.000000 FootRight:0.000000,0.000000,0.000000,0.000000 HandLeft:-0.154646,0.815850,-0.094977,0.549047 HandRight:0.412963,-0.453487,0.604260,-0.508607 HandTipLeft:0.000000,0.000000,0.000000,0.000000 HandTipRight:0.000000,0.000000,0.000000,0.000000 Head:0.000000,0.000000,0.000000,0.000000 HipLeft:0.073637,-0.679685,0.718974,-0.125226 HipRight:-0.179460,0.676389,0.683611,-0.207284 KneeLeft:0.020273,-0.652879,0.026963,0.756711 KneeRight:-0.005155,0.758039,0.046068,0.650560 Neck:-0.162976,0.028574,0.983654,-0.071048 ShoulderLeft:0.076267,0.753705,-0.651829,-0.035077 ShoulderRight:-0.139337,0.792291,0.555987,-0.209138 SpineBase:-0.074177,0.022625,0.996399,-0.034266 SpineMid:-0.117745,0.024104,0.992195,-0.033242 SpineShoulder:-0.162832,0.027025,0.984974,-0.050804 ThumbLeft:0.000000,0.000000,0.000000,0.000000 ThumbRight:0.000000,0.000000,0.000000,0.000000 WristLeft:-0.120316,0.823018,-0.150622,0.534301 WristRight:0.379157,-0.496622,0.532596,-0.570919 END:
KINECT_DATA POSITION:4.725368,1.772688,-17.128181 HEAD_JOINT1:0.986805,0.151554,-0.000000,0.056981 LARM_JOINT2:0.805451,0.000000,-0.032809,-0.591754 LARM_JOINT3:0.963357,0.000000,-0.230200,-0.137665 LLEG_JOINT2:0.999468,0.018198,0.000000,0.027054 LLEG_JOINT4:0.996235,0.086350,0.000000,-0.007708 RARM_JOINT2:0.889255,0.000000,0.183724,0.418893 RARM_JOINT3:0.758660,0.000000,0.648004,-0.067270 RLEG_JOINT2:0.998945,0.025634,0.000000,-0.038098 RLEG_JOINT4:0.993913,0.100636,0.000000,0.044832 WAIST:0.999372,-0.000000,0.035188,0.004218 WAIST_JOINT0:0.996670,-0.000000,0.079386,0.018644 WAIST_JOINT1:0.998976,0.045126,0.000000,-0.003344 END:
KINECT_DATA_Sensor  AnkleLeft:0.065607,0.719267,-0.084369,-0.686464 AnkleRight:0.095161,0.732427,0.083147,0.669015 ElbowLeft:-0.055286,0.841439,-0.141878,-0.518454 ElbowRight:-0.306137,0.750930,0.141759,0.567705 FootLeft:0.000000,0.000000,0.000000,0.000000 FootRight:0.000000,0.000000,0.000000,0.000000 HandLeft:-0.223792,0.777258,-0.084546,0.581927 HandRight:0.274695,-0.406121,0.648936,-0.581799 HandTipLeft:0.000000,0.000000,0.000000,0.000000 HandTipRight:0.000000,0.000000,0.000000,0.000000 Head:0.000000,0.000000,0.000000,0.000000 HipLeft:0.107553,-0.684434,0.707401,-0.139881 HipRight:-0.159171,0.679190,0.692064,-0.185508 KneeLeft:0.008095,-0.681664,0.035183,0.730774 KneeRight:-0.007373,0.731631,0.041755,0.680381 Neck:-0.080054,0.000895,0.995012,-0.059508 ShoulderLeft:0.038809,0.774738,-0.631087,-0.001911 ShoulderRight:-0.064357,0.790629,0.596803,-0.120792 SpineBase:-0.035231,0.005376,0.999049,-0.025132 SpineMid:-0.057325,0.005931,0.998025,-0.025007 SpineShoulder:-0.080103,0.001433,0.995971,-0.040279 ThumbLeft:0.000000,0.000000,0.000000,0.000000 ThumbRight:0.000000,0.000000,0.000000,0.000000 WristLeft:-0.139450,0.800329,-0.135358,0.567191 WristRight:0.270313,-0.407315,0.662808,-0.567196 END:
