EastLYD/RoboCupatHomeSim/InteractiveCleanUp/JapanOpen2016/Motion_Data/File73.dat
KINECT_DATA POSITION:19.561234,-1.247777,-10.499573 HEAD_JOINT1:0.974551,0.190699,-0.000000,0.117832 LARM_JOINT2:0.841988,0.000000,-0.029936,-0.538666 LARM_JOINT3:0.953352,0.000000,-0.221056,-0.205558 LLEG_JOINT2:0.997979,0.007207,0.000000,0.063139 LLEG_JOINT4:0.994430,0.096402,0.000000,-0.042609 RARM_JOINT2:0.783020,0.000000,-0.008613,0.621937 RARM_JOINT3:0.959468,0.000000,0.259683,0.109482 RLEG_JOINT2:0.998791,0.002025,0.000000,-0.049119 RLEG_JOINT4:0.995579,0.086689,0.000000,0.036165 WAIST:0.999752,0.000000,-0.022072,-0.002851 WAIST_JOINT0:0.998937,0.000000,-0.046088,-0.000892 WAIST_JOINT1:0.995945,0.088570,0.000000,-0.015758 END:
KINECT_DATA_Sensor  AnkleLeft:0.060097,0.724330,-0.085844,-0.681444 AnkleRight:0.053553,0.689067,0.072199,0.719100 ElbowLeft:-0.027074,0.912168,-0.202348,-0.355348 ElbowRight:0.007776,0.809174,0.162175,0.564691 FootLeft:0.000000,0.000000,0.000000,0.000000 FootRight:0.000000,0.000000,0.000000,0.000000 HandLeft:-0.160399,0.812401,0.002404,0.560599 HandRight:-0.172888,0.724302,0.136591,-0.653329 HandTipLeft:0.000000,0.000000,0.000000,0.000000 HandTipRight:0.000000,0.000000,0.000000,0.000000 Head:0.000000,0.000000,0.000000,0.000000 HipLeft:0.123577,-0.674653,0.701630,-0.193100 HipRight:-0.091281,0.674683,0.710566,-0.177671 KneeLeft:-0.038679,0.720445,-0.046802,-0.690849 KneeRight:-0.034436,0.691691,0.038966,0.720319 Neck:0.045813,-0.019798,0.993228,-0.104916 ShoulderLeft:0.004485,0.778939,-0.617382,0.109875 ShoulderRight:0.065052,0.776836,0.625236,-0.037054 SpineBase:0.021322,-0.015274,0.997616,-0.063835 SpineMid:0.033352,-0.016043,0.997286,-0.063646 SpineShoulder:0.045683,-0.018385,0.995318,-0.083165 ThumbLeft:0.000000,0.000000,0.000000,0.000000 ThumbRight:0.000000,0.000000,0.000000,0.000000 WristLeft:-0.134977,0.822262,-0.060859,0.549511 WristRight:-0.091639,0.739013,0.122295,-0.656130 END:
KINECT_DATA POSITION:19.530693,-1.266615,-10.347438 HEAD_JOINT1:0.973831,0.192177,-0.000000,0.121334 LARM_JOINT2:0.842669,0.000000,-0.030133,-0.537588 LARM_JOINT3:0.953425,0.000000,-0.220038,-0.206309 LLEG_JOINT2:0.997935,0.008465,0.000000,0.063668 LLEG_JOINT4:0.994750,0.092607,0.000000,-0.043556 RARM_JOINT2:0.782193,0.000000,-0.007861,0.622986 RARM_JOINT3:0.957975,0.000000,0.266743,0.105509 RLEG_JOINT2:0.998821,0.002410,0.000000,-0.048477 RLEG_JOINT4:0.995550,0.087199,0.000000,0.035740 WAIST:0.999689,0.000000,-0.024728,-0.003191 WAIST_JOINT0:0.998842,0.000000,-0.048107,-0.000714 WAIST_JOINT1:0.995923,0.088710,0.000000,-0.016342 END:
KINECT_DATA_Sensor  AnkleLeft:0.058772,0.727775,-0.083550,-0.678166 AnkleRight:0.054374,0.687820,0.072692,0.720183 ElbowLeft:-0.027141,0.914333,-0.202624,-0.349573 ElbowRight:0.008064,0.807767,0.161570,0.566871 FootLeft:0.000000,0.000000,0.000000,0.000000 FootRight:0.000000,0.000000,0.000000,0.000000 HandLeft:-0.161747,0.815566,0.003132,0.555590 HandRight:0.169611,-0.658964,-0.185316,0.708982 HandTipLeft:0.000000,0.000000,0.000000,0.000000 HandTipRight:0.000000,0.000000,0.000000,0.000000 Head:0.000000,0.000000,0.000000,0.000000 HipLeft:0.125517,-0.674455,0.701094,-0.194482 HipRight:-0.089681,0.674718,0.711048,-0.176418 KneeLeft:-0.038083,0.722305,-0.047732,-0.688874 KneeRight:-0.033854,0.689838,0.039094,0.722114 Neck:0.047770,-0.020433,0.993099,-0.105146 ShoulderLeft:0.003600,0.778791,-0.617327,0.111262 ShoulderRight:0.066746,0.776859,0.625131,-0.035300 SpineBase:0.023957,-0.016030,0.997546,-0.063798 SpineMid:0.035636,-0.016776,0.997198,-0.063606 SpineShoulder:0.047632,-0.019004,0.995201,-0.083339 ThumbLeft:0.000000,0.000000,0.000000,0.000000 ThumbRight:0.000000,0.000000,0.000000,0.000000 WristLeft:-0.134121,0.825551,-0.058073,0.545073 WristRight:0.080183,-0.676263,-0.130651,0.720535 END:
KINECT_DATA POSITION:19.510069,-1.263656,-10.235489 HEAD_JOINT1:0.973754,0.191845,-0.000000,0.122468 LARM_JOINT2:0.842981,0.000000,-0.033127,-0.536922 LARM_JOINT3:0.954201,0.000000,-0.217988,-0.204893 LLEG_JOINT2:0.997934,0.008992,0.000000,0.063622 LLEG_JOINT4:0.994729,0.093014,0.000000,-0.043147 RARM_JOINT2:0.782139,0.000000,-0.008826,0.623041 RARM_JOINT3:0.958181,0.000000,0.266796,0.103485 RLEG_JOINT2:0.998808,0.003064,0.000000,-0.048719 RLEG_JOINT4:0.995533,0.087163,0.000000,0.036292 WAIST:0.999700,0.000000,-0.024295,-0.003057 WAIST_JOINT0:0.998817,0.000000,-0.048616,-0.000596 WAIST_JOINT1:0.995898,0.088963,0.000000,-0.016500 END:
KINECT_DATA_Sensor  AnkleLeft:0.059323,0.729076,-0.084388,-0.676615 AnkleRight:0.055033,0.687446,0.072864,0.720472 ElbowLeft:-0.028135,0.916434,-0.202335,-0.344118 ElbowRight:0.007902,0.804528,0.162119,0.571306 FootLeft:0.000000,0.000000,0.000000,0.000000 FootRight:0.000000,0.000000,0.000000,0.000000 HandLeft:-0.154011,0.699997,-0.033136,0.696554 HandRight:0.077951,-0.338166,-0.225820,0.910260 HandTipLeft:0.000000,0.000000,0.000000,0.000000 HandTipRight:0.000000,0.000000,0.000000,0.000000 Head:0.000000,0.000000,0.000000,0.000000 HipLeft:0.125113,-0.674422,0.701269,-0.194226 HipRight:-0.089675,0.674703,0.710975,-0.176773 KneeLeft:-0.037759,0.722008,-0.048194,-0.689171 KneeRight:-0.033466,0.690184,0.039614,0.721774 Neck:0.048229,-0.020551,0.993047,-0.105396 ShoulderLeft:0.003608,0.778385,-0.617766,0.111665 ShoulderRight:0.067391,0.776691,0.625290,-0.034959 SpineBase:0.023495,-0.016207,0.997542,-0.063993 SpineMid:0.035624,-0.016984,0.997183,-0.063791 SpineShoulder:0.048087,-0.019155,0.995157,-0.083566 ThumbLeft:0.000000,0.000000,0.000000,0.000000 ThumbRight:0.000000,0.000000,0.000000,0.000000 WristLeft:-0.121609,0.712565,-0.079944,0.686347 WristRight:0.023669,-0.353213,-0.153780,0.922514 END:
KINECT_DATA POSITION:19.492960,-1.280569,-10.163343 HEAD_JOINT1:0.973926,0.189985,-0.000000,0.123989 LARM_JOINT2:0.845067,0.000000,-0.035732,-0.533465 LARM_JOINT3:0.953349,0.000000,-0.217444,-0.209391 LLEG_JOINT2:0.997915,0.008806,0.000000,0.063933 LLEG_JOINT4:0.994698,0.094780,0.000000,-0.039915 RARM_JOINT2:0.782125,0.000000,-0.008073,0.623069 RARM_JOINT3:0.957277,0.000000,0.268873,0.106432 RLEG_JOINT2:0.998842,0.002614,0.000000,-0.048041 RLEG_JOINT4:0.995766,0.085776,0.000000,0.033057 WAIST:0.999673,0.000000,-0.025381,-0.003155 WAIST_JOINT0:0.998626,0.000000,-0.052398,-0.001134 WAIST_JOINT1:0.995803,0.089982,0.000000,-0.016742 END:
KINECT_DATA_Sensor  AnkleLeft:0.060664,0.750748,-0.086095,-0.652139 AnkleRight:0.051852,0.685880,0.073557,0.722129 ElbowLeft:-0.029162,0.919620,-0.205142,-0.333716 ElbowRight:0.008137,0.803459,0.162599,0.572668 FootLeft:0.000000,0.000000,0.000000,0.000000 FootRight:0.000000,0.000000,0.000000,0.000000 HandLeft:-0.162105,0.821411,-0.000700,0.546814 HandRight:0.166085,-0.622949,-0.182738,0.742265 HandTipLeft:0.000000,0.000000,0.000000,0.000000 HandTipRight:0.000000,0.000000,0.000000,0.000000 Head:0.000000,0.000000,0.000000,0.000000 HipLeft:0.125400,-0.674160,0.701179,-0.195275 HipRight:-0.088561,0.674611,0.711215,-0.176719 KneeLeft:-0.038101,0.722706,-0.048159,-0.688422 KneeRight:-0.033354,0.689448,0.038916,0.722520 Neck:0.052053,-0.021100,0.992728,-0.106470 ShoulderLeft:0.000611,0.778097,-0.617323,0.116088 ShoulderRight:0.069426,0.776309,0.625625,-0.033428 SpineBase:0.024562,-0.016417,0.997465,-0.064731 SpineMid:0.038064,-0.017292,0.997041,-0.064503 SpineShoulder:0.051921,-0.019624,0.994875,-0.084516 ThumbLeft:0.000000,0.000000,0.000000,0.000000 ThumbRight:0.000000,0.000000,0.000000,0.000000 WristLeft:-0.133840,0.830323,-0.052882,0.538381 WristRight:0.073306,-0.639924,-0.137890,0.752402 END:
KINECT_DATA POSITION:19.507570,-1.285109,-10.147846 HEAD_JOINT1:0.974349,0.187331,-0.000000,0.124707 LARM_JOINT2:0.845736,0.000000,-0.036136,-0.532376 LARM_JOINT3:0.953677,0.000000,-0.214207,-0.211223 LLEG_JOINT2:0.997928,0.010494,0.000000,0.063482 LLEG_JOINT4:0.994643,0.095594,0.000000,-0.039331 RARM_JOINT2:0.782164,0.000000,-0.008313,0.623017 RARM_JOINT3:0.953385,0.000000,0.278888,0.115235 RLEG_JOINT2:0.998817,0.003025,0.000000,-0.048535 RLEG_JOINT4:0.995458,0.088428,0.000000,0.035266 WAIST:0.999644,0.000000,-0.026524,-0.003024 WAIST_JOINT0:0.998562,0.000000,-0.053600,-0.001330 WAIST_JOINT1:0.995749,0.090581,0.000000,-0.016726 END:
KINECT_DATA_Sensor  AnkleLeft:0.062927,0.756682,-0.087546,-0.644832 AnkleRight:0.055421,0.684600,0.074248,0.723007 ElbowLeft:-0.029667,0.920002,-0.206440,-0.331811 ElbowRight:0.009331,0.803869,0.162923,0.571981 FootLeft:0.000000,0.000000,0.000000,0.000000 FootRight:0.000000,0.000000,0.000000,0.000000 HandLeft:-0.148502,0.818393,0.006885,0.555098 HandRight:0.176385,-0.482818,-0.219940,0.829097 HandTipLeft:0.000000,0.000000,0.000000,0.000000 HandTipRight:0.000000,0.000000,0.000000,0.000000 Head:0.000000,0.000000,0.000000,0.000000 HipLeft:0.125767,-0.673855,0.701180,-0.196085 HipRight:-0.087609,0.674838,0.711243,-0.176213 KneeLeft:-0.036756,0.723594,-0.049127,-0.687493 KneeRight:-0.033258,0.688625,0.039502,0.723277 Neck:0.053287,-0.020770,0.992593,-0.107186 ShoulderLeft:0.000367,0.778094,-0.617094,0.117324 ShoulderRight:0.070742,0.776167,0.625688,-0.032792 SpineBase:0.025686,-0.016262,0.997417,-0.065079 SpineMid:0.039239,-0.017145,0.996976,-0.064852 SpineShoulder:0.053149,-0.019414,0.994764,-0.085104 ThumbLeft:0.000000,0.000000,0.000000,0.000000 ThumbRight:0.000000,0.000000,0.000000,0.000000 WristLeft:-0.133800,0.825890,-0.053870,0.545070 WristRight:0.053670,-0.509578,-0.149281,0.845674 END:
KINECT_DATA POSITION:19.453245,-1.311887,-10.076511 HEAD_JOINT1:0.974474,0.185574,-0.000000,0.126344 LARM_JOINT2:0.846005,0.000000,-0.035235,-0.532009 LARM_JOINT3:0.952412,0.000000,-0.218382,-0.212653 LLEG_JOINT2:0.997876,0.011561,0.000000,0.064103 LLEG_JOINT4:0.994740,0.092492,0.000000,-0.044018 RARM_JOINT2:0.781240,0.000000,-0.010948,0.624135 RARM_JOINT3:0.937936,0.000000,0.313082,0.149184 RLEG_JOINT2:0.998757,0.003129,0.000000,-0.049751 RLEG_JOINT4:0.995270,0.089011,0.000000,0.038923 WAIST:0.999592,0.000000,-0.028393,-0.002993 WAIST_JOINT0:0.998544,0.000000,-0.053928,-0.000860 WAIST_JOINT1:0.995790,0.090008,0.000000,-0.017323 END:
KINECT_DATA_Sensor  AnkleLeft:0.061092,0.735284,-0.085512,-0.669562 AnkleRight:0.057831,0.683943,0.072730,0.723594 ElbowLeft:-0.030104,0.920189,-0.206376,-0.331294 ElbowRight:0.012356,0.806076,0.162892,0.568819 FootLeft:0.000000,0.000000,0.000000,0.000000 FootRight:0.000000,0.000000,0.000000,0.000000 HandLeft:-0.161365,0.635125,-0.037916,0.754414 HandRight:0.239708,-0.326189,-0.261150,0.876323 HandTipLeft:0.000000,0.000000,0.000000,0.000000 HandTipRight:0.000000,0.000000,0.000000,0.000000 Head:0.000000,0.000000,0.000000,0.000000 HipLeft:0.127580,-0.673637,0.700914,-0.196611 HipRight:-0.086947,0.675110,0.711370,-0.174985 KneeLeft:-0.036591,0.724884,-0.050281,-0.686058 KneeRight:-0.033921,0.687274,0.040496,0.724475 Neck:0.053554,-0.020965,0.992617,-0.106787 ShoulderLeft:-0.000038,0.778229,-0.616983,0.117010 ShoulderRight:0.070667,0.776710,0.625064,-0.031964 SpineBase:0.027516,-0.016760,0.997404,-0.064398 SpineMid:0.040275,-0.017582,0.996970,-0.064178 SpineShoulder:0.053400,-0.019685,0.994792,-0.084561 ThumbLeft:0.000000,0.000000,0.000000,0.000000 ThumbRight:0.000000,0.000000,0.000000,0.000000 WristLeft:-0.114022,0.641611,-0.089076,0.753259 WristRight:0.055519,-0.372540,-0.175235,0.909629 END:
KINECT_DATA POSITION:19.434965,-1.297118,-9.886944 HEAD_JOINT1:0.974445,0.183978,-0.000000,0.128876 LARM_JOINT2:0.845910,0.000000,-0.032491,-0.532335 LARM_JOINT3:0.951315,0.000000,-0.220645,-0.215213 LLEG_JOINT2:0.997868,0.014660,0.000000,0.063599 LLEG_JOINT4:0.995013,0.090127,0.000000,-0.042729 RARM_JOINT2:0.779102,0.000000,-0.011281,0.626796 RARM_JOINT3:0.897914,0.000000,0.405215,0.171907 RLEG_JOINT2:0.998750,0.002702,0.000000,-0.049913 RLEG_JOINT4:0.995121,0.090197,0.000000,0.039974 WAIST:0.999505,0.000000,-0.031246,-0.003582 WAIST_JOINT0:0.998514,0.000000,-0.054487,-0.000383 WAIST_JOINT1:0.995906,0.088705,0.000000,-0.017372 END:
KINECT_DATA_Sensor  AnkleLeft:0.061482,0.739525,-0.086127,-0.664760 AnkleRight:0.063988,0.733330,0.068307,0.673400 ElbowLeft:-0.030558,0.919254,-0.205843,-0.334167 ElbowRight:0.014750,0.809344,0.159866,0.564966 FootLeft:0.000000,0.000000,0.000000,0.000000 FootRight:0.000000,0.000000,0.000000,0.000000 HandLeft:-0.171356,0.663628,-0.021896,0.727843 HandRight:0.170484,-0.127184,-0.437165,0.873868 HandTipLeft:0.000000,0.000000,0.000000,0.000000 HandTipRight:0.000000,0.000000,0.000000,0.000000 Head:0.000000,0.000000,0.000000,0.000000 HipLeft:0.129904,-0.674111,0.700039,-0.196581 HipRight:-0.085935,0.675602,0.711840,-0.171642 KneeLeft:-0.033817,0.727131,-0.051684,-0.683715 KneeRight:-0.034654,0.685100,0.040827,0.726478 Neck:0.054075,-0.021231,0.992686,-0.105827 ShoulderLeft:-0.001025,0.778725,-0.616493,0.116284 ShoulderRight:0.070295,0.777453,0.624264,-0.030327 SpineBase:0.030447,-0.016911,0.997437,-0.062500 SpineMid:0.042013,-0.017635,0.997017,-0.062300 SpineShoulder:0.053925,-0.019831,0.994871,-0.083254 ThumbLeft:0.000000,0.000000,0.000000,0.000000 ThumbRight:0.000000,0.000000,0.000000,0.000000 WristLeft:-0.119528,0.671012,-0.085656,0.726718 WristRight:0.073325,-0.172755,-0.252989,0.949092 END:
KINECT_DATA POSITION:19.892822,-1.244211,-9.273994 HEAD_JOINT1:0.974564,0.181286,-0.000000,0.131755 LARM_JOINT2:0.843582,0.000000,-0.029930,-0.536165 LARM_JOINT3:0.952421,0.000000,-0.219084,-0.211889 LLEG_JOINT2:0.998617,0.020999,0.000000,0.048208 LLEG_JOINT4:0.995950,0.083702,0.000000,-0.032818 RARM_JOINT2:0.781915,0.000000,-0.004533,0.623368 RARM_JOINT3:0.862257,0.000000,0.469147,0.190823 RLEG_JOINT2:0.998054,0.005226,0.000000,-0.062132 RLEG_JOINT4:0.994865,0.090680,0.000000,0.044954 WAIST:0.999500,0.000000,-0.031533,0.002455 WAIST_JOINT0:0.998554,0.000000,-0.053757,0.000109 WAIST_JOINT1:0.996202,0.084644,0.000000,-0.020398 END:
KINECT_DATA_Sensor  AnkleLeft:0.060215,0.733371,-0.087297,-0.671506 AnkleRight:0.060605,0.683760,0.075589,0.723247 ElbowLeft:-0.031352,0.918938,-0.204150,-0.335995 ElbowRight:0.007569,0.815061,0.156243,0.557859 FootLeft:0.000000,0.000000,0.000000,0.000000 FootRight:0.000000,0.000000,0.000000,0.000000 HandLeft:-0.165662,0.708196,-0.021822,0.685958 HandRight:0.193633,-0.134262,-0.507248,0.828963 HandTipLeft:0.000000,0.000000,0.000000,0.000000 HandTipRight:0.000000,0.000000,0.000000,0.000000 Head:0.000000,0.000000,0.000000,0.000000 HipLeft:0.131833,-0.671328,0.703521,-0.192346 HipRight:-0.088964,0.681253,0.707474,-0.165714 KneeLeft:-0.022513,0.727842,-0.050037,-0.683547 KneeRight:-0.036891,0.684668,0.047213,0.726388 Neck:0.053527,-0.019668,0.992993,-0.103504 ShoulderLeft:-0.004038,0.779705,-0.615799,0.113296 ShoulderRight:0.066371,0.778321,0.623709,-0.028279 SpineBase:0.030439,-0.011746,0.997871,-0.056465 SpineMid:0.041973,-0.012398,0.997453,-0.056326 SpineShoulder:0.053624,-0.016382,0.995309,-0.078845 ThumbLeft:0.000000,0.000000,0.000000,0.000000 ThumbRight:0.000000,0.000000,0.000000,0.000000 WristLeft:-0.126247,0.721206,-0.077679,0.676676 WristRight:0.120609,-0.170348,-0.311036,0.927195 END:
KINECT_DATA POSITION:20.205194,-1.228867,-8.946932 HEAD_JOINT1:0.974682,0.180314,-0.000000,0.132220 LARM_JOINT2:0.841870,0.000000,-0.027776,-0.538965 LARM_JOINT3:0.953994,0.000000,-0.214281,-0.209713 LLEG_JOINT2:0.998875,0.023331,0.000000,0.041284 LLEG_JOINT4:0.995877,0.085873,0.000000,-0.029223 RARM_JOINT2:0.783614,0.000000,0.000339,0.621248 RARM_JOINT3:0.860131,0.000000,0.456240,0.228080 RLEG_JOINT2:0.997563,0.010339,0.000000,-0.068998 RLEG_JOINT4:0.995215,0.084492,0.000000,0.049073 WAIST:0.999569,0.000000,-0.028927,0.004915 WAIST_JOINT0:0.998603,0.000000,-0.052831,0.000054 WAIST_JOINT1:0.996468,0.081696,0.000000,-0.019425 END:
KINECT_DATA_Sensor  AnkleLeft:0.064685,0.734612,-0.089486,-0.669442 AnkleRight:0.059308,0.684460,0.075361,0.722716 ElbowLeft:-0.031315,0.918301,-0.204217,-0.337694 ElbowRight:-0.002250,0.802176,0.152166,0.577368 FootLeft:0.000000,0.000000,0.000000,0.000000 FootRight:0.000000,0.000000,0.000000,0.000000 HandLeft:-0.145676,0.829039,-0.000642,0.539882 HandRight:-0.337540,0.899478,-0.267916,0.072294 HandTipLeft:0.000000,0.000000,0.000000,0.000000 HandTipRight:0.000000,0.000000,0.000000,0.000000 Head:0.000000,0.000000,0.000000,0.000000 HipLeft:0.131154,-0.670224,0.705167,-0.190624 HipRight:-0.092182,0.682959,0.705348,-0.165995 KneeLeft:-0.017483,0.726205,-0.048773,-0.685523 KneeRight:-0.036258,0.686477,0.053885,0.724246 Neck:0.052836,-0.017061,0.993399,-0.100374 ShoulderLeft:-0.005255,0.781031,-0.614590,0.110645 ShoulderRight:0.063938,0.779008,0.623163,-0.026934 SpineBase:0.027759,-0.009039,0.998065,-0.054895 SpineMid:0.040343,-0.009731,0.997636,-0.054777 SpineShoulder:0.053046,-0.013249,0.995614,-0.075921 ThumbLeft:0.000000,0.000000,0.000000,0.000000 ThumbRight:0.000000,0.000000,0.000000,0.000000 WristLeft:-0.139235,0.834013,-0.053395,0.531210 WristRight:-0.370730,0.912058,-0.118100,0.129467 END:
KINECT_DATA POSITION:20.440029,-1.238009,-8.664966 HEAD_JOINT1:0.974617,0.180796,-0.000000,0.132039 LARM_JOINT2:0.840158,0.000000,-0.025289,-0.541753 LARM_JOINT3:0.953979,0.000000,-0.213615,-0.210458 LLEG_JOINT2:0.999002,0.025624,0.000000,0.036586 LLEG_JOINT4:0.995887,0.087007,0.000000,-0.025256 RARM_JOINT2:0.783939,0.000000,0.004742,0.620819 RARM_JOINT3:0.835561,0.000000,0.508150,0.208855 RLEG_JOINT2:0.997200,0.014985,0.000000,-0.073269 RLEG_JOINT4:0.995204,0.083150,0.000000,0.051525 WAIST:0.999627,0.000000,-0.026578,0.006239 WAIST_JOINT0:0.998751,0.000000,-0.049974,0.000190 WAIST_JOINT1:0.996659,0.079575,0.000000,-0.018410 END:
KINECT_DATA_Sensor  AnkleLeft:0.065429,0.722171,-0.093251,-0.682270 AnkleRight:0.061220,0.685930,0.078092,0.720870 ElbowLeft:-0.030258,0.917485,-0.203679,-0.340325 ElbowRight:-0.011481,0.783288,0.147315,0.603842 FootLeft:0.000000,0.000000,0.000000,0.000000 FootRight:0.000000,0.000000,0.000000,0.000000 HandLeft:-0.145961,0.800794,-0.009131,0.580810 HandRight:-0.382228,0.895164,-0.228257,0.021947 HandTipLeft:0.000000,0.000000,0.000000,0.000000 HandTipRight:0.000000,0.000000,0.000000,0.000000 Head:0.000000,0.000000,0.000000,0.000000 HipLeft:0.130284,-0.669751,0.706219,-0.188981 HipRight:-0.093934,0.683614,0.704256,-0.166950 KneeLeft:-0.013325,0.724645,-0.048175,-0.687307 KneeRight:-0.034999,0.688237,0.059162,0.722222 Neck:0.050418,-0.013625,0.993917,-0.096964 ShoulderLeft:-0.005630,0.782408,-0.613279,0.108146 ShoulderRight:0.060012,0.779902,0.622360,-0.028630 SpineBase:0.025317,-0.008564,0.998168,-0.054284 SpineMid:0.037801,-0.009243,0.997773,-0.054173 SpineShoulder:0.050489,-0.011520,0.995897,-0.074209 ThumbLeft:0.000000,0.000000,0.000000,0.000000 ThumbRight:0.000000,0.000000,0.000000,0.000000 WristLeft:-0.136349,0.806344,-0.060342,0.572343 WristRight:-0.444737,0.886263,-0.101870,0.079810 END:
KINECT_DATA POSITION:20.524202,-1.284616,-8.502340 HEAD_JOINT1:0.974683,0.181524,-0.000000,0.130546 LARM_JOINT2:0.839269,0.000000,-0.025105,-0.543136 LARM_JOINT3:0.954341,0.000000,-0.212334,-0.210112 LLEG_JOINT2:0.998986,0.027258,0.000000,0.035822 LLEG_JOINT4:0.996347,0.081873,0.000000,-0.024280 RARM_JOINT2:0.781778,0.000000,0.015546,0.623363 RARM_JOINT3:0.826872,0.000000,0.517932,0.219156 RLEG_JOINT2:0.997029,0.018017,0.000000,-0.074894 RLEG_JOINT4:0.995352,0.080827,0.000000,0.052364 WAIST:0.999679,0.000000,-0.024458,0.006609 WAIST_JOINT0:0.998894,0.000000,-0.047015,0.001010 WAIST_JOINT1:0.996728,0.078814,0.000000,-0.017940 END:
KINECT_DATA_Sensor  AnkleLeft:0.063843,0.729216,-0.090261,-0.675293 AnkleRight:0.061297,0.687662,0.078981,0.719115 ElbowLeft:-0.030185,0.916513,-0.202801,-0.343461 ElbowRight:-0.013761,0.798568,0.138842,0.585510 FootLeft:0.000000,0.000000,0.000000,0.000000 FootRight:0.000000,0.000000,0.000000,0.000000 HandLeft:-0.145769,0.805035,-0.004446,0.575022 HandRight:0.224634,0.041507,-0.415785,0.880306 HandTipLeft:0.000000,0.000000,0.000000,0.000000 HandTipRight:0.000000,0.000000,0.000000,0.000000 Head:0.000000,0.000000,0.000000,0.000000 HipLeft:0.129781,-0.669711,0.706648,-0.187864 HipRight:-0.096088,0.683483,0.703807,-0.168151 KneeLeft:-0.011807,0.723233,-0.049111,-0.688754 KneeRight:-0.033782,0.689785,0.062086,0.720556 Neck:0.047410,-0.012571,0.994191,-0.095800 ShoulderLeft:-0.004918,0.782235,-0.613889,0.105949 ShoulderRight:0.056801,0.780873,0.621325,-0.031087 SpineBase:0.023200,-0.008214,0.998253,-0.053718 SpineMid:0.035218,-0.008860,0.997901,-0.053615 SpineShoulder:0.047446,-0.010878,0.996103,-0.073554 ThumbLeft:0.000000,0.000000,0.000000,0.000000 ThumbRight:0.000000,0.000000,0.000000,0.000000 WristLeft:-0.136089,0.811103,-0.060504,0.565624 WristRight:0.103896,-0.019467,-0.460538,0.881324 END:
KINECT_DATA POSITION:20.523407,-1.295912,-8.302652 HEAD_JOINT1:0.974900,0.181694,-0.000000,0.128672 LARM_JOINT2:0.838727,0.000000,-0.025541,-0.543953 LARM_JOINT3:0.955455,0.000000,-0.210954,-0.206406 LLEG_JOINT2:0.998908,0.028361,0.000000,0.037116 LLEG_JOINT4:0.996496,0.079583,0.000000,-0.025737 RARM_JOINT2:0.780889,0.000000,0.030576,0.623921 RARM_JOINT3:0.834335,0.000000,0.497036,0.238413 RLEG_JOINT2:0.997035,0.022299,0.000000,-0.073652 RLEG_JOINT4:0.995750,0.076530,0.000000,0.051233 WAIST:0.999759,0.000000,-0.021061,0.006208 WAIST_JOINT0:0.999117,0.000000,-0.041991,0.001582 WAIST_JOINT1:0.996817,0.077909,0.000000,-0.016935 END:
KINECT_DATA_Sensor  AnkleLeft:0.062716,0.719590,-0.089473,-0.685749 AnkleRight:0.060814,0.690584,0.079358,0.716308 ElbowLeft:-0.031027,0.914488,-0.201974,-0.349220 ElbowRight:-0.018640,0.822961,0.130825,0.552515 FootLeft:0.000000,0.000000,0.000000,0.000000 FootRight:0.000000,0.000000,0.000000,0.000000 HandLeft:-0.142288,0.840600,-0.000673,0.522633 HandRight:0.267759,0.024218,-0.409017,0.872023 HandTipLeft:0.000000,0.000000,0.000000,0.000000 HandTipRight:0.000000,0.000000,0.000000,0.000000 Head:0.000000,0.000000,0.000000,0.000000 HipLeft:0.128889,-0.670395,0.706650,-0.186017 HipRight:-0.099436,0.682657,0.703677,-0.170088 KneeLeft:-0.011534,0.720958,-0.050546,-0.691036 KneeRight:-0.030330,0.692287,0.064299,0.718112 Neck:0.042380,-0.011858,0.994536,-0.094670 ShoulderLeft:-0.003357,0.781286,-0.615722,0.102309 ShoulderRight:0.051931,0.780782,0.621638,-0.035352 SpineBase:0.019882,-0.008208,0.998372,-0.052835 SpineMid:0.031022,-0.008797,0.998088,-0.052740 SpineShoulder:0.042382,-0.010481,0.996401,-0.072658 ThumbLeft:0.000000,0.000000,0.000000,0.000000 ThumbRight:0.000000,0.000000,0.000000,0.000000 WristLeft:-0.138265,0.845008,-0.055506,0.513579 WristRight:0.143566,-0.036660,-0.434057,0.888617 END:
KINECT_DATA POSITION:20.505184,-1.311667,-8.183802 HEAD_JOINT1:0.975490,0.180086,-0.000000,0.126443 LARM_JOINT2:0.838462,0.000000,-0.027006,-0.544291 LARM_JOINT3:0.954913,0.000000,-0.213560,-0.206238 LLEG_JOINT2:0.998861,0.029015,0.000000,0.037868 LLEG_JOINT4:0.996210,0.082811,0.000000,-0.026622 RARM_JOINT2:0.780790,0.000000,0.038514,0.623605 RARM_JOINT3:0.836020,0.000000,0.492958,0.240963 RLEG_JOINT2:0.997036,0.022851,0.000000,-0.073469 RLEG_JOINT4:0.995708,0.078011,0.000000,0.049804 WAIST:0.999815,0.000000,-0.018139,0.006359 WAIST_JOINT0:0.999218,0.000000,-0.039496,0.002022 WAIST_JOINT1:0.996796,0.078221,0.000000,-0.016694 END:
KINECT_DATA_Sensor  AnkleLeft:0.066026,0.719784,-0.091783,-0.684929 AnkleRight:0.064948,0.724271,0.078835,0.681908 ElbowLeft:-0.031164,0.913704,-0.201614,-0.351461 ElbowRight:-0.023168,0.827497,0.127266,0.546366 FootLeft:0.000000,0.000000,0.000000,0.000000 FootRight:0.000000,0.000000,0.000000,0.000000 HandLeft:-0.154007,0.814178,-0.010529,0.559719 HandRight:0.315878,-0.042314,-0.374973,0.870532 HandTipLeft:0.000000,0.000000,0.000000,0.000000 HandTipRight:0.000000,0.000000,0.000000,0.000000 Head:0.000000,0.000000,0.000000,0.000000 HipLeft:0.127323,-0.670505,0.707081,-0.185064 HipRight:-0.101431,0.682130,0.703319,-0.172491 KneeLeft:-0.011590,0.718927,-0.051667,-0.693066 KneeRight:-0.029898,0.694414,0.064341,0.716070 Neck:0.039775,-0.011605,0.994641,-0.094728 ShoulderLeft:-0.000175,0.780652,-0.616974,0.099627 ShoulderRight:0.051777,0.780503,0.621921,-0.036714 SpineBase:0.016951,-0.008134,0.998404,-0.053263 SpineMid:0.028243,-0.008736,0.998148,-0.053168 SpineShoulder:0.039760,-0.010379,0.996486,-0.072987 ThumbLeft:0.000000,0.000000,0.000000,0.000000 ThumbRight:0.000000,0.000000,0.000000,0.000000 WristLeft:-0.135374,0.821156,-0.062727,0.550856 WristRight:0.183252,-0.105897,-0.420023,0.882488 END:
KINECT_DATA POSITION:20.460501,-1.331194,-8.086491 HEAD_JOINT1:0.975641,0.180498,-0.000000,0.124680 LARM_JOINT2:0.838229,0.000000,-0.028625,-0.544567 LARM_JOINT3:0.955692,0.000000,-0.209762,-0.206523 LLEG_JOINT2:0.998791,0.029457,0.000000,0.039357 LLEG_JOINT4:0.996233,0.082085,0.000000,-0.027945 RARM_JOINT2:0.779702,0.000000,0.048229,0.624291 RARM_JOINT3:0.836759,0.000000,0.487106,0.250126 RLEG_JOINT2:0.997025,0.025612,0.000000,-0.072695 RLEG_JOINT4:0.995913,0.075826,0.000000,0.049078 WAIST:0.999857,0.000000,-0.015648,0.006387 WAIST_JOINT0:0.999174,0.000000,-0.040569,0.002277 WAIST_JOINT1:0.996801,0.078165,0.000000,-0.016643 END:
KINECT_DATA_Sensor  AnkleLeft:0.064982,0.711082,-0.092192,-0.694003 AnkleRight:0.067159,0.742629,0.077678,0.661784 ElbowLeft:-0.031858,0.912915,-0.200803,-0.353906 ElbowRight:-0.027929,0.834103,0.121901,0.537244 FootLeft:0.000000,0.000000,0.000000,0.000000 FootRight:0.000000,0.000000,0.000000,0.000000 HandLeft:-0.142958,0.807394,-0.002587,0.572426 HandRight:0.330510,0.002445,-0.376291,0.865541 HandTipLeft:0.000000,0.000000,0.000000,0.000000 HandTipRight:0.000000,0.000000,0.000000,0.000000 Head:0.000000,0.000000,0.000000,0.000000 HipLeft:0.126687,-0.670713,0.707224,-0.184195 HipRight:-0.103411,0.681672,0.702993,-0.174443 KneeLeft:-0.012250,0.717184,-0.053059,-0.694753 KneeRight:-0.027518,0.696275,0.065598,0.714241 Neck:0.040626,-0.012007,0.994617,-0.094560 ShoulderLeft:0.001703,0.780225,-0.617718,0.098341 ShoulderRight:0.054768,0.780292,0.622084,-0.034005 SpineBase:0.014454,-0.008428,0.998444,-0.053197 SpineMid:0.027401,-0.009117,0.998172,-0.053083 SpineShoulder:0.040608,-0.010748,0.996457,-0.072863 ThumbLeft:0.000000,0.000000,0.000000,0.000000 ThumbRight:0.000000,0.000000,0.000000,0.000000 WristLeft:-0.134898,0.813753,-0.065830,0.561494 WristRight:0.176183,-0.071062,-0.423839,0.885590 END:
KINECT_DATA POSITION:20.426912,-1.341163,-8.068048 HEAD_JOINT1:0.975636,0.181100,-0.000000,0.123847 LARM_JOINT2:0.838241,0.000000,-0.028607,-0.544550 LARM_JOINT3:0.956183,0.000000,-0.208233,-0.205800 LLEG_JOINT2:0.998738,0.029413,0.000000,0.040699 LLEG_JOINT4:0.996277,0.081344,0.000000,-0.028549 RARM_JOINT2:0.778379,0.000000,0.054491,0.625426 RARM_JOINT3:0.838196,0.000000,0.481528,0.256043 RLEG_JOINT2:0.997047,0.026255,0.000000,-0.072164 RLEG_JOINT4:0.995958,0.074933,0.000000,0.049519 WAIST:0.999870,0.000000,-0.014812,0.006373 WAIST_JOINT0:0.999106,0.000000,-0.042219,0.002303 WAIST_JOINT1:0.996782,0.078354,0.000000,-0.016939 END:
KINECT_DATA_Sensor  AnkleLeft:0.064837,0.716900,-0.091477,-0.688101 AnkleRight:0.061431,0.690486,0.081778,0.716078 ElbowLeft:-0.031421,0.912631,-0.200643,-0.354767 ElbowRight:-0.030333,0.838112,0.118130,0.531690 FootLeft:0.000000,0.000000,0.000000,0.000000 FootRight:0.000000,0.000000,0.000000,0.000000 HandLeft:-0.136071,0.825697,0.000574,0.547456 HandRight:0.314021,0.088250,-0.389891,0.861155 HandTipLeft:0.000000,0.000000,0.000000,0.000000 HandTipRight:0.000000,0.000000,0.000000,0.000000 Head:0.000000,0.000000,0.000000,0.000000 HipLeft:0.126894,-0.670744,0.707158,-0.184195 HipRight:-0.104133,0.681441,0.702859,-0.175451 KneeLeft:-0.013191,0.716571,-0.053959,-0.695299 KneeRight:-0.026752,0.696912,0.065646,0.713645 Neck:0.042090,-0.012700,0.994532,-0.094723 ShoulderLeft:0.002371,0.779973,-0.618021,0.098421 ShoulderRight:0.057371,0.780168,0.622127,-0.031694 SpineBase:0.013597,-0.008886,0.998448,-0.053262 SpineMid:0.027694,-0.009637,0.998157,-0.053131 SpineShoulder:0.042082,-0.011263,0.996380,-0.073002 ThumbLeft:0.000000,0.000000,0.000000,0.000000 ThumbRight:0.000000,0.000000,0.000000,0.000000 WristLeft:-0.136581,0.830155,-0.061776,0.537004 WristRight:0.145230,0.007112,-0.437200,0.887533 END:
KINECT_DATA POSITION:20.393169,-1.355640,-8.028221 HEAD_JOINT1:0.975457,0.182528,-0.000000,0.123159 LARM_JOINT2:0.838213,0.000000,-0.028111,-0.544618 LARM_JOINT3:0.955244,0.000000,-0.211117,-0.207216 LLEG_JOINT2:0.998710,0.029293,0.000000,0.041477 LLEG_JOINT4:0.996280,0.081264,0.000000,-0.028692 RARM_JOINT2:0.777967,0.000000,0.058604,0.625567 RARM_JOINT3:0.839291,0.000000,0.475181,0.264186 RLEG_JOINT2:0.997090,0.026547,0.000000,-0.071467 RLEG_JOINT4:0.996186,0.073343,0.000000,0.047265 WAIST:0.999866,0.000000,-0.014968,0.006665 WAIST_JOINT0:0.999105,0.000000,-0.042222,0.002510 WAIST_JOINT1:0.996789,0.078108,0.000000,-0.017614 END:
KINECT_DATA_Sensor  AnkleLeft:0.065233,0.725942,-0.091145,-0.678561 AnkleRight:0.059653,0.690779,0.081785,0.715945 ElbowLeft:-0.031210,0.912536,-0.200311,-0.355218 ElbowRight:-0.031789,0.844196,0.116506,0.522254 FootLeft:0.000000,0.000000,0.000000,0.000000 FootRight:0.000000,0.000000,0.000000,0.000000 HandLeft:-0.150429,0.844045,0.007832,0.514682 HandRight:0.326393,0.079941,-0.365051,0.868225 HandTipLeft:0.000000,0.000000,0.000000,0.000000 HandTipRight:0.000000,0.000000,0.000000,0.000000 Head:0.000000,0.000000,0.000000,0.000000 HipLeft:0.127749,-0.670474,0.707261,-0.184192 HipRight:-0.104521,0.681489,0.702694,-0.175697 KneeLeft:-0.014047,0.716631,-0.054619,-0.695169 KneeRight:-0.025840,0.696865,0.065146,0.713770 Neck:0.041973,-0.013075,0.994558,-0.094450 ShoulderLeft:0.002647,0.779782,-0.618345,0.097892 ShoulderRight:0.057533,0.780395,0.621849,-0.031255 SpineBase:0.013702,-0.009375,0.998460,-0.052930 SpineMid:0.027677,-0.010115,0.998171,-0.052793 SpineShoulder:0.041960,-0.011604,0.996398,-0.072770 ThumbLeft:0.000000,0.000000,0.000000,0.000000 ThumbRight:0.000000,0.000000,0.000000,0.000000 WristLeft:-0.138697,0.850867,-0.056276,0.503608 WristRight:0.160579,0.001103,-0.435924,0.885541 END:
KINECT_DATA POSITION:20.378193,-1.364666,-8.001518 HEAD_JOINT1:0.975348,0.182921,-0.000000,0.123434 LARM_JOINT2:0.838187,0.000000,-0.027766,-0.544676 LARM_JOINT3:0.956581,0.000000,-0.206901,-0.205290 LLEG_JOINT2:0.998688,0.028933,0.000000,0.042250 LLEG_JOINT4:0.996175,0.082025,0.000000,-0.030107 RARM_JOINT2:0.778258,0.000000,0.055882,0.625453 RARM_JOINT3:0.839560,0.000000,0.474021,0.265412 RLEG_JOINT2:0.997091,0.026942,0.000000,-0.071303 RLEG_JOINT4:0.996177,0.074091,0.000000,0.046280 WAIST:0.999872,0.000000,-0.014645,0.006505 WAIST_JOINT0:0.999180,0.000000,-0.040418,0.002577 WAIST_JOINT1:0.996795,0.077988,0.000000,-0.017800 END:
KINECT_DATA_Sensor  AnkleLeft:0.065981,0.724678,-0.090917,-0.679870 AnkleRight:0.059875,0.691845,0.083216,0.714731 ElbowLeft:-0.031006,0.912165,-0.200012,-0.356356 ElbowRight:-0.030240,0.845453,0.118265,0.519911 FootLeft:0.000000,0.000000,0.000000,0.000000 FootRight:0.000000,0.000000,0.000000,0.000000 HandLeft:-0.131356,0.837905,0.006718,0.529732 HandRight:0.313056,0.087727,-0.367967,0.871149 HandTipLeft:0.000000,0.000000,0.000000,0.000000 HandTipRight:0.000000,0.000000,0.000000,0.000000 Head:0.000000,0.000000,0.000000,0.000000 HipLeft:0.127824,-0.670643,0.707140,-0.183991 HipRight:-0.104885,0.681307,0.702737,-0.176013 KneeLeft:-0.014723,0.716394,-0.054790,-0.695386 KneeRight:-0.025576,0.697095,0.065406,0.713531 Neck:0.040213,-0.013336,0.994643,-0.094285 ShoulderLeft:0.002742,0.779826,-0.618400,0.097189 ShoulderRight:0.055396,0.780516,0.621786,-0.033285 SpineBase:0.013386,-0.009675,0.998468,-0.052810 SpineMid:0.026637,-0.010375,0.998202,-0.052677 SpineShoulder:0.040191,-0.011856,0.996475,-0.072671 ThumbLeft:0.000000,0.000000,0.000000,0.000000 ThumbRight:0.000000,0.000000,0.000000,0.000000 WristLeft:-0.137694,0.841595,-0.058980,0.518921 WristRight:0.157036,0.012782,-0.436014,0.886041 END:
KINECT_DATA POSITION:20.371817,-1.375193,-7.994545 HEAD_JOINT1:0.974975,0.184462,-0.000000,0.124089 LARM_JOINT2:0.838185,0.000000,-0.027646,-0.544686 LARM_JOINT3:0.956182,0.000000,-0.207797,-0.206244 LLEG_JOINT2:0.998684,0.029026,0.000000,0.042287 LLEG_JOINT4:0.996229,0.081189,0.000000,-0.030590 RARM_JOINT2:0.777802,0.000000,0.055806,0.626027 RARM_JOINT3:0.841922,0.000000,0.466725,0.270805 RLEG_JOINT2:0.997053,0.027511,0.000000,-0.071611 RLEG_JOINT4:0.996213,0.073978,0.000000,0.045678 WAIST:0.999874,0.000000,-0.014326,0.006833 WAIST_JOINT0:0.999183,0.000000,-0.040331,0.002658 WAIST_JOINT1:0.996795,0.077843,0.000000,-0.018463 END:
KINECT_DATA_Sensor  AnkleLeft:0.065443,0.723594,-0.090382,-0.681146 AnkleRight:0.059762,0.691964,0.083979,0.714536 ElbowLeft:-0.030912,0.911957,-0.199694,-0.357073 ElbowRight:-0.029951,0.846402,0.117943,0.518456 FootLeft:0.000000,0.000000,0.000000,0.000000 FootRight:0.000000,0.000000,0.000000,0.000000 HandLeft:-0.136949,0.852384,0.014434,0.504458 HandRight:0.322316,0.096114,-0.342541,0.877234 HandTipLeft:0.000000,0.000000,0.000000,0.000000 HandTipRight:0.000000,0.000000,0.000000,0.000000 Head:0.000000,0.000000,0.000000,0.000000 HipLeft:0.127806,-0.670532,0.707310,-0.183755 HipRight:-0.105180,0.681464,0.702437,-0.176424 KneeLeft:-0.014901,0.716140,-0.055117,-0.695618 KneeRight:-0.025170,0.697360,0.065783,0.713251 Neck:0.040121,-0.013749,0.994664,-0.094046 ShoulderLeft:0.002727,0.779867,-0.618376,0.097009 ShoulderRight:0.055287,0.780528,0.621785,-0.033218 SpineBase:0.013024,-0.009853,0.998474,-0.052763 SpineMid:0.026412,-0.010560,0.998209,-0.052626 SpineShoulder:0.040095,-0.012223,0.996484,-0.072545 ThumbLeft:0.000000,0.000000,0.000000,0.000000 ThumbRight:0.000000,0.000000,0.000000,0.000000 WristLeft:-0.139402,0.857099,-0.054871,0.492887 WristRight:0.155960,0.018631,-0.436334,0.885970 END:
KINECT_DATA POSITION:20.369791,-1.384462,-7.973921 HEAD_JOINT1:0.974704,0.185869,-0.000000,0.124119 LARM_JOINT2:0.838139,0.000000,-0.027401,-0.544768 LARM_JOINT3:0.955388,0.000000,-0.209508,-0.208182 LLEG_JOINT2:0.998698,0.029003,0.000000,0.041978 LLEG_JOINT4:0.996357,0.079602,0.000000,-0.030610 RARM_JOINT2:0.777588,0.000000,0.055700,0.626302 RARM_JOINT3:0.841441,0.000000,0.466601,0.272507 RLEG_JOINT2:0.996994,0.027523,0.000000,-0.072431 RLEG_JOINT4:0.995998,0.075537,0.000000,0.047769 WAIST:0.999871,0.000000,-0.014281,0.007334 WAIST_JOINT0:0.999181,0.000000,-0.040355,0.003044 WAIST_JOINT1:0.996796,0.077692,0.000000,-0.019018 END:
KINECT_DATA_Sensor  AnkleLeft:0.064890,0.729088,-0.088872,-0.675516 AnkleRight:0.062092,0.691538,0.083811,0.714769 ElbowLeft:-0.030811,0.911872,-0.199600,-0.357351 ElbowRight:-0.029799,0.846700,0.117686,0.518035 FootLeft:0.000000,0.000000,0.000000,0.000000 FootRight:0.000000,0.000000,0.000000,0.000000 HandLeft:-0.147745,0.788401,-0.000103,0.597156 HandRight:0.331473,0.083694,-0.336304,0.877508 HandTipLeft:0.000000,0.000000,0.000000,0.000000 HandTipRight:0.000000,0.000000,0.000000,0.000000 Head:0.000000,0.000000,0.000000,0.000000 HipLeft:0.128054,-0.670201,0.707621,-0.183590 HipRight:-0.105364,0.681729,0.702120,-0.176553 KneeLeft:-0.015049,0.716070,-0.055239,-0.695676 KneeRight:-0.025379,0.697420,0.066026,0.713163 Neck:0.040098,-0.013810,0.994679,-0.093888 ShoulderLeft:0.002675,0.779749,-0.618547,0.096865 ShoulderRight:0.055218,0.780817,0.621437,-0.033047 SpineBase:0.012927,-0.009949,0.998482,-0.052599 SpineMid:0.026348,-0.010655,0.998218,-0.052461 SpineShoulder:0.040071,-0.012285,0.996494,-0.072403 ThumbLeft:0.000000,0.000000,0.000000,0.000000 ThumbRight:0.000000,0.000000,0.000000,0.000000 WristLeft:-0.132428,0.797343,-0.069960,0.584647 WristRight:0.162968,0.006253,-0.434323,0.885870 END:
KINECT_DATA POSITION:20.354551,-1.395319,-7.966328 HEAD_JOINT1:0.974292,0.187804,-0.000000,0.124437 LARM_JOINT2:0.838188,0.000000,-0.026838,-0.544721 LARM_JOINT3:0.955534,0.000000,-0.208505,-0.208519 LLEG_JOINT2:0.998678,0.029477,0.000000,0.042108 LLEG_JOINT4:0.995979,0.084308,0.000000,-0.030282 RARM_JOINT2:0.776641,0.000000,0.059363,0.627140 RARM_JOINT3:0.843019,0.000000,0.465414,0.269644 RLEG_JOINT2:0.997034,0.027583,0.000000,-0.071849 RLEG_JOINT4:0.996213,0.073844,0.000000,0.045888 WAIST:0.999869,0.000000,-0.014435,0.007361 WAIST_JOINT0:0.999121,0.000000,-0.041816,0.003035 WAIST_JOINT1:0.996795,0.077639,0.000000,-0.019301 END:
KINECT_DATA_Sensor  AnkleLeft:0.068388,0.729576,-0.092709,-0.674126 AnkleRight:0.059977,0.691050,0.083652,0.715440 ElbowLeft:-0.030436,0.911839,-0.199610,-0.357461 ElbowRight:-0.031368,0.847908,0.115262,0.516510 FootLeft:0.000000,0.000000,0.000000,0.000000 FootRight:0.000000,0.000000,0.000000,0.000000 HandLeft:-0.144255,0.838764,0.015143,0.524819 HandRight:0.360170,0.004016,-0.303499,0.882128 HandTipLeft:0.000000,0.000000,0.000000,0.000000 HandTipRight:0.000000,0.000000,0.000000,0.000000 Head:0.000000,0.000000,0.000000,0.000000 HipLeft:0.128386,-0.670124,0.707612,-0.183673 HipRight:-0.105372,0.681686,0.702141,-0.176630 KneeLeft:-0.014837,0.716179,-0.055686,-0.695533 KneeRight:-0.024901,0.697337,0.065634,0.713297 Neck:0.041473,-0.014207,0.994625,-0.093804 ShoulderLeft:0.002731,0.779766,-0.618486,0.097124 ShoulderRight:0.057055,0.780770,0.621429,-0.031111 SpineBase:0.013065,-0.010206,0.998480,-0.052554 SpineMid:0.027100,-0.010944,0.998198,-0.052405 SpineShoulder:0.041450,-0.012605,0.996439,-0.072339 ThumbLeft:0.000000,0.000000,0.000000,0.000000 ThumbRight:0.000000,0.000000,0.000000,0.000000 WristLeft:-0.137713,0.845801,-0.057856,0.512160 WristRight:0.201813,-0.070659,-0.418174,0.882842 END:
KINECT_DATA POSITION:20.344254,-1.402081,-7.962227 HEAD_JOINT1:0.974188,0.188161,-0.000000,0.124715 LARM_JOINT2:0.838209,0.000000,-0.026228,-0.544719 LARM_JOINT3:0.955317,0.000000,-0.210226,-0.207784 LLEG_JOINT2:0.998669,0.029475,0.000000,0.042322 LLEG_JOINT4:0.996206,0.081457,0.000000,-0.030645 RARM_JOINT2:0.777180,0.000000,0.057110,0.626682 RARM_JOINT3:0.842062,0.000000,0.464644,0.273929 RLEG_JOINT2:0.997034,0.027898,0.000000,-0.071734 RLEG_JOINT4:0.996303,0.072143,0.000000,0.046647 WAIST:0.999866,0.000000,-0.014685,0.007300 WAIST_JOINT0:0.999170,0.000000,-0.040627,0.002834 WAIST_JOINT1:0.996794,0.077624,0.000000,-0.019402 END:
KINECT_DATA_Sensor  AnkleLeft:0.066800,0.732572,-0.090359,-0.671350 AnkleRight:0.059642,0.691708,0.082044,0.715019 ElbowLeft:-0.030138,0.911633,-0.199670,-0.357980 ElbowRight:-0.030252,0.848159,0.117025,0.515768 FootLeft:0.000000,0.000000,0.000000,0.000000 FootRight:0.000000,0.000000,0.000000,0.000000 HandLeft:-0.149044,0.766533,-0.007264,0.624628 HandRight:0.335936,0.082313,-0.332561,0.877368 HandTipLeft:0.000000,0.000000,0.000000,0.000000 HandTipRight:0.000000,0.000000,0.000000,0.000000 Head:0.000000,0.000000,0.000000,0.000000 HipLeft:0.128660,-0.670140,0.707508,-0.183824 HipRight:-0.105288,0.681654,0.702184,-0.176636 KneeLeft:-0.014962,0.716348,-0.055789,-0.695348 KneeRight:-0.024619,0.697166,0.065822,0.713457 Neck:0.040364,-0.014180,0.994670,-0.093815 ShoulderLeft:0.002374,0.779714,-0.618559,0.097085 ShoulderRight:0.055284,0.780643,0.621660,-0.032853 SpineBase:0.013309,-0.010407,0.998475,-0.052547 SpineMid:0.026662,-0.011108,0.998208,-0.052403 SpineShoulder:0.040329,-0.012660,0.996484,-0.072343 ThumbLeft:0.000000,0.000000,0.000000,0.000000 ThumbRight:0.000000,0.000000,0.000000,0.000000 WristLeft:-0.129393,0.776193,-0.074405,0.612573 WristRight:0.165585,0.004965,-0.432588,0.886242 END:
KINECT_DATA POSITION:20.350882,-1.412810,-7.951128 HEAD_JOINT1:0.974052,0.188596,-0.000000,0.125119 LARM_JOINT2:0.838235,0.000000,-0.026107,-0.544684 LARM_JOINT3:0.955308,0.000000,-0.210634,-0.207413 LLEG_JOINT2:0.998689,0.029036,0.000000,0.042152 LLEG_JOINT4:0.996182,0.082075,0.000000,-0.029737 RARM_JOINT2:0.777639,0.000000,0.053005,0.626473 RARM_JOINT3:0.841681,0.000000,0.466444,0.272035 RLEG_JOINT2:0.996970,0.027957,0.000000,-0.072584 RLEG_JOINT4:0.996236,0.071710,0.000000,0.048706 WAIST:0.999871,0.000000,-0.014206,0.007478 WAIST_JOINT0:0.999238,0.000000,-0.038860,0.003503 WAIST_JOINT1:0.996794,0.077608,0.000000,-0.019473 END:
KINECT_DATA_Sensor  AnkleLeft:0.067676,0.742049,-0.090121,-0.660804 AnkleRight:0.060348,0.692542,0.080770,0.714296 ElbowLeft:-0.030000,0.911466,-0.199862,-0.358308 ElbowRight:-0.028004,0.847713,0.119097,0.516154 FootLeft:0.000000,0.000000,0.000000,0.000000 FootRight:0.000000,0.000000,0.000000,0.000000 HandLeft:-0.149221,0.815701,0.002527,0.558891 HandRight:0.316928,0.090994,-0.341115,0.880294 HandTipLeft:0.000000,0.000000,0.000000,0.000000 HandTipRight:0.000000,0.000000,0.000000,0.000000 Head:0.000000,0.000000,0.000000,0.000000 HipLeft:0.128386,-0.670099,0.707660,-0.183578 HipRight:-0.105600,0.681710,0.702005,-0.176946 KneeLeft:-0.015250,0.715992,-0.055485,-0.695733 KneeRight:-0.025074,0.697502,0.066335,0.713065 Neck:0.038623,-0.013935,0.994743,-0.093809 ShoulderLeft:0.002270,0.779636,-0.618724,0.096656 ShoulderRight:0.052951,0.781283,0.620937,-0.035074 SpineBase:0.012817,-0.010331,0.998483,-0.052550 SpineMid:0.025544,-0.011000,0.998238,-0.052414 SpineShoulder:0.038577,-0.012519,0.996555,-0.072338 ThumbLeft:0.000000,0.000000,0.000000,0.000000 ThumbRight:0.000000,0.000000,0.000000,0.000000 WristLeft:-0.135045,0.823538,-0.063688,0.547258 WristRight:0.159709,0.017253,-0.434718,0.886124 END:
KINECT_DATA POSITION:20.336678,-1.418508,-7.970631 HEAD_JOINT1:0.974151,0.187970,-0.000000,0.125288 LARM_JOINT2:0.838364,0.000000,-0.026409,-0.544470 LARM_JOINT3:0.955348,0.000000,-0.212788,-0.205017 LLEG_JOINT2:0.998677,0.029091,0.000000,0.042394 LLEG_JOINT4:0.996363,0.078909,0.000000,-0.032143 RARM_JOINT2:0.776970,0.000000,0.056193,0.627024 RARM_JOINT3:0.841958,0.000000,0.466783,0.270593 RLEG_JOINT2:0.996954,0.028450,0.000000,-0.072622 RLEG_JOINT4:0.996176,0.073041,0.000000,0.047947 WAIST:0.999872,0.000000,-0.014033,0.007741 WAIST_JOINT0:0.999186,0.000000,-0.040195,0.003448 WAIST_JOINT1:0.996780,0.077742,0.000000,-0.019627 END:
KINECT_DATA_Sensor  AnkleLeft:0.064229,0.723196,-0.088469,-0.681935 AnkleRight:0.061189,0.691733,0.082491,0.714812 ElbowLeft:-0.030049,0.911665,-0.200149,-0.357637 ElbowRight:-0.029378,0.848260,0.116944,0.515670 FootLeft:0.000000,0.000000,0.000000,0.000000 FootRight:0.000000,0.000000,0.000000,0.000000 HandLeft:-0.146458,0.641007,-0.048183,0.751890 HandRight:0.325032,0.081775,-0.342340,0.877765 HandTipLeft:0.000000,0.000000,0.000000,0.000000 HandTipRight:0.000000,0.000000,0.000000,0.000000 Head:0.000000,0.000000,0.000000,0.000000 HipLeft:0.128157,-0.669924,0.707871,-0.183563 HipRight:-0.105536,0.681806,0.701844,-0.177254 KneeLeft:-0.015562,0.715839,-0.055881,-0.695852 KneeRight:-0.024571,0.697664,0.066515,0.712907 Neck:0.039912,-0.013872,0.994679,-0.093956 ShoulderLeft:0.002508,0.779172,-0.619254,0.096997 ShoulderRight:0.054854,0.780776,0.621500,-0.033438 SpineBase:0.012608,-0.010369,0.998473,-0.052779 SpineMid:0.026074,-0.011080,0.998212,-0.052635 SpineShoulder:0.039858,-0.012568,0.996496,-0.072444 ThumbLeft:0.000000,0.000000,0.000000,0.000000 ThumbRight:0.000000,0.000000,0.000000,0.000000 WristLeft:-0.112687,0.646245,-0.097496,0.748441 WristRight:0.165076,0.007039,-0.432630,0.886302 END:
KINECT_DATA POSITION:20.324888,-1.428176,-8.008730 HEAD_JOINT1:0.974464,0.186434,-0.000000,0.125150 LARM_JOINT2:0.838526,0.000000,-0.026760,-0.544204 LARM_JOINT3:0.955808,0.000000,-0.209208,-0.206552 LLEG_JOINT2:0.998672,0.029309,0.000000,0.042367 LLEG_JOINT4:0.996050,0.083537,0.000000,-0.030115 RARM_JOINT2:0.777101,0.000000,0.055794,0.626898 RARM_JOINT3:0.844919,0.000000,0.464281,0.265621 RLEG_JOINT2:0.996966,0.028788,0.000000,-0.072314 RLEG_JOINT4:0.996220,0.074032,0.000000,0.045450 WAIST:0.999875,0.000000,-0.013636,0.007983 WAIST_JOINT0:0.999196,0.000000,-0.039922,0.003566 WAIST_JOINT1:0.996786,0.077778,0.000000,-0.019195 END:
KINECT_DATA_Sensor  AnkleLeft:0.066469,0.724752,-0.093182,-0.679436 AnkleRight:0.067194,0.745566,0.079838,0.658211 ElbowLeft:-0.030362,0.911800,-0.200958,-0.356812 ElbowRight:-0.028985,0.848131,0.116680,0.515965 FootLeft:0.000000,0.000000,0.000000,0.000000 FootRight:0.000000,0.000000,0.000000,0.000000 HandLeft:-0.136504,0.641543,-0.036635,0.753954 HandRight:0.304586,0.091385,-0.340145,0.884973 HandTipLeft:0.000000,0.000000,0.000000,0.000000 HandTipRight:0.000000,0.000000,0.000000,0.000000 Head:0.000000,0.000000,0.000000,0.000000 HipLeft:0.127604,-0.669778,0.708145,-0.183425 HipRight:-0.105668,0.681908,0.701681,-0.177427 KneeLeft:-0.015540,0.715558,-0.056193,-0.696116 KneeRight:-0.023973,0.697971,0.066346,0.712643 Neck:0.039660,-0.013050,0.994699,-0.093972 ShoulderLeft:0.002117,0.778455,-0.620105,0.097328 ShoulderRight:0.054131,0.780530,0.621829,-0.034231 SpineBase:0.012206,-0.009956,0.998473,-0.052951 SpineMid:0.025739,-0.010673,0.998216,-0.052811 SpineShoulder:0.039593,-0.012001,0.996511,-0.072489 ThumbLeft:0.000000,0.000000,0.000000,0.000000 ThumbRight:0.000000,0.000000,0.000000,0.000000 WristLeft:-0.112803,0.646329,-0.097671,0.748327 WristRight:0.157901,0.020725,-0.434512,0.886474 END:
KINECT_DATA POSITION:20.339579,-1.426981,-8.030689 HEAD_JOINT1:0.974506,0.185538,-0.000000,0.126152 LARM_JOINT2:0.838750,0.000000,-0.026380,-0.543877 LARM_JOINT3:0.955311,0.000000,-0.208423,-0.209621 LLEG_JOINT2:0.998695,0.029387,0.000000,0.041778 LLEG_JOINT4:0.996101,0.082346,0.000000,-0.031650 RARM_JOINT2:0.777045,0.000000,0.055491,0.626994 RARM_JOINT3:0.844640,0.000000,0.462503,0.269579 RLEG_JOINT2:0.996913,0.028946,0.000000,-0.072982 RLEG_JOINT4:0.996028,0.074338,0.000000,0.049008 WAIST:0.999873,0.000000,-0.013648,0.008246 WAIST_JOINT0:0.999173,0.000000,-0.040514,0.003593 WAIST_JOINT1:0.996788,0.077720,0.000000,-0.019302 END:
KINECT_DATA_Sensor  AnkleLeft:0.067114,0.725931,-0.090982,-0.678411 AnkleRight:0.063214,0.691226,0.082939,0.715075 ElbowLeft:-0.030241,0.911882,-0.201586,-0.356259 ElbowRight:-0.028994,0.846843,0.116491,0.518117 FootLeft:0.000000,0.000000,0.000000,0.000000 FootRight:0.000000,0.000000,0.000000,0.000000 HandLeft:-0.142910,0.831591,0.013252,0.536524 HandRight:0.323850,0.092586,-0.332424,0.880933 HandTipLeft:0.000000,0.000000,0.000000,0.000000 HandTipRight:0.000000,0.000000,0.000000,0.000000 Head:0.000000,0.000000,0.000000,0.000000 HipLeft:0.127355,-0.669583,0.708373,-0.183431 HipRight:-0.105555,0.682081,0.701542,-0.177377 KneeLeft:-0.015252,0.715560,-0.056024,-0.696134 KneeRight:-0.024136,0.697969,0.066750,0.712602 Neck:0.040297,-0.012912,0.994685,-0.093867 ShoulderLeft:0.001394,0.778155,-0.620375,0.098019 ShoulderRight:0.054237,0.780263,0.622169,-0.033968 SpineBase:0.012201,-0.009673,0.998469,-0.053071 SpineMid:0.026062,-0.010409,0.998204,-0.052931 SpineShoulder:0.040230,-0.011903,0.996490,-0.072444 ThumbLeft:0.000000,0.000000,0.000000,0.000000 ThumbRight:0.000000,0.000000,0.000000,0.000000 WristLeft:-0.136273,0.838723,-0.059941,0.523813 WristRight:0.156646,0.016734,-0.433309,0.887370 END:
KINECT_DATA POSITION:20.338575,-1.422086,-8.054757 HEAD_JOINT1:0.974421,0.186088,-0.000000,0.125997 LARM_JOINT2:0.838825,0.000000,-0.026708,-0.543746 LARM_JOINT3:0.955219,0.000000,-0.209999,-0.208465 LLEG_JOINT2:0.998684,0.029736,0.000000,0.041784 LLEG_JOINT4:0.996124,0.082406,0.000000,-0.030747 RARM_JOINT2:0.776954,0.000000,0.052032,0.627404 RARM_JOINT3:0.844935,0.000000,0.465180,0.263994 RLEG_JOINT2:0.996908,0.028757,0.000000,-0.073121 RLEG_JOINT4:0.996075,0.073067,0.000000,0.049954 WAIST:0.999877,0.000000,-0.013459,0.008052 WAIST_JOINT0:0.999163,0.000000,-0.040749,0.003615 WAIST_JOINT1:0.996792,0.077745,0.000000,-0.019038 END:
KINECT_DATA_Sensor  AnkleLeft:0.066361,0.721639,-0.092169,-0.682890 AnkleRight:0.066676,0.727299,0.078176,0.678586 ElbowLeft:-0.030271,0.912259,-0.201710,-0.355219 ElbowRight:-0.027095,0.844403,0.117555,0.521948 FootLeft:0.000000,0.000000,0.000000,0.000000 FootRight:0.000000,0.000000,0.000000,0.000000 HandLeft:-0.147226,0.843710,0.008814,0.516140 HandRight:0.308255,0.097618,-0.346574,0.880532 HandTipLeft:0.000000,0.000000,0.000000,0.000000 HandTipRight:0.000000,0.000000,0.000000,0.000000 Head:0.000000,0.000000,0.000000,0.000000 HipLeft:0.127094,-0.669708,0.708318,-0.183369 HipRight:-0.105650,0.681910,0.701676,-0.177446 KneeLeft:-0.014863,0.715457,-0.056143,-0.696239 KneeRight:-0.024519,0.698077,0.066849,0.712474 Neck:0.040505,-0.012878,0.994676,-0.093878 ShoulderLeft:0.001535,0.777920,-0.620672,0.098004 ShoulderRight:0.054657,0.780108,0.622344,-0.033632 SpineBase:0.012037,-0.009579,0.998469,-0.053139 SpineMid:0.026086,-0.010326,0.998200,-0.052999 SpineShoulder:0.040438,-0.011880,0.996480,-0.072460 ThumbLeft:0.000000,0.000000,0.000000,0.000000 ThumbRight:0.000000,0.000000,0.000000,0.000000 WristLeft:-0.137521,0.850257,-0.056504,0.504935 WristRight:0.148362,0.023621,-0.433567,0.888510 END:
KINECT_DATA POSITION:20.357367,-1.418490,-8.057129 HEAD_JOINT1:0.974403,0.185893,-0.000000,0.126425 LARM_JOINT2:0.838819,0.000000,-0.026511,-0.543764 LARM_JOINT3:0.953754,0.000000,-0.213052,-0.212044 LLEG_JOINT2:0.998694,0.029619,0.000000,0.041625 LLEG_JOINT4:0.996403,0.079246,0.000000,-0.030020 RARM_JOINT2:0.778147,0.000000,0.042380,0.626651 RARM_JOINT3:0.844117,0.000000,0.468009,0.261600 RLEG_JOINT2:0.996825,0.029537,0.000000,-0.073941 RLEG_JOINT4:0.996311,0.070164,0.000000,0.049402 WAIST:0.999874,0.000000,-0.013844,0.007776 WAIST_JOINT0:0.999184,0.000000,-0.040263,0.003052 WAIST_JOINT1:0.996801,0.077619,0.000000,-0.019061 END:
KINECT_DATA_Sensor  AnkleLeft:0.064133,0.724911,-0.089877,-0.679936 AnkleRight:0.059979,0.691876,0.081156,0.714929 ElbowLeft:-0.030337,0.912187,-0.201416,-0.355564 ElbowRight:-0.022599,0.840445,0.123035,0.527262 FootLeft:0.000000,0.000000,0.000000,0.000000 FootRight:0.000000,0.000000,0.000000,0.000000 HandLeft:-0.164298,0.845558,0.019141,0.507614 HandRight:0.289978,0.081736,-0.344438,0.889154 HandTipLeft:0.000000,0.000000,0.000000,0.000000 HandTipRight:0.000000,0.000000,0.000000,0.000000 Head:0.000000,0.000000,0.000000,0.000000 HipLeft:0.127117,-0.669842,0.708195,-0.183339 HipRight:-0.105237,0.681787,0.701981,-0.176958 KneeLeft:-0.014656,0.715746,-0.055750,-0.695977 KneeRight:-0.024692,0.697766,0.068190,0.712645 Neck:0.040125,-0.013142,0.994701,-0.093742 ShoulderLeft:0.001019,0.778163,-0.620345,0.098154 ShoulderRight:0.053659,0.779706,0.622890,-0.034455 SpineBase:0.012445,-0.009678,0.998465,-0.053089 SpineMid:0.026109,-0.010404,0.998201,-0.052951 SpineShoulder:0.040061,-0.012067,0.996501,-0.072351 ThumbLeft:0.000000,0.000000,0.000000,0.000000 ThumbRight:0.000000,0.000000,0.000000,0.000000 WristLeft:-0.138414,0.856529,-0.054805,0.494162 WristRight:0.146788,0.015286,-0.433051,0.889206 END:
KINECT_DATA POSITION:20.468552,-1.411018,-7.968485 HEAD_JOINT1:0.974291,0.186387,-0.000000,0.126561 LARM_JOINT2:0.838313,0.000000,-0.025537,-0.544590 LARM_JOINT3:0.956078,0.000000,-0.208218,-0.206302 LLEG_JOINT2:0.998779,0.029632,0.000000,0.039523 LLEG_JOINT4:0.996487,0.079298,0.000000,-0.026949 RARM_JOINT2:0.777202,0.000000,0.048797,0.627356 RARM_JOINT3:0.846543,0.000000,0.469865,0.250185 RLEG_JOINT2:0.996757,0.029405,0.000000,-0.074901 RLEG_JOINT4:0.996178,0.071810,0.000000,0.049730 WAIST:0.999860,0.000000,-0.014696,0.008044 WAIST_JOINT0:0.999236,0.000000,-0.038912,0.003618 WAIST_JOINT1:0.996859,0.076866,0.000000,-0.019072 END:
KINECT_DATA_Sensor  AnkleLeft:0.064078,0.731801,-0.090292,-0.672465 AnkleRight:0.061056,0.692495,0.082289,0.714108 ElbowLeft:-0.030349,0.912109,-0.200819,-0.356102 ElbowRight:-0.026025,0.842394,0.118741,0.524972 FootLeft:0.000000,0.000000,0.000000,0.000000 FootRight:0.000000,0.000000,0.000000,0.000000 HandLeft:-0.134501,0.673567,-0.032170,0.726073 HandRight:0.301850,-0.002722,-0.356520,0.884179 HandTipLeft:0.000000,0.000000,0.000000,0.000000 HandTipRight:0.000000,0.000000,0.000000,0.000000 Head:0.000000,0.000000,0.000000,0.000000 HipLeft:0.127826,-0.669732,0.708236,-0.183090 HipRight:-0.105455,0.682408,0.701776,-0.175241 KneeLeft:-0.013370,0.716407,-0.054477,-0.695424 KneeRight:-0.025207,0.697097,0.068624,0.713240 Neck:0.038781,-0.012783,0.994839,-0.092883 ShoulderLeft:0.000744,0.778436,-0.620154,0.097193 ShoulderRight:0.051626,0.780501,0.622005,-0.035518 SpineBase:0.013353,-0.008629,0.998524,-0.051934 SpineMid:0.025941,-0.009284,0.998276,-0.051821 SpineShoulder:0.038742,-0.011524,0.996607,-0.071697 ThumbLeft:0.000000,0.000000,0.000000,0.000000 ThumbRight:0.000000,0.000000,0.000000,0.000000 WristLeft:-0.116853,0.677878,-0.092384,0.719925 WristRight:0.181148,-0.060687,-0.413292,0.890333 END:
KINECT_DATA POSITION:20.529438,-1.421123,-7.905746 HEAD_JOINT1:0.974012,0.187697,-0.000000,0.126769 LARM_JOINT2:0.838002,0.000000,-0.023332,-0.545168 LARM_JOINT3:0.956670,0.000000,-0.205035,-0.206745 LLEG_JOINT2:0.998822,0.030114,0.000000,0.038054 LLEG_JOINT4:0.996462,0.079069,0.000000,-0.028479 RARM_JOINT2:0.775175,0.000000,0.064064,0.628490 RARM_JOINT3:0.856345,0.000000,0.459156,0.236321 RLEG_JOINT2:0.996698,0.029923,0.000000,-0.075490 RLEG_JOINT4:0.996227,0.070530,0.000000,0.050575 WAIST:0.999866,0.000000,-0.013836,0.008721 WAIST_JOINT0:0.999400,0.000000,-0.034157,0.005682 WAIST_JOINT1:0.996916,0.076085,0.000000,-0.019232 END:
KINECT_DATA_Sensor  AnkleLeft:0.064686,0.721631,-0.089667,-0.683391 AnkleRight:0.061291,0.695061,0.080994,0.711740 ElbowLeft:-0.029378,0.911180,-0.201225,-0.358324 ElbowRight:-0.033895,0.848978,0.109503,0.515845 FootLeft:0.000000,0.000000,0.000000,0.000000 FootRight:0.000000,0.000000,0.000000,0.000000 HandLeft:-0.125523,0.633801,-0.030593,0.762630 HandRight:0.245978,0.110903,-0.393021,0.879050 HandTipLeft:0.000000,0.000000,0.000000,0.000000 HandTipRight:0.000000,0.000000,0.000000,0.000000 Head:0.000000,0.000000,0.000000,0.000000 HipLeft:0.127844,-0.669525,0.708668,-0.182159 HipRight:-0.106646,0.682920,0.701143,-0.175058 KneeLeft:-0.012417,0.715825,-0.054283,-0.696055 KneeRight:-0.024831,0.697725,0.068902,0.712612 Neck:0.034024,-0.011898,0.995116,-0.091892 ShoulderLeft:0.000252,0.778461,-0.620402,0.095399 ShoulderRight:0.044991,0.782768,0.619336,-0.040890 SpineBase:0.012485,-0.007988,0.998588,-0.051013 SpineMid:0.023143,-0.008532,0.998398,-0.050924 SpineShoulder:0.033974,-0.010813,0.996836,-0.071039 ThumbLeft:0.000000,0.000000,0.000000,0.000000 ThumbRight:0.000000,0.000000,0.000000,0.000000 WristLeft:-0.109950,0.638111,-0.098819,0.755619 WristRight:0.130654,0.055664,-0.425110,0.893931 END:
KINECT_DATA POSITION:20.550117,-1.413333,-7.900572 HEAD_JOINT1:0.974026,0.187455,-0.000000,0.127020 LARM_JOINT2:0.837669,0.000000,-0.022693,-0.545706 LARM_JOINT3:0.954032,0.000000,-0.212033,-0.211814 LLEG_JOINT2:0.998837,0.030444,0.000000,0.037380 LLEG_JOINT4:0.996450,0.079800,0.000000,-0.026805 RARM_JOINT2:0.778211,0.000000,0.041485,0.626631 RARM_JOINT3:0.853093,0.000000,0.454876,0.255579 RLEG_JOINT2:0.996729,0.029172,0.000000,-0.075368 RLEG_JOINT4:0.996296,0.070309,0.000000,0.049501 WAIST:0.999861,0.000000,-0.014366,0.008402 WAIST_JOINT0:0.999393,0.000000,-0.034472,0.005071 WAIST_JOINT1:0.996930,0.076007,0.000000,-0.018828 END:
KINECT_DATA_Sensor  AnkleLeft:0.064831,0.721353,-0.090990,-0.683497 AnkleRight:0.059800,0.695148,0.081180,0.711761 ElbowLeft:-0.029114,0.910929,-0.200896,-0.359168 ElbowRight:-0.023415,0.838062,0.121855,0.531278 FootLeft:0.000000,0.000000,0.000000,0.000000 FootRight:0.000000,0.000000,0.000000,0.000000 HandLeft:-0.163479,0.710321,-0.014789,0.684471 HandRight:0.272547,0.103234,-0.329454,0.898065 HandTipLeft:0.000000,0.000000,0.000000,0.000000 HandTipRight:0.000000,0.000000,0.000000,0.000000 Head:0.000000,0.000000,0.000000,0.000000 HipLeft:0.127944,-0.669707,0.708444,-0.182292 HipRight:-0.106164,0.682840,0.701427,-0.174524 KneeLeft:-0.011503,0.716235,-0.053821,-0.695686 KneeRight:-0.025475,0.697310,0.068534,0.713031 Neck:0.034412,-0.011773,0.995099,-0.091948 ShoulderLeft:0.000361,0.778652,-0.620176,0.095303 ShoulderRight:0.045568,0.782206,0.620043,-0.040311 SpineBase:0.013044,-0.008036,0.998582,-0.050992 SpineMid:0.023613,-0.008575,0.998388,-0.050904 SpineShoulder:0.034367,-0.010669,0.996832,-0.070928 ThumbLeft:0.000000,0.000000,0.000000,0.000000 ThumbRight:0.000000,0.000000,0.000000,0.000000 WristLeft:-0.121366,0.726010,-0.084575,0.671585 WristRight:0.127030,0.036073,-0.429385,0.893415 END:
KINECT_DATA POSITION:20.548103,-1.413939,-7.894945 HEAD_JOINT1:0.974060,0.187080,-0.000000,0.127314 LARM_JOINT2:0.837297,0.000000,-0.023946,-0.546224 LARM_JOINT3:0.953869,0.000000,-0.211973,-0.212604 LLEG_JOINT2:0.998847,0.030533,0.000000,0.037055 LLEG_JOINT4:0.996617,0.078607,0.000000,-0.024008 RARM_JOINT2:0.779722,0.000000,0.029578,0.625427 RARM_JOINT3:0.846894,0.000000,0.460510,0.265897 RLEG_JOINT2:0.996743,0.028785,0.000000,-0.075336 RLEG_JOINT4:0.995989,0.073321,0.000000,0.051275 WAIST:0.999854,0.000000,-0.014995,0.008236 WAIST_JOINT0:0.999333,0.000000,-0.036283,0.004114 WAIST_JOINT1:0.996923,0.076095,0.000000,-0.018807 END:
KINECT_DATA_Sensor  AnkleLeft:0.063861,0.733013,-0.090869,-0.671087 AnkleRight:0.062802,0.693626,0.081811,0.712913 ElbowLeft:-0.029432,0.911984,-0.199804,-0.357068 ElbowRight:-0.017143,0.835102,0.128793,0.534530 FootLeft:0.000000,0.000000,0.000000,0.000000 FootRight:0.000000,0.000000,0.000000,0.000000 HandLeft:-0.165265,0.680835,-0.020517,0.713253 HandRight:0.299606,0.067965,-0.321343,0.895743 HandTipLeft:0.000000,0.000000,0.000000,0.000000 HandTipRight:0.000000,0.000000,0.000000,0.000000 Head:0.000000,0.000000,0.000000,0.000000 HipLeft:0.128300,-0.669741,0.708242,-0.182701 HipRight:-0.105736,0.682825,0.701575,-0.174250 KneeLeft:-0.011122,0.716685,-0.053538,-0.695251 KneeRight:-0.025801,0.696847,0.068379,0.713486 Neck:0.036278,-0.011982,0.995012,-0.092152 ShoulderLeft:-0.000031,0.778909,-0.619718,0.096174 ShoulderRight:0.047559,0.781425,0.620998,-0.038406 SpineBase:0.013678,-0.008157,0.998568,-0.051073 SpineMid:0.024859,-0.008729,0.998352,-0.050979 SpineShoulder:0.036234,-0.010854,0.996761,-0.070972 ThumbLeft:0.000000,0.000000,0.000000,0.000000 ThumbRight:0.000000,0.000000,0.000000,0.000000 WristLeft:-0.117835,0.687867,-0.090044,0.710525 WristRight:0.141481,-0.000109,-0.423985,0.894550 END:
KINECT_DATA POSITION:20.549168,-1.414283,-7.891810 HEAD_JOINT1:0.974015,0.186544,-0.000000,0.128439 LARM_JOINT2:0.837481,0.000000,-0.024151,-0.545933 LARM_JOINT3:0.954644,0.000000,-0.212112,-0.208959 LLEG_JOINT2:0.998848,0.030361,0.000000,0.037167 LLEG_JOINT4:0.996692,0.077325,0.000000,-0.025032 RARM_JOINT2:0.778809,0.000000,0.031279,0.626480 RARM_JOINT3:0.846235,0.000000,0.460499,0.268006 RLEG_JOINT2:0.996761,0.028854,0.000000,-0.075061 RLEG_JOINT4:0.996121,0.071902,0.000000,0.050726 WAIST:0.999850,0.000000,-0.015291,0.008076 WAIST_JOINT0:0.999302,0.000000,-0.037158,0.003769 WAIST_JOINT1:0.996936,0.075984,0.000000,-0.018576 END:
KINECT_DATA_Sensor  AnkleLeft:0.064077,0.737482,-0.088722,-0.666441 AnkleRight:0.061520,0.693317,0.081206,0.713395 ElbowLeft:-0.029933,0.912024,-0.200039,-0.356791 ElbowRight:-0.017506,0.835108,0.126783,0.534990 FootLeft:0.000000,0.000000,0.000000,0.000000 FootRight:0.000000,0.000000,0.000000,0.000000 HandLeft:-0.158878,0.786457,-0.006276,0.596828 HandRight:0.333654,0.008967,-0.304306,0.892184 HandTipLeft:0.000000,0.000000,0.000000,0.000000 HandTipRight:0.000000,0.000000,0.000000,0.000000 Head:0.000000,0.000000,0.000000,0.000000 HipLeft:0.128413,-0.669796,0.708133,-0.182842 HipRight:-0.105507,0.682767,0.701730,-0.173990 KneeLeft:-0.011223,0.716899,-0.053377,-0.695040 KneeRight:-0.025652,0.696628,0.068351,0.713708 Neck:0.037222,-0.011901,0.994987,-0.092053 ShoulderLeft:-0.000446,0.779113,-0.619395,0.096608 ShoulderRight:0.048327,0.781122,0.621378,-0.037449 SpineBase:0.013990,-0.008159,0.998564,-0.051074 SpineMid:0.025482,-0.008746,0.998336,-0.050976 SpineShoulder:0.037176,-0.010820,0.996735,-0.070855 ThumbLeft:0.000000,0.000000,0.000000,0.000000 ThumbRight:0.000000,0.000000,0.000000,0.000000 WristLeft:-0.131680,0.796840,-0.069385,0.585570 WristRight:0.169557,-0.061190,-0.412727,0.892840 END:
KINECT_DATA POSITION:20.550354,-1.411443,-7.893538 HEAD_JOINT1:0.974078,0.185986,-0.000000,0.128766 LARM_JOINT2:0.838011,0.000000,-0.020828,-0.545256 LARM_JOINT3:0.955602,0.000000,-0.207309,-0.209396 LLEG_JOINT2:0.998855,0.030598,0.000000,0.036776 LLEG_JOINT4:0.996545,0.078207,0.000000,-0.027971 RARM_JOINT2:0.778790,0.000000,0.030756,0.626530 RARM_JOINT3:0.847355,0.000000,0.461999,0.261812 RLEG_JOINT2:0.996754,0.027906,0.000000,-0.075515 RLEG_JOINT4:0.995967,0.073890,0.000000,0.050890 WAIST:0.999855,0.000000,-0.014834,0.008384 WAIST_JOINT0:0.999301,0.000000,-0.037216,0.003490 WAIST_JOINT1:0.996994,0.075243,0.000000,-0.018487 END:
KINECT_DATA_Sensor  AnkleLeft:0.064656,0.718977,-0.089025,-0.686269 AnkleRight:0.062217,0.693203,0.081956,0.713360 ElbowLeft:-0.028688,0.911103,-0.202093,-0.358087 ElbowRight:-0.017709,0.835011,0.126233,0.535265 FootLeft:0.000000,0.000000,0.000000,0.000000 FootRight:0.000000,0.000000,0.000000,0.000000 HandLeft:-0.136177,0.790160,-0.000876,0.597581 HandRight:0.306503,0.031132,-0.325568,0.893920 HandTipLeft:0.000000,0.000000,0.000000,0.000000 HandTipRight:0.000000,0.000000,0.000000,0.000000 Head:0.000000,0.000000,0.000000,0.000000 HipLeft:0.128178,-0.669705,0.708418,-0.182232 HipRight:-0.105826,0.682943,0.701522,-0.173943 KneeLeft:-0.010973,0.716574,-0.053496,-0.695370 KneeRight:-0.026468,0.696949,0.067786,0.713419 Neck:0.037419,-0.011454,0.995066,-0.091172 ShoulderLeft:-0.001746,0.779393,-0.619012,0.096784 ShoulderRight:0.047221,0.781024,0.621587,-0.037434 SpineBase:0.013514,-0.008073,0.998586,-0.050778 SpineMid:0.025329,-0.008673,0.998356,-0.050679 SpineShoulder:0.037363,-0.010542,0.996781,-0.070149 ThumbLeft:0.000000,0.000000,0.000000,0.000000 ThumbRight:0.000000,0.000000,0.000000,0.000000 WristLeft:-0.130952,0.796856,-0.069724,0.585671 WristRight:0.156985,-0.035288,-0.417124,0.894493 END:
KINECT_DATA POSITION:20.553883,-1.404333,-7.911968 HEAD_JOINT1:0.974453,0.184367,-0.000000,0.128255 LARM_JOINT2:0.838266,0.000000,-0.020150,-0.544889 LARM_JOINT3:0.954012,0.000000,-0.213408,-0.210517 LLEG_JOINT2:0.998863,0.030863,0.000000,0.036345 LLEG_JOINT4:0.996336,0.081806,0.000000,-0.024945 RARM_JOINT2:0.778492,0.000000,0.032821,0.626795 RARM_JOINT3:0.845897,0.000000,0.467412,0.256874 RLEG_JOINT2:0.996725,0.028054,0.000000,-0.075845 RLEG_JOINT4:0.996057,0.074228,0.000000,0.048590 WAIST:0.999864,0.000000,-0.014067,0.008615 WAIST_JOINT0:0.999298,0.000000,-0.037291,0.003538 WAIST_JOINT1:0.997011,0.075071,0.000000,-0.018246 END:
KINECT_DATA_Sensor  AnkleLeft:0.067576,0.733541,-0.092166,-0.669967 AnkleRight:0.066226,0.738979,0.079898,0.665688 ElbowLeft:-0.028488,0.910733,-0.203124,-0.358462 ElbowRight:-0.019180,0.834080,0.124441,0.537082 FootLeft:0.000000,0.000000,0.000000,0.000000 FootRight:0.000000,0.000000,0.000000,0.000000 HandLeft:-0.157756,0.830180,0.001776,0.534707 HandRight:0.285616,0.074101,-0.358969,0.885480 HandTipLeft:0.000000,0.000000,0.000000,0.000000 HandTipRight:0.000000,0.000000,0.000000,0.000000 Head:0.000000,0.000000,0.000000,0.000000 HipLeft:0.127563,-0.669682,0.708718,-0.181586 HipRight:-0.106195,0.683020,0.701347,-0.174122 KneeLeft:-0.010605,0.716042,-0.053552,-0.695920 KneeRight:-0.026485,0.697502,0.067939,0.712863 Neck:0.037520,-0.011037,0.995077,-0.091059 ShoulderLeft:-0.001553,0.779470,-0.618973,0.096420 ShoulderRight:0.047500,0.781026,0.621592,-0.036954 SpineBase:0.012740,-0.007890,0.998603,-0.050677 SpineMid:0.024984,-0.008510,0.998371,-0.050576 SpineShoulder:0.037463,-0.010216,0.996795,-0.069936 ThumbLeft:0.000000,0.000000,0.000000,0.000000 ThumbRight:0.000000,0.000000,0.000000,0.000000 WristLeft:-0.135817,0.838767,-0.059997,0.523856 WristRight:0.135967,0.006435,-0.425936,0.894455 END:
KINECT_DATA POSITION:20.523851,-1.399294,-7.938111 HEAD_JOINT1:0.975678,0.179913,-0.000000,0.125233 LARM_JOINT2:0.838717,0.000000,-0.019664,-0.544212 LARM_JOINT3:0.953728,0.000000,-0.216885,-0.208240 LLEG_JOINT2:0.998843,0.030865,0.000000,0.036877 LLEG_JOINT4:0.996499,0.079135,0.000000,-0.026985 RARM_JOINT2:0.780989,0.000000,0.031561,0.623746 RARM_JOINT3:0.839276,0.000000,0.477686,0.259677 RLEG_JOINT2:0.996786,0.027825,0.000000,-0.075126 RLEG_JOINT4:0.995926,0.076198,0.000000,0.048216 WAIST:0.999871,0.000000,-0.013740,0.008305 WAIST_JOINT0:0.999321,0.000000,-0.036649,0.003922 WAIST_JOINT1:0.997100,0.074008,0.000000,-0.017716 END:
KINECT_DATA_Sensor  AnkleLeft:0.066640,0.731449,-0.089208,-0.672743 AnkleRight:0.067689,0.740124,0.080883,0.664148 ElbowLeft:-0.029409,0.910483,-0.203823,-0.358624 ElbowRight:-0.020704,0.836692,0.127616,0.532196 FootLeft:0.000000,0.000000,0.000000,0.000000 FootRight:0.000000,0.000000,0.000000,0.000000 HandLeft:-0.155509,0.673248,-0.054516,0.720821 HandRight:0.287113,0.063213,-0.389179,0.872989 HandTipLeft:0.000000,0.000000,0.000000,0.000000 HandTipRight:0.000000,0.000000,0.000000,0.000000 Head:0.000000,0.000000,0.000000,0.000000 HipLeft:0.127641,-0.670050,0.708505,-0.181002 HipRight:-0.106738,0.682926,0.701459,-0.173707 KneeLeft:-0.010748,0.715852,-0.053708,-0.696101 KneeRight:-0.026396,0.697700,0.067469,0.712717 Neck:0.036926,-0.010855,0.995204,-0.089932 ShoulderLeft:-0.003137,0.779561,-0.618891,0.096172 ShoulderRight:0.045140,0.781574,0.621040,-0.037598 SpineBase:0.012467,-0.007791,0.998640,-0.050025 SpineMid:0.024552,-0.008396,0.998416,-0.049927 SpineShoulder:0.036877,-0.009969,0.996893,-0.068888 ThumbLeft:0.000000,0.000000,0.000000,0.000000 ThumbRight:0.000000,0.000000,0.000000,0.000000 WristLeft:-0.117065,0.678710,-0.093468,0.718966 WristRight:0.145330,-0.003167,-0.425217,0.893342 END:
KINECT_DATA POSITION:20.365067,-1.378287,-7.912719 HEAD_JOINT1:0.977803,0.174566,-0.000000,0.115883 LARM_JOINT2:0.838628,0.000000,-0.021081,-0.544297 LARM_JOINT3:0.955839,0.000000,-0.209964,-0.205638 LLEG_JOINT2:0.998729,0.030794,0.000000,0.039893 LLEG_JOINT4:0.996288,0.080501,0.000000,-0.030484 RARM_JOINT2:0.786787,0.000000,0.088731,0.610814 RARM_JOINT3:0.825472,0.000000,0.513325,0.234721 RLEG_JOINT2:0.997028,0.027576,0.000000,-0.071936 RLEG_JOINT4:0.995914,0.076867,0.000000,0.047395 WAIST:0.999895,0.000000,-0.012711,0.006923 WAIST_JOINT0:0.999454,0.000000,-0.032624,0.005212 WAIST_JOINT1:0.997407,0.070060,0.000000,-0.016462 END:
KINECT_DATA_Sensor  AnkleLeft:0.066856,0.714676,-0.090238,-0.690381 AnkleRight:0.068123,0.737302,0.080811,0.667244 ElbowLeft:-0.034995,0.907992,-0.201375,-0.365750 ElbowRight:-0.065789,0.849345,0.111355,0.511747 FootLeft:0.000000,0.000000,0.000000,0.000000 FootRight:0.000000,0.000000,0.000000,0.000000 HandLeft:-0.140317,0.846949,-0.000132,0.512825 HandRight:0.235363,0.157673,-0.519882,0.805894 HandTipLeft:0.000000,0.000000,0.000000,0.000000 HandTipRight:0.000000,0.000000,0.000000,0.000000 Head:0.000000,0.000000,0.000000,0.000000 HipLeft:0.129048,-0.671460,0.707338,-0.179335 HipRight:-0.109253,0.682194,0.701940,-0.173078 KneeLeft:-0.011920,0.715252,-0.054793,-0.696614 KneeRight:-0.025415,0.698338,0.065943,0.712271 Neck:0.032617,-0.010924,0.995757,-0.085357 ShoulderLeft:0.000596,0.779817,-0.619842,0.087646 ShoulderRight:0.043259,0.782661,0.619920,-0.035629 SpineBase:0.011608,-0.008419,0.998764,-0.047590 SpineMid:0.021965,-0.008913,0.998590,-0.047500 SpineShoulder:0.032577,-0.009833,0.997296,-0.065140 ThumbLeft:0.000000,0.000000,0.000000,0.000000 ThumbRight:0.000000,0.000000,0.000000,0.000000 WristLeft:-0.141884,0.850853,-0.063615,0.501868 WristRight:0.118380,0.095329,-0.470628,0.869142 END:
KINECT_DATA POSITION:20.066715,-1.329447,-7.925367 HEAD_JOINT1:0.980191,0.172731,-0.000000,0.096904 LARM_JOINT2:0.837282,0.000000,-0.016605,-0.546519 LARM_JOINT3:0.957766,0.000000,-0.207303,-0.199276 LLEG_JOINT2:0.998501,0.029075,0.000000,0.046377 LLEG_JOINT4:0.996063,0.082510,0.000000,-0.032415 RARM_JOINT2:0.804757,0.000000,0.245517,0.540452 RARM_JOINT3:0.836119,0.000000,0.515730,0.186890 RLEG_JOINT2:0.997399,0.027618,0.000000,-0.066571 RLEG_JOINT4:0.995859,0.077288,0.000000,0.047862 WAIST:0.999974,0.000000,-0.005488,0.004627 WAIST_JOINT0:0.999814,0.000000,-0.018083,0.006774 WAIST_JOINT1:0.997715,0.065985,0.000000,-0.014522 END:
KINECT_DATA_Sensor  AnkleLeft:0.067268,0.718408,-0.090626,-0.686405 AnkleRight:0.065573,0.703424,0.082737,0.702887 ElbowLeft:-0.035517,0.899989,-0.198565,-0.386433 ElbowRight:-0.199555,0.864087,0.077497,0.455551 FootLeft:0.000000,0.000000,0.000000,0.000000 FootRight:0.000000,0.000000,0.000000,0.000000 HandLeft:-0.127910,0.813694,-0.010788,0.566944 HandRight:0.273740,0.250407,-0.492302,0.787402 HandTipLeft:0.000000,0.000000,0.000000,0.000000 HandTipRight:0.000000,0.000000,0.000000,0.000000 Head:0.000000,0.000000,0.000000,0.000000 HipLeft:0.127543,-0.674531,0.706203,-0.173256 HipRight:-0.116035,0.680282,0.702324,-0.174621 KneeLeft:-0.015740,0.710316,-0.056566,-0.701430 KneeRight:-0.023768,0.703323,0.063543,0.707626 Neck:0.017878,-0.011116,0.996472,-0.081242 ShoulderLeft:0.009350,0.780185,-0.621336,0.071875 ShoulderRight:0.033034,0.784179,0.618179,-0.042745 SpineBase:0.004660,-0.009318,0.998991,-0.043680 SpineMid:0.011108,-0.009600,0.998940,-0.043619 SpineShoulder:0.017787,-0.010141,0.997927,-0.061004 ThumbLeft:0.000000,0.000000,0.000000,0.000000 ThumbRight:0.000000,0.000000,0.000000,0.000000 WristLeft:-0.135993,0.816921,-0.081535,0.554525 WristRight:0.128467,0.151941,-0.552633,0.809325 END:
KINECT_DATA POSITION:19.896412,-1.207832,-8.007824 HEAD_JOINT1:0.982853,0.167743,-0.000000,0.076571 LARM_JOINT2:0.832632,0.000000,-0.014592,-0.553635 LARM_JOINT3:0.959155,0.000000,-0.208805,-0.190847 LLEG_JOINT2:0.998430,0.023256,0.000000,0.050954 LLEG_JOINT4:0.995617,0.087508,0.000000,-0.033002 RARM_JOINT2:0.855741,0.000000,0.310998,0.413506 RARM_JOINT3:0.804110,0.000000,0.534297,0.260641 RLEG_JOINT2:0.997541,0.027827,0.000000,-0.064324 RLEG_JOINT4:0.995439,0.080234,0.000000,0.051603 WAIST:0.999966,-0.000000,0.007868,0.002472 WAIST_JOINT0:0.999862,-0.000000,0.014633,0.007878 WAIST_JOINT1:0.997866,0.064404,0.000000,-0.010749 END:
KINECT_DATA_Sensor  AnkleLeft:-0.065510,-0.700608,0.091249,0.704649 AnkleRight:0.070379,0.720694,0.082190,0.684757 ElbowLeft:-0.033900,0.887136,-0.192379,-0.418129 ElbowRight:-0.298723,0.899448,0.171842,0.268752 FootLeft:0.000000,0.000000,0.000000,0.000000 FootRight:0.000000,0.000000,0.000000,0.000000 HandLeft:-0.127753,0.845365,-0.003052,0.518678 HandRight:0.310902,0.195794,-0.502602,0.782557 HandTipLeft:0.000000,0.000000,0.000000,0.000000 HandTipRight:0.000000,0.000000,0.000000,0.000000 Head:0.000000,0.000000,0.000000,0.000000 HipLeft:0.120350,-0.677424,0.706809,-0.164420 HipRight:-0.125018,0.677067,0.702734,-0.179206 KneeLeft:0.020873,-0.700857,0.054388,0.710919 KneeRight:-0.024443,0.712520,0.063263,0.698367 Neck:-0.014605,-0.008495,0.996658,-0.079916 ShoulderLeft:0.019394,0.780974,-0.621998,0.053132 ShoulderRight:0.001152,0.785845,0.613890,-0.074740 SpineBase:-0.008408,-0.008641,0.999071,-0.041374 SpineMid:-0.011654,-0.008506,0.999038,-0.041401 SpineShoulder:-0.014786,-0.008310,0.998092,-0.059367 ThumbLeft:0.000000,0.000000,0.000000,0.000000 ThumbRight:0.000000,0.000000,0.000000,0.000000 WristLeft:-0.139849,0.847912,-0.083829,0.504441 WristRight:0.257016,0.174269,-0.484170,0.818018 END:
KINECT_DATA POSITION:19.847509,-1.046599,-8.160936 HEAD_JOINT1:0.983477,0.170019,-0.000000,0.062176 LARM_JOINT2:0.829588,0.000000,-0.017830,-0.558091 LARM_JOINT3:0.960126,0.000000,-0.212453,-0.181721 LLEG_JOINT2:0.998456,0.015630,0.000000,0.053306 LLEG_JOINT4:0.995285,0.093524,0.000000,-0.025702 RARM_JOINT2:0.849638,0.000000,0.342098,0.401352 RARM_JOINT3:0.801450,0.000000,0.551507,0.231338 RLEG_JOINT2:0.997531,0.030129,0.000000,-0.063434 RLEG_JOINT4:0.994703,0.082568,0.000000,0.061226 WAIST:0.999646,-0.000000,0.026597,0.000829 WAIST_JOINT0:0.998567,-0.000000,0.050858,0.016646 WAIST_JOINT1:0.997896,0.064562,0.000000,-0.005892 END:
KINECT_DATA_Sensor  AnkleLeft:0.066795,0.733546,-0.090531,-0.670263 AnkleRight:0.076612,0.717943,0.082141,0.686979 ElbowLeft:-0.032483,0.877653,-0.189824,-0.438904 ElbowRight:-0.325014,0.900124,0.144988,0.251238 FootLeft:0.000000,0.000000,0.000000,0.000000 FootRight:0.000000,0.000000,0.000000,0.000000 HandLeft:-0.138735,0.816832,-0.036123,0.558779 HandRight:0.282491,0.275254,-0.547761,0.737829 HandTipLeft:0.000000,0.000000,0.000000,0.000000 HandTipRight:0.000000,0.000000,0.000000,0.000000 Head:0.000000,0.000000,0.000000,0.000000 HipLeft:0.107563,-0.680967,0.707965,-0.153296 HipRight:-0.135844,0.673682,0.701717,-0.187864 KneeLeft:0.025896,-0.687298,0.050034,0.724188 KneeRight:-0.024582,0.725351,0.064976,0.684865 Neck:-0.050829,-0.004574,0.995475,-0.080156 ShoulderLeft:0.023462,0.780556,-0.623366,0.039956 ShoulderRight:-0.041923,0.791534,0.598384,-0.116845 SpineBase:-0.026891,-0.007149,0.998770,-0.041052 SpineMid:-0.038970,-0.006652,0.998371,-0.041135 SpineShoulder:-0.051100,-0.005401,0.996905,-0.059494 ThumbLeft:0.000000,0.000000,0.000000,0.000000 ThumbRight:0.000000,0.000000,0.000000,0.000000 WristLeft:-0.129425,0.821332,-0.098607,0.546753 WristRight:0.244628,0.265035,-0.525456,0.770590 END:
KINECT_DATA POSITION:19.921618,-0.830293,-8.357250 HEAD_JOINT1:0.983999,0.171183,-0.000000,0.049423 LARM_JOINT2:0.827302,0.000000,-0.024759,-0.561211 LARM_JOINT3:0.960489,0.000000,-0.209971,-0.182681 LLEG_JOINT2:0.998460,0.008838,0.000000,0.054763 LLEG_JOINT4:0.995041,0.097432,0.000000,-0.019997 RARM_JOINT2:0.840629,0.000000,0.416436,0.346301 RARM_JOINT3:0.859164,0.000000,0.493180,0.136423 RLEG_JOINT2:0.997510,0.033231,0.000000,-0.062202 RLEG_JOINT4:0.994906,0.078924,0.000000,0.062717 WAIST:0.998908,0.000000,0.046666,-0.002317 WAIST_JOINT0:0.997206,-0.000000,0.072307,0.018739 WAIST_JOINT1:0.997871,0.065181,-0.000000,0.002091 END:
KINECT_DATA_Sensor  AnkleLeft:-0.057298,-0.669007,0.095042,0.734924 AnkleRight:0.076691,0.750328,0.081475,0.651528 ElbowLeft:-0.032364,0.871762,-0.189384,-0.450686 ElbowRight:-0.392706,0.889589,0.107861,0.206832 FootLeft:0.000000,0.000000,0.000000,0.000000 FootRight:0.000000,0.000000,0.000000,0.000000 HandLeft:-0.131589,0.674879,-0.067830,0.722926 HandRight:0.184422,0.248650,-0.580928,0.752784 HandTipLeft:0.000000,0.000000,0.000000,0.000000 HandTipRight:0.000000,0.000000,0.000000,0.000000 Head:0.000000,0.000000,0.000000,0.000000 HipLeft:0.095801,-0.684987,0.707430,-0.145460 HipRight:-0.150816,0.668308,0.700303,-0.200486 KneeLeft:0.028682,-0.672768,0.044817,0.737938 KneeRight:-0.025105,0.738732,0.068138,0.670077 Neck:-0.072384,-0.000062,0.994087,-0.080940 ShoulderLeft:0.029309,0.778514,-0.626185,0.030812 ShoulderRight:-0.064827,0.789330,0.594113,-0.140662 SpineBase:-0.046524,-0.004183,0.998030,-0.041882 SpineMid:-0.059567,-0.003635,0.997337,-0.041933 SpineShoulder:-0.072720,-0.002026,0.995530,-0.060224 ThumbLeft:0.000000,0.000000,0.000000,0.000000 ThumbRight:0.000000,0.000000,0.000000,0.000000 WristLeft:-0.098826,0.678621,-0.129255,0.716240 WristRight:0.205269,0.282367,-0.535804,0.768796 END:
KINECT_DATA POSITION:19.946871,-0.824431,-8.379316 HEAD_JOINT1:0.984280,0.170743,-0.000000,0.045156 LARM_JOINT2:0.826810,0.000000,-0.026665,-0.561849 LARM_JOINT3:0.959070,0.000000,-0.213160,-0.186405 LLEG_JOINT2:0.998444,0.008398,0.000000,0.055123 LLEG_JOINT4:0.994891,0.099194,0.000000,-0.018755 RARM_JOINT2:0.838764,0.000000,0.445709,0.312759 RARM_JOINT3:0.884540,0.000000,0.450093,0.122496 RLEG_JOINT2:0.997549,0.034183,0.000000,-0.061055 RLEG_JOINT4:0.994920,0.076798,0.000000,0.065091 WAIST:0.998793,0.000000,0.049005,-0.003369 WAIST_JOINT0:0.996956,-0.000000,0.076497,0.015078 WAIST_JOINT1:0.997855,0.065276,-0.000000,0.004999 END:
KINECT_DATA_Sensor  AnkleLeft:-0.058093,-0.666494,0.096292,0.736979 AnkleRight:0.077538,0.752254,0.079095,0.649497 ElbowLeft:-0.032478,0.873352,-0.190004,-0.447326 ElbowRight:-0.421236,0.885180,0.113983,0.161323 FootLeft:0.000000,0.000000,0.000000,0.000000 FootRight:0.000000,0.000000,0.000000,0.000000 HandLeft:-0.157064,0.754374,-0.055079,0.634994 HandRight:0.124166,0.296228,-0.618568,0.717081 HandTipLeft:0.000000,0.000000,0.000000,0.000000 HandTipRight:0.000000,0.000000,0.000000,0.000000 Head:0.000000,0.000000,0.000000,0.000000 HipLeft:0.093677,-0.686246,0.706743,-0.144238 HipRight:-0.152367,0.667669,0.700353,-0.201267 KneeLeft:0.028393,-0.671158,0.044120,0.739455 KneeRight:-0.024512,0.740248,0.068757,0.668360 Neck:-0.076840,0.001995,0.993716,-0.081369 ShoulderLeft:0.029662,0.777339,-0.627677,0.029754 ShoulderRight:-0.070879,0.784144,0.598815,-0.146681 SpineBase:-0.048732,-0.003285,0.997928,-0.041892 SpineMid:-0.062906,-0.002690,0.997134,-0.041934 SpineShoulder:-0.077174,-0.000245,0.995190,-0.060336 ThumbLeft:0.000000,0.000000,0.000000,0.000000 ThumbRight:0.000000,0.000000,0.000000,0.000000 WristLeft:-0.114789,0.766085,-0.114227,0.622004 WristRight:0.129705,0.339068,-0.526457,0.768800 END:
KINECT_DATA POSITION:19.946594,-0.805762,-8.472180 HEAD_JOINT1:0.984760,0.168861,-0.000000,0.041637 LARM_JOINT2:0.826794,0.000000,-0.030666,-0.561668 LARM_JOINT3:0.958429,0.000000,-0.214388,-0.188288 LLEG_JOINT2:0.998421,0.006168,0.000000,0.055830 LLEG_JOINT4:0.994575,0.101946,0.000000,-0.020672 RARM_JOINT2:0.835971,0.000000,0.462551,0.295296 RARM_JOINT3:0.897664,0.000000,0.425788,0.113595 RLEG_JOINT2:0.997602,0.034661,0.000000,-0.059902 RLEG_JOINT4:0.994820,0.076666,0.000000,0.066753 WAIST:0.998620,0.000000,0.052366,-0.003999 WAIST_JOINT0:0.996815,-0.000000,0.079213,0.009271 WAIST_JOINT1:0.997785,0.066097,-0.000000,0.007553 END:
KINECT_DATA_Sensor  AnkleLeft:-0.060161,-0.664552,0.095044,0.738727 AnkleRight:0.078995,0.753344,0.078242,0.648159 ElbowLeft:-0.032878,0.876399,-0.191248,-0.440758 ElbowRight:-0.440546,0.875204,0.093076,0.176842 FootLeft:0.000000,0.000000,0.000000,0.000000 FootRight:0.000000,0.000000,0.000000,0.000000 HandLeft:-0.153082,0.652511,-0.088464,0.736865 HandRight:0.058799,0.382066,-0.552666,0.738328 HandTipLeft:0.000000,0.000000,0.000000,0.000000 HandTipRight:0.000000,0.000000,0.000000,0.000000 Head:0.000000,0.000000,0.000000,0.000000 HipLeft:0.090637,-0.687293,0.706313,-0.143302 HipRight:-0.154117,0.667093,0.699945,-0.203252 KneeLeft:0.029920,-0.668705,0.042814,0.741691 KneeRight:-0.024007,0.742460,0.068709,0.665925 Neck:-0.079787,0.003783,0.993378,-0.082581 ShoulderLeft:0.030167,0.776062,-0.629224,0.029929 ShoulderRight:-0.074950,0.776300,0.607198,-0.151825 SpineBase:-0.051970,-0.002085,0.997731,-0.042749 SpineMid:-0.066010,-0.001483,0.996901,-0.042774 SpineShoulder:-0.080115,0.001374,0.994907,-0.061150 ThumbLeft:0.000000,0.000000,0.000000,0.000000 ThumbRight:0.000000,0.000000,0.000000,0.000000 WristLeft:-0.095793,0.658799,-0.128967,0.734966 WristRight:0.076226,0.388563,-0.559748,0.727936 END:
KINECT_DATA POSITION:19.906946,-0.712647,-8.666587 HEAD_JOINT1:0.985804,0.161122,-0.000000,0.047221 LARM_JOINT2:0.828351,0.000000,-0.040690,-0.558730 LARM_JOINT3:0.958556,0.000000,-0.209296,-0.193304 LLEG_JOINT2:0.998427,0.002849,0.000000,0.055999 LLEG_JOINT4:0.994509,0.102496,0.000000,-0.021119 RARM_JOINT2:0.815482,0.000000,0.521333,0.251398 RARM_JOINT3:0.928444,0.000000,0.360264,0.090558 RLEG_JOINT2:0.997642,0.035524,0.000000,-0.058716 RLEG_JOINT4:0.994783,0.077138,0.000000,0.066764 WAIST:0.998343,0.000000,0.057408,-0.003823 WAIST_JOINT0:0.996949,-0.000000,0.077873,0.005232 WAIST_JOINT1:0.997500,0.070220,-0.000000,0.007921 END:
KINECT_DATA_Sensor  AnkleLeft:-0.059213,-0.665478,0.092489,0.738294 AnkleRight:0.080030,0.752492,0.079169,0.648909 ElbowLeft:-0.033841,0.881988,-0.193451,-0.428403 ElbowRight:-0.479952,0.867238,0.074728,0.109361 FootLeft:0.000000,0.000000,0.000000,0.000000 FootRight:0.000000,0.000000,0.000000,0.000000 HandLeft:-0.163977,0.780622,-0.048095,0.601188 HandRight:0.062549,-0.480526,0.559604,-0.672329 HandTipLeft:0.000000,0.000000,0.000000,0.000000 HandTipRight:0.000000,0.000000,0.000000,0.000000 Head:0.000000,0.000000,0.000000,0.000000 HipLeft:0.085754,-0.687750,0.706730,-0.142052 HipRight:-0.155834,0.666363,0.699111,-0.207173 KneeLeft:0.032408,-0.664907,0.041022,0.745094 KneeRight:-0.022757,0.745841,0.068328,0.662219 Neck:-0.078289,0.002881,0.993062,-0.087701 ShoulderLeft:0.035527,0.774489,-0.630802,0.031532 ShoulderRight:-0.067843,0.770034,0.616031,-0.151495 SpineBase:-0.056940,-0.001117,0.997363,-0.044987 SpineMid:-0.067751,-0.000629,0.996687,-0.044997 SpineShoulder:-0.078589,0.001174,0.994785,-0.065009 ThumbLeft:0.000000,0.000000,0.000000,0.000000 ThumbRight:0.000000,0.000000,0.000000,0.000000 WristLeft:-0.119511,0.792261,-0.103814,0.589289 WristRight:0.031333,-0.501722,0.549740,-0.667143 END:
KINECT_DATA POSITION:19.881048,-0.612652,-8.815039 HEAD_JOINT1:0.985941,0.159844,-0.000000,0.048689 LARM_JOINT2:0.827927,0.000000,-0.045206,-0.559011 LARM_JOINT3:0.961184,0.000000,-0.195438,-0.194757 LLEG_JOINT2:0.998361,-0.000395,0.000000,0.057223 LLEG_JOINT4:0.994340,0.104527,0.000000,-0.019021 RARM_JOINT2:0.810570,0.000000,0.534887,0.238480 RARM_JOINT3:0.935068,0.000000,0.344364,0.084032 RLEG_JOINT2:0.997740,0.035649,0.000000,-0.056958 RLEG_JOINT4:0.995201,0.074560,0.000000,0.063377 WAIST:0.998136,0.000000,0.060835,-0.004919 WAIST_JOINT0:0.996672,-0.000000,0.081513,0.000087 WAIST_JOINT1:0.997345,0.072126,-0.000000,0.010057 END:
KINECT_DATA_Sensor  AnkleLeft:-0.057342,-0.663789,0.093162,0.739877 AnkleRight:0.076135,0.754969,0.079598,0.646444 ElbowLeft:-0.033282,0.884537,-0.193505,-0.423134 ElbowRight:-0.489826,0.863926,0.067523,0.095616 FootLeft:0.000000,0.000000,0.000000,0.000000 FootRight:0.000000,0.000000,0.000000,0.000000 HandLeft:-0.129226,0.860518,-0.006987,0.492708 HandRight:0.082954,-0.523988,0.561654,-0.634902 HandTipLeft:0.000000,0.000000,0.000000,0.000000 HandTipRight:0.000000,0.000000,0.000000,0.000000 Head:0.000000,0.000000,0.000000,0.000000 HipLeft:0.081978,-0.688734,0.706323,-0.141541 HipRight:-0.156852,0.665022,0.699422,-0.209646 KneeLeft:0.034723,-0.662395,0.039139,0.747325 KneeRight:-0.022366,0.748032,0.067957,0.659795 Neck:-0.081744,0.003691,0.992592,-0.089813 ShoulderLeft:0.038373,0.772810,-0.632695,0.031460 ShoulderRight:-0.070327,0.761300,0.625135,-0.157104 SpineBase:-0.060188,-0.000287,0.997086,-0.046879 SpineMid:-0.071104,0.000226,0.996367,-0.046879 SpineShoulder:-0.082053,0.001885,0.994371,-0.067009 ThumbLeft:0.000000,0.000000,0.000000,0.000000 ThumbRight:0.000000,0.000000,0.000000,0.000000 WristLeft:-0.131226,0.863789,-0.084540,0.479064 WristRight:0.074454,-0.535546,0.543505,-0.642067 END:
KINECT_DATA POSITION:19.862804,-0.475338,-8.902073 HEAD_JOINT1:0.986039,0.158754,-0.000000,0.050245 LARM_JOINT2:0.827768,0.000000,-0.048211,-0.558995 LARM_JOINT3:0.960726,0.000000,-0.199092,-0.193307 LLEG_JOINT2:0.998303,-0.002867,0.000000,0.058159 LLEG_JOINT4:0.993907,0.108211,0.000000,-0.020965 RARM_JOINT2:0.772935,0.000000,0.570407,0.277861 RARM_JOINT3:0.950296,0.000000,0.308198,0.044168 RLEG_JOINT2:0.997699,0.036136,0.000000,-0.057368 RLEG_JOINT4:0.995146,0.070128,0.000000,0.069045 WAIST:0.997874,0.000000,0.064919,-0.005765 WAIST_JOINT0:0.995890,0.000000,0.090232,-0.007808 WAIST_JOINT1:0.997212,0.073752,-0.000000,0.011380 END:
KINECT_DATA_Sensor  AnkleLeft:-0.064497,-0.697135,0.089214,0.708438 AnkleRight:0.076565,0.759058,0.073933,0.642264 ElbowLeft:-0.032444,0.884995,-0.193689,-0.422155 ElbowRight:-0.469967,0.872936,-0.021539,0.129031 FootLeft:0.000000,0.000000,0.000000,0.000000 FootRight:0.000000,0.000000,0.000000,0.000000 HandLeft:-0.142046,0.856851,-0.020576,0.495183 HandRight:0.021594,-0.496381,0.575610,-0.649471 HandTipLeft:0.000000,0.000000,0.000000,0.000000 HandTipRight:0.000000,0.000000,0.000000,0.000000 Head:0.000000,0.000000,0.000000,0.000000 HipLeft:0.078375,-0.689585,0.706114,-0.140476 HipRight:-0.158458,0.663650,0.699498,-0.212512 KneeLeft:0.036424,-0.659375,0.037773,0.749981 KneeRight:-0.023212,0.750626,0.069113,0.656692 Neck:-0.090191,0.004063,0.991687,-0.091682 ShoulderLeft:0.040464,0.772304,-0.633256,0.029926 ShoulderRight:-0.080606,0.748838,0.635717,-0.169137 SpineBase:-0.064128,0.000141,0.996766,-0.048427 SpineMid:-0.077277,0.000780,0.995833,-0.048421 SpineShoulder:-0.090510,0.002355,0.993522,-0.068676 ThumbLeft:0.000000,0.000000,0.000000,0.000000 ThumbRight:0.000000,0.000000,0.000000,0.000000 WristLeft:-0.129336,0.861708,-0.084447,0.483322 WristRight:0.043152,-0.487904,0.563266,-0.665446 END:
KINECT_DATA POSITION:19.913315,-0.390202,-8.950937 HEAD_JOINT1:0.986361,0.156561,-0.000000,0.050796 LARM_JOINT2:0.827150,0.000000,-0.049909,-0.559761 LARM_JOINT3:0.962598,0.000000,-0.193506,-0.189634 LLEG_JOINT2:0.998376,-0.003305,0.000000,0.056866 LLEG_JOINT4:0.993842,0.109825,0.000000,-0.014748 RARM_JOINT2:0.792096,0.000000,0.546389,0.272107 RARM_JOINT3:0.924400,0.000000,0.377065,0.057499 RLEG_JOINT2:0.997688,0.036125,0.000000,-0.057556 RLEG_JOINT4:0.995151,0.071044,0.000000,0.068019 WAIST:0.997835,0.000000,0.065560,-0.005185 WAIST_JOINT0:0.996402,0.000000,0.084736,-0.001474 WAIST_JOINT1:0.997118,0.074975,-0.000000,0.011597 END:
KINECT_DATA_Sensor  AnkleLeft:0.066246,0.727361,-0.091357,-0.676913 AnkleRight:0.076287,0.756394,0.075412,0.645260 ElbowLeft:-0.032340,0.885007,-0.193370,-0.422286 ElbowRight:-0.469346,0.870582,0.002833,0.147627 FootLeft:0.000000,0.000000,0.000000,0.000000 FootRight:0.000000,0.000000,0.000000,0.000000 HandLeft:-0.123472,0.815592,-0.029752,0.564517 HandRight:-0.118456,-0.517908,0.614795,-0.582896 HandTipLeft:0.000000,0.000000,0.000000,0.000000 HandTipRight:0.000000,0.000000,0.000000,0.000000 Head:0.000000,0.000000,0.000000,0.000000 HipLeft:0.077110,-0.689156,0.706557,-0.141050 HipRight:-0.157918,0.663743,0.699168,-0.213707 KneeLeft:0.036284,-0.658907,0.036947,0.750440 KneeRight:-0.022995,0.751071,0.068806,0.656223 Neck:-0.085025,0.005004,0.992077,-0.092348 ShoulderLeft:0.045156,0.770964,-0.634581,0.029710 ShoulderRight:-0.068342,0.757248,0.629398,-0.160508 SpineBase:-0.064782,0.000389,0.996656,-0.049799 SpineMid:-0.075084,0.000904,0.995933,-0.049792 SpineShoulder:-0.085409,0.002396,0.993874,-0.070103 ThumbLeft:0.000000,0.000000,0.000000,0.000000 ThumbRight:0.000000,0.000000,0.000000,0.000000 WristLeft:-0.118642,0.819265,-0.095181,0.552874 WristRight:-0.002236,-0.459475,0.581389,-0.671465 END:
KINECT_DATA POSITION:19.944798,-0.292173,-8.973921 HEAD_JOINT1:0.986082,0.158921,-0.000000,0.048845 LARM_JOINT2:0.825251,0.000000,-0.049681,-0.562577 LARM_JOINT3:0.962801,0.000000,-0.195919,-0.186089 LLEG_JOINT2:0.998391,-0.002915,0.000000,0.056621 LLEG_JOINT4:0.993996,0.108164,0.000000,-0.016490 RARM_JOINT2:0.785373,0.000000,0.556859,0.270366 RARM_JOINT3:0.924358,0.000000,0.376527,0.061562 RLEG_JOINT2:0.997740,0.034620,0.000000,-0.057582 RLEG_JOINT4:0.994862,0.075299,0.000000,0.067665 WAIST:0.997883,0.000000,0.064831,-0.005227 WAIST_JOINT0:0.996439,-0.000000,0.084317,0.000655 WAIST_JOINT1:0.997120,0.074886,-0.000000,0.011987 END:
KINECT_DATA_Sensor  AnkleLeft:0.066316,0.728208,-0.089014,-0.676307 AnkleRight:0.077947,0.756003,0.077598,0.645261 ElbowLeft:-0.032743,0.882407,-0.190384,-0.428998 ElbowRight:-0.472122,0.871806,-0.000690,0.130594 FootLeft:0.000000,0.000000,0.000000,0.000000 FootRight:0.000000,0.000000,0.000000,0.000000 HandLeft:-0.129041,0.688126,-0.057034,0.711743 HandRight:-0.014752,-0.501144,0.584858,-0.637635 HandTipLeft:0.000000,0.000000,0.000000,0.000000 HandTipRight:0.000000,0.000000,0.000000,0.000000 Head:0.000000,0.000000,0.000000,0.000000 HipLeft:0.077441,-0.689125,0.706377,-0.141918 HipRight:-0.157521,0.663892,0.699182,-0.213494 KneeLeft:0.035828,-0.659511,0.036964,0.749930 KneeRight:-0.024000,0.750548,0.067735,0.656896 Neck:-0.085048,0.005319,0.992100,-0.092070 ShoulderLeft:0.046433,0.770571,-0.635011,0.028733 ShoulderRight:-0.066850,0.760195,0.626311,-0.159274 SpineBase:-0.064029,0.000741,0.996691,-0.050073 SpineMid:-0.074700,0.001277,0.995948,-0.050062 SpineShoulder:-0.085401,0.002905,0.993874,-0.070086 ThumbLeft:0.000000,0.000000,0.000000,0.000000 ThumbRight:0.000000,0.000000,0.000000,0.000000 WristLeft:-0.094062,0.691783,-0.118742,0.706038 WristRight:-0.007834,-0.495221,0.589097,-0.638482 END:
KINECT_DATA POSITION:19.994585,-0.117388,-8.941591 HEAD_JOINT1:0.985963,0.158851,-0.000000,0.051417 LARM_JOINT2:0.825050,0.000000,-0.052214,-0.562642 LARM_JOINT3:0.963017,0.000000,-0.197152,-0.183656 LLEG_JOINT2:0.998516,-0.001919,0.000000,0.054418 LLEG_JOINT4:0.993993,0.108051,0.000000,-0.017386 RARM_JOINT2:0.773209,0.000000,0.567637,0.282730 RARM_JOINT3:0.922883,0.000000,0.380358,0.060122 RLEG_JOINT2:0.997660,0.035136,0.000000,-0.058645 RLEG_JOINT4:0.994982,0.075123,0.000000,0.066079 WAIST:0.998077,0.000000,0.061864,-0.003848 WAIST_JOINT0:0.996401,-0.000000,0.084729,0.002315 WAIST_JOINT1:0.997058,0.076084,-0.000000,0.009333 END:
KINECT_DATA_Sensor  AnkleLeft:-0.058849,-0.661776,0.094379,0.741406 AnkleRight:0.077660,0.756286,0.078158,0.644897 ElbowLeft:-0.033621,0.884253,-0.188458,-0.425970 ElbowRight:-0.464621,0.876597,-0.014472,0.124486 FootLeft:0.000000,0.000000,0.000000,0.000000 FootRight:0.000000,0.000000,0.000000,0.000000 HandLeft:-0.136726,0.682392,-0.063782,0.715248 HandRight:-0.091322,-0.431740,0.603257,-0.664336 HandTipLeft:0.000000,0.000000,0.000000,0.000000 HandTipRight:0.000000,0.000000,0.000000,0.000000 Head:0.000000,0.000000,0.000000,0.000000 HipLeft:0.079656,-0.687787,0.706987,-0.144130 HipRight:-0.155540,0.665017,0.698722,-0.212950 KneeLeft:0.034722,-0.661652,0.036821,0.748101 KneeRight:-0.023282,0.748706,0.067915,0.659003 Neck:-0.085303,0.003928,0.991962,-0.093383 ShoulderLeft:0.050038,0.769697,-0.635858,0.027350 ShoulderRight:-0.063324,0.761016,0.626002,-0.158006 SpineBase:-0.061226,0.000236,0.996842,-0.050572 SpineMid:-0.073390,0.000853,0.996020,-0.050566 SpineShoulder:-0.085615,0.002210,0.993792,-0.071016 ThumbLeft:0.000000,0.000000,0.000000,0.000000 ThumbRight:0.000000,0.000000,0.000000,0.000000 WristLeft:-0.092664,0.686757,-0.118166,0.711206 WristRight:-0.080987,-0.435057,0.584652,-0.679962 END:
KINECT_DATA POSITION:20.060369,0.017495,-8.919859 HEAD_JOINT1:0.985470,0.163329,-0.000000,0.046621 LARM_JOINT2:0.823536,0.000000,-0.053665,-0.564720 LARM_JOINT3:0.964618,0.000000,-0.193783,-0.178775 LLEG_JOINT2:0.998509,-0.001352,0.000000,0.054575 LLEG_JOINT4:0.994057,0.107390,0.000000,-0.017856 RARM_JOINT2:0.769234,0.000000,0.570524,0.287718 RARM_JOINT3:0.927435,0.000000,0.369872,0.055304 RLEG_JOINT2:0.997644,0.035688,0.000000,-0.058589 RLEG_JOINT4:0.994807,0.075351,0.000000,0.068422 WAIST:0.998062,0.000000,0.062052,-0.004629 WAIST_JOINT0:0.996353,-0.000000,0.085287,0.002609 WAIST_JOINT1:0.997064,0.075827,-0.000000,0.010623 END:
KINECT_DATA_Sensor  AnkleLeft:0.066165,0.713755,-0.088956,-0.691566 AnkleRight:0.079401,0.756263,0.077652,0.644773 ElbowLeft:-0.033729,0.885361,-0.186112,-0.424688 ElbowRight:-0.461550,0.877639,-0.022821,0.127279 FootLeft:0.000000,0.000000,0.000000,0.000000 FootRight:0.000000,0.000000,0.000000,0.000000 HandLeft:-0.130776,0.774244,-0.051768,0.617061 HandRight:-0.053466,-0.438720,0.596039,-0.670376 HandTipLeft:0.000000,0.000000,0.000000,0.000000 HandTipRight:0.000000,0.000000,0.000000,0.000000 Head:0.000000,0.000000,0.000000,0.000000 HipLeft:0.079490,-0.688411,0.706279,-0.144709 HipRight:-0.155834,0.664618,0.698949,-0.213232 KneeLeft:0.033837,-0.661643,0.036774,0.748152 KneeRight:-0.023436,0.748763,0.068839,0.658837 Neck:-0.085986,0.004383,0.991930,-0.093074 ShoulderLeft:0.051691,0.769330,-0.636236,0.025731 ShoulderRight:-0.062518,0.761323,0.625861,-0.157407 SpineBase:-0.061313,0.000566,0.996822,-0.050865 SpineMid:-0.073765,0.001202,0.995978,-0.050854 SpineShoulder:-0.086274,0.002787,0.993744,-0.070862 ThumbLeft:0.000000,0.000000,0.000000,0.000000 ThumbRight:0.000000,0.000000,0.000000,0.000000 WristLeft:-0.108506,0.780160,-0.102571,0.607500 WristRight:-0.066019,-0.450431,0.587267,-0.669232 END:
KINECT_DATA POSITION:20.061638,0.016098,-8.851385 HEAD_JOINT1:0.984869,0.167338,-0.000000,0.045068 LARM_JOINT2:0.824831,0.000000,-0.050024,-0.563163 LARM_JOINT3:0.962603,0.000000,-0.203121,-0.179268 LLEG_JOINT2:0.998484,-0.000399,0.000000,0.055048 LLEG_JOINT4:0.994243,0.105558,0.000000,-0.018371 RARM_JOINT2:0.801104,0.000000,0.535501,0.267342 RARM_JOINT3:0.893356,0.000000,0.442888,0.075936 RLEG_JOINT2:0.997691,0.035794,0.000000,-0.057711 RLEG_JOINT4:0.995078,0.073599,0.000000,0.066361 WAIST:0.998173,0.000000,0.060226,-0.004858 WAIST_JOINT0:0.996668,-0.000000,0.081509,0.002917 WAIST_JOINT1:0.997105,0.075333,-0.000000,0.010372 END:
KINECT_DATA_Sensor  AnkleLeft:-0.058927,-0.663579,0.092825,0.739982 AnkleRight:0.077309,0.754669,0.077372,0.646924 ElbowLeft:-0.032650,0.885082,-0.188467,-0.424316 ElbowRight:-0.470219,0.871239,0.030528,0.137491 FootLeft:0.000000,0.000000,0.000000,0.000000 FootRight:0.000000,0.000000,0.000000,0.000000 HandLeft:-0.171449,0.842899,-0.049997,0.507570 HandRight:-0.076944,-0.472502,0.624450,-0.617158 HandTipLeft:0.000000,0.000000,0.000000,0.000000 HandTipRight:0.000000,0.000000,0.000000,0.000000 Head:0.000000,0.000000,0.000000,0.000000 HipLeft:0.081215,-0.688574,0.705749,-0.145561 HipRight:-0.155183,0.664986,0.699085,-0.212115 KneeLeft:0.033347,-0.663012,0.037530,0.746923 KneeRight:-0.022752,0.747572,0.068533,0.660244 Neck:-0.082397,0.003690,0.992302,-0.092378 ShoulderLeft:0.047572,0.769192,-0.636564,0.029445 ShoulderRight:-0.061882,0.762068,0.625520,-0.155396 SpineBase:-0.059496,0.000273,0.996961,-0.050289 SpineMid:-0.071054,0.000856,0.996204,-0.050283 SpineShoulder:-0.082653,0.002403,0.994085,-0.070414 ThumbLeft:0.000000,0.000000,0.000000,0.000000 ThumbRight:0.000000,0.000000,0.000000,0.000000 WristLeft:-0.116528,0.853822,-0.088234,0.499624 WristRight:-0.060400,-0.478001,0.597073,-0.641383 END:
KINECT_DATA POSITION:20.023153,-0.098093,-8.763957 HEAD_JOINT1:0.984550,0.168431,-0.000000,0.047869 LARM_JOINT2:0.827075,0.000000,-0.053865,-0.559504 LARM_JOINT3:0.959016,0.000000,-0.210958,-0.189167 LLEG_JOINT2:0.998389,-0.001104,0.000000,0.056734 LLEG_JOINT4:0.994182,0.106193,0.000000,-0.018039 RARM_JOINT2:0.808208,0.000000,0.517511,0.281036 RARM_JOINT3:0.885981,0.000000,0.459112,0.065226 RLEG_JOINT2:0.997864,0.034327,0.000000,-0.055588 RLEG_JOINT4:0.994941,0.075540,0.000000,0.066234 WAIST:0.998265,0.000000,0.058582,-0.005896 WAIST_JOINT0:0.997243,-0.000000,0.074189,0.001513 WAIST_JOINT1:0.997167,0.074465,-0.000000,0.010665 END:
KINECT_DATA_Sensor  AnkleLeft:-0.058536,-0.667991,0.093387,0.735962 AnkleRight:0.078174,0.750736,0.077310,0.651389 ElbowLeft:-0.036596,0.888651,-0.190290,-0.415631 ElbowRight:-0.459270,0.868971,0.025097,0.182568 FootLeft:0.000000,0.000000,0.000000,0.000000 FootRight:0.000000,0.000000,0.000000,0.000000 HandLeft:-0.202190,0.838251,-0.041816,0.504684 HandRight:-0.109382,-0.452617,0.608487,-0.642586 HandTipLeft:0.000000,0.000000,0.000000,0.000000 HandTipRight:0.000000,0.000000,0.000000,0.000000 Head:0.000000,0.000000,0.000000,0.000000 HipLeft:0.082605,-0.689395,0.704881,-0.145099 HipRight:-0.154432,0.664922,0.699913,-0.210123 KneeLeft:0.034331,-0.664184,0.037528,0.745837 KneeRight:-0.022780,0.746446,0.066787,0.661694 Neck:-0.075060,0.002311,0.992995,-0.091223 ShoulderLeft:0.038945,0.770757,-0.634875,0.036740 ShoulderRight:-0.060727,0.762728,0.625768,-0.151569 SpineBase:-0.057822,-0.000570,0.997122,-0.049028 SpineMid:-0.066559,-0.000141,0.996577,-0.049031 SpineShoulder:-0.075268,0.001507,0.994725,-0.069680 ThumbLeft:0.000000,0.000000,0.000000,0.000000 ThumbRight:0.000000,0.000000,0.000000,0.000000 WristLeft:-0.124748,0.855569,-0.086604,0.494913 WristRight:-0.079778,-0.431949,0.613219,-0.656519 END:
KINECT_DATA POSITION:20.040617,-0.081301,-8.677459 HEAD_JOINT1:0.984865,0.166266,-0.000000,0.048949 LARM_JOINT2:0.831594,0.000000,-0.046054,-0.553471 LARM_JOINT3:0.962292,0.000000,-0.195168,-0.189481 LLEG_JOINT2:0.998473,-0.000491,0.000000,0.055245 LLEG_JOINT4:0.993837,0.109138,0.000000,-0.019435 RARM_JOINT2:0.784215,0.000000,0.563874,0.258947 RARM_JOINT3:0.915155,0.000000,0.394892,0.080940 RLEG_JOINT2:0.997799,0.034967,0.000000,-0.056340 RLEG_JOINT4:0.995096,0.074074,0.000000,0.065558 WAIST:0.998402,0.000000,0.056305,-0.004794 WAIST_JOINT0:0.997593,-0.000000,0.069339,0.000334 WAIST_JOINT1:0.997178,0.074472,-0.000000,0.009533 END:
KINECT_DATA_Sensor  AnkleLeft:-0.062244,-0.670244,0.094361,0.733482 AnkleRight:0.077363,0.748314,0.076841,0.654321 ElbowLeft:-0.034452,0.886891,-0.199530,-0.415240 ElbowRight:-0.481426,0.870446,0.020875,0.100583 FootLeft:0.000000,0.000000,0.000000,0.000000 FootRight:0.000000,0.000000,0.000000,0.000000 HandLeft:-0.116030,0.733028,-0.051214,0.668269 HandRight:-0.070536,-0.468006,0.601419,-0.643654 HandTipLeft:0.000000,0.000000,0.000000,0.000000 HandTipRight:0.000000,0.000000,0.000000,0.000000 Head:0.000000,0.000000,0.000000,0.000000 HipLeft:0.083986,-0.688225,0.705561,-0.146546 HipRight:-0.153037,0.665779,0.699648,-0.209310 KneeLeft:0.033758,-0.665841,0.037513,0.744385 KneeRight:-0.021987,0.745022,0.067031,0.663299 Neck:-0.069492,0.002260,0.993399,-0.091234 ShoulderLeft:0.032134,0.773394,-0.631687,0.042433 ShoulderRight:-0.060103,0.763632,0.625283,-0.149249 SpineBase:-0.055649,-0.000421,0.997233,-0.049283 SpineMid:-0.062690,-0.000073,0.996815,-0.049285 SpineShoulder:-0.069698,0.001370,0.995137,-0.069591 ThumbLeft:0.000000,0.000000,0.000000,0.000000 ThumbRight:0.000000,0.000000,0.000000,0.000000 WristLeft:-0.101811,0.738631,-0.111646,0.656958 WristRight:-0.055249,-0.470917,0.578325,-0.663871 END:
KINECT_DATA POSITION:20.048164,-0.016484,-8.614504 HEAD_JOINT1:0.984654,0.168373,-0.000000,0.045899 LARM_JOINT2:0.832715,0.000000,-0.041713,-0.552129 LARM_JOINT3:0.959439,0.000000,-0.198073,-0.200610 LLEG_JOINT2:0.998515,0.000651,0.000000,0.054470 LLEG_JOINT4:0.993992,0.107945,0.000000,-0.018125 RARM_JOINT2:0.766979,0.000000,0.588608,0.255505 RARM_JOINT3:0.925836,0.000000,0.368262,0.084912 RLEG_JOINT2:0.997746,0.035657,0.000000,-0.056839 RLEG_JOINT4:0.995184,0.075328,0.000000,0.062733 WAIST:0.998476,0.000000,0.055006,-0.004468 WAIST_JOINT0:0.997501,0.000000,0.070652,-0.000652 WAIST_JOINT1:0.997148,0.074945,-0.000000,0.008909 END:
KINECT_DATA_Sensor  AnkleLeft:-0.061288,-0.669672,0.095179,0.733979 AnkleRight:0.076800,0.749199,0.079962,0.652999 ElbowLeft:-0.030835,0.888336,-0.202490,-0.410982 ElbowRight:-0.487569,0.870313,0.007457,0.069116 FootLeft:0.000000,0.000000,0.000000,0.000000 FootRight:0.000000,0.000000,0.000000,0.000000 HandLeft:-0.141803,0.716572,-0.038790,0.681844 HandRight:0.015267,-0.520286,0.595292,-0.612125 HandTipLeft:0.000000,0.000000,0.000000,0.000000 HandTipRight:0.000000,0.000000,0.000000,0.000000 Head:0.000000,0.000000,0.000000,0.000000 HipLeft:0.084395,-0.687848,0.705686,-0.147479 HipRight:-0.151759,0.666129,0.699694,-0.208976 KneeLeft:0.032673,-0.666829,0.037878,0.743530 KneeRight:-0.021580,0.744186,0.067674,0.664185 Neck:-0.070347,0.002272,0.993293,-0.091730 ShoulderLeft:0.031790,0.775258,-0.629423,0.042326 ShoulderRight:-0.061515,0.763574,0.624823,-0.150885 SpineBase:-0.054386,-0.000593,0.997276,-0.049822 SpineMid:-0.062483,-0.000188,0.996802,-0.049825 SpineShoulder:-0.070568,0.001288,0.995047,-0.070003 ThumbLeft:0.000000,0.000000,0.000000,0.000000 ThumbRight:0.000000,0.000000,0.000000,0.000000 WristLeft:-0.099003,0.730058,-0.109362,0.667273 WristRight:-0.011486,-0.543601,0.577217,-0.609251 END:
KINECT_DATA POSITION:20.038404,0.061976,-8.598709 HEAD_JOINT1:0.984659,0.168895,-0.000000,0.043828 LARM_JOINT2:0.833864,0.000000,-0.039586,-0.550549 LARM_JOINT3:0.960469,0.000000,-0.194860,-0.198817 LLEG_JOINT2:0.998404,0.001798,0.000000,0.056440 LLEG_JOINT4:0.993878,0.108928,0.000000,-0.018456 RARM_JOINT2:0.762511,0.000000,0.587165,0.271687 RARM_JOINT3:0.931869,0.000000,0.352631,0.085274 RLEG_JOINT2:0.997839,0.035417,0.000000,-0.055347 RLEG_JOINT4:0.994874,0.076662,0.000000,0.065940 WAIST:0.998547,0.000000,0.053512,-0.006317 WAIST_JOINT0:0.996286,0.000000,0.085437,-0.010684 WAIST_JOINT1:0.997059,0.075957,-0.000000,0.010199 END:
KINECT_DATA_Sensor  AnkleLeft:-0.061716,-0.661171,0.097362,0.741326 AnkleRight:0.077307,0.727056,0.081198,0.677363 ElbowLeft:-0.028222,0.890352,-0.204854,-0.405601 ElbowRight:-0.475923,0.876584,0.001846,0.071374 FootLeft:0.000000,0.000000,0.000000,0.000000 FootRight:0.000000,0.000000,0.000000,0.000000 HandLeft:-0.117776,0.711928,-0.046071,0.690771 HandRight:0.017946,-0.530578,0.584377,-0.613733 HandTipLeft:0.000000,0.000000,0.000000,0.000000 HandTipRight:0.000000,0.000000,0.000000,0.000000 Head:0.000000,0.000000,0.000000,0.000000 HipLeft:0.085100,-0.688505,0.704626,-0.149070 HipRight:-0.150830,0.664787,0.701310,-0.208501 KneeLeft:0.031885,-0.668089,0.038758,0.742387 KneeRight:-0.021846,0.743060,0.067828,0.665420 Neck:-0.084138,0.003212,0.992096,-0.093041 ShoulderLeft:0.032633,0.777200,-0.627230,0.038433 ShoulderRight:-0.080148,0.749360,0.635039,-0.169590 SpineBase:-0.052723,-0.001019,0.997331,-0.050491 SpineMid:-0.068508,-0.000219,0.996372,-0.050501 SpineShoulder:-0.084411,0.001924,0.993898,-0.070979 ThumbLeft:0.000000,0.000000,0.000000,0.000000 ThumbRight:0.000000,0.000000,0.000000,0.000000 WristLeft:-0.096997,0.719363,-0.107459,0.679383 WristRight:0.000926,-0.547958,0.566769,-0.615235 END:
