EastLYD/RoboCupatHomeSim/InteractiveCleanUp/JapanOpen2016/Motion_Data/File47.dat
KINECT_DATA POSITION:16.383175,-1.014688,-14.237225 HEAD_JOINT1:0.983511,0.145523,-0.000000,0.107371 LARM_JOINT2:0.842278,0.000000,-0.030864,-0.538159 LARM_JOINT3:0.967482,0.000000,-0.175545,-0.182106 LLEG_JOINT2:0.999038,0.009055,0.000000,0.042909 LLEG_JOINT4:0.994644,0.094465,0.000000,-0.041953 RARM_JOINT2:0.789383,0.000000,-0.015020,0.613717 RARM_JOINT3:0.976066,0.000000,0.191647,0.102794 RLEG_JOINT2:0.999171,0.011297,0.000000,-0.039099 RLEG_JOINT4:0.996046,0.079098,0.000000,0.040453 WAIST:0.999724,0.000000,-0.023461,0.000989 WAIST_JOINT0:0.998652,0.000000,-0.051765,0.003692 WAIST_JOINT1:0.995962,0.087752,0.000000,-0.018972 END:
KINECT_DATA_Sensor  AnkleLeft:0.069760,0.713282,-0.076341,-0.693206 AnkleRight:0.069644,0.716213,0.057549,0.692009 ElbowLeft:-0.022238,0.923933,-0.203612,-0.323104 ElbowRight:0.007641,0.811654,0.172468,0.558045 FootLeft:0.000000,0.000000,0.000000,0.000000 FootRight:0.000000,0.000000,0.000000,0.000000 HandLeft:-0.104145,0.822452,-0.018198,0.558923 HandRight:0.054997,-0.449995,-0.060331,0.889292 HandTipLeft:0.000000,0.000000,0.000000,0.000000 HandTipRight:0.000000,0.000000,0.000000,0.000000 Head:0.000000,0.000000,0.000000,0.000000 HipLeft:0.124161,-0.672618,0.703685,-0.192345 HipRight:-0.092301,0.677329,0.707735,-0.178373 KneeLeft:-0.025547,0.721756,-0.036833,-0.690695 KneeRight:-0.018041,0.691384,0.035428,0.721393 Neck:0.050328,-0.019795,0.993103,-0.104024 ShoulderLeft:-0.010930,0.788118,-0.603551,0.120322 ShoulderRight:0.054944,0.794153,0.604025,-0.038167 SpineBase:0.022267,-0.014648,0.997648,-0.063143 SpineMid:0.036066,-0.015520,0.997245,-0.062935 SpineShoulder:0.050280,-0.017830,0.995168,-0.082435 ThumbLeft:0.000000,0.000000,0.000000,0.000000 ThumbRight:0.000000,0.000000,0.000000,0.000000 WristLeft:-0.084785,0.826449,-0.061369,0.553198 WristRight:-0.007695,-0.449877,-0.111604,0.886056 END:
KINECT_DATA POSITION:16.388750,-0.997103,-14.161706 HEAD_JOINT1:0.983589,0.144778,-0.000000,0.107663 LARM_JOINT2:0.843440,0.000000,-0.036087,-0.536009 LARM_JOINT3:0.967475,0.000000,-0.173373,-0.184211 LLEG_JOINT2:0.999030,0.009408,0.000000,0.043008 LLEG_JOINT4:0.994605,0.094678,0.000000,-0.042390 RARM_JOINT2:0.790234,0.000000,-0.021452,0.612430 RARM_JOINT3:0.973512,0.000000,0.201752,0.107566 RLEG_JOINT2:0.999189,0.010512,0.000000,-0.038862 RLEG_JOINT4:0.995932,0.079366,0.000000,0.042660 WAIST:0.999703,0.000000,-0.024359,0.000915 WAIST_JOINT0:0.998721,0.000000,-0.050344,0.004584 WAIST_JOINT1:0.995967,0.087605,0.000000,-0.019343 END:
KINECT_DATA_Sensor  AnkleLeft:0.069299,0.704068,-0.077509,-0.702480 AnkleRight:0.070329,0.708887,0.056042,0.699566 ElbowLeft:-0.025488,0.927260,-0.203561,-0.313211 ElbowRight:0.011148,0.810979,0.176638,0.557663 FootLeft:0.000000,0.000000,0.000000,0.000000 FootRight:0.000000,0.000000,0.000000,0.000000 HandLeft:-0.100697,0.801703,-0.022281,0.588758 HandRight:0.059502,-0.428278,-0.079669,0.898159 HandTipLeft:0.000000,0.000000,0.000000,0.000000 HandTipRight:0.000000,0.000000,0.000000,0.000000 Head:0.000000,0.000000,0.000000,0.000000 HipLeft:0.125016,-0.672603,0.703473,-0.192617 HipRight:-0.091993,0.677445,0.707819,-0.177756 KneeLeft:-0.025355,0.722386,-0.037084,-0.690029 KneeRight:-0.018466,0.690746,0.034785,0.722024 Neck:0.048857,-0.019952,0.993172,-0.104041 ShoulderLeft:-0.014340,0.787767,-0.603591,0.122044 ShoulderRight:0.049769,0.795261,0.602758,-0.042020 SpineBase:0.023162,-0.014861,0.997646,-0.062803 SpineMid:0.035783,-0.015655,0.997273,-0.062610 SpineShoulder:0.048800,-0.017985,0.995249,-0.082313 ThumbLeft:0.000000,0.000000,0.000000,0.000000 ThumbRight:0.000000,0.000000,0.000000,0.000000 WristLeft:-0.085425,0.805180,-0.063233,0.583429 WristRight:-0.007206,-0.430238,-0.113106,0.895573 END:
KINECT_DATA POSITION:16.400799,-0.990444,-14.107286 HEAD_JOINT1:0.983675,0.144319,-0.000000,0.107498 LARM_JOINT2:0.843781,0.000000,-0.037995,-0.535341 LARM_JOINT3:0.967360,0.000000,-0.172063,-0.186033 LLEG_JOINT2:0.999004,0.010233,0.000000,0.043430 LLEG_JOINT4:0.994432,0.095923,0.000000,-0.043635 RARM_JOINT2:0.789970,0.000000,-0.019578,0.612833 RARM_JOINT3:0.973662,0.000000,0.201284,0.107084 RLEG_JOINT2:0.999187,0.010947,0.000000,-0.038801 RLEG_JOINT4:0.995941,0.079749,0.000000,0.041722 WAIST:0.999683,0.000000,-0.025146,0.000799 WAIST_JOINT0:0.998641,0.000000,-0.051955,0.004027 WAIST_JOINT1:0.995977,0.087426,0.000000,-0.019644 END:
KINECT_DATA_Sensor  AnkleLeft:0.071813,0.708741,-0.077994,-0.697457 AnkleRight:0.070897,0.715307,0.056555,0.692901 ElbowLeft:-0.026777,0.928586,-0.203129,-0.309433 ElbowRight:0.010281,0.811905,0.175706,0.556626 FootLeft:0.000000,0.000000,0.000000,0.000000 FootRight:0.000000,0.000000,0.000000,0.000000 HandLeft:-0.100216,0.829027,-0.011804,0.550029 HandRight:0.053396,-0.418644,-0.080830,0.902969 HandTipLeft:0.000000,0.000000,0.000000,0.000000 HandTipRight:0.000000,0.000000,0.000000,0.000000 Head:0.000000,0.000000,0.000000,0.000000 HipLeft:0.125815,-0.672621,0.703201,-0.193027 HipRight:-0.091754,0.677522,0.707875,-0.177365 KneeLeft:-0.025038,0.722957,-0.037873,-0.689400 KneeRight:-0.018163,0.690177,0.035138,0.722559 Neck:0.050465,-0.020431,0.993099,-0.103872 ShoulderLeft:-0.015444,0.787774,-0.603340,0.123105 ShoulderRight:0.050744,0.794881,0.603276,-0.040592 SpineBase:0.023951,-0.015055,0.997638,-0.062598 SpineMid:0.036984,-0.015872,0.997240,-0.062396 SpineShoulder:0.050411,-0.018384,0.995176,-0.082126 ThumbLeft:0.000000,0.000000,0.000000,0.000000 ThumbRight:0.000000,0.000000,0.000000,0.000000 WristLeft:-0.090051,0.832163,-0.058183,0.544068 WristRight:-0.006932,-0.420507,-0.114082,0.900062 END:
KINECT_DATA POSITION:16.417252,-0.982646,-14.054608 HEAD_JOINT1:0.983835,0.143147,-0.000000,0.107598 LARM_JOINT2:0.843651,0.000000,-0.037449,-0.535585 LARM_JOINT3:0.968335,0.000000,-0.164564,-0.187741 LLEG_JOINT2:0.998981,0.009532,0.000000,0.044125 LLEG_JOINT4:0.994332,0.096565,0.000000,-0.044496 RARM_JOINT2:0.788844,0.000000,-0.019113,0.614296 RARM_JOINT3:0.975133,0.000000,0.193224,0.108537 RLEG_JOINT2:0.999183,0.011630,0.000000,-0.038717 RLEG_JOINT4:0.996026,0.079112,0.000000,0.040916 WAIST:0.999666,0.000000,-0.025829,0.000636 WAIST_JOINT0:0.998560,0.000000,-0.053522,0.003542 WAIST_JOINT1:0.995945,0.087715,0.000000,-0.019980 END:
KINECT_DATA_Sensor  AnkleLeft:0.072472,0.713734,-0.077297,-0.692356 AnkleRight:0.071026,0.722641,0.056402,0.685247 ElbowLeft:-0.026355,0.928268,-0.202665,-0.310726 ElbowRight:0.011560,0.813309,0.174501,0.554927 FootLeft:0.000000,0.000000,0.000000,0.000000 FootRight:0.000000,0.000000,0.000000,0.000000 HandLeft:-0.073243,0.830615,0.008550,0.551943 HandRight:0.037525,-0.313537,-0.053896,0.947302 HandTipLeft:0.000000,0.000000,0.000000,0.000000 HandTipRight:0.000000,0.000000,0.000000,0.000000 Head:0.000000,0.000000,0.000000,0.000000 HipLeft:0.126236,-0.672583,0.703043,-0.193459 HipRight:-0.091212,0.677415,0.708085,-0.177214 KneeLeft:-0.025937,0.723361,-0.037707,-0.688951 KneeRight:-0.017698,0.689698,0.035675,0.723001 Neck:0.051954,-0.020938,0.992977,-0.104208 ShoulderLeft:-0.015140,0.787832,-0.603159,0.123654 ShoulderRight:0.052964,0.794602,0.603571,-0.038779 SpineBase:0.024624,-0.015422,0.997605,-0.062774 SpineMid:0.038058,-0.016266,0.997183,-0.062561 SpineShoulder:0.051894,-0.018895,0.995069,-0.082391 ThumbLeft:0.000000,0.000000,0.000000,0.000000 ThumbRight:0.000000,0.000000,0.000000,0.000000 WristLeft:-0.090355,0.831838,-0.057978,0.544536 WristRight:-0.018544,-0.313091,-0.110856,0.943049 END:
KINECT_DATA POSITION:16.423149,-0.980381,-14.019251 HEAD_JOINT1:0.983851,0.143444,-0.000000,0.107057 LARM_JOINT2:0.843410,0.000000,-0.036623,-0.536021 LARM_JOINT3:0.968159,0.000000,-0.164266,-0.188903 LLEG_JOINT2:0.998975,0.009672,0.000000,0.044210 LLEG_JOINT4:0.994446,0.095915,0.000000,-0.043338 RARM_JOINT2:0.787918,0.000000,-0.018738,0.615495 RARM_JOINT3:0.974256,0.000000,0.197782,0.108202 RLEG_JOINT2:0.999166,0.011509,0.000000,-0.039167 RLEG_JOINT4:0.996015,0.078780,0.000000,0.041798 WAIST:0.999660,0.000000,-0.026048,0.000784 WAIST_JOINT0:0.998537,0.000000,-0.053963,0.003309 WAIST_JOINT1:0.995950,0.087600,0.000000,-0.020249 END:
KINECT_DATA_Sensor  AnkleLeft:0.072473,0.726195,-0.076615,-0.679352 AnkleRight:0.070406,0.714304,0.056495,0.693990 ElbowLeft:-0.025862,0.927992,-0.202352,-0.311795 ElbowRight:0.011918,0.813140,0.173126,0.555597 FootLeft:0.000000,0.000000,0.000000,0.000000 FootRight:0.000000,0.000000,0.000000,0.000000 HandLeft:-0.072204,0.850039,0.017033,0.521470 HandRight:0.050122,-0.419596,-0.066705,0.903868 HandTipLeft:0.000000,0.000000,0.000000,0.000000 HandTipRight:0.000000,0.000000,0.000000,0.000000 Head:0.000000,0.000000,0.000000,0.000000 HipLeft:0.126491,-0.672494,0.703084,-0.193453 HipRight:-0.091154,0.677564,0.707989,-0.177059 KneeLeft:-0.026016,0.723498,-0.037967,-0.688790 KneeRight:-0.017981,0.689550,0.035818,0.723128 Neck:0.052351,-0.021082,0.992968,-0.104069 ShoulderLeft:-0.014762,0.787818,-0.603237,0.123411 ShoulderRight:0.053845,0.794427,0.603778,-0.037917 SpineBase:0.024822,-0.015488,0.997608,-0.062636 SpineMid:0.038357,-0.016337,0.997179,-0.062420 SpineShoulder:0.052292,-0.019005,0.995054,-0.082291 ThumbLeft:0.000000,0.000000,0.000000,0.000000 ThumbRight:0.000000,0.000000,0.000000,0.000000 WristLeft:-0.092660,0.851190,-0.054304,0.513752 WristRight:-0.003750,-0.420225,-0.112768,0.900378 END:
KINECT_DATA POSITION:16.412371,-0.999100,-13.910770 HEAD_JOINT1:0.984605,0.140093,-0.000000,0.104529 LARM_JOINT2:0.842760,0.000000,-0.033819,-0.537227 LARM_JOINT3:0.966954,0.000000,-0.170283,-0.189744 LLEG_JOINT2:0.998949,0.010615,0.000000,0.044588 LLEG_JOINT4:0.994346,0.096660,0.000000,-0.043968 RARM_JOINT2:0.785955,0.000000,-0.012618,0.618155 RARM_JOINT3:0.958472,0.000000,0.256759,0.124122 RLEG_JOINT2:0.999180,0.011047,0.000000,-0.038946 RLEG_JOINT4:0.995898,0.080435,0.000000,0.041444 WAIST:0.999650,0.000000,-0.026440,0.000148 WAIST_JOINT0:0.998717,0.000000,-0.050520,0.003375 WAIST_JOINT1:0.996098,0.085708,0.000000,-0.021023 END:
KINECT_DATA_Sensor  AnkleLeft:0.073327,0.718258,-0.078085,-0.687482 AnkleRight:0.071554,0.722772,0.056896,0.685014 ElbowLeft:-0.026485,0.925129,-0.199956,-0.321639 ElbowRight:0.008856,0.818841,0.168020,0.548808 FootLeft:0.000000,0.000000,0.000000,0.000000 FootRight:0.000000,0.000000,0.000000,0.000000 HandLeft:-0.090244,0.807388,0.016720,0.582838 HandRight:0.100310,-0.375079,-0.189275,0.901903 HandTipLeft:0.000000,0.000000,0.000000,0.000000 HandTipRight:0.000000,0.000000,0.000000,0.000000 Head:0.000000,0.000000,0.000000,0.000000 HipLeft:0.127964,-0.673148,0.702412,-0.192650 HipRight:-0.091934,0.677397,0.708311,-0.176002 KneeLeft:-0.025202,0.723866,-0.038457,-0.688406 KneeRight:-0.018602,0.689211,0.035796,0.723437 Neck:0.048921,-0.022438,0.993372,-0.101562 ShoulderLeft:-0.011535,0.788523,-0.603432,0.118189 ShoulderRight:0.052714,0.794271,0.604075,-0.038057 SpineBase:0.025282,-0.016168,0.997685,-0.061029 SpineMid:0.036916,-0.016878,0.997322,-0.060837 SpineShoulder:0.048881,-0.019943,0.995340,-0.080694 ThumbLeft:0.000000,0.000000,0.000000,0.000000 ThumbRight:0.000000,0.000000,0.000000,0.000000 WristLeft:-0.092507,0.812492,-0.062544,0.572178 WristRight:0.034332,-0.388054,-0.146179,0.909322 END:
KINECT_DATA POSITION:16.462427,-1.037183,-13.751375 HEAD_JOINT1:0.985175,0.136578,-0.000000,0.103810 LARM_JOINT2:0.840754,0.000000,-0.028782,-0.540652 LARM_JOINT3:0.966331,0.000000,-0.170668,-0.192554 LLEG_JOINT2:0.998984,0.011660,0.000000,0.043536 LLEG_JOINT4:0.994605,0.094852,0.000000,-0.041988 RARM_JOINT2:0.785285,0.000000,-0.001080,0.619134 RARM_JOINT3:0.955727,0.000000,0.265978,0.125867 RLEG_JOINT2:0.999188,0.010720,0.000000,-0.038843 RLEG_JOINT4:0.995631,0.084276,0.000000,0.040199 WAIST:0.999675,0.000000,-0.025495,-0.000073 WAIST_JOINT0:0.998910,0.000000,-0.046529,0.003714 WAIST_JOINT1:0.996378,0.082206,0.000000,-0.021768 END:
KINECT_DATA_Sensor  AnkleLeft:0.073770,0.730305,-0.076617,-0.674791 AnkleRight:0.073042,0.720175,0.060572,0.687273 ElbowLeft:-0.025177,0.922540,-0.196010,-0.331461 ElbowRight:-0.001204,0.822746,0.161414,0.545008 FootLeft:0.000000,0.000000,0.000000,0.000000 FootRight:0.000000,0.000000,0.000000,0.000000 HandLeft:-0.088318,0.833949,0.038041,0.543399 HandRight:0.098817,-0.392172,-0.187990,0.895040 HandTipLeft:0.000000,0.000000,0.000000,0.000000 HandTipRight:0.000000,0.000000,0.000000,0.000000 Head:0.000000,0.000000,0.000000,0.000000 HipLeft:0.129029,-0.673903,0.702095,-0.190444 HipRight:-0.094090,0.677543,0.708183,-0.174812 KneeLeft:-0.023520,0.723377,-0.038363,-0.688986 KneeRight:-0.018963,0.689809,0.035634,0.722865 Neck:0.045160,-0.023082,0.993956,-0.097362 ShoulderLeft:-0.010498,0.789394,-0.603403,0.112482 ShoulderRight:0.048847,0.794336,0.604292,-0.038420 SpineBase:0.024415,-0.016314,0.997860,-0.058416 SpineMid:0.034627,-0.016911,0.997558,-0.058246 SpineShoulder:0.045070,-0.020817,0.995758,-0.077473 ThumbLeft:0.000000,0.000000,0.000000,0.000000 ThumbRight:0.000000,0.000000,0.000000,0.000000 WristLeft:-0.100505,0.839592,-0.056832,0.530806 WristRight:0.055986,-0.400675,-0.165112,0.899480 END:
KINECT_DATA POSITION:16.535032,-1.098401,-13.586176 HEAD_JOINT1:0.985783,0.134214,-0.000000,0.101090 LARM_JOINT2:0.839382,0.000000,-0.027751,-0.542834 LARM_JOINT3:0.967157,0.000000,-0.173404,-0.185843 LLEG_JOINT2:0.999017,0.013143,0.000000,0.042330 LLEG_JOINT4:0.994767,0.094110,0.000000,-0.039770 RARM_JOINT2:0.783558,0.000000,0.016019,0.621112 RARM_JOINT3:0.946490,0.000000,0.294552,0.131896 RLEG_JOINT2:0.999145,0.012481,0.000000,-0.039403 RLEG_JOINT4:0.995640,0.083607,0.000000,0.041355 WAIST:0.999692,0.000000,-0.024796,-0.000169 WAIST_JOINT0:0.999037,0.000000,-0.043561,0.005161 WAIST_JOINT1:0.996575,0.079789,0.000000,-0.021743 END:
KINECT_DATA_Sensor  AnkleLeft:0.072596,0.720418,-0.078756,-0.685219 AnkleRight:0.073637,0.714790,0.061555,0.692722 ElbowLeft:-0.026254,0.920955,-0.193044,-0.337471 ElbowRight:-0.013724,0.823434,0.150928,0.546799 FootLeft:0.000000,0.000000,0.000000,0.000000 FootRight:0.000000,0.000000,0.000000,0.000000 HandLeft:-0.092040,0.817706,0.012141,0.568100 HandRight:0.141871,-0.339035,-0.234215,0.900039 HandTipLeft:0.000000,0.000000,0.000000,0.000000 HandTipRight:0.000000,0.000000,0.000000,0.000000 Head:0.000000,0.000000,0.000000,0.000000 HipLeft:0.130499,-0.674442,0.701811,-0.188572 HipRight:-0.096415,0.677748,0.707974,-0.173593 KneeLeft:-0.021521,0.723076,-0.038561,-0.689355 KneeRight:-0.018166,0.690204,0.037304,0.722424 Neck:0.042116,-0.022825,0.994341,-0.094827 ShoulderLeft:-0.009070,0.789718,-0.603863,0.107763 ShoulderRight:0.046273,0.795731,0.602660,-0.038365 SpineBase:0.023790,-0.016236,0.998030,-0.055732 SpineMid:0.032789,-0.016738,0.997775,-0.055583 SpineShoulder:0.041988,-0.020831,0.996071,-0.075140 ThumbLeft:0.000000,0.000000,0.000000,0.000000 ThumbRight:0.000000,0.000000,0.000000,0.000000 WristLeft:-0.100569,0.821250,-0.061665,0.558240 WristRight:0.072521,-0.355587,-0.196406,0.910891 END:
KINECT_DATA POSITION:16.624674,-1.150565,-13.411832 HEAD_JOINT1:0.986628,0.131538,-0.000000,0.096248 LARM_JOINT2:0.838418,0.000000,-0.026589,-0.544379 LARM_JOINT3:0.968141,0.000000,-0.171086,-0.182847 LLEG_JOINT2:0.999049,0.014366,0.000000,0.041167 LLEG_JOINT4:0.994547,0.096537,0.000000,-0.039446 RARM_JOINT2:0.783859,0.000000,0.060516,0.617983 RARM_JOINT3:0.938694,0.000000,0.321979,0.123220 RLEG_JOINT2:0.999108,0.012967,0.000000,-0.040184 RLEG_JOINT4:0.995506,0.085137,0.000000,0.041461 WAIST:0.999719,0.000000,-0.023699,-0.000482 WAIST_JOINT0:0.999232,0.000000,-0.038713,0.006128 WAIST_JOINT1:0.996876,0.076023,0.000000,-0.021434 END:
KINECT_DATA_Sensor  AnkleLeft:0.074725,0.708202,-0.081713,-0.697273 AnkleRight:0.075583,0.727793,0.062320,0.678764 ElbowLeft:-0.028267,0.919836,-0.190395,-0.341837 ElbowRight:-0.046265,0.830514,0.131616,0.539244 FootLeft:0.000000,0.000000,0.000000,0.000000 FootRight:0.000000,0.000000,0.000000,0.000000 HandLeft:-0.083115,0.849811,0.013296,0.520323 HandRight:0.124766,-0.199560,-0.305862,0.922528 HandTipLeft:0.000000,0.000000,0.000000,0.000000 HandTipRight:0.000000,0.000000,0.000000,0.000000 Head:0.000000,0.000000,0.000000,0.000000 HipLeft:0.131730,-0.675288,0.701456,-0.185994 HipRight:-0.099024,0.677888,0.707881,-0.171950 KneeLeft:-0.019563,0.722516,-0.038454,-0.690007 KneeRight:-0.018618,0.690855,0.038404,0.721733 Neck:0.037368,-0.022285,0.994925,-0.090722 ShoulderLeft:-0.008869,0.790332,-0.604079,0.101906 ShoulderRight:0.040254,0.796936,0.601389,-0.040061 SpineBase:0.022801,-0.016091,0.998228,-0.052560 SpineMid:0.029921,-0.016465,0.998040,-0.052444 SpineShoulder:0.037185,-0.020778,0.996527,-0.071550 ThumbLeft:0.000000,0.000000,0.000000,0.000000 ThumbRight:0.000000,0.000000,0.000000,0.000000 WristLeft:-0.106299,0.850559,-0.057691,0.511783 WristRight:0.070934,-0.216499,-0.252918,0.940282 END:
KINECT_DATA POSITION:16.738310,-1.173613,-13.280046 HEAD_JOINT1:0.987210,0.130147,-0.000000,0.092080 LARM_JOINT2:0.837239,0.000000,-0.024784,-0.546275 LARM_JOINT3:0.968893,0.000000,-0.169438,-0.180382 LLEG_JOINT2:0.999086,0.016064,0.000000,0.039614 LLEG_JOINT4:0.994822,0.094490,0.000000,-0.037423 RARM_JOINT2:0.793127,0.000000,0.135735,0.593738 RARM_JOINT3:0.941132,0.000000,0.319086,0.111598 RLEG_JOINT2:0.999069,0.013643,0.000000,-0.040930 RLEG_JOINT4:0.995435,0.085345,0.000000,0.042733 WAIST:0.999716,0.000000,-0.023795,-0.000932 WAIST_JOINT0:0.999451,0.000000,-0.032479,0.006606 WAIST_JOINT1:0.997170,0.072372,0.000000,-0.020374 END:
KINECT_DATA_Sensor  AnkleLeft:0.074963,0.712894,-0.081009,-0.692532 AnkleRight:0.076465,0.729320,0.062607,0.676998 ElbowLeft:-0.029664,0.919618,-0.188219,-0.343506 ElbowRight:-0.105188,0.851652,0.115472,0.500290 FootLeft:0.000000,0.000000,0.000000,0.000000 FootRight:0.000000,0.000000,0.000000,0.000000 HandLeft:-0.082293,0.792812,-0.001234,0.603883 HandRight:0.123477,-0.169240,-0.336045,0.918251 HandTipLeft:0.000000,0.000000,0.000000,0.000000 HandTipRight:0.000000,0.000000,0.000000,0.000000 Head:0.000000,0.000000,0.000000,0.000000 HipLeft:0.133250,-0.675979,0.700921,-0.184410 HipRight:-0.100714,0.678083,0.707979,-0.169781 KneeLeft:-0.016942,0.722807,-0.038297,-0.689780 KneeRight:-0.018961,0.690634,0.039728,0.721863 Neck:0.031320,-0.020743,0.995489,-0.087118 ShoulderLeft:-0.009263,0.790006,-0.605420,0.096290 ShoulderRight:0.031981,0.797113,0.601357,-0.044247 SpineBase:0.023017,-0.015638,0.998371,-0.049817 SpineMid:0.027008,-0.015837,0.998271,-0.049755 SpineShoulder:0.031078,-0.019907,0.997000,-0.068035 ThumbLeft:0.000000,0.000000,0.000000,0.000000 ThumbRight:0.000000,0.000000,0.000000,0.000000 WristLeft:-0.100564,0.794317,-0.069143,0.595120 WristRight:0.084363,-0.182507,-0.296876,0.933509 END:
KINECT_DATA POSITION:16.789167,-1.148909,-13.225389 HEAD_JOINT1:0.987320,0.130140,-0.000000,0.090902 LARM_JOINT2:0.837431,0.000000,-0.023342,-0.546044 LARM_JOINT3:0.968371,0.000000,-0.168981,-0.183586 LLEG_JOINT2:0.999061,0.016727,0.000000,0.039970 LLEG_JOINT4:0.995119,0.092447,0.000000,-0.034525 RARM_JOINT2:0.800897,0.000000,0.192645,0.566968 RARM_JOINT3:0.940056,0.000000,0.327236,0.095979 RLEG_JOINT2:0.999071,0.014020,0.000000,-0.040742 RLEG_JOINT4:0.995260,0.086238,0.000000,0.044949 WAIST:0.999761,0.000000,-0.021760,-0.001920 WAIST_JOINT0:0.999676,0.000000,-0.024609,0.006485 WAIST_JOINT1:0.997367,0.070020,0.000000,-0.018857 END:
KINECT_DATA_Sensor  AnkleLeft:0.074645,0.729862,-0.079462,-0.674845 AnkleRight:0.077574,0.723659,0.063252,0.682861 ElbowLeft:-0.030291,0.919368,-0.188705,-0.343853 ElbowRight:-0.155712,0.854722,0.104103,0.484115 FootLeft:0.000000,0.000000,0.000000,0.000000 FootRight:0.000000,0.000000,0.000000,0.000000 HandLeft:-0.087219,0.774433,-0.000319,0.626615 HandRight:0.129847,-0.166449,-0.357282,0.909826 HandTipLeft:0.000000,0.000000,0.000000,0.000000 HandTipRight:0.000000,0.000000,0.000000,0.000000 Head:0.000000,0.000000,0.000000,0.000000 HipLeft:0.133440,-0.677080,0.700355,-0.182374 HipRight:-0.103361,0.677299,0.708328,-0.169865 KneeLeft:-0.015958,0.721537,-0.038363,-0.691128 KneeRight:-0.019340,0.691982,0.040512,0.720518 Neck:0.023669,-0.019816,0.995875,-0.085322 ShoulderLeft:-0.009272,0.789445,-0.606942,0.091175 ShoulderRight:0.022139,0.796340,0.602248,-0.051477 SpineBase:0.021102,-0.015924,0.998499,-0.047958 SpineMid:0.022212,-0.015977,0.998475,-0.047940 SpineShoulder:0.023393,-0.019209,0.997389,-0.065563 ThumbLeft:0.000000,0.000000,0.000000,0.000000 ThumbRight:0.000000,0.000000,0.000000,0.000000 WristLeft:-0.099211,0.777585,-0.072605,0.616642 WristRight:0.101503,-0.177160,-0.345125,0.916079 END:
KINECT_DATA POSITION:16.807095,-1.144860,-13.187325 HEAD_JOINT1:0.987058,0.131706,-0.000000,0.091491 LARM_JOINT2:0.837693,0.000000,-0.022466,-0.545679 LARM_JOINT3:0.967610,0.000000,-0.171582,-0.185176 LLEG_JOINT2:0.999051,0.017572,0.000000,0.039864 LLEG_JOINT4:0.995156,0.091332,0.000000,-0.036378 RARM_JOINT2:0.799896,0.000000,0.235837,0.551859 RARM_JOINT3:0.933938,0.000000,0.349043,0.077003 RLEG_JOINT2:0.999047,0.014916,0.000000,-0.041028 RLEG_JOINT4:0.995294,0.085064,0.000000,0.046415 WAIST:0.999803,0.000000,-0.019749,-0.002186 WAIST_JOINT0:0.999785,0.000000,-0.019554,0.006939 WAIST_JOINT1:0.997461,0.068827,0.000000,-0.018305 END:
KINECT_DATA_Sensor  AnkleLeft:0.074702,0.715660,-0.078969,-0.689938 AnkleRight:0.077867,0.725466,0.062477,0.680979 ElbowLeft:-0.030406,0.918889,-0.189323,-0.344784 ElbowRight:-0.189987,0.846716,0.082807,0.490020 FootLeft:0.000000,0.000000,0.000000,0.000000 FootRight:0.000000,0.000000,0.000000,0.000000 HandLeft:-0.097753,0.790587,-0.000564,0.604497 HandRight:0.118465,-0.080114,-0.388517,0.910276 HandTipLeft:0.000000,0.000000,0.000000,0.000000 HandTipRight:0.000000,0.000000,0.000000,0.000000 Head:0.000000,0.000000,0.000000,0.000000 HipLeft:0.133180,-0.677678,0.700284,-0.180607 HipRight:-0.105339,0.676961,0.708238,-0.170372 KneeLeft:-0.015024,0.720218,-0.038747,-0.692502 KneeRight:-0.019159,0.693381,0.041490,0.719121 Neck:0.018825,-0.019440,0.996065,-0.084390 ShoulderLeft:-0.010770,0.789151,-0.607574,0.089321 ShoulderRight:0.014423,0.796165,0.602185,-0.057333 SpineBase:0.019127,-0.016208,0.998590,-0.046793 SpineMid:0.018790,-0.016192,0.998596,-0.046798 SpineShoulder:0.018532,-0.018905,0.997579,-0.064300 ThumbLeft:0.000000,0.000000,0.000000,0.000000 ThumbRight:0.000000,0.000000,0.000000,0.000000 WristLeft:-0.101538,0.794565,-0.070349,0.594481 WristRight:0.092628,-0.092172,-0.406538,0.904241 END:
KINECT_DATA POSITION:16.864336,-1.156477,-13.154184 HEAD_JOINT1:0.986742,0.134535,-0.000000,0.090781 LARM_JOINT2:0.837123,0.000000,-0.021576,-0.546589 LARM_JOINT3:0.968539,0.000000,-0.165235,-0.186088 LLEG_JOINT2:0.999100,0.017743,0.000000,0.038525 LLEG_JOINT4:0.995286,0.091344,0.000000,-0.032585 RARM_JOINT2:0.784901,0.000000,0.304845,0.539443 RARM_JOINT3:0.944551,0.000000,0.326551,0.034466 RLEG_JOINT2:0.999014,0.015411,0.000000,-0.041645 RLEG_JOINT4:0.995309,0.085859,0.000000,0.044586 WAIST:0.999830,0.000000,-0.018306,-0.002021 WAIST_JOINT0:0.999878,0.000000,-0.009383,0.012450 WAIST_JOINT1:0.997527,0.068176,0.000000,-0.017079 END:
KINECT_DATA_Sensor  AnkleLeft:0.074707,0.728760,-0.079314,-0.676046 AnkleRight:0.078091,0.734927,0.064168,0.670572 ElbowLeft:-0.029823,0.918806,-0.189799,-0.344794 ElbowRight:-0.227362,0.838662,0.032192,0.493879 FootLeft:0.000000,0.000000,0.000000,0.000000 FootRight:0.000000,0.000000,0.000000,0.000000 HandLeft:-0.076466,0.825006,0.015310,0.559717 HandRight:-0.383539,0.877782,-0.185492,0.219065 HandTipLeft:0.000000,0.000000,0.000000,0.000000 HandTipRight:0.000000,0.000000,0.000000,0.000000 Head:0.000000,0.000000,0.000000,0.000000 HipLeft:0.132306,-0.678043,0.700500,-0.179032 HipRight:-0.106598,0.677228,0.707871,-0.170050 KneeLeft:-0.013998,0.719283,-0.038082,-0.693532 KneeRight:-0.019173,0.694362,0.042134,0.718136 Neck:0.008931,-0.017114,0.996280,-0.083984 ShoulderLeft:-0.012876,0.788794,-0.608343,0.086935 ShoulderRight:-0.000504,0.800328,0.595479,-0.069859 SpineBase:0.017723,-0.015469,0.998672,-0.045831 SpineMid:0.013156,-0.015259,0.998743,-0.045902 SpineShoulder:0.008600,-0.017196,0.997784,-0.063702 ThumbLeft:0.000000,0.000000,0.000000,0.000000 ThumbRight:0.000000,0.000000,0.000000,0.000000 WristLeft:-0.104672,0.826062,-0.064474,0.550007 WristRight:-0.418542,0.862479,-0.169415,0.228587 END:
KINECT_DATA POSITION:16.971401,-1.212946,-13.223934 HEAD_JOINT1:0.986029,0.141384,-0.000000,0.088079 LARM_JOINT2:0.835678,0.000000,-0.011887,-0.549091 LARM_JOINT3:0.968890,0.000000,-0.162361,-0.186790 LLEG_JOINT2:0.999255,0.015615,0.000000,0.035305 LLEG_JOINT4:0.995093,0.094364,0.000000,-0.029757 RARM_JOINT2:0.762808,0.000000,0.529446,0.371229 RARM_JOINT3:0.983335,0.000000,0.137985,0.118374 RLEG_JOINT2:0.998899,0.017874,0.000000,-0.043368 RLEG_JOINT4:0.995395,0.083994,0.000000,0.046201 WAIST:0.999947,0.000000,-0.010278,-0.001126 WAIST_JOINT0:0.999752,-0.000000,0.009312,0.020209 WAIST_JOINT1:0.997557,0.068405,0.000000,-0.014197 END:
KINECT_DATA_Sensor  AnkleLeft:0.075105,0.718617,-0.080243,-0.686666 AnkleRight:0.077441,0.728822,0.065914,0.677109 ElbowLeft:-0.022275,0.912713,-0.194238,-0.358790 ElbowRight:-0.379879,0.907230,0.150646,-0.099659 FootLeft:0.000000,0.000000,0.000000,0.000000 FootRight:0.000000,0.000000,0.000000,0.000000 HandLeft:-0.057845,0.833707,0.019754,0.548813 HandRight:-0.117824,0.418677,-0.441371,0.784868 HandTipLeft:0.000000,0.000000,0.000000,0.000000 HandTipRight:0.000000,0.000000,0.000000,0.000000 Head:0.000000,0.000000,0.000000,0.000000 HipLeft:0.124961,-0.679104,0.702323,-0.173046 HipRight:-0.110188,0.677431,0.706567,-0.172362 KneeLeft:-0.013505,0.713697,-0.035063,-0.699446 KneeRight:-0.018310,0.700039,0.044310,0.712494 Neck:-0.009379,-0.012685,0.996298,-0.084505 ShoulderLeft:-0.009170,0.786952,-0.611872,0.078955 ShoulderRight:-0.020623,0.804294,0.587067,-0.089651 SpineBase:0.009738,-0.013353,0.998823,-0.045610 SpineMid:0.000045,-0.012910,0.998870,-0.045737 SpineShoulder:-0.009730,-0.013419,0.997827,-0.063771 ThumbLeft:0.000000,0.000000,0.000000,0.000000 ThumbRight:0.000000,0.000000,0.000000,0.000000 WristLeft:-0.099031,0.833188,-0.064837,0.540173 WristRight:-0.091866,0.442480,-0.343556,0.823251 END:
KINECT_DATA POSITION:17.173298,-1.287315,-13.133944 HEAD_JOINT1:0.985972,0.147667,-0.000000,0.077799 LARM_JOINT2:0.833152,0.000000,-0.009265,-0.552967 LARM_JOINT3:0.969526,0.000000,-0.166149,-0.180041 LLEG_JOINT2:0.999401,0.015764,0.000000,0.030817 LLEG_JOINT4:0.995382,0.092424,0.000000,-0.025925 RARM_JOINT2:0.765809,0.000000,0.434147,0.474397 RARM_JOINT3:0.967729,0.000000,0.251602,0.014017 RLEG_JOINT2:0.998512,0.023510,0.000000,-0.049196 RLEG_JOINT4:0.995590,0.078735,0.000000,0.051001 WAIST:0.999998,-0.000000,0.000462,0.001801 WAIST_JOINT0:0.999050,-0.000000,0.035801,0.024851 WAIST_JOINT1:0.997565,0.068614,0.000000,-0.012521 END:
KINECT_DATA_Sensor  AnkleLeft:0.074588,0.724366,-0.078454,-0.680864 AnkleRight:0.077430,0.727454,0.066553,0.678518 ElbowLeft:-0.018771,0.906699,-0.195394,-0.373316 ElbowRight:-0.308295,0.855881,-0.038659,0.413433 FootLeft:0.000000,0.000000,0.000000,0.000000 FootRight:0.000000,0.000000,0.000000,0.000000 HandLeft:-0.060692,0.801723,-0.005138,0.594584 HandRight:-0.045586,0.332010,-0.428205,0.839245 HandTipLeft:0.000000,0.000000,0.000000,0.000000 HandTipRight:0.000000,0.000000,0.000000,0.000000 Head:0.000000,0.000000,0.000000,0.000000 HipLeft:0.120717,-0.678388,0.704777,-0.168835 HipRight:-0.120156,0.677965,0.702727,-0.179167 KneeLeft:0.011907,-0.706177,0.034214,0.707108 KneeRight:-0.016833,0.707628,0.050159,0.704602 Neck:-0.035476,-0.006726,0.995748,-0.084746 ShoulderLeft:-0.000286,0.784365,-0.616838,0.065433 ShoulderRight:-0.046037,0.803670,0.581758,-0.116420 SpineBase:-0.001048,-0.009598,0.998966,-0.044423 SpineMid:-0.018306,-0.008829,0.998799,-0.044583 SpineShoulder:-0.035903,-0.008843,0.997274,-0.063851 ThumbLeft:0.000000,0.000000,0.000000,0.000000 ThumbRight:0.000000,0.000000,0.000000,0.000000 WristLeft:-0.089539,0.801088,-0.074051,0.587161 WristRight:-0.078325,0.311445,-0.476491,0.818428 END:
KINECT_DATA POSITION:17.284847,-1.304847,-13.036383 HEAD_JOINT1:0.985960,0.150744,-0.000000,0.071820 LARM_JOINT2:0.831640,0.000000,-0.008829,-0.555245 LARM_JOINT3:0.968662,0.000000,-0.170591,-0.180537 LLEG_JOINT2:0.999434,0.016219,0.000000,0.029473 LLEG_JOINT4:0.995498,0.091332,0.000000,-0.025357 RARM_JOINT2:0.764794,0.000000,0.436507,0.473869 RARM_JOINT3:0.970577,0.000000,0.240600,0.009618 RLEG_JOINT2:0.998374,0.025781,0.000000,-0.050847 RLEG_JOINT4:0.995575,0.078123,0.000000,0.052216 WAIST:0.999981,-0.000000,0.005687,0.002494 WAIST_JOINT0:0.998971,-0.000000,0.037660,0.025257 WAIST_JOINT1:0.997611,0.068178,0.000000,-0.011119 END:
KINECT_DATA_Sensor  AnkleLeft:0.074180,0.717430,-0.077943,-0.688270 AnkleRight:0.078434,0.730659,0.067896,0.674815 ElbowLeft:-0.018683,0.902453,-0.194814,-0.383767 ElbowRight:-0.307838,0.852649,-0.047968,0.419433 FootLeft:0.000000,0.000000,0.000000,0.000000 FootRight:0.000000,0.000000,0.000000,0.000000 HandLeft:-0.087403,0.813926,-0.002840,0.574349 HandRight:-0.393537,0.913328,-0.103699,0.014355 HandTipLeft:0.000000,0.000000,0.000000,0.000000 HandTipRight:0.000000,0.000000,0.000000,0.000000 Head:0.000000,0.000000,0.000000,0.000000 HipLeft:0.118553,-0.678472,0.705714,-0.166100 HipRight:-0.124734,0.677830,0.701537,-0.181198 KneeLeft:0.010953,-0.702549,0.034124,0.710732 KneeRight:-0.016184,0.711261,0.052348,0.700789 Neck:-0.037606,-0.005185,0.995730,-0.084145 ShoulderLeft:0.003610,0.782864,-0.619106,0.061793 ShoulderRight:-0.044929,0.803020,0.582793,-0.116158 SpineBase:-0.006220,-0.007737,0.999015,-0.043245 SpineMid:-0.021957,-0.007055,0.998793,-0.043362 SpineShoulder:-0.038009,-0.007351,0.997244,-0.063283 ThumbLeft:0.000000,0.000000,0.000000,0.000000 ThumbRight:0.000000,0.000000,0.000000,0.000000 WristLeft:-0.088211,0.817314,-0.075645,0.564353 WristRight:-0.475609,0.872420,-0.110678,0.020727 END:
KINECT_DATA POSITION:17.380676,-1.313292,-12.983477 HEAD_JOINT1:0.985548,0.155035,-0.000000,0.068256 LARM_JOINT2:0.830756,0.000000,-0.009910,-0.556549 LARM_JOINT3:0.968273,0.000000,-0.173104,-0.180231 LLEG_JOINT2:0.999487,0.016323,0.000000,0.027569 LLEG_JOINT4:0.995594,0.090317,0.000000,-0.025213 RARM_JOINT2:0.758645,0.000000,0.434669,0.485305 RARM_JOINT3:0.974064,0.000000,0.226125,-0.008171 RLEG_JOINT2:0.998287,0.026409,0.000000,-0.052211 RLEG_JOINT4:0.995566,0.078400,0.000000,0.051988 WAIST:0.999961,-0.000000,0.008102,0.003527 WAIST_JOINT0:0.999078,-0.000000,0.035135,0.024688 WAIST_JOINT1:0.997619,0.068157,0.000000,-0.010539 END:
KINECT_DATA_Sensor  AnkleLeft:0.073917,0.713506,-0.076863,-0.692487 AnkleRight:0.078359,0.730530,0.069296,0.674822 ElbowLeft:-0.018918,0.901772,-0.194543,-0.385491 ElbowRight:-0.294853,0.839454,-0.067599,0.451453 FootLeft:0.000000,0.000000,0.000000,0.000000 FootRight:0.000000,0.000000,0.000000,0.000000 HandLeft:-0.102191,0.824444,-0.005355,0.556615 HandRight:-0.113365,0.424963,-0.371887,0.817469 HandTipLeft:0.000000,0.000000,0.000000,0.000000 HandTipRight:0.000000,0.000000,0.000000,0.000000 Head:0.000000,0.000000,0.000000,0.000000 HipLeft:0.116811,-0.678000,0.706804,-0.164618 HipRight:-0.126203,0.678264,0.700702,-0.181789 KneeLeft:0.010195,-0.700838,0.033591,0.712457 KneeRight:-0.016115,0.712975,0.052981,0.699000 Neck:-0.035337,-0.004240,0.995814,-0.084189 ShoulderLeft:0.005637,0.781628,-0.620715,0.061140 ShoulderRight:-0.039928,0.802062,0.585258,-0.112140 SpineBase:-0.008657,-0.006367,0.999017,-0.043007 SpineMid:-0.022047,-0.005790,0.998811,-0.043088 SpineShoulder:-0.035696,-0.006180,0.997349,-0.063114 ThumbLeft:0.000000,0.000000,0.000000,0.000000 ThumbRight:0.000000,0.000000,0.000000,0.000000 WristLeft:-0.088167,0.829624,-0.074794,0.546220 WristRight:-0.143553,0.404672,-0.468166,0.772304 END:
KINECT_DATA POSITION:17.445127,-1.319473,-12.936890 HEAD_JOINT1:0.985366,0.156770,-0.000000,0.066918 LARM_JOINT2:0.830049,0.000000,-0.011156,-0.557579 LARM_JOINT3:0.968536,0.000000,-0.171995,-0.179878 LLEG_JOINT2:0.999520,0.016838,0.000000,0.026002 LLEG_JOINT4:0.995549,0.091299,0.000000,-0.023389 RARM_JOINT2:0.755480,0.000000,0.435235,0.489716 RARM_JOINT3:0.974250,0.000000,0.224444,-0.021491 RLEG_JOINT2:0.998224,0.026479,0.000000,-0.053359 RLEG_JOINT4:0.995374,0.079664,0.000000,0.053711 WAIST:0.999946,-0.000000,0.009543,0.004149 WAIST_JOINT0:0.999094,-0.000000,0.034656,0.024700 WAIST_JOINT1:0.997605,0.068461,0.000000,-0.009861 END:
KINECT_DATA_Sensor  AnkleLeft:0.074886,0.715710,-0.078056,-0.689970 AnkleRight:0.078875,0.720008,0.070759,0.685828 ElbowLeft:-0.019282,0.901306,-0.194317,-0.386674 ElbowRight:-0.288385,0.830478,-0.079166,0.469971 FootLeft:0.000000,0.000000,0.000000,0.000000 FootRight:0.000000,0.000000,0.000000,0.000000 HandLeft:-0.100315,0.808106,-0.005613,0.580405 HandRight:0.107920,-0.096802,-0.383476,0.912101 HandTipLeft:0.000000,0.000000,0.000000,0.000000 HandTipRight:0.000000,0.000000,0.000000,0.000000 Head:0.000000,0.000000,0.000000,0.000000 HipLeft:0.115390,-0.677738,0.707474,-0.163818 HipRight:-0.126752,0.678566,0.700211,-0.182174 KneeLeft:0.009124,-0.699824,0.033285,0.713481 KneeRight:-0.016524,0.713990,0.053370,0.697923 Neck:-0.035094,-0.003306,0.995792,-0.084594 ShoulderLeft:0.007374,0.780907,-0.621682,0.060347 ShoulderRight:-0.037865,0.801888,0.585853,-0.110992 SpineBase:-0.010111,-0.005458,0.999002,-0.043165 SpineMid:-0.022650,-0.004915,0.998796,-0.043230 SpineShoulder:-0.035416,-0.005047,0.997352,-0.063317 ThumbLeft:0.000000,0.000000,0.000000,0.000000 ThumbRight:0.000000,0.000000,0.000000,0.000000 WristLeft:-0.085479,0.813878,-0.078013,0.569394 WristRight:0.135832,-0.093792,-0.472151,0.865925 END:
KINECT_DATA POSITION:17.427284,-1.319005,-12.913740 HEAD_JOINT1:0.985433,0.156796,-0.000000,0.065856 LARM_JOINT2:0.831052,0.000000,-0.013599,-0.556029 LARM_JOINT3:0.967527,0.000000,-0.175618,-0.181797 LLEG_JOINT2:0.999499,0.017074,0.000000,0.026653 LLEG_JOINT4:0.995583,0.090459,0.000000,-0.025125 RARM_JOINT2:0.761850,0.000000,0.452568,0.463429 RARM_JOINT3:0.974885,0.000000,0.222507,-0.009496 RLEG_JOINT2:0.998252,0.026718,0.000000,-0.052711 RLEG_JOINT4:0.995633,0.078111,0.000000,0.051115 WAIST:0.999939,-0.000000,0.010301,0.003915 WAIST_JOINT0:0.999002,-0.000000,0.036031,0.026387 WAIST_JOINT1:0.997575,0.069027,0.000000,-0.008922 END:
KINECT_DATA_Sensor  AnkleLeft:0.075100,0.712573,-0.076906,-0.693314 AnkleRight:0.077673,0.733374,0.070036,0.671733 ElbowLeft:-0.020145,0.903448,-0.196138,-0.380664 ElbowRight:-0.315964,0.851710,-0.061846,0.413439 FootLeft:0.000000,0.000000,0.000000,0.000000 FootRight:0.000000,0.000000,0.000000,0.000000 HandLeft:-0.115315,0.818903,-0.014087,0.562052 HandRight:-0.133250,0.420635,-0.416038,0.795125 HandTipLeft:0.000000,0.000000,0.000000,0.000000 HandTipRight:0.000000,0.000000,0.000000,0.000000 Head:0.000000,0.000000,0.000000,0.000000 HipLeft:0.114118,-0.677884,0.707597,-0.163577 HipRight:-0.126474,0.678271,0.700468,-0.182476 KneeLeft:0.009221,-0.699301,0.033754,0.713970 KneeRight:-0.016102,0.714515,0.053236,0.697406 Neck:-0.036707,-0.002944,0.995686,-0.085163 ShoulderLeft:0.006443,0.779881,-0.622875,0.061404 ShoulderRight:-0.040986,0.802744,0.583884,-0.114024 SpineBase:-0.010843,-0.005220,0.998968,-0.043791 SpineMid:-0.023802,-0.004651,0.998744,-0.043855 SpineShoulder:-0.036976,-0.004212,0.997264,-0.063864 ThumbLeft:0.000000,0.000000,0.000000,0.000000 ThumbRight:0.000000,0.000000,0.000000,0.000000 WristLeft:-0.087160,0.825680,-0.075609,0.552213 WristRight:-0.141970,0.412430,-0.460365,0.773182 END:
KINECT_DATA POSITION:17.368021,-1.294544,-12.902987 HEAD_JOINT1:0.985012,0.158819,-0.000000,0.067286 LARM_JOINT2:0.832304,0.000000,-0.016663,-0.554068 LARM_JOINT3:0.966498,0.000000,-0.181436,-0.181554 LLEG_JOINT2:0.999458,0.016822,0.000000,0.028315 LLEG_JOINT4:0.995687,0.089577,0.000000,-0.024144 RARM_JOINT2:0.823168,0.000000,0.440136,0.358712 RARM_JOINT3:0.939253,0.000000,0.317929,0.129322 RLEG_JOINT2:0.998418,0.024101,0.000000,-0.050791 RLEG_JOINT4:0.995486,0.080298,0.000000,0.050600 WAIST:0.999962,-0.000000,0.008374,0.002583 WAIST_JOINT0:0.999351,-0.000000,0.026895,0.023945 WAIST_JOINT1:0.997477,0.070451,0.000000,-0.008745 END:
KINECT_DATA_Sensor  AnkleLeft:-0.070625,-0.690552,0.079654,0.715406 AnkleRight:0.078055,0.736769,0.069010,0.668069 ElbowLeft:-0.022198,0.904033,-0.196591,-0.378924 ElbowRight:-0.379932,0.899787,0.120818,0.177305 FootLeft:0.000000,0.000000,0.000000,0.000000 FootRight:0.000000,0.000000,0.000000,0.000000 HandLeft:-0.127974,0.885010,-0.006783,0.447586 HandRight:0.176559,-0.082468,-0.438521,0.877340 HandTipLeft:0.000000,0.000000,0.000000,0.000000 HandTipRight:0.000000,0.000000,0.000000,0.000000 Head:0.000000,0.000000,0.000000,0.000000 HipLeft:0.114301,-0.678312,0.706896,-0.164698 HipRight:-0.124094,0.677512,0.701962,-0.181185 KneeLeft:0.009684,-0.700714,0.033809,0.712576 KneeRight:-0.017412,0.713104,0.051001,0.698984 Neck:-0.027763,-0.005182,0.995808,-0.086998 ShoulderLeft:0.004402,0.779379,-0.622921,0.067217 ShoulderRight:-0.031223,0.800878,0.588532,-0.106064 SpineBase:-0.008842,-0.005878,0.998948,-0.044618 SpineMid:-0.018342,-0.005453,0.998818,-0.044672 SpineShoulder:-0.027964,-0.005456,0.997467,-0.065169 ThumbLeft:0.000000,0.000000,0.000000,0.000000 ThumbRight:0.000000,0.000000,0.000000,0.000000 WristLeft:-0.100022,0.890900,-0.063557,0.438466 WristRight:0.219907,-0.054325,-0.412284,0.882446 END:
KINECT_DATA POSITION:17.313158,-1.239561,-12.843990 HEAD_JOINT1:0.983804,0.164912,-0.000000,0.070242 LARM_JOINT2:0.833316,0.000000,-0.017688,-0.552514 LARM_JOINT3:0.968535,0.000000,-0.173935,-0.178006 LLEG_JOINT2:0.999402,0.016327,0.000000,0.030491 LLEG_JOINT4:0.995471,0.091476,0.000000,-0.025870 RARM_JOINT2:0.816372,0.000000,0.456431,0.353847 RARM_JOINT3:0.953211,0.000000,0.273085,0.129666 RLEG_JOINT2:0.998552,0.023010,0.000000,-0.048632 RLEG_JOINT4:0.995418,0.081942,0.000000,0.049285 WAIST:0.999978,-0.000000,0.006376,0.001607 WAIST_JOINT0:0.999438,-0.000000,0.023840,0.023547 WAIST_JOINT1:0.997155,0.074742,0.000000,-0.009767 END:
KINECT_DATA_Sensor  AnkleLeft:0.074021,0.711094,-0.078413,-0.694779 AnkleRight:0.077917,0.729553,0.070016,0.675854 ElbowLeft:-0.019876,0.904259,-0.197564,-0.378006 ElbowRight:-0.380781,0.905917,0.128733,0.133219 FootLeft:0.000000,0.000000,0.000000,0.000000 FootRight:0.000000,0.000000,0.000000,0.000000 HandLeft:-0.093610,0.859516,-0.007128,0.502413 HandRight:-0.085078,0.356741,-0.440728,0.819302 HandTipLeft:0.000000,0.000000,0.000000,0.000000 HandTipRight:0.000000,0.000000,0.000000,0.000000 Head:0.000000,0.000000,0.000000,0.000000 HipLeft:0.113503,-0.678306,0.706337,-0.167651 HipRight:-0.120487,0.676598,0.703189,-0.182274 KneeLeft:0.010941,-0.702083,0.034304,0.711184 KneeRight:-0.017229,0.711734,0.049434,0.700495 Neck:-0.024941,-0.007452,0.995465,-0.091498 ShoulderLeft:0.007813,0.777720,-0.624530,0.071076 ShoulderRight:-0.023884,0.798922,0.591667,-0.105279 SpineBase:-0.006850,-0.007123,0.998802,-0.047923 SpineMid:-0.015937,-0.006687,0.998698,-0.047985 SpineShoulder:-0.025129,-0.007178,0.997243,-0.069447 ThumbLeft:0.000000,0.000000,0.000000,0.000000 ThumbRight:0.000000,0.000000,0.000000,0.000000 WristLeft:-0.092156,0.861684,-0.068808,0.494241 WristRight:-0.022105,0.385029,-0.436721,0.812735 END:
KINECT_DATA POSITION:17.340015,-1.223733,-12.775194 HEAD_JOINT1:0.983521,0.167775,-0.000000,0.067370 LARM_JOINT2:0.832257,0.000000,-0.017529,-0.554112 LARM_JOINT3:0.969510,0.000000,-0.166110,-0.180160 LLEG_JOINT2:0.999407,0.016642,0.000000,0.030143 LLEG_JOINT4:0.995371,0.092473,0.000000,-0.026195 RARM_JOINT2:0.779806,0.000000,0.514194,0.357082 RARM_JOINT3:0.980150,0.000000,0.167610,0.105890 RLEG_JOINT2:0.998529,0.025045,0.000000,-0.048082 RLEG_JOINT4:0.995490,0.081539,0.000000,0.048488 WAIST:0.999970,-0.000000,0.007573,0.001697 WAIST_JOINT0:0.999384,-0.000000,0.024823,0.024828 WAIST_JOINT1:0.997090,0.075840,0.000000,-0.007781 END:
KINECT_DATA_Sensor  AnkleLeft:0.077136,0.724877,-0.077161,-0.680183 AnkleRight:0.079045,0.731606,0.071180,0.673378 ElbowLeft:-0.018626,0.903566,-0.198203,-0.379390 ElbowRight:-0.392190,0.913320,0.107853,0.020039 FootLeft:0.000000,0.000000,0.000000,0.000000 FootRight:0.000000,0.000000,0.000000,0.000000 HandLeft:-0.070517,0.798890,0.006248,0.597297 HandRight:-0.312274,0.745423,-0.297704,0.508135 HandTipLeft:0.000000,0.000000,0.000000,0.000000 HandTipRight:0.000000,0.000000,0.000000,0.000000 Head:0.000000,0.000000,0.000000,0.000000 HipLeft:0.111519,-0.678214,0.706653,-0.168021 HipRight:-0.120468,0.676403,0.703062,-0.183495 KneeLeft:0.010494,-0.701266,0.034353,0.711994 KneeRight:-0.015403,0.712583,0.050410,0.699605 Neck:-0.026440,-0.005024,0.995344,-0.092559 ShoulderLeft:0.011179,0.776282,-0.626422,0.069695 ShoulderRight:-0.022540,0.799717,0.590507,-0.106051 SpineBase:-0.008018,-0.006164,0.998732,-0.049310 SpineMid:-0.017295,-0.005706,0.998615,-0.049365 SpineShoulder:-0.026639,-0.005289,0.997141,-0.070514 ThumbLeft:0.000000,0.000000,0.000000,0.000000 ThumbRight:0.000000,0.000000,0.000000,0.000000 WristLeft:-0.082106,0.801956,-0.078516,0.586481 WristRight:-0.256445,0.769729,-0.303683,0.499530 END:
KINECT_DATA POSITION:17.459606,-1.250725,-12.692738 HEAD_JOINT1:0.982808,0.173349,-0.000000,0.063545 LARM_JOINT2:0.830599,0.000000,-0.018263,-0.556571 LARM_JOINT3:0.970911,0.000000,-0.162748,-0.175628 LLEG_JOINT2:0.999515,0.015484,0.000000,0.027003 LLEG_JOINT4:0.995489,0.091280,0.000000,-0.025880 RARM_JOINT2:0.756795,0.000000,0.539443,0.369137 RARM_JOINT3:0.992505,0.000000,0.090528,0.082094 RLEG_JOINT2:0.998209,0.029024,0.000000,-0.052307 RLEG_JOINT4:0.995796,0.076402,0.000000,0.050525 WAIST:0.999883,-0.000000,0.014547,0.004698 WAIST_JOINT0:0.998076,-0.000000,0.051652,0.034306 WAIST_JOINT1:0.996858,0.079028,0.000000,-0.005403 END:
KINECT_DATA_Sensor  AnkleLeft:0.074510,0.708867,-0.076401,-0.697222 AnkleRight:0.076787,0.722944,0.071861,0.682856 ElbowLeft:-0.014610,0.902560,-0.201530,-0.380208 ElbowRight:-0.383667,0.910471,0.112932,-0.105305 FootLeft:0.000000,0.000000,0.000000,0.000000 FootRight:0.000000,0.000000,0.000000,0.000000 HandLeft:-0.063109,0.843155,0.000013,0.533955 HandRight:0.237658,-0.419280,-0.340557,0.807307 HandTipLeft:0.000000,0.000000,0.000000,0.000000 HandTipRight:0.000000,0.000000,0.000000,0.000000 Head:0.000000,0.000000,0.000000,0.000000 HipLeft:0.106254,-0.676822,0.709005,-0.167135 HipRight:-0.124896,0.677122,0.699878,-0.189940 KneeLeft:0.011031,-0.696190,0.033478,0.716992 KneeRight:-0.013883,0.717581,0.053973,0.694242 Neck:-0.053501,0.002448,0.993963,-0.095759 ShoulderLeft:0.017011,0.773571,-0.630459,0.061810 ShoulderRight:-0.052959,0.803315,0.576864,-0.138231 SpineBase:-0.015137,-0.003126,0.998539,-0.051773 SpineMid:-0.034313,-0.002131,0.998064,-0.051823 SpineShoulder:-0.053766,0.000809,0.995842,-0.073529 ThumbLeft:0.000000,0.000000,0.000000,0.000000 ThumbRight:0.000000,0.000000,0.000000,0.000000 WristLeft:-0.077119,0.843778,-0.072962,0.526087 WristRight:0.223571,-0.422684,-0.290772,0.828737 END:
KINECT_DATA POSITION:17.678598,-1.258249,-12.724447 HEAD_JOINT1:0.981514,0.180174,-0.000000,0.064563 LARM_JOINT2:0.830854,0.000000,-0.014236,-0.556308 LARM_JOINT3:0.971167,0.000000,-0.161804,-0.175080 LLEG_JOINT2:0.999635,0.015539,0.000000,0.022110 LLEG_JOINT4:0.995658,0.089642,0.000000,-0.025077 RARM_JOINT2:0.755164,0.000000,0.383786,0.531446 RARM_JOINT3:0.962871,0.000000,0.260500,-0.070840 RLEG_JOINT2:0.997919,0.031914,0.000000,-0.056027 RLEG_JOINT4:0.995770,0.077106,0.000000,0.049967 WAIST:0.999778,-0.000000,0.019472,0.008063 WAIST_JOINT0:0.998048,-0.000000,0.051108,0.035883 WAIST_JOINT1:0.996709,0.080937,0.000000,-0.004537 END:
KINECT_DATA_Sensor  AnkleLeft:0.074583,0.709818,-0.073934,-0.696513 AnkleRight:0.078357,0.727061,0.075240,0.677925 ElbowLeft:-0.010749,0.899035,-0.207748,-0.385308 ElbowRight:-0.221906,0.786442,-0.086665,0.569874 FootLeft:0.000000,0.000000,0.000000,0.000000 FootRight:0.000000,0.000000,0.000000,0.000000 HandLeft:-0.049217,0.842275,-0.005028,0.536774 HandRight:-0.354970,0.764724,0.172773,-0.509257 HandTipLeft:0.000000,0.000000,0.000000,0.000000 HandTipRight:0.000000,0.000000,0.000000,0.000000 Head:0.000000,0.000000,0.000000,0.000000 HipLeft:0.100783,-0.674750,0.712208,-0.165273 HipRight:-0.126961,0.678469,0.697502,-0.192488 KneeLeft:0.009830,-0.692625,0.032405,0.720503 KneeRight:-0.012453,0.721147,0.056174,0.690389 Neck:-0.053814,0.006322,0.993755,-0.097550 ShoulderLeft:0.022935,0.769827,-0.634977,0.060378 ShoulderRight:-0.047571,0.802900,0.578181,-0.137097 SpineBase:-0.020204,0.000864,0.998370,-0.053368 SpineMid:-0.036990,0.001761,0.997889,-0.053346 SpineShoulder:-0.054065,0.004146,0.995687,-0.075284 ThumbLeft:0.000000,0.000000,0.000000,0.000000 ThumbRight:0.000000,0.000000,0.000000,0.000000 WristLeft:-0.070296,0.841513,-0.075511,0.530294 WristRight:-0.444006,0.721597,0.227823,-0.479847 END:
KINECT_DATA POSITION:17.795013,-1.243971,-12.784922 HEAD_JOINT1:0.981012,0.180926,-0.000000,0.069863 LARM_JOINT2:0.831611,0.000000,-0.015243,-0.555150 LARM_JOINT3:0.967008,0.000000,-0.178514,-0.181738 LLEG_JOINT2:0.999687,0.014709,0.000000,0.020255 LLEG_JOINT4:0.995325,0.093184,0.000000,-0.025379 RARM_JOINT2:0.763289,0.000000,0.467034,0.446396 RARM_JOINT3:0.986954,0.000000,0.159965,0.018233 RLEG_JOINT2:0.997802,0.031283,0.000000,-0.058420 RLEG_JOINT4:0.995851,0.074737,0.000000,0.051913 WAIST:0.999795,-0.000000,0.017877,0.009531 WAIST_JOINT0:0.998216,-0.000000,0.047350,0.036378 WAIST_JOINT1:0.996715,0.080791,0.000000,-0.005594 END:
KINECT_DATA_Sensor  AnkleLeft:0.077476,0.715661,-0.074788,-0.690097 AnkleRight:0.076282,0.718927,0.073102,0.687008 ElbowLeft:-0.013272,0.898279,-0.208922,-0.386354 ElbowRight:-0.322013,0.883219,-0.045567,0.337869 FootLeft:0.000000,0.000000,0.000000,0.000000 FootRight:0.000000,0.000000,0.000000,0.000000 HandLeft:-0.117926,0.830504,-0.013933,0.544209 HandRight:-0.332299,0.787696,0.156266,-0.494665 HandTipLeft:0.000000,0.000000,0.000000,0.000000 HandTipRight:0.000000,0.000000,0.000000,0.000000 Head:0.000000,0.000000,0.000000,0.000000 HipLeft:0.100789,-0.673411,0.713152,-0.166650 HipRight:-0.125443,0.679712,0.696822,-0.191559 KneeLeft:0.010222,-0.693730,0.031524,0.719472 KneeRight:-0.013474,0.720095,0.056378,0.691450 Neck:-0.050265,0.006480,0.993971,-0.097227 ShoulderLeft:0.022847,0.768785,-0.636131,0.061525 ShoulderRight:-0.042914,0.803318,0.578994,-0.132680 SpineBase:-0.018703,0.002381,0.998356,-0.054120 SpineMid:-0.034408,0.003232,0.997939,-0.054076 SpineShoulder:-0.050471,0.004575,0.995882,-0.075173 ThumbLeft:0.000000,0.000000,0.000000,0.000000 ThumbRight:0.000000,0.000000,0.000000,0.000000 WristLeft:-0.071656,0.839335,-0.078474,0.533127 WristRight:-0.397765,0.759752,0.161106,-0.488472 END:
KINECT_DATA POSITION:17.823904,-1.247069,-12.863123 HEAD_JOINT1:0.979453,0.185161,-0.000000,0.079920 LARM_JOINT2:0.834006,0.000000,-0.013125,-0.551599 LARM_JOINT3:0.965694,0.000000,-0.182083,-0.185149 LLEG_JOINT2:0.999666,0.015386,0.000000,0.020778 LLEG_JOINT4:0.995283,0.093156,0.000000,-0.027079 RARM_JOINT2:0.792368,0.000000,0.305098,0.528268 RARM_JOINT3:0.939130,0.000000,0.343353,0.012008 RLEG_JOINT2:0.997938,0.027655,0.000000,-0.057926 RLEG_JOINT4:0.995828,0.076660,0.000000,0.049491 WAIST:0.999919,-0.000000,0.009119,0.008848 WAIST_JOINT0:0.998967,-0.000000,0.030999,0.033238 WAIST_JOINT1:0.996948,0.077400,0.000000,-0.010151 END:
KINECT_DATA_Sensor  AnkleLeft:0.077751,0.713739,-0.075476,-0.691979 AnkleRight:0.074416,0.717456,0.072665,0.688795 ElbowLeft:-0.016857,0.900603,-0.207352,-0.381621 ElbowRight:-0.221693,0.838466,0.018161,0.497491 FootLeft:0.000000,0.000000,0.000000,0.000000 FootRight:0.000000,0.000000,0.000000,0.000000 HandLeft:-0.115733,0.683657,-0.037540,0.719590 HandRight:-0.348944,0.773484,0.163345,-0.503268 HandTipLeft:0.000000,0.000000,0.000000,0.000000 HandTipRight:0.000000,0.000000,0.000000,0.000000 Head:0.000000,0.000000,0.000000,0.000000 HipLeft:0.105746,-0.673222,0.712258,-0.168163 HipRight:-0.118669,0.680897,0.698788,-0.184369 KneeLeft:0.009843,-0.699920,0.031855,0.713443 KneeRight:-0.015602,0.713984,0.054104,0.697895 Neck:-0.033991,-0.000211,0.995044,-0.093443 ShoulderLeft:0.015118,0.769170,-0.635222,0.068135 ShoulderRight:-0.028773,0.802795,0.584490,-0.114297 SpineBase:-0.010017,-0.000085,0.998569,-0.052537 SpineMid:-0.021871,0.000538,0.998379,-0.052534 SpineShoulder:-0.034063,-0.000133,0.996814,-0.072126 ThumbLeft:0.000000,0.000000,0.000000,0.000000 ThumbRight:0.000000,0.000000,0.000000,0.000000 WristLeft:-0.060280,0.686255,-0.094405,0.718685 WristRight:-0.454145,0.723307,0.187705,-0.485125 END:
KINECT_DATA POSITION:17.811718,-1.191296,-13.239431 HEAD_JOINT1:0.978117,0.185069,-0.000000,0.095059 LARM_JOINT2:0.837230,0.000000,-0.016632,-0.546599 LARM_JOINT3:0.966512,0.000000,-0.179371,-0.183520 LLEG_JOINT2:0.999523,0.015846,0.000000,0.026494 LLEG_JOINT4:0.995485,0.090675,0.000000,-0.028066 RARM_JOINT2:0.805354,0.000000,0.412180,0.426043 RARM_JOINT3:0.964885,0.000000,0.241537,0.103228 RLEG_JOINT2:0.998456,0.018565,0.000000,-0.052357 RLEG_JOINT4:0.995557,0.082618,0.000000,0.045172 WAIST:0.999965,0.000000,-0.007381,0.003818 WAIST_JOINT0:0.999676,-0.000000,0.007982,0.024158 WAIST_JOINT1:0.997019,0.075702,0.000000,-0.014909 END:
KINECT_DATA_Sensor  AnkleLeft:0.075646,0.728234,-0.074887,-0.677011 AnkleRight:0.073188,0.728814,0.069706,0.677211 ElbowLeft:-0.021834,0.910202,-0.201775,-0.361029 ElbowRight:-0.321324,0.919221,0.103956,0.202425 FootLeft:0.000000,0.000000,0.000000,0.000000 FootRight:0.000000,0.000000,0.000000,0.000000 HandLeft:-0.111789,0.803049,-0.016929,0.585089 HandRight:-0.367083,0.751884,0.200170,-0.509757 HandTipLeft:0.000000,0.000000,0.000000,0.000000 HandTipRight:0.000000,0.000000,0.000000,0.000000 Head:0.000000,0.000000,0.000000,0.000000 HipLeft:0.118284,-0.674496,0.707284,-0.175539 HipRight:-0.107962,0.679445,0.704231,-0.175377 KneeLeft:-0.010462,0.711556,-0.032577,-0.701796 KneeRight:-0.020744,0.702213,0.047664,0.710066 Neck:-0.009693,-0.010053,0.995623,-0.092409 ShoulderLeft:0.002868,0.772214,-0.630095,0.081600 ShoulderRight:-0.008823,0.796658,0.597408,-0.091447 SpineBase:0.006571,-0.007551,0.998629,-0.051377 SpineMid:-0.001529,-0.007135,0.998650,-0.051437 SpineShoulder:-0.009812,-0.009004,0.997411,-0.070672 ThumbLeft:0.000000,0.000000,0.000000,0.000000 ThumbRight:0.000000,0.000000,0.000000,0.000000 WristLeft:-0.086133,0.809351,-0.074736,0.576149 WristRight:-0.375930,0.744959,0.129200,-0.535743 END:
KINECT_DATA POSITION:17.872282,-1.176713,-13.379944 HEAD_JOINT1:0.978880,0.182105,-0.000000,0.092908 LARM_JOINT2:0.837425,0.000000,-0.016378,-0.546307 LARM_JOINT3:0.969782,0.000000,-0.165892,-0.178893 LLEG_JOINT2:0.999522,0.015700,0.000000,0.026649 LLEG_JOINT4:0.995563,0.089405,0.000000,-0.029335 RARM_JOINT2:0.791604,0.000000,0.453406,0.409618 RARM_JOINT3:0.975770,0.000000,0.189548,0.109290 RLEG_JOINT2:0.998468,0.018849,0.000000,-0.052017 RLEG_JOINT4:0.995709,0.080861,0.000000,0.045003 WAIST:0.999978,0.000000,-0.005722,0.003475 WAIST_JOINT0:0.999638,-0.000000,0.011123,0.024498 WAIST_JOINT1:0.997002,0.076204,0.000000,-0.013448 END:
KINECT_DATA_Sensor  AnkleLeft:0.075121,0.721498,-0.073367,-0.684409 AnkleRight:0.071423,0.725900,0.069417,0.680551 ElbowLeft:-0.021605,0.909065,-0.203386,-0.363000 ElbowRight:-0.340470,0.927738,0.107784,0.108468 FootLeft:0.000000,0.000000,0.000000,0.000000 FootRight:0.000000,0.000000,0.000000,0.000000 HandLeft:-0.051516,0.668787,-0.017454,0.741461 HandRight:-0.273588,0.719569,-0.303672,0.561385 HandTipLeft:0.000000,0.000000,0.000000,0.000000 HandTipRight:0.000000,0.000000,0.000000,0.000000 Head:0.000000,0.000000,0.000000,0.000000 HipLeft:0.117570,-0.675032,0.706911,-0.175457 HipRight:-0.109080,0.679105,0.703980,-0.177000 KneeLeft:-0.010383,0.710405,-0.032353,-0.702972 KneeRight:-0.020630,0.703377,0.047825,0.708906 Neck:-0.012673,-0.008464,0.995571,-0.092774 ShoulderLeft:0.003669,0.772400,-0.629973,0.080740 ShoulderRight:-0.012047,0.796709,0.596684,-0.095278 SpineBase:0.004940,-0.007666,0.998617,-0.051773 SpineMid:-0.003883,-0.007208,0.998622,-0.051838 SpineShoulder:-0.012835,-0.008048,0.997349,-0.071167 ThumbLeft:0.000000,0.000000,0.000000,0.000000 ThumbRight:0.000000,0.000000,0.000000,0.000000 WristLeft:-0.066014,0.668780,-0.092395,0.734737 WristRight:-0.231031,0.738057,-0.289148,0.564172 END:
KINECT_DATA POSITION:17.944128,-1.185291,-13.453781 HEAD_JOINT1:0.980008,0.180983,-0.000000,0.082637 LARM_JOINT2:0.836988,0.000000,-0.012870,-0.547070 LARM_JOINT3:0.969825,0.000000,-0.164750,-0.179715 LLEG_JOINT2:0.999552,0.015191,0.000000,0.025807 LLEG_JOINT4:0.995619,0.088232,0.000000,-0.030950 RARM_JOINT2:0.769766,0.000000,0.456336,0.446338 RARM_JOINT3:0.983364,0.000000,0.173657,0.053269 RLEG_JOINT2:0.998407,0.020093,0.000000,-0.052732 RLEG_JOINT4:0.995485,0.083389,0.000000,0.045338 WAIST:0.999991,0.000000,-0.000181,0.004214 WAIST_JOINT0:0.999002,-0.000000,0.031340,0.031811 WAIST_JOINT1:0.996920,0.077947,0.000000,-0.008698 END:
KINECT_DATA_Sensor  AnkleLeft:0.075172,0.714805,-0.070867,-0.691651 AnkleRight:0.073450,0.723740,0.072671,0.682293 ElbowLeft:-0.018494,0.905016,-0.209493,-0.369753 ElbowRight:-0.326306,0.914154,0.019172,0.239748 FootLeft:0.000000,0.000000,0.000000,0.000000 FootRight:0.000000,0.000000,0.000000,0.000000 HandLeft:-0.058597,0.776797,-0.002653,0.627013 HandRight:-0.336777,0.840521,-0.207352,0.370286 HandTipLeft:0.000000,0.000000,0.000000,0.000000 HandTipRight:0.000000,0.000000,0.000000,0.000000 Head:0.000000,0.000000,0.000000,0.000000 HipLeft:0.112557,-0.675283,0.708065,-0.173112 HipRight:-0.111950,0.678984,0.702847,-0.180150 KneeLeft:-0.010502,0.706545,-0.031964,-0.706868 KneeRight:-0.020012,0.707267,0.048558,0.704993 Neck:-0.033078,-0.000532,0.994932,-0.094954 ShoulderLeft:0.010541,0.769564,-0.634368,0.072368 ShoulderRight:-0.032582,0.799684,0.587915,-0.117474 SpineBase:-0.000558,-0.005557,0.998589,-0.052818 SpineMid:-0.016893,-0.004692,0.998446,-0.052902 SpineShoulder:-0.033376,-0.002326,0.996800,-0.072596 ThumbLeft:0.000000,0.000000,0.000000,0.000000 ThumbRight:0.000000,0.000000,0.000000,0.000000 WristLeft:-0.068478,0.779393,-0.084264,0.617055 WristRight:-0.324944,0.844262,-0.227014,0.360689 END:
KINECT_DATA POSITION:18.017839,-1.205930,-13.446546 HEAD_JOINT1:0.979798,0.185647,-0.000000,0.074373 LARM_JOINT2:0.833572,0.000000,-0.011641,-0.552288 LARM_JOINT3:0.969767,0.000000,-0.165825,-0.179038 LLEG_JOINT2:0.999623,0.015005,0.000000,0.023004 LLEG_JOINT4:0.995671,0.088166,0.000000,-0.029426 RARM_JOINT2:0.762399,0.000000,0.517051,0.389110 RARM_JOINT3:0.990738,0.000000,0.094697,0.097319 RLEG_JOINT2:0.998101,0.022602,0.000000,-0.057296 RLEG_JOINT4:0.995748,0.078446,0.000000,0.048298 WAIST:0.999952,-0.000000,0.007034,0.006783 WAIST_JOINT0:0.998329,-0.000000,0.044828,0.036466 WAIST_JOINT1:0.996741,0.080544,0.000000,-0.004536 END:
KINECT_DATA_Sensor  AnkleLeft:0.075988,0.723643,-0.069542,-0.682445 AnkleRight:0.071379,0.725160,0.071191,0.681161 ElbowLeft:-0.014891,0.899855,-0.211426,-0.381232 ElbowRight:-0.357021,0.917959,0.126904,-0.117399 FootLeft:0.000000,0.000000,0.000000,0.000000 FootRight:0.000000,0.000000,0.000000,0.000000 HandLeft:-0.067808,0.738145,-0.001911,0.671224 HandRight:-0.298370,0.761802,-0.265373,0.510108 HandTipLeft:0.000000,0.000000,0.000000,0.000000 HandTipRight:0.000000,0.000000,0.000000,0.000000 Head:0.000000,0.000000,0.000000,0.000000 HipLeft:0.107525,-0.674313,0.710125,-0.171650 HipRight:-0.117769,0.679566,0.699793,-0.186041 KneeLeft:0.010270,-0.701445,0.031706,0.711944 KneeRight:-0.020048,0.712351,0.051571,0.699639 Neck:-0.047307,0.006109,0.994124,-0.097167 ShoulderLeft:0.018563,0.765465,-0.639779,0.066339 ShoulderRight:-0.043791,0.799796,0.583835,-0.132456 SpineBase:-0.007831,-0.001698,0.998497,-0.054220 SpineMid:-0.027602,-0.000624,0.998146,-0.054243 SpineShoulder:-0.047480,0.004482,0.996046,-0.074952 ThumbLeft:0.000000,0.000000,0.000000,0.000000 ThumbRight:0.000000,0.000000,0.000000,0.000000 WristLeft:-0.055962,0.745148,-0.089783,0.658454 WristRight:-0.237675,0.786454,-0.237837,0.518106 END:
KINECT_DATA POSITION:18.104303,-1.228527,-13.385677 HEAD_JOINT1:0.980013,0.185910,-0.000000,0.070801 LARM_JOINT2:0.832292,0.000000,-0.013266,-0.554179 LARM_JOINT3:0.968688,0.000000,-0.171932,-0.179115 LLEG_JOINT2:0.999687,0.015162,0.000000,0.019896 LLEG_JOINT4:0.995719,0.088110,0.000000,-0.027944 RARM_JOINT2:0.758664,0.000000,0.380990,0.528466 RARM_JOINT3:0.969065,0.000000,0.243274,-0.041606 RLEG_JOINT2:0.997778,0.024578,0.000000,-0.061932 RLEG_JOINT4:0.995418,0.079563,0.000000,0.053040 WAIST:0.999895,-0.000000,0.011399,0.008936 WAIST_JOINT0:0.998067,-0.000000,0.049105,0.038090 WAIST_JOINT1:0.996717,0.080866,0.000000,-0.004036 END:
KINECT_DATA_Sensor  AnkleLeft:0.075738,0.718382,-0.069890,-0.687973 AnkleRight:0.074369,0.723530,0.072416,0.682444 ElbowLeft:-0.014803,0.898513,-0.211415,-0.384394 ElbowRight:-0.228405,0.809344,-0.069847,0.536577 FootLeft:0.000000,0.000000,0.000000,0.000000 FootRight:0.000000,0.000000,0.000000,0.000000 HandLeft:-0.094863,0.866070,0.002486,0.490833 HandRight:-0.300461,0.789520,-0.239250,0.478686 HandTipLeft:0.000000,0.000000,0.000000,0.000000 HandTipRight:0.000000,0.000000,0.000000,0.000000 Head:0.000000,0.000000,0.000000,0.000000 HipLeft:0.105063,-0.673276,0.711695,-0.170736 HipRight:-0.121385,0.680446,0.697534,-0.188957 KneeLeft:0.009389,-0.698340,0.031139,0.715027 KneeRight:-0.020696,0.715422,0.054600,0.696248 Neck:-0.051807,0.008317,0.993879,-0.097221 ShoulderLeft:0.021524,0.763903,-0.641826,0.063623 ShoulderRight:-0.046928,0.799731,0.582773,-0.136397 SpineBase:-0.012264,0.001088,0.998435,-0.054552 SpineMid:-0.032003,0.002167,0.997997,-0.054520 SpineShoulder:-0.051930,0.006806,0.995791,-0.075215 ThumbLeft:0.000000,0.000000,0.000000,0.000000 ThumbRight:0.000000,0.000000,0.000000,0.000000 WristLeft:-0.072617,0.871409,-0.076803,0.479035 WristRight:-0.362757,0.756469,-0.289298,0.460943 END:
KINECT_DATA POSITION:18.126333,-1.243126,-13.270950 HEAD_JOINT1:0.979768,0.187020,-0.000000,0.071261 LARM_JOINT2:0.832271,0.000000,-0.013650,-0.554202 LARM_JOINT3:0.967888,0.000000,-0.175827,-0.179658 LLEG_JOINT2:0.999721,0.015636,0.000000,0.017684 LLEG_JOINT4:0.996062,0.085444,0.000000,-0.023679 RARM_JOINT2:0.761899,0.000000,0.512989,0.395413 RARM_JOINT3:0.992282,0.000000,0.084991,0.090293 RLEG_JOINT2:0.997622,0.027076,0.000000,-0.063378 RLEG_JOINT4:0.995239,0.080859,0.000000,0.054408 WAIST:0.999844,-0.000000,0.014248,0.010460 WAIST_JOINT0:0.997999,-0.000000,0.050081,0.038605 WAIST_JOINT1:0.996774,0.080137,0.000000,-0.004508 END:
KINECT_DATA_Sensor  AnkleLeft:0.074377,0.741044,-0.068205,-0.663829 AnkleRight:0.076208,0.710185,0.075879,0.695753 ElbowLeft:-0.015365,0.897563,-0.211990,-0.386271 ElbowRight:-0.358674,0.924134,0.103370,-0.081514 FootLeft:0.000000,0.000000,0.000000,0.000000 FootRight:0.000000,0.000000,0.000000,0.000000 HandLeft:-0.104162,0.708121,-0.032897,0.697591 HandRight:-0.279637,0.757572,-0.241481,0.538121 HandTipLeft:0.000000,0.000000,0.000000,0.000000 HandTipRight:0.000000,0.000000,0.000000,0.000000 Head:0.000000,0.000000,0.000000,0.000000 HipLeft:0.103224,-0.672546,0.713017,-0.169214 HipRight:-0.123443,0.681196,0.696210,-0.189805 KneeLeft:0.008514,-0.696310,0.030970,0.717022 KneeRight:-0.019080,0.717489,0.056247,0.694033 Neck:-0.052819,0.008714,0.993900,-0.096418 ShoulderLeft:0.021491,0.763679,-0.642202,0.062516 ShoulderRight:-0.048318,0.800047,0.582140,-0.136761 SpineBase:-0.015156,0.003023,0.998411,-0.054197 SpineMid:-0.033884,0.004040,0.997951,-0.054130 SpineShoulder:-0.052897,0.007523,0.995792,-0.074460 ThumbLeft:0.000000,0.000000,0.000000,0.000000 ThumbRight:0.000000,0.000000,0.000000,0.000000 WristLeft:-0.050653,0.718948,-0.094173,0.686790 WristRight:-0.237703,0.773170,-0.250045,0.532150 END:
KINECT_DATA POSITION:18.134769,-1.272777,-13.155150 HEAD_JOINT1:0.979579,0.187604,-0.000000,0.072322 LARM_JOINT2:0.832291,0.000000,-0.013751,-0.554168 LARM_JOINT3:0.967032,0.000000,-0.178208,-0.181908 LLEG_JOINT2:0.999725,0.016827,0.000000,0.016339 LLEG_JOINT4:0.995963,0.085911,0.000000,-0.026022 RARM_JOINT2:0.767103,0.000000,0.386085,0.512339 RARM_JOINT3:0.963550,0.000000,0.266905,-0.018232 RLEG_JOINT2:0.997520,0.027751,0.000000,-0.064677 RLEG_JOINT4:0.995890,0.074725,0.000000,0.051185 WAIST:0.999827,-0.000000,0.014521,0.011601 WAIST_JOINT0:0.998074,-0.000000,0.048805,0.038290 WAIST_JOINT1:0.996852,0.079074,0.000000,-0.005739 END:
KINECT_DATA_Sensor  AnkleLeft:0.074648,0.714677,-0.070193,-0.691909 AnkleRight:0.072641,0.736353,0.071734,0.668851 ElbowLeft:-0.016354,0.897398,-0.211524,-0.386869 ElbowRight:-0.247857,0.835258,-0.053337,0.487921 FootLeft:0.000000,0.000000,0.000000,0.000000 FootRight:0.000000,0.000000,0.000000,0.000000 HandLeft:-0.117572,0.831558,-0.010752,0.542746 HandRight:-0.139775,0.487007,-0.397437,0.765069 HandTipLeft:0.000000,0.000000,0.000000,0.000000 HandTipRight:0.000000,0.000000,0.000000,0.000000 Head:0.000000,0.000000,0.000000,0.000000 HipLeft:0.103628,-0.671788,0.713898,-0.168263 HipRight:-0.124259,0.681981,0.695522,-0.188973 KneeLeft:0.007522,-0.696086,0.031642,0.717222 KneeRight:-0.018750,0.717736,0.056825,0.693740 Neck:-0.051493,0.008272,0.994107,-0.095028 ShoulderLeft:0.020476,0.764179,-0.641660,0.062324 ShoulderRight:-0.047499,0.800437,0.582164,-0.134647 SpineBase:-0.015488,0.003827,0.998464,-0.053057 SpineMid:-0.033345,0.004776,0.998027,-0.052981 SpineShoulder:-0.051549,0.007303,0.995935,-0.073499 ThumbLeft:0.000000,0.000000,0.000000,0.000000 ThumbRight:0.000000,0.000000,0.000000,0.000000 WristLeft:-0.070780,0.841022,-0.082529,0.529964 WristRight:-0.173334,0.467412,-0.436798,0.748792 END:
KINECT_DATA POSITION:18.169146,-1.408678,-12.621176 HEAD_JOINT1:0.982906,0.171601,-0.000000,0.066707 LARM_JOINT2:0.831587,0.000000,-0.019044,-0.555067 LARM_JOINT3:0.965698,0.000000,-0.178474,-0.188614 LLEG_JOINT2:0.999714,0.019116,0.000000,0.014374 LLEG_JOINT4:0.995710,0.089638,0.000000,-0.022941 RARM_JOINT2:0.770512,0.000000,0.467494,0.433314 RARM_JOINT3:0.967997,0.000000,0.248417,0.035643 RLEG_JOINT2:0.997062,0.036764,0.000000,-0.067200 RLEG_JOINT4:0.995857,0.070784,0.000000,0.057086 WAIST:0.999576,-0.000000,0.026335,0.012449 WAIST_JOINT0:0.997461,-0.000000,0.059191,0.039598 WAIST_JOINT1:0.997490,0.070584,0.000000,-0.005704 END:
KINECT_DATA_Sensor  AnkleLeft:-0.074851,-0.671351,0.078347,0.733176 AnkleRight:0.076432,0.727585,0.074830,0.677627 ElbowLeft:-0.022804,0.898491,-0.207024,-0.386438 ElbowRight:-0.341617,0.892417,-0.031684,0.293062 FootLeft:0.000000,0.000000,0.000000,0.000000 FootRight:0.000000,0.000000,0.000000,0.000000 HandLeft:-0.129300,0.698185,-0.042583,0.702856 HandRight:-0.091253,0.472794,-0.473856,0.737292 HandTipLeft:0.000000,0.000000,0.000000,0.000000 HandTipRight:0.000000,0.000000,0.000000,0.000000 Head:0.000000,0.000000,0.000000,0.000000 HipLeft:0.103683,-0.673218,0.714994,-0.157513 HipRight:-0.138504,0.681421,0.692751,-0.191253 KneeLeft:0.004826,-0.687651,0.032383,0.725303 KneeRight:-0.014505,0.725988,0.064177,0.684552 Neck:-0.061360,0.007578,0.994686,-0.082327 ShoulderLeft:0.017527,0.767071,-0.639169,0.052516 ShoulderRight:-0.063475,0.803076,0.575694,-0.140058 SpineBase:-0.027154,0.004679,0.998638,-0.044313 SpineMid:-0.044048,0.005429,0.998035,-0.044227 SpineShoulder:-0.061370,0.007173,0.995887,-0.066275 ThumbLeft:0.000000,0.000000,0.000000,0.000000 ThumbRight:0.000000,0.000000,0.000000,0.000000 WristLeft:-0.062361,0.714702,-0.098713,0.689615 WristRight:-0.109393,0.465409,-0.460825,0.747709 END:
KINECT_DATA POSITION:17.894213,-1.401234,-12.362242 HEAD_JOINT1:0.985760,0.158404,-0.000000,0.056441 LARM_JOINT2:0.830179,0.000000,-0.016840,-0.557243 LARM_JOINT3:0.969236,0.000000,-0.168808,-0.179125 LLEG_JOINT2:0.999605,0.017435,0.000000,0.022055 LLEG_JOINT4:0.995695,0.090607,0.000000,-0.019550 RARM_JOINT2:0.795028,0.000000,0.500875,0.342134 RARM_JOINT3:0.952604,0.000000,0.282884,0.111902 RLEG_JOINT2:0.997444,0.040076,0.000000,-0.059154 RLEG_JOINT4:0.996019,0.069075,0.000000,0.056347 WAIST:0.999194,-0.000000,0.039340,0.008019 WAIST_JOINT0:0.996696,-0.000000,0.074949,0.031303 WAIST_JOINT1:0.998156,0.060633,0.000000,-0.002718 END:
KINECT_DATA_Sensor  AnkleLeft:0.076501,0.713534,-0.076368,-0.692232 AnkleRight:0.077067,0.722149,0.076623,0.683147 ElbowLeft:-0.030024,0.885987,-0.200502,-0.417042 ElbowRight:-0.420243,0.899514,0.063538,0.101160 FootLeft:0.000000,0.000000,0.000000,0.000000 FootRight:0.000000,0.000000,0.000000,0.000000 HandLeft:-0.079533,0.810244,-0.013503,0.580514 HandRight:-0.126502,0.555898,-0.501498,0.650749 HandTipLeft:0.000000,0.000000,0.000000,0.000000 HandTipRight:0.000000,0.000000,0.000000,0.000000 Head:0.000000,0.000000,0.000000,0.000000 HipLeft:0.101773,-0.677809,0.712995,-0.147836 HipRight:-0.150440,0.676881,0.693560,-0.195384 KneeLeft:0.007827,-0.678375,0.033699,0.733901 KneeRight:-0.010433,0.734643,0.063948,0.675352 Neck:-0.076606,0.004795,0.994311,-0.073854 ShoulderLeft:0.018131,0.771105,-0.635496,0.034832 ShoulderRight:-0.082814,0.796948,0.579836,-0.147667 SpineBase:-0.039787,0.002148,0.998467,-0.038411 SpineMid:-0.058003,0.002848,0.997575,-0.038365 SpineShoulder:-0.076596,0.005247,0.995476,-0.055970 ThumbLeft:0.000000,0.000000,0.000000,0.000000 ThumbRight:0.000000,0.000000,0.000000,0.000000 WristLeft:-0.086845,0.812447,-0.100323,0.567735 WristRight:-0.106731,0.575452,-0.468314,0.661925 END:
KINECT_DATA POSITION:17.666929,-1.147571,-12.340605 HEAD_JOINT1:0.987893,0.146540,-0.000000,0.050931 LARM_JOINT2:0.829408,0.000000,-0.021923,-0.558213 LARM_JOINT3:0.968295,0.000000,-0.176450,-0.176834 LLEG_JOINT2:0.999428,0.012422,0.000000,0.031465 LLEG_JOINT4:0.995225,0.095717,0.000000,-0.019096 RARM_JOINT2:0.801271,0.000000,0.516131,0.302612 RARM_JOINT3:0.939517,0.000000,0.321560,0.117925 RLEG_JOINT2:0.998018,0.039672,0.000000,-0.048840 RLEG_JOINT4:0.995584,0.074642,0.000000,0.056929 WAIST:0.998574,-0.000000,0.053382,0.000493 WAIST_JOINT0:0.995800,-0.000000,0.088588,0.023138 WAIST_JOINT1:0.998380,0.056737,-0.000000,0.004337 END:
KINECT_DATA_Sensor  AnkleLeft:0.077994,0.717874,-0.075776,-0.687627 AnkleRight:0.082797,0.736480,0.078795,0.666733 ElbowLeft:-0.035152,0.877927,-0.196293,-0.435289 ElbowRight:-0.453614,0.885076,0.071629,0.075784 FootLeft:0.000000,0.000000,0.000000,0.000000 FootRight:0.000000,0.000000,0.000000,0.000000 HandLeft:-0.107783,0.821774,-0.023903,0.559016 HandRight:-0.123023,0.605509,-0.549371,0.562509 HandTipLeft:0.000000,0.000000,0.000000,0.000000 HandTipRight:0.000000,0.000000,0.000000,0.000000 Head:0.000000,0.000000,0.000000,0.000000 HipLeft:0.096157,-0.684113,0.709615,-0.138529 HipRight:-0.162057,0.669991,0.696324,-0.199958 KneeLeft:0.012122,-0.668324,0.032061,0.743081 KneeRight:-0.009345,0.743716,0.061822,0.665565 Neck:-0.090037,0.004190,0.993348,-0.071664 ShoulderLeft:0.023841,0.773777,-0.632644,0.021494 ShoulderRight:-0.094680,0.789428,0.585907,-0.156692 SpineBase:-0.053285,0.001033,0.997979,-0.034605 SpineMid:-0.071531,0.001666,0.996837,-0.034581 SpineShoulder:-0.090138,0.003800,0.994564,-0.051990 ThumbLeft:0.000000,0.000000,0.000000,0.000000 ThumbRight:0.000000,0.000000,0.000000,0.000000 WristLeft:-0.093469,0.826979,-0.106545,0.544075 WristRight:-0.132406,0.626318,-0.487567,0.593694 END:
KINECT_DATA POSITION:17.576038,-0.814063,-12.346220 HEAD_JOINT1:0.988616,0.142821,-0.000000,0.047329 LARM_JOINT2:0.830643,0.000000,-0.019645,-0.556458 LARM_JOINT3:0.968309,0.000000,-0.175075,-0.178119 LLEG_JOINT2:0.999377,0.009304,0.000000,0.034056 LLEG_JOINT4:0.994949,0.099386,0.000000,-0.014108 RARM_JOINT2:0.805051,0.000000,0.522537,0.280799 RARM_JOINT3:0.929922,0.000000,0.346821,0.122314 RLEG_JOINT2:0.998160,0.039354,0.000000,-0.046135 RLEG_JOINT4:0.995485,0.075956,0.000000,0.056918 WAIST:0.998089,0.000000,0.061769,-0.001512 WAIST_JOINT0:0.995386,-0.000000,0.094171,0.018426 WAIST_JOINT1:0.998492,0.054374,-0.000000,0.007540 END:
KINECT_DATA_Sensor  AnkleLeft:0.077186,0.723722,-0.078662,-0.681235 AnkleRight:0.083708,0.744489,0.079521,0.657575 ElbowLeft:-0.035945,0.871473,-0.199444,-0.446614 ElbowRight:-0.470847,0.876862,0.077869,0.057898 FootLeft:0.000000,0.000000,0.000000,0.000000 FootRight:0.000000,0.000000,0.000000,0.000000 HandLeft:-0.090304,0.672875,-0.039503,0.733160 HandRight:0.094911,-0.587033,0.589656,-0.546525 HandTipLeft:0.000000,0.000000,0.000000,0.000000 HandTipRight:0.000000,0.000000,0.000000,0.000000 Head:0.000000,0.000000,0.000000,0.000000 HipLeft:0.092461,-0.687216,0.708233,-0.132632 HipRight:-0.169246,0.668341,0.695283,-0.203120 KneeLeft:0.014490,-0.662120,0.030622,0.748632 KneeRight:-0.009471,0.749216,0.061123,0.659432 Neck:-0.094874,0.005325,0.993028,-0.069763 ShoulderLeft:0.023786,0.774450,-0.631952,0.017304 ShoulderRight:-0.101457,0.783274,0.591914,-0.160704 SpineBase:-0.061529,0.001492,0.997588,-0.032092 SpineMid:-0.078122,0.002026,0.996426,-0.032062 SpineShoulder:-0.095020,0.004223,0.994223,-0.049740 ThumbLeft:0.000000,0.000000,0.000000,0.000000 ThumbRight:0.000000,0.000000,0.000000,0.000000 WristLeft:-0.062817,0.673457,-0.131548,0.724710 WristRight:-0.108270,0.622465,-0.506565,0.586692 END:
KINECT_DATA POSITION:17.519812,-0.642727,-12.351775 HEAD_JOINT1:0.990018,0.133947,-0.000000,0.043853 LARM_JOINT2:0.830294,0.000000,-0.022296,-0.556879 LARM_JOINT3:0.967856,0.000000,-0.175638,-0.180018 LLEG_JOINT2:0.999347,0.008797,0.000000,0.035050 LLEG_JOINT4:0.994739,0.101231,0.000000,-0.015691 RARM_JOINT2:0.802646,0.000000,0.529941,0.273719 RARM_JOINT3:0.927807,0.000000,0.354975,0.114750 RLEG_JOINT2:0.998194,0.037921,0.000000,-0.046593 RLEG_JOINT4:0.995304,0.075699,0.000000,0.060324 WAIST:0.998022,0.000000,0.062832,-0.002023 WAIST_JOINT0:0.995121,-0.000000,0.097092,0.017550 WAIST_JOINT1:0.998346,0.056762,-0.000000,0.009092 END:
KINECT_DATA_Sensor  AnkleLeft:-0.070697,-0.650253,0.086068,0.751509 AnkleRight:0.083118,0.734706,0.078074,0.668733 ElbowLeft:-0.036008,0.870542,-0.199849,-0.448242 ElbowRight:-0.475261,0.875136,0.074288,0.052388 FootLeft:0.000000,0.000000,0.000000,0.000000 FootRight:0.000000,0.000000,0.000000,0.000000 HandLeft:-0.108888,0.853848,-0.003250,0.508995 HandRight:0.043891,-0.532188,0.625062,-0.569339 HandTipLeft:0.000000,0.000000,0.000000,0.000000 HandTipRight:0.000000,0.000000,0.000000,0.000000 Head:0.000000,0.000000,0.000000,0.000000 HipLeft:0.092024,-0.688192,0.707353,-0.132573 HipRight:-0.170623,0.668349,0.694700,-0.203935 KneeLeft:0.015132,-0.661353,0.030689,0.749294 KneeRight:-0.011190,0.749883,0.060706,0.658685 Neck:-0.097684,0.006658,0.992462,-0.073710 ShoulderLeft:0.032406,0.774704,-0.631377,0.012057 ShoulderRight:-0.096079,0.782593,0.593754,-0.160541 SpineBase:-0.062540,0.002118,0.997530,-0.031913 SpineMid:-0.080055,0.002679,0.996277,-0.031871 SpineShoulder:-0.097868,0.005140,0.993842,-0.051699 ThumbLeft:0.000000,0.000000,0.000000,0.000000 ThumbRight:0.000000,0.000000,0.000000,0.000000 WristLeft:-0.096585,0.859722,-0.108005,0.489780 WristRight:-0.070391,0.585298,-0.517178,0.620483 END:
KINECT_DATA POSITION:17.501373,-0.489239,-12.310684 HEAD_JOINT1:0.991542,0.123220,-0.000000,0.040750 LARM_JOINT2:0.829066,0.000000,-0.024722,-0.558604 LARM_JOINT3:0.967672,0.000000,-0.179004,-0.177675 LLEG_JOINT2:0.999287,0.008168,0.000000,0.036855 LLEG_JOINT4:0.995086,0.098061,0.000000,-0.013694 RARM_JOINT2:0.793289,0.000000,0.549630,0.261916 RARM_JOINT3:0.927141,0.000000,0.359450,0.105853 RLEG_JOINT2:0.998300,0.037471,0.000000,-0.044648 RLEG_JOINT4:0.995061,0.078308,0.000000,0.061000 WAIST:0.997900,0.000000,0.064658,-0.003792 WAIST_JOINT0:0.994950,-0.000000,0.098816,0.017575 WAIST_JOINT1:0.998251,0.057886,-0.000000,0.011972 END:
KINECT_DATA_Sensor  AnkleLeft:-0.066813,-0.649795,0.084981,0.752384 AnkleRight:0.085388,0.737928,0.079072,0.664770 ElbowLeft:-0.036868,0.868093,-0.198480,-0.453498 ElbowRight:-0.489204,0.867962,0.040229,0.075520 FootLeft:0.000000,0.000000,0.000000,0.000000 FootRight:0.000000,0.000000,0.000000,0.000000 HandLeft:-0.116590,0.814667,-0.015766,0.567870 HandRight:-0.095424,0.616246,-0.565013,0.540273 HandTipLeft:0.000000,0.000000,0.000000,0.000000 HandTipRight:0.000000,0.000000,0.000000,0.000000 Head:0.000000,0.000000,0.000000,0.000000 HipLeft:0.090303,-0.689556,0.706180,-0.132917 HipRight:-0.171778,0.666895,0.695310,-0.205639 KneeLeft:0.015482,-0.660091,0.030412,0.750410 KneeRight:-0.011390,0.751003,0.060314,0.657439 Neck:-0.099561,0.007909,0.992223,-0.074289 ShoulderLeft:0.039868,0.775171,-0.630450,0.007253 ShoulderRight:-0.090511,0.783830,0.593347,-0.159245 SpineBase:-0.064220,0.002505,0.997387,-0.033005 SpineMid:-0.081856,0.003088,0.996094,-0.032956 SpineShoulder:-0.099753,0.006042,0.993570,-0.053215 ThumbLeft:0.000000,0.000000,0.000000,0.000000 ThumbRight:0.000000,0.000000,0.000000,0.000000 WristLeft:-0.089188,0.824062,-0.116371,0.547198 WristRight:-0.099440,0.620343,-0.551089,0.549169 END:
KINECT_DATA POSITION:17.508337,-0.409317,-12.309504 HEAD_JOINT1:0.991545,0.124628,-0.000000,0.036137 LARM_JOINT2:0.828259,0.000000,-0.022797,-0.559881 LARM_JOINT3:0.968235,0.000000,-0.176743,-0.176868 LLEG_JOINT2:0.999289,0.007809,0.000000,0.036887 LLEG_JOINT4:0.994999,0.098892,0.000000,-0.014079 RARM_JOINT2:0.789844,0.000000,0.556580,0.257614 RARM_JOINT3:0.924450,0.000000,0.366558,0.105010 RLEG_JOINT2:0.998296,0.036980,0.000000,-0.045149 RLEG_JOINT4:0.994872,0.080507,0.000000,0.061217 WAIST:0.997821,0.000000,0.065862,-0.004030 WAIST_JOINT0:0.994630,-0.000000,0.101952,0.017810 WAIST_JOINT1:0.998321,0.056392,-0.000000,0.013267 END:
KINECT_DATA_Sensor  AnkleLeft:-0.067555,-0.647777,0.084880,0.754066 AnkleRight:0.086475,0.742118,0.080333,0.659795 ElbowLeft:-0.036317,0.867394,-0.198259,-0.454974 ElbowRight:-0.494320,0.866165,0.038672,0.062535 FootLeft:0.000000,0.000000,0.000000,0.000000 FootRight:0.000000,0.000000,0.000000,0.000000 HandLeft:-0.114033,0.892362,0.003529,0.436663 HandRight:0.000320,-0.518770,0.590425,-0.618285 HandTipLeft:0.000000,0.000000,0.000000,0.000000 HandTipRight:0.000000,0.000000,0.000000,0.000000 Head:0.000000,0.000000,0.000000,0.000000 HipLeft:0.089819,-0.689997,0.705951,-0.132174 HipRight:-0.173218,0.666841,0.694965,-0.205772 KneeLeft:0.015565,-0.659218,0.030054,0.751190 KneeRight:-0.012326,0.751785,0.060433,0.656518 Neck:-0.102645,0.009022,0.991978,-0.073230 ShoulderLeft:0.041266,0.774348,-0.631403,0.003594 ShoulderRight:-0.093228,0.783107,0.593587,-0.160331 SpineBase:-0.065390,0.003330,0.997328,-0.032395 SpineMid:-0.083960,0.003933,0.995937,-0.032327 SpineShoulder:-0.102814,0.007191,0.993333,-0.051644 ThumbLeft:0.000000,0.000000,0.000000,0.000000 ThumbRight:0.000000,0.000000,0.000000,0.000000 WristLeft:-0.103656,0.896758,-0.102155,0.417905 WristRight:-0.000363,-0.532340,0.562547,-0.632578 END:
KINECT_DATA POSITION:17.522493,-0.241008,-12.380945 HEAD_JOINT1:0.990738,0.131652,-0.000000,0.033256 LARM_JOINT2:0.826926,0.000000,-0.021201,-0.561912 LARM_JOINT3:0.970076,0.000000,-0.171175,-0.172196 LLEG_JOINT2:0.999380,0.005539,0.000000,0.034764 LLEG_JOINT4:0.994335,0.105436,0.000000,-0.013437 RARM_JOINT2:0.784405,0.000000,0.567664,0.249933 RARM_JOINT3:0.931644,0.000000,0.348521,0.102827 RLEG_JOINT2:0.998224,0.036284,0.000000,-0.047243 RLEG_JOINT4:0.994372,0.084918,0.000000,0.063342 WAIST:0.997590,0.000000,0.069357,-0.002184 WAIST_JOINT0:0.994290,-0.000000,0.105176,0.018049 WAIST_JOINT1:0.998437,0.054443,-0.000000,0.012603 END:
KINECT_DATA_Sensor  AnkleLeft:0.078800,0.713934,-0.080497,-0.691093 AnkleRight:0.090442,0.747721,0.081583,0.652746 ElbowLeft:-0.036387,0.864305,-0.196981,-0.461358 ElbowRight:-0.502404,0.863088,0.042528,0.029336 FootLeft:0.000000,0.000000,0.000000,0.000000 FootRight:0.000000,0.000000,0.000000,0.000000 HandLeft:-0.099341,0.858304,-0.005353,0.503406 HandRight:0.069385,-0.561840,0.602222,-0.562895 HandTipLeft:0.000000,0.000000,0.000000,0.000000 HandTipRight:0.000000,0.000000,0.000000,0.000000 Head:0.000000,0.000000,0.000000,0.000000 HipLeft:0.087939,-0.689255,0.707349,-0.129815 HipRight:-0.175570,0.667707,0.693110,-0.207223 KneeLeft:0.017077,-0.656507,0.028331,0.753594 KneeRight:-0.013260,0.754160,0.059948,0.653814 Neck:-0.105809,0.010077,0.991814,-0.070772 ShoulderLeft:0.041337,0.771526,-0.634851,0.001467 ShoulderRight:-0.097894,0.779943,0.596399,-0.162523 SpineBase:-0.068972,0.004452,0.997102,-0.031795 SpineMid:-0.087317,0.005037,0.995663,-0.031708 SpineShoulder:-0.105956,0.008194,0.993089,-0.049803 ThumbLeft:0.000000,0.000000,0.000000,0.000000 ThumbRight:0.000000,0.000000,0.000000,0.000000 WristLeft:-0.091605,0.862634,-0.112107,0.484669 WristRight:-0.054313,0.598195,-0.548002,0.582157 END:
KINECT_DATA POSITION:17.552986,-0.190454,-12.462795 HEAD_JOINT1:0.993038,0.111467,-0.000000,0.038079 LARM_JOINT2:0.826880,0.000000,-0.028938,-0.561633 LARM_JOINT3:0.969857,0.000000,-0.175270,-0.169289 LLEG_JOINT2:0.999405,0.004413,0.000000,0.034221 LLEG_JOINT4:0.994514,0.104155,0.000000,-0.009637 RARM_JOINT2:0.780203,0.000000,0.579394,0.235767 RARM_JOINT3:0.937057,0.000000,0.336543,0.093075 RLEG_JOINT2:0.998212,0.036307,0.000000,-0.047484 RLEG_JOINT4:0.994778,0.080481,0.000000,0.062765 WAIST:0.997487,0.000000,0.070817,-0.001968 WAIST_JOINT0:0.994033,-0.000000,0.107627,0.017763 WAIST_JOINT1:0.997980,0.062305,-0.000000,0.012432 END:
KINECT_DATA_Sensor  AnkleLeft:-0.066888,-0.644736,0.088487,0.756315 AnkleRight:0.085475,0.737024,0.080413,0.665599 ElbowLeft:-0.035759,0.862400,-0.197224,-0.464856 ElbowRight:-0.507922,0.860214,0.030500,0.033428 FootLeft:0.000000,0.000000,0.000000,0.000000 FootRight:0.000000,0.000000,0.000000,0.000000 HandLeft:-0.103044,0.837472,-0.010675,0.536571 HandRight:0.040244,-0.529694,0.585038,-0.612809 HandTipLeft:0.000000,0.000000,0.000000,0.000000 HandTipRight:0.000000,0.000000,0.000000,0.000000 Head:0.000000,0.000000,0.000000,0.000000 HipLeft:0.084870,-0.689087,0.707715,-0.130750 HipRight:-0.174363,0.667236,0.693120,-0.209708 KneeLeft:0.017681,-0.655442,0.027364,0.754543 KneeRight:-0.013362,0.755092,0.059953,0.652736 Neck:-0.108140,0.009800,0.990866,-0.079964 ShoulderLeft:0.058974,0.771395,-0.633605,-0.004152 ShoulderRight:-0.082369,0.779724,0.599299,-0.161512 SpineBase:-0.070393,0.004566,0.996902,-0.034790 SpineMid:-0.089229,0.005223,0.995393,-0.034697 SpineShoulder:-0.108336,0.007966,0.992435,-0.057211 ThumbLeft:0.000000,0.000000,0.000000,0.000000 ThumbRight:0.000000,0.000000,0.000000,0.000000 WristLeft:-0.086264,0.843878,-0.116368,0.516611 WristRight:0.020429,-0.552209,0.558806,-0.618372 END:
KINECT_DATA POSITION:17.609634,-0.169905,-12.541723 HEAD_JOINT1:0.991732,0.123208,-0.000000,0.035881 LARM_JOINT2:0.826604,0.000000,-0.023720,-0.562284 LARM_JOINT3:0.969592,0.000000,-0.176931,-0.169076 LLEG_JOINT2:0.999399,0.005379,0.000000,0.034233 LLEG_JOINT4:0.994677,0.102373,0.000000,-0.011741 RARM_JOINT2:0.777913,0.000000,0.581156,0.238976 RARM_JOINT3:0.940319,0.000000,0.325881,0.097994 RLEG_JOINT2:0.998201,0.035988,0.000000,-0.047963 RLEG_JOINT4:0.994671,0.080722,0.000000,0.064134 WAIST:0.997549,0.000000,0.069936,-0.002179 WAIST_JOINT0:0.993977,-0.000000,0.108223,0.017267 WAIST_JOINT1:0.998233,0.057941,-0.000000,0.013172 END:
KINECT_DATA_Sensor  AnkleLeft:-0.067561,-0.644163,0.086412,0.756982 AnkleRight:0.086920,0.743832,0.078867,0.657981 ElbowLeft:-0.035582,0.862983,-0.197349,-0.463732 ElbowRight:-0.510063,0.858869,0.022118,0.041113 FootLeft:0.000000,0.000000,0.000000,0.000000 FootRight:0.000000,0.000000,0.000000,0.000000 HandLeft:-0.111025,0.850881,-0.020820,0.513070 HandRight:-0.086874,0.585717,-0.553310,0.585864 HandTipLeft:0.000000,0.000000,0.000000,0.000000 HandTipRight:0.000000,0.000000,0.000000,0.000000 Head:0.000000,0.000000,0.000000,0.000000 HipLeft:0.085823,-0.689262,0.707353,-0.131164 HipRight:-0.174547,0.667477,0.693116,-0.208803 KneeLeft:0.016834,-0.656141,0.027840,0.753936 KneeRight:-0.014029,0.754501,0.060187,0.653383 Neck:-0.108600,0.010849,0.991257,-0.074146 ShoulderLeft:0.051829,0.771136,-0.634548,-0.003256 ShoulderRight:-0.090665,0.778407,0.599479,-0.162746 SpineBase:-0.069492,0.005065,0.996985,-0.034147 SpineMid:-0.088983,0.005732,0.995435,-0.034042 SpineShoulder:-0.108776,0.008686,0.992597,-0.053334 ThumbLeft:0.000000,0.000000,0.000000,0.000000 ThumbRight:0.000000,0.000000,0.000000,0.000000 WristLeft:-0.088819,0.856698,-0.113708,0.495227 WristRight:-0.068204,0.592757,-0.561110,0.573709 END:
KINECT_DATA POSITION:17.638918,-0.146455,-12.604904 HEAD_JOINT1:0.992305,0.117700,-0.000000,0.038442 LARM_JOINT2:0.827370,0.000000,-0.027002,-0.561007 LARM_JOINT3:0.969194,0.000000,-0.182613,-0.165271 LLEG_JOINT2:0.999389,0.004794,0.000000,0.034608 LLEG_JOINT4:0.994721,0.101797,0.000000,-0.012971 RARM_JOINT2:0.781031,0.000000,0.578698,0.234733 RARM_JOINT3:0.940868,0.000000,0.324880,0.096018 RLEG_JOINT2:0.998247,0.035047,0.000000,-0.047689 RLEG_JOINT4:0.994567,0.082429,0.000000,0.063573 WAIST:0.997613,0.000000,0.069019,-0.002278 WAIST_JOINT0:0.994021,-0.000000,0.107845,0.017062 WAIST_JOINT1:0.998039,0.061159,-0.000000,0.013305 END:
KINECT_DATA_Sensor  AnkleLeft:-0.067190,-0.644413,0.085044,0.756958 AnkleRight:0.086540,0.737604,0.080349,0.664827 ElbowLeft:-0.035956,0.863383,-0.198689,-0.462385 ElbowRight:-0.509415,0.859057,0.029049,0.040904 FootLeft:0.000000,0.000000,0.000000,0.000000 FootRight:0.000000,0.000000,0.000000,0.000000 HandLeft:-0.113186,0.828603,-0.047017,0.546256 HandRight:0.040150,-0.518362,0.559617,-0.645382 HandTipLeft:0.000000,0.000000,0.000000,0.000000 HandTipRight:0.000000,0.000000,0.000000,0.000000 Head:0.000000,0.000000,0.000000,0.000000 HipLeft:0.085954,-0.689251,0.707151,-0.132223 HipRight:-0.173718,0.667550,0.693283,-0.208705 KneeLeft:0.017477,-0.656845,0.027653,0.753315 KneeRight:-0.014463,0.753875,0.059379,0.654169 Neck:-0.108252,0.010767,0.990934,-0.078838 ShoulderLeft:0.055221,0.771255,-0.634121,-0.002610 ShoulderRight:-0.086696,0.778308,0.600115,-0.163043 SpineBase:-0.068554,0.005209,0.997027,-0.034779 SpineMid:-0.088344,0.005899,0.995469,-0.034669 SpineShoulder:-0.108440,0.008751,0.992483,-0.056057 ThumbLeft:0.000000,0.000000,0.000000,0.000000 ThumbRight:0.000000,0.000000,0.000000,0.000000 WristLeft:-0.084585,0.834169,-0.117861,0.532087 WristRight:0.013212,-0.531874,0.561923,-0.633387 END:
KINECT_DATA POSITION:17.638878,-0.120510,-12.634945 HEAD_JOINT1:0.991697,0.122201,-0.000000,0.040054 LARM_JOINT2:0.828164,0.000000,-0.027364,-0.559818 LARM_JOINT3:0.969042,0.000000,-0.180120,-0.168862 LLEG_JOINT2:0.999368,0.004549,0.000000,0.035243 LLEG_JOINT4:0.994632,0.102518,0.000000,-0.014049 RARM_JOINT2:0.783571,0.000000,0.573590,0.238769 RARM_JOINT3:0.941068,0.000000,0.325214,0.092877 RLEG_JOINT2:0.998287,0.034852,0.000000,-0.047001 RLEG_JOINT4:0.994834,0.080239,0.000000,0.062179 WAIST:0.997601,0.000000,0.069181,-0.002591 WAIST_JOINT0:0.994075,-0.000000,0.107331,0.017190 WAIST_JOINT1:0.998110,0.059848,-0.000000,0.013953 END:
KINECT_DATA_Sensor  AnkleLeft:-0.068116,-0.644562,0.084763,0.756780 AnkleRight:0.087600,0.766360,0.075492,0.631917 ElbowLeft:-0.036954,0.865524,-0.199938,-0.457741 ElbowRight:-0.506945,0.860131,0.029436,0.048124 FootLeft:0.000000,0.000000,0.000000,0.000000 FootRight:0.000000,0.000000,0.000000,0.000000 HandLeft:-0.113736,0.846954,-0.035124,0.518169 HandRight:0.063245,-0.536952,0.562079,-0.625899 HandTipLeft:0.000000,0.000000,0.000000,0.000000 HandTipRight:0.000000,0.000000,0.000000,0.000000 Head:0.000000,0.000000,0.000000,0.000000 HipLeft:0.085737,-0.689447,0.706973,-0.132289 HipRight:-0.173974,0.667373,0.693418,-0.208610 KneeLeft:0.017852,-0.656750,0.027755,0.753386 KneeRight:-0.014306,0.753970,0.058999,0.654097 Neck:-0.107976,0.010965,0.991111,-0.076939 ShoulderLeft:0.052263,0.770878,-0.634834,-0.001358 ShoulderRight:-0.089498,0.778311,0.599558,-0.163559 SpineBase:-0.068680,0.005626,0.997016,-0.034785 SpineMid:-0.088245,0.006308,0.995475,-0.034667 SpineShoulder:-0.108131,0.009132,0.992573,-0.054991 ThumbLeft:0.000000,0.000000,0.000000,0.000000 ThumbRight:0.000000,0.000000,0.000000,0.000000 WristLeft:-0.089096,0.852186,-0.114575,0.502706 WristRight:0.038089,-0.551178,0.560375,-0.617034 END:
KINECT_DATA POSITION:17.609804,-0.163089,-12.670124 HEAD_JOINT1:0.991927,0.117535,-0.000000,0.047604 LARM_JOINT2:0.828771,0.000000,-0.030129,-0.558776 LARM_JOINT3:0.968347,0.000000,-0.180640,-0.172260 LLEG_JOINT2:0.999378,0.003308,0.000000,0.035120 LLEG_JOINT4:0.994659,0.102277,0.000000,-0.013892 RARM_JOINT2:0.798702,0.000000,0.545561,0.253848 RARM_JOINT3:0.916893,0.000000,0.392024,0.075004 RLEG_JOINT2:0.998306,0.035011,0.000000,-0.046477 RLEG_JOINT4:0.994939,0.080929,0.000000,0.059554 WAIST:0.997674,0.000000,0.068120,-0.002381 WAIST_JOINT0:0.994320,-0.000000,0.104986,0.017494 WAIST_JOINT1:0.997942,0.062550,-0.000000,0.014107 END:
KINECT_DATA_Sensor  AnkleLeft:-0.066820,-0.646123,0.083972,0.755651 AnkleRight:0.084791,0.748722,0.079570,0.652606 ElbowLeft:-0.036544,0.867982,-0.201457,-0.452423 ElbowRight:-0.490443,0.863880,0.024431,0.112161 FootLeft:0.000000,0.000000,0.000000,0.000000 FootRight:0.000000,0.000000,0.000000,0.000000 HandLeft:-0.117871,0.856009,-0.026745,0.502633 HandRight:0.111094,-0.600249,0.601889,-0.514869 HandTipLeft:0.000000,0.000000,0.000000,0.000000 HandTipRight:0.000000,0.000000,0.000000,0.000000 Head:0.000000,0.000000,0.000000,0.000000 HipLeft:0.084720,-0.689067,0.707176,-0.133834 HipRight:-0.171934,0.667508,0.693749,-0.208768 KneeLeft:0.018886,-0.657578,0.026975,0.752666 KneeRight:-0.013600,0.753270,0.058637,0.654951 Neck:-0.106022,0.011032,0.991114,-0.079563 ShoulderLeft:0.055138,0.770102,-0.635534,0.000402 ShoulderRight:-0.083957,0.778754,0.600144,-0.162237 SpineBase:-0.067588,0.005995,0.997023,-0.036630 SpineMid:-0.086718,0.006697,0.995541,-0.036508 SpineShoulder:-0.106152,0.009497,0.992629,-0.057698 ThumbLeft:0.000000,0.000000,0.000000,0.000000 ThumbRight:0.000000,0.000000,0.000000,0.000000 WristLeft:-0.091696,0.861943,-0.111191,0.486088 WristRight:-0.105208,0.616368,-0.579896,0.522247 END:
KINECT_DATA POSITION:17.577253,-0.350773,-12.673056 HEAD_JOINT1:0.991144,0.123351,-0.000000,0.049183 LARM_JOINT2:0.828705,0.000000,-0.025305,-0.559113 LARM_JOINT3:0.967850,0.000000,-0.180466,-0.175208 LLEG_JOINT2:0.999349,0.005418,0.000000,0.035676 LLEG_JOINT4:0.994809,0.100504,0.000000,-0.015937 RARM_JOINT2:0.825696,0.000000,0.489740,0.279967 RARM_JOINT3:0.856821,0.000000,0.510234,0.074295 RLEG_JOINT2:0.998446,0.031737,0.000000,-0.045816 RLEG_JOINT4:0.994828,0.083261,0.000000,0.058188 WAIST:0.998216,0.000000,0.059623,-0.003203 WAIST_JOINT0:0.995203,-0.000000,0.096131,0.018141 WAIST_JOINT1:0.997795,0.064969,-0.000000,0.013600 END:
KINECT_DATA_Sensor  AnkleLeft:-0.067757,-0.651235,0.083185,0.751254 AnkleRight:0.083775,0.743557,0.079154,0.658665 ElbowLeft:-0.032769,0.869650,-0.201912,-0.449295 ElbowRight:-0.460599,0.864795,0.048359,0.194009 FootLeft:0.000000,0.000000,0.000000,0.000000 FootRight:0.000000,0.000000,0.000000,0.000000 HandLeft:-0.119186,0.830631,-0.016958,0.543654 HandRight:0.041770,-0.531757,0.634552,-0.559314 HandTipLeft:0.000000,0.000000,0.000000,0.000000 HandTipRight:0.000000,0.000000,0.000000,0.000000 Head:0.000000,0.000000,0.000000,0.000000 HipLeft:0.087706,-0.689147,0.705448,-0.140452 HipRight:-0.164883,0.668583,0.695286,-0.205884 KneeLeft:0.017335,-0.664049,0.028035,0.746962 KneeRight:-0.015395,0.747526,0.056429,0.661653 Neck:-0.097379,0.010111,0.991846,-0.081592 ShoulderLeft:0.054793,0.769410,-0.636370,0.006221 ShoulderRight:-0.072758,0.780300,0.601601,-0.154643 SpineBase:-0.059014,0.005510,0.997463,-0.039433 SpineMid:-0.078111,0.006264,0.996149,-0.039320 SpineShoulder:-0.097509,0.008671,0.993379,-0.060128 ThumbLeft:0.000000,0.000000,0.000000,0.000000 ThumbRight:0.000000,0.000000,0.000000,0.000000 WristLeft:-0.084281,0.839980,-0.111264,0.524357 WristRight:0.001116,-0.549673,0.644759,-0.531172 END:
KINECT_DATA POSITION:17.598135,-0.485127,-12.608469 HEAD_JOINT1:0.990179,0.131095,-0.000000,0.048577 LARM_JOINT2:0.828572,0.000000,-0.024655,-0.559340 LARM_JOINT3:0.967787,0.000000,-0.184351,-0.171475 LLEG_JOINT2:0.999328,0.007484,0.000000,0.035877 LLEG_JOINT4:0.995084,0.097725,0.000000,-0.016038 RARM_JOINT2:0.825154,0.000000,0.488371,0.283926 RARM_JOINT3:0.864112,0.000000,0.496881,0.080128 RLEG_JOINT2:0.998474,0.031882,0.000000,-0.045090 RLEG_JOINT4:0.994729,0.084727,0.000000,0.057758 WAIST:0.998359,0.000000,0.057148,-0.003712 WAIST_JOINT0:0.995630,-0.000000,0.091530,0.018532 WAIST_JOINT1:0.997833,0.064395,-0.000000,0.013492 END:
KINECT_DATA_Sensor  AnkleLeft:-0.067385,-0.654006,0.082519,0.748950 AnkleRight:0.084831,0.741094,0.080372,0.661153 ElbowLeft:-0.032848,0.871112,-0.201077,-0.446826 ElbowRight:-0.457914,0.866016,0.050414,0.194395 FootLeft:0.000000,0.000000,0.000000,0.000000 FootRight:0.000000,0.000000,0.000000,0.000000 HandLeft:-0.126603,0.851418,-0.031057,0.508030 HandRight:0.070334,-0.553766,0.612586,-0.559585 HandTipLeft:0.000000,0.000000,0.000000,0.000000 HandTipRight:0.000000,0.000000,0.000000,0.000000 Head:0.000000,0.000000,0.000000,0.000000 HipLeft:0.088325,-0.688746,0.705458,-0.141976 HipRight:-0.162769,0.668170,0.696536,-0.204679 KneeLeft:0.015640,-0.665952,0.029150,0.745261 KneeRight:-0.014984,0.745853,0.056444,0.663546 Neck:-0.092812,0.009441,0.992363,-0.080694 ShoulderLeft:0.051961,0.769854,-0.636038,0.008990 ShoulderRight:-0.069453,0.781869,0.601043,-0.150347 SpineBase:-0.056497,0.005305,0.997577,-0.040259 SpineMid:-0.074567,0.006033,0.996389,-0.040156 SpineShoulder:-0.092930,0.008121,0.993850,-0.059665 ThumbLeft:0.000000,0.000000,0.000000,0.000000 ThumbRight:0.000000,0.000000,0.000000,0.000000 WristLeft:-0.089359,0.859074,-0.106704,0.492567 WristRight:0.027138,-0.565498,0.637615,-0.522420 END:
KINECT_DATA POSITION:17.664587,-0.511260,-12.538147 HEAD_JOINT1:0.988736,0.142400,-0.000000,0.046073 LARM_JOINT2:0.827736,0.000000,-0.024452,-0.560585 LARM_JOINT3:0.970184,0.000000,-0.171957,-0.170806 LLEG_JOINT2:0.999365,0.006792,0.000000,0.034966 LLEG_JOINT4:0.994897,0.099900,0.000000,-0.014158 RARM_JOINT2:0.801504,0.000000,0.536937,0.263229 RARM_JOINT3:0.906204,0.000000,0.414107,0.085500 RLEG_JOINT2:0.998341,0.033840,0.000000,-0.046587 RLEG_JOINT4:0.994787,0.081403,0.000000,0.061426 WAIST:0.998098,0.000000,0.061590,-0.002773 WAIST_JOINT0:0.995525,-0.000000,0.092364,0.019976 WAIST_JOINT1:0.997954,0.062527,-0.000000,0.013372 END:
KINECT_DATA_Sensor  AnkleLeft:-0.067903,-0.653562,0.084319,0.749090 AnkleRight:0.084458,0.732390,0.079126,0.670977 ElbowLeft:-0.033094,0.869434,-0.200062,-0.450515 ElbowRight:-0.482323,0.867309,0.034959,0.117970 FootLeft:0.000000,0.000000,0.000000,0.000000 FootRight:0.000000,0.000000,0.000000,0.000000 HandLeft:-0.084870,0.845186,-0.014807,0.527484 HandRight:0.048635,-0.500136,0.593394,-0.628794 HandTipLeft:0.000000,0.000000,0.000000,0.000000 HandTipRight:0.000000,0.000000,0.000000,0.000000 Head:0.000000,0.000000,0.000000,0.000000 HipLeft:0.086835,-0.688464,0.706360,-0.139764 HipRight:-0.166664,0.667904,0.695067,-0.207386 KneeLeft:0.016078,-0.662592,0.028754,0.748256 KneeRight:-0.014371,0.748878,0.058185,0.659992 Neck:-0.093688,0.010018,0.992451,-0.078503 ShoulderLeft:0.049111,0.768502,-0.637890,0.009428 ShoulderRight:-0.073784,0.781817,0.600265,-0.151658 SpineBase:-0.060992,0.005897,0.997335,-0.039597 SpineMid:-0.077265,0.006542,0.996207,-0.039495 SpineShoulder:-0.093819,0.008393,0.993865,-0.057973 ThumbLeft:0.000000,0.000000,0.000000,0.000000 ThumbRight:0.000000,0.000000,0.000000,0.000000 WristLeft:-0.087391,0.847034,-0.109769,0.512687 WristRight:-0.022760,-0.534837,0.600397,-0.594100 END:
KINECT_DATA POSITION:17.753359,-0.464751,-12.474775 HEAD_JOINT1:0.988326,0.146617,-0.000000,0.041407 LARM_JOINT2:0.826838,0.000000,-0.026242,-0.561827 LARM_JOINT3:0.970865,0.000000,-0.168478,-0.170401 LLEG_JOINT2:0.999373,0.006421,0.000000,0.034811 LLEG_JOINT4:0.994597,0.102968,0.000000,-0.013186 RARM_JOINT2:0.798456,0.000000,0.540180,0.265846 RARM_JOINT3:0.924793,0.000000,0.369061,0.092475 RLEG_JOINT2:0.998269,0.035296,0.000000,-0.047042 RLEG_JOINT4:0.994648,0.082137,0.000000,0.062677 WAIST:0.997745,0.000000,0.067053,-0.003069 WAIST_JOINT0:0.994097,-0.000000,0.108043,0.009878 WAIST_JOINT1:0.997821,0.064370,-0.000000,0.014488 END:
KINECT_DATA_Sensor  AnkleLeft:0.077932,0.717688,-0.079099,-0.687455 AnkleRight:0.085875,0.735994,0.080894,0.666629 ElbowLeft:-0.031153,0.867706,-0.199685,-0.454138 ElbowRight:-0.479627,0.870058,0.028240,0.110267 FootLeft:0.000000,0.000000,0.000000,0.000000 FootRight:0.000000,0.000000,0.000000,0.000000 HandLeft:-0.076707,0.876548,-0.002050,0.475158 HandRight:-0.079420,0.576343,-0.547847,0.601153 HandTipLeft:0.000000,0.000000,0.000000,0.000000 HandTipRight:0.000000,0.000000,0.000000,0.000000 Head:0.000000,0.000000,0.000000,0.000000 HipLeft:0.083702,-0.688826,0.706880,-0.137236 HipRight:-0.170472,0.666460,0.694598,-0.210484 KneeLeft:0.015877,-0.658554,0.028284,0.751834 KneeRight:-0.014263,0.752473,0.059722,0.655754 Neck:-0.109580,0.011280,0.990585,-0.081280 ShoulderLeft:0.050032,0.767951,-0.638514,0.006889 ShoulderRight:-0.095773,0.766116,0.611382,-0.173513 SpineBase:-0.066389,0.006560,0.996980,-0.039753 SpineMid:-0.087869,0.007416,0.995317,-0.039602 SpineShoulder:-0.109750,0.009442,0.992130,-0.059528 ThumbLeft:0.000000,0.000000,0.000000,0.000000 ThumbRight:0.000000,0.000000,0.000000,0.000000 WristLeft:-0.091169,0.876350,-0.104262,0.461334 WristRight:-0.061064,0.577078,-0.573847,0.577886 END:
KINECT_DATA POSITION:17.833359,-0.406236,-12.480677 HEAD_JOINT1:0.988345,0.146566,-0.000000,0.041131 LARM_JOINT2:0.826790,0.000000,-0.023587,-0.562016 LARM_JOINT3:0.971029,0.000000,-0.167559,-0.170371 LLEG_JOINT2:0.999414,0.007382,0.000000,0.033420 LLEG_JOINT4:0.994966,0.099191,0.000000,-0.014287 RARM_JOINT2:0.790469,0.000000,0.559858,0.248433 RARM_JOINT3:0.948413,0.000000,0.303166,0.092748 RLEG_JOINT2:0.998176,0.036142,0.000000,-0.048355 RLEG_JOINT4:0.994534,0.083687,0.000000,0.062439 WAIST:0.997571,0.000000,0.069616,-0.002329 WAIST_JOINT0:0.994302,-0.000000,0.105348,0.016287 WAIST_JOINT1:0.997757,0.065510,-0.000000,0.013779 END:
KINECT_DATA_Sensor  AnkleLeft:-0.069064,-0.645568,0.082955,0.756036 AnkleRight:0.086662,0.738178,0.083319,0.663808 ElbowLeft:-0.027650,0.866144,-0.200837,-0.456832 ElbowRight:-0.492881,0.867488,0.039806,0.054290 FootLeft:0.000000,0.000000,0.000000,0.000000 FootRight:0.000000,0.000000,0.000000,0.000000 HandLeft:-0.067383,0.825352,-0.007554,0.560533 HandRight:-0.112083,0.588911,-0.537104,0.593415 HandTipLeft:0.000000,0.000000,0.000000,0.000000 HandTipRight:0.000000,0.000000,0.000000,0.000000 Head:0.000000,0.000000,0.000000,0.000000 HipLeft:0.081125,-0.688427,0.707856,-0.135744 HipRight:-0.170770,0.666278,0.694207,-0.212101 KneeLeft:0.014684,-0.656612,0.028433,0.753550 KneeRight:-0.014317,0.754185,0.060670,0.653696 Neck:-0.106570,0.010640,0.990815,-0.082553 ShoulderLeft:0.054599,0.767532,-0.638658,0.005521 ShoulderRight:-0.086186,0.773723,0.604888,-0.167435 SpineBase:-0.068989,0.006484,0.996766,-0.040703 SpineMid:-0.087690,0.007247,0.995295,-0.040574 SpineShoulder:-0.106739,0.008935,0.992394,-0.060673 ThumbLeft:0.000000,0.000000,0.000000,0.000000 ThumbRight:0.000000,0.000000,0.000000,0.000000 WristLeft:-0.078589,0.826858,-0.111305,0.545656 WristRight:-0.109409,0.593595,-0.528158,0.597264 END:
KINECT_DATA POSITION:17.867149,-0.361662,-12.498867 HEAD_JOINT1:0.987876,0.150213,-0.000000,0.039207 LARM_JOINT2:0.827086,0.000000,-0.021430,-0.561667 LARM_JOINT3:0.969776,0.000000,-0.174650,-0.170385 LLEG_JOINT2:0.999428,0.007382,0.000000,0.032990 LLEG_JOINT4:0.995014,0.099021,0.000000,-0.011903 RARM_JOINT2:0.789410,0.000000,0.561603,0.247860 RARM_JOINT3:0.953836,0.000000,0.282577,0.101718 RLEG_JOINT2:0.998136,0.036847,0.000000,-0.048655 RLEG_JOINT4:0.995000,0.080090,0.000000,0.059666 WAIST:0.997357,0.000000,0.072631,-0.001719 WAIST_JOINT0:0.993638,-0.000000,0.111388,0.016636 WAIST_JOINT1:0.997771,0.065315,-0.000000,0.013673 END:
KINECT_DATA_Sensor  AnkleLeft:-0.067371,-0.642352,0.084618,0.758739 AnkleRight:0.083396,0.746742,0.082202,0.654724 ElbowLeft:-0.025476,0.865474,-0.202466,-0.457508 ElbowRight:-0.493236,0.867978,0.044194,0.037135 FootLeft:0.000000,0.000000,0.000000,0.000000 FootRight:0.000000,0.000000,0.000000,0.000000 HandLeft:-0.077696,0.738595,-0.040101,0.668455 HandRight:-0.090032,0.588763,-0.521186,0.611242 HandTipLeft:0.000000,0.000000,0.000000,0.000000 HandTipRight:0.000000,0.000000,0.000000,0.000000 Head:0.000000,0.000000,0.000000,0.000000 HipLeft:0.078558,-0.688260,0.708724,-0.133556 HipRight:-0.171772,0.666178,0.693704,-0.213250 KneeLeft:0.014743,-0.654317,0.028587,0.755536 KneeRight:-0.013827,0.756201,0.060930,0.651349 Neck:-0.112496,0.011302,0.990186,-0.082147 ShoulderLeft:0.054183,0.766436,-0.640015,0.004645 ShoulderRight:-0.095097,0.771141,0.604676,-0.175114 SpineBase:-0.072029,0.006805,0.996540,-0.040914 SpineMid:-0.092159,0.007631,0.994880,-0.040768 SpineShoulder:-0.112682,0.009386,0.991742,-0.060521 ThumbLeft:0.000000,0.000000,0.000000,0.000000 ThumbRight:0.000000,0.000000,0.000000,0.000000 WristLeft:-0.062371,0.743955,-0.120138,0.654376 WristRight:-0.109509,0.580659,-0.515533,0.620539 END:
KINECT_DATA POSITION:17.851812,-0.287751,-12.576914 HEAD_JOINT1:0.987011,0.155329,-0.000000,0.041022 LARM_JOINT2:0.827801,0.000000,-0.023745,-0.560519 LARM_JOINT3:0.970578,0.000000,-0.170487,-0.170038 LLEG_JOINT2:0.999453,0.005974,0.000000,0.032535 LLEG_JOINT4:0.995018,0.099060,0.000000,-0.011237 RARM_JOINT2:0.789448,0.000000,0.559233,0.253042 RARM_JOINT3:0.959372,0.000000,0.262976,0.102220 RLEG_JOINT2:0.998070,0.038566,0.000000,-0.048663 RLEG_JOINT4:0.994705,0.082225,0.000000,0.061658 WAIST:0.996993,0.000000,0.077489,-0.001079 WAIST_JOINT0:0.992824,-0.000000,0.118566,0.015572 WAIST_JOINT1:0.997758,0.065402,-0.000000,0.014226 END:
KINECT_DATA_Sensor  AnkleLeft:0.077245,0.738832,-0.073952,-0.665350 AnkleRight:0.087440,0.749327,0.083791,0.651031 ElbowLeft:-0.026098,0.865253,-0.204335,-0.457059 ElbowRight:-0.488285,0.871026,0.051678,0.014870 FootLeft:0.000000,0.000000,0.000000,0.000000 FootRight:0.000000,0.000000,0.000000,0.000000 HandLeft:-0.070085,0.694295,-0.042840,0.714988 HandRight:-0.118713,0.604857,-0.518310,0.592798 HandTipLeft:0.000000,0.000000,0.000000,0.000000 HandTipRight:0.000000,0.000000,0.000000,0.000000 Head:0.000000,0.000000,0.000000,0.000000 HipLeft:0.074654,-0.688265,0.709656,-0.130790 HipRight:-0.173580,0.665758,0.692874,-0.215785 KneeLeft:0.015825,-0.650624,0.027858,0.758724 KneeRight:-0.012546,0.759424,0.061725,0.647540 Neck:-0.119620,0.012563,0.989327,-0.082252 ShoulderLeft:0.052335,0.765841,-0.640879,0.004737 ShoulderRight:-0.107459,0.766937,0.604844,-0.185534 SpineBase:-0.076898,0.007168,0.996143,-0.041643 SpineMid:-0.098155,0.008056,0.994274,-0.041481 SpineShoulder:-0.119828,0.010326,0.990888,-0.060635 ThumbLeft:0.000000,0.000000,0.000000,0.000000 ThumbRight:0.000000,0.000000,0.000000,0.000000 WristLeft:-0.049926,0.701680,-0.124447,0.699761 WristRight:-0.132725,0.606862,-0.492494,0.609551 END:
KINECT_DATA POSITION:17.823380,-0.238531,-12.660027 HEAD_JOINT1:0.986885,0.155699,-0.000000,0.042621 LARM_JOINT2:0.828250,0.000000,-0.023730,-0.559857 LARM_JOINT3:0.968981,0.000000,-0.173642,-0.175854 LLEG_JOINT2:0.999464,0.005220,0.000000,0.032332 LLEG_JOINT4:0.995422,0.094683,0.000000,-0.013013 RARM_JOINT2:0.802459,0.000000,0.538593,0.256860 RARM_JOINT3:0.942619,0.000000,0.321805,0.088948 RLEG_JOINT2:0.998036,0.039524,0.000000,-0.048606 RLEG_JOINT4:0.995294,0.075577,0.000000,0.060643 WAIST:0.996851,0.000000,0.079287,-0.000900 WAIST_JOINT0:0.992780,-0.000000,0.118931,0.015622 WAIST_JOINT1:0.997703,0.066179,-0.000000,0.014451 END:
