EastLYD/RoboCupatHomeSim/InteractiveCleanUp/JapanOpen2016/Motion_Data/File66.dat
KINECT_DATA POSITION:21.535583,-4.069653,-6.601977 HEAD_JOINT1:0.983788,0.159109,-0.000000,0.082733 LARM_JOINT2:0.820503,0.000000,-0.019910,-0.571295 LARM_JOINT3:0.973835,0.000000,-0.157908,-0.163433 LLEG_JOINT2:0.998015,0.024221,0.000000,0.058136 LLEG_JOINT4:0.994849,0.094092,0.000000,-0.037705 RARM_JOINT2:0.800191,0.000000,-0.071187,0.595506 RARM_JOINT3:0.970203,0.000000,0.176898,0.165567 RLEG_JOINT2:0.998878,0.012840,0.000000,-0.045590 RLEG_JOINT4:0.992757,0.115620,0.000000,0.032639 WAIST:0.999983,-0.000000,0.004201,0.003973 WAIST_JOINT0:0.999822,0.000000,-0.007225,0.017453 WAIST_JOINT1:0.997015,0.076503,0.000000,-0.010388 END:
KINECT_DATA_Sensor  AnkleLeft:0.072101,0.731672,-0.096431,-0.670938 AnkleRight:0.085390,0.709770,0.096076,0.692607 ElbowLeft:-0.015718,0.899337,-0.178390,-0.398901 ElbowRight:0.041386,0.858455,0.194585,0.472736 FootLeft:0.000000,0.000000,0.000000,0.000000 FootRight:0.000000,0.000000,0.000000,0.000000 HandLeft:-0.071538,0.865934,0.034039,0.493844 HandRight:-0.073038,0.746633,-0.047041,-0.659539 HandTipLeft:0.000000,0.000000,0.000000,0.000000 HandTipRight:0.000000,0.000000,0.000000,0.000000 Head:0.000000,0.000000,0.000000,0.000000 HipLeft:0.109007,-0.677588,0.707352,-0.169252 HipRight:-0.120197,0.678007,0.700715,-0.186703 KneeLeft:0.026484,-0.703141,0.061163,0.707919 KneeRight:-0.020475,0.710346,0.038438,0.702504 Neck:0.005509,-0.008795,0.995631,-0.092802 ShoulderLeft:0.021969,0.775530,-0.626888,0.071293 ShoulderRight:0.030330,0.792377,0.606351,-0.059644 SpineBase:-0.004873,-0.005332,0.998630,-0.051824 SpineMid:0.000276,-0.005599,0.998642,-0.051796 SpineShoulder:0.005525,-0.007102,0.997430,-0.071084 ThumbLeft:0.000000,0.000000,0.000000,0.000000 ThumbRight:0.000000,0.000000,0.000000,0.000000 WristLeft:-0.085083,0.869487,-0.065578,0.482133 WristRight:-0.038676,0.760931,0.061299,-0.644772 END:
KINECT_DATA POSITION:21.503687,-4.079701,-6.718469 HEAD_JOINT1:0.983653,0.159893,-0.000000,0.082834 LARM_JOINT2:0.820219,0.000000,-0.019252,-0.571726 LARM_JOINT3:0.974176,0.000000,-0.157227,-0.162053 LLEG_JOINT2:0.997995,0.025247,0.000000,0.058039 LLEG_JOINT4:0.994430,0.097879,0.000000,-0.039110 RARM_JOINT2:0.799849,0.000000,-0.072568,0.595798 RARM_JOINT3:0.970507,0.000000,0.175518,0.165259 RLEG_JOINT2:0.998906,0.013356,0.000000,-0.044807 RLEG_JOINT4:0.993037,0.113714,0.000000,0.030777 WAIST:0.999986,-0.000000,0.003671,0.003790 WAIST_JOINT0:0.999812,0.000000,-0.008254,0.017560 WAIST_JOINT1:0.996980,0.076922,0.000000,-0.010715 END:
KINECT_DATA_Sensor  AnkleLeft:0.074867,0.718481,-0.099830,-0.684262 AnkleRight:0.083547,0.709527,0.095984,0.693093 ElbowLeft:-0.013946,0.900933,-0.177916,-0.395563 ElbowRight:0.043026,0.858507,0.195222,0.472232 FootLeft:0.000000,0.000000,0.000000,0.000000 FootRight:0.000000,0.000000,0.000000,0.000000 HandLeft:-0.076953,0.641056,0.001163,0.763626 HandRight:-0.059853,0.739143,-0.048417,-0.669135 HandTipLeft:0.000000,0.000000,0.000000,0.000000 HandTipRight:0.000000,0.000000,0.000000,0.000000 Head:0.000000,0.000000,0.000000,0.000000 HipLeft:0.109058,-0.677558,0.707252,-0.169751 HipRight:-0.119435,0.677813,0.701002,-0.186816 KneeLeft:0.025586,-0.703549,0.061675,0.707503 KneeRight:-0.019662,0.710010,0.038395,0.702869 Neck:0.006429,-0.009330,0.995589,-0.093136 ShoulderLeft:0.021729,0.775312,-0.627053,0.072276 ShoulderRight:0.031333,0.792499,0.606195,-0.059085 SpineBase:-0.004354,-0.005791,0.998603,-0.052349 SpineMid:0.000989,-0.006071,0.998612,-0.052317 SpineShoulder:0.006441,-0.007596,0.997389,-0.071526 ThumbLeft:0.000000,0.000000,0.000000,0.000000 ThumbRight:0.000000,0.000000,0.000000,0.000000 WristLeft:-0.055300,0.642903,-0.088539,0.758801 WristRight:-0.039099,0.751814,0.060748,-0.655406 END:
KINECT_DATA POSITION:21.442492,-4.092758,-6.818783 HEAD_JOINT1:0.983562,0.160300,-0.000000,0.083128 LARM_JOINT2:0.820143,0.000000,-0.018993,-0.571844 LARM_JOINT3:0.974376,0.000000,-0.156711,-0.161349 LLEG_JOINT2:0.997985,0.023728,0.000000,0.058843 LLEG_JOINT4:0.994804,0.094146,0.000000,-0.038744 RARM_JOINT2:0.799092,0.000000,-0.074853,0.596531 RARM_JOINT3:0.970992,0.000000,0.174585,0.163385 RLEG_JOINT2:0.998942,0.013198,0.000000,-0.044056 RLEG_JOINT4:0.993243,0.112059,0.000000,0.030187 WAIST:0.999987,-0.000000,0.003592,0.003500 WAIST_JOINT0:0.999814,0.000000,-0.008634,0.017220 WAIST_JOINT1:0.996939,0.077403,0.000000,-0.010975 END:
KINECT_DATA_Sensor  AnkleLeft:0.070471,0.719570,-0.096908,-0.684004 AnkleRight:0.082145,0.709552,0.094833,0.693394 ElbowLeft:-0.013327,0.900456,-0.177556,-0.396832 ElbowRight:0.044845,0.857018,0.195861,0.474498 FootLeft:0.000000,0.000000,0.000000,0.000000 FootRight:0.000000,0.000000,0.000000,0.000000 HandLeft:-0.066339,0.901439,0.033886,0.426449 HandRight:-0.048011,0.756956,-0.049577,-0.649811 HandTipLeft:0.000000,0.000000,0.000000,0.000000 HandTipRight:0.000000,0.000000,0.000000,0.000000 Head:0.000000,0.000000,0.000000,0.000000 HipLeft:0.108739,-0.677647,0.707114,-0.170176 HipRight:-0.118664,0.677416,0.701322,-0.187546 KneeLeft:0.027040,-0.703511,0.060967,0.707548 KneeRight:-0.019440,0.710001,0.037960,0.702908 Neck:0.006762,-0.009954,0.995553,-0.093434 ShoulderLeft:0.022162,0.775519,-0.626738,0.072656 ShoulderRight:0.032245,0.792382,0.606316,-0.058918 SpineBase:-0.004303,-0.006637,0.998551,-0.053222 SpineMid:0.001161,-0.006928,0.998560,-0.053185 SpineShoulder:0.006772,-0.008145,0.997344,-0.072058 ThumbLeft:0.000000,0.000000,0.000000,0.000000 ThumbRight:0.000000,0.000000,0.000000,0.000000 WristLeft:-0.087085,0.902751,-0.056820,0.417406 WristRight:-0.039416,0.767133,0.059201,-0.637533 END:
KINECT_DATA POSITION:21.397715,-4.109125,-6.785274 HEAD_JOINT1:0.983376,0.160808,-0.000000,0.084337 LARM_JOINT2:0.820478,0.000000,-0.020329,-0.571317 LARM_JOINT3:0.970550,0.000000,-0.182317,-0.157456 LLEG_JOINT2:0.997941,0.023929,0.000000,0.059514 LLEG_JOINT4:0.994395,0.097091,0.000000,-0.041865 RARM_JOINT2:0.797840,0.000000,-0.075667,0.598101 RARM_JOINT3:0.969591,0.000000,0.181405,0.164273 RLEG_JOINT2:0.998993,0.012344,0.000000,-0.043134 RLEG_JOINT4:0.992951,0.114696,0.000000,0.029880 WAIST:0.999992,-0.000000,0.002710,0.003032 WAIST_JOINT0:0.999809,0.000000,-0.009982,0.016808 WAIST_JOINT1:0.996959,0.077103,0.000000,-0.011337 END:
KINECT_DATA_Sensor  AnkleLeft:0.072387,0.703567,-0.098664,-0.700014 AnkleRight:0.083597,0.708589,0.095920,0.694055 ElbowLeft:-0.015944,0.898085,-0.176638,-0.402478 ElbowRight:0.044962,0.854350,0.195107,0.479580 FootLeft:0.000000,0.000000,0.000000,0.000000 FootRight:0.000000,0.000000,0.000000,0.000000 HandLeft:-0.117958,0.492918,-0.088856,0.857451 HandRight:-0.072727,0.760960,-0.040084,-0.643462 HandTipLeft:0.000000,0.000000,0.000000,0.000000 HandTipRight:0.000000,0.000000,0.000000,0.000000 Head:0.000000,0.000000,0.000000,0.000000 HipLeft:0.109885,-0.677966,0.706607,-0.170275 HipRight:-0.118463,0.677287,0.701645,-0.186931 KneeLeft:0.027090,-0.704151,0.061234,0.706886 KneeRight:-0.019685,0.709379,0.037054,0.703577 Neck:0.008088,-0.011036,0.995556,-0.093172 ShoulderLeft:0.021282,0.775760,-0.626397,0.073286 ShoulderRight:0.033131,0.792193,0.606657,-0.057440 SpineBase:-0.003403,-0.007356,0.998580,-0.052649 SpineMid:0.002275,-0.007655,0.998583,-0.052606 SpineShoulder:0.008121,-0.008840,0.997351,-0.071741 ThumbLeft:0.000000,0.000000,0.000000,0.000000 ThumbRight:0.000000,0.000000,0.000000,0.000000 WristLeft:-0.041225,0.498817,-0.101116,0.859801 WristRight:-0.040094,0.773000,0.060034,-0.630286 END:
KINECT_DATA POSITION:21.318077,-4.169877,-6.661689 HEAD_JOINT1:0.983792,0.155939,-0.000000,0.088524 LARM_JOINT2:0.827180,0.000000,-0.052158,-0.559511 LARM_JOINT3:0.960759,0.000000,-0.220628,-0.168121 LLEG_JOINT2:0.997871,0.022904,0.000000,0.061062 LLEG_JOINT4:0.994298,0.098724,0.000000,-0.040312 RARM_JOINT2:0.794142,0.000000,-0.075050,0.603080 RARM_JOINT3:0.970346,0.000000,0.176958,0.164664 RLEG_JOINT2:0.999074,0.011655,0.000000,-0.041419 RLEG_JOINT4:0.993018,0.114268,0.000000,0.029278 WAIST:0.999995,0.000000,-0.002778,0.001787 WAIST_JOINT0:0.999647,0.000000,-0.021466,0.015682 WAIST_JOINT1:0.997038,0.075887,0.000000,-0.012472 END:
KINECT_DATA_Sensor  AnkleLeft:0.071691,0.712108,-0.100322,-0.691157 AnkleRight:0.082881,0.702273,0.095109,0.700640 ElbowLeft:-0.044183,0.905653,-0.173827,-0.384220 ElbowRight:0.044043,0.846448,0.191201,0.495004 FootLeft:0.000000,0.000000,0.000000,0.000000 FootRight:0.000000,0.000000,0.000000,0.000000 HandLeft:-0.190836,0.517722,-0.151675,0.820086 HandRight:-0.071365,0.761479,-0.069290,-0.640512 HandTipLeft:0.000000,0.000000,0.000000,0.000000 HandTipRight:0.000000,0.000000,0.000000,0.000000 Head:0.000000,0.000000,0.000000,0.000000 HipLeft:0.115800,-0.678095,0.704937,-0.172746 HipRight:-0.117191,0.677152,0.702808,-0.183826 KneeLeft:-0.028359,0.708013,-0.060581,-0.703024 KneeRight:-0.019631,0.705499,0.036351,0.707506 Neck:0.019361,-0.014293,0.995527,-0.091359 ShoulderLeft:0.015809,0.776801,-0.624558,0.079099 ShoulderRight:0.042310,0.792157,0.607147,-0.045483 SpineBase:0.002130,-0.008945,0.998671,-0.050715 SpineMid:0.010692,-0.009380,0.998616,-0.050637 SpineShoulder:0.019483,-0.010940,0.997248,-0.070684 ThumbLeft:0.000000,0.000000,0.000000,0.000000 ThumbRight:0.000000,0.000000,0.000000,0.000000 WristLeft:-0.084885,0.533424,-0.124982,0.832246 WristRight:-0.041660,0.779791,0.063597,-0.621407 END:
KINECT_DATA POSITION:21.215374,-4.252298,-6.473911 HEAD_JOINT1:0.984547,0.144971,-0.000000,0.098242 LARM_JOINT2:0.831523,0.000000,-0.062533,-0.551960 LARM_JOINT3:0.958662,0.000000,-0.222565,-0.177290 LLEG_JOINT2:0.997728,0.022539,0.000000,0.063489 LLEG_JOINT4:0.993802,0.103193,0.000000,-0.041349 RARM_JOINT2:0.789205,0.000000,-0.082286,0.608593 RARM_JOINT3:0.970134,0.000000,0.180956,0.161537 RLEG_JOINT2:0.999102,0.013145,0.000000,-0.040284 RLEG_JOINT4:0.993352,0.111464,0.000000,0.028752 WAIST:0.999953,0.000000,-0.009625,0.001027 WAIST_JOINT0:0.999188,0.000000,-0.037992,0.013423 WAIST_JOINT1:0.997270,0.072228,0.000000,-0.015375 END:
KINECT_DATA_Sensor  AnkleLeft:0.074548,0.723058,-0.103345,-0.678933 AnkleRight:0.081866,0.693100,0.094274,0.709946 ElbowLeft:-0.056327,0.913055,-0.172830,-0.365086 ElbowRight:0.046880,0.836739,0.188627,0.511947 FootLeft:0.000000,0.000000,0.000000,0.000000 FootRight:0.000000,0.000000,0.000000,0.000000 HandLeft:0.003651,-0.383497,-0.246426,0.890051 HandRight:-0.071609,0.772518,-0.057906,-0.628280 HandTipLeft:0.000000,0.000000,0.000000,0.000000 HandTipRight:0.000000,0.000000,0.000000,0.000000 Head:0.000000,0.000000,0.000000,0.000000 HipLeft:0.123029,-0.677912,0.703448,-0.174526 HipRight:-0.115481,0.677570,0.703907,-0.179103 KneeLeft:-0.030215,0.712765,-0.061299,-0.698066 KneeRight:-0.018048,0.700668,0.037262,0.712285 Neck:0.035809,-0.018849,0.995436,-0.086427 ShoulderLeft:0.003986,0.778913,-0.620877,0.088264 ShoulderRight:0.051593,0.792060,0.607577,-0.028797 SpineBase:0.008971,-0.011008,0.998768,-0.047539 SpineMid:0.022336,-0.011643,0.998559,-0.047387 SpineShoulder:0.035976,-0.014505,0.996977,-0.067317 ThumbLeft:0.000000,0.000000,0.000000,0.000000 ThumbRight:0.000000,0.000000,0.000000,0.000000 WristLeft:0.049055,-0.374416,-0.156742,0.912600 WristRight:-0.043786,0.787802,0.065270,-0.610893 END:
KINECT_DATA POSITION:21.142790,-4.292343,-6.425631 HEAD_JOINT1:0.984340,0.143076,-0.000000,0.102975 LARM_JOINT2:0.834324,0.000000,-0.061634,-0.547818 LARM_JOINT3:0.948335,0.000000,-0.250640,-0.194524 LLEG_JOINT2:0.997662,0.021923,0.000000,0.064726 LLEG_JOINT4:0.993508,0.105890,0.000000,-0.041592 RARM_JOINT2:0.786023,0.000000,-0.086637,0.612097 RARM_JOINT3:0.969376,0.000000,0.184535,0.162041 RLEG_JOINT2:0.999181,0.012351,0.000000,-0.038522 RLEG_JOINT4:0.993111,0.113472,0.000000,0.029234 WAIST:0.999917,0.000000,-0.012883,-0.000050 WAIST_JOINT0:0.998909,0.000000,-0.045127,0.012008 WAIST_JOINT1:0.997368,0.070463,0.000000,-0.017072 END:
KINECT_DATA_Sensor  AnkleLeft:0.074609,0.717525,-0.105774,-0.684400 AnkleRight:0.083594,0.688680,0.094242,0.714038 ElbowLeft:-0.059333,0.913137,-0.174078,-0.363809 ElbowRight:0.048626,0.831108,0.187534,0.521273 FootLeft:0.000000,0.000000,0.000000,0.000000 FootRight:0.000000,0.000000,0.000000,0.000000 HandLeft:-0.169776,0.825405,0.252337,-0.475615 HandRight:-0.077611,0.806001,-0.058722,-0.583858 HandTipLeft:0.000000,0.000000,0.000000,0.000000 HandTipRight:0.000000,0.000000,0.000000,0.000000 Head:0.000000,0.000000,0.000000,0.000000 HipLeft:0.126043,-0.678449,0.702126,-0.175610 HipRight:-0.114008,0.677445,0.704781,-0.177071 KneeLeft:-0.030970,0.715033,-0.060864,-0.695747 KneeRight:-0.018026,0.698344,0.036269,0.714615 Neck:0.042961,-0.021711,0.995236,-0.084781 ShoulderLeft:-0.001785,0.779871,-0.619115,0.092166 ShoulderRight:0.054974,0.791550,0.608247,-0.021491 SpineBase:0.012262,-0.012517,0.998762,-0.046553 SpineMid:0.027545,-0.013228,0.998457,-0.046356 SpineShoulder:0.043088,-0.017259,0.996777,-0.065425 ThumbLeft:0.000000,0.000000,0.000000,0.000000 ThumbRight:0.000000,0.000000,0.000000,0.000000 WristLeft:-0.139605,0.847445,0.116516,-0.498770 WristRight:-0.048125,0.820232,0.064067,-0.566392 END:
KINECT_DATA POSITION:20.765881,-4.344076,-6.468916 HEAD_JOINT1:0.984601,0.139341,-0.000000,0.105573 LARM_JOINT2:0.841053,0.000000,-0.101270,-0.531389 LARM_JOINT3:0.930172,0.000000,-0.298418,-0.213840 LLEG_JOINT2:0.996838,0.022589,0.000000,0.076184 LLEG_JOINT4:0.993004,0.107803,0.000000,-0.048184 RARM_JOINT2:0.781729,0.000000,-0.090739,0.616981 RARM_JOINT3:0.969638,0.000000,0.183851,0.161246 RLEG_JOINT2:0.999553,0.014839,0.000000,-0.025969 RLEG_JOINT4:0.993685,0.109960,0.000000,0.022340 WAIST:0.999853,0.000000,-0.016147,-0.005774 WAIST_JOINT0:0.998415,0.000000,-0.055576,0.008838 WAIST_JOINT1:0.997591,0.067228,0.000000,-0.017082 END:
KINECT_DATA_Sensor  AnkleLeft:0.076097,0.715816,-0.107472,-0.685759 AnkleRight:0.082482,0.682794,0.093768,0.719859 ElbowLeft:-0.098072,0.912634,-0.164575,-0.361103 ElbowRight:0.048694,0.826379,0.186371,0.529142 FootLeft:0.000000,0.000000,0.000000,0.000000 FootRight:0.000000,0.000000,0.000000,0.000000 HandLeft:-0.271961,0.913005,0.248790,-0.174822 HandRight:-0.076815,0.774157,-0.053217,-0.626057 HandTipLeft:0.000000,0.000000,0.000000,0.000000 HandTipRight:0.000000,0.000000,0.000000,0.000000 Head:0.000000,0.000000,0.000000,0.000000 HipLeft:0.128789,-0.682231,0.698114,-0.174957 HipRight:-0.110563,0.674019,0.709295,-0.174283 KneeLeft:-0.034877,0.717324,-0.065190,-0.692806 KneeRight:-0.011444,0.695983,0.033074,0.717205 Neck:0.053483,-0.028361,0.994814,-0.081736 ShoulderLeft:-0.012270,0.782858,-0.614277,0.098215 ShoulderRight:0.057922,0.791191,0.608722,-0.010918 SpineBase:0.015768,-0.018724,0.998668,-0.045425 SpineMid:0.034437,-0.019570,0.998198,-0.045067 SpineShoulder:0.053578,-0.022917,0.996389,-0.061759 ThumbLeft:0.000000,0.000000,0.000000,0.000000 ThumbRight:0.000000,0.000000,0.000000,0.000000 WristLeft:-0.223863,0.944430,0.117532,-0.210056 WristRight:-0.045325,0.789620,0.068702,-0.608050 END:
KINECT_DATA POSITION:20.199949,-4.355079,-6.359613 HEAD_JOINT1:0.983932,0.137899,-0.000000,0.113412 LARM_JOINT2:0.847643,0.000000,-0.110644,-0.518902 LARM_JOINT3:0.900604,0.000000,-0.365940,-0.234519 LLEG_JOINT2:0.994993,0.025061,0.000000,0.096753 LLEG_JOINT4:0.992515,0.106411,0.000000,-0.059929 RARM_JOINT2:0.777518,0.000000,-0.095048,0.621636 RARM_JOINT3:0.969033,0.000000,0.186633,0.161691 RLEG_JOINT2:0.999855,0.015626,0.000000,-0.006830 RLEG_JOINT4:0.993981,0.108745,0.000000,0.013249 WAIST:0.999564,0.000000,-0.024555,-0.016383 WAIST_JOINT0:0.997646,0.000000,-0.068448,0.004253 WAIST_JOINT1:0.997790,0.065252,0.000000,-0.012552 END:
KINECT_DATA_Sensor  AnkleLeft:0.080047,0.740592,-0.105057,-0.658847 AnkleRight:0.086290,0.708171,0.089351,0.695028 ElbowLeft:-0.114718,0.910163,-0.163337,-0.362993 ElbowRight:0.051343,0.821006,0.185733,0.537417 FootLeft:0.000000,0.000000,0.000000,0.000000 FootRight:0.000000,0.000000,0.000000,0.000000 HandLeft:-0.441103,0.841316,0.111133,0.292000 HandRight:-0.075344,0.791380,-0.046320,-0.604893 HandTipLeft:0.000000,0.000000,0.000000,0.000000 HandTipRight:0.000000,0.000000,0.000000,0.000000 Head:0.000000,0.000000,0.000000,0.000000 HipLeft:0.137229,-0.688584,0.689582,-0.177475 HipRight:-0.106481,0.667931,0.716848,-0.169288 KneeLeft:-0.041111,0.723345,-0.073411,-0.685342 KneeRight:-0.004955,0.689634,0.027305,0.723626 Neck:0.066269,-0.035989,0.994020,-0.078976 ShoulderLeft:-0.023685,0.785378,-0.609149,0.107505 ShoulderRight:0.063005,0.789584,0.610399,0.000086 SpineBase:0.024700,-0.027636,0.998399,-0.042728 SpineMid:0.045131,-0.028505,0.997684,-0.042154 SpineShoulder:0.066490,-0.028003,0.995610,-0.059631 ThumbLeft:0.000000,0.000000,0.000000,0.000000 ThumbRight:0.000000,0.000000,0.000000,0.000000 WristLeft:-0.316925,0.908921,0.027366,0.269579 WristRight:-0.048944,0.804051,0.068432,-0.588577 END:
KINECT_DATA POSITION:20.082251,-4.378098,-6.112921 HEAD_JOINT1:0.983713,0.131411,-0.000000,0.122635 LARM_JOINT2:0.855127,0.000000,-0.144695,-0.497817 LARM_JOINT3:0.874469,0.000000,-0.419674,-0.243263 LLEG_JOINT2:0.993952,0.030438,0.000000,0.105516 LLEG_JOINT4:0.991973,0.106023,0.000000,-0.068915 RARM_JOINT2:0.773058,0.000000,-0.095163,0.627157 RARM_JOINT3:0.969933,0.000000,0.186404,0.156475 RLEG_JOINT2:0.999832,0.018211,0.000000,-0.001986 RLEG_JOINT4:0.994280,0.106399,0.000000,0.009324 WAIST:0.999140,0.000000,-0.036221,-0.020200 WAIST_JOINT0:0.996203,0.000000,-0.087056,0.000665 WAIST_JOINT1:0.997843,0.064114,0.000000,-0.014109 END:
KINECT_DATA_Sensor  AnkleLeft:0.085241,0.749498,-0.106043,-0.647875 AnkleRight:0.080814,0.664657,0.094544,0.736723 ElbowLeft:-0.151220,0.910667,-0.156163,-0.351328 ElbowRight:0.052735,0.814172,0.182758,0.548582 FootLeft:0.000000,0.000000,0.000000,0.000000 FootRight:0.000000,0.000000,0.000000,0.000000 HandLeft:-0.480084,0.823130,0.187095,0.238689 HandRight:-0.060999,0.818184,-0.034446,-0.570672 HandTipLeft:0.000000,0.000000,0.000000,0.000000 HandTipRight:0.000000,0.000000,0.000000,0.000000 Head:0.000000,0.000000,0.000000,0.000000 HipLeft:-0.148611,0.689621,-0.684717,0.183032 HipRight:-0.103405,0.666659,0.719819,-0.163505 KneeLeft:-0.042081,0.731704,-0.080061,-0.675595 KneeRight:-0.002285,0.680882,0.028136,0.731849 Neck:0.085040,-0.040149,0.992529,-0.077730 ShoulderLeft:-0.039586,0.785996,-0.604698,0.122412 ShoulderRight:0.071020,0.787327,0.612261,0.014460 SpineBase:0.036514,-0.030593,0.998071,-0.039820 SpineMid:0.060316,-0.031534,0.996915,-0.039079 SpineShoulder:0.085092,-0.033313,0.994114,-0.058201 ThumbLeft:0.000000,0.000000,0.000000,0.000000 ThumbRight:0.000000,0.000000,0.000000,0.000000 WristLeft:-0.377173,0.898820,0.086952,0.205676 WristRight:-0.052392,0.825227,0.068086,-0.558229 END:
KINECT_DATA POSITION:20.280230,-4.359407,-6.008339 HEAD_JOINT1:0.982792,0.125854,-0.000000,0.135204 LARM_JOINT2:0.857875,0.000000,-0.175336,-0.483020 LARM_JOINT3:0.864465,0.000000,-0.436798,-0.248811 LLEG_JOINT2:0.994086,0.031888,0.000000,0.103809 LLEG_JOINT4:0.991565,0.108214,0.000000,-0.071330 RARM_JOINT2:0.770032,0.000000,-0.099131,0.630257 RARM_JOINT3:0.969533,0.000000,0.188693,0.156206 RLEG_JOINT2:0.999850,0.014218,0.000000,-0.009864 RLEG_JOINT4:0.993960,0.108774,0.000000,0.014572 WAIST:0.998786,0.000000,-0.045715,-0.018324 WAIST_JOINT0:0.994672,0.000000,-0.103084,-0.000776 WAIST_JOINT1:0.997811,0.063200,0.000000,-0.019477 END:
KINECT_DATA_Sensor  AnkleLeft:0.083227,0.724507,-0.111682,-0.675048 AnkleRight:0.079715,0.655282,0.093342,0.745344 ElbowLeft:-0.180270,0.911977,-0.145065,-0.338757 ElbowRight:0.055404,0.804835,0.182390,0.562054 FootLeft:0.000000,0.000000,0.000000,0.000000 FootRight:0.000000,0.000000,0.000000,0.000000 HandLeft:-0.487587,0.795475,0.242564,0.265787 HandRight:-0.065560,0.718411,-0.021435,-0.692191 HandTipLeft:0.000000,0.000000,0.000000,0.000000 HandTipRight:0.000000,0.000000,0.000000,0.000000 Head:0.000000,0.000000,0.000000,0.000000 HipLeft:-0.155535,0.686718,-0.684887,0.187502 HipRight:-0.100032,0.667901,0.719760,-0.160769 KneeLeft:-0.042044,0.738088,-0.080764,-0.668532 KneeRight:-0.009075,0.674176,0.029831,0.737912 Neck:0.101384,-0.042033,0.990953,-0.077249 ShoulderLeft:-0.053672,0.786645,-0.599924,0.135647 ShoulderRight:0.077547,0.786435,0.612200,0.026771 SpineBase:0.045783,-0.031775,0.997666,-0.039462 SpineMid:0.073035,-0.032842,0.996042,-0.038578 SpineShoulder:0.101226,-0.037097,0.992531,-0.057090 ThumbLeft:0.000000,0.000000,0.000000,0.000000 ThumbRight:0.000000,0.000000,0.000000,0.000000 WristLeft:-0.407084,0.883254,0.104907,0.207699 WristRight:-0.040518,0.729787,0.077929,-0.678009 END:
KINECT_DATA POSITION:20.597862,-4.228742,-6.022263 HEAD_JOINT1:0.982256,0.119242,-0.000000,0.144758 LARM_JOINT2:0.858465,0.000000,-0.181520,-0.479675 LARM_JOINT3:0.845076,0.000000,-0.468679,-0.257266 LLEG_JOINT2:0.994622,0.035322,0.000000,0.097364 LLEG_JOINT4:0.991530,0.109274,0.000000,-0.070191 RARM_JOINT2:0.769374,0.000000,-0.097496,0.631315 RARM_JOINT3:0.970589,0.000000,0.185505,0.153445 RLEG_JOINT2:0.999781,0.009289,0.000000,-0.018740 RLEG_JOINT4:0.993243,0.114649,0.000000,0.018019 WAIST:0.998011,0.000000,-0.061148,-0.015306 WAIST_JOINT0:0.993521,0.000000,-0.113648,-0.000744 WAIST_JOINT1:0.997681,0.063214,0.000000,-0.025215 END:
KINECT_DATA_Sensor  AnkleLeft:0.090939,0.762135,-0.110923,-0.631329 AnkleRight:0.087068,0.698085,0.088117,0.705217 ElbowLeft:-0.187744,0.915423,-0.137912,-0.328228 ElbowRight:0.056657,0.797610,0.182124,0.572223 FootLeft:0.000000,0.000000,0.000000,0.000000 FootRight:0.000000,0.000000,0.000000,0.000000 HandLeft:-0.602360,0.470078,-0.032593,0.644303 HandRight:-0.046476,0.842215,-0.030452,-0.536271 HandTipLeft:0.000000,0.000000,0.000000,0.000000 HandTipRight:0.000000,0.000000,0.000000,0.000000 Head:0.000000,0.000000,0.000000,0.000000 HipLeft:0.164026,-0.682144,0.685133,-0.195878 HipRight:-0.090340,0.671158,0.719603,-0.153481 KneeLeft:-0.038487,0.748552,-0.080318,-0.657068 KneeRight:-0.016236,0.663046,0.031032,0.747759 Neck:0.111801,-0.043212,0.989690,-0.078398 ShoulderLeft:-0.056734,0.787250,-0.597485,0.141527 ShoulderRight:0.087501,0.785520,0.611468,0.037545 SpineBase:0.060889,-0.032697,0.996798,-0.040204 SpineMid:0.085824,-0.033693,0.994962,-0.039373 SpineShoulder:0.111598,-0.038637,0.991326,-0.057663 ThumbLeft:0.000000,0.000000,0.000000,0.000000 ThumbRight:0.000000,0.000000,0.000000,0.000000 WristLeft:-0.419221,0.547195,-0.159751,0.706620 WristRight:-0.051954,0.846057,0.071006,-0.525782 END:
KINECT_DATA POSITION:20.761105,-4.155046,-6.062174 HEAD_JOINT1:0.982109,0.114699,-0.000000,0.149352 LARM_JOINT2:0.888007,0.000000,-0.118725,-0.444239 LARM_JOINT3:0.733354,0.000000,-0.565193,-0.377821 LLEG_JOINT2:0.995042,0.034141,0.000000,0.093410 LLEG_JOINT4:0.991345,0.111706,0.000000,-0.068968 RARM_JOINT2:0.768503,0.000000,-0.097201,0.632421 RARM_JOINT3:0.970260,0.000000,0.188983,0.151265 RLEG_JOINT2:0.999721,0.009147,0.000000,-0.021797 RLEG_JOINT4:0.993486,0.112834,0.000000,0.015912 WAIST:0.997576,0.000000,-0.068378,-0.012890 WAIST_JOINT0:0.992972,0.000000,-0.118341,-0.001022 WAIST_JOINT1:0.997458,0.064501,0.000000,-0.030298 END:
KINECT_DATA_Sensor  AnkleLeft:0.086985,0.742339,-0.115656,-0.654210 AnkleRight:0.085870,0.703946,0.087196,0.699630 ElbowLeft:-0.165708,0.914207,-0.210957,-0.303751 ElbowRight:0.058647,0.794473,0.183183,0.576036 FootLeft:0.000000,0.000000,0.000000,0.000000 FootRight:0.000000,0.000000,0.000000,0.000000 HandLeft:-0.529267,0.731533,0.331998,0.272972 HandRight:-0.049192,0.841942,-0.010619,-0.537216 HandTipLeft:0.000000,0.000000,0.000000,0.000000 HandTipRight:0.000000,0.000000,0.000000,0.000000 Head:0.000000,0.000000,0.000000,0.000000 HipLeft:0.168112,-0.679500,0.685642,-0.199783 HipRight:-0.084062,0.673544,0.718800,-0.150327 KneeLeft:-0.038675,0.753090,-0.078152,-0.652114 KneeRight:-0.016485,0.657870,0.031581,0.752289 Neck:0.116157,-0.045288,0.988918,-0.080612 ShoulderLeft:-0.054600,0.788244,-0.595989,0.143135 ShoulderRight:0.095077,0.784571,0.611186,0.043137 SpineBase:0.067822,-0.034079,0.996251,-0.041497 SpineMid:0.091481,-0.035055,0.994358,-0.040675 SpineShoulder:0.115931,-0.040630,0.990652,-0.059319 ThumbLeft:0.000000,0.000000,0.000000,0.000000 ThumbRight:0.000000,0.000000,0.000000,0.000000 WristLeft:-0.479139,0.803426,0.250100,0.249765 WristRight:-0.048933,0.844315,0.071154,-0.528843 END:
KINECT_DATA POSITION:20.840874,-4.085351,-6.082010 HEAD_JOINT1:0.981910,0.115469,-0.000000,0.150065 LARM_JOINT2:0.853655,0.000000,-0.158667,-0.496082 LARM_JOINT3:0.794114,0.000000,-0.523668,-0.308471 LLEG_JOINT2:0.995332,0.034985,0.000000,0.089949 LLEG_JOINT4:0.991892,0.105649,0.000000,-0.070626 RARM_JOINT2:0.768635,0.000000,-0.096982,0.632294 RARM_JOINT3:0.969438,0.000000,0.192588,0.151986 RLEG_JOINT2:0.999680,0.008365,0.000000,-0.023883 RLEG_JOINT4:0.993167,0.115424,0.000000,0.017232 WAIST:0.997386,0.000000,-0.071425,-0.010970 WAIST_JOINT0:0.992954,0.000000,-0.118495,-0.000977 WAIST_JOINT1:0.997335,0.065053,0.000000,-0.033021 END:
KINECT_DATA_Sensor  AnkleLeft:0.082944,0.729029,-0.112088,-0.670129 AnkleRight:0.087346,0.693452,0.088150,0.709735 ElbowLeft:-0.161208,0.923113,-0.135116,-0.321898 ElbowRight:0.059564,0.793924,0.183983,0.576444 FootLeft:0.000000,0.000000,0.000000,0.000000 FootRight:0.000000,0.000000,0.000000,0.000000 HandLeft:-0.572576,0.662546,0.379091,0.299130 HandRight:-0.059581,0.851396,0.000830,-0.521128 HandTipLeft:0.000000,0.000000,0.000000,0.000000 HandTipRight:0.000000,0.000000,0.000000,0.000000 Head:0.000000,0.000000,0.000000,0.000000 HipLeft:0.169722,-0.677762,0.686454,-0.201531 HipRight:-0.080876,0.675205,0.717899,-0.148923 KneeLeft:-0.037130,0.755071,-0.077721,-0.649961 KneeRight:-0.017009,0.655768,0.031314,0.754121 Neck:0.116190,-0.045654,0.988802,-0.081773 ShoulderLeft:-0.052401,0.788437,-0.596073,0.142543 ShoulderRight:0.097316,0.784092,0.611398,0.043833 SpineBase:0.070665,-0.034457,0.996005,-0.042346 SpineMid:0.092936,-0.035396,0.994174,-0.041564 SpineShoulder:0.115950,-0.041049,0.990581,-0.060163 ThumbLeft:0.000000,0.000000,0.000000,0.000000 ThumbRight:0.000000,0.000000,0.000000,0.000000 WristLeft:-0.449830,0.841477,0.204497,0.218517 WristRight:-0.049027,0.853847,0.069938,-0.513469 END:
KINECT_DATA POSITION:20.862923,-4.019808,-6.061745 HEAD_JOINT1:0.981615,0.116990,-0.000000,0.150816 LARM_JOINT2:0.851831,0.000000,-0.153349,-0.500867 LARM_JOINT3:0.791393,0.000000,-0.522324,-0.317608 LLEG_JOINT2:0.995610,0.035016,0.000000,0.086798 LLEG_JOINT4:0.991821,0.108290,0.000000,-0.067567 RARM_JOINT2:0.769257,0.000000,-0.094755,0.631874 RARM_JOINT3:0.968510,0.000000,0.196891,0.152390 RLEG_JOINT2:0.999594,0.006662,0.000000,-0.027691 RLEG_JOINT4:0.993136,0.115517,0.000000,0.018339 WAIST:0.997161,0.000000,-0.074736,-0.009217 WAIST_JOINT0:0.992718,0.000000,-0.120458,-0.001339 WAIST_JOINT1:0.997217,0.065799,0.000000,-0.035048 END:
KINECT_DATA_Sensor  AnkleLeft:0.083067,0.730897,-0.115534,-0.667489 AnkleRight:0.087359,0.703202,0.086214,0.700316 ElbowLeft:-0.153297,0.927804,-0.135184,-0.312099 ElbowRight:0.059488,0.794124,0.184290,0.576078 FootLeft:0.000000,0.000000,0.000000,0.000000 FootRight:0.000000,0.000000,0.000000,0.000000 HandLeft:-0.589876,0.652067,0.340223,0.333321 HandRight:-0.069894,0.825722,0.018709,-0.559417 HandTipLeft:0.000000,0.000000,0.000000,0.000000 HandTipRight:0.000000,0.000000,0.000000,0.000000 Head:0.000000,0.000000,0.000000,0.000000 HipLeft:0.171739,-0.675957,0.687110,-0.203636 HipRight:-0.078235,0.676607,0.717109,-0.147775 KneeLeft:-0.036254,0.757157,-0.076764,-0.647693 KneeRight:-0.019456,0.653439,0.031891,0.756056 Neck:0.118083,-0.045497,0.988490,-0.082906 ShoulderLeft:-0.053235,0.787914,-0.596134,0.144852 ShoulderRight:0.098978,0.783845,0.611398,0.044531 SpineBase:0.073788,-0.034638,0.995740,-0.043105 SpineMid:0.095445,-0.035568,0.993898,-0.042341 SpineShoulder:0.117841,-0.041036,0.990296,-0.061177 ThumbLeft:0.000000,0.000000,0.000000,0.000000 ThumbRight:0.000000,0.000000,0.000000,0.000000 WristLeft:-0.460713,0.820683,0.192107,0.278059 WristRight:-0.045905,0.829017,0.072292,-0.552628 END:
KINECT_DATA POSITION:20.842373,-3.992495,-6.045985 HEAD_JOINT1:0.981290,0.118233,-0.000000,0.151959 LARM_JOINT2:0.850915,0.000000,-0.151964,-0.502843 LARM_JOINT3:0.788754,0.000000,-0.526698,-0.316947 LLEG_JOINT2:0.995675,0.036382,0.000000,0.085482 LLEG_JOINT4:0.991802,0.108497,0.000000,-0.067512 RARM_JOINT2:0.769852,0.000000,-0.092969,0.631415 RARM_JOINT3:0.968716,0.000000,0.196417,0.151692 RLEG_JOINT2:0.999602,0.006181,0.000000,-0.027533 RLEG_JOINT4:0.993240,0.114667,0.000000,0.018061 WAIST:0.997109,0.000000,-0.075437,-0.009125 WAIST_JOINT0:0.992632,0.000000,-0.121156,-0.001525 WAIST_JOINT1:0.997173,0.066459,0.000000,-0.035049 END:
KINECT_DATA_Sensor  AnkleLeft:0.084202,0.727327,-0.116553,-0.671060 AnkleRight:0.079209,0.644471,0.092043,0.754925 ElbowLeft:-0.151067,0.927669,-0.134141,-0.314032 ElbowRight:0.059192,0.795525,0.184496,0.574106 FootLeft:0.000000,0.000000,0.000000,0.000000 FootRight:0.000000,0.000000,0.000000,0.000000 HandLeft:-0.594659,0.649365,0.340044,0.330267 HandRight:-0.067731,0.826990,0.021901,-0.557692 HandTipLeft:0.000000,0.000000,0.000000,0.000000 HandTipRight:0.000000,0.000000,0.000000,0.000000 Head:0.000000,0.000000,0.000000,0.000000 HipLeft:0.171809,-0.675762,0.687075,-0.204342 HipRight:-0.077232,0.676813,0.717069,-0.147552 KneeLeft:-0.034479,0.757730,-0.076976,-0.647094 KneeRight:-0.019634,0.652963,0.031404,0.756484 Neck:0.118801,-0.045306,0.988356,-0.083581 ShoulderLeft:-0.053943,0.787708,-0.595969,0.146380 ShoulderRight:0.099239,0.783866,0.611357,0.044149 SpineBase:0.074463,-0.034665,0.995665,-0.043653 SpineMid:0.096137,-0.035607,0.993806,-0.042887 SpineShoulder:0.118564,-0.040889,0.990173,-0.061866 ThumbLeft:0.000000,0.000000,0.000000,0.000000 ThumbRight:0.000000,0.000000,0.000000,0.000000 WristLeft:-0.462234,0.819795,0.193974,0.276857 WristRight:-0.045659,0.829801,0.071742,-0.551541 END:
KINECT_DATA POSITION:20.790216,-3.961565,-6.040132 HEAD_JOINT1:0.980607,0.121488,-0.000000,0.153788 LARM_JOINT2:0.848983,0.000000,-0.150880,-0.506422 LARM_JOINT3:0.791830,0.000000,-0.522597,-0.316067 LLEG_JOINT2:0.995632,0.036092,0.000000,0.086108 LLEG_JOINT4:0.991751,0.109670,0.000000,-0.066354 RARM_JOINT2:0.769706,0.000000,-0.092095,0.631721 RARM_JOINT3:0.969587,0.000000,0.193378,0.150021 RLEG_JOINT2:0.999605,0.007061,0.000000,-0.027203 RLEG_JOINT4:0.992954,0.116989,0.000000,0.018855 WAIST:0.997090,0.000000,-0.075678,-0.009159 WAIST_JOINT0:0.992415,0.000000,-0.122908,-0.002256 WAIST_JOINT1:0.997108,0.067610,0.000000,-0.034715 END:
KINECT_DATA_Sensor  AnkleLeft:0.086504,0.744958,-0.116081,-0.651214 AnkleRight:0.089229,0.699593,0.086721,0.703625 ElbowLeft:-0.147490,0.927910,-0.131979,-0.315928 ElbowRight:0.059608,0.794632,0.184298,0.575362 FootLeft:0.000000,0.000000,0.000000,0.000000 FootRight:0.000000,0.000000,0.000000,0.000000 HandLeft:-0.572231,0.668408,0.363115,0.306481 HandRight:-0.058066,0.846306,0.012013,-0.529387 HandTipLeft:0.000000,0.000000,0.000000,0.000000 HandTipRight:0.000000,0.000000,0.000000,0.000000 Head:0.000000,0.000000,0.000000,0.000000 HipLeft:0.171308,-0.675632,0.687091,-0.205137 HipRight:-0.076234,0.676831,0.717093,-0.147874 KneeLeft:-0.035145,0.757807,-0.077129,-0.646950 KneeRight:-0.018769,0.652801,0.031753,0.756631 Neck:0.120696,-0.045046,0.988047,-0.084653 ShoulderLeft:-0.056052,0.787949,-0.594606,0.149790 ShoulderRight:0.099556,0.783848,0.611358,0.043730 SpineBase:0.074681,-0.034644,0.995604,-0.044662 SpineMid:0.097180,-0.035645,0.993660,-0.043867 SpineShoulder:0.120474,-0.040656,0.989884,-0.062942 ThumbLeft:0.000000,0.000000,0.000000,0.000000 ThumbRight:0.000000,0.000000,0.000000,0.000000 WristLeft:-0.454227,0.829766,0.210296,0.246863 WristRight:-0.047146,0.848077,0.070001,-0.523108 END:
KINECT_DATA POSITION:20.686813,-3.919813,-6.028855 HEAD_JOINT1:0.980843,0.122112,-0.000000,0.151772 LARM_JOINT2:0.846906,0.000000,-0.149086,-0.510415 LARM_JOINT3:0.789110,0.000000,-0.526695,-0.316066 LLEG_JOINT2:0.995548,0.037342,0.000000,0.086541 LLEG_JOINT4:0.991998,0.105627,0.000000,-0.069160 RARM_JOINT2:0.769429,0.000000,-0.091389,0.632161 RARM_JOINT3:0.969250,0.000000,0.195154,0.149900 RLEG_JOINT2:0.999633,0.006323,0.000000,-0.026342 RLEG_JOINT4:0.992876,0.117563,0.000000,0.019386 WAIST:0.997015,0.000000,-0.076679,-0.009026 WAIST_JOINT0:0.992397,0.000000,-0.123035,-0.003180 WAIST_JOINT1:0.997059,0.068438,0.000000,-0.034480 END:
KINECT_DATA_Sensor  AnkleLeft:0.089911,0.767030,-0.109708,-0.625735 AnkleRight:0.083243,0.642611,0.092007,0.756079 ElbowLeft:-0.143800,0.927888,-0.129483,-0.318715 ElbowRight:0.060439,0.794353,0.183623,0.575875 FootLeft:0.000000,0.000000,0.000000,0.000000 FootRight:0.000000,0.000000,0.000000,0.000000 HandLeft:-0.582981,0.656833,0.359340,0.315560 HandRight:-0.064878,0.839325,0.016960,-0.539479 HandTipLeft:0.000000,0.000000,0.000000,0.000000 HandTipRight:0.000000,0.000000,0.000000,0.000000 Head:0.000000,0.000000,0.000000,0.000000 HipLeft:0.171048,-0.675393,0.687073,-0.206199 HipRight:-0.074719,0.677190,0.716982,-0.147541 KneeLeft:-0.034823,0.758487,-0.078415,-0.646015 KneeRight:-0.018650,0.652127,0.030540,0.757265 Neck:0.120832,-0.044492,0.987980,-0.085532 ShoulderLeft:-0.055409,0.787244,-0.595429,0.150472 ShoulderRight:0.100525,0.782854,0.612520,0.043055 SpineBase:0.075653,-0.034396,0.995497,-0.045599 SpineMid:0.097748,-0.035400,0.993571,-0.044824 SpineShoulder:0.120623,-0.040146,0.989830,-0.063841 ThumbLeft:0.000000,0.000000,0.000000,0.000000 ThumbRight:0.000000,0.000000,0.000000,0.000000 WristLeft:-0.458913,0.825140,0.206985,0.256320 WristRight:-0.045832,0.841818,0.069594,-0.533290 END:
KINECT_DATA POSITION:20.649199,-3.898518,-6.045961 HEAD_JOINT1:0.981018,0.122106,-0.000000,0.150648 LARM_JOINT2:0.847031,0.000000,-0.159728,-0.506976 LARM_JOINT3:0.791235,0.000000,-0.527344,-0.309606 LLEG_JOINT2:0.995596,0.037823,0.000000,0.085775 LLEG_JOINT4:0.992077,0.104249,0.000000,-0.070108 RARM_JOINT2:0.769917,0.000000,-0.090399,0.631709 RARM_JOINT3:0.969569,0.000000,0.193277,0.150268 RLEG_JOINT2:0.999619,0.006540,0.000000,-0.026831 RLEG_JOINT4:0.992847,0.118060,0.000000,0.017797 WAIST:0.997047,0.000000,-0.076326,-0.008463 WAIST_JOINT0:0.993314,0.000000,-0.115442,-0.001086 WAIST_JOINT1:0.997048,0.068653,0.000000,-0.034382 END:
KINECT_DATA_Sensor  AnkleLeft:0.082079,0.719220,-0.114571,-0.680338 AnkleRight:0.087813,0.683293,0.088997,0.719361 ElbowLeft:-0.151945,0.928501,-0.126994,-0.314120 ElbowRight:0.060260,0.795795,0.183413,0.573968 FootLeft:0.000000,0.000000,0.000000,0.000000 FootRight:0.000000,0.000000,0.000000,0.000000 HandLeft:-0.588118,0.651571,0.360789,0.315285 HandRight:-0.062459,0.838805,0.012916,-0.540684 HandTipLeft:0.000000,0.000000,0.000000,0.000000 HandTipRight:0.000000,0.000000,0.000000,0.000000 Head:0.000000,0.000000,0.000000,0.000000 HipLeft:0.170469,-0.675100,0.687501,-0.206208 HipRight:-0.074600,0.677630,0.716532,-0.147763 KneeLeft:-0.034292,0.758259,-0.078692,-0.646277 KneeRight:-0.018413,0.652417,0.030648,0.757016 Neck:0.112833,-0.043134,0.988941,-0.086044 ShoulderLeft:-0.043250,0.787027,-0.599241,0.140098 ShoulderRight:0.102449,0.782204,0.613187,0.040780 SpineBase:0.075262,-0.033940,0.995526,-0.045943 SpineMid:0.093591,-0.034781,0.993971,-0.045310 SpineShoulder:0.112611,-0.039028,0.990783,-0.064384 ThumbLeft:0.000000,0.000000,0.000000,0.000000 ThumbRight:0.000000,0.000000,0.000000,0.000000 WristLeft:-0.460114,0.824110,0.208443,0.256299 WristRight:-0.045695,0.841252,0.068922,-0.534281 END:
KINECT_DATA POSITION:20.588343,-3.867668,-6.111586 HEAD_JOINT1:0.981025,0.123338,-0.000000,0.149592 LARM_JOINT2:0.845650,0.000000,-0.154444,-0.510904 LARM_JOINT3:0.789074,0.000000,-0.528759,-0.312693 LLEG_JOINT2:0.995610,0.037553,0.000000,0.085735 LLEG_JOINT4:0.991884,0.106730,0.000000,-0.069096 RARM_JOINT2:0.770116,0.000000,-0.089863,0.631543 RARM_JOINT3:0.970082,0.000000,0.191315,0.149461 RLEG_JOINT2:0.999602,0.007631,0.000000,-0.027140 RLEG_JOINT4:0.993185,0.115100,0.000000,0.018321 WAIST:0.997044,0.000000,-0.076426,-0.007950 WAIST_JOINT0:0.992958,0.000000,-0.118434,-0.002628 WAIST_JOINT1:0.997012,0.069093,0.000000,-0.034545 END:
KINECT_DATA_Sensor  AnkleLeft:0.084395,0.730961,-0.115741,-0.667217 AnkleRight:0.087619,0.690215,0.086483,0.713054 ElbowLeft:-0.146129,0.928732,-0.127142,-0.316130 ElbowRight:0.060411,0.795970,0.183392,0.573715 FootLeft:0.000000,0.000000,0.000000,0.000000 FootRight:0.000000,0.000000,0.000000,0.000000 HandLeft:-0.579211,0.660989,0.375123,0.294775 HandRight:-0.055389,0.846914,0.007406,-0.528785 HandTipLeft:0.000000,0.000000,0.000000,0.000000 HandTipRight:0.000000,0.000000,0.000000,0.000000 Head:0.000000,0.000000,0.000000,0.000000 HipLeft:0.170028,-0.674755,0.687840,-0.206573 HipRight:-0.073984,0.678025,0.716149,-0.148120 KneeLeft:-0.034814,0.758233,-0.078817,-0.646265 KneeRight:-0.017419,0.652371,0.031231,0.757056 Neck:0.116108,-0.042901,0.988540,-0.086414 ShoulderLeft:-0.047927,0.786338,-0.598666,0.144826 ShoulderRight:0.102081,0.781459,0.614185,0.040961 SpineBase:0.075299,-0.033841,0.995495,-0.046626 SpineMid:0.095231,-0.034769,0.993787,-0.045938 SpineShoulder:0.115886,-0.038910,0.990388,-0.064712 ThumbLeft:0.000000,0.000000,0.000000,0.000000 ThumbRight:0.000000,0.000000,0.000000,0.000000 WristLeft:-0.454457,0.829919,0.221863,0.235544 WristRight:-0.046523,0.848663,0.068023,-0.522475 END:
KINECT_DATA POSITION:20.559853,-3.853003,-6.146300 HEAD_JOINT1:0.980926,0.123916,-0.000000,0.149760 LARM_JOINT2:0.845261,0.000000,-0.156103,-0.511043 LARM_JOINT3:0.790253,0.000000,-0.527477,-0.311877 LLEG_JOINT2:0.995588,0.039282,0.000000,0.085211 LLEG_JOINT4:0.992299,0.103819,0.000000,-0.067564 RARM_JOINT2:0.770314,0.000000,-0.089541,0.631347 RARM_JOINT3:0.969424,0.000000,0.193671,0.150693 RLEG_JOINT2:0.999608,0.006298,0.000000,-0.027282 RLEG_JOINT4:0.993019,0.116689,0.000000,0.017221 WAIST:0.997029,0.000000,-0.076632,-0.007822 WAIST_JOINT0:0.993061,0.000000,-0.117572,-0.002500 WAIST_JOINT1:0.996997,0.069315,0.000000,-0.034542 END:
KINECT_DATA_Sensor  AnkleLeft:0.081958,0.726897,-0.116150,-0.671872 AnkleRight:0.088079,0.697266,0.086620,0.706087 ElbowLeft:-0.146761,0.929220,-0.126277,-0.314747 ElbowRight:0.060841,0.797359,0.183378,0.571742 FootLeft:0.000000,0.000000,0.000000,0.000000 FootRight:0.000000,0.000000,0.000000,0.000000 HandLeft:-0.566001,0.668776,0.398221,0.271666 HandRight:-0.064214,0.841486,0.014443,-0.536255 HandTipLeft:0.000000,0.000000,0.000000,0.000000 HandTipRight:0.000000,0.000000,0.000000,0.000000 Head:0.000000,0.000000,0.000000,0.000000 HipLeft:0.169766,-0.674662,0.687927,-0.206802 HipRight:-0.073496,0.678205,0.716050,-0.148016 KneeLeft:-0.033378,0.758486,-0.079874,-0.645915 KneeRight:-0.018427,0.652276,0.030386,0.757148 Neck:0.115280,-0.042670,0.988625,-0.086665 ShoulderLeft:-0.047141,0.786126,-0.599119,0.144361 ShoulderRight:0.101865,0.781252,0.614543,0.040061 SpineBase:0.075491,-0.033690,0.995471,-0.046946 SpineMid:0.094924,-0.034601,0.993806,-0.046279 SpineShoulder:0.115063,-0.038685,0.990474,-0.064994 ThumbLeft:0.000000,0.000000,0.000000,0.000000 ThumbRight:0.000000,0.000000,0.000000,0.000000 WristLeft:-0.445588,0.837899,0.237615,0.207162 WristRight:-0.046198,0.843935,0.067410,-0.530185 END:
KINECT_DATA POSITION:20.537691,-3.841249,-6.170523 HEAD_JOINT1:0.980922,0.124214,-0.000000,0.149540 LARM_JOINT2:0.844481,0.000000,-0.154271,-0.512886 LARM_JOINT3:0.789897,0.000000,-0.529352,-0.309594 LLEG_JOINT2:0.995608,0.039195,0.000000,0.085023 LLEG_JOINT4:0.991675,0.104633,0.000000,-0.075055 RARM_JOINT2:0.770873,0.000000,-0.088745,0.630777 RARM_JOINT3:0.969443,0.000000,0.193265,0.151094 RLEG_JOINT2:0.999626,0.007701,0.000000,-0.026234 RLEG_JOINT4:0.993030,0.116800,0.000000,0.015762 WAIST:0.997039,0.000000,-0.076516,-0.007585 WAIST_JOINT0:0.992947,0.000000,-0.118518,-0.003132 WAIST_JOINT1:0.996960,0.069812,0.000000,-0.034589 END:
KINECT_DATA_Sensor  AnkleLeft:0.084049,0.701368,-0.115159,-0.698396 AnkleRight:0.089508,0.699852,0.087359,0.703253 ElbowLeft:-0.144166,0.929282,-0.126069,-0.315846 ElbowRight:0.061174,0.799653,0.183728,0.568380 FootLeft:0.000000,0.000000,0.000000,0.000000 FootRight:0.000000,0.000000,0.000000,0.000000 HandLeft:-0.582202,0.662528,0.377170,0.282559 HandRight:-0.061073,0.850012,0.015467,-0.522982 HandTipLeft:0.000000,0.000000,0.000000,0.000000 HandTipRight:0.000000,0.000000,0.000000,0.000000 Head:0.000000,0.000000,0.000000,0.000000 HipLeft:0.169386,-0.674492,0.688124,-0.207011 HipRight:-0.073295,0.678363,0.715858,-0.148317 KneeLeft:-0.033453,0.758374,-0.079856,-0.646043 KneeRight:-0.016516,0.652363,0.030329,0.757119 Neck:0.116362,-0.042592,0.988456,-0.087184 ShoulderLeft:-0.049212,0.785655,-0.599009,0.146674 ShoulderRight:0.101302,0.780952,0.615065,0.039333 SpineBase:0.075351,-0.033497,0.995468,-0.047364 SpineMid:0.095396,-0.034444,0.993748,-0.046679 SpineShoulder:0.116156,-0.038561,0.990323,-0.065428 ThumbLeft:0.000000,0.000000,0.000000,0.000000 ThumbRight:0.000000,0.000000,0.000000,0.000000 WristLeft:-0.450254,0.833325,0.226652,0.226869 WristRight:-0.047919,0.851755,0.065532,-0.517613 END:
KINECT_DATA POSITION:20.496372,-3.823738,-6.184411 HEAD_JOINT1:0.980923,0.124771,-0.000000,0.149072 LARM_JOINT2:0.843569,0.000000,-0.153921,-0.514490 LARM_JOINT3:0.792047,0.000000,-0.527407,-0.307414 LLEG_JOINT2:0.995637,0.038859,0.000000,0.084833 LLEG_JOINT4:0.992752,0.102026,0.000000,-0.063520 RARM_JOINT2:0.771072,0.000000,-0.088695,0.630540 RARM_JOINT3:0.969470,0.000000,0.192630,0.151727 RLEG_JOINT2:0.999646,0.005610,0.000000,-0.026018 RLEG_JOINT4:0.993117,0.115725,0.000000,0.018093 WAIST:0.997055,0.000000,-0.076292,-0.007751 WAIST_JOINT0:0.992916,0.000000,-0.118782,-0.003054 WAIST_JOINT1:0.996924,0.070380,0.000000,-0.034474 END:
KINECT_DATA_Sensor  AnkleLeft:0.083254,0.758677,-0.112915,-0.636183 AnkleRight:0.088993,0.705883,0.082899,0.697809 ElbowLeft:-0.142457,0.929312,-0.124925,-0.316985 ElbowRight:0.061200,0.798953,0.184379,0.569151 FootLeft:0.000000,0.000000,0.000000,0.000000 FootRight:0.000000,0.000000,0.000000,0.000000 HandLeft:-0.587316,0.661670,0.361018,0.294819 HandRight:-0.058777,0.844954,0.010177,-0.531503 HandTipLeft:0.000000,0.000000,0.000000,0.000000 HandTipRight:0.000000,0.000000,0.000000,0.000000 Head:0.000000,0.000000,0.000000,0.000000 HipLeft:0.168843,-0.674547,0.688130,-0.207256 HipRight:-0.073051,0.678190,0.715965,-0.148713 KneeLeft:-0.033400,0.758205,-0.079366,-0.646305 KneeRight:-0.018086,0.652617,0.028925,0.756919 Neck:0.116616,-0.042707,0.988377,-0.087680 ShoulderLeft:-0.050121,0.785080,-0.599370,0.147963 ShoulderRight:0.100860,0.781117,0.614982,0.038471 SpineBase:0.075131,-0.033431,0.995461,-0.047910 SpineMid:0.095418,-0.034401,0.993721,-0.047218 SpineShoulder:0.116418,-0.038628,0.990254,-0.065969 ThumbLeft:0.000000,0.000000,0.000000,0.000000 ThumbRight:0.000000,0.000000,0.000000,0.000000 WristLeft:-0.454523,0.828784,0.216693,0.244068 WristRight:-0.047233,0.846874,0.066614,-0.525486 END:
KINECT_DATA POSITION:20.472666,-3.824179,-6.194639 HEAD_JOINT1:0.980879,0.125269,-0.000000,0.148944 LARM_JOINT2:0.843054,0.000000,-0.153834,-0.515358 LARM_JOINT3:0.792516,0.000000,-0.526760,-0.307314 LLEG_JOINT2:0.995681,0.039346,0.000000,0.084090 LLEG_JOINT4:0.992628,0.102265,0.000000,-0.065043 RARM_JOINT2:0.771203,0.000000,-0.088186,0.630452 RARM_JOINT3:0.969444,0.000000,0.192304,0.152306 RLEG_JOINT2:0.999645,0.004512,0.000000,-0.026240 RLEG_JOINT4:0.992893,0.117891,0.000000,0.016316 WAIST:0.997076,0.000000,-0.076028,-0.007689 WAIST_JOINT0:0.992877,0.000000,-0.119099,-0.003284 WAIST_JOINT1:0.996903,0.070698,0.000000,-0.034453 END:
KINECT_DATA_Sensor  AnkleLeft:0.086665,0.765534,-0.110994,-0.627795 AnkleRight:0.089711,0.714010,0.084077,0.689255 ElbowLeft:-0.141520,0.929480,-0.124459,-0.317095 ElbowRight:0.061122,0.799379,0.184447,0.568539 FootLeft:0.000000,0.000000,0.000000,0.000000 FootRight:0.000000,0.000000,0.000000,0.000000 HandLeft:-0.591197,0.659355,0.351520,0.303597 HandRight:-0.060207,0.836062,0.008815,-0.545250 HandTipLeft:0.000000,0.000000,0.000000,0.000000 HandTipRight:0.000000,0.000000,0.000000,0.000000 Head:0.000000,0.000000,0.000000,0.000000 HipLeft:0.168463,-0.674506,0.688244,-0.207321 HipRight:-0.073068,0.678181,0.715900,-0.149063 KneeLeft:-0.032538,0.758076,-0.079303,-0.646508 KneeRight:-0.019027,0.652862,0.028334,0.756707 Neck:0.116926,-0.042695,0.988317,-0.087945 ShoulderLeft:-0.050323,0.785142,-0.599124,0.148560 ShoulderRight:0.101058,0.781147,0.614918,0.038383 SpineBase:0.074859,-0.033308,0.995471,-0.048207 SpineMid:0.095440,-0.034298,0.993709,-0.047508 SpineShoulder:0.116734,-0.038588,0.990199,-0.066263 ThumbLeft:0.000000,0.000000,0.000000,0.000000 ThumbRight:0.000000,0.000000,0.000000,0.000000 WristLeft:-0.457425,0.825152,0.210724,0.255895 WristRight:-0.045947,0.838489,0.067175,-0.538806 END:
KINECT_DATA POSITION:20.455853,-3.827007,-6.197059 HEAD_JOINT1:0.980783,0.126105,-0.000000,0.148868 LARM_JOINT2:0.842608,0.000000,-0.153906,-0.516066 LARM_JOINT3:0.793062,0.000000,-0.525424,-0.308190 LLEG_JOINT2:0.995671,0.038917,0.000000,0.084407 LLEG_JOINT4:0.992580,0.102183,0.000000,-0.065904 RARM_JOINT2:0.771416,0.000000,-0.088315,0.630172 RARM_JOINT3:0.969582,0.000000,0.191387,0.152585 RLEG_JOINT2:0.999660,0.005532,0.000000,-0.025473 RLEG_JOINT4:0.992930,0.117743,0.000000,0.015047 WAIST:0.997149,0.000000,-0.075082,-0.007484 WAIST_JOINT0:0.992925,0.000000,-0.118699,-0.003210 WAIST_JOINT1:0.996891,0.070799,0.000000,-0.034581 END:
KINECT_DATA_Sensor  AnkleLeft:0.086754,0.765308,-0.110270,-0.628186 AnkleRight:0.087961,0.696623,0.087226,0.706661 ElbowLeft:-0.140884,0.929339,-0.124025,-0.317959 ElbowRight:0.061288,0.800640,0.184763,0.566640 FootLeft:0.000000,0.000000,0.000000,0.000000 FootRight:0.000000,0.000000,0.000000,0.000000 HandLeft:-0.578236,0.668282,0.371573,0.284561 HandRight:-0.056543,0.845897,0.006437,-0.530302 HandTipLeft:0.000000,0.000000,0.000000,0.000000 HandTipRight:0.000000,0.000000,0.000000,0.000000 Head:0.000000,0.000000,0.000000,0.000000 HipLeft:0.167820,-0.674518,0.688511,-0.206916 HipRight:-0.073498,0.678223,0.715684,-0.149691 KneeLeft:-0.033128,0.757398,-0.079365,-0.647265 KneeRight:-0.017630,0.653579,0.028256,0.756125 Neck:0.116539,-0.042733,0.988358,-0.087978 ShoulderLeft:-0.050299,0.785032,-0.599288,0.148491 ShoulderRight:0.100627,0.781191,0.614966,0.037837 SpineBase:0.073897,-0.033229,0.995538,-0.048366 SpineMid:0.094767,-0.034237,0.993769,-0.047658 SpineShoulder:0.116348,-0.038615,0.990238,-0.066333 ThumbLeft:0.000000,0.000000,0.000000,0.000000 ThumbRight:0.000000,0.000000,0.000000,0.000000 WristLeft:-0.450852,0.832731,0.223775,0.230687 WristRight:-0.047433,0.847749,0.065768,-0.524163 END:
KINECT_DATA POSITION:20.443415,-3.821817,-6.192386 HEAD_JOINT1:0.980718,0.126851,-0.000000,0.148661 LARM_JOINT2:0.842428,0.000000,-0.152709,-0.516716 LARM_JOINT3:0.792094,0.000000,-0.525627,-0.310328 LLEG_JOINT2:0.995699,0.037147,0.000000,0.084876 LLEG_JOINT4:0.992868,0.098981,0.000000,-0.066459 RARM_JOINT2:0.771308,0.000000,-0.088269,0.630311 RARM_JOINT3:0.969364,0.000000,0.191885,0.153338 RLEG_JOINT2:0.999650,0.004772,0.000000,-0.026022 RLEG_JOINT4:0.992936,0.117651,0.000000,0.015380 WAIST:0.997195,0.000000,-0.074525,-0.007011 WAIST_JOINT0:0.992976,0.000000,-0.118279,-0.003042 WAIST_JOINT1:0.996888,0.070665,0.000000,-0.034945 END:
KINECT_DATA_Sensor  AnkleLeft:0.078903,0.740096,-0.110099,-0.658719 AnkleRight:0.081154,0.646066,0.092483,0.753299 ElbowLeft:-0.139822,0.929153,-0.124306,-0.318861 ElbowRight:0.061212,0.801115,0.184483,0.566069 FootLeft:0.000000,0.000000,0.000000,0.000000 FootRight:0.000000,0.000000,0.000000,0.000000 HandLeft:-0.585940,0.659410,0.364936,0.297783 HandRight:-0.060230,0.824289,0.008993,-0.562885 HandTipLeft:0.000000,0.000000,0.000000,0.000000 HandTipRight:0.000000,0.000000,0.000000,0.000000 Head:0.000000,0.000000,0.000000,0.000000 HipLeft:0.167658,-0.674323,0.688859,-0.206525 HipRight:-0.073933,0.678473,0.715329,-0.150044 KneeLeft:-0.034944,0.756855,-0.078681,-0.647887 KneeRight:-0.018243,0.654049,0.027838,0.755720 Neck:0.116134,-0.042691,0.988424,-0.087797 ShoulderLeft:-0.050450,0.785005,-0.599347,0.148344 ShoulderRight:0.099967,0.781403,0.614833,0.037361 SpineBase:0.073301,-0.033175,0.995589,-0.048256 SpineMid:0.094266,-0.034184,0.993823,-0.047546 SpineShoulder:0.115945,-0.038564,0.990295,-0.066223 ThumbLeft:0.000000,0.000000,0.000000,0.000000 ThumbRight:0.000000,0.000000,0.000000,0.000000 WristLeft:-0.454161,0.829298,0.216353,0.243298 WristRight:-0.045143,0.826965,0.067283,-0.556384 END:
KINECT_DATA POSITION:20.432463,-3.823640,-6.219697 HEAD_JOINT1:0.980643,0.128542,-0.000000,0.147704 LARM_JOINT2:0.842577,0.000000,-0.148646,-0.517656 LARM_JOINT3:0.791834,0.000000,-0.524732,-0.312497 LLEG_JOINT2:0.995659,0.038319,0.000000,0.084828 LLEG_JOINT4:0.992762,0.099461,0.000000,-0.067318 RARM_JOINT2:0.770986,0.000000,-0.088663,0.630650 RARM_JOINT3:0.969461,0.000000,0.191382,0.153358 RLEG_JOINT2:0.999630,0.005531,0.000000,-0.026637 RLEG_JOINT4:0.992456,0.121556,0.000000,0.015989 WAIST:0.997346,0.000000,-0.072479,-0.006962 WAIST_JOINT0:0.993091,0.000000,-0.117306,-0.002945 WAIST_JOINT1:0.996920,0.070386,0.000000,-0.034585 END:
KINECT_DATA_Sensor  AnkleLeft:0.079590,0.730917,-0.111549,-0.668568 AnkleRight:0.090172,0.691332,0.090361,0.711171 ElbowLeft:-0.137231,0.927742,-0.126250,-0.323300 ElbowRight:0.060852,0.801102,0.183948,0.566300 FootLeft:0.000000,0.000000,0.000000,0.000000 FootRight:0.000000,0.000000,0.000000,0.000000 HandLeft:-0.570393,0.672691,0.379409,0.279621 HandRight:-0.062074,0.841252,0.002427,-0.537062 HandTipLeft:0.000000,0.000000,0.000000,0.000000 HandTipRight:0.000000,0.000000,0.000000,0.000000 Head:0.000000,0.000000,0.000000,0.000000 HipLeft:0.166440,-0.674698,0.689136,-0.205360 HipRight:-0.075271,0.678378,0.715078,-0.150999 KneeLeft:-0.033987,0.755618,-0.079657,-0.649262 KneeRight:-0.018084,0.655535,0.028737,0.754401 Neck:0.115191,-0.042528,0.988584,-0.087317 ShoulderLeft:-0.050110,0.784855,-0.599805,0.147394 ShoulderRight:0.099122,0.781346,0.615079,0.036759 SpineBase:0.071279,-0.032906,0.995754,-0.048073 SpineMid:0.092784,-0.033937,0.993981,-0.047351 SpineShoulder:0.115004,-0.038386,0.990436,-0.065852 ThumbLeft:0.000000,0.000000,0.000000,0.000000 ThumbRight:0.000000,0.000000,0.000000,0.000000 WristLeft:-0.450436,0.834979,0.226653,0.220332 WristRight:-0.047253,0.844128,0.065882,-0.529976 END:
KINECT_DATA POSITION:20.424080,-3.826855,-6.261313 HEAD_JOINT1:0.980662,0.129335,-0.000000,0.146882 LARM_JOINT2:0.842544,0.000000,-0.147127,-0.518144 LARM_JOINT3:0.791403,0.000000,-0.525879,-0.311662 LLEG_JOINT2:0.995655,0.036430,0.000000,0.085693 LLEG_JOINT4:0.991741,0.108418,0.000000,-0.068527 RARM_JOINT2:0.770900,0.000000,-0.088745,0.630744 RARM_JOINT3:0.968614,0.000000,0.194806,0.154393 RLEG_JOINT2:0.999641,0.007429,0.000000,-0.025739 RLEG_JOINT4:0.992952,0.117417,0.000000,0.016082 WAIST:0.997489,0.000000,-0.070511,-0.006633 WAIST_JOINT0:0.993226,0.000000,-0.116161,-0.002820 WAIST_JOINT1:0.996916,0.070421,0.000000,-0.034633 END:
KINECT_DATA_Sensor  AnkleLeft:0.084676,0.729868,-0.116535,-0.668238 AnkleRight:0.089850,0.699774,0.087326,0.703290 ElbowLeft:-0.135987,0.926673,-0.127127,-0.326532 ElbowRight:0.060653,0.801856,0.183808,0.565298 FootLeft:0.000000,0.000000,0.000000,0.000000 FootRight:0.000000,0.000000,0.000000,0.000000 HandLeft:-0.545538,0.693253,0.410787,0.230310 HandRight:-0.074550,0.825262,0.009878,-0.559720 HandTipLeft:0.000000,0.000000,0.000000,0.000000 HandTipRight:0.000000,0.000000,0.000000,0.000000 Head:0.000000,0.000000,0.000000,0.000000 HipLeft:0.165148,-0.674783,0.689702,-0.204220 HipRight:-0.076386,0.678331,0.714777,-0.152073 KneeLeft:-0.035965,0.754139,-0.079103,-0.650940 KneeRight:-0.015875,0.656990,0.029035,0.753173 Neck:0.114052,-0.042458,0.988724,-0.087261 ShoulderLeft:-0.049322,0.784714,-0.600289,0.146435 ShoulderRight:0.098491,0.781309,0.615278,0.035891 SpineBase:0.069295,-0.032719,0.995898,-0.048103 SpineMid:0.091223,-0.033771,0.994130,-0.047370 SpineShoulder:0.113865,-0.038303,0.990574,-0.065808 ThumbLeft:0.000000,0.000000,0.000000,0.000000 ThumbRight:0.000000,0.000000,0.000000,0.000000 WristLeft:-0.436293,0.847575,0.252210,0.166296 WristRight:-0.045853,0.829580,0.066910,-0.552464 END:
KINECT_DATA POSITION:20.444283,-3.828025,-6.305265 HEAD_JOINT1:0.980602,0.130451,-0.000000,0.146293 LARM_JOINT2:0.842393,0.000000,-0.144863,-0.519027 LARM_JOINT3:0.790609,0.000000,-0.525659,-0.314038 LLEG_JOINT2:0.995721,0.035810,0.000000,0.085190 LLEG_JOINT4:0.991912,0.107079,0.000000,-0.068158 RARM_JOINT2:0.770847,0.000000,-0.088989,0.630774 RARM_JOINT3:0.969652,0.000000,0.189813,0.154100 RLEG_JOINT2:0.999604,0.008374,0.000000,-0.026857 RLEG_JOINT4:0.993471,0.112583,0.000000,0.018475 WAIST:0.997612,0.000000,-0.068791,-0.006254 WAIST_JOINT0:0.993358,0.000000,-0.115033,-0.002509 WAIST_JOINT1:0.996927,0.070336,0.000000,-0.034490 END:
KINECT_DATA_Sensor  AnkleLeft:0.083783,0.730919,-0.114859,-0.667492 AnkleRight:0.086850,0.695068,0.084634,0.708642 ElbowLeft:-0.134392,0.925385,-0.128104,-0.330441 ElbowRight:0.060543,0.802335,0.183510,0.564727 FootLeft:0.000000,0.000000,0.000000,0.000000 FootRight:0.000000,0.000000,0.000000,0.000000 HandLeft:-0.281868,0.723395,0.617924,-0.124177 HandRight:-0.060992,0.839852,-0.006249,-0.539342 HandTipLeft:0.000000,0.000000,0.000000,0.000000 HandTipRight:0.000000,0.000000,0.000000,0.000000 Head:0.000000,0.000000,0.000000,0.000000 HipLeft:0.163959,-0.674861,0.690204,-0.203219 HipRight:-0.077470,0.678449,0.714370,-0.152908 KneeLeft:-0.036125,0.752961,-0.078639,-0.652351 KneeRight:-0.015669,0.658239,0.030211,0.752040 Neck:0.112941,-0.042089,0.988882,-0.087097 ShoulderLeft:-0.048650,0.784422,-0.600962,0.145462 ShoulderRight:0.097775,0.781309,0.615441,0.035061 SpineBase:0.067568,-0.032286,0.996034,-0.048041 SpineMid:0.089810,-0.033351,0.994276,-0.047308 SpineShoulder:0.112756,-0.037958,0.990724,-0.065658 ThumbLeft:0.000000,0.000000,0.000000,0.000000 ThumbRight:0.000000,0.000000,0.000000,0.000000 WristLeft:-0.290482,0.837297,0.412776,-0.210168 WristRight:-0.047755,0.843273,0.065472,-0.531341 END:
KINECT_DATA POSITION:20.445852,-3.833012,-6.343961 HEAD_JOINT1:0.980477,0.131356,-0.000000,0.146323 LARM_JOINT2:0.842670,0.000000,-0.145628,-0.518362 LARM_JOINT3:0.790322,0.000000,-0.526478,-0.313388 LLEG_JOINT2:0.995718,0.035332,0.000000,0.085420 LLEG_JOINT4:0.992260,0.101351,0.000000,-0.071755 RARM_JOINT2:0.770740,0.000000,-0.089140,0.630883 RARM_JOINT3:0.969491,0.000000,0.192734,0.151462 RLEG_JOINT2:0.999627,0.007744,0.000000,-0.026197 RLEG_JOINT4:0.993140,0.115567,0.000000,0.017821 WAIST:0.997731,0.000000,-0.067016,-0.006476 WAIST_JOINT0:0.993443,0.000000,-0.114305,-0.002209 WAIST_JOINT1:0.996923,0.070638,0.000000,-0.033970 END:
KINECT_DATA_Sensor  AnkleLeft:0.080012,0.713949,-0.109715,-0.686904 AnkleRight:0.087239,0.686295,0.087596,0.716740 ElbowLeft:-0.134664,0.925432,-0.129161,-0.329786 ElbowRight:0.060612,0.802808,0.183451,0.564067 FootLeft:0.000000,0.000000,0.000000,0.000000 FootRight:0.000000,0.000000,0.000000,0.000000 HandLeft:-0.538491,0.699940,0.416478,0.216003 HandRight:-0.062298,0.854903,0.005530,-0.515004 HandTipLeft:0.000000,0.000000,0.000000,0.000000 HandTipRight:0.000000,0.000000,0.000000,0.000000 Head:0.000000,0.000000,0.000000,0.000000 HipLeft:0.162634,-0.675310,0.690294,-0.202486 HipRight:-0.078440,0.678167,0.714299,-0.153992 KneeLeft:-0.036314,0.751772,-0.078345,-0.653745 KneeRight:-0.015914,0.659582,0.029435,0.750887 Neck:0.112196,-0.041977,0.988955,-0.087279 ShoulderLeft:-0.048092,0.784236,-0.601352,0.145040 ShoulderRight:0.097418,0.781452,0.615357,0.034330 SpineBase:0.065827,-0.032070,0.996147,-0.048256 SpineMid:0.088565,-0.033164,0.994384,-0.047510 SpineShoulder:0.112012,-0.037853,0.990800,-0.065839 ThumbLeft:0.000000,0.000000,0.000000,0.000000 ThumbRight:0.000000,0.000000,0.000000,0.000000 WristLeft:-0.433184,0.850500,0.257291,0.151002 WristRight:-0.049453,0.857133,0.063838,-0.508725 END:
KINECT_DATA POSITION:20.429703,-3.829375,-6.334758 HEAD_JOINT1:0.980187,0.132842,-0.000000,0.146922 LARM_JOINT2:0.843166,0.000000,-0.146393,-0.517339 LARM_JOINT3:0.790575,0.000000,-0.527002,-0.311867 LLEG_JOINT2:0.995705,0.034423,0.000000,0.085949 LLEG_JOINT4:0.992574,0.103374,0.000000,-0.064111 RARM_JOINT2:0.770440,0.000000,-0.089066,0.631260 RARM_JOINT3:0.969154,0.000000,0.194441,0.151437 RLEG_JOINT2:0.999646,0.007330,0.000000,-0.025591 RLEG_JOINT4:0.993175,0.114947,0.000000,0.019744 WAIST:0.997739,0.000000,-0.066865,-0.006805 WAIST_JOINT0:0.993502,0.000000,-0.113792,-0.002048 WAIST_JOINT1:0.996910,0.070878,0.000000,-0.033859 END:
KINECT_DATA_Sensor  AnkleLeft:0.083116,0.763455,-0.109549,-0.631053 AnkleRight:0.083202,0.648257,0.089695,0.751529 ElbowLeft:-0.135402,0.925520,-0.129655,-0.329043 ElbowRight:0.060745,0.802642,0.183321,0.564331 FootLeft:0.000000,0.000000,0.000000,0.000000 FootRight:0.000000,0.000000,0.000000,0.000000 HandLeft:-0.580491,0.675314,0.354571,0.285063 HandRight:-0.067894,0.828341,0.012147,-0.555963 HandTipLeft:0.000000,0.000000,0.000000,0.000000 HandTipRight:0.000000,0.000000,0.000000,0.000000 Head:0.000000,0.000000,0.000000,0.000000 HipLeft:0.162539,-0.675490,0.690124,-0.202542 HipRight:-0.078398,0.677871,0.714537,-0.154215 KneeLeft:-0.037077,0.751608,-0.077779,-0.653958 KneeRight:-0.016065,0.659712,0.028941,0.750789 Neck:0.111717,-0.042187,0.988977,-0.087549 ShoulderLeft:-0.048028,0.784195,-0.601402,0.145080 ShoulderRight:0.096919,0.781515,0.615399,0.033548 SpineBase:0.065691,-0.032313,0.996140,-0.048422 SpineMid:0.088254,-0.033403,0.994395,-0.047677 SpineShoulder:0.111530,-0.038045,0.990833,-0.066059 ThumbLeft:0.000000,0.000000,0.000000,0.000000 ThumbRight:0.000000,0.000000,0.000000,0.000000 WristLeft:-0.455948,0.831769,0.213351,0.233995 WristRight:-0.045984,0.831556,0.066004,-0.549585 END:
KINECT_DATA POSITION:20.421515,-3.833931,-6.321871 HEAD_JOINT1:0.980255,0.133178,-0.000000,0.146165 LARM_JOINT2:0.842681,0.000000,-0.148311,-0.517583 LARM_JOINT3:0.789615,0.000000,-0.528050,-0.312524 LLEG_JOINT2:0.995705,0.033442,0.000000,0.086333 LLEG_JOINT4:0.992337,0.105288,0.000000,-0.064664 RARM_JOINT2:0.770394,0.000000,-0.088538,0.631390 RARM_JOINT3:0.969120,0.000000,0.195095,0.150812 RLEG_JOINT2:0.999647,0.006442,0.000000,-0.025776 RLEG_JOINT4:0.992578,0.120159,0.000000,0.018749 WAIST:0.997759,0.000000,-0.066567,-0.006756 WAIST_JOINT0:0.993540,0.000000,-0.113458,-0.002336 WAIST_JOINT1:0.996847,0.071722,0.000000,-0.033952 END:
KINECT_DATA_Sensor  AnkleLeft:0.083903,0.763133,-0.110095,-0.631242 AnkleRight:0.088330,0.669222,0.090923,0.732170 ElbowLeft:-0.135453,0.925986,-0.128728,-0.328073 ElbowRight:0.060968,0.802455,0.183545,0.564500 FootLeft:0.000000,0.000000,0.000000,0.000000 FootRight:0.000000,0.000000,0.000000,0.000000 HandLeft:-0.597226,0.657654,0.338417,0.310302 HandRight:-0.067725,0.819186,0.014673,-0.569327 HandTipLeft:0.000000,0.000000,0.000000,0.000000 HandTipRight:0.000000,0.000000,0.000000,0.000000 Head:0.000000,0.000000,0.000000,0.000000 HipLeft:0.162167,-0.675423,0.690204,-0.202789 HipRight:-0.078347,0.677818,0.714460,-0.154827 KneeLeft:-0.038035,0.751300,-0.077337,-0.654310 KneeRight:-0.016826,0.659990,0.028459,0.750547 Neck:0.111394,-0.042275,0.988921,-0.088545 ShoulderLeft:-0.047605,0.784012,-0.601547,0.145599 ShoulderRight:0.097023,0.781277,0.615741,0.032497 SpineBase:0.065376,-0.032311,0.996137,-0.048923 SpineMid:0.087936,-0.033412,0.994399,-0.048178 SpineShoulder:0.111212,-0.038076,0.990815,-0.066847 ThumbLeft:0.000000,0.000000,0.000000,0.000000 ThumbRight:0.000000,0.000000,0.000000,0.000000 WristLeft:-0.462174,0.823647,0.198881,0.261623 WristRight:-0.044561,0.822480,0.066686,-0.563110 END:
KINECT_DATA POSITION:20.397749,-3.838092,-6.294978 HEAD_JOINT1:0.980406,0.132101,-0.000000,0.146128 LARM_JOINT2:0.842962,0.000000,-0.148277,-0.517136 LARM_JOINT3:0.788292,0.000000,-0.530655,-0.311451 LLEG_JOINT2:0.995672,0.034170,0.000000,0.086424 LLEG_JOINT4:0.992042,0.106443,0.000000,-0.067246 RARM_JOINT2:0.770641,0.000000,-0.087408,0.631247 RARM_JOINT3:0.969025,0.000000,0.194941,0.151619 RLEG_JOINT2:0.999650,0.007467,0.000000,-0.025392 RLEG_JOINT4:0.992702,0.119426,0.000000,0.016728 WAIST:0.997737,0.000000,-0.066899,-0.006670 WAIST_JOINT0:0.993615,0.000000,-0.112790,-0.002811 WAIST_JOINT1:0.996777,0.072512,0.000000,-0.034305 END:
KINECT_DATA_Sensor  AnkleLeft:0.086797,0.762398,-0.109903,-0.631773 AnkleRight:0.085048,0.648829,0.094624,0.750222 ElbowLeft:-0.134980,0.926095,-0.129220,-0.327765 ElbowRight:0.061026,0.803358,0.183942,0.563078 FootLeft:0.000000,0.000000,0.000000,0.000000 FootRight:0.000000,0.000000,0.000000,0.000000 HandLeft:-0.586926,0.666967,0.366445,0.276389 HandRight:-0.069010,0.825320,0.012790,-0.560287 HandTipLeft:0.000000,0.000000,0.000000,0.000000 HandTipRight:0.000000,0.000000,0.000000,0.000000 Head:0.000000,0.000000,0.000000,0.000000 HipLeft:0.162109,-0.675174,0.690289,-0.203374 HipRight:-0.077775,0.677803,0.714485,-0.155065 KneeLeft:-0.037706,0.751536,-0.077994,-0.653980 KneeRight:-0.015733,0.659752,0.028787,0.750767 Neck:0.110806,-0.042480,0.988896,-0.089453 ShoulderLeft:-0.047451,0.784082,-0.601301,0.146291 ShoulderRight:0.096515,0.781069,0.616170,0.030840 SpineBase:0.065678,-0.032361,0.996086,-0.049517 SpineMid:0.087803,-0.033454,0.994380,-0.048785 SpineShoulder:0.110629,-0.038220,0.990818,-0.067675 ThumbLeft:0.000000,0.000000,0.000000,0.000000 ThumbRight:0.000000,0.000000,0.000000,0.000000 WristLeft:-0.452100,0.834961,0.220661,0.223057 WristRight:-0.045168,0.828729,0.065811,-0.553929 END:
KINECT_DATA POSITION:20.371061,-3.847244,-6.262302 HEAD_JOINT1:0.980723,0.132465,-0.000000,0.143651 LARM_JOINT2:0.843638,0.000000,-0.138739,-0.518678 LARM_JOINT3:0.774724,0.000000,-0.544337,-0.321713 LLEG_JOINT2:0.995725,0.034747,0.000000,0.085583 LLEG_JOINT4:0.991960,0.107379,0.000000,-0.066974 RARM_JOINT2:0.772208,0.000000,-0.086120,0.629506 RARM_JOINT3:0.968493,0.000000,0.197861,0.151239 RLEG_JOINT2:0.999637,0.006261,0.000000,-0.026199 RLEG_JOINT4:0.992572,0.120066,0.000000,0.019609 WAIST:0.997952,0.000000,-0.063673,-0.006207 WAIST_JOINT0:0.994123,0.000000,-0.108221,-0.002754 WAIST_JOINT1:0.996716,0.073676,0.000000,-0.033594 END:
KINECT_DATA_Sensor  AnkleLeft:0.082638,0.727347,-0.114961,-0.671507 AnkleRight:0.086047,0.651336,0.092653,0.748180 ElbowLeft:-0.128224,0.922594,-0.134835,-0.337933 ElbowRight:0.060281,0.805665,0.185377,0.559379 FootLeft:0.000000,0.000000,0.000000,0.000000 FootRight:0.000000,0.000000,0.000000,0.000000 HandLeft:-0.620968,0.614065,0.396255,0.283381 HandRight:-0.074058,0.835444,0.019321,-0.544221 HandTipLeft:0.000000,0.000000,0.000000,0.000000 HandTipRight:0.000000,0.000000,0.000000,0.000000 Head:0.000000,0.000000,0.000000,0.000000 HipLeft:0.159823,-0.675182,0.691031,-0.202636 HipRight:-0.079365,0.677717,0.713858,-0.157504 KneeLeft:-0.036751,0.749425,-0.078333,-0.656411 KneeRight:-0.016921,0.662233,0.028235,0.748574 Neck:0.106363,-0.041278,0.989331,-0.090594 ShoulderLeft:-0.044180,0.783972,-0.602235,0.144044 ShoulderRight:0.094170,0.781088,0.616733,0.025964 SpineBase:0.062430,-0.031631,0.996273,-0.050420 SpineMid:0.083962,-0.032714,0.994690,-0.049724 SpineShoulder:0.106184,-0.037220,0.991267,-0.068777 ThumbLeft:0.000000,0.000000,0.000000,0.000000 ThumbRight:0.000000,0.000000,0.000000,0.000000 WristLeft:-0.452316,0.838256,0.225288,0.204896 WristRight:-0.046357,0.838800,0.065014,-0.538552 END:
KINECT_DATA POSITION:20.314367,-3.855650,-6.239605 HEAD_JOINT1:0.981090,0.135670,-0.000000,0.138046 LARM_JOINT2:0.854360,0.000000,-0.092756,-0.511337 LARM_JOINT3:0.732094,0.000000,-0.572496,-0.369169 LLEG_JOINT2:0.995883,0.034015,0.000000,0.084027 LLEG_JOINT4:0.992155,0.106919,0.000000,-0.064783 RARM_JOINT2:0.774648,0.000000,-0.081865,0.627072 RARM_JOINT3:0.967800,0.000000,0.201509,0.150857 RLEG_JOINT2:0.999627,0.007719,0.000000,-0.026184 RLEG_JOINT4:0.992664,0.119359,0.000000,0.019284 WAIST:0.998351,0.000000,-0.057153,-0.005283 WAIST_JOINT0:0.995145,0.000000,-0.098413,-0.001074 WAIST_JOINT1:0.996709,0.074438,0.000000,-0.032082 END:
KINECT_DATA_Sensor  AnkleLeft:0.083034,0.732174,-0.113521,-0.666438 AnkleRight:0.091723,0.698197,0.088159,0.704511 ElbowLeft:-0.104598,0.913759,-0.171411,-0.353161 ElbowRight:0.057123,0.811880,0.185724,0.550540 FootLeft:0.000000,0.000000,0.000000,0.000000 FootRight:0.000000,0.000000,0.000000,0.000000 HandLeft:-0.188373,0.605977,0.749906,-0.186946 HandRight:-0.084799,0.808789,0.035519,-0.580868 HandTipLeft:0.000000,0.000000,0.000000,0.000000 HandTipRight:0.000000,0.000000,0.000000,0.000000 Head:0.000000,0.000000,0.000000,0.000000 HipLeft:0.156139,-0.675396,0.692254,-0.200613 HipRight:-0.083306,0.677761,0.712458,-0.161569 KneeLeft:-0.036201,0.745042,-0.077662,-0.661491 KneeRight:-0.015327,0.667061,0.028454,0.744302 Neck:0.096740,-0.038836,0.990358,-0.091232 ShoulderLeft:-0.037188,0.783434,-0.605000,0.137197 ShoulderRight:0.088899,0.781550,0.617228,0.017503 SpineBase:0.055909,-0.030062,0.996677,-0.051039 SpineMid:0.075907,-0.031080,0.995354,-0.050425 SpineShoulder:0.096555,-0.035111,0.992279,-0.069472 ThumbLeft:0.000000,0.000000,0.000000,0.000000 ThumbRight:0.000000,0.000000,0.000000,0.000000 WristLeft:-0.252328,0.797047,0.458825,-0.300877 WristRight:-0.044629,0.813131,0.066819,-0.576508 END:
KINECT_DATA POSITION:20.212811,-3.867616,-6.201541 HEAD_JOINT1:0.981742,0.141302,-0.000000,0.127342 LARM_JOINT2:0.861723,0.000000,-0.033090,-0.506298 LARM_JOINT3:0.693910,0.000000,-0.562816,-0.449140 LLEG_JOINT2:0.996129,0.032931,0.000000,0.081507 LLEG_JOINT4:0.992584,0.105225,0.000000,-0.060865 RARM_JOINT2:0.778030,0.000000,-0.079880,0.623128 RARM_JOINT3:0.967543,0.000000,0.199700,0.154858 RLEG_JOINT2:0.999604,0.010528,0.000000,-0.026080 RLEG_JOINT4:0.992823,0.117746,0.000000,0.020937 WAIST:0.998916,0.000000,-0.046396,-0.003891 WAIST_JOINT0:0.996928,0.000000,-0.078211,0.004293 WAIST_JOINT1:0.996780,0.074679,0.000000,-0.029200 END:
KINECT_DATA_Sensor  AnkleLeft:0.079838,0.721968,-0.112983,-0.677954 AnkleRight:0.089083,0.668661,0.092281,0.732421 ElbowLeft:-0.070238,0.896563,-0.210567,-0.383278 ElbowRight:0.053628,0.817743,0.186897,0.541747 FootLeft:0.000000,0.000000,0.000000,0.000000 FootRight:0.000000,0.000000,0.000000,0.000000 HandLeft:-0.180029,0.713391,0.676981,-0.018963 HandRight:-0.093412,0.800927,0.016721,-0.591194 HandTipLeft:0.000000,0.000000,0.000000,0.000000 HandTipRight:0.000000,0.000000,0.000000,0.000000 Head:0.000000,0.000000,0.000000,0.000000 HipLeft:0.149496,-0.676215,0.694214,-0.196088 HipRight:-0.089664,0.678017,0.710188,-0.166994 KneeLeft:-0.035187,0.737806,-0.076562,-0.669733 KneeRight:-0.012466,0.674896,0.029149,0.737231 Neck:0.076303,-0.034223,0.992299,-0.091376 ShoulderLeft:-0.020646,0.780782,-0.612851,0.119858 ShoulderRight:0.079396,0.783290,0.616559,0.002774 SpineBase:0.045196,-0.027268,0.997289,-0.051273 SpineMid:0.060376,-0.028046,0.996485,-0.050852 SpineShoulder:0.076106,-0.031055,0.994171,-0.069761 ThumbLeft:0.000000,0.000000,0.000000,0.000000 ThumbRight:0.000000,0.000000,0.000000,0.000000 WristLeft:-0.355905,0.813459,0.432838,-0.155779 WristRight:-0.045142,0.807802,0.067717,-0.583809 END:
KINECT_DATA POSITION:20.172504,-3.903472,-6.130528 HEAD_JOINT1:0.982470,0.150166,-0.000000,0.110464 LARM_JOINT2:0.862080,0.000000,0.002027,-0.506768 LARM_JOINT3:0.697241,0.000000,-0.609041,-0.378052 LLEG_JOINT2:0.996470,0.031770,0.000000,0.077705 LLEG_JOINT4:0.992877,0.103368,0.000000,-0.059248 RARM_JOINT2:0.786839,0.000000,-0.068733,0.613319 RARM_JOINT3:0.967589,0.000000,0.194325,0.161276 RLEG_JOINT2:0.999436,0.015396,0.000000,-0.029830 RLEG_JOINT4:0.993278,0.113594,0.000000,0.022269 WAIST:0.999465,0.000000,-0.032681,-0.000895 WAIST_JOINT0:0.998944,0.000000,-0.044334,0.012041 WAIST_JOINT1:0.996975,0.073768,0.000000,-0.024469 END:
KINECT_DATA_Sensor  AnkleLeft:0.077982,0.707565,-0.110964,-0.693511 AnkleRight:0.090043,0.688173,0.092452,0.713977 ElbowLeft:-0.057587,0.864508,-0.230391,-0.442979 ElbowRight:0.045717,0.841488,0.187541,0.504615 FootLeft:0.000000,0.000000,0.000000,0.000000 FootRight:0.000000,0.000000,0.000000,0.000000 HandLeft:0.742861,-0.226112,0.194924,-0.599196 HandRight:-0.113428,0.772644,0.022011,-0.624236 HandTipLeft:0.000000,0.000000,0.000000,0.000000 HandTipRight:0.000000,0.000000,0.000000,0.000000 Head:0.000000,0.000000,0.000000,0.000000 HipLeft:0.141987,-0.676727,0.696860,-0.190439 HipRight:-0.099934,0.679145,0.705787,-0.175042 KneeLeft:-0.034241,0.728425,-0.075733,-0.680065 KneeRight:-0.009719,0.684752,0.032949,0.727966 Neck:0.042303,-0.025084,0.994697,-0.090323 ShoulderLeft:0.004479,0.776051,-0.623964,0.091617 ShoulderRight:0.060859,0.785439,0.615530,-0.022448 SpineBase:0.031471,-0.022942,0.997949,-0.050811 SpineMid:0.036539,-0.023200,0.997776,-0.050693 SpineShoulder:0.042081,-0.023180,0.996450,-0.069132 ThumbLeft:0.000000,0.000000,0.000000,0.000000 ThumbRight:0.000000,0.000000,0.000000,0.000000 WristLeft:-0.448657,0.360939,-0.301242,0.760055 WristRight:-0.043264,0.782185,0.063579,-0.618281 END:
KINECT_DATA POSITION:20.096420,-3.944663,-6.078589 HEAD_JOINT1:0.983845,0.163453,-0.000000,0.073029 LARM_JOINT2:0.857376,0.000000,0.051441,-0.512114 LARM_JOINT3:0.734664,0.000000,-0.618193,-0.279474 LLEG_JOINT2:0.997202,0.027230,0.000000,0.069613 LLEG_JOINT4:0.994092,0.098401,0.000000,-0.045816 RARM_JOINT2:0.799725,0.000000,-0.057116,0.597643 RARM_JOINT3:0.966656,0.000000,0.190544,0.171082 RLEG_JOINT2:0.999180,0.018038,0.000000,-0.036249 RLEG_JOINT4:0.992797,0.115264,0.000000,0.032674 WAIST:0.999988,0.000000,-0.003016,0.003797 WAIST_JOINT0:0.999705,-0.000000,0.006823,0.023295 WAIST_JOINT1:0.997264,0.072702,0.000000,-0.013367 END:
KINECT_DATA_Sensor  AnkleLeft:0.073097,0.724549,-0.105213,-0.677212 AnkleRight:0.092955,0.682494,0.095272,0.718669 ElbowLeft:-0.035748,0.809956,-0.257459,-0.525746 ElbowRight:0.033661,0.868796,0.188002,0.456854 FootLeft:0.000000,0.000000,0.000000,0.000000 FootRight:0.000000,0.000000,0.000000,0.000000 HandLeft:-0.512014,0.857223,-0.042024,-0.035271 HandRight:-0.128391,0.771788,0.002494,-0.622778 HandTipLeft:0.000000,0.000000,0.000000,0.000000 HandTipRight:0.000000,0.000000,0.000000,0.000000 Head:0.000000,0.000000,0.000000,0.000000 HipLeft:0.122337,-0.678184,0.702906,-0.176136 HipRight:-0.119697,0.679708,0.698678,-0.188466 KneeLeft:-0.032769,0.707812,-0.071102,-0.702049 KneeRight:-0.010018,0.705728,0.035759,0.707509 Neck:-0.009290,-0.008942,0.995955,-0.088918 ShoulderLeft:0.042627,0.768002,-0.637226,0.047938 ShoulderRight:0.032353,0.789591,0.609890,-0.059442 SpineBase:0.002014,-0.012188,0.998676,-0.049927 SpineMid:-0.003885,-0.011892,0.998671,-0.049998 SpineShoulder:-0.009431,-0.008325,0.997629,-0.067661 ThumbLeft:0.000000,0.000000,0.000000,0.000000 ThumbRight:0.000000,0.000000,0.000000,0.000000 WristLeft:-0.516450,0.843901,0.131158,0.062511 WristRight:-0.053360,0.784703,0.058700,-0.614775 END:
KINECT_DATA POSITION:19.891783,-4.006695,-6.032717 HEAD_JOINT1:0.984582,0.173187,-0.000000,0.024568 LARM_JOINT2:0.834807,0.000000,0.109330,-0.539578 LARM_JOINT3:0.798069,0.000000,-0.592020,-0.112243 LLEG_JOINT2:0.998067,0.019058,0.000000,0.059147 LLEG_JOINT4:0.994737,0.096872,0.000000,-0.033379 RARM_JOINT2:0.815319,0.000000,-0.038397,0.577738 RARM_JOINT3:0.966737,0.000000,0.174776,0.186741 RLEG_JOINT2:0.998757,0.020225,0.000000,-0.045561 RLEG_JOINT4:0.992055,0.117323,0.000000,0.045418 WAIST:0.999040,-0.000000,0.042237,0.011660 WAIST_JOINT0:0.996037,-0.000000,0.079185,0.040496 WAIST_JOINT1:0.997522,0.070322,0.000000,-0.002021 END:
KINECT_DATA_Sensor  AnkleLeft:0.068534,0.727254,-0.099597,-0.675637 AnkleRight:0.086910,0.622656,0.106314,0.770352 ElbowLeft:-0.014423,0.685247,-0.265199,-0.678158 ElbowRight:0.016448,0.911605,0.185892,0.366265 FootLeft:0.000000,0.000000,0.000000,0.000000 FootRight:0.000000,0.000000,0.000000,0.000000 HandLeft:-0.483685,0.753140,0.004998,-0.445874 HandRight:0.132435,-0.682243,0.017359,0.718821 HandTipLeft:0.000000,0.000000,0.000000,0.000000 HandTipRight:0.000000,0.000000,0.000000,0.000000 Head:0.000000,0.000000,0.000000,0.000000 HipLeft:0.090882,-0.678419,0.713341,-0.150445 HipRight:-0.148499,0.679947,0.688268,-0.204713 KneeLeft:0.034156,-0.675257,0.064702,0.733945 KneeRight:-0.011585,0.736709,0.037496,0.675070 Neck:-0.082094,0.009540,0.992846,-0.086172 ShoulderLeft:0.093158,0.752710,-0.651605,-0.012641 ShoulderRight:-0.011278,0.792092,0.599964,-0.111830 SpineBase:-0.042952,0.005184,0.997954,-0.047082 SpineMid:-0.062444,0.006103,0.996924,-0.046971 SpineShoulder:-0.082085,0.009346,0.994486,-0.064587 ThumbLeft:0.000000,0.000000,0.000000,0.000000 ThumbRight:0.000000,0.000000,0.000000,0.000000 WristLeft:-0.458376,0.795176,0.120121,-0.378362 WristRight:0.059960,-0.684635,-0.052145,0.724541 END:
KINECT_DATA POSITION:19.433205,-4.011966,-6.349230 HEAD_JOINT1:0.985439,0.170013,0.000000,-0.002375 LARM_JOINT2:0.829426,0.000000,0.120603,-0.545442 LARM_JOINT3:0.823290,0.000000,-0.566750,-0.031453 LLEG_JOINT2:0.998488,0.008968,0.000000,0.054237 LLEG_JOINT4:0.995467,0.092857,0.000000,-0.020555 RARM_JOINT2:0.823737,0.000000,-0.037564,0.565726 RARM_JOINT3:0.968030,0.000000,0.157768,0.195006 RLEG_JOINT2:0.998475,0.021090,0.000000,-0.051012 RLEG_JOINT4:0.991116,0.120256,0.000000,0.056809 WAIST:0.996768,-0.000000,0.078588,0.016675 WAIST_JOINT0:0.991697,-0.000000,0.119295,0.048015 WAIST_JOINT1:0.997303,0.073238,-0.000000,0.004723 END:
KINECT_DATA_Sensor  AnkleLeft:-0.043717,-0.639513,0.103128,0.760577 AnkleRight:0.099119,0.687145,0.101123,0.712588 ElbowLeft:0.018497,-0.600973,0.273322,0.750856 ElbowRight:0.014668,0.933099,0.189313,0.305403 FootLeft:0.000000,0.000000,0.000000,0.000000 FootRight:0.000000,0.000000,0.000000,0.000000 HandLeft:-0.438668,0.749096,-0.104251,-0.485342 HandRight:0.096989,-0.688911,0.056400,0.716111 HandTipLeft:0.000000,0.000000,0.000000,0.000000 HandTipRight:0.000000,0.000000,0.000000,0.000000 Head:0.000000,0.000000,0.000000,0.000000 HipLeft:0.060983,-0.677405,0.721982,-0.127064 HipRight:-0.169030,0.676123,0.682226,-0.221030 KneeLeft:0.040131,-0.647990,0.058862,0.758309 KneeRight:-0.013286,0.760727,0.037396,0.647858 Neck:-0.122421,0.019549,0.988251,-0.089392 ShoulderLeft:0.123428,0.741721,-0.657888,-0.042417 ShoulderRight:-0.033934,0.788260,0.597303,-0.143955 SpineBase:-0.079227,0.014427,0.995577,-0.048396 SpineMid:-0.100649,0.015466,0.993640,-0.048074 SpineShoulder:-0.122391,0.018469,0.990031,-0.067219 ThumbLeft:0.000000,0.000000,0.000000,0.000000 ThumbRight:0.000000,0.000000,0.000000,0.000000 WristLeft:-0.468421,0.775724,0.011730,-0.422724 WristRight:0.059942,-0.693064,-0.035306,0.717511 END:
KINECT_DATA POSITION:18.676619,-4.096627,-6.845844 HEAD_JOINT1:0.985527,0.168038,0.000000,-0.022340 LARM_JOINT2:0.828470,0.000000,0.120198,-0.546983 LARM_JOINT3:0.878184,0.000000,-0.473344,0.068839 LLEG_JOINT2:0.998189,0.007900,0.000000,0.059635 LLEG_JOINT4:0.996096,0.085745,0.000000,-0.020987 RARM_JOINT2:0.825137,0.000000,-0.039084,0.563579 RARM_JOINT3:0.961253,0.000000,0.157142,0.226492 RLEG_JOINT2:0.998630,0.016698,0.000000,-0.049595 RLEG_JOINT4:0.990665,0.122082,0.000000,0.060647 WAIST:0.995423,-0.000000,0.094122,0.016560 WAIST_JOINT0:0.988241,-0.000000,0.144900,0.048817 WAIST_JOINT1:0.997011,0.076630,-0.000000,0.009880 END:
KINECT_DATA_Sensor  AnkleLeft:-0.045096,-0.698048,0.096968,0.708021 AnkleRight:0.100182,0.698294,0.097502,0.702027 ElbowLeft:0.027557,-0.551807,0.276633,0.786272 ElbowRight:0.018621,0.940784,0.189232,0.280659 FootLeft:0.000000,0.000000,0.000000,0.000000 FootRight:0.000000,0.000000,0.000000,0.000000 HandLeft:0.543410,-0.640497,0.191552,0.507717 HandRight:0.148092,-0.662517,0.139625,0.720864 HandTipLeft:0.000000,0.000000,0.000000,0.000000 HandTipRight:0.000000,0.000000,0.000000,0.000000 Head:0.000000,0.000000,0.000000,0.000000 HipLeft:0.050837,-0.677795,0.722931,-0.124015 HipRight:-0.182067,0.671217,0.679242,-0.234416 KneeLeft:0.043541,-0.636205,0.062715,0.767733 KneeRight:-0.015863,0.770364,0.032784,0.636564 Neck:-0.147823,0.024186,0.984348,-0.092856 ShoulderLeft:0.141359,0.737460,-0.657834,-0.058522 ShoulderRight:-0.049694,0.783692,0.596258,-0.166835 SpineBase:-0.094489,0.018550,0.993992,-0.052029 SpineMid:-0.120904,0.019927,0.991126,-0.051517 SpineShoulder:-0.147790,0.022902,0.986225,-0.070662 ThumbLeft:0.000000,0.000000,0.000000,0.000000 ThumbRight:0.000000,0.000000,0.000000,0.000000 WristLeft:-0.365700,0.770083,-0.093821,-0.514230 WristRight:0.065236,-0.669040,-0.024811,0.739942 END:
KINECT_DATA POSITION:18.357725,-4.176389,-6.969845 HEAD_JOINT1:0.985811,0.166153,0.000000,-0.023865 LARM_JOINT2:0.839546,0.000000,0.102518,-0.533528 LARM_JOINT3:0.910709,0.000000,-0.395727,0.118360 LLEG_JOINT2:0.998201,0.007041,0.000000,0.059546 LLEG_JOINT4:0.996211,0.084507,0.000000,-0.020542 RARM_JOINT2:0.825009,0.000000,-0.036639,0.563931 RARM_JOINT3:0.961644,0.000000,0.160076,0.222746 RLEG_JOINT2:0.998616,0.013318,0.000000,-0.050878 RLEG_JOINT4:0.989600,0.129153,0.000000,0.063334 WAIST:0.995239,-0.000000,0.095800,0.017914 WAIST_JOINT0:0.987282,-0.000000,0.151412,0.048463 WAIST_JOINT1:0.997113,0.075120,-0.000000,0.011103 END:
KINECT_DATA_Sensor  AnkleLeft:0.043007,0.701079,-0.096786,-0.705175 AnkleRight:0.104633,0.701198,0.098712,0.698305 ElbowLeft:0.074502,-0.489170,0.276632,0.823794 ElbowRight:0.017678,0.943957,0.184963,0.272803 FootLeft:0.000000,0.000000,0.000000,0.000000 FootRight:0.000000,0.000000,0.000000,0.000000 HandLeft:-0.448600,0.686292,-0.294827,-0.490753 HandRight:0.139624,-0.682981,0.114450,0.707773 HandTipLeft:0.000000,0.000000,0.000000,0.000000 HandTipRight:0.000000,0.000000,0.000000,0.000000 Head:0.000000,0.000000,0.000000,0.000000 HipLeft:0.049811,-0.677079,0.723864,-0.122896 HipRight:-0.184418,0.672127,0.677713,-0.234392 KneeLeft:0.045011,-0.634894,0.063112,0.768700 KneeRight:-0.018129,0.771264,0.029984,0.635550 Neck:-0.154022,0.027042,0.983501,-0.090947 ShoulderLeft:0.143036,0.737610,-0.656799,-0.063938 ShoulderRight:-0.056164,0.783614,0.594507,-0.171334 SpineBase:-0.096160,0.021217,0.993825,-0.051135 SpineMid:-0.124768,0.022682,0.990640,-0.050502 SpineShoulder:-0.153938,0.025736,0.985324,-0.069114 ThumbLeft:0.000000,0.000000,0.000000,0.000000 ThumbRight:0.000000,0.000000,0.000000,0.000000 WristLeft:-0.351408,0.773242,-0.191071,-0.492038 WristRight:0.073370,-0.690555,-0.018332,0.719315 END:
KINECT_DATA POSITION:18.119158,-4.259934,-6.905305 HEAD_JOINT1:0.986435,0.162583,0.000000,-0.022659 LARM_JOINT2:0.853881,0.000000,0.070647,-0.515651 LARM_JOINT3:0.933186,0.000000,-0.336999,0.124884 LLEG_JOINT2:0.998061,0.006860,0.000000,0.061856 LLEG_JOINT4:0.996314,0.082815,0.000000,-0.022377 RARM_JOINT2:0.823554,0.000000,-0.034920,0.566162 RARM_JOINT3:0.962218,0.000000,0.157180,0.222331 RLEG_JOINT2:0.998796,0.013089,0.000000,-0.047271 RLEG_JOINT4:0.989398,0.132157,0.000000,0.060211 WAIST:0.995378,-0.000000,0.094431,0.017501 WAIST_JOINT0:0.987614,-0.000000,0.149476,0.047711 WAIST_JOINT1:0.997295,0.072594,-0.000000,0.011534 END:
KINECT_DATA_Sensor  AnkleLeft:-0.040399,-0.695334,0.096290,0.711060 AnkleRight:0.118710,0.785574,0.086097,0.601139 ElbowLeft:0.114308,-0.487643,0.271245,0.821927 ElbowRight:0.015530,0.943857,0.180897,0.275986 FootLeft:0.000000,0.000000,0.000000,0.000000 FootRight:0.000000,0.000000,0.000000,0.000000 HandLeft:0.492078,-0.592539,0.226418,0.596231 HandRight:-0.133141,0.699816,-0.125743,-0.690449 HandTipLeft:0.000000,0.000000,0.000000,0.000000 HandTipRight:0.000000,0.000000,0.000000,0.000000 Head:0.000000,0.000000,0.000000,0.000000 HipLeft:0.052009,-0.677523,0.723441,-0.122028 HipRight:-0.185000,0.672642,0.677833,-0.232100 KneeLeft:0.046398,-0.635845,0.064441,0.767721 KneeRight:-0.015728,0.770447,0.027841,0.636701 Neck:-0.151894,0.027227,0.984082,-0.088146 ShoulderLeft:0.138961,0.739267,-0.655854,-0.063481 ShoulderRight:-0.057303,0.784888,0.593437,-0.168817 SpineBase:-0.094755,0.021216,0.994077,-0.048801 SpineMid:-0.123000,0.022596,0.990979,-0.048178 SpineShoulder:-0.151795,0.025895,0.985816,-0.066745 ThumbLeft:0.000000,0.000000,0.000000,0.000000 ThumbRight:0.000000,0.000000,0.000000,0.000000 WristLeft:0.369845,-0.633179,0.136479,0.666087 WristRight:-0.078077,0.737102,0.014278,-0.671104 END:
KINECT_DATA POSITION:18.025068,-4.310299,-6.774879 HEAD_JOINT1:0.986600,0.162349,0.000000,-0.016219 LARM_JOINT2:0.867219,0.000000,0.038675,-0.496423 LARM_JOINT3:0.953327,0.000000,-0.278582,0.116447 LLEG_JOINT2:0.998012,0.003645,0.000000,0.062926 LLEG_JOINT4:0.995658,0.090119,0.000000,-0.023319 RARM_JOINT2:0.822333,0.000000,-0.040465,0.567566 RARM_JOINT3:0.962109,0.000000,0.155404,0.224045 RLEG_JOINT2:0.998816,0.012802,0.000000,-0.046941 RLEG_JOINT4:0.989632,0.129641,0.000000,0.061815 WAIST:0.995641,-0.000000,0.091533,0.017933 WAIST_JOINT0:0.989224,-0.000000,0.138698,0.046898 WAIST_JOINT1:0.997448,0.070636,-0.000000,0.010398 END:
KINECT_DATA_Sensor  AnkleLeft:-0.042579,-0.692339,0.099405,0.713423 AnkleRight:0.110046,0.720012,0.093563,0.678762 ElbowLeft:0.151715,-0.493217,0.264757,0.814630 ElbowRight:0.016070,0.938126,0.181188,0.294673 FootLeft:0.000000,0.000000,0.000000,0.000000 FootRight:0.000000,0.000000,0.000000,0.000000 HandLeft:0.506065,-0.597542,0.209103,0.585763 HandRight:0.111693,-0.665439,0.138993,0.724843 HandTipLeft:0.000000,0.000000,0.000000,0.000000 HandTipRight:0.000000,0.000000,0.000000,0.000000 Head:0.000000,0.000000,0.000000,0.000000 HipLeft:0.055357,-0.677283,0.723414,-0.122050 HipRight:-0.184351,0.673837,0.677698,-0.229529 KneeLeft:0.050029,-0.637819,0.063402,0.765940 KneeRight:-0.015232,0.768681,0.027187,0.638873 Neck:-0.141064,0.025948,0.985943,-0.085694 ShoulderLeft:0.129027,0.742515,-0.654958,-0.055256 ShoulderRight:-0.052892,0.787424,0.592788,-0.160524 SpineBase:-0.091939,0.020568,0.994460,-0.046630 SpineMid:-0.116191,0.021700,0.991918,-0.046114 SpineShoulder:-0.140923,0.024998,0.987561,-0.065104 ThumbLeft:0.000000,0.000000,0.000000,0.000000 ThumbRight:0.000000,0.000000,0.000000,0.000000 WristLeft:0.344092,-0.615547,0.161864,0.690292 WristRight:0.084823,-0.680383,-0.025011,0.727501 END:
KINECT_DATA POSITION:18.045300,-4.336869,-6.672525 HEAD_JOINT1:0.986012,0.166248,0.000000,-0.011896 LARM_JOINT2:0.873842,0.000000,0.030311,-0.485264 LARM_JOINT3:0.949145,0.000000,-0.293779,0.113211 LLEG_JOINT2:0.997998,0.005569,0.000000,0.062994 LLEG_JOINT4:0.995732,0.089330,0.000000,-0.023212 RARM_JOINT2:0.819681,0.000000,-0.050955,0.570550 RARM_JOINT3:0.960470,0.000000,0.163302,0.225453 RLEG_JOINT2:0.998876,0.012103,0.000000,-0.045828 RLEG_JOINT4:0.989421,0.132030,0.000000,0.060117 WAIST:0.996039,-0.000000,0.087116,0.017832 WAIST_JOINT0:0.990610,-0.000000,0.128494,0.046694 WAIST_JOINT1:0.997566,0.069212,-0.000000,0.008472 END:
KINECT_DATA_Sensor  AnkleLeft:-0.034785,-0.635392,0.103532,0.764427 AnkleRight:0.111884,0.723385,0.093847,0.674825 ElbowLeft:0.167877,-0.493027,0.263865,0.811860 ElbowRight:0.020654,0.929790,0.182899,0.318765 FootLeft:0.000000,0.000000,0.000000,0.000000 FootRight:0.000000,0.000000,0.000000,0.000000 HandLeft:0.529133,-0.618868,0.160719,0.557844 HandRight:0.119829,-0.670908,0.140566,0.718168 HandTipLeft:0.000000,0.000000,0.000000,0.000000 HandTipRight:0.000000,0.000000,0.000000,0.000000 Head:0.000000,0.000000,0.000000,0.000000 HipLeft:0.059198,-0.677089,0.723033,-0.123571 HipRight:-0.182840,0.674743,0.678214,-0.226532 KneeLeft:0.048750,-0.641204,0.064452,0.763103 KneeRight:-0.014723,0.765867,0.026132,0.642299 Neck:-0.131067,0.023211,0.987540,-0.083951 ShoulderLeft:0.118498,0.744142,-0.655852,-0.045484 ShoulderRight:-0.050432,0.789142,0.592363,-0.154330 SpineBase:-0.087542,0.020161,0.994934,-0.045122 SpineMid:-0.108946,0.021128,0.992818,-0.044678 SpineShoulder:-0.130862,0.023175,0.989072,-0.063826 ThumbLeft:0.000000,0.000000,0.000000,0.000000 ThumbRight:0.000000,0.000000,0.000000,0.000000 WristLeft:0.360770,-0.626777,0.166078,0.670384 WristRight:0.086976,-0.686148,-0.029019,0.721661 END:
KINECT_DATA POSITION:18.173574,-4.352260,-6.559050 HEAD_JOINT1:0.985425,0.170066,0.000000,-0.003815 LARM_JOINT2:0.875045,0.000000,0.029428,-0.483147 LARM_JOINT3:0.944638,0.000000,-0.307205,0.115259 LLEG_JOINT2:0.997918,0.007668,0.000000,0.064045 LLEG_JOINT4:0.995196,0.094473,0.000000,-0.025685 RARM_JOINT2:0.817363,0.000000,-0.054214,0.573566 RARM_JOINT3:0.960064,0.000000,0.167716,0.223939 RLEG_JOINT2:0.998972,0.012646,0.000000,-0.043523 RLEG_JOINT4:0.990012,0.129579,0.000000,0.055553 WAIST:0.996397,-0.000000,0.083020,0.017365 WAIST_JOINT0:0.991758,-0.000000,0.119529,0.046148 WAIST_JOINT1:0.997635,0.068423,-0.000000,0.006562 END:
KINECT_DATA_Sensor  AnkleLeft:-0.049780,-0.697722,0.103196,0.707147 AnkleRight:0.109656,0.725849,0.092866,0.672677 ElbowLeft:0.168755,-0.500272,0.262926,0.807539 ElbowRight:0.023136,0.926990,0.182464,0.326897 FootLeft:0.000000,0.000000,0.000000,0.000000 FootRight:0.000000,0.000000,0.000000,0.000000 HandLeft:0.533028,-0.647497,0.176833,0.515129 HandRight:-0.122335,0.699241,-0.133990,-0.691479 HandTipLeft:0.000000,0.000000,0.000000,0.000000 HandTipRight:0.000000,0.000000,0.000000,0.000000 Head:0.000000,0.000000,0.000000,0.000000 HipLeft:0.061743,-0.677349,0.722441,-0.124360 HipRight:-0.179953,0.675545,0.679225,-0.223405 KneeLeft:0.047706,-0.644303,0.066131,0.760411 KneeRight:-0.012780,0.763308,0.025498,0.645405 Neck:-0.122181,0.020734,0.988758,-0.083660 ShoulderLeft:0.110146,0.745971,-0.655734,-0.037522 ShoulderRight:-0.047182,0.790647,0.592154,-0.148341 SpineBase:-0.083466,0.018995,0.995348,-0.044211 SpineMid:-0.102466,0.019837,0.993572,-0.043840 SpineShoulder:-0.121989,0.020822,0.990317,-0.062909 ThumbLeft:0.000000,0.000000,0.000000,0.000000 ThumbRight:0.000000,0.000000,0.000000,0.000000 WristLeft:0.365348,-0.658996,0.171074,0.634806 WristRight:-0.089535,0.739191,0.022785,-0.667129 END:
KINECT_DATA POSITION:18.387739,-4.367919,-6.510937 HEAD_JOINT1:0.984888,0.173193,-0.000000,0.000781 LARM_JOINT2:0.875225,0.000000,0.028962,-0.482848 LARM_JOINT3:0.936809,0.000000,-0.331696,0.111207 LLEG_JOINT2:0.997915,0.009333,0.000000,0.063863 LLEG_JOINT4:0.995732,0.089379,0.000000,-0.023001 RARM_JOINT2:0.815108,0.000000,-0.055985,0.576597 RARM_JOINT3:0.960879,0.000000,0.168065,0.220147 RLEG_JOINT2:0.998924,0.012596,0.000000,-0.044624 RLEG_JOINT4:0.989215,0.134304,0.000000,0.058447 WAIST:0.996646,-0.000000,0.080044,0.017015 WAIST_JOINT0:0.992493,-0.000000,0.113399,0.045803 WAIST_JOINT1:0.997690,0.067689,-0.000000,0.005749 END:
KINECT_DATA_Sensor  AnkleLeft:-0.037486,-0.644504,0.106358,0.756239 AnkleRight:0.113388,0.718582,0.096109,0.679372 ElbowLeft:0.168688,-0.505771,0.261763,0.804500 ElbowRight:0.024101,0.923320,0.180617,0.338050 FootLeft:0.000000,0.000000,0.000000,0.000000 FootRight:0.000000,0.000000,0.000000,0.000000 HandLeft:0.557377,-0.647386,0.116441,0.506620 HandRight:0.128066,-0.662498,0.128120,0.726829 HandTipLeft:0.000000,0.000000,0.000000,0.000000 HandTipRight:0.000000,0.000000,0.000000,0.000000 Head:0.000000,0.000000,0.000000,0.000000 HipLeft:0.063861,-0.677453,0.722023,-0.125148 HipRight:-0.177989,0.676070,0.679971,-0.221108 KneeLeft:0.046231,-0.646605,0.066720,0.758494 KneeRight:-0.013784,0.761381,0.026498,0.647616 Neck:-0.116095,0.019673,0.989547,-0.083255 ShoulderLeft:0.106510,0.746788,-0.655588,-0.034176 ShoulderRight:-0.042737,0.791831,0.592372,-0.142384 SpineBase:-0.080499,0.018228,0.995638,-0.043496 SpineMid:-0.097958,0.018989,0.994072,-0.043169 SpineShoulder:-0.115919,0.019665,0.991120,-0.062111 ThumbLeft:0.000000,0.000000,0.000000,0.000000 ThumbRight:0.000000,0.000000,0.000000,0.000000 WristLeft:0.379624,-0.653805,0.155394,0.635828 WristRight:0.086172,-0.675601,-0.033492,0.731448 END:
KINECT_DATA POSITION:18.491756,-4.365390,-6.540024 HEAD_JOINT1:0.984633,0.174585,-0.000000,0.004181 LARM_JOINT2:0.874418,0.000000,0.028952,-0.484310 LARM_JOINT3:0.929379,0.000000,-0.357723,0.091041 LLEG_JOINT2:0.997871,0.007922,0.000000,0.064732 LLEG_JOINT4:0.995036,0.094846,0.000000,-0.030141 RARM_JOINT2:0.814560,0.000000,-0.057451,0.577228 RARM_JOINT3:0.961067,0.000000,0.166057,0.220851 RLEG_JOINT2:0.998925,0.015664,0.000000,-0.043638 RLEG_JOINT4:0.990185,0.127825,0.000000,0.056523 WAIST:0.996762,-0.000000,0.078578,0.017048 WAIST_JOINT0:0.992962,-0.000000,0.109565,0.044957 WAIST_JOINT1:0.997720,0.067358,-0.000000,0.004206 END:
KINECT_DATA_Sensor  AnkleLeft:0.054765,0.718195,-0.099192,-0.686555 AnkleRight:0.117261,0.765961,0.085483,0.626295 ElbowLeft:0.159147,-0.531148,0.264195,0.789149 ElbowRight:0.025258,0.923364,0.181458,0.337392 FootLeft:0.000000,0.000000,0.000000,0.000000 FootRight:0.000000,0.000000,0.000000,0.000000 HandLeft:-0.524678,0.756706,-0.190458,-0.340346 HandRight:-0.113467,0.701306,-0.133157,-0.691060 HandTipLeft:0.000000,0.000000,0.000000,0.000000 HandTipRight:0.000000,0.000000,0.000000,0.000000 Head:0.000000,0.000000,0.000000,0.000000 HipLeft:0.065189,-0.677416,0.721905,-0.125343 HipRight:-0.176840,0.676360,0.680235,-0.220329 KneeLeft:0.047983,-0.647569,0.066429,0.757588 KneeRight:-0.010955,0.760603,0.028206,0.648512 Neck:-0.112196,0.018089,0.990044,-0.083049 ShoulderLeft:0.103694,0.748383,-0.654347,-0.031640 ShoulderRight:-0.040329,0.792480,0.592465,-0.139046 SpineBase:-0.079093,0.017011,0.995790,-0.043106 SpineMid:-0.095327,0.017712,0.994367,-0.042823 SpineShoulder:-0.112039,0.018116,0.991621,-0.061704 ThumbLeft:0.000000,0.000000,0.000000,0.000000 ThumbRight:0.000000,0.000000,0.000000,0.000000 WristLeft:-0.340993,0.801757,-0.223635,-0.436918 WristRight:-0.088731,0.739466,0.024526,-0.666870 END:
KINECT_DATA POSITION:18.636412,-4.342260,-6.687522 HEAD_JOINT1:0.984419,0.175622,-0.000000,0.008686 LARM_JOINT2:0.871459,0.000000,0.028735,-0.489625 LARM_JOINT3:0.926721,0.000000,-0.366535,0.082702 LLEG_JOINT2:0.997948,0.008278,0.000000,0.063497 LLEG_JOINT4:0.995071,0.094528,0.000000,-0.029976 RARM_JOINT2:0.814389,0.000000,-0.060833,0.577122 RARM_JOINT3:0.961484,0.000000,0.167425,0.217986 RLEG_JOINT2:0.998864,0.015212,0.000000,-0.045165 RLEG_JOINT4:0.990642,0.125237,0.000000,0.054267 WAIST:0.997056,-0.000000,0.074736,0.017136 WAIST_JOINT0:0.993591,-0.000000,0.103805,0.044727 WAIST_JOINT1:0.997688,0.067894,-0.000000,0.003141 END:
KINECT_DATA_Sensor  AnkleLeft:0.054610,0.718116,-0.098887,-0.686694 AnkleRight:0.103654,0.696323,0.096278,0.703648 ElbowLeft:0.149629,-0.550977,0.262438,0.777921 ElbowRight:0.027914,0.920478,0.183720,0.343784 FootLeft:0.000000,0.000000,0.000000,0.000000 FootRight:0.000000,0.000000,0.000000,0.000000 HandLeft:0.552423,-0.685448,0.083085,0.466998 HandRight:-0.099351,0.713471,-0.122355,-0.682728 HandTipLeft:0.000000,0.000000,0.000000,0.000000 HandTipRight:0.000000,0.000000,0.000000,0.000000 Head:0.000000,0.000000,0.000000,0.000000 HipLeft:0.067164,-0.677033,0.721741,-0.127298 HipRight:-0.173701,0.677060,0.680966,-0.218409 KneeLeft:0.047184,-0.650494,0.065646,0.755197 KneeRight:-0.012189,0.758107,0.028888,0.651376 Neck:-0.106530,0.017206,0.990631,-0.083703 ShoulderLeft:0.101367,0.748905,-0.654285,-0.027868 ShoulderRight:-0.035178,0.793099,0.593108,-0.134086 SpineBase:-0.075310,0.016153,0.996080,-0.043494 SpineMid:-0.090621,0.016820,0.994804,-0.043240 SpineShoulder:-0.106378,0.017257,0.992230,-0.062174 ThumbLeft:0.000000,0.000000,0.000000,0.000000 ThumbRight:0.000000,0.000000,0.000000,0.000000 WristLeft:-0.372786,0.718049,-0.139520,-0.570939 WristRight:-0.088719,0.743983,0.024717,-0.661821 END:
KINECT_DATA POSITION:18.708683,-4.324560,-6.749570 HEAD_JOINT1:0.984251,0.176488,-0.000000,0.010076 LARM_JOINT2:0.869583,0.000000,0.028639,-0.492955 LARM_JOINT3:0.926551,0.000000,-0.367041,0.082367 LLEG_JOINT2:0.997919,0.007576,0.000000,0.064035 LLEG_JOINT4:0.994916,0.095799,0.000000,-0.031051 RARM_JOINT2:0.813902,0.000000,-0.062473,0.577634 RARM_JOINT3:0.960699,0.000000,0.172949,0.217132 RLEG_JOINT2:0.998841,0.014869,0.000000,-0.045773 RLEG_JOINT4:0.990706,0.124496,0.000000,0.054787 WAIST:0.997183,-0.000000,0.073021,0.017122 WAIST_JOINT0:0.993859,-0.000000,0.101228,0.044693 WAIST_JOINT1:0.997667,0.068202,-0.000000,0.002975 END:
KINECT_DATA_Sensor  AnkleLeft:-0.045555,-0.650445,0.103684,0.751063 AnkleRight:0.104266,0.703682,0.094052,0.696502 ElbowLeft:0.145563,-0.557484,0.260622,0.774661 ElbowRight:0.029076,0.918078,0.184082,0.349860 FootLeft:0.000000,0.000000,0.000000,0.000000 FootRight:0.000000,0.000000,0.000000,0.000000 HandLeft:0.550148,-0.691750,0.098058,0.457388 HandRight:-0.113297,0.708167,-0.112058,-0.687827 HandTipLeft:0.000000,0.000000,0.000000,0.000000 HandTipRight:0.000000,0.000000,0.000000,0.000000 Head:0.000000,0.000000,0.000000,0.000000 HipLeft:0.067927,-0.676864,0.721638,-0.128372 HipRight:-0.172376,0.677351,0.681298,-0.217522 KneeLeft:0.048152,-0.651745,0.065522,0.754067 KneeRight:-0.012812,0.756968,0.029077,0.652679 Neck:-0.104013,0.017009,0.990870,-0.084071 ShoulderLeft:0.100241,0.748933,-0.654504,-0.025983 ShoulderRight:-0.033019,0.793268,0.593466,-0.132041 SpineBase:-0.073603,0.016124,0.996196,-0.043776 SpineMid:-0.088506,0.016777,0.994983,-0.043530 SpineShoulder:-0.103852,0.017145,0.992481,-0.062471 ThumbLeft:0.000000,0.000000,0.000000,0.000000 ThumbRight:0.000000,0.000000,0.000000,0.000000 WristLeft:-0.367942,0.732721,-0.140157,-0.555063 WristRight:-0.087956,0.738833,0.026841,-0.667584 END:
KINECT_DATA POSITION:18.792030,-4.316699,-6.781948 HEAD_JOINT1:0.983977,0.177933,-0.000000,0.011359 LARM_JOINT2:0.868495,0.000000,0.028651,-0.494868 LARM_JOINT3:0.927400,0.000000,-0.364249,0.085161 LLEG_JOINT2:0.998027,0.007568,0.000000,0.062331 LLEG_JOINT4:0.994994,0.094442,0.000000,-0.032665 RARM_JOINT2:0.814045,0.000000,-0.062373,0.577442 RARM_JOINT3:0.960727,0.000000,0.175123,0.215255 RLEG_JOINT2:0.998794,0.016056,0.000000,-0.046387 RLEG_JOINT4:0.990797,0.124192,0.000000,0.053826 WAIST:0.997213,-0.000000,0.072430,0.017906 WAIST_JOINT0:0.994051,-0.000000,0.099348,0.044650 WAIST_JOINT1:0.997638,0.068642,-0.000000,0.002428 END:
KINECT_DATA_Sensor  AnkleLeft:0.053499,0.705712,-0.097142,-0.699765 AnkleRight:0.105736,0.714588,0.093406,0.685171 ElbowLeft:0.144177,-0.557836,0.259472,0.775052 ElbowRight:0.029455,0.917918,0.184223,0.350173 FootLeft:0.000000,0.000000,0.000000,0.000000 FootRight:0.000000,0.000000,0.000000,0.000000 HandLeft:0.553089,-0.664276,0.079902,0.496432 HandRight:-0.115102,0.711458,-0.103333,-0.685493 HandTipLeft:0.000000,0.000000,0.000000,0.000000 HandTipRight:0.000000,0.000000,0.000000,0.000000 Head:0.000000,0.000000,0.000000,0.000000 HipLeft:0.067913,-0.676224,0.722154,-0.128850 HipRight:-0.171642,0.677921,0.680979,-0.217323 KneeLeft:0.047633,-0.652202,0.064758,0.753771 KneeRight:-0.011920,0.756654,0.029839,0.653026 Neck:-0.102148,0.017113,0.991021,-0.084563 ShoulderLeft:0.098685,0.749026,-0.654718,-0.023776 ShoulderRight:-0.032232,0.793196,0.593776,-0.131265 SpineBase:-0.073071,0.016462,0.996213,-0.044146 SpineMid:-0.087298,0.017091,0.995067,-0.043906 SpineShoulder:-0.101972,0.017329,0.992648,-0.062864 ThumbLeft:0.000000,0.000000,0.000000,0.000000 ThumbRight:0.000000,0.000000,0.000000,0.000000 WristLeft:0.376984,-0.682975,0.107425,0.616350 WristRight:-0.087618,0.739352,0.026653,-0.667062 END:
KINECT_DATA POSITION:18.820114,-4.314037,-6.763792 HEAD_JOINT1:0.984039,0.177631,-0.000000,0.010669 LARM_JOINT2:0.867924,0.000000,0.028899,-0.495856 LARM_JOINT3:0.928269,0.000000,-0.361173,0.088710 LLEG_JOINT2:0.998060,0.008486,0.000000,0.061682 LLEG_JOINT4:0.995152,0.093980,0.000000,-0.029004 RARM_JOINT2:0.814355,0.000000,-0.061505,0.577098 RARM_JOINT3:0.961180,0.000000,0.174358,0.213851 RLEG_JOINT2:0.998806,0.015850,0.000000,-0.046201 RLEG_JOINT4:0.991070,0.122183,0.000000,0.053401 WAIST:0.997266,-0.000000,0.071729,0.017738 WAIST_JOINT0:0.994283,-0.000000,0.097200,0.044191 WAIST_JOINT1:0.997589,0.069347,-0.000000,0.002852 END:
KINECT_DATA_Sensor  AnkleLeft:0.053555,0.715978,-0.099018,-0.688986 AnkleRight:0.103839,0.712227,0.092196,0.688077 ElbowLeft:0.143920,-0.556100,0.258994,0.776506 ElbowRight:0.029696,0.918117,0.184398,0.349537 FootLeft:0.000000,0.000000,0.000000,0.000000 FootRight:0.000000,0.000000,0.000000,0.000000 HandLeft:0.548621,-0.678667,0.108547,0.476071 HandRight:-0.112381,0.701109,-0.097103,-0.697415 HandTipLeft:0.000000,0.000000,0.000000,0.000000 HandTipRight:0.000000,0.000000,0.000000,0.000000 Head:0.000000,0.000000,0.000000,0.000000 HipLeft:0.068008,-0.676227,0.722030,-0.129481 HipRight:-0.170984,0.677908,0.681249,-0.217038 KneeLeft:0.046428,-0.652812,0.064728,0.753320 KneeRight:-0.012004,0.756175,0.029697,0.653586 Neck:-0.100016,0.017384,0.991155,-0.085483 ShoulderLeft:0.097256,0.749431,-0.654553,-0.021312 ShoulderRight:-0.030950,0.793254,0.593954,-0.130419 SpineBase:-0.072357,0.016552,0.996247,-0.044514 SpineMid:-0.085883,0.017155,0.995173,-0.044285 SpineShoulder:-0.099844,0.017472,0.992817,-0.063563 ThumbLeft:0.000000,0.000000,0.000000,0.000000 ThumbRight:0.000000,0.000000,0.000000,0.000000 WristLeft:-0.367530,0.724915,-0.135427,-0.566639 WristRight:-0.086222,0.727519,0.027912,-0.680075 END:
KINECT_DATA POSITION:18.836851,-4.308681,-6.761563 HEAD_JOINT1:0.983927,0.178207,-0.000000,0.011424 LARM_JOINT2:0.868593,0.000000,0.030016,-0.494616 LARM_JOINT3:0.929312,0.000000,-0.358354,0.089227 LLEG_JOINT2:0.998054,0.009082,0.000000,0.061691 LLEG_JOINT4:0.995257,0.092192,0.000000,-0.031049 RARM_JOINT2:0.814353,0.000000,-0.060880,0.577168 RARM_JOINT3:0.961193,0.000000,0.176013,0.212433 RLEG_JOINT2:0.998792,0.015462,0.000000,-0.046634 RLEG_JOINT4:0.990916,0.123877,0.000000,0.052342 WAIST:0.997330,-0.000000,0.070811,0.017824 WAIST_JOINT0:0.994551,-0.000000,0.094714,0.043554 WAIST_JOINT1:0.997569,0.069645,-0.000000,0.002518 END:
KINECT_DATA_Sensor  AnkleLeft:0.052844,0.711311,-0.097231,-0.694112 AnkleRight:0.104565,0.718265,0.092961,0.681556 ElbowLeft:0.143640,-0.557883,0.260761,0.774686 ElbowRight:0.029637,0.917941,0.184453,0.349975 FootLeft:0.000000,0.000000,0.000000,0.000000 FootRight:0.000000,0.000000,0.000000,0.000000 HandLeft:0.549551,-0.674169,0.114360,0.480012 HandRight:-0.110971,0.726993,-0.093622,-0.671120 HandTipLeft:0.000000,0.000000,0.000000,0.000000 HandTipRight:0.000000,0.000000,0.000000,0.000000 Head:0.000000,0.000000,0.000000,0.000000 HipLeft:0.068366,-0.676063,0.722056,-0.130000 HipRight:-0.170200,0.678083,0.681401,-0.216629 KneeLeft:0.046091,-0.653504,0.065155,0.752704 KneeRight:-0.012486,0.755565,0.029650,0.654283 Neck:-0.097474,0.017017,0.991385,-0.085821 ShoulderLeft:0.094355,0.750565,-0.653775,-0.018108 ShoulderRight:-0.030603,0.793487,0.593825,-0.129669 SpineBase:-0.071456,0.016436,0.996306,-0.044712 SpineMid:-0.084161,0.017005,0.995313,-0.044499 SpineShoulder:-0.097298,0.017178,0.993056,-0.063861 ThumbLeft:0.000000,0.000000,0.000000,0.000000 ThumbRight:0.000000,0.000000,0.000000,0.000000 WristLeft:-0.365080,0.723816,-0.135706,-0.569554 WristRight:-0.086937,0.750018,0.025253,-0.655192 END:
KINECT_DATA POSITION:18.879118,-4.299103,-6.757271 HEAD_JOINT1:0.983921,0.178139,-0.000000,0.012917 LARM_JOINT2:0.869475,0.000000,0.027797,-0.493195 LARM_JOINT3:0.928616,0.000000,-0.361357,0.084230 LLEG_JOINT2:0.998109,0.009567,0.000000,0.060716 LLEG_JOINT4:0.995067,0.094264,0.000000,-0.030909 RARM_JOINT2:0.814539,0.000000,-0.059612,0.577038 RARM_JOINT3:0.961088,0.000000,0.175197,0.213579 RLEG_JOINT2:0.998763,0.014569,0.000000,-0.047546 RLEG_JOINT4:0.990842,0.124819,0.000000,0.051493 WAIST:0.997376,-0.000000,0.070033,0.018337 WAIST_JOINT0:0.994752,-0.000000,0.092474,0.043794 WAIST_JOINT1:0.997511,0.070482,-0.000000,0.001937 END:
KINECT_DATA_Sensor  AnkleLeft:-0.047173,-0.655352,0.102463,0.746853 AnkleRight:0.101032,0.698397,0.096540,0.701936 ElbowLeft:0.145485,-0.559566,0.261065,0.773023 ElbowRight:0.029618,0.918146,0.184592,0.349366 FootLeft:0.000000,0.000000,0.000000,0.000000 FootRight:0.000000,0.000000,0.000000,0.000000 HandLeft:-0.543516,0.712112,-0.128827,-0.425312 HandRight:-0.114001,0.709714,-0.095577,-0.688603 HandTipLeft:0.000000,0.000000,0.000000,0.000000 HandTipRight:0.000000,0.000000,0.000000,0.000000 Head:0.000000,0.000000,0.000000,0.000000 HipLeft:0.068431,-0.675582,0.722373,-0.130706 HipRight:-0.169206,0.678412,0.681310,-0.216661 KneeLeft:0.045490,-0.654084,0.065072,0.752244 KneeRight:-0.013364,0.755052,0.029231,0.654877 Neck:-0.095306,0.016877,0.991522,-0.086692 ShoulderLeft:0.093211,0.750419,-0.654171,-0.015567 ShoulderRight:-0.028977,0.793495,0.594102,-0.128723 SpineBase:-0.070739,0.016316,0.996331,-0.045329 SpineMid:-0.082725,0.016860,0.995407,-0.045129 SpineShoulder:-0.095131,0.017019,0.993216,-0.064666 ThumbLeft:0.000000,0.000000,0.000000,0.000000 ThumbRight:0.000000,0.000000,0.000000,0.000000 WristLeft:-0.354987,0.759972,-0.159855,-0.520454 WristRight:-0.086027,0.735278,0.027063,-0.671739 END:
