EastLYD/RoboCupatHomeSim/InteractiveCleanUp/JapanOpen2016/Motion_Data/File55.dat
KINECT_DATA POSITION:15.815118,-1.512051,-11.944723 HEAD_JOINT1:0.973983,0.208861,-0.000000,0.087949 LARM_JOINT2:0.832483,0.000000,-0.048524,-0.551922 LARM_JOINT3:0.970015,0.000000,-0.177548,-0.165977 LLEG_JOINT2:0.999136,0.004685,0.000000,0.041291 LLEG_JOINT4:0.994649,0.091698,0.000000,-0.047597 RARM_JOINT2:0.787323,0.000000,-0.043408,0.615011 RARM_JOINT3:0.977253,0.000000,0.178444,0.114604 RLEG_JOINT2:0.998916,0.004109,0.000000,-0.046368 RLEG_JOINT4:0.995698,0.088718,0.000000,0.026724 WAIST:0.999964,0.000000,-0.008416,0.000558 WAIST_JOINT0:0.999649,0.000000,-0.026150,0.004152 WAIST_JOINT1:0.995897,0.088597,0.000000,-0.018420 END:
KINECT_DATA_Sensor  AnkleLeft:0.073933,0.730791,-0.061960,-0.675751 AnkleRight:0.056931,0.731769,0.075590,0.674951 ElbowLeft:-0.033054,0.906490,-0.181531,-0.379776 ElbowRight:0.032830,0.836864,0.181431,0.515425 FootLeft:0.000000,0.000000,0.000000,0.000000 FootRight:0.000000,0.000000,0.000000,0.000000 HandLeft:-0.123993,0.640305,-0.016736,0.757862 HandRight:-0.033834,0.722709,-0.029370,0.689698 HandTipLeft:0.000000,0.000000,0.000000,0.000000 HandTipRight:0.000000,0.000000,0.000000,0.000000 Head:0.000000,0.000000,0.000000,0.000000 HipLeft:0.112598,-0.675498,0.705696,-0.181706 HipRight:-0.098990,0.675098,0.707327,-0.184750 KneeLeft:-0.026607,0.711192,-0.032639,-0.701735 KneeRight:-0.029111,0.701896,0.035611,0.710793 Neck:0.024317,-0.019899,0.993993,-0.104841 ShoulderLeft:0.018548,0.773839,-0.626125,0.093795 ShoulderRight:0.051935,0.779824,0.621566,-0.053231 SpineBase:0.007333,-0.015224,0.997866,-0.063075 SpineMid:0.015630,-0.015748,0.997770,-0.062946 SpineShoulder:0.024179,-0.018088,0.996078,-0.083172 ThumbLeft:0.000000,0.000000,0.000000,0.000000 ThumbRight:0.000000,0.000000,0.000000,0.000000 WristLeft:-0.067857,0.643552,-0.102563,0.755458 WristRight:-0.075274,0.720588,-0.017540,0.689042 END:
KINECT_DATA POSITION:15.819089,-1.516677,-11.942959 HEAD_JOINT1:0.973817,0.209232,-0.000000,0.088892 LARM_JOINT2:0.831896,0.000000,-0.048021,-0.552850 LARM_JOINT3:0.971504,0.000000,-0.174874,-0.159999 LLEG_JOINT2:0.999149,0.004224,0.000000,0.041031 LLEG_JOINT4:0.994425,0.094395,0.000000,-0.047004 RARM_JOINT2:0.785061,0.000000,-0.043459,0.617892 RARM_JOINT3:0.977700,0.000000,0.175803,0.114877 RLEG_JOINT2:0.998919,0.004470,0.000000,-0.046276 RLEG_JOINT4:0.995499,0.090646,0.000000,0.027673 WAIST:0.999960,0.000000,-0.008964,0.000559 WAIST_JOINT0:0.999610,0.000000,-0.027736,0.003132 WAIST_JOINT1:0.995903,0.088505,0.000000,-0.018572 END:
KINECT_DATA_Sensor  AnkleLeft:0.075126,0.729150,-0.063978,-0.677202 AnkleRight:0.059511,0.732349,0.076182,0.674032 ElbowLeft:-0.031839,0.907798,-0.180677,-0.377153 ElbowRight:0.034596,0.836762,0.178391,0.516535 FootLeft:0.000000,0.000000,0.000000,0.000000 FootRight:0.000000,0.000000,0.000000,0.000000 HandLeft:-0.101926,0.690480,-0.022687,0.715775 HandRight:-0.021567,0.687449,-0.039178,0.724854 HandTipLeft:0.000000,0.000000,0.000000,0.000000 HandTipRight:0.000000,0.000000,0.000000,0.000000 Head:0.000000,0.000000,0.000000,0.000000 HipLeft:0.113076,-0.675429,0.705600,-0.182039 HipRight:-0.098717,0.675174,0.707348,-0.184538 KneeLeft:-0.026765,0.711548,-0.032113,-0.701393 KneeRight:-0.028767,0.701525,0.035813,0.711163 Neck:0.026172,-0.020118,0.993955,-0.104709 ShoulderLeft:0.018125,0.774205,-0.625581,0.094477 ShoulderRight:0.053849,0.778482,0.623246,-0.051285 SpineBase:0.007870,-0.015358,0.997861,-0.063049 SpineMid:0.016822,-0.015923,0.997750,-0.062909 SpineShoulder:0.026035,-0.018306,0.996035,-0.083073 ThumbLeft:0.000000,0.000000,0.000000,0.000000 ThumbRight:0.000000,0.000000,0.000000,0.000000 WristLeft:-0.075730,0.692996,-0.095475,0.710567 WristRight:-0.071061,0.682174,-0.020372,0.727444 END:
KINECT_DATA POSITION:15.828079,-1.529492,-11.946082 HEAD_JOINT1:0.973767,0.209159,-0.000000,0.089612 LARM_JOINT2:0.831633,0.000000,-0.047157,-0.553319 LARM_JOINT3:0.971522,0.000000,-0.175742,-0.158933 LLEG_JOINT2:0.999167,0.004532,0.000000,0.040546 LLEG_JOINT4:0.994345,0.095798,0.000000,-0.045840 RARM_JOINT2:0.788504,0.000000,-0.043226,0.613509 RARM_JOINT3:0.976819,0.000000,0.177408,0.119799 RLEG_JOINT2:0.998915,0.004115,0.000000,-0.046390 RLEG_JOINT4:0.995522,0.090457,0.000000,0.027438 WAIST:0.999957,0.000000,-0.009242,0.000340 WAIST_JOINT0:0.999565,0.000000,-0.029262,0.003654 WAIST_JOINT1:0.995944,0.088063,0.000000,-0.018436 END:
KINECT_DATA_Sensor  AnkleLeft:0.075114,0.719787,-0.066556,-0.686902 AnkleRight:0.055186,0.700454,0.078849,0.707179 ElbowLeft:-0.031588,0.907491,-0.180268,-0.378108 ElbowRight:0.033504,0.842357,0.182512,0.505967 FootLeft:0.000000,0.000000,0.000000,0.000000 FootRight:0.000000,0.000000,0.000000,0.000000 HandLeft:-0.100869,0.663665,-0.030249,0.740580 HandRight:-0.029566,0.659076,-0.047726,0.749978 HandTipLeft:0.000000,0.000000,0.000000,0.000000 HandTipRight:0.000000,0.000000,0.000000,0.000000 Head:0.000000,0.000000,0.000000,0.000000 HipLeft:0.113285,-0.675585,0.705438,-0.181959 HipRight:-0.098617,0.675120,0.707522,-0.184118 KneeLeft:-0.026054,0.711793,-0.031833,-0.701183 KneeRight:-0.029246,0.701298,0.035809,0.711367 Neck:0.027299,-0.020227,0.993974,-0.104215 ShoulderLeft:0.017551,0.774201,-0.625584,0.094607 ShoulderRight:0.054781,0.780259,0.621095,-0.049361 SpineBase:0.008171,-0.015418,0.997873,-0.062807 SpineMid:0.017533,-0.016007,0.997753,-0.062660 SpineShoulder:0.027159,-0.018439,0.996039,-0.082630 ThumbLeft:0.000000,0.000000,0.000000,0.000000 ThumbRight:0.000000,0.000000,0.000000,0.000000 WristLeft:-0.072553,0.666136,-0.098156,0.735775 WristRight:-0.070162,0.654432,-0.022611,0.752519 END:
KINECT_DATA POSITION:15.826210,-1.545668,-11.977064 HEAD_JOINT1:0.974493,0.206126,-0.000000,0.088741 LARM_JOINT2:0.831491,0.000000,-0.047262,-0.553524 LARM_JOINT3:0.971326,0.000000,-0.176322,-0.159485 LLEG_JOINT2:0.999140,0.004714,0.000000,0.041189 LLEG_JOINT4:0.994504,0.093734,0.000000,-0.046640 RARM_JOINT2:0.791212,0.000000,-0.044097,0.609950 RARM_JOINT3:0.976752,0.000000,0.175996,0.122393 RLEG_JOINT2:0.998931,0.004220,0.000000,-0.046033 RLEG_JOINT4:0.995506,0.090982,0.000000,0.026262 WAIST:0.999955,0.000000,-0.009459,-0.000054 WAIST_JOINT0:0.999538,0.000000,-0.030117,0.004140 WAIST_JOINT1:0.996011,0.087348,0.000000,-0.018227 END:
KINECT_DATA_Sensor  AnkleLeft:0.074729,0.726377,-0.064180,-0.680200 AnkleRight:0.058336,0.731105,0.077614,0.675321 ElbowLeft:-0.031904,0.908181,-0.179598,-0.376740 ElbowRight:0.032784,0.845807,0.186204,0.498863 FootLeft:0.000000,0.000000,0.000000,0.000000 FootRight:0.000000,0.000000,0.000000,0.000000 HandLeft:-0.107051,0.657552,-0.032929,0.745038 HandRight:-0.032933,0.720453,-0.031595,0.692001 HandTipLeft:0.000000,0.000000,0.000000,0.000000 HandTipRight:0.000000,0.000000,0.000000,0.000000 Head:0.000000,0.000000,0.000000,0.000000 HipLeft:0.113757,-0.675871,0.705125,-0.181813 HipRight:-0.098733,0.674940,0.707782,-0.183717 KneeLeft:-0.026113,0.711972,-0.032131,-0.700986 KneeRight:-0.029192,0.701118,0.035910,0.711541 Neck:0.027874,-0.020348,0.994033,-0.103473 ShoulderLeft:0.016433,0.774115,-0.625706,0.094696 ShoulderRight:0.054435,0.781630,0.619480,-0.048336 SpineBase:0.008430,-0.015669,0.997894,-0.062372 SpineMid:0.017937,-0.016263,0.997769,-0.062220 SpineShoulder:0.027721,-0.018645,0.996079,-0.081914 ThumbLeft:0.000000,0.000000,0.000000,0.000000 ThumbRight:0.000000,0.000000,0.000000,0.000000 WristLeft:-0.071890,0.660339,-0.098322,0.741025 WristRight:-0.072531,0.718554,-0.016940,0.691471 END:
KINECT_DATA POSITION:15.799085,-1.534770,-12.026871 HEAD_JOINT1:0.975339,0.202330,-0.000000,0.088189 LARM_JOINT2:0.831902,0.000000,-0.046921,-0.552935 LARM_JOINT3:0.970031,0.000000,-0.183260,-0.159551 LLEG_JOINT2:0.999104,0.005088,0.000000,0.042026 LLEG_JOINT4:0.994713,0.091259,0.000000,-0.047087 RARM_JOINT2:0.787670,0.000000,-0.046867,0.614312 RARM_JOINT3:0.976809,0.000000,0.178587,0.118115 RLEG_JOINT2:0.998969,0.003872,0.000000,-0.045238 RLEG_JOINT4:0.995315,0.092952,0.000000,0.026622 WAIST:0.999940,0.000000,-0.010936,-0.000446 WAIST_JOINT0:0.999523,0.000000,-0.030754,0.002800 WAIST_JOINT1:0.996115,0.086087,0.000000,-0.018559 END:
KINECT_DATA_Sensor  AnkleLeft:0.073564,0.732402,-0.062305,-0.674014 AnkleRight:0.060510,0.732871,0.077758,0.673195 ElbowLeft:-0.033161,0.908559,-0.179152,-0.375933 ElbowRight:0.033985,0.838937,0.182705,0.511517 FootLeft:0.000000,0.000000,0.000000,0.000000 FootRight:0.000000,0.000000,0.000000,0.000000 HandLeft:-0.123192,0.677638,-0.045848,0.723553 HandRight:-0.036706,0.706749,-0.035277,0.705630 HandTipLeft:0.000000,0.000000,0.000000,0.000000 HandTipRight:0.000000,0.000000,0.000000,0.000000 Head:0.000000,0.000000,0.000000,0.000000 HipLeft:0.115167,-0.676071,0.704684,-0.181895 HipRight:-0.098059,0.674995,0.708188,-0.182307 KneeLeft:-0.026221,0.713010,-0.032668,-0.699902 KneeRight:-0.029110,0.700080,0.035420,0.712591 Neck:0.029089,-0.020895,0.994122,-0.102172 ShoulderLeft:0.013537,0.774464,-0.625178,0.095785 ShoulderRight:0.053021,0.779192,0.622691,-0.048010 SpineBase:0.009922,-0.016287,0.997920,-0.061572 SpineMid:0.019283,-0.016864,0.997783,-0.061417 SpineShoulder:0.028923,-0.019207,0.996134,-0.080699 ThumbLeft:0.000000,0.000000,0.000000,0.000000 ThumbRight:0.000000,0.000000,0.000000,0.000000 WristLeft:-0.078546,0.681238,-0.096813,0.721369 WristRight:-0.073183,0.702214,-0.019182,0.707935 END:
KINECT_DATA POSITION:15.793559,-1.547040,-12.121069 HEAD_JOINT1:0.975323,0.200488,-0.000000,0.092469 LARM_JOINT2:0.831861,0.000000,-0.064371,-0.551238 LARM_JOINT3:0.953179,0.000000,-0.236827,-0.188048 LLEG_JOINT2:0.999119,0.004257,0.000000,0.041763 LLEG_JOINT4:0.994608,0.093126,0.000000,-0.045633 RARM_JOINT2:0.784186,0.000000,-0.051608,0.618375 RARM_JOINT3:0.977654,0.000000,0.173160,0.119202 RLEG_JOINT2:0.998951,0.002915,0.000000,-0.045710 RLEG_JOINT4:0.994853,0.097030,0.000000,0.029190 WAIST:0.999922,0.000000,-0.012513,-0.000581 WAIST_JOINT0:0.999438,0.000000,-0.033489,0.001684 WAIST_JOINT1:0.996322,0.083465,0.000000,-0.019383 END:
KINECT_DATA_Sensor  AnkleLeft:0.073846,0.737152,-0.063486,-0.668673 AnkleRight:0.063336,0.723264,0.078979,0.683110 ElbowLeft:-0.048891,0.909664,-0.171073,-0.375306 ElbowRight:0.034991,0.830943,0.179719,0.525367 FootLeft:0.000000,0.000000,0.000000,0.000000 FootRight:0.000000,0.000000,0.000000,0.000000 HandLeft:-0.241539,0.502620,-0.113122,0.822336 HandRight:0.004264,0.701170,-0.022432,0.712628 HandTipLeft:0.000000,0.000000,0.000000,0.000000 HandTipRight:0.000000,0.000000,0.000000,0.000000 Head:0.000000,0.000000,0.000000,0.000000 HipLeft:0.117746,-0.676276,0.704197,-0.181366 HipRight:-0.098393,0.675355,0.708276,-0.180444 KneeLeft:-0.026570,0.714075,-0.031750,-0.698844 KneeRight:-0.030165,0.698940,0.035233,0.713675 Neck:0.032483,-0.021870,0.994278,-0.099391 ShoulderLeft:0.006796,0.776030,-0.622911,0.098556 ShoulderRight:0.050546,0.778193,0.624303,-0.045906 SpineBase:0.011496,-0.017060,0.998015,-0.059528 SpineMid:0.021753,-0.017671,0.997844,-0.059350 SpineShoulder:0.032305,-0.020161,0.996217,-0.078110 ThumbLeft:0.000000,0.000000,0.000000,0.000000 ThumbRight:0.000000,0.000000,0.000000,0.000000 WristLeft:-0.106639,0.519049,-0.129888,0.838061 WristRight:-0.075341,0.693399,-0.022143,0.716262 END:
KINECT_DATA POSITION:15.494154,-1.633211,-11.990774 HEAD_JOINT1:0.975961,0.196941,-0.000000,0.093349 LARM_JOINT2:0.829995,0.000000,-0.125455,-0.543480 LARM_JOINT3:0.932146,0.000000,-0.302421,-0.199111 LLEG_JOINT2:0.998782,0.005047,0.000000,0.049087 LLEG_JOINT4:0.994373,0.095715,0.000000,-0.045402 RARM_JOINT2:0.781011,0.000000,-0.055020,0.622089 RARM_JOINT3:0.976357,0.000000,0.180965,0.118232 RLEG_JOINT2:0.999301,0.003944,0.000000,-0.037187 RLEG_JOINT4:0.995901,0.087618,0.000000,0.022480 WAIST:0.999911,0.000000,-0.012545,-0.004642 WAIST_JOINT0:0.999269,0.000000,-0.038225,-0.000298 WAIST_JOINT1:0.996708,0.079161,0.000000,-0.017535 END:
KINECT_DATA_Sensor  AnkleLeft:0.072698,0.725321,-0.069518,-0.681022 AnkleRight:0.056452,0.732737,0.074412,0.674072 ElbowLeft:-0.097313,0.912370,-0.144091,-0.370605 ElbowRight:0.034601,0.829572,0.176467,0.528651 FootLeft:0.000000,0.000000,0.000000,0.000000 FootRight:0.000000,0.000000,0.000000,0.000000 HandLeft:-0.261978,0.163324,-0.276087,0.910203 HandRight:-0.051821,0.984585,-0.024082,0.165307 HandTipLeft:0.000000,0.000000,0.000000,0.000000 HandTipRight:0.000000,0.000000,0.000000,0.000000 Head:0.000000,0.000000,0.000000,0.000000 HipLeft:0.120756,-0.679625,0.701129,-0.178737 HipRight:-0.100021,0.672957,0.710764,-0.178716 KneeLeft:-0.028392,0.714167,-0.034564,-0.698545 KneeRight:-0.026356,0.698927,0.032707,0.713958 Neck:0.037611,-0.025242,0.994584,-0.093545 ShoulderLeft:-0.001448,0.778005,-0.620067,0.101109 ShoulderRight:0.049006,0.777362,0.625823,-0.040656 SpineBase:0.011822,-0.021058,0.998138,-0.056016 SpineMid:0.024396,-0.021762,0.997910,-0.055747 SpineShoulder:0.037518,-0.022442,0.996294,-0.074072 ThumbLeft:0.000000,0.000000,0.000000,0.000000 ThumbRight:0.000000,0.000000,0.000000,0.000000 WristLeft:-0.124322,0.200807,-0.227660,0.944665 WristRight:-0.075229,0.982830,0.025212,0.166586 END:
KINECT_DATA POSITION:14.760340,-1.693636,-11.637211 HEAD_JOINT1:0.976739,0.190368,-0.000000,0.098701 LARM_JOINT2:0.832659,0.000000,-0.198216,-0.517097 LARM_JOINT3:0.927125,0.000000,-0.329230,-0.179014 LLEG_JOINT2:0.997621,0.011622,0.000000,0.067944 LLEG_JOINT4:0.994386,0.089357,0.000000,-0.056678 RARM_JOINT2:0.775721,0.000000,-0.060032,0.628215 RARM_JOINT3:0.977373,0.000000,0.177323,0.115322 RLEG_JOINT2:0.999813,0.007092,0.000000,-0.018012 RLEG_JOINT4:0.996124,0.087120,0.000000,0.012103 WAIST:0.999726,0.000000,-0.018792,-0.013956 WAIST_JOINT0:0.998764,0.000000,-0.049468,-0.004742 WAIST_JOINT1:0.997120,0.074492,0.000000,-0.014212 END:
KINECT_DATA_Sensor  AnkleLeft:0.074024,0.734865,-0.068072,-0.670716 AnkleRight:0.053995,0.688970,0.079286,0.718414 ElbowLeft:-0.157150,0.923906,-0.121986,-0.326834 ElbowRight:0.034518,0.820919,0.173892,0.542828 FootLeft:0.000000,0.000000,0.000000,0.000000 FootRight:0.000000,0.000000,0.000000,0.000000 HandLeft:-0.168209,0.687549,0.421276,-0.567017 HandRight:-0.015197,0.660006,-0.029056,0.750545 HandTipLeft:0.000000,0.000000,0.000000,0.000000 HandTipRight:0.000000,0.000000,0.000000,0.000000 Head:0.000000,0.000000,0.000000,0.000000 HipLeft:0.130211,-0.686183,0.693417,-0.177120 HipRight:-0.099456,0.668068,0.717004,-0.172336 KneeLeft:-0.031050,0.718937,-0.045638,-0.692880 KneeRight:-0.017210,0.694359,0.027785,0.718886 Neck:0.049449,-0.031377,0.994457,-0.087325 ShoulderLeft:-0.015227,0.782687,-0.612660,0.108707 ShoulderRight:0.050534,0.776641,0.627190,-0.030137 SpineBase:0.018621,-0.029812,0.998158,-0.049440 SpineMid:0.033454,-0.030543,0.997771,-0.048992 SpineShoulder:0.049325,-0.028140,0.995959,-0.069582 ThumbLeft:0.000000,0.000000,0.000000,0.000000 ThumbRight:0.000000,0.000000,0.000000,0.000000 WristLeft:-0.157387,0.729819,0.275672,-0.605473 WristRight:-0.077757,0.654129,-0.029682,0.751790 END:
KINECT_DATA POSITION:14.315924,-1.733255,-11.496925 HEAD_JOINT1:0.977017,0.187595,-0.000000,0.101221 LARM_JOINT2:0.825714,0.000000,-0.291641,-0.482847 LARM_JOINT3:0.936693,0.000000,-0.301144,-0.178655 LLEG_JOINT2:0.996490,0.015027,0.000000,0.082356 LLEG_JOINT4:0.994088,0.087326,0.000000,-0.064525 RARM_JOINT2:0.772415,0.000000,-0.061678,0.632116 RARM_JOINT3:0.976184,0.000000,0.179482,0.121864 RLEG_JOINT2:0.999934,0.008644,0.000000,-0.007542 RLEG_JOINT4:0.996198,0.086799,0.000000,0.007467 WAIST:0.999484,0.000000,-0.024937,-0.020253 WAIST_JOINT0:0.998136,0.000000,-0.060366,-0.009012 WAIST_JOINT1:0.997281,0.072588,0.000000,-0.012737 END:
KINECT_DATA_Sensor  AnkleLeft:0.074947,0.745871,-0.068644,-0.658292 AnkleRight:0.054648,0.682616,0.080134,0.724311 ElbowLeft:-0.224772,0.939459,-0.096117,-0.240116 ElbowRight:0.034742,0.816384,0.172835,0.549944 FootLeft:0.000000,0.000000,0.000000,0.000000 FootRight:0.000000,0.000000,0.000000,0.000000 HandLeft:-0.459965,0.784335,0.060573,0.411802 HandRight:-0.006524,0.699771,-0.057604,0.712011 HandTipLeft:0.000000,0.000000,0.000000,0.000000 HandTipRight:0.000000,0.000000,0.000000,0.000000 Head:0.000000,0.000000,0.000000,0.000000 HipLeft:-0.137718,0.689833,-0.687774,0.179253 HipRight:-0.098567,0.664654,0.721150,-0.168709 KneeLeft:-0.035014,0.723450,-0.053378,-0.687419 KneeRight:-0.013226,0.689677,0.025759,0.723538 Neck:0.060998,-0.034785,0.993835,-0.085799 ShoulderLeft:-0.029696,0.786548,-0.605201,0.119129 ShoulderRight:0.050829,0.776413,0.627745,-0.023153 SpineBase:0.025168,-0.033562,0.998024,-0.046772 SpineMid:0.042348,-0.034362,0.997443,-0.046187 SpineShoulder:0.060633,-0.033237,0.995339,-0.067219 ThumbLeft:0.000000,0.000000,0.000000,0.000000 ThumbRight:0.000000,0.000000,0.000000,0.000000 WristLeft:-0.349975,0.846494,-0.003003,0.401193 WristRight:-0.080749,0.689592,-0.026042,0.719211 END:
KINECT_DATA POSITION:14.080289,-1.813376,-11.314260 HEAD_JOINT1:0.976752,0.186182,-0.000000,0.106267 LARM_JOINT2:0.818451,0.000000,-0.313004,-0.481837 LARM_JOINT3:0.942801,0.000000,-0.291489,-0.161742 LLEG_JOINT2:0.995515,0.021612,0.000000,0.092105 LLEG_JOINT4:0.993990,0.081842,0.000000,-0.072704 RARM_JOINT2:0.770629,0.000000,-0.061543,0.634306 RARM_JOINT3:0.977343,0.000000,0.173787,0.120828 RLEG_JOINT2:0.999956,0.009223,0.000000,-0.001607 RLEG_JOINT4:0.996105,0.088011,0.000000,0.005366 WAIST:0.999062,0.000000,-0.035478,-0.024812 WAIST_JOINT0:0.997124,0.000000,-0.074670,-0.013002 WAIST_JOINT1:0.997454,0.070273,0.000000,-0.012159 END:
KINECT_DATA_Sensor  AnkleLeft:0.075895,0.744177,-0.068779,-0.660083 AnkleRight:0.062159,0.729595,0.076448,0.676744 ElbowLeft:-0.240690,0.935463,-0.068134,-0.249671 ElbowRight:0.036380,0.819404,0.171400,0.545780 FootLeft:0.000000,0.000000,0.000000,0.000000 FootRight:0.000000,0.000000,0.000000,0.000000 HandLeft:-0.436634,0.779512,0.051445,0.446167 HandRight:-0.016986,0.652801,-0.034749,0.756542 HandTipLeft:0.000000,0.000000,0.000000,0.000000 HandTipRight:0.000000,0.000000,0.000000,0.000000 Head:0.000000,0.000000,0.000000,0.000000 HipLeft:-0.147024,0.690877,-0.683083,0.185662 HipRight:-0.096033,0.662509,0.724703,-0.163294 KneeLeft:-0.035096,0.731254,-0.061152,-0.678452 KneeRight:-0.011870,0.681750,0.025014,0.731061 Neck:0.075843,-0.037761,0.992815,-0.084501 ShoulderLeft:-0.049421,0.788792,-0.597924,0.133608 ShoulderRight:0.050341,0.776123,0.628385,-0.015207 SpineBase:0.036018,-0.034866,0.997744,-0.044648 SpineMid:0.055165,-0.035717,0.996869,-0.043970 SpineShoulder:0.075334,-0.036881,0.994396,-0.064347 ThumbLeft:0.000000,0.000000,0.000000,0.000000 ThumbRight:0.000000,0.000000,0.000000,0.000000 WristLeft:-0.375998,0.821634,-0.013075,0.428219 WristRight:-0.075573,0.647075,-0.030828,0.758045 END:
KINECT_DATA POSITION:13.944017,-1.845049,-11.163855 HEAD_JOINT1:0.976619,0.185257,-0.000000,0.109068 LARM_JOINT2:0.819437,0.000000,-0.312337,-0.480591 LARM_JOINT3:0.944684,0.000000,-0.286819,-0.159080 LLEG_JOINT2:0.995165,0.022829,0.000000,0.095525 LLEG_JOINT4:0.993787,0.082718,0.000000,-0.074466 RARM_JOINT2:0.769353,0.000000,-0.062671,0.635742 RARM_JOINT3:0.976779,0.000000,0.176436,0.121548 RLEG_JOINT2:0.999951,0.009866,0.000000,0.000237 RLEG_JOINT4:0.996375,0.084966,0.000000,0.004226 WAIST:0.998882,0.000000,-0.039719,-0.025655 WAIST_JOINT0:0.996650,0.000000,-0.080555,-0.014149 WAIST_JOINT1:0.997550,0.068699,0.000000,-0.013180 END:
KINECT_DATA_Sensor  AnkleLeft:0.076441,0.747271,-0.070972,-0.656282 AnkleRight:0.054299,0.670897,0.079267,0.735300 ElbowLeft:-0.242585,0.935302,-0.065907,-0.249035 ElbowRight:0.035996,0.815705,0.170767,0.551515 FootLeft:0.000000,0.000000,0.000000,0.000000 FootRight:0.000000,0.000000,0.000000,0.000000 HandLeft:-0.126438,-0.293108,-0.411120,0.853862 HandRight:-0.026451,0.659415,-0.046295,0.749886 HandTipLeft:0.000000,0.000000,0.000000,0.000000 HandTipRight:0.000000,0.000000,0.000000,0.000000 Head:0.000000,0.000000,0.000000,0.000000 HipLeft:-0.149782,0.690614,-0.682309,0.187276 HipRight:-0.094195,0.662099,0.725945,-0.160486 KneeLeft:-0.036506,0.734176,-0.063564,-0.674991 KneeRight:-0.010715,0.678584,0.024667,0.734030 Neck:0.081615,-0.039727,0.992382,-0.083303 ShoulderLeft:-0.055028,0.788922,-0.596468,0.137112 ShoulderRight:0.052218,0.775720,0.628837,-0.009759 SpineBase:0.040297,-0.035192,0.997602,-0.043914 SpineMid:0.060229,-0.036063,0.996597,-0.043202 SpineShoulder:0.081101,-0.038457,0.993994,-0.062600 ThumbLeft:0.000000,0.000000,0.000000,0.000000 ThumbRight:0.000000,0.000000,0.000000,0.000000 WristLeft:-0.055913,-0.269689,-0.373074,0.885978 WristRight:-0.077590,0.653571,-0.029806,0.752287 END:
KINECT_DATA POSITION:13.932085,-1.910113,-10.905457 HEAD_JOINT1:0.976751,0.183926,-0.000000,0.110131 LARM_JOINT2:0.822142,0.000000,-0.313064,-0.475473 LARM_JOINT3:0.944073,0.000000,-0.286156,-0.163833 LLEG_JOINT2:0.995220,0.024609,0.000000,0.094509 LLEG_JOINT4:0.993959,0.080291,0.000000,-0.074824 RARM_JOINT2:0.769277,0.000000,-0.063850,0.635717 RARM_JOINT3:0.976105,0.000000,0.182369,0.118158 RLEG_JOINT2:0.999953,0.009588,0.000000,-0.001310 RLEG_JOINT4:0.996065,0.088477,0.000000,0.005229 WAIST:0.998820,0.000000,-0.041597,-0.025052 WAIST_JOINT0:0.996411,0.000000,-0.083317,-0.014927 WAIST_JOINT1:0.997658,0.066891,0.000000,-0.014295 END:
KINECT_DATA_Sensor  AnkleLeft:0.076382,0.748663,-0.070105,-0.654793 AnkleRight:0.064968,0.741912,0.074959,0.663119 ElbowLeft:-0.246786,0.937872,-0.072241,-0.232967 ElbowRight:0.035278,0.814497,0.170609,0.553391 FootLeft:0.000000,0.000000,0.000000,0.000000 FootRight:0.000000,0.000000,0.000000,0.000000 HandLeft:-0.092519,-0.353870,-0.425563,0.827715 HandRight:-0.056504,0.654291,-0.053030,0.752262 HandTipLeft:0.000000,0.000000,0.000000,0.000000 HandTipRight:0.000000,0.000000,0.000000,0.000000 Head:0.000000,0.000000,0.000000,0.000000 HipLeft:-0.151515,0.690035,-0.682621,0.186877 HipRight:-0.093742,0.662703,0.725970,-0.158126 KneeLeft:-0.035117,0.735595,-0.064513,-0.673428 KneeRight:-0.011526,0.677210,0.025176,0.735268 Neck:0.084381,-0.040566,0.992236,-0.081866 ShoulderLeft:-0.057927,0.789704,-0.595011,0.137746 ShoulderRight:0.052769,0.775653,0.628920,-0.006117 SpineBase:0.042108,-0.035072,0.997596,-0.042407 SpineMid:0.062543,-0.035934,0.996524,-0.041679 SpineShoulder:0.083891,-0.038789,0.993869,-0.060689 ThumbLeft:0.000000,0.000000,0.000000,0.000000 ThumbRight:0.000000,0.000000,0.000000,0.000000 WristLeft:-0.031344,-0.336745,-0.373096,0.863956 WristRight:-0.078723,0.651362,-0.030278,0.754065 END:
KINECT_DATA POSITION:13.872621,-1.925098,-10.654366 HEAD_JOINT1:0.976511,0.184481,-0.000000,0.111327 LARM_JOINT2:0.823480,0.000000,-0.311772,-0.474004 LARM_JOINT3:0.946151,0.000000,-0.277570,-0.166595 LLEG_JOINT2:0.995033,0.026760,0.000000,0.095886 LLEG_JOINT4:0.993993,0.080502,0.000000,-0.074149 RARM_JOINT2:0.768720,0.000000,-0.065427,0.636230 RARM_JOINT3:0.975774,0.000000,0.182686,0.120376 RLEG_JOINT2:0.999937,0.011254,0.000000,0.000525 RLEG_JOINT4:0.996428,0.084398,0.000000,0.002712 WAIST:0.998818,0.000000,-0.041161,-0.025867 WAIST_JOINT0:0.996351,0.000000,-0.084050,-0.014851 WAIST_JOINT1:0.997724,0.065874,0.000000,-0.014390 END:
KINECT_DATA_Sensor  AnkleLeft:0.077246,0.749009,-0.072501,-0.654035 AnkleRight:0.062138,0.742946,0.074686,0.662263 ElbowLeft:-0.247366,0.938297,-0.074632,-0.229867 ElbowRight:0.034360,0.811478,0.170930,0.557768 FootLeft:0.000000,0.000000,0.000000,0.000000 FootRight:0.000000,0.000000,0.000000,0.000000 HandLeft:-0.061617,-0.413273,-0.413918,0.808752 HandRight:-0.046620,0.700340,-0.053756,0.710254 HandTipLeft:0.000000,0.000000,0.000000,0.000000 HandTipRight:0.000000,0.000000,0.000000,0.000000 Head:0.000000,0.000000,0.000000,0.000000 HipLeft:-0.151507,0.690819,-0.682170,0.185632 HipRight:-0.094027,0.662157,0.726553,-0.157567 KneeLeft:-0.034040,0.735496,-0.066486,-0.673399 KneeRight:-0.009640,0.677445,0.025532,0.735067 Neck:0.084986,-0.041846,0.992212,-0.080878 ShoulderLeft:-0.058690,0.789920,-0.594805,0.137073 ShoulderRight:0.052758,0.775922,0.628604,-0.004356 SpineBase:0.041696,-0.035930,0.997618,-0.041569 SpineMid:0.062631,-0.036795,0.996523,-0.040806 SpineShoulder:0.084501,-0.039705,0.993849,-0.059554 ThumbLeft:0.000000,0.000000,0.000000,0.000000 ThumbRight:0.000000,0.000000,0.000000,0.000000 WristLeft:-0.002694,-0.396014,-0.370662,0.840104 WristRight:-0.083258,0.695439,-0.026395,0.713257 END:
KINECT_DATA POSITION:13.859737,-1.942286,-10.583568 HEAD_JOINT1:0.977012,0.181496,-0.000000,0.111830 LARM_JOINT2:0.825606,0.000000,-0.314270,-0.468625 LARM_JOINT3:0.946571,0.000000,-0.273716,-0.170535 LLEG_JOINT2:0.994917,0.027161,0.000000,0.096968 LLEG_JOINT4:0.993926,0.080603,0.000000,-0.074927 RARM_JOINT2:0.768199,0.000000,-0.064822,0.636921 RARM_JOINT3:0.976104,0.000000,0.181731,0.119139 RLEG_JOINT2:0.999924,0.012262,0.000000,0.001572 RLEG_JOINT4:0.996481,0.083752,0.000000,0.003293 WAIST:0.998847,0.000000,-0.040252,-0.026156 WAIST_JOINT0:0.996339,0.000000,-0.084133,-0.015151 WAIST_JOINT1:0.997653,0.066829,0.000000,-0.014892 END:
KINECT_DATA_Sensor  AnkleLeft:0.077574,0.747587,-0.072888,-0.655579 AnkleRight:0.062903,0.741182,0.074122,0.664227 ElbowLeft:-0.249641,0.940446,-0.081026,-0.216043 ElbowRight:0.034298,0.810880,0.171226,0.558551 FootLeft:0.000000,0.000000,0.000000,0.000000 FootRight:0.000000,0.000000,0.000000,0.000000 HandLeft:-0.106615,-0.310807,-0.401965,0.854668 HandRight:-0.040530,0.664074,-0.054340,0.744587 HandTipLeft:0.000000,0.000000,0.000000,0.000000 HandTipRight:0.000000,0.000000,0.000000,0.000000 Head:0.000000,0.000000,0.000000,0.000000 HipLeft:-0.150407,0.690979,-0.682294,0.185473 HipRight:-0.093740,0.661671,0.726840,-0.158456 KneeLeft:-0.034280,0.734885,-0.067363,-0.673967 KneeRight:-0.008400,0.678089,0.025656,0.734484 Neck:0.084986,-0.043084,0.992088,-0.081743 ShoulderLeft:-0.057327,0.789437,-0.595561,0.137151 ShoulderRight:0.054287,0.775125,0.629456,-0.004379 SpineBase:0.040807,-0.036306,0.997606,-0.042420 SpineMid:0.062204,-0.037208,0.996500,-0.041632 SpineShoulder:0.084525,-0.040505,0.993761,-0.060454 ThumbLeft:0.000000,0.000000,0.000000,0.000000 ThumbRight:0.000000,0.000000,0.000000,0.000000 WristLeft:-0.048406,-0.293788,-0.362707,0.883056 WristRight:-0.081801,0.658719,-0.028994,0.747366 END:
KINECT_DATA POSITION:13.869378,-1.943506,-10.638178 HEAD_JOINT1:0.977151,0.181072,-0.000000,0.111305 LARM_JOINT2:0.825899,0.000000,-0.314376,-0.468038 LARM_JOINT3:0.945187,0.000000,-0.274861,-0.176276 LLEG_JOINT2:0.994837,0.026882,0.000000,0.097864 LLEG_JOINT4:0.993669,0.083807,0.000000,-0.074822 RARM_JOINT2:0.768211,0.000000,-0.064590,0.636930 RARM_JOINT3:0.977065,0.000000,0.177366,0.117838 RLEG_JOINT2:0.999917,0.012648,0.000000,0.002516 RLEG_JOINT4:0.996235,0.086668,0.000000,0.002174 WAIST:0.998819,0.000000,-0.040727,-0.026487 WAIST_JOINT0:0.996296,0.000000,-0.084602,-0.015418 WAIST_JOINT1:0.997643,0.067008,0.000000,-0.014746 END:
KINECT_DATA_Sensor  AnkleLeft:0.079161,0.748088,-0.075368,-0.654536 AnkleRight:0.064983,0.738313,0.076688,0.666925 ElbowLeft:-0.249853,0.940605,-0.081381,-0.214970 ElbowRight:0.034513,0.811412,0.171318,0.557736 FootLeft:0.000000,0.000000,0.000000,0.000000 FootRight:0.000000,0.000000,0.000000,0.000000 HandLeft:-0.076548,-0.416942,-0.411893,0.806625 HandRight:-0.032478,0.687404,-0.035912,0.724660 HandTipLeft:0.000000,0.000000,0.000000,0.000000 HandTipRight:0.000000,0.000000,0.000000,0.000000 Head:0.000000,0.000000,0.000000,0.000000 HipLeft:-0.150227,0.691046,-0.682145,0.185920 HipRight:-0.093042,0.661449,0.727183,-0.158219 KneeLeft:-0.034936,0.735174,-0.067510,-0.673603 KneeRight:-0.007709,0.677715,0.025452,0.734844 Neck:0.085418,-0.043308,0.992032,-0.081859 ShoulderLeft:-0.057215,0.789171,-0.595857,0.137441 ShoulderRight:0.055011,0.774686,0.629935,-0.004023 SpineBase:0.041314,-0.036292,0.997567,-0.042838 SpineMid:0.062689,-0.037202,0.996453,-0.042051 SpineShoulder:0.084967,-0.040630,0.993706,-0.060645 ThumbLeft:0.000000,0.000000,0.000000,0.000000 ThumbRight:0.000000,0.000000,0.000000,0.000000 WristLeft:-0.005508,-0.395052,-0.365273,0.842899 WristRight:-0.082092,0.682048,-0.025923,0.726222 END:
KINECT_DATA POSITION:13.875047,-1.942424,-10.668003 HEAD_JOINT1:0.977260,0.180471,-0.000000,0.111322 LARM_JOINT2:0.825423,0.000000,-0.313653,-0.469361 LARM_JOINT3:0.946396,0.000000,-0.274297,-0.170573 LLEG_JOINT2:0.994802,0.027430,0.000000,0.098060 LLEG_JOINT4:0.993964,0.080498,0.000000,-0.074535 RARM_JOINT2:0.768145,0.000000,-0.064480,0.637021 RARM_JOINT3:0.976992,0.000000,0.176843,0.119217 RLEG_JOINT2:0.999919,0.012417,0.000000,0.002638 RLEG_JOINT4:0.996087,0.088346,0.000000,0.002210 WAIST:0.998781,0.000000,-0.041539,-0.026675 WAIST_JOINT0:0.996271,0.000000,-0.084856,-0.015584 WAIST_JOINT1:0.997660,0.066766,0.000000,-0.014723 END:
KINECT_DATA_Sensor  AnkleLeft:0.076988,0.749545,-0.073611,-0.653327 AnkleRight:0.066399,0.739710,0.077306,0.665164 ElbowLeft:-0.249424,0.939697,-0.078767,-0.220349 ElbowRight:0.034515,0.811624,0.171124,0.557487 FootLeft:0.000000,0.000000,0.000000,0.000000 FootRight:0.000000,0.000000,0.000000,0.000000 HandLeft:-0.074415,-0.399593,-0.409989,0.816515 HandRight:-0.028663,0.673996,-0.040461,0.737069 HandTipLeft:0.000000,0.000000,0.000000,0.000000 HandTipRight:0.000000,0.000000,0.000000,0.000000 Head:0.000000,0.000000,0.000000,0.000000 HipLeft:-0.150546,0.691070,-0.681971,0.186212 HipRight:-0.092382,0.661439,0.727425,-0.157536 KneeLeft:-0.034642,0.735774,-0.067871,-0.672927 KneeRight:-0.007925,0.677120,0.025329,0.735394 Neck:0.085662,-0.043412,0.992032,-0.081542 ShoulderLeft:-0.057461,0.789032,-0.596006,0.137489 ShoulderRight:0.055107,0.774422,0.630254,-0.003729 SpineBase:0.042137,-0.036357,0.997532,-0.042808 SpineMid:0.063232,-0.037255,0.996417,-0.042029 SpineShoulder:0.085216,-0.040692,0.993693,-0.060465 ThumbLeft:0.000000,0.000000,0.000000,0.000000 ThumbRight:0.000000,0.000000,0.000000,0.000000 WristLeft:-0.010097,-0.380127,-0.366771,0.849047 WristRight:-0.081366,0.668074,-0.027446,0.739123 END:
KINECT_DATA POSITION:13.855285,-1.942197,-10.699606 HEAD_JOINT1:0.977230,0.181017,-0.000000,0.110696 LARM_JOINT2:0.825027,0.000000,-0.312803,-0.470621 LARM_JOINT3:0.947872,0.000000,-0.271921,-0.166125 LLEG_JOINT2:0.994830,0.027971,0.000000,0.097626 LLEG_JOINT4:0.993928,0.079686,0.000000,-0.075881 RARM_JOINT2:0.767878,0.000000,-0.064260,0.637365 RARM_JOINT3:0.976781,0.000000,0.177180,0.120444 RLEG_JOINT2:0.999915,0.012498,0.000000,0.003653 RLEG_JOINT4:0.995990,0.089459,0.000000,-0.001414 WAIST:0.998775,0.000000,-0.041648,-0.026725 WAIST_JOINT0:0.996302,0.000000,-0.084511,-0.015520 WAIST_JOINT1:0.997665,0.066702,0.000000,-0.014672 END:
KINECT_DATA_Sensor  AnkleLeft:0.078031,0.749135,-0.072204,-0.653830 AnkleRight:0.065531,0.737704,0.080322,0.667118 ElbowLeft:-0.248186,0.940263,-0.078529,-0.219412 ElbowRight:0.034971,0.813093,0.170542,0.555493 FootLeft:0.000000,0.000000,0.000000,0.000000 FootRight:0.000000,0.000000,0.000000,0.000000 HandLeft:-0.061920,-0.395918,-0.412116,0.818276 HandRight:-0.031339,0.688852,-0.046142,0.722753 HandTipLeft:0.000000,0.000000,0.000000,0.000000 HandTipRight:0.000000,0.000000,0.000000,0.000000 Head:0.000000,0.000000,0.000000,0.000000 HipLeft:-0.150489,0.691110,-0.681937,0.186230 HipRight:-0.092165,0.661442,0.727476,-0.157414 KneeLeft:-0.033926,0.735909,-0.067933,-0.672809 KneeRight:-0.007213,0.677043,0.024671,0.735494 Neck:0.085279,-0.043351,0.992077,-0.081438 ShoulderLeft:-0.057152,0.788952,-0.596225,0.137132 ShoulderRight:0.054923,0.774460,0.630221,-0.003956 SpineBase:0.042249,-0.036404,0.997523,-0.042864 SpineMid:0.063098,-0.037292,0.996422,-0.042094 SpineShoulder:0.084832,-0.040657,0.993729,-0.060440 ThumbLeft:0.000000,0.000000,0.000000,0.000000 ThumbRight:0.000000,0.000000,0.000000,0.000000 WristLeft:-0.008631,-0.382000,-0.364113,0.849367 WristRight:-0.080637,0.682921,-0.026214,0.725554 END:
KINECT_DATA POSITION:13.838970,-1.938917,-10.723055 HEAD_JOINT1:0.976956,0.182728,-0.000000,0.110303 LARM_JOINT2:0.825074,0.000000,-0.310879,-0.471813 LARM_JOINT3:0.947502,0.000000,-0.274167,-0.164538 LLEG_JOINT2:0.994793,0.027106,0.000000,0.098243 LLEG_JOINT4:0.994069,0.078861,0.000000,-0.074891 RARM_JOINT2:0.767715,0.000000,-0.064533,0.637534 RARM_JOINT3:0.975738,0.000000,0.180991,0.123201 RLEG_JOINT2:0.999913,0.012465,0.000000,0.004390 RLEG_JOINT4:0.996299,0.085950,0.000000,0.000477 WAIST:0.998810,0.000000,-0.040619,-0.026999 WAIST_JOINT0:0.996358,0.000000,-0.083858,-0.015428 WAIST_JOINT1:0.997674,0.066613,0.000000,-0.014447 END:
KINECT_DATA_Sensor  AnkleLeft:0.076032,0.749096,-0.071827,-0.654152 AnkleRight:0.063022,0.729639,0.077256,0.676525 ElbowLeft:-0.246981,0.938731,-0.077359,-0.227595 ElbowRight:0.034701,0.812650,0.170528,0.556161 FootLeft:0.000000,0.000000,0.000000,0.000000 FootRight:0.000000,0.000000,0.000000,0.000000 HandLeft:-0.170836,-0.162486,-0.381151,0.893945 HandRight:-0.033690,0.680687,-0.066310,0.728788 HandTipLeft:0.000000,0.000000,0.000000,0.000000 HandTipRight:0.000000,0.000000,0.000000,0.000000 Head:0.000000,0.000000,0.000000,0.000000 HipLeft:-0.149755,0.691506,-0.681878,0.185571 HipRight:-0.092668,0.661187,0.727538,-0.157901 KneeLeft:-0.034691,0.735147,-0.067577,-0.673638 KneeRight:-0.006938,0.677793,0.024312,0.734818 Neck:0.084628,-0.043542,0.992140,-0.081247 ShoulderLeft:-0.057273,0.789108,-0.596068,0.136861 ShoulderRight:0.053983,0.774695,0.630009,-0.004681 SpineBase:0.041240,-0.036549,0.997560,-0.042854 SpineMid:0.062265,-0.037444,0.996469,-0.042074 SpineShoulder:0.084185,-0.040782,0.993786,-0.060329 ThumbLeft:0.000000,0.000000,0.000000,0.000000 ThumbRight:0.000000,0.000000,0.000000,0.000000 WristLeft:-0.103456,-0.140552,-0.351082,0.919937 WristRight:-0.080985,0.673916,-0.027849,0.733828 END:
KINECT_DATA POSITION:13.821157,-1.932894,-10.729372 HEAD_JOINT1:0.976809,0.184047,-0.000000,0.109410 LARM_JOINT2:0.825645,0.000000,-0.313041,-0.469378 LARM_JOINT3:0.946564,0.000000,-0.276323,-0.166318 LLEG_JOINT2:0.994670,0.027073,0.000000,0.099488 LLEG_JOINT4:0.993603,0.082587,0.000000,-0.077019 RARM_JOINT2:0.767557,0.000000,-0.063700,0.637808 RARM_JOINT3:0.976471,0.000000,0.177084,0.123068 RLEG_JOINT2:0.999925,0.011374,0.000000,0.004636 RLEG_JOINT4:0.996240,0.086630,0.000000,0.000599 WAIST:0.998812,0.000000,-0.040356,-0.027317 WAIST_JOINT0:0.996418,0.000000,-0.083135,-0.015460 WAIST_JOINT1:0.997683,0.066517,0.000000,-0.014273 END:
KINECT_DATA_Sensor  AnkleLeft:0.078950,0.743533,-0.074136,-0.659871 AnkleRight:0.063394,0.735886,0.076415,0.669786 ElbowLeft:-0.249199,0.939335,-0.079180,-0.221989 ElbowRight:0.034469,0.814214,0.169990,0.554049 FootLeft:0.000000,0.000000,0.000000,0.000000 FootRight:0.000000,0.000000,0.000000,0.000000 HandLeft:-0.156102,-0.207403,-0.397252,0.880231 HandRight:-0.021212,0.667874,-0.054168,0.741998 HandTipLeft:0.000000,0.000000,0.000000,0.000000 HandTipRight:0.000000,0.000000,0.000000,0.000000 Head:0.000000,0.000000,0.000000,0.000000 HipLeft:-0.149601,0.691763,-0.681725,0.185298 HipRight:-0.092764,0.660939,0.727752,-0.157898 KneeLeft:-0.035379,0.734951,-0.068191,-0.673755 KneeRight:-0.007797,0.678024,0.023623,0.734619 Neck:0.083890,-0.043670,0.992206,-0.081130 ShoulderLeft:-0.057137,0.789279,-0.595955,0.136421 ShoulderRight:0.053174,0.774848,0.629885,-0.005388 SpineBase:0.040995,-0.036750,0.997567,-0.042763 SpineMid:0.061770,-0.037633,0.996496,-0.041988 SpineShoulder:0.083444,-0.040909,0.993848,-0.060244 ThumbLeft:0.000000,0.000000,0.000000,0.000000 ThumbRight:0.000000,0.000000,0.000000,0.000000 WristLeft:-0.086949,-0.185765,-0.355174,0.912021 WristRight:-0.079965,0.660412,-0.030356,0.746016 END:
KINECT_DATA POSITION:13.823048,-1.934073,-10.722244 HEAD_JOINT1:0.976676,0.184926,-0.000000,0.109113 LARM_JOINT2:0.824972,0.000000,-0.313275,-0.470405 LARM_JOINT3:0.946564,0.000000,-0.278863,-0.162023 LLEG_JOINT2:0.994707,0.026817,0.000000,0.099191 LLEG_JOINT4:0.993711,0.079943,0.000000,-0.078401 RARM_JOINT2:0.767296,0.000000,-0.063259,0.638165 RARM_JOINT3:0.976546,0.000000,0.176286,0.123620 RLEG_JOINT2:0.999919,0.011778,0.000000,0.004865 RLEG_JOINT4:0.996264,0.086349,0.000000,0.001318 WAIST:0.998801,0.000000,-0.040594,-0.027351 WAIST_JOINT0:0.996416,0.000000,-0.083143,-0.015540 WAIST_JOINT1:0.997675,0.066620,0.000000,-0.014345 END:
KINECT_DATA_Sensor  AnkleLeft:0.078589,0.748249,-0.070393,-0.654975 AnkleRight:0.064011,0.735304,0.075785,0.670438 ElbowLeft:-0.248911,0.938712,-0.076895,-0.225723 ElbowRight:0.034784,0.815280,0.169522,0.552603 FootLeft:0.000000,0.000000,0.000000,0.000000 FootRight:0.000000,0.000000,0.000000,0.000000 HandLeft:-0.053654,-0.405936,-0.430593,0.804317 HandRight:-0.021549,0.684962,-0.053643,0.726282 HandTipLeft:0.000000,0.000000,0.000000,0.000000 HandTipRight:0.000000,0.000000,0.000000,0.000000 Head:0.000000,0.000000,0.000000,0.000000 HipLeft:-0.149778,0.691734,-0.681663,0.185486 HipRight:-0.092646,0.660930,0.727788,-0.157836 KneeLeft:-0.035334,0.735102,-0.067762,-0.673635 KneeRight:-0.007371,0.677832,0.023747,0.734796 Neck:0.083903,-0.043773,0.992188,-0.081288 ShoulderLeft:-0.057106,0.789372,-0.595815,0.136511 ShoulderRight:0.053224,0.774847,0.629881,-0.005455 SpineBase:0.041235,-0.036781,0.997555,-0.042793 SpineMid:0.061898,-0.037660,0.996486,-0.042022 SpineShoulder:0.083458,-0.040975,0.993838,-0.060344 ThumbLeft:0.000000,0.000000,0.000000,0.000000 ThumbRight:0.000000,0.000000,0.000000,0.000000 WristLeft:-0.000403,-0.393795,-0.366885,0.842805 WristRight:-0.079724,0.677556,-0.028828,0.730569 END:
KINECT_DATA POSITION:13.848437,-1.939616,-10.703182 HEAD_JOINT1:0.976546,0.186126,-0.000000,0.108234 LARM_JOINT2:0.820766,0.000000,-0.324449,-0.470188 LARM_JOINT3:0.948349,0.000000,-0.277391,-0.153910 LLEG_JOINT2:0.994688,0.026497,0.000000,0.099467 LLEG_JOINT4:0.993878,0.081106,0.000000,-0.075020 RARM_JOINT2:0.767399,0.000000,-0.062486,0.638117 RARM_JOINT3:0.976524,0.000000,0.178051,0.121235 RLEG_JOINT2:0.999925,0.011393,0.000000,0.004461 RLEG_JOINT4:0.996352,0.085317,0.000000,0.001851 WAIST:0.998762,0.000000,-0.041585,-0.027315 WAIST_JOINT0:0.996345,0.000000,-0.083979,-0.015644 WAIST_JOINT1:0.997652,0.066965,0.000000,-0.014381 END:
KINECT_DATA_Sensor  AnkleLeft:0.076494,0.749180,-0.073603,-0.653805 AnkleRight:0.061880,0.724265,0.075682,0.682557 ElbowLeft:-0.254667,0.938199,-0.067533,-0.224426 ElbowRight:0.035101,0.816274,0.169394,0.551153 FootLeft:0.000000,0.000000,0.000000,0.000000 FootRight:0.000000,0.000000,0.000000,0.000000 HandLeft:-0.070303,-0.372485,-0.436930,0.815724 HandRight:-0.036515,0.667794,-0.051044,0.741696 HandTipLeft:0.000000,0.000000,0.000000,0.000000 HandTipRight:0.000000,0.000000,0.000000,0.000000 Head:0.000000,0.000000,0.000000,0.000000 HipLeft:-0.150392,0.691497,-0.681548,0.186297 HipRight:-0.092230,0.661012,0.727822,-0.157581 KneeLeft:-0.035868,0.735729,-0.067686,-0.672930 KneeRight:-0.007897,0.677118,0.023747,0.735448 Neck:0.084663,-0.043685,0.992089,-0.081749 ShoulderLeft:-0.057794,0.788977,-0.596018,0.137616 ShoulderRight:0.053576,0.774759,0.629960,-0.005396 SpineBase:0.042228,-0.036639,0.997512,-0.042947 SpineMid:0.062777,-0.037517,0.996430,-0.042182 SpineShoulder:0.084218,-0.040895,0.993757,-0.060686 ThumbLeft:0.000000,0.000000,0.000000,0.000000 ThumbRight:0.000000,0.000000,0.000000,0.000000 WristLeft:-0.015570,-0.359615,-0.371867,0.855658 WristRight:-0.078321,0.662766,-0.030504,0.744095 END:
KINECT_DATA POSITION:13.849547,-1.956242,-10.621619 HEAD_JOINT1:0.976518,0.186335,-0.000000,0.108129 LARM_JOINT2:0.820602,0.000000,-0.328935,-0.467349 LARM_JOINT3:0.949401,0.000000,-0.271582,-0.157734 LLEG_JOINT2:0.994675,0.027218,0.000000,0.099407 LLEG_JOINT4:0.993844,0.080878,0.000000,-0.075716 RARM_JOINT2:0.771377,0.000000,-0.066525,0.632891 RARM_JOINT3:0.975388,0.000000,0.180102,0.127210 RLEG_JOINT2:0.999928,0.011374,0.000000,0.003879 RLEG_JOINT4:0.996353,0.085281,0.000000,0.002760 WAIST:0.998703,0.000000,-0.043116,-0.027079 WAIST_JOINT0:0.996445,0.000000,-0.082930,-0.014804 WAIST_JOINT1:0.997635,0.067113,0.000000,-0.014867 END:
KINECT_DATA_Sensor  AnkleLeft:0.076899,0.748591,-0.073863,-0.654402 AnkleRight:0.062789,0.727862,0.074662,0.678749 ElbowLeft:-0.257753,0.940568,-0.069170,-0.210027 ElbowRight:0.036841,0.819428,0.176317,0.544144 FootLeft:0.000000,0.000000,0.000000,0.000000 FootRight:0.000000,0.000000,0.000000,0.000000 HandLeft:-0.074926,-0.371639,-0.430897,0.818901 HandRight:-0.042071,0.677062,-0.043112,0.733457 HandTipLeft:0.000000,0.000000,0.000000,0.000000 HandTipRight:0.000000,0.000000,0.000000,0.000000 Head:0.000000,0.000000,0.000000,0.000000 HipLeft:-0.151467,0.690989,-0.681528,0.187382 HipRight:-0.091366,0.661215,0.727854,-0.157084 KneeLeft:-0.035630,0.736792,-0.068260,-0.671720 KneeRight:-0.008130,0.676012,0.023980,0.736455 Neck:0.083015,-0.043601,0.992207,-0.082059 ShoulderLeft:-0.058927,0.788474,-0.596452,0.138134 ShoulderRight:0.050403,0.776787,0.627691,-0.008162 SpineBase:0.043734,-0.036685,0.997436,-0.043150 SpineMid:0.062717,-0.037500,0.996423,-0.042444 SpineShoulder:0.082568,-0.040839,0.993878,-0.060999 ThumbLeft:0.000000,0.000000,0.000000,0.000000 ThumbRight:0.000000,0.000000,0.000000,0.000000 WristLeft:-0.020166,-0.358808,-0.368822,0.857217 WristRight:-0.078874,0.672985,-0.029313,0.734854 END:
KINECT_DATA POSITION:13.922254,-1.963869,-10.524929 HEAD_JOINT1:0.976698,0.185575,-0.000000,0.107806 LARM_JOINT2:0.813254,0.000000,-0.336134,-0.475007 LARM_JOINT3:0.954322,0.000000,-0.262752,-0.142236 LLEG_JOINT2:0.994869,0.028450,0.000000,0.097087 LLEG_JOINT4:0.993750,0.082014,0.000000,-0.075727 RARM_JOINT2:0.770230,0.000000,-0.065841,0.634359 RARM_JOINT3:0.974892,0.000000,0.184918,0.124059 RLEG_JOINT2:0.999926,0.012014,0.000000,0.002032 RLEG_JOINT4:0.996138,0.087736,0.000000,0.003411 WAIST:0.998736,0.000000,-0.042852,-0.026276 WAIST_JOINT0:0.996825,0.000000,-0.078612,-0.012661 WAIST_JOINT1:0.997593,0.067678,0.000000,-0.015096 END:
KINECT_DATA_Sensor  AnkleLeft:0.079442,0.745956,-0.074759,-0.657001 AnkleRight:0.065341,0.730695,0.076616,0.675237 ElbowLeft:-0.256742,0.939845,-0.054547,-0.218630 ElbowRight:0.036406,0.815096,0.174587,0.551192 FootLeft:0.000000,0.000000,0.000000,0.000000 FootRight:0.000000,0.000000,0.000000,0.000000 HandLeft:-0.025617,-0.435797,-0.434334,0.787895 HandRight:-0.056600,0.707934,-0.058132,0.701603 HandTipLeft:0.000000,0.000000,0.000000,0.000000 HandTipRight:0.000000,0.000000,0.000000,0.000000 Head:0.000000,0.000000,0.000000,0.000000 HipLeft:-0.151004,0.690458,-0.682124,0.187544 HipRight:-0.091381,0.661744,0.727300,-0.157413 KneeLeft:-0.033623,0.736729,-0.068175,-0.671901 KneeRight:-0.008338,0.676195,0.025210,0.736244 Neck:0.078113,-0.042634,0.992572,-0.082952 ShoulderLeft:-0.050694,0.784948,-0.603198,0.132057 ShoulderRight:0.052414,0.775938,0.628557,-0.009413 SpineBase:0.043434,-0.036025,0.997457,-0.043524 SpineMid:0.060153,-0.036750,0.996589,-0.042913 SpineShoulder:0.077659,-0.040005,0.994262,-0.061747 ThumbLeft:0.000000,0.000000,0.000000,0.000000 ThumbRight:0.000000,0.000000,0.000000,0.000000 WristLeft:0.014806,-0.429912,-0.369617,0.823614 WristRight:-0.081294,0.703875,-0.024407,0.705234 END:
KINECT_DATA POSITION:13.895789,-1.966479,-10.471392 HEAD_JOINT1:0.976590,0.184984,-0.000000,0.109784 LARM_JOINT2:0.826518,0.000000,-0.306431,-0.472195 LARM_JOINT3:0.950569,0.000000,-0.279129,-0.136037 LLEG_JOINT2:0.994923,0.028335,0.000000,0.096571 LLEG_JOINT4:0.993363,0.084658,0.000000,-0.077860 RARM_JOINT2:0.770037,0.000000,-0.062668,0.634914 RARM_JOINT3:0.974697,0.000000,0.184508,0.126188 RLEG_JOINT2:0.999934,0.011358,0.000000,0.001674 RLEG_JOINT4:0.996274,0.086130,0.000000,0.004525 WAIST:0.998894,0.000000,-0.039348,-0.025731 WAIST_JOINT0:0.996768,0.000000,-0.078994,-0.014638 WAIST_JOINT1:0.997587,0.067738,0.000000,-0.015225 END:
KINECT_DATA_Sensor  AnkleLeft:0.083143,0.743955,-0.074778,-0.658807 AnkleRight:0.057382,0.671375,0.079856,0.734565 ElbowLeft:-0.246400,0.929057,-0.071910,-0.266399 ElbowRight:0.034530,0.818626,0.172894,0.546596 FootLeft:0.000000,0.000000,0.000000,0.000000 FootRight:0.000000,0.000000,0.000000,0.000000 HandLeft:-0.034986,-0.333679,-0.412604,0.846872 HandRight:-0.039845,0.603192,-0.082564,0.792310 HandTipLeft:0.000000,0.000000,0.000000,0.000000 HandTipRight:0.000000,0.000000,0.000000,0.000000 Head:0.000000,0.000000,0.000000,0.000000 HipLeft:-0.149383,0.690806,-0.682659,0.185604 HipRight:-0.093617,0.661909,0.726422,-0.159448 KneeLeft:-0.033403,0.734336,-0.068305,-0.674514 KneeRight:-0.008702,0.678830,0.024677,0.733829 Neck:0.079304,-0.042745,0.992485,-0.082810 ShoulderLeft:-0.054069,0.787665,-0.598807,0.134498 ShoulderRight:0.050510,0.775244,0.629551,-0.010526 SpineBase:0.039888,-0.036084,0.997614,-0.043285 SpineMid:0.058935,-0.036905,0.996670,-0.042588 SpineShoulder:0.078845,-0.040154,0.994173,-0.061575 ThumbLeft:0.000000,0.000000,0.000000,0.000000 ThumbRight:0.000000,0.000000,0.000000,0.000000 WristLeft:-0.008588,-0.328275,-0.376167,0.866406 WristRight:-0.076322,0.597517,-0.036556,0.797378 END:
KINECT_DATA POSITION:13.757083,-1.965255,-10.305309 HEAD_JOINT1:0.977226,0.181785,-0.000000,0.109467 LARM_JOINT2:0.835356,0.000000,-0.293803,-0.464607 LARM_JOINT3:0.948252,0.000000,-0.292678,-0.123115 LLEG_JOINT2:0.995479,0.025956,0.000000,0.091368 LLEG_JOINT4:0.994076,0.082432,0.000000,-0.070831 RARM_JOINT2:0.770845,0.000000,-0.061087,0.634087 RARM_JOINT3:0.976029,0.000000,0.172559,0.132630 RLEG_JOINT2:0.999931,0.011771,0.000000,-0.000616 RLEG_JOINT4:0.995914,0.090211,0.000000,0.004166 WAIST:0.999320,0.000000,-0.028615,-0.023247 WAIST_JOINT0:0.997523,0.000000,-0.068499,-0.015983 WAIST_JOINT1:0.997758,0.065232,0.000000,-0.014959 END:
KINECT_DATA_Sensor  AnkleLeft:0.078265,0.740704,-0.073585,-0.663187 AnkleRight:0.059747,0.677444,0.084035,0.728312 ElbowLeft:-0.250053,0.913086,-0.084086,-0.310928 ElbowRight:0.031628,0.828617,0.170157,0.532391 FootLeft:0.000000,0.000000,0.000000,0.000000 FootRight:0.000000,0.000000,0.000000,0.000000 HandLeft:-0.274107,0.356788,-0.300741,0.840906 HandRight:0.004323,0.602293,-0.080804,0.794163 HandTipLeft:0.000000,0.000000,0.000000,0.000000 HandTipRight:0.000000,0.000000,0.000000,0.000000 Head:0.000000,0.000000,0.000000,0.000000 HipLeft:-0.144614,0.691578,-0.684802,0.178472 HipRight:-0.101293,0.663110,0.723131,-0.164641 KneeLeft:-0.032101,0.726872,-0.065281,-0.682909 KneeRight:-0.008284,0.686721,0.024972,0.726445 Neck:0.069518,-0.040232,0.993601,-0.079407 ShoulderLeft:-0.046971,0.793408,-0.594103,0.123854 ShoulderRight:0.044243,0.776651,0.628186,-0.015418 SpineBase:0.028982,-0.035552,0.998096,-0.041231 SpineMid:0.048531,-0.036353,0.997337,-0.040527 SpineShoulder:0.069035,-0.038368,0.995116,-0.059217 ThumbLeft:0.000000,0.000000,0.000000,0.000000 ThumbRight:0.000000,0.000000,0.000000,0.000000 WristLeft:-0.258419,0.362562,-0.295928,0.845100 WristRight:-0.072429,0.591125,-0.037579,0.802442 END:
KINECT_DATA POSITION:13.640952,-1.981296,-10.243118 HEAD_JOINT1:0.979496,0.182845,-0.000000,0.084595 LARM_JOINT2:0.834867,0.000000,-0.287198,-0.469590 LARM_JOINT3:0.955555,0.000000,-0.277917,-0.098368 LLEG_JOINT2:0.996644,0.022086,0.000000,0.078826 LLEG_JOINT4:0.994983,0.082773,0.000000,-0.056193 RARM_JOINT2:0.780125,0.000000,-0.058055,0.622924 RARM_JOINT3:0.975278,0.000000,0.172268,0.138409 RLEG_JOINT2:0.999885,0.010134,0.000000,-0.011324 RLEG_JOINT4:0.995158,0.097041,0.000000,0.015604 WAIST:0.999756,0.000000,-0.014709,-0.016482 WAIST_JOINT0:0.999220,0.000000,-0.038437,-0.009093 WAIST_JOINT1:0.998177,0.059638,0.000000,-0.009250 END:
KINECT_DATA_Sensor  AnkleLeft:0.070251,0.725943,-0.077387,-0.679767 AnkleRight:0.074654,0.745206,0.077374,0.658110 ElbowLeft:-0.256659,0.886519,-0.082643,-0.376007 ElbowRight:0.026033,0.849046,0.168469,0.500061 FootLeft:0.000000,0.000000,0.000000,0.000000 FootRight:0.000000,0.000000,0.000000,0.000000 HandLeft:0.017583,-0.257714,-0.360465,0.896292 HandRight:-0.012226,0.643969,-0.093504,0.759217 HandTipLeft:0.000000,0.000000,0.000000,0.000000 HandTipRight:0.000000,0.000000,0.000000,0.000000 Head:0.000000,0.000000,0.000000,0.000000 HipLeft:0.136542,-0.689623,0.690361,-0.170814 HipRight:-0.112664,0.667651,0.716367,-0.168427 KneeLeft:-0.029462,0.717089,-0.059175,-0.693840 KneeRight:-0.012252,0.696718,0.026845,0.716738 Neck:0.039758,-0.027075,0.996079,-0.074252 ShoulderLeft:-0.030246,0.793435,-0.599983,0.097811 ShoulderRight:0.021903,0.781420,0.622585,-0.035922 SpineBase:0.014905,-0.026838,0.998812,-0.037840 SpineMid:0.026772,-0.027286,0.998564,-0.037519 SpineShoulder:0.039398,-0.025973,0.997410,-0.054282 ThumbLeft:0.000000,0.000000,0.000000,0.000000 ThumbRight:0.000000,0.000000,0.000000,0.000000 WristLeft:0.041704,-0.245618,-0.401157,0.881479 WristRight:-0.069910,0.635601,-0.042340,0.767679 END:
KINECT_DATA POSITION:12.669312,-1.947673,-10.468841 HEAD_JOINT1:0.982334,0.183561,-0.000000,0.036408 LARM_JOINT2:0.838233,0.000000,-0.281382,-0.467107 LARM_JOINT3:0.958721,0.000000,-0.275799,-0.069200 LLEG_JOINT2:0.998054,0.010280,0.000000,0.061508 LLEG_JOINT4:0.995284,0.089291,0.000000,-0.037917 RARM_JOINT2:0.795117,0.000000,-0.049744,0.604413 RARM_JOINT3:0.976398,0.000000,0.161919,0.142931 RLEG_JOINT2:0.999663,0.012786,0.000000,-0.022611 RLEG_JOINT4:0.994608,0.099644,0.000000,0.028749 WAIST:0.999776,0.000000,0.020846,-0.003581 WAIST_JOINT0:0.999932,-0.000000,0.009674,0.006587 WAIST_JOINT1:0.998209,0.059771,0.000000,-0.002305 END:
KINECT_DATA_Sensor  AnkleLeft:-0.059936,-0.700961,0.081787,0.705955 AnkleRight:0.080109,0.718221,0.078878,0.686673 ElbowLeft:-0.263603,0.854039,-0.106010,-0.435768 ElbowRight:0.020166,0.886497,0.169619,0.430053 FootLeft:0.000000,0.000000,0.000000,0.000000 FootRight:0.000000,0.000000,0.000000,0.000000 HandLeft:0.123946,-0.331044,-0.375653,0.856698 HandRight:-0.017785,0.670265,-0.069635,0.738633 HandTipLeft:0.000000,0.000000,0.000000,0.000000 HandTipRight:0.000000,0.000000,0.000000,0.000000 Head:0.000000,0.000000,0.000000,0.000000 HipLeft:0.109621,-0.685265,0.704242,-0.149795 HipRight:-0.136830,0.672696,0.704177,-0.181365 KneeLeft:0.032607,-0.691385,0.048994,0.720085 KneeRight:-0.009988,0.721656,0.027415,0.691636 Neck:-0.008521,-0.008364,0.997082,-0.075392 ShoulderLeft:0.003632,0.785461,-0.615971,0.060144 ShoulderRight:-0.006907,0.787116,0.612464,-0.072728 SpineBase:-0.020817,-0.007458,0.999116,-0.035751 SpineMid:-0.014866,-0.007670,0.999222,-0.035706 SpineShoulder:-0.008643,-0.007673,0.998445,-0.054536 ThumbLeft:0.000000,0.000000,0.000000,0.000000 ThumbRight:0.000000,0.000000,0.000000,0.000000 WristLeft:0.152131,-0.318260,-0.368305,0.860185 WristRight:-0.057192,0.666158,-0.047681,0.742084 END:
KINECT_DATA POSITION:11.939164,-1.948320,-10.510659 HEAD_JOINT1:0.983086,0.177907,-0.000000,0.043488 LARM_JOINT2:0.848442,0.000000,-0.252537,-0.465158 LARM_JOINT3:0.962918,0.000000,-0.269744,-0.005200 LLEG_JOINT2:0.998488,0.008128,0.000000,0.054371 LLEG_JOINT4:0.995295,0.089880,0.000000,-0.036199 RARM_JOINT2:0.795766,0.000000,-0.043607,0.604032 RARM_JOINT3:0.976643,0.000000,0.159405,0.144076 RLEG_JOINT2:0.999483,0.014563,0.000000,-0.028660 RLEG_JOINT4:0.994563,0.097836,0.000000,0.035666 WAIST:0.999543,-0.000000,0.029861,0.004797 WAIST_JOINT0:0.999656,-0.000000,0.023073,0.012493 WAIST_JOINT1:0.998308,0.058100,0.000000,-0.002155 END:
KINECT_DATA_Sensor  AnkleLeft:-0.057290,-0.693676,0.082300,0.713273 AnkleRight:0.087639,0.740723,0.070969,0.662278 ElbowLeft:-0.270959,0.780453,-0.104630,-0.553648 ElbowRight:0.015776,0.890791,0.160092,0.424987 FootLeft:0.000000,0.000000,0.000000,0.000000 FootRight:0.000000,0.000000,0.000000,0.000000 HandLeft:0.004059,0.131285,-0.429874,0.893284 HandRight:0.004856,0.747754,-0.081960,0.658880 HandTipLeft:0.000000,0.000000,0.000000,0.000000 HandTipRight:0.000000,0.000000,0.000000,0.000000 Head:0.000000,0.000000,0.000000,0.000000 HipLeft:0.102931,-0.680914,0.710593,-0.144287 HipRight:-0.145500,0.677389,0.696858,-0.185373 KneeLeft:0.034736,-0.684646,0.048547,0.726427 KneeRight:-0.007472,0.728023,0.026864,0.684985 Neck:-0.022444,-0.000125,0.997033,-0.073628 ShoulderLeft:0.012775,0.783462,-0.619494,0.047441 ShoulderRight:-0.015876,0.791878,0.605030,-0.081343 SpineBase:-0.030094,0.001239,0.998956,-0.034345 SpineMid:-0.026281,0.001107,0.999064,-0.034349 SpineShoulder:-0.022414,0.000642,0.998344,-0.052982 ThumbLeft:0.000000,0.000000,0.000000,0.000000 ThumbRight:0.000000,0.000000,0.000000,0.000000 WristLeft:0.051778,0.155328,-0.412839,0.895967 WristRight:-0.061965,0.746340,-0.050511,0.660747 END:
KINECT_DATA POSITION:11.328355,-1.962773,-10.538530 HEAD_JOINT1:0.983324,0.176342,-0.000000,0.044459 LARM_JOINT2:0.873489,0.000000,-0.218544,-0.435035 LARM_JOINT3:0.964331,0.000000,-0.261316,0.042181 LLEG_JOINT2:0.998580,0.006556,0.000000,0.052873 LLEG_JOINT4:0.995335,0.090598,0.000000,-0.033159 RARM_JOINT2:0.794029,0.000000,-0.044225,0.606268 RARM_JOINT3:0.976936,0.000000,0.156881,0.144863 RLEG_JOINT2:0.999361,0.015422,0.000000,-0.032255 RLEG_JOINT4:0.994426,0.097376,0.000000,0.040430 WAIST:0.999371,-0.000000,0.034036,0.009959 WAIST_JOINT0:0.999379,-0.000000,0.030589,0.017493 WAIST_JOINT1:0.998299,0.058096,0.000000,-0.004905 END:
KINECT_DATA_Sensor  AnkleLeft:-0.052379,-0.690304,0.086335,0.716438 AnkleRight:0.090362,0.727712,0.069195,0.676374 ElbowLeft:-0.294169,0.708152,-0.129107,-0.628742 ElbowRight:0.016840,0.890508,0.155842,0.427113 FootLeft:0.000000,0.000000,0.000000,0.000000 FootRight:0.000000,0.000000,0.000000,0.000000 HandLeft:0.173431,0.036910,-0.425600,0.887369 HandRight:0.028266,0.719338,-0.083273,0.689071 HandTipLeft:0.000000,0.000000,0.000000,0.000000 HandTipRight:0.000000,0.000000,0.000000,0.000000 Head:0.000000,0.000000,0.000000,0.000000 HipLeft:0.099957,-0.678089,0.714306,-0.141319 HipRight:-0.148479,0.680162,0.692793,-0.188074 KneeLeft:0.038330,-0.681251,0.050145,0.729324 KneeRight:-0.005986,0.731071,0.026252,0.681770 Neck:-0.030289,0.002268,0.996828,-0.073558 ShoulderLeft:0.020482,0.780757,-0.623244,0.039576 ShoulderRight:-0.018210,0.794364,0.601150,-0.085279 SpineBase:-0.034534,0.003614,0.998814,-0.034118 SpineMid:-0.032369,0.003540,0.998887,-0.034125 SpineShoulder:-0.030229,0.002988,0.998140,-0.052861 ThumbLeft:0.000000,0.000000,0.000000,0.000000 ThumbRight:0.000000,0.000000,0.000000,0.000000 WristLeft:0.196963,0.053760,-0.402045,0.892567 WristRight:-0.057871,0.717619,-0.055260,0.691823 END:
KINECT_DATA POSITION:11.194118,-1.946609,-10.578691 HEAD_JOINT1:0.983462,0.176281,-0.000000,0.041555 LARM_JOINT2:0.882340,0.000000,-0.209132,-0.421593 LARM_JOINT3:0.970994,0.000000,-0.236582,0.034629 LLEG_JOINT2:0.998608,0.006637,0.000000,0.052317 LLEG_JOINT4:0.995362,0.090498,0.000000,-0.032632 RARM_JOINT2:0.794915,0.000000,-0.043310,0.605173 RARM_JOINT3:0.976036,0.000000,0.159958,0.147537 RLEG_JOINT2:0.999398,0.014110,0.000000,-0.031705 RLEG_JOINT4:0.994740,0.094637,0.000000,0.039192 WAIST:0.999300,-0.000000,0.035814,0.010804 WAIST_JOINT0:0.999233,-0.000000,0.033619,0.020071 WAIST_JOINT1:0.998299,0.058140,0.000000,-0.004269 END:
KINECT_DATA_Sensor  AnkleLeft:-0.051900,-0.688647,0.086828,0.718006 AnkleRight:0.087566,0.729620,0.066259,0.674979 ElbowLeft:-0.302610,0.699509,-0.146002,-0.630712 ElbowRight:0.015554,0.890291,0.155538,0.427724 FootLeft:0.000000,0.000000,0.000000,0.000000 FootRight:0.000000,0.000000,0.000000,0.000000 HandLeft:0.201420,0.048061,-0.380578,0.901266 HandRight:0.029276,0.768451,-0.101467,0.631135 HandTipLeft:0.000000,0.000000,0.000000,0.000000 HandTipRight:0.000000,0.000000,0.000000,0.000000 Head:0.000000,0.000000,0.000000,0.000000 HipLeft:0.098558,-0.677646,0.715101,-0.140399 HipRight:-0.149897,0.680450,0.691981,-0.188896 KneeLeft:0.038409,-0.679954,0.050447,0.730508 KneeRight:-0.005943,0.732279,0.024297,0.680545 Neck:-0.033506,0.003772,0.996715,-0.073642 ShoulderLeft:0.022681,0.778504,-0.626114,0.037397 ShoulderRight:-0.020207,0.795034,0.599837,-0.087791 SpineBase:-0.036323,0.004880,0.998747,-0.034091 SpineMid:-0.034848,0.004829,0.998799,-0.034098 SpineShoulder:-0.033427,0.004425,0.998030,-0.052905 ThumbLeft:0.000000,0.000000,0.000000,0.000000 ThumbRight:0.000000,0.000000,0.000000,0.000000 WristLeft:0.224826,0.056898,-0.383011,0.894158 WristRight:-0.063598,0.769202,-0.052758,0.633640 END:
KINECT_DATA POSITION:11.174991,-1.948002,-10.579610 HEAD_JOINT1:0.983679,0.175397,-0.000000,0.040146 LARM_JOINT2:0.885274,0.000000,-0.210295,-0.414809 LARM_JOINT3:0.970753,0.000000,-0.238528,0.027247 LLEG_JOINT2:0.998667,0.007005,0.000000,0.051148 LLEG_JOINT4:0.995576,0.088653,0.000000,-0.031131 RARM_JOINT2:0.796133,0.000000,-0.041224,0.603716 RARM_JOINT3:0.977300,0.000000,0.156023,0.143327 RLEG_JOINT2:0.999392,0.014044,0.000000,-0.031906 RLEG_JOINT4:0.994468,0.097517,0.000000,0.039047 WAIST:0.999277,-0.000000,0.036297,0.011270 WAIST_JOINT0:0.999218,-0.000000,0.033695,0.020698 WAIST_JOINT1:0.998293,0.058283,0.000000,-0.003840 END:
KINECT_DATA_Sensor  AnkleLeft:-0.050327,-0.688820,0.086392,0.718005 AnkleRight:0.091817,0.752348,0.065144,0.649075 ElbowLeft:-0.307883,0.701711,-0.152298,-0.624191 ElbowRight:0.014109,0.891910,0.155687,0.424334 FootLeft:0.000000,0.000000,0.000000,0.000000 FootRight:0.000000,0.000000,0.000000,0.000000 HandLeft:0.176474,0.048428,-0.402151,0.897099 HandRight:0.026324,0.743656,-0.068003,0.664573 HandTipLeft:0.000000,0.000000,0.000000,0.000000 HandTipRight:0.000000,0.000000,0.000000,0.000000 Head:0.000000,0.000000,0.000000,0.000000 HipLeft:0.098039,-0.677357,0.715469,-0.140284 HipRight:-0.150222,0.680720,0.691593,-0.189085 KneeLeft:0.037651,-0.679643,0.050187,0.730855 KneeRight:-0.005821,0.732611,0.024049,0.680197 Neck:-0.033624,0.004633,0.996694,-0.073813 ShoulderLeft:0.022674,0.777680,-0.627121,0.037681 ShoulderRight:-0.020424,0.795003,0.599817,-0.088162 SpineBase:-0.036815,0.005568,0.998721,-0.034196 SpineMid:-0.035146,0.005511,0.998781,-0.034205 SpineShoulder:-0.033530,0.005254,0.998014,-0.053062 ThumbLeft:0.000000,0.000000,0.000000,0.000000 ThumbRight:0.000000,0.000000,0.000000,0.000000 WristLeft:0.225205,0.075941,-0.379152,0.894293 WristRight:-0.061665,0.739940,-0.057029,0.667408 END:
KINECT_DATA POSITION:11.171171,-1.942880,-10.588765 HEAD_JOINT1:0.983719,0.175270,-0.000000,0.039719 LARM_JOINT2:0.887890,0.000000,-0.218678,-0.404760 LARM_JOINT3:0.973768,0.000000,-0.223348,0.043484 LLEG_JOINT2:0.998690,0.006834,0.000000,0.050713 LLEG_JOINT4:0.995549,0.089619,0.000000,-0.029155 RARM_JOINT2:0.796562,0.000000,-0.040859,0.603175 RARM_JOINT3:0.978007,0.000000,0.151951,0.142873 RLEG_JOINT2:0.999366,0.014445,0.000000,-0.032555 RLEG_JOINT4:0.994383,0.097330,0.000000,0.041576 WAIST:0.999276,-0.000000,0.036181,0.011790 WAIST_JOINT0:0.999246,-0.000000,0.032701,0.020936 WAIST_JOINT1:0.998240,0.059176,0.000000,-0.003850 END:
KINECT_DATA_Sensor  AnkleLeft:-0.049631,-0.689590,0.088391,0.717070 AnkleRight:0.092605,0.741515,0.065085,0.661320 ElbowLeft:-0.319795,0.696826,-0.150608,-0.624085 ElbowRight:0.014455,0.891667,0.156149,0.424662 FootLeft:0.000000,0.000000,0.000000,0.000000 FootRight:0.000000,0.000000,0.000000,0.000000 HandLeft:0.165508,0.184313,-0.434793,0.865789 HandRight:0.032039,0.826937,-0.056875,0.558492 HandTipLeft:0.000000,0.000000,0.000000,0.000000 HandTipRight:0.000000,0.000000,0.000000,0.000000 Head:0.000000,0.000000,0.000000,0.000000 HipLeft:0.097782,-0.676974,0.715823,-0.140508 HipRight:-0.149897,0.681041,0.691308,-0.189230 KneeLeft:0.037855,-0.679700,0.050114,0.730796 KneeRight:-0.005651,0.732557,0.024419,0.680245 Neck:-0.032702,0.005091,0.996636,-0.074973 ShoulderLeft:0.022886,0.776982,-0.627904,0.038878 ShoulderRight:-0.019058,0.794745,0.600249,-0.087852 SpineBase:-0.036732,0.005807,0.998711,-0.034552 SpineMid:-0.034645,0.005734,0.998785,-0.034564 SpineShoulder:-0.032600,0.005677,0.997999,-0.053877 ThumbLeft:0.000000,0.000000,0.000000,0.000000 ThumbRight:0.000000,0.000000,0.000000,0.000000 WristLeft:0.180404,0.198353,-0.409750,0.871903 WristRight:-0.068658,0.823324,-0.047679,0.561383 END:
KINECT_DATA POSITION:11.154600,-1.917066,-10.602760 HEAD_JOINT1:0.982578,0.180037,-0.000000,0.046111 LARM_JOINT2:0.896982,0.000000,-0.231577,-0.376558 LARM_JOINT3:0.979178,0.000000,-0.196358,0.051521 LLEG_JOINT2:0.998740,0.007061,0.000000,0.049689 LLEG_JOINT4:0.995532,0.090293,0.000000,-0.027634 RARM_JOINT2:0.796122,0.000000,-0.042819,0.603619 RARM_JOINT3:0.977946,0.000000,0.148760,0.146599 RLEG_JOINT2:0.999334,0.014318,0.000000,-0.033552 RLEG_JOINT4:0.994389,0.096297,0.000000,0.043781 WAIST:0.999289,-0.000000,0.035454,0.012822 WAIST_JOINT0:0.999391,-0.000000,0.026661,0.022495 WAIST_JOINT1:0.998186,0.060030,0.000000,-0.004616 END:
KINECT_DATA_Sensor  AnkleLeft:-0.049597,-0.693093,0.089926,0.713495 AnkleRight:0.091903,0.725085,0.064819,0.679415 ElbowLeft:0.349551,-0.680725,0.150957,0.625811 ElbowRight:0.016417,0.889475,0.156552,0.429018 FootLeft:0.000000,0.000000,0.000000,0.000000 FootRight:0.000000,0.000000,0.000000,0.000000 HandLeft:0.192575,0.207840,-0.442174,0.850999 HandRight:0.064368,0.747709,-0.063043,0.657886 HandTipLeft:0.000000,0.000000,0.000000,0.000000 HandTipRight:0.000000,0.000000,0.000000,0.000000 Head:0.000000,0.000000,0.000000,0.000000 HipLeft:0.097625,-0.676066,0.716575,-0.141154 HipRight:-0.148876,0.681657,0.690926,-0.189211 KneeLeft:0.037751,-0.680191,0.050224,0.730337 KneeRight:-0.005714,0.732106,0.024287,0.680734 Neck:-0.026669,0.004914,0.996748,-0.075876 ShoulderLeft:0.017252,0.774876,-0.630178,0.046317 ShoulderRight:-0.017056,0.794577,0.600883,-0.085411 SpineBase:-0.036079,0.006096,0.998708,-0.035251 SpineMid:-0.031306,0.005928,0.998869,-0.035280 SpineShoulder:-0.026544,0.005665,0.998133,-0.054725 ThumbLeft:0.000000,0.000000,0.000000,0.000000 ThumbRight:0.000000,0.000000,0.000000,0.000000 WristLeft:0.201501,0.219800,-0.418474,0.857884 WristRight:-0.061174,0.744548,-0.052209,0.662707 END:
KINECT_DATA POSITION:11.165457,-1.902709,-10.589314 HEAD_JOINT1:0.981790,0.183493,-0.000000,0.049184 LARM_JOINT2:0.899551,0.000000,-0.235912,-0.367633 LARM_JOINT3:0.979435,0.000000,-0.198811,0.034381 LLEG_JOINT2:0.998785,0.007487,0.000000,0.048697 LLEG_JOINT4:0.995409,0.091399,0.000000,-0.028401 RARM_JOINT2:0.795726,0.000000,-0.043178,0.604115 RARM_JOINT3:0.977491,0.000000,0.151739,0.146585 RLEG_JOINT2:0.999317,0.013350,0.000000,-0.034471 RLEG_JOINT4:0.994317,0.097824,0.000000,0.041993 WAIST:0.999305,-0.000000,0.034615,0.013807 WAIST_JOINT0:0.999444,-0.000000,0.023951,0.023186 WAIST_JOINT1:0.998158,0.060427,0.000000,-0.005486 END:
KINECT_DATA_Sensor  AnkleLeft:-0.051273,-0.694383,0.090318,0.712072 AnkleRight:0.092259,0.736777,0.064644,0.666685 ElbowLeft:0.358659,-0.677518,0.151114,0.624098 ElbowRight:0.017365,0.888874,0.156214,0.430347 FootLeft:0.000000,0.000000,0.000000,0.000000 FootRight:0.000000,0.000000,0.000000,0.000000 HandLeft:0.134831,0.240577,-0.423991,0.862655 HandRight:0.053668,0.771507,-0.076217,0.629354 HandTipLeft:0.000000,0.000000,0.000000,0.000000 HandTipRight:0.000000,0.000000,0.000000,0.000000 Head:0.000000,0.000000,0.000000,0.000000 HipLeft:0.097885,-0.675190,0.717258,-0.141698 HipRight:-0.148181,0.682255,0.690531,-0.189044 KneeLeft:0.037496,-0.680772,0.050462,0.729793 KneeRight:-0.006321,0.731564,0.023523,0.681338 Neck:-0.024025,0.004878,0.996790,-0.076215 ShoulderLeft:0.015251,0.773801,-0.631327,0.049259 ShoulderRight:-0.015687,0.794547,0.601156,-0.084027 SpineBase:-0.035308,0.006337,0.998723,-0.035576 SpineMid:-0.029594,0.006134,0.998909,-0.035612 SpineShoulder:-0.023887,0.005721,0.998177,-0.055122 ThumbLeft:0.000000,0.000000,0.000000,0.000000 ThumbRight:0.000000,0.000000,0.000000,0.000000 WristLeft:0.185285,0.255877,-0.436211,0.842565 WristRight:-0.062530,0.770105,-0.049420,0.632919 END:
KINECT_DATA POSITION:11.187682,-1.885743,-10.574186 HEAD_JOINT1:0.981816,0.183271,-0.000000,0.049493 LARM_JOINT2:0.899492,0.000000,-0.235580,-0.367989 LARM_JOINT3:0.980513,0.000000,-0.193724,0.032637 LLEG_JOINT2:0.998788,0.006744,0.000000,0.048753 LLEG_JOINT4:0.995494,0.090854,0.000000,-0.027146 RARM_JOINT2:0.795415,0.000000,-0.043124,0.604529 RARM_JOINT3:0.977886,0.000000,0.149641,0.146107 RLEG_JOINT2:0.999294,0.014120,0.000000,-0.034807 RLEG_JOINT4:0.994492,0.096127,0.000000,0.041775 WAIST:0.999313,-0.000000,0.034180,0.014349 WAIST_JOINT0:0.999474,-0.000000,0.022756,0.023109 WAIST_JOINT1:0.998116,0.061067,0.000000,-0.005886 END:
KINECT_DATA_Sensor  AnkleLeft:-0.049125,-0.695458,0.090821,0.711110 AnkleRight:0.091274,0.733003,0.064431,0.670987 ElbowLeft:0.356973,-0.681992,0.153810,0.619516 ElbowRight:0.018146,0.888484,0.155937,0.431221 FootLeft:0.000000,0.000000,0.000000,0.000000 FootRight:0.000000,0.000000,0.000000,0.000000 HandLeft:0.155949,0.224051,-0.410132,0.870214 HandRight:0.062736,0.739528,-0.065494,0.666989 HandTipLeft:0.000000,0.000000,0.000000,0.000000 HandTipRight:0.000000,0.000000,0.000000,0.000000 Head:0.000000,0.000000,0.000000,0.000000 HipLeft:0.097745,-0.674748,0.717589,-0.142221 HipRight:-0.147613,0.682627,0.690265,-0.189115 KneeLeft:0.038480,-0.681022,0.050363,0.729514 KneeRight:-0.005643,0.731302,0.023939,0.681611 Neck:-0.022954,0.004941,0.996765,-0.076863 ShoulderLeft:0.015958,0.773567,-0.631553,0.049803 ShoulderRight:-0.013565,0.794513,0.601409,-0.082902 SpineBase:-0.034912,0.006613,0.998717,-0.036069 SpineMid:-0.028852,0.006394,0.998911,-0.036108 SpineShoulder:-0.022808,0.005828,0.998167,-0.055750 ThumbLeft:0.000000,0.000000,0.000000,0.000000 ThumbRight:0.000000,0.000000,0.000000,0.000000 WristLeft:0.195503,0.232776,-0.428482,0.850880 WristRight:-0.059340,0.736664,-0.052363,0.671612 END:
KINECT_DATA POSITION:11.219029,-1.877140,-10.553002 HEAD_JOINT1:0.981410,0.185896,-0.000000,0.047714 LARM_JOINT2:0.897114,0.000000,-0.234716,-0.374293 LARM_JOINT3:0.980201,0.000000,-0.195972,0.028288 LLEG_JOINT2:0.998792,0.006646,0.000000,0.048693 LLEG_JOINT4:0.995398,0.090196,0.000000,-0.032374 RARM_JOINT2:0.795365,0.000000,-0.042789,0.604619 RARM_JOINT3:0.977042,0.000000,0.156077,0.145016 RLEG_JOINT2:0.999327,0.013894,0.000000,-0.033944 RLEG_JOINT4:0.994249,0.098415,0.000000,0.042242 WAIST:0.999326,-0.000000,0.033810,0.014327 WAIST_JOINT0:0.999596,-0.000000,0.019052,0.021113 WAIST_JOINT1:0.998078,0.061681,0.000000,-0.005919 END:
KINECT_DATA_Sensor  AnkleLeft:-0.052153,-0.696863,0.086295,0.710081 AnkleRight:0.092921,0.724828,0.066056,0.679431 ElbowLeft:0.352126,-0.680211,0.148982,0.625399 ElbowRight:0.018422,0.888071,0.156086,0.432005 FootLeft:0.000000,0.000000,0.000000,0.000000 FootRight:0.000000,0.000000,0.000000,0.000000 HandLeft:0.134053,0.229976,-0.399267,0.877340 HandRight:0.040445,0.756841,-0.085360,0.646737 HandTipLeft:0.000000,0.000000,0.000000,0.000000 HandTipRight:0.000000,0.000000,0.000000,0.000000 Head:0.000000,0.000000,0.000000,0.000000 HipLeft:0.097516,-0.674701,0.717545,-0.142825 HipRight:-0.147050,0.682642,0.690340,-0.189228 KneeLeft:0.038511,-0.681295,0.050226,0.729268 KneeRight:-0.005170,0.731050,0.023204,0.681909 Neck:-0.019882,0.004632,0.996785,-0.077477 ShoulderLeft:0.013364,0.772920,-0.632100,0.053534 ShoulderRight:-0.012236,0.793942,0.602350,-0.081737 SpineBase:-0.034546,0.006747,0.998708,-0.036649 SpineMid:-0.027131,0.006475,0.998937,-0.036698 SpineShoulder:-0.019726,0.005625,0.998198,-0.056387 ThumbLeft:0.000000,0.000000,0.000000,0.000000 ThumbRight:0.000000,0.000000,0.000000,0.000000 WristLeft:0.188882,0.240031,-0.428363,0.850420 WristRight:-0.060842,0.756231,-0.050128,0.649538 END:
KINECT_DATA POSITION:11.298811,-1.909102,-10.471619 HEAD_JOINT1:0.980717,0.189921,-0.000000,0.046087 LARM_JOINT2:0.889117,0.000000,-0.233037,-0.393911 LARM_JOINT3:0.982624,0.000000,-0.185162,0.012880 LLEG_JOINT2:0.998832,0.007577,0.000000,0.047715 LLEG_JOINT4:0.995350,0.090543,0.000000,-0.032883 RARM_JOINT2:0.795616,0.000000,-0.042932,0.604277 RARM_JOINT3:0.977245,0.000000,0.155321,0.144459 RLEG_JOINT2:0.999290,0.013619,0.000000,-0.035118 RLEG_JOINT4:0.994155,0.099514,0.000000,0.041854 WAIST:0.999356,-0.000000,0.032797,0.014580 WAIST_JOINT0:0.999686,-0.000000,0.017035,0.018380 WAIST_JOINT1:0.998092,0.061424,0.000000,-0.006266 END:
KINECT_DATA_Sensor  AnkleLeft:0.057552,0.727767,-0.083840,-0.678244 AnkleRight:0.094292,0.741099,0.065079,0.661548 ElbowLeft:0.335428,-0.688073,0.139768,0.628099 ElbowRight:0.018287,0.887785,0.156434,0.432471 FootLeft:0.000000,0.000000,0.000000,0.000000 FootRight:0.000000,0.000000,0.000000,0.000000 HandLeft:0.119712,0.194386,-0.351702,0.907849 HandRight:0.036948,0.770626,-0.079033,0.631288 HandTipLeft:0.000000,0.000000,0.000000,0.000000 HandTipRight:0.000000,0.000000,0.000000,0.000000 Head:0.000000,0.000000,0.000000,0.000000 HipLeft:0.097926,-0.674508,0.717585,-0.143251 HipRight:-0.146282,0.683081,0.690274,-0.188477 KneeLeft:0.037380,-0.682082,0.050300,0.728586 KneeRight:-0.006002,0.730358,0.023643,0.682629 Neck:-0.018016,0.004492,0.996845,-0.077176 ShoulderLeft:0.011943,0.773814,-0.630933,0.054703 ShoulderRight:-0.011268,0.792816,0.604047,-0.080271 SpineBase:-0.033548,0.006935,0.998741,-0.036634 SpineMid:-0.025690,0.006647,0.998974,-0.036687 SpineShoulder:-0.017852,0.005572,0.998247,-0.056145 ThumbLeft:0.000000,0.000000,0.000000,0.000000 ThumbRight:0.000000,0.000000,0.000000,0.000000 WristLeft:0.198137,0.203758,-0.400184,0.871250 WristRight:-0.062298,0.769248,-0.049066,0.634010 END:
KINECT_DATA POSITION:11.339787,-1.925639,-10.445738 HEAD_JOINT1:0.980083,0.193323,-0.000000,0.045425 LARM_JOINT2:0.884399,0.000000,-0.227118,-0.407745 LARM_JOINT3:0.983711,0.000000,-0.179587,0.007792 LLEG_JOINT2:0.998860,0.008146,0.000000,0.047026 LLEG_JOINT4:0.994922,0.095311,0.000000,-0.032348 RARM_JOINT2:0.795405,0.000000,-0.043378,0.604524 RARM_JOINT3:0.977786,0.000000,0.155319,0.140751 RLEG_JOINT2:0.999296,0.013748,0.000000,-0.034913 RLEG_JOINT4:0.994447,0.098210,0.000000,0.037821 WAIST:0.999360,-0.000000,0.032552,0.014842 WAIST_JOINT0:0.999696,-0.000000,0.017281,0.017596 WAIST_JOINT1:0.998086,0.061451,0.000000,-0.006999 END:
KINECT_DATA_Sensor  AnkleLeft:-0.057759,-0.697098,0.089859,0.708973 AnkleRight:0.088873,0.720774,0.069456,0.683932 ElbowLeft:-0.319477,0.701414,-0.141554,-0.621221 ElbowRight:0.018340,0.886961,0.156750,0.434043 FootLeft:0.000000,0.000000,0.000000,0.000000 FootRight:0.000000,0.000000,0.000000,0.000000 HandLeft:0.166263,0.060035,-0.318093,0.931434 HandRight:0.034325,0.704469,-0.063207,0.706081 HandTipLeft:0.000000,0.000000,0.000000,0.000000 HandTipRight:0.000000,0.000000,0.000000,0.000000 Head:0.000000,0.000000,0.000000,0.000000 HipLeft:0.098111,-0.674322,0.717710,-0.143375 HipRight:-0.145923,0.683261,0.690159,-0.188525 KneeLeft:0.036689,-0.682264,0.050366,0.728446 KneeRight:-0.005570,0.730219,0.023417,0.682789 Neck:-0.017794,0.003981,0.996854,-0.077137 ShoulderLeft:0.012525,0.774998,-0.629515,0.054150 ShoulderRight:-0.010362,0.791922,0.605316,-0.079657 SpineBase:-0.033336,0.006639,0.998746,-0.036748 SpineMid:-0.025474,0.006350,0.998978,-0.036799 SpineShoulder:-0.017633,0.005134,0.998253,-0.056154 ThumbLeft:0.000000,0.000000,0.000000,0.000000 ThumbRight:0.000000,0.000000,0.000000,0.000000 WristLeft:0.243163,0.075054,-0.349553,0.901694 WristRight:-0.056944,0.693536,-0.055267,0.716039 END:
KINECT_DATA POSITION:11.381304,-1.947515,-10.399496 HEAD_JOINT1:0.979920,0.194403,-0.000000,0.044323 LARM_JOINT2:0.880970,0.000000,-0.222411,-0.417643 LARM_JOINT3:0.983112,0.000000,-0.182267,0.016431 LLEG_JOINT2:0.998892,0.008620,0.000000,0.046268 LLEG_JOINT4:0.995378,0.090176,0.000000,-0.033036 RARM_JOINT2:0.795569,0.000000,-0.043587,0.604293 RARM_JOINT3:0.977571,0.000000,0.156128,0.141348 RLEG_JOINT2:0.999262,0.014185,0.000000,-0.035702 RLEG_JOINT4:0.994400,0.098041,0.000000,0.039443 WAIST:0.999383,-0.000000,0.031742,0.015062 WAIST_JOINT0:0.999764,-0.000000,0.015704,0.015035 WAIST_JOINT1:0.998076,0.061539,0.000000,-0.007606 END:
KINECT_DATA_Sensor  AnkleLeft:-0.054995,-0.698267,0.085938,0.708529 AnkleRight:0.090846,0.729686,0.067591,0.674341 ElbowLeft:-0.308969,0.706317,-0.140122,-0.621305 ElbowRight:0.018324,0.886411,0.157437,0.434918 FootLeft:0.000000,0.000000,0.000000,0.000000 FootRight:0.000000,0.000000,0.000000,0.000000 HandLeft:0.190391,0.029755,-0.331698,0.923495 HandRight:0.025893,0.771850,-0.068346,0.631590 HandTipLeft:0.000000,0.000000,0.000000,0.000000 HandTipRight:0.000000,0.000000,0.000000,0.000000 Head:0.000000,0.000000,0.000000,0.000000 HipLeft:0.098662,-0.674072,0.717768,-0.143880 HipRight:-0.145314,0.683485,0.690142,-0.188243 KneeLeft:0.036012,-0.682866,0.050271,0.727922 KneeRight:-0.005662,0.729687,0.024133,0.683332 Neck:-0.016322,0.003520,0.996876,-0.077198 ShoulderLeft:0.011442,0.776510,-0.627575,0.055234 ShoulderRight:-0.009529,0.791349,0.606201,-0.078709 SpineBase:-0.032552,0.006441,0.998770,-0.036852 SpineMid:-0.024345,0.006138,0.999003,-0.036903 SpineShoulder:-0.016157,0.004776,0.998276,-0.056231 ThumbLeft:0.000000,0.000000,0.000000,0.000000 ThumbRight:0.000000,0.000000,0.000000,0.000000 WristLeft:0.246033,0.048583,-0.333351,0.908837 WristRight:-0.063299,0.769285,-0.048275,0.633927 END:
KINECT_DATA POSITION:11.400222,-1.966311,-10.376930 HEAD_JOINT1:0.979949,0.194144,-0.000000,0.044820 LARM_JOINT2:0.881866,0.000000,-0.220179,-0.416933 LARM_JOINT3:0.982088,0.000000,-0.187473,0.018893 LLEG_JOINT2:0.998911,0.008285,0.000000,0.045924 LLEG_JOINT4:0.995020,0.094285,0.000000,-0.032336 RARM_JOINT2:0.795654,0.000000,-0.043614,0.604179 RARM_JOINT3:0.976648,0.000000,0.159828,0.143572 RLEG_JOINT2:0.999243,0.014291,0.000000,-0.036174 RLEG_JOINT4:0.994278,0.099553,0.000000,0.038733 WAIST:0.999364,-0.000000,0.032267,0.015194 WAIST_JOINT0:0.999751,-0.000000,0.016565,0.014946 WAIST_JOINT1:0.998060,0.061745,0.000000,-0.007953 END:
KINECT_DATA_Sensor  AnkleLeft:-0.057550,-0.697483,0.088739,0.708753 AnkleRight:0.092563,0.743502,0.067642,0.658833 ElbowLeft:-0.307950,0.707291,-0.143433,-0.619947 ElbowRight:0.017978,0.885849,0.157890,0.435912 FootLeft:0.000000,0.000000,0.000000,0.000000 FootRight:0.000000,0.000000,0.000000,0.000000 HandLeft:0.147903,0.147375,-0.367863,0.906136 HandRight:0.025415,0.762456,-0.084661,0.640974 HandTipLeft:0.000000,0.000000,0.000000,0.000000 HandTipRight:0.000000,0.000000,0.000000,0.000000 Head:0.000000,0.000000,0.000000,0.000000 HipLeft:0.098292,-0.674051,0.717876,-0.143696 HipRight:-0.145466,0.683461,0.689989,-0.188775 KneeLeft:0.036097,-0.682466,0.049895,0.728319 KneeRight:-0.005858,0.730059,0.024431,0.682923 Neck:-0.016793,0.003239,0.996854,-0.077395 ShoulderLeft:0.012635,0.777266,-0.626698,0.054298 ShoulderRight:-0.008916,0.790830,0.606892,-0.078688 SpineBase:-0.033096,0.006285,0.998745,-0.037054 SpineMid:-0.024854,0.005979,0.998984,-0.037104 SpineShoulder:-0.016632,0.004522,0.998259,-0.056413 ThumbLeft:0.000000,0.000000,0.000000,0.000000 ThumbRight:0.000000,0.000000,0.000000,0.000000 WristLeft:0.200665,0.167596,-0.362188,0.894687 WristRight:-0.063583,0.761404,-0.049425,0.643256 END:
KINECT_DATA POSITION:11.427884,-1.987170,-10.358583 HEAD_JOINT1:0.979983,0.194105,-0.000000,0.044235 LARM_JOINT2:0.882406,0.000000,-0.219996,-0.415886 LARM_JOINT3:0.980136,0.000000,-0.196682,0.025481 LLEG_JOINT2:0.998918,0.008213,0.000000,0.045765 LLEG_JOINT4:0.995265,0.091824,0.000000,-0.031864 RARM_JOINT2:0.796083,0.000000,-0.044094,0.603579 RARM_JOINT3:0.976658,0.000000,0.159868,0.143464 RLEG_JOINT2:0.999238,0.014416,0.000000,-0.036283 RLEG_JOINT4:0.993946,0.102243,0.000000,0.040233 WAIST:0.999342,-0.000000,0.033048,0.014932 WAIST_JOINT0:0.999729,-0.000000,0.017575,0.015289 WAIST_JOINT1:0.998073,0.061599,0.000000,-0.007530 END:
KINECT_DATA_Sensor  AnkleLeft:-0.055669,-0.697163,0.087081,0.709424 AnkleRight:0.093570,0.727271,0.071223,0.676202 ElbowLeft:-0.310188,0.700481,-0.141551,-0.626955 ElbowRight:0.017518,0.885340,0.158534,0.436729 FootLeft:0.000000,0.000000,0.000000,0.000000 FootRight:0.000000,0.000000,0.000000,0.000000 HandLeft:0.106486,0.233358,-0.402943,0.878545 HandRight:0.027735,0.762522,-0.084130,0.640870 HandTipLeft:0.000000,0.000000,0.000000,0.000000 HandTipRight:0.000000,0.000000,0.000000,0.000000 Head:0.000000,0.000000,0.000000,0.000000 HipLeft:0.097763,-0.674355,0.717755,-0.143234 HipRight:-0.145985,0.683241,0.690018,-0.189067 KneeLeft:0.035823,-0.681930,0.049566,0.728856 KneeRight:-0.006065,0.730573,0.024770,0.682358 Neck:-0.017621,0.003376,0.996851,-0.077243 ShoulderLeft:0.013173,0.777174,-0.626868,0.053514 ShoulderRight:-0.009457,0.790520,0.607216,-0.079229 SpineBase:-0.033850,0.006397,0.998722,-0.036985 SpineMid:-0.025645,0.006093,0.998966,-0.037036 SpineShoulder:-0.017461,0.004642,0.998252,-0.056280 ThumbLeft:0.000000,0.000000,0.000000,0.000000 ThumbRight:0.000000,0.000000,0.000000,0.000000 WristLeft:0.163566,0.259113,-0.386938,0.869704 WristRight:-0.064435,0.761442,-0.048923,0.643164 END:
KINECT_DATA POSITION:11.440487,-1.994312,-10.348547 HEAD_JOINT1:0.980184,0.193169,-0.000000,0.043882 LARM_JOINT2:0.882784,0.000000,-0.220399,-0.414870 LARM_JOINT3:0.979257,0.000000,-0.200853,0.026698 LLEG_JOINT2:0.998905,0.008853,0.000000,0.045931 LLEG_JOINT4:0.995591,0.089152,0.000000,-0.029146 RARM_JOINT2:0.796202,0.000000,-0.043860,0.603440 RARM_JOINT3:0.977719,0.000000,0.157380,0.138915 RLEG_JOINT2:0.999226,0.014320,0.000000,-0.036626 RLEG_JOINT4:0.994267,0.098933,0.000000,0.040576 WAIST:0.999360,-0.000000,0.032524,0.014907 WAIST_JOINT0:0.999728,-0.000000,0.017591,0.015323 WAIST_JOINT1:0.998071,0.061627,0.000000,-0.007442 END:
KINECT_DATA_Sensor  AnkleLeft:-0.052214,-0.697767,0.087927,0.708988 AnkleRight:0.093258,0.747047,0.065986,0.654881 ElbowLeft:-0.311745,0.698406,-0.140655,-0.628698 ElbowRight:0.017343,0.884937,0.158570,0.437540 FootLeft:0.000000,0.000000,0.000000,0.000000 FootRight:0.000000,0.000000,0.000000,0.000000 HandLeft:0.140304,0.152232,-0.392262,0.896253 HandRight:0.018409,0.782958,-0.060862,0.618816 HandTipLeft:0.000000,0.000000,0.000000,0.000000 HandTipRight:0.000000,0.000000,0.000000,0.000000 Head:0.000000,0.000000,0.000000,0.000000 HipLeft:0.098019,-0.674279,0.717726,-0.143558 HipRight:-0.145630,0.683301,0.690134,-0.188696 KneeLeft:0.035471,-0.682329,0.050095,0.728464 KneeRight:-0.006381,0.730209,0.024961,0.682738 Neck:-0.017577,0.003533,0.996847,-0.077300 ShoulderLeft:0.013542,0.777019,-0.627070,0.053308 ShoulderRight:-0.009039,0.790239,0.607620,-0.078987 SpineBase:-0.033323,0.006496,0.998738,-0.037017 SpineMid:-0.025356,0.006200,0.998972,-0.037068 SpineShoulder:-0.017418,0.004754,0.998250,-0.056308 ThumbLeft:0.000000,0.000000,0.000000,0.000000 ThumbRight:0.000000,0.000000,0.000000,0.000000 WristLeft:0.196504,0.178049,-0.377090,0.887405 WristRight:-0.066220,0.779756,-0.046914,0.620802 END:
KINECT_DATA POSITION:11.441946,-1.996053,-10.357690 HEAD_JOINT1:0.980171,0.193176,-0.000000,0.044138 LARM_JOINT2:0.882989,0.000000,-0.223161,-0.412952 LARM_JOINT3:0.979592,0.000000,-0.199453,0.024870 LLEG_JOINT2:0.998920,0.008393,0.000000,0.045691 LLEG_JOINT4:0.995452,0.090385,0.000000,-0.030098 RARM_JOINT2:0.796178,0.000000,-0.043875,0.603470 RARM_JOINT3:0.977946,0.000000,0.155557,0.139366 RLEG_JOINT2:0.999211,0.015018,0.000000,-0.036759 RLEG_JOINT4:0.994247,0.098389,0.000000,0.042328 WAIST:0.999367,-0.000000,0.032208,0.015100 WAIST_JOINT0:0.999739,-0.000000,0.017054,0.015178 WAIST_JOINT1:0.998072,0.061588,0.000000,-0.007691 END:
KINECT_DATA_Sensor  AnkleLeft:-0.053423,-0.697862,0.087703,0.708832 AnkleRight:0.094112,0.741261,0.065570,0.661344 ElbowLeft:-0.314002,0.700167,-0.140181,-0.625714 ElbowRight:0.017295,0.884627,0.158570,0.438167 FootLeft:0.000000,0.000000,0.000000,0.000000 FootRight:0.000000,0.000000,0.000000,0.000000 HandLeft:0.098095,0.243564,-0.401098,0.877596 HandRight:0.029536,0.756380,-0.056548,0.651014 HandTipLeft:0.000000,0.000000,0.000000,0.000000 HandTipRight:0.000000,0.000000,0.000000,0.000000 Head:0.000000,0.000000,0.000000,0.000000 HipLeft:0.098132,-0.674131,0.717822,-0.143700 HipRight:-0.145307,0.683486,0.690063,-0.188537 KneeLeft:0.035793,-0.682536,0.049733,0.728279 KneeRight:-0.005852,0.730015,0.025430,0.682933 Neck:-0.016977,0.003450,0.996864,-0.077214 ShoulderLeft:0.013253,0.777194,-0.626831,0.053634 ShoulderRight:-0.008551,0.790124,0.607850,-0.078418 SpineBase:-0.033024,0.006478,0.998745,-0.037081 SpineMid:-0.024906,0.006176,0.998981,-0.037132 SpineShoulder:-0.016815,0.004711,0.998262,-0.056278 ThumbLeft:0.000000,0.000000,0.000000,0.000000 ThumbRight:0.000000,0.000000,0.000000,0.000000 WristLeft:0.156222,0.265907,-0.396994,0.864456 WristRight:-0.064352,0.752569,-0.049465,0.653492 END:
KINECT_DATA POSITION:11.449875,-1.991361,-10.368991 HEAD_JOINT1:0.980219,0.192881,-0.000000,0.044360 LARM_JOINT2:0.883307,0.000000,-0.224182,-0.411718 LARM_JOINT3:0.980859,0.000000,-0.192899,0.026559 LLEG_JOINT2:0.998921,0.008726,0.000000,0.045605 LLEG_JOINT4:0.995604,0.089146,0.000000,-0.028742 RARM_JOINT2:0.796237,0.000000,-0.044556,0.603342 RARM_JOINT3:0.978020,0.000000,0.153688,0.140918 RLEG_JOINT2:0.999206,0.014818,0.000000,-0.036980 RLEG_JOINT4:0.994431,0.096785,0.000000,0.041698 WAIST:0.999378,-0.000000,0.031891,0.015033 WAIST_JOINT0:0.999759,-0.000000,0.016108,0.014906 WAIST_JOINT1:0.998093,0.061267,0.000000,-0.007586 END:
KINECT_DATA_Sensor  AnkleLeft:-0.051977,-0.698640,0.088001,0.708136 AnkleRight:0.092346,0.742539,0.064730,0.660241 ElbowLeft:-0.315323,0.701707,-0.140637,-0.623217 ElbowRight:0.017314,0.883875,0.158765,0.439612 FootLeft:0.000000,0.000000,0.000000,0.000000 FootRight:0.000000,0.000000,0.000000,0.000000 HandLeft:0.146278,0.180618,-0.383558,0.893791 HandRight:0.040558,0.760176,-0.056773,0.645960 HandTipLeft:0.000000,0.000000,0.000000,0.000000 HandTipRight:0.000000,0.000000,0.000000,0.000000 Head:0.000000,0.000000,0.000000,0.000000 HipLeft:0.098351,-0.674153,0.717758,-0.143764 HipRight:-0.145184,0.683523,0.690145,-0.188196 KneeLeft:0.035456,-0.682789,0.049844,0.728051 KneeRight:-0.006186,0.729788,0.025487,0.683170 Neck:-0.015967,0.003496,0.996909,-0.076843 ShoulderLeft:0.012832,0.777191,-0.626821,0.053898 ShoulderRight:-0.007677,0.789766,0.608486,-0.077173 SpineBase:-0.032698,0.006531,0.998761,-0.036940 SpineMid:-0.024239,0.006218,0.999002,-0.036994 SpineShoulder:-0.015805,0.004737,0.998295,-0.055988 ThumbLeft:0.000000,0.000000,0.000000,0.000000 ThumbRight:0.000000,0.000000,0.000000,0.000000 WristLeft:0.187312,0.195502,-0.383683,0.882882 WristRight:-0.065053,0.756472,-0.048519,0.648971 END:
KINECT_DATA POSITION:11.451805,-1.983359,-10.420394 HEAD_JOINT1:0.979984,0.193690,-0.000000,0.045991 LARM_JOINT2:0.883935,0.000000,-0.223691,-0.410635 LARM_JOINT3:0.982582,0.000000,-0.183352,0.030233 LLEG_JOINT2:0.998915,0.008370,0.000000,0.045815 LLEG_JOINT4:0.995182,0.092336,0.000000,-0.032966 RARM_JOINT2:0.795862,0.000000,-0.044307,0.603854 RARM_JOINT3:0.977899,0.000000,0.153412,0.142051 RLEG_JOINT2:0.999219,0.014275,0.000000,-0.036850 RLEG_JOINT4:0.994304,0.098116,0.000000,0.041635 WAIST:0.999409,-0.000000,0.031050,0.014727 WAIST_JOINT0:0.999781,-0.000000,0.015070,0.014487 WAIST_JOINT1:0.998113,0.060924,0.000000,-0.007716 END:
KINECT_DATA_Sensor  AnkleLeft:-0.056835,-0.698376,0.086729,0.708180 AnkleRight:0.092999,0.743825,0.065119,0.658661 ElbowLeft:-0.317332,0.696398,-0.138206,-0.628672 ElbowRight:0.016937,0.883101,0.158341,0.441332 FootLeft:0.000000,0.000000,0.000000,0.000000 FootRight:0.000000,0.000000,0.000000,0.000000 HandLeft:0.111195,0.314582,-0.390161,0.858166 HandRight:0.045790,0.773804,-0.061475,0.628770 HandTipLeft:0.000000,0.000000,0.000000,0.000000 HandTipRight:0.000000,0.000000,0.000000,0.000000 Head:0.000000,0.000000,0.000000,0.000000 HipLeft:0.098990,-0.674292,0.717489,-0.144015 HipRight:-0.144697,0.683468,0.690473,-0.187569 KneeLeft:0.035676,-0.683400,0.049514,0.727489 KneeRight:-0.006649,0.729197,0.025234,0.683807 Neck:-0.014793,0.003080,0.996958,-0.076457 ShoulderLeft:0.011593,0.777466,-0.626430,0.054747 ShoulderRight:-0.007402,0.789350,0.609144,-0.076259 SpineBase:-0.031843,0.006216,0.998798,-0.036740 SpineMid:-0.023229,0.005898,0.999036,-0.036793 SpineShoulder:-0.014634,0.004361,0.998333,-0.055657 ThumbLeft:0.000000,0.000000,0.000000,0.000000 ThumbRight:0.000000,0.000000,0.000000,0.000000 WristLeft:0.135823,0.318203,-0.406378,0.845669 WristRight:-0.066863,0.770636,-0.047419,0.631982 END:
KINECT_DATA POSITION:11.464804,-1.986821,-10.451353 HEAD_JOINT1:0.979834,0.194446,-0.000000,0.046009 LARM_JOINT2:0.884775,0.000000,-0.222477,-0.409484 LARM_JOINT3:0.983417,0.000000,-0.178801,0.030356 LLEG_JOINT2:0.998931,0.007608,0.000000,0.045605 LLEG_JOINT4:0.994953,0.095219,0.000000,-0.031664 RARM_JOINT2:0.795624,0.000000,-0.044620,0.604145 RARM_JOINT3:0.977807,0.000000,0.153659,0.142419 RLEG_JOINT2:0.999222,0.014158,0.000000,-0.036822 RLEG_JOINT4:0.994336,0.096959,0.000000,0.043522 WAIST:0.999404,-0.000000,0.031188,0.014806 WAIST_JOINT0:0.999793,-0.000000,0.014514,0.014244 WAIST_JOINT1:0.998126,0.060688,0.000000,-0.007791 END:
KINECT_DATA_Sensor  AnkleLeft:-0.057742,-0.698625,0.088939,0.707587 AnkleRight:0.092614,0.734804,0.064111,0.668862 ElbowLeft:0.318675,-0.692613,0.138266,0.632151 ElbowRight:0.017148,0.883269,0.158007,0.441106 FootLeft:0.000000,0.000000,0.000000,0.000000 FootRight:0.000000,0.000000,0.000000,0.000000 HandLeft:0.189790,0.139219,-0.356236,0.904264 HandRight:0.045135,0.776545,-0.064495,0.625125 HandTipLeft:0.000000,0.000000,0.000000,0.000000 HandTipRight:0.000000,0.000000,0.000000,0.000000 Head:0.000000,0.000000,0.000000,0.000000 HipLeft:0.098855,-0.674260,0.717571,-0.143852 HipRight:-0.144749,0.683524,0.690419,-0.187520 KneeLeft:0.036140,-0.683283,0.048898,0.727618 KneeRight:-0.006658,0.729290,0.025073,0.683712 Neck:-0.014211,0.003029,0.996990,-0.076159 ShoulderLeft:0.010980,0.777645,-0.626189,0.055092 ShoulderRight:-0.007268,0.789281,0.609300,-0.075730 SpineBase:-0.031982,0.006315,0.998795,-0.036688 SpineMid:-0.023007,0.005985,0.999042,-0.036743 SpineShoulder:-0.014051,0.004328,0.998354,-0.055441 ThumbLeft:0.000000,0.000000,0.000000,0.000000 ThumbRight:0.000000,0.000000,0.000000,0.000000 WristLeft:0.218855,0.145726,-0.367775,0.891969 WristRight:-0.066716,0.773706,-0.047237,0.628249 END:
KINECT_DATA POSITION:11.461457,-1.996136,-10.463095 HEAD_JOINT1:0.979862,0.194483,-0.000000,0.045237 LARM_JOINT2:0.885812,0.000000,-0.221283,-0.407885 LARM_JOINT3:0.983849,0.000000,-0.176325,0.030816 LLEG_JOINT2:0.998908,0.007036,0.000000,0.046198 LLEG_JOINT4:0.994971,0.094850,0.000000,-0.032191 RARM_JOINT2:0.795614,0.000000,-0.044149,0.604193 RARM_JOINT3:0.977366,0.000000,0.155472,0.143475 RLEG_JOINT2:0.999246,0.013766,0.000000,-0.036290 RLEG_JOINT4:0.993951,0.101152,0.000000,0.042765 WAIST:0.999407,-0.000000,0.031198,0.014584 WAIST_JOINT0:0.999792,-0.000000,0.014649,0.014221 WAIST_JOINT1:0.998126,0.060719,0.000000,-0.007615 END:
KINECT_DATA_Sensor  AnkleLeft:-0.057138,-0.698631,0.088211,0.707721 AnkleRight:0.094355,0.728508,0.067982,0.675094 ElbowLeft:0.320410,-0.687848,0.138134,0.636492 ElbowRight:0.017220,0.884348,0.157816,0.439005 FootLeft:0.000000,0.000000,0.000000,0.000000 FootRight:0.000000,0.000000,0.000000,0.000000 HandLeft:0.146524,0.246513,-0.376225,0.881032 HandRight:0.041694,0.751667,-0.071483,0.654330 HandTipLeft:0.000000,0.000000,0.000000,0.000000 HandTipRight:0.000000,0.000000,0.000000,0.000000 Head:0.000000,0.000000,0.000000,0.000000 HipLeft:0.098815,-0.674445,0.717420,-0.143766 HipRight:-0.144634,0.683418,0.690570,-0.187441 KneeLeft:0.036807,-0.683250,0.048781,0.727623 KneeRight:-0.006697,0.729288,0.024578,0.683733 Neck:-0.014343,0.002995,0.996984,-0.076206 ShoulderLeft:0.011324,0.777646,-0.626205,0.054832 ShoulderRight:-0.007089,0.789221,0.609386,-0.075687 SpineBase:-0.031982,0.006144,0.998797,-0.036674 SpineMid:-0.023078,0.005817,0.999042,-0.036728 SpineShoulder:-0.014184,0.004287,0.998350,-0.055472 ThumbLeft:0.000000,0.000000,0.000000,0.000000 ThumbRight:0.000000,0.000000,0.000000,0.000000 WristLeft:0.178731,0.253241,-0.389456,0.867323 WristRight:-0.064157,0.749131,-0.050236,0.657391 END:
KINECT_DATA POSITION:11.474952,-1.997599,-10.461712 HEAD_JOINT1:0.979736,0.195200,-0.000000,0.044871 LARM_JOINT2:0.881873,0.000000,-0.222378,-0.415751 LARM_JOINT3:0.984444,0.000000,-0.170856,0.040964 LLEG_JOINT2:0.998888,0.007304,0.000000,0.046584 LLEG_JOINT4:0.995020,0.094379,0.000000,-0.032062 RARM_JOINT2:0.799495,0.000000,-0.042844,0.599143 RARM_JOINT3:0.976146,0.000000,0.156645,0.150336 RLEG_JOINT2:0.999275,0.013372,0.000000,-0.035651 RLEG_JOINT4:0.994139,0.099841,0.000000,0.041473 WAIST:0.999411,-0.000000,0.031296,0.014060 WAIST_JOINT0:0.999849,-0.000000,0.012570,0.011970 WAIST_JOINT1:0.998144,0.060485,0.000000,-0.007125 END:
KINECT_DATA_Sensor  AnkleLeft:-0.057153,-0.699751,0.087985,0.706640 AnkleRight:0.093281,0.738272,0.066273,0.664726 ElbowLeft:0.318163,-0.671151,0.123137,0.658153 ElbowRight:0.015348,0.890122,0.162557,0.425468 FootLeft:0.000000,0.000000,0.000000,0.000000 FootRight:0.000000,0.000000,0.000000,0.000000 HandLeft:0.210798,0.100096,-0.350120,0.907172 HandRight:0.035468,0.757873,-0.081931,0.646264 HandTipLeft:0.000000,0.000000,0.000000,0.000000 HandTipRight:0.000000,0.000000,0.000000,0.000000 Head:0.000000,0.000000,0.000000,0.000000 HipLeft:0.098792,-0.674844,0.717064,-0.143684 HipRight:-0.144901,0.683122,0.690836,-0.187332 KneeLeft:0.036500,-0.683224,0.048881,0.727656 KneeRight:-0.006875,0.729320,0.024222,0.683709 Neck:-0.013648,0.002897,0.997015,-0.075940 ShoulderLeft:0.010030,0.776511,-0.627534,0.055949 ShoulderRight:-0.007488,0.789964,0.608448,-0.075445 SpineBase:-0.032036,0.006195,0.998800,-0.036515 SpineMid:-0.022757,0.005855,0.999055,-0.036571 SpineShoulder:-0.013487,0.004222,0.998371,-0.055272 ThumbLeft:0.000000,0.000000,0.000000,0.000000 ThumbRight:0.000000,0.000000,0.000000,0.000000 WristLeft:0.242939,0.110867,-0.351460,0.897310 WristRight:-0.064351,0.756563,-0.049647,0.648850 END:
KINECT_DATA POSITION:11.473541,-2.006822,-10.468208 HEAD_JOINT1:0.979649,0.195814,-0.000000,0.044104 LARM_JOINT2:0.886282,0.000000,-0.218029,-0.408617 LARM_JOINT3:0.985838,0.000000,-0.164174,0.034213 LLEG_JOINT2:0.998881,0.007431,0.000000,0.046715 LLEG_JOINT4:0.995206,0.092808,0.000000,-0.030862 RARM_JOINT2:0.798295,0.000000,-0.043950,0.600661 RARM_JOINT3:0.976887,0.000000,0.154868,0.147338 RLEG_JOINT2:0.999293,0.012896,0.000000,-0.035317 RLEG_JOINT4:0.994433,0.097921,0.000000,0.038905 WAIST:0.999409,-0.000000,0.031342,0.014097 WAIST_JOINT0:0.999794,-0.000000,0.015213,0.013426 WAIST_JOINT1:0.998137,0.060597,0.000000,-0.007165 END:
KINECT_DATA_Sensor  AnkleLeft:-0.055015,-0.698652,0.088156,0.707875 AnkleRight:0.089568,0.733970,0.066746,0.669934 ElbowLeft:0.320599,-0.678465,0.135946,0.646854 ElbowRight:0.016614,0.888853,0.161377,0.428512 FootLeft:0.000000,0.000000,0.000000,0.000000 FootRight:0.000000,0.000000,0.000000,0.000000 HandLeft:0.221775,0.104306,-0.335634,0.909553 HandRight:0.036388,0.752002,-0.064531,0.654984 HandTipLeft:0.000000,0.000000,0.000000,0.000000 HandTipRight:0.000000,0.000000,0.000000,0.000000 Head:0.000000,0.000000,0.000000,0.000000 HipLeft:0.098793,-0.674815,0.717092,-0.143680 HipRight:-0.144911,0.683117,0.690815,-0.187422 KneeLeft:0.036521,-0.683183,0.049091,0.727679 KneeRight:-0.006934,0.729351,0.023619,0.683697 Neck:-0.015546,0.003045,0.996975,-0.076094 ShoulderLeft:0.011313,0.777269,-0.626708,0.054414 ShoulderRight:-0.008654,0.789876,0.608353,-0.076993 SpineBase:-0.032088,0.006128,0.998798,-0.036545 SpineMid:-0.023730,0.005823,0.999031,-0.036595 SpineShoulder:-0.015391,0.004307,0.998339,-0.055358 ThumbLeft:0.000000,0.000000,0.000000,0.000000 ThumbRight:0.000000,0.000000,0.000000,0.000000 WristLeft:0.249178,0.110612,-0.344214,0.898439 WristRight:-0.063211,0.748660,-0.051521,0.657919 END:
KINECT_DATA POSITION:11.485568,-2.011582,-10.456824 HEAD_JOINT1:0.979576,0.196375,-0.000000,0.043215 LARM_JOINT2:0.887661,0.000000,-0.214809,-0.407328 LARM_JOINT3:0.984874,0.000000,-0.170400,0.031414 LLEG_JOINT2:0.998890,0.007561,0.000000,0.046499 LLEG_JOINT4:0.995286,0.091643,0.000000,-0.031755 RARM_JOINT2:0.797685,0.000000,-0.044568,0.601425 RARM_JOINT3:0.976285,0.000000,0.159478,0.146406 RLEG_JOINT2:0.999277,0.013298,0.000000,-0.035606 RLEG_JOINT4:0.994248,0.100254,0.000000,0.037675 WAIST:0.999408,-0.000000,0.031331,0.014237 WAIST_JOINT0:0.999763,-0.000000,0.016513,0.014196 WAIST_JOINT1:0.998127,0.060767,0.000000,-0.007053 END:
KINECT_DATA_Sensor  AnkleLeft:-0.054765,-0.697919,0.086816,0.708783 AnkleRight:0.089095,0.720421,0.071421,0.684072 ElbowLeft:0.319227,-0.683720,0.142749,0.640503 ElbowRight:0.017338,0.887728,0.160659,0.431077 FootLeft:0.000000,0.000000,0.000000,0.000000 FootRight:0.000000,0.000000,0.000000,0.000000 HandLeft:0.212038,0.111347,-0.347108,0.906729 HandRight:0.021827,0.772511,-0.077995,0.629816 HandTipLeft:0.000000,0.000000,0.000000,0.000000 HandTipRight:0.000000,0.000000,0.000000,0.000000 Head:0.000000,0.000000,0.000000,0.000000 HipLeft:0.098857,-0.674708,0.717171,-0.143743 HipRight:-0.145033,0.683212,0.690697,-0.187416 KneeLeft:0.036378,-0.683199,0.049121,0.727670 KneeRight:-0.006769,0.729349,0.024011,0.683687 Neck:-0.016617,0.003515,0.996936,-0.076350 ShoulderLeft:0.011931,0.777047,-0.627021,0.053846 ShoulderRight:-0.009452,0.789734,0.608384,-0.078105 SpineBase:-0.032079,0.006313,0.998799,-0.036499 SpineMid:-0.024262,0.006027,0.999019,-0.036547 SpineShoulder:-0.016474,0.004566,0.998312,-0.055504 ThumbLeft:0.000000,0.000000,0.000000,0.000000 ThumbRight:0.000000,0.000000,0.000000,0.000000 WristLeft:0.244216,0.122555,-0.346318,0.897442 WristRight:-0.064808,0.770576,-0.049593,0.632102 END:
KINECT_DATA POSITION:11.490061,-2.011864,-10.438097 HEAD_JOINT1:0.979929,0.194715,-0.000000,0.042731 LARM_JOINT2:0.889986,0.000000,-0.196562,-0.411447 LARM_JOINT3:0.968979,0.000000,-0.247118,0.003387 LLEG_JOINT2:0.998905,0.007603,0.000000,0.046168 LLEG_JOINT4:0.995313,0.091337,0.000000,-0.031787 RARM_JOINT2:0.797317,0.000000,-0.043881,0.601964 RARM_JOINT3:0.976985,0.000000,0.157797,0.143528 RLEG_JOINT2:0.999257,0.012951,0.000000,-0.036293 RLEG_JOINT4:0.994250,0.099406,0.000000,0.039818 WAIST:0.999413,-0.000000,0.031007,0.014537 WAIST_JOINT0:0.999743,-0.000000,0.017196,0.014761 WAIST_JOINT1:0.998022,0.062456,0.000000,-0.007206 END:
KINECT_DATA_Sensor  AnkleLeft:0.059611,0.738922,-0.083225,-0.665968 AnkleRight:0.092195,0.746136,0.065808,0.656088 ElbowLeft:-0.303118,0.701304,-0.165621,-0.623588 ElbowRight:0.018242,0.886404,0.160593,0.433779 FootLeft:0.000000,0.000000,0.000000,0.000000 FootRight:0.000000,0.000000,0.000000,0.000000 HandLeft:0.011844,0.229904,-0.411444,0.881883 HandRight:0.025829,0.758083,-0.062635,0.648629 HandTipLeft:0.000000,0.000000,0.000000,0.000000 HandTipRight:0.000000,0.000000,0.000000,0.000000 Head:0.000000,0.000000,0.000000,0.000000 HipLeft:0.098493,-0.674293,0.717449,-0.144552 HipRight:-0.144253,0.683238,0.690703,-0.187901 KneeLeft:0.036346,-0.683412,0.049110,0.727472 KneeRight:-0.007283,0.729142,0.024022,0.683902 Neck:-0.017196,0.003657,0.996774,-0.078308 ShoulderLeft:0.014493,0.776421,-0.627750,0.053761 ShoulderRight:-0.007622,0.789157,0.609053,-0.078914 SpineBase:-0.031796,0.006335,0.998772,-0.037463 SpineMid:-0.024404,0.006058,0.998980,-0.037509 SpineShoulder:-0.017050,0.004704,0.998212,-0.057099 ThumbLeft:0.000000,0.000000,0.000000,0.000000 ThumbRight:0.000000,0.000000,0.000000,0.000000 WristLeft:0.148520,0.280839,-0.404842,0.857423 WristRight:-0.063488,0.754656,-0.050756,0.651067 END:
KINECT_DATA POSITION:11.539517,-1.945823,-10.278786 HEAD_JOINT1:0.979558,0.193229,-0.000000,0.055933 LARM_JOINT2:0.890160,0.000000,-0.126491,-0.437738 LARM_JOINT3:0.941864,0.000000,-0.272170,-0.197020 LLEG_JOINT2:0.998941,0.010180,0.000000,0.044879 LLEG_JOINT4:0.995402,0.089891,0.000000,-0.033070 RARM_JOINT2:0.794074,0.000000,-0.040516,0.606469 RARM_JOINT3:0.977382,0.000000,0.159937,0.138362 RLEG_JOINT2:0.999183,0.012493,0.000000,-0.038444 RLEG_JOINT4:0.994279,0.099510,0.000000,0.038813 WAIST:0.999557,-0.000000,0.024922,0.016283 WAIST_JOINT0:0.999795,-0.000000,0.012224,0.016154 WAIST_JOINT1:0.997806,0.065555,0.000000,-0.009219 END:
KINECT_DATA_Sensor  AnkleLeft:-0.055212,-0.700312,0.087262,0.706329 AnkleRight:0.091517,0.743460,0.065859,0.659208 ElbowLeft:-0.175699,0.861603,-0.268926,-0.392999 ElbowRight:0.021034,0.881717,0.156348,0.444621 FootLeft:0.000000,0.000000,0.000000,0.000000 FootRight:0.000000,0.000000,0.000000,0.000000 HandLeft:-0.156707,0.756896,0.209958,-0.598723 HandRight:0.018286,0.742073,-0.069236,0.666483 HandTipLeft:0.000000,0.000000,0.000000,0.000000 HandTipRight:0.000000,0.000000,0.000000,0.000000 Head:0.000000,0.000000,0.000000,0.000000 HipLeft:0.101189,-0.671903,0.718149,-0.150232 HipRight:-0.139250,0.684602,0.690610,-0.187052 KneeLeft:0.035061,-0.687745,0.051025,0.723308 KneeRight:-0.007711,0.725087,0.024047,0.688194 Neck:-0.012414,0.003651,0.996593,-0.081451 ShoulderLeft:0.016322,0.775351,-0.628690,0.057557 ShoulderRight:0.000472,0.789758,0.608807,-0.075078 SpineBase:-0.025922,0.006314,0.998831,-0.040301 SpineMid:-0.019059,0.006037,0.998986,-0.040344 SpineShoulder:-0.012247,0.004779,0.998101,-0.060177 ThumbLeft:0.000000,0.000000,0.000000,0.000000 ThumbRight:0.000000,0.000000,0.000000,0.000000 WristLeft:-0.267678,0.739230,0.106077,-0.608799 WristRight:-0.061062,0.739361,-0.050909,0.668599 END:
KINECT_DATA POSITION:11.592643,-1.888172,-10.117352 HEAD_JOINT1:0.977958,0.196022,-0.000000,0.071932 LARM_JOINT2:0.875188,0.000000,-0.066543,-0.479185 LARM_JOINT3:0.936861,0.000000,-0.232552,-0.261173 LLEG_JOINT2:0.998948,0.013013,0.000000,0.043973 LLEG_JOINT4:0.995428,0.089452,0.000000,-0.033493 RARM_JOINT2:0.789991,0.000000,-0.037788,0.611953 RARM_JOINT3:0.979403,0.000000,0.151102,0.133929 RLEG_JOINT2:0.999077,0.012960,0.000000,-0.040957 RLEG_JOINT4:0.994438,0.098072,0.000000,0.038407 WAIST:0.999690,-0.000000,0.017508,0.017677 WAIST_JOINT0:0.999854,-0.000000,0.006113,0.015970 WAIST_JOINT1:0.997560,0.068729,0.000000,-0.012281 END:
KINECT_DATA_Sensor  AnkleLeft:0.056145,0.703667,-0.089507,-0.702630 AnkleRight:0.087959,0.714869,0.068792,0.690285 ElbowLeft:-0.086070,0.902813,-0.268516,-0.324684 ElbowRight:0.024846,0.877015,0.152403,0.454973 FootLeft:0.000000,0.000000,0.000000,0.000000 FootRight:0.000000,0.000000,0.000000,0.000000 HandLeft:-0.002147,-0.483611,-0.183476,0.855834 HandRight:0.040885,0.757053,-0.051680,0.650022 HandTipLeft:0.000000,0.000000,0.000000,0.000000 HandTipRight:0.000000,0.000000,0.000000,0.000000 Head:0.000000,0.000000,0.000000,0.000000 HipLeft:0.104912,-0.669602,0.718383,-0.156692 HipRight:-0.133274,0.685875,0.690836,-0.185903 KneeLeft:0.033672,-0.692972,0.053148,0.718213 KneeRight:-0.007939,0.720134,0.025287,0.693329 Neck:-0.007116,0.002334,0.996379,-0.084688 ShoulderLeft:0.019024,0.773232,-0.630889,0.061068 ShoulderRight:0.010215,0.789629,0.609488,-0.070037 SpineBase:-0.018758,0.005406,0.998871,-0.043314 SpineMid:-0.012811,0.005148,0.998965,-0.043346 SpineShoulder:-0.006940,0.003678,0.997962,-0.063329 ThumbLeft:0.000000,0.000000,0.000000,0.000000 ThumbRight:0.000000,0.000000,0.000000,0.000000 WristLeft:0.097923,-0.459613,-0.169422,0.866293 WristRight:-0.059314,0.753780,-0.045790,0.652840 END:
KINECT_DATA POSITION:11.596936,-1.859596,-10.023630 HEAD_JOINT1:0.976512,0.197768,-0.000000,0.085505 LARM_JOINT2:0.867909,0.000000,-0.012229,-0.496573 LARM_JOINT3:0.949239,0.000000,-0.164265,-0.268258 LLEG_JOINT2:0.998912,0.013930,0.000000,0.044500 LLEG_JOINT4:0.995638,0.087527,0.000000,-0.032306 RARM_JOINT2:0.783581,0.000000,-0.040717,0.619953 RARM_JOINT3:0.980262,0.000000,0.151188,0.127390 RLEG_JOINT2:0.999092,0.014350,0.000000,-0.040118 RLEG_JOINT4:0.994444,0.099166,0.000000,0.035321 WAIST:0.999777,-0.000000,0.011932,0.017413 WAIST_JOINT0:0.999819,0.000000,-0.001500,0.018954 WAIST_JOINT1:0.997264,0.072460,0.000000,-0.014651 END:
KINECT_DATA_Sensor  AnkleLeft:0.054060,0.708239,-0.090226,-0.698094 AnkleRight:0.091198,0.738461,0.068253,0.664606 ElbowLeft:-0.020970,0.918853,-0.270135,-0.286875 ElbowRight:0.031251,0.863882,0.149253,0.480058 FootLeft:0.000000,0.000000,0.000000,0.000000 FootRight:0.000000,0.000000,0.000000,0.000000 HandLeft:0.014224,0.734151,0.041280,-0.677581 HandRight:0.057755,0.759465,-0.055382,0.645609 HandTipLeft:0.000000,0.000000,0.000000,0.000000 HandTipRight:0.000000,0.000000,0.000000,0.000000 Head:0.000000,0.000000,0.000000,0.000000 HipLeft:0.107278,-0.668657,0.717733,-0.162012 HipRight:-0.128270,0.685849,0.691894,-0.185585 KneeLeft:0.033430,-0.696876,0.053857,0.714385 KneeRight:-0.006338,0.716388,0.025996,0.697189 Neck:0.000073,-0.000472,0.996064,-0.088633 ShoulderLeft:0.019661,0.769951,-0.634230,0.067398 ShoulderRight:0.020494,0.789574,0.609907,-0.064550 SpineBase:-0.013326,0.003979,0.998828,-0.046365 SpineMid:-0.006481,0.003661,0.998896,-0.046391 SpineShoulder:0.000259,0.001320,0.997751,-0.067015 ThumbLeft:0.000000,0.000000,0.000000,0.000000 ThumbRight:0.000000,0.000000,0.000000,0.000000 WristLeft:-0.081518,0.725034,0.084420,-0.678641 WristRight:-0.058403,0.757807,-0.039480,0.648660 END:
