EastLYD/RoboCupatHomeSim/InteractiveCleanUp/JapanOpen2016/Motion_Data/File49.dat
KINECT_DATA POSITION:-4.249737,-1.015578,-5.654669 HEAD_JOINT1:0.978233,0.164236,-0.000000,0.126831 LARM_JOINT2:0.837586,0.000000,-0.016607,-0.546052 LARM_JOINT3:0.957881,0.000000,-0.224093,-0.179572 LLEG_JOINT2:0.997604,0.027214,0.000000,0.063609 LLEG_JOINT4:0.995410,0.088893,0.000000,-0.035464 RARM_JOINT2:0.791864,0.000000,-0.061386,0.607604 RARM_JOINT3:0.967043,0.000000,0.214190,0.137659 RLEG_JOINT2:0.999069,0.012625,0.000000,-0.041252 RLEG_JOINT4:0.994864,0.096890,0.000000,0.029288 WAIST:0.999967,0.000000,-0.007961,-0.001478 WAIST_JOINT0:0.999144,0.000000,-0.041357,0.000329 WAIST_JOINT1:0.997027,0.075621,0.000000,-0.014816 END:
KINECT_DATA_Sensor  AnkleLeft:0.065858,0.727374,-0.098820,-0.675887 AnkleRight:0.068737,0.694777,0.086060,0.710742 ElbowLeft:-0.035836,0.880186,-0.195383,-0.431062 ElbowRight:0.026146,0.821730,0.188122,0.537295 FootLeft:0.000000,0.000000,0.000000,0.000000 FootRight:0.000000,0.000000,0.000000,0.000000 HandLeft:0.014569,-0.618124,-0.156573,0.770192 HandRight:0.046413,-0.325134,-0.054031,0.942982 HandTipLeft:0.000000,0.000000,0.000000,0.000000 HandTipRight:0.000000,0.000000,0.000000,0.000000 Head:0.000000,0.000000,0.000000,0.000000 HipLeft:0.117849,-0.679641,0.702969,-0.173306 HipRight:-0.110863,0.675517,0.706513,-0.179516 KneeLeft:-0.025130,0.711911,-0.063002,-0.698987 KneeRight:-0.020924,0.701789,0.039332,0.710991 Neck:0.039521,-0.020003,0.994831,-0.091375 ShoulderLeft:0.025612,0.778188,-0.622875,0.076122 ShoulderRight:0.077614,0.774437,0.627735,-0.013107 SpineBase:0.007397,-0.013416,0.998586,-0.050899 SpineMid:0.023298,-0.014225,0.998342,-0.050679 SpineShoulder:0.039473,-0.017443,0.996614,-0.069988 ThumbLeft:0.000000,0.000000,0.000000,0.000000 ThumbRight:0.000000,0.000000,0.000000,0.000000 WristLeft:0.108400,-0.596897,-0.121327,0.785648 WristRight:0.003771,-0.325531,-0.116724,0.938291 END:
KINECT_DATA POSITION:-4.235040,-1.020964,-5.668473 HEAD_JOINT1:0.978068,0.164515,-0.000000,0.127739 LARM_JOINT2:0.837610,0.000000,-0.016041,-0.546033 LARM_JOINT3:0.958886,0.000000,-0.220877,-0.178187 LLEG_JOINT2:0.997642,0.026220,0.000000,0.063420 LLEG_JOINT4:0.995090,0.092790,0.000000,-0.034448 RARM_JOINT2:0.791163,0.000000,-0.063304,0.608320 RARM_JOINT3:0.966489,0.000000,0.216941,0.137244 RLEG_JOINT2:0.999071,0.012246,0.000000,-0.041325 RLEG_JOINT4:0.994673,0.099296,0.000000,0.027668 WAIST:0.999964,0.000000,-0.008358,-0.001351 WAIST_JOINT0:0.999144,0.000000,-0.041342,-0.001196 WAIST_JOINT1:0.997028,0.075554,0.000000,-0.015055 END:
KINECT_DATA_Sensor  AnkleLeft:0.068455,0.735052,-0.100723,-0.666984 AnkleRight:0.069190,0.694783,0.088514,0.710390 ElbowLeft:-0.035234,0.880947,-0.195555,-0.429475 ElbowRight:0.028066,0.821723,0.188013,0.537248 FootLeft:0.000000,0.000000,0.000000,0.000000 FootRight:0.000000,0.000000,0.000000,0.000000 HandLeft:0.011627,-0.595470,-0.140854,0.790848 HandRight:0.049338,-0.367625,-0.063996,0.926457 HandTipLeft:0.000000,0.000000,0.000000,0.000000 HandTipRight:0.000000,0.000000,0.000000,0.000000 Head:0.000000,0.000000,0.000000,0.000000 HipLeft:0.118000,-0.679474,0.703068,-0.173454 HipRight:-0.110496,0.675624,0.706537,-0.179242 KneeLeft:-0.025814,0.712133,-0.062237,-0.698803 KneeRight:-0.021141,0.701520,0.039036,0.711266 Neck:0.039735,-0.020096,0.994830,-0.091275 ShoulderLeft:0.025278,0.778303,-0.622708,0.076424 ShoulderRight:0.077490,0.772781,0.629784,-0.013289 SpineBase:0.007777,-0.013425,0.998581,-0.050942 SpineMid:0.023602,-0.014231,0.998332,-0.050723 SpineShoulder:0.039689,-0.017503,0.996607,-0.069944 ThumbLeft:0.000000,0.000000,0.000000,0.000000 ThumbRight:0.000000,0.000000,0.000000,0.000000 WristLeft:0.103994,-0.576171,-0.124628,0.801050 WristRight:0.009605,-0.368606,-0.114662,0.922437 END:
KINECT_DATA POSITION:-4.254843,-1.071457,-5.634022 HEAD_JOINT1:0.977653,0.164205,-0.000000,0.131266 LARM_JOINT2:0.839598,0.000000,-0.036956,-0.541950 LARM_JOINT3:0.933247,0.000000,-0.282415,-0.222018 LLEG_JOINT2:0.997644,0.025469,0.000000,0.063701 LLEG_JOINT4:0.995198,0.092291,0.000000,-0.032621 RARM_JOINT2:0.789948,0.000000,-0.062853,0.609944 RARM_JOINT3:0.967577,0.000000,0.212548,0.136445 RLEG_JOINT2:0.999090,0.013040,0.000000,-0.040599 RLEG_JOINT4:0.994728,0.098782,0.000000,0.027535 WAIST:0.999957,0.000000,-0.009099,-0.001671 WAIST_JOINT0:0.998899,0.000000,-0.046907,0.000228 WAIST_JOINT1:0.997091,0.074718,0.000000,-0.015030 END:
KINECT_DATA_Sensor  AnkleLeft:0.069460,0.756670,-0.099067,-0.642504 AnkleRight:0.069313,0.691639,0.088717,0.713415 ElbowLeft:-0.046245,0.897478,-0.191637,-0.394550 ElbowRight:0.027320,0.819388,0.186020,0.541529 FootLeft:0.000000,0.000000,0.000000,0.000000 FootRight:0.000000,0.000000,0.000000,0.000000 HandLeft:-0.129174,0.798326,0.279379,-0.517627 HandRight:0.045452,-0.325463,-0.046243,0.943329 HandTipLeft:0.000000,0.000000,0.000000,0.000000 HandTipRight:0.000000,0.000000,0.000000,0.000000 Head:0.000000,0.000000,0.000000,0.000000 HipLeft:0.119081,-0.679725,0.702684,-0.173286 HipRight:-0.110561,0.675625,0.706750,-0.178358 KneeLeft:-0.026365,0.712643,-0.061652,-0.698315 KneeRight:-0.020264,0.700984,0.039315,0.711804 Neck:0.044813,-0.020793,0.994713,-0.090026 ShoulderLeft:0.023152,0.779127,-0.621516,0.078377 ShoulderRight:0.081911,0.774935,0.626672,-0.006977 SpineBase:0.008539,-0.013790,0.998613,-0.050086 SpineMid:0.026506,-0.014689,0.998298,-0.049830 SpineShoulder:0.044788,-0.017995,0.996439,-0.069138 ThumbLeft:0.000000,0.000000,0.000000,0.000000 ThumbRight:0.000000,0.000000,0.000000,0.000000 WristLeft:-0.145448,0.816952,0.144408,-0.539056 WristRight:0.004230,-0.325439,-0.116704,0.938324 END:
KINECT_DATA POSITION:-5.043521,-1.192734,-5.273235 HEAD_JOINT1:0.977710,0.151331,-0.000000,0.145542 LARM_JOINT2:0.841850,0.000000,-0.188338,-0.505784 LARM_JOINT3:0.935109,0.000000,-0.309736,-0.172146 LLEG_JOINT2:0.996060,0.032928,0.000000,0.082347 LLEG_JOINT4:0.995143,0.089008,0.000000,-0.042039 RARM_JOINT2:0.785023,0.000000,-0.068840,0.615630 RARM_JOINT3:0.967043,0.000000,0.211024,0.142466 RLEG_JOINT2:0.999643,0.015793,0.000000,-0.021562 RLEG_JOINT4:0.995296,0.095403,0.000000,0.016880 WAIST:0.999771,0.000000,-0.018471,-0.010812 WAIST_JOINT0:0.997510,0.000000,-0.070512,-0.001563 WAIST_JOINT1:0.997589,0.068285,0.000000,-0.012375 END:
KINECT_DATA_Sensor  AnkleLeft:0.068229,0.742251,-0.104515,-0.658396 AnkleRight:0.068127,0.678366,0.088787,0.726151 ElbowLeft:-0.165048,0.920381,-0.142051,-0.324777 ElbowRight:0.027876,0.812576,0.183461,0.552526 FootLeft:0.000000,0.000000,0.000000,0.000000 FootRight:0.000000,0.000000,0.000000,0.000000 HandLeft:-0.395551,0.889628,0.042754,0.224219 HandRight:0.057060,-0.363572,-0.034983,0.929159 HandTipLeft:0.000000,0.000000,0.000000,0.000000 HandTipRight:0.000000,0.000000,0.000000,0.000000 Head:0.000000,0.000000,0.000000,0.000000 HipLeft:0.130910,-0.685713,0.694753,-0.173145 HipRight:-0.108288,0.671157,0.713279,-0.170456 KneeLeft:-0.028645,0.719765,-0.073304,-0.689742 KneeRight:-0.011196,0.694116,0.034138,0.718967 Neck:0.068376,-0.028345,0.993981,-0.080771 ShoulderLeft:-0.002281,0.783535,-0.613773,0.096699 ShoulderRight:0.086619,0.776794,0.623650,0.012153 SpineBase:0.018345,-0.023219,0.998627,-0.043233 SpineMid:0.042927,-0.024276,0.997872,-0.042648 SpineShoulder:0.068395,-0.024256,0.995371,-0.063003 ThumbLeft:0.000000,0.000000,0.000000,0.000000 ThumbRight:0.000000,0.000000,0.000000,0.000000 WristLeft:-0.311486,0.923271,0.019847,0.223949 WristRight:0.010093,-0.363209,-0.121239,0.923731 END:
KINECT_DATA POSITION:-5.541027,-1.197480,-5.102086 HEAD_JOINT1:0.976615,0.148757,-0.000000,0.155223 LARM_JOINT2:0.854585,0.000000,-0.285299,-0.433923 LARM_JOINT3:0.937207,0.000000,-0.300790,-0.176545 LLEG_JOINT2:0.994524,0.040027,0.000000,0.096541 LLEG_JOINT4:0.994724,0.085459,0.000000,-0.056752 RARM_JOINT2:0.780013,0.000000,-0.075218,0.621227 RARM_JOINT3:0.965854,0.000000,0.213416,0.146898 RLEG_JOINT2:0.999798,0.016656,0.000000,-0.011277 RLEG_JOINT4:0.995233,0.097096,0.000000,0.009159 WAIST:0.999417,0.000000,-0.030047,-0.016226 WAIST_JOINT0:0.995630,0.000000,-0.093149,-0.006679 WAIST_JOINT1:0.997935,0.062830,0.000000,-0.013366 END:
KINECT_DATA_Sensor  AnkleLeft:0.073003,0.746749,-0.103525,-0.652931 AnkleRight:0.068223,0.665326,0.092061,0.737707 ElbowLeft:-0.263398,0.920783,-0.139317,-0.251736 ElbowRight:0.031059,0.808609,0.181059,0.558931 FootLeft:0.000000,0.000000,0.000000,0.000000 FootRight:0.000000,0.000000,0.000000,0.000000 HandLeft:-0.384363,0.897664,0.079265,0.200454 HandRight:-0.074966,0.728184,0.017762,-0.681038 HandTipLeft:0.000000,0.000000,0.000000,0.000000 HandTipRight:0.000000,0.000000,0.000000,0.000000 Head:0.000000,0.000000,0.000000,0.000000 HipLeft:0.143264,-0.687919,0.688894,-0.177954 HipRight:-0.105706,0.668788,0.717380,-0.164054 KneeLeft:-0.031095,0.728236,-0.084025,-0.679445 KneeRight:-0.007053,0.685550,0.031102,0.727326 Neck:0.091804,-0.035198,0.992339,-0.074806 ShoulderLeft:-0.031113,0.785637,-0.606613,0.117589 ShoulderRight:0.087767,0.774977,0.625249,0.027782 SpineBase:0.030133,-0.028241,0.998387,-0.038952 SpineMid:0.060446,-0.029411,0.997011,-0.038076 SpineShoulder:0.091792,-0.030265,0.993681,-0.057066 ThumbLeft:0.000000,0.000000,0.000000,0.000000 ThumbRight:0.000000,0.000000,0.000000,0.000000 WristLeft:-0.376164,0.905508,0.050053,0.189870 WristRight:-0.065549,0.734680,0.104009,-0.667181 END:
KINECT_DATA POSITION:-5.627950,-1.215236,-5.022764 HEAD_JOINT1:0.976245,0.148059,-0.000000,0.158193 LARM_JOINT2:0.858355,0.000000,-0.312279,-0.407073 LARM_JOINT3:0.934423,0.000000,-0.303084,-0.187065 LLEG_JOINT2:0.994006,0.043831,0.000000,0.100159 LLEG_JOINT4:0.994572,0.084256,0.000000,-0.061060 RARM_JOINT2:0.778843,0.000000,-0.075081,0.622708 RARM_JOINT3:0.966279,0.000000,0.209837,0.149241 RLEG_JOINT2:0.999824,0.016441,0.000000,-0.009037 RLEG_JOINT4:0.995486,0.094368,0.000000,0.010142 WAIST:0.999120,0.000000,-0.037934,-0.017885 WAIST_JOINT0:0.994255,0.000000,-0.106470,-0.011008 WAIST_JOINT1:0.998048,0.060686,0.000000,-0.014715 END:
KINECT_DATA_Sensor  AnkleLeft:0.073910,0.741599,-0.105250,-0.658400 AnkleRight:0.067488,0.657381,0.088448,0.745300 ElbowLeft:-0.293682,0.919909,-0.141824,-0.217725 ElbowRight:0.030548,0.806413,0.180354,0.562350 FootLeft:0.000000,0.000000,0.000000,0.000000 FootRight:0.000000,0.000000,0.000000,0.000000 HandLeft:-0.089668,-0.250075,-0.391835,0.880845 HandRight:-0.072603,0.735888,0.011727,-0.673097 HandTipLeft:0.000000,0.000000,0.000000,0.000000 HandTipRight:0.000000,0.000000,0.000000,0.000000 Head:0.000000,0.000000,0.000000,0.000000 HipLeft:-0.150987,0.687950,-0.686162,0.181957 HipRight:-0.103260,0.668562,0.718848,-0.160061 KneeLeft:-0.030676,0.733890,-0.087790,-0.672873 KneeRight:-0.006710,0.679726,0.030450,0.732803 Neck:0.105717,-0.038585,0.990975,-0.072821 ShoulderLeft:-0.048535,0.787217,-0.600533,0.131505 ShoulderRight:0.088172,0.773345,0.626830,0.035329 SpineBase:0.038074,-0.029575,0.998140,-0.037324 SpineMid:0.071366,-0.030804,0.996313,-0.036316 SpineShoulder:0.105717,-0.032899,0.992352,-0.054577 ThumbLeft:0.000000,0.000000,0.000000,0.000000 ThumbRight:0.000000,0.000000,0.000000,0.000000 WristLeft:-0.044732,-0.231553,-0.392995,0.888784 WristRight:-0.066340,0.742545,0.104630,-0.658239 END:
KINECT_DATA POSITION:-5.682495,-1.181972,-4.886198 HEAD_JOINT1:0.976996,0.142042,-0.000000,0.159067 LARM_JOINT2:0.853879,0.000000,-0.355319,-0.380315 LARM_JOINT3:0.938041,0.000000,-0.298199,-0.176515 LLEG_JOINT2:0.993741,0.048494,0.000000,0.100634 LLEG_JOINT4:0.994673,0.086556,0.000000,-0.055975 RARM_JOINT2:0.777662,0.000000,-0.076363,0.624027 RARM_JOINT3:0.965421,0.000000,0.210943,0.153184 RLEG_JOINT2:0.999830,0.015500,0.000000,-0.010001 RLEG_JOINT4:0.995317,0.096511,0.000000,0.005429 WAIST:0.998479,0.000000,-0.052466,-0.016961 WAIST_JOINT0:0.992793,0.000000,-0.119547,-0.008437 WAIST_JOINT1:0.998067,0.059240,0.000000,-0.018767 END:
KINECT_DATA_Sensor  AnkleLeft:0.075980,0.770481,-0.113258,-0.622702 AnkleRight:0.066670,0.649842,0.091286,0.751616 ElbowLeft:-0.332045,0.918495,-0.128099,-0.172348 ElbowRight:0.031649,0.797000,0.180642,0.575464 FootLeft:0.000000,0.000000,0.000000,0.000000 FootRight:0.000000,0.000000,0.000000,0.000000 HandLeft:-0.189966,-0.063724,-0.387309,0.899913 HandRight:-0.079045,0.716338,0.009469,-0.693197 HandTipLeft:0.000000,0.000000,0.000000,0.000000 HandTipRight:0.000000,0.000000,0.000000,0.000000 Head:0.000000,0.000000,0.000000,0.000000 HipLeft:-0.163388,0.684741,-0.684345,0.190016 HipRight:-0.097584,0.670192,0.719596,-0.153304 KneeLeft:-0.029930,0.743873,-0.091601,-0.661337 KneeRight:-0.007139,0.669090,0.029798,0.742550 Neck:0.118668,-0.040912,0.989456,-0.072253 ShoulderLeft:-0.060756,0.781898,-0.604001,0.141871 ShoulderRight:0.093260,0.771850,0.627314,0.045028 SpineBase:0.052457,-0.030863,0.997511,-0.035613 SpineMid:0.085047,-0.032011,0.995262,-0.034584 SpineShoulder:0.118648,-0.034992,0.990891,-0.053232 ThumbLeft:0.000000,0.000000,0.000000,0.000000 ThumbRight:0.000000,0.000000,0.000000,0.000000 WristLeft:-0.142940,-0.043934,-0.387709,0.909571 WristRight:-0.062682,0.726579,0.111135,-0.675131 END:
KINECT_DATA POSITION:-5.475922,-1.043387,-4.979801 HEAD_JOINT1:0.976743,0.134565,-0.000000,0.166928 LARM_JOINT2:0.867267,0.000000,-0.392076,-0.306796 LARM_JOINT3:0.920335,0.000000,-0.317878,-0.227898 LLEG_JOINT2:0.994308,0.054238,0.000000,0.091706 LLEG_JOINT4:0.993979,0.082290,0.000000,-0.072342 RARM_JOINT2:0.776274,0.000000,-0.070146,0.626480 RARM_JOINT3:0.966247,0.000000,0.199658,0.162799 RLEG_JOINT2:0.999734,0.002146,0.000000,-0.022985 RLEG_JOINT4:0.993942,0.109660,0.000000,0.007344 WAIST:0.996157,0.000000,-0.086877,-0.011113 WAIST_JOINT0:0.989021,0.000000,-0.147651,-0.006078 WAIST_JOINT1:0.997922,0.057177,0.000000,-0.029724 END:
KINECT_DATA_Sensor  AnkleLeft:0.078226,0.739295,-0.110205,-0.659680 AnkleRight:0.067406,0.632656,0.091808,0.766012 ElbowLeft:-0.389131,0.904624,-0.162553,-0.061715 ElbowRight:0.033703,0.788557,0.178019,0.587666 FootLeft:0.000000,0.000000,0.000000,0.000000 FootRight:0.000000,0.000000,0.000000,0.000000 HandLeft:-0.415589,0.840305,0.093403,0.335334 HandRight:-0.078627,0.779946,-0.022886,-0.620467 HandTipLeft:0.000000,0.000000,0.000000,0.000000 HandTipRight:0.000000,0.000000,0.000000,0.000000 Head:0.000000,0.000000,0.000000,0.000000 HipLeft:0.178974,-0.676717,0.684415,-0.203958 HipRight:-0.074849,0.677614,0.719439,-0.132828 KneeLeft:-0.026985,0.766452,-0.092851,-0.634982 KneeRight:-0.020948,0.643800,0.026872,0.764434 Neck:0.147214,-0.043485,0.985508,-0.072192 ShoulderLeft:-0.087348,0.776594,-0.600983,0.167607 ShoulderRight:0.103929,0.770564,0.625592,0.063756 SpineBase:0.086340,-0.031560,0.995125,-0.035713 SpineMid:0.116334,-0.032623,0.992066,-0.034744 SpineShoulder:0.147153,-0.037899,0.986994,-0.052466 ThumbLeft:0.000000,0.000000,0.000000,0.000000 ThumbRight:0.000000,0.000000,0.000000,0.000000 WristLeft:-0.423297,0.837002,0.094436,0.333660 WristRight:-0.071466,0.791086,0.106075,-0.598183 END:
KINECT_DATA POSITION:-5.338964,-0.896344,-5.128086 HEAD_JOINT1:0.976141,0.130705,-0.000000,0.173393 LARM_JOINT2:0.870061,0.000000,-0.388881,-0.302929 LARM_JOINT3:0.919559,0.000000,-0.319624,-0.228587 LLEG_JOINT2:0.994629,0.054502,0.000000,0.087994 LLEG_JOINT4:0.993526,0.084375,0.000000,-0.076071 RARM_JOINT2:0.773187,0.000000,-0.090727,0.627655 RARM_JOINT3:0.962176,0.000000,0.211695,0.171474 RLEG_JOINT2:0.999624,-0.003165,-0.000000,-0.027233 RLEG_JOINT4:0.993605,0.112718,0.000000,0.006631 WAIST:0.994958,0.000000,-0.100005,-0.007589 WAIST_JOINT0:0.989405,0.000000,-0.144829,-0.010095 WAIST_JOINT1:0.997737,0.057169,0.000000,-0.035405 END:
KINECT_DATA_Sensor  AnkleLeft:0.086543,0.776989,-0.106809,-0.614321 AnkleRight:0.067514,0.634259,0.089713,0.764924 ElbowLeft:-0.391695,0.904431,-0.159893,-0.054890 ElbowRight:0.048884,0.770303,0.182947,0.608913 FootLeft:0.000000,0.000000,0.000000,0.000000 FootRight:0.000000,0.000000,0.000000,0.000000 HandLeft:-0.373519,0.421929,-0.193126,0.803219 HandRight:-0.087645,0.767342,-0.021302,-0.634863 HandTipLeft:0.000000,0.000000,0.000000,0.000000 HandTipRight:0.000000,0.000000,0.000000,0.000000 Head:0.000000,0.000000,0.000000,0.000000 HipLeft:0.186419,-0.672644,0.684301,-0.211023 HipRight:-0.065152,0.681679,0.717753,-0.126099 KneeLeft:-0.027746,0.774627,-0.092714,-0.624970 KneeRight:-0.024997,0.634093,0.024499,0.772464 Neck:0.146553,-0.043987,0.985459,-0.073881 ShoulderLeft:-0.101319,0.775199,-0.597399,0.178649 ShoulderRight:0.090724,0.767680,0.632442,0.049534 SpineBase:0.099121,-0.032295,0.993864,-0.036959 SpineMid:0.122464,-0.033155,0.991259,-0.036190 SpineShoulder:0.146472,-0.038535,0.987004,-0.053704 ThumbLeft:0.000000,0.000000,0.000000,0.000000 ThumbRight:0.000000,0.000000,0.000000,0.000000 WristLeft:-0.389607,0.416412,-0.196083,0.797721 WristRight:-0.069015,0.781428,0.108554,-0.610593 END:
KINECT_DATA POSITION:-5.286406,-0.863003,-5.163920 HEAD_JOINT1:0.975579,0.128114,-0.000000,0.178417 LARM_JOINT2:0.866603,0.000000,-0.396744,-0.302644 LARM_JOINT3:0.920474,0.000000,-0.317253,-0.228205 LLEG_JOINT2:0.994731,0.055810,0.000000,0.085994 LLEG_JOINT4:0.993699,0.079273,0.000000,-0.079237 RARM_JOINT2:0.774306,0.000000,-0.070162,0.628910 RARM_JOINT3:0.965279,0.000000,0.204187,0.162924 RLEG_JOINT2:0.999552,-0.004967,-0.000000,-0.029509 RLEG_JOINT4:0.993116,0.116707,0.000000,0.009997 WAIST:0.994374,0.000000,-0.105757,-0.006020 WAIST_JOINT0:0.986045,0.000000,-0.166246,-0.008809 WAIST_JOINT1:0.997630,0.056931,0.000000,-0.038634 END:
KINECT_DATA_Sensor  AnkleLeft:0.077537,0.727920,-0.108981,-0.672491 AnkleRight:0.070440,0.620302,0.089511,0.776049 ElbowLeft:-0.395303,0.904877,-0.152399,-0.041324 ElbowRight:0.037842,0.781057,0.177720,0.597438 FootLeft:0.000000,0.000000,0.000000,0.000000 FootRight:0.000000,0.000000,0.000000,0.000000 HandLeft:-0.341218,0.242128,-0.259403,0.870434 HandRight:-0.083028,0.790813,0.000862,-0.606400 HandTipLeft:0.000000,0.000000,0.000000,0.000000 HandTipRight:0.000000,0.000000,0.000000,0.000000 Head:0.000000,0.000000,0.000000,0.000000 HipLeft:0.190875,-0.670707,0.684036,-0.214040 HipRight:-0.062451,0.683076,0.716987,-0.124245 KneeLeft:-0.027015,0.778280,-0.093385,-0.620346 KneeRight:-0.026603,0.629796,0.024152,0.775929 Neck:0.166901,-0.046393,0.982124,-0.073646 ShoulderLeft:-0.111127,0.775435,-0.591552,0.190835 ShoulderRight:0.106064,0.769601,0.625661,0.070803 SpineBase:0.104703,-0.033267,0.993260,-0.036949 SpineMid:0.135345,-0.034393,0.989550,-0.035903 SpineShoulder:0.166835,-0.040680,0.983706,-0.053237 ThumbLeft:0.000000,0.000000,0.000000,0.000000 ThumbRight:0.000000,0.000000,0.000000,0.000000 WristLeft:-0.345193,0.242546,-0.266034,0.866740 WristRight:-0.070767,0.798302,0.105769,-0.588659 END:
KINECT_DATA POSITION:-5.201239,-0.857178,-5.252373 HEAD_JOINT1:0.975558,0.126781,-0.000000,0.179478 LARM_JOINT2:0.863897,0.000000,-0.403697,-0.301183 LARM_JOINT3:0.923222,0.000000,-0.314026,-0.221470 LLEG_JOINT2:0.994869,0.054340,0.000000,0.085339 LLEG_JOINT4:0.993642,0.082731,0.000000,-0.076368 RARM_JOINT2:0.774966,0.000000,-0.066392,0.628506 RARM_JOINT3:0.964356,0.000000,0.203871,0.168682 RLEG_JOINT2:0.999468,-0.008178,-0.000000,-0.031573 RLEG_JOINT4:0.993128,0.116965,0.000000,0.004058 WAIST:0.993859,0.000000,-0.110562,-0.004464 WAIST_JOINT0:0.984977,0.000000,-0.172571,-0.006311 WAIST_JOINT1:0.997514,0.057285,0.000000,-0.041029 END:
KINECT_DATA_Sensor  AnkleLeft:0.080008,0.758959,-0.109892,-0.636792 AnkleRight:0.064781,0.617597,0.092368,0.778361 ElbowLeft:-0.399722,0.904458,-0.144724,-0.035111 ElbowRight:0.037756,0.785115,0.177786,0.592082 FootLeft:0.000000,0.000000,0.000000,0.000000 FootRight:0.000000,0.000000,0.000000,0.000000 HandLeft:-0.153027,-0.238068,-0.402497,0.870576 HandRight:-0.101582,0.778009,0.005369,-0.619963 HandTipLeft:0.000000,0.000000,0.000000,0.000000 HandTipRight:0.000000,0.000000,0.000000,0.000000 Head:0.000000,0.000000,0.000000,0.000000 HipLeft:0.194946,-0.668674,0.683608,-0.218062 HipRight:-0.060123,0.684559,0.715847,-0.123804 KneeLeft:-0.029009,0.781085,-0.092772,-0.616812 KneeRight:-0.029200,0.626282,0.022783,0.778716 Neck:0.172760,-0.047024,0.981027,-0.074360 ShoulderLeft:-0.114105,0.775443,-0.589524,0.195266 ShoulderRight:0.110101,0.772281,0.620948,0.076700 SpineBase:0.109328,-0.033758,0.992710,-0.037865 SpineMid:0.140571,-0.034935,0.988770,-0.036782 SpineShoulder:0.172702,-0.041290,0.982630,-0.053916 ThumbLeft:0.000000,0.000000,0.000000,0.000000 ThumbRight:0.000000,0.000000,0.000000,0.000000 WristLeft:-0.164655,-0.240907,-0.407728,0.865223 WristRight:-0.068709,0.789192,0.104277,-0.601317 END:
KINECT_DATA POSITION:-5.166018,-0.836574,-5.280375 HEAD_JOINT1:0.976478,0.123823,-0.000000,0.176520 LARM_JOINT2:0.862818,0.000000,-0.407714,-0.298855 LARM_JOINT3:0.925182,0.000000,-0.320752,-0.202870 LLEG_JOINT2:0.994904,0.054899,0.000000,0.084569 LLEG_JOINT4:0.993260,0.082707,0.000000,-0.081207 RARM_JOINT2:0.775534,0.000000,-0.062839,0.628171 RARM_JOINT3:0.964015,0.000000,0.208465,0.164974 RLEG_JOINT2:0.999421,-0.008323,-0.000000,-0.033001 RLEG_JOINT4:0.993135,0.116929,0.000000,0.003112 WAIST:0.993614,0.000000,-0.112767,-0.003823 WAIST_JOINT0:0.984319,0.000000,-0.176254,-0.007183 WAIST_JOINT1:0.997402,0.059080,0.000000,-0.041224 END:
KINECT_DATA_Sensor  AnkleLeft:0.080961,0.741736,-0.109813,-0.656669 AnkleRight:0.063792,0.615577,0.093518,0.779904 ElbowLeft:-0.404377,0.903269,-0.135438,-0.047327 ElbowRight:0.037569,0.785444,0.177644,0.591700 FootLeft:0.000000,0.000000,0.000000,0.000000 FootRight:0.000000,0.000000,0.000000,0.000000 HandLeft:-0.154677,-0.206687,-0.419235,0.870400 HandRight:-0.103307,0.785502,0.026745,-0.609589 HandTipLeft:0.000000,0.000000,0.000000,0.000000 HandTipRight:0.000000,0.000000,0.000000,0.000000 Head:0.000000,0.000000,0.000000,0.000000 HipLeft:0.196487,-0.667567,0.683586,-0.220129 HipRight:-0.058852,0.685026,0.715551,-0.123543 KneeLeft:-0.028718,0.782430,-0.093108,-0.615069 KneeRight:-0.029703,0.624607,0.023419,0.780022 Neck:0.176157,-0.046206,0.980279,-0.076720 ShoulderLeft:-0.114610,0.777096,-0.585988,0.199010 ShoulderRight:0.113385,0.773517,0.618535,0.078927 SpineBase:0.111456,-0.033607,0.992451,-0.038590 SpineMid:0.143293,-0.034830,0.988356,-0.037490 SpineShoulder:0.176099,-0.040777,0.981953,-0.055630 ThumbLeft:0.000000,0.000000,0.000000,0.000000 ThumbRight:0.000000,0.000000,0.000000,0.000000 WristLeft:-0.176898,-0.216947,-0.415037,0.865670 WristRight:-0.069265,0.793716,0.103565,-0.595392 END:
KINECT_DATA POSITION:-5.148244,-0.809342,-5.257499 HEAD_JOINT1:0.977958,0.122465,-0.000000,0.169116 LARM_JOINT2:0.863628,0.000000,-0.410716,-0.292335 LARM_JOINT3:0.929642,0.000000,-0.320749,-0.181343 LLEG_JOINT2:0.994957,0.055599,0.000000,0.083482 LLEG_JOINT4:0.992676,0.086106,0.000000,-0.084731 RARM_JOINT2:0.776345,0.000000,-0.059965,0.627449 RARM_JOINT3:0.964543,0.000000,0.206829,0.163944 RLEG_JOINT2:0.999403,-0.008544,-0.000000,-0.033477 RLEG_JOINT4:0.993210,0.116321,0.000000,0.002054 WAIST:0.993439,0.000000,-0.114319,-0.003110 WAIST_JOINT0:0.983849,0.000000,-0.178801,-0.008488 WAIST_JOINT1:0.997292,0.060824,0.000000,-0.041338 END:
KINECT_DATA_Sensor  AnkleLeft:0.083998,0.727764,-0.112775,-0.671257 AnkleRight:0.062800,0.614128,0.093622,0.781114 ElbowLeft:-0.413659,0.898800,-0.121260,-0.079627 ElbowRight:0.036862,0.783541,0.178112,0.594122 FootLeft:0.000000,0.000000,0.000000,0.000000 FootRight:0.000000,0.000000,0.000000,0.000000 HandLeft:-0.401755,0.887682,0.144696,0.172269 HandRight:-0.097548,0.755376,0.022685,-0.647593 HandTipLeft:0.000000,0.000000,0.000000,0.000000 HandTipRight:0.000000,0.000000,0.000000,0.000000 Head:0.000000,0.000000,0.000000,0.000000 HipLeft:0.196895,-0.666349,0.683952,-0.222308 HipRight:-0.057454,0.685454,0.715229,-0.123692 KneeLeft:-0.028086,0.783333,-0.093427,-0.613899 KneeRight:-0.029633,0.623474,0.023195,0.780938 Neck:0.178208,-0.045510,0.979802,-0.078479 ShoulderLeft:-0.112748,0.778509,-0.583818,0.200920 ShoulderRight:0.117388,0.774153,0.616743,0.080848 SpineBase:0.112928,-0.032784,0.992257,-0.039992 SpineMid:0.145073,-0.034065,0.988069,-0.038907 SpineShoulder:0.178191,-0.040022,0.981500,-0.057483 ThumbLeft:0.000000,0.000000,0.000000,0.000000 ThumbRight:0.000000,0.000000,0.000000,0.000000 WristLeft:-0.435171,0.863466,0.183306,0.177347 WristRight:-0.063170,0.765168,0.108233,-0.631516 END:
KINECT_DATA POSITION:-5.124022,-0.769156,-5.144560 HEAD_JOINT1:0.978267,0.123806,-0.000000,0.166331 LARM_JOINT2:0.864311,0.000000,-0.411862,-0.288681 LARM_JOINT3:0.930449,0.000000,-0.314279,-0.188396 LLEG_JOINT2:0.995001,0.056704,0.000000,0.082211 LLEG_JOINT4:0.992851,0.081330,0.000000,-0.087361 RARM_JOINT2:0.775972,0.000000,-0.064444,0.627467 RARM_JOINT3:0.962977,0.000000,0.214789,0.162912 RLEG_JOINT2:0.999365,-0.008980,-0.000000,-0.034483 RLEG_JOINT4:0.993214,0.116274,0.000000,0.002667 WAIST:0.993299,0.000000,-0.115554,-0.002219 WAIST_JOINT0:0.984541,0.000000,-0.174843,-0.010466 WAIST_JOINT1:0.997223,0.061039,0.000000,-0.042665 END:
KINECT_DATA_Sensor  AnkleLeft:0.082541,0.718197,-0.109591,-0.682180 AnkleRight:0.063313,0.616482,0.092654,0.779330 ElbowLeft:-0.413689,0.899061,-0.130179,-0.060041 ElbowRight:0.038990,0.777132,0.179836,0.601834 FootLeft:0.000000,0.000000,0.000000,0.000000 FootRight:0.000000,0.000000,0.000000,0.000000 HandLeft:-0.296896,0.873754,0.284388,-0.259867 HandRight:-0.098799,0.778175,0.031586,-0.619423 HandTipLeft:0.000000,0.000000,0.000000,0.000000 HandTipRight:0.000000,0.000000,0.000000,0.000000 Head:0.000000,0.000000,0.000000,0.000000 HipLeft:0.197533,-0.665433,0.684321,-0.223349 HipRight:-0.056092,0.686135,0.714731,-0.123418 KneeLeft:-0.027135,0.784101,-0.094090,-0.612860 KneeRight:-0.029940,0.622612,0.023123,0.781616 Neck:0.174859,-0.045520,0.980367,-0.078943 ShoulderLeft:-0.112317,0.779271,-0.583060,0.200405 ShoulderRight:0.113914,0.772885,0.619672,0.075354 SpineBase:0.114057,-0.032847,0.992098,-0.040673 SpineMid:0.144003,-0.034061,0.988195,-0.039661 SpineShoulder:0.174836,-0.040098,0.982064,-0.058098 ThumbLeft:0.000000,0.000000,0.000000,0.000000 ThumbRight:0.000000,0.000000,0.000000,0.000000 WristLeft:-0.297017,0.857043,0.352651,-0.229989 WristRight:-0.068032,0.785803,0.109599,-0.604875 END:
KINECT_DATA POSITION:-5.118480,-0.760183,-5.056345 HEAD_JOINT1:0.977660,0.127177,-0.000000,0.167353 LARM_JOINT2:0.864644,0.000000,-0.412655,-0.286542 LARM_JOINT3:0.932321,0.000000,-0.307976,-0.189549 LLEG_JOINT2:0.994915,0.057460,0.000000,0.082719 LLEG_JOINT4:0.993646,0.083865,0.000000,-0.075063 RARM_JOINT2:0.774567,0.000000,-0.065433,0.629098 RARM_JOINT3:0.963331,0.000000,0.212624,0.163661 RLEG_JOINT2:0.999379,-0.008694,-0.000000,-0.034141 RLEG_JOINT4:0.993022,0.117820,0.000000,0.005022 WAIST:0.993336,0.000000,-0.115226,-0.002526 WAIST_JOINT0:0.984828,0.000000,-0.173163,-0.011340 WAIST_JOINT1:0.997163,0.060846,0.000000,-0.044320 END:
KINECT_DATA_Sensor  AnkleLeft:0.087041,0.790509,-0.110116,-0.596149 AnkleRight:0.066212,0.616949,0.091874,0.778813 ElbowLeft:-0.415260,0.898401,-0.128457,-0.062725 ElbowRight:0.038976,0.775543,0.179907,0.603860 FootLeft:0.000000,0.000000,0.000000,0.000000 FootRight:0.000000,0.000000,0.000000,0.000000 HandLeft:-0.045895,-0.367029,-0.414617,0.831430 HandRight:-0.097220,0.768368,0.022785,-0.632171 HandTipLeft:0.000000,0.000000,0.000000,0.000000 HandTipRight:0.000000,0.000000,0.000000,0.000000 Head:0.000000,0.000000,0.000000,0.000000 HipLeft:0.197719,-0.665712,0.684068,-0.223129 HipRight:-0.055866,0.685851,0.714930,-0.123946 KneeLeft:-0.026796,0.783970,-0.094795,-0.612934 KneeRight:-0.029725,0.622938,0.023242,0.781360 Neck:0.174070,-0.047732,0.980421,-0.078710 ShoulderLeft:-0.114811,0.777482,-0.584662,0.201273 ShoulderRight:0.111502,0.769761,0.624378,0.072024 SpineBase:0.113696,-0.034008,0.992093,-0.040838 SpineMid:0.143452,-0.035220,0.988229,-0.039798 SpineShoulder:0.174038,-0.041976,0.982131,-0.058029 ThumbLeft:0.000000,0.000000,0.000000,0.000000 ThumbRight:0.000000,0.000000,0.000000,0.000000 WristLeft:-0.079397,-0.367673,-0.456049,0.806556 WristRight:-0.065592,0.777567,0.111204,-0.615403 END:
KINECT_DATA POSITION:-5.123700,-0.765289,-4.989183 HEAD_JOINT1:0.977378,0.130000,-0.000000,0.166828 LARM_JOINT2:0.865207,0.000000,-0.410005,-0.288640 LARM_JOINT3:0.932631,0.000000,-0.306425,-0.190532 LLEG_JOINT2:0.994910,0.056957,0.000000,0.083121 LLEG_JOINT4:0.993383,0.082286,0.000000,-0.080125 RARM_JOINT2:0.774074,0.000000,-0.067558,0.629480 RARM_JOINT3:0.962357,0.000000,0.212150,0.169886 RLEG_JOINT2:0.999381,-0.009150,-0.000000,-0.033957 RLEG_JOINT4:0.992883,0.119066,0.000000,0.002735 WAIST:0.993468,0.000000,-0.114084,-0.002546 WAIST_JOINT0:0.984860,0.000000,-0.172962,-0.011594 WAIST_JOINT1:0.997150,0.060405,0.000000,-0.045207 END:
KINECT_DATA_Sensor  AnkleLeft:0.083088,0.753855,-0.110418,-0.642345 AnkleRight:0.065387,0.617424,0.094131,0.778236 ElbowLeft:-0.412937,0.899189,-0.128489,-0.066576 ElbowRight:0.039862,0.776249,0.180553,0.602702 FootLeft:0.000000,0.000000,0.000000,0.000000 FootRight:0.000000,0.000000,0.000000,0.000000 HandLeft:-0.238394,0.821647,0.334224,-0.395421 HandRight:-0.112501,0.770566,0.009747,-0.627278 HandTipLeft:0.000000,0.000000,0.000000,0.000000 HandTipRight:0.000000,0.000000,0.000000,0.000000 Head:0.000000,0.000000,0.000000,0.000000 HipLeft:0.197633,-0.666038,0.684053,-0.222272 HipRight:-0.056466,0.685760,0.714839,-0.124700 KneeLeft:-0.027300,0.783261,-0.094672,-0.613836 KneeRight:-0.030007,0.623898,0.022800,0.780597 Neck:0.174464,-0.048852,0.980344,-0.078119 ShoulderLeft:-0.119874,0.775751,-0.585058,0.203833 ShoulderRight:0.107792,0.768697,0.626651,0.069236 SpineBase:0.112530,-0.034906,0.992204,-0.040605 SpineMid:0.143042,-0.036141,0.988267,-0.039510 SpineShoulder:0.174412,-0.043067,0.982046,-0.057546 ThumbLeft:0.000000,0.000000,0.000000,0.000000 ThumbRight:0.000000,0.000000,0.000000,0.000000 WristLeft:-0.238206,0.806590,0.397775,-0.366669 WristRight:-0.066892,0.784484,0.109620,-0.606707 END:
KINECT_DATA POSITION:-5.120146,-0.770865,-4.972041 HEAD_JOINT1:0.977180,0.131205,-0.000000,0.167046 LARM_JOINT2:0.865690,0.000000,-0.409607,-0.287756 LARM_JOINT3:0.931701,0.000000,-0.309562,-0.190011 LLEG_JOINT2:0.994917,0.056941,0.000000,0.083057 LLEG_JOINT4:0.992502,0.086849,0.000000,-0.086009 RARM_JOINT2:0.774004,0.000000,-0.065927,0.629739 RARM_JOINT3:0.962976,0.000000,0.211088,0.167686 RLEG_JOINT2:0.999388,-0.008719,-0.000000,-0.033869 RLEG_JOINT4:0.993039,0.117733,0.000000,0.003579 WAIST:0.993546,0.000000,-0.113399,-0.002625 WAIST_JOINT0:0.984731,0.000000,-0.173713,-0.011377 WAIST_JOINT1:0.997174,0.060011,0.000000,-0.045194 END:
KINECT_DATA_Sensor  AnkleLeft:0.087496,0.733685,-0.112821,-0.664321 AnkleRight:0.064995,0.616954,0.093039,0.778773 ElbowLeft:-0.413277,0.898828,-0.130439,-0.065551 ElbowRight:0.038497,0.777667,0.179781,0.601191 FootLeft:0.000000,0.000000,0.000000,0.000000 FootRight:0.000000,0.000000,0.000000,0.000000 HandLeft:-0.044086,-0.352217,-0.416955,0.836748 HandRight:-0.106845,0.775760,0.010154,-0.621834 HandTipLeft:0.000000,0.000000,0.000000,0.000000 HandTipRight:0.000000,0.000000,0.000000,0.000000 Head:0.000000,0.000000,0.000000,0.000000 HipLeft:0.197564,-0.666222,0.684035,-0.221838 HipRight:-0.057154,0.685626,0.714841,-0.125111 KneeLeft:-0.027137,0.782857,-0.094585,-0.614371 KneeRight:-0.029685,0.624412,0.023034,0.780191 Neck:0.175219,-0.049078,0.980242,-0.077564 ShoulderLeft:-0.120606,0.775575,-0.585092,0.203972 ShoulderRight:0.108021,0.768622,0.626587,0.070287 SpineBase:0.111858,-0.035047,0.992286,-0.040349 SpineMid:0.143072,-0.036301,0.988268,-0.039225 SpineShoulder:0.175163,-0.043284,0.981930,-0.057074 ThumbLeft:0.000000,0.000000,0.000000,0.000000 ThumbRight:0.000000,0.000000,0.000000,0.000000 WristLeft:-0.087219,-0.357353,-0.454721,0.811123 WristRight:-0.068310,0.787944,0.109357,-0.602096 END:
KINECT_DATA POSITION:-5.129817,-0.771972,-5.000317 HEAD_JOINT1:0.976851,0.133016,-0.000000,0.167536 LARM_JOINT2:0.866333,0.000000,-0.407384,-0.288974 LARM_JOINT3:0.930629,0.000000,-0.308548,-0.196793 LLEG_JOINT2:0.994847,0.057873,0.000000,0.083245 LLEG_JOINT4:0.993373,0.084047,0.000000,-0.078397 RARM_JOINT2:0.773932,0.000000,-0.064872,0.629937 RARM_JOINT3:0.964432,0.000000,0.203672,0.168492 RLEG_JOINT2:0.999408,-0.007688,-0.000000,-0.033528 RLEG_JOINT4:0.992802,0.119714,0.000000,0.003573 WAIST:0.993564,0.000000,-0.113240,-0.002706 WAIST_JOINT0:0.984639,0.000000,-0.174277,-0.010666 WAIST_JOINT1:0.997253,0.058653,0.000000,-0.045247 END:
KINECT_DATA_Sensor  AnkleLeft:0.090180,0.790667,-0.108190,-0.595826 AnkleRight:0.067411,0.616166,0.094765,0.778984 ElbowLeft:-0.412582,0.898928,-0.131419,-0.066591 ElbowRight:0.037215,0.780347,0.178742,0.598102 FootLeft:0.000000,0.000000,0.000000,0.000000 FootRight:0.000000,0.000000,0.000000,0.000000 HandLeft:-0.323609,0.346732,-0.249669,0.844227 HandRight:-0.095545,0.772838,-0.004101,-0.627356 HandTipLeft:0.000000,0.000000,0.000000,0.000000 HandTipRight:0.000000,0.000000,0.000000,0.000000 Head:0.000000,0.000000,0.000000,0.000000 HipLeft:0.198047,-0.666481,0.683835,-0.221247 HipRight:-0.057623,0.685621,0.714844,-0.124908 KneeLeft:-0.026605,0.782854,-0.095382,-0.614275 KneeRight:-0.028727,0.624497,0.023456,0.780146 Neck:0.175883,-0.049240,0.980235,-0.076031 ShoulderLeft:-0.122375,0.775024,-0.585554,0.203686 ShoulderRight:0.107137,0.768605,0.626621,0.071510 SpineBase:0.111715,-0.035506,0.992313,-0.039663 SpineMid:0.143311,-0.036753,0.988245,-0.038510 SpineShoulder:0.175802,-0.043577,0.981881,-0.055714 ThumbLeft:0.000000,0.000000,0.000000,0.000000 ThumbRight:0.000000,0.000000,0.000000,0.000000 WristLeft:-0.385077,0.322398,-0.257788,0.825422 WristRight:-0.068119,0.785119,0.108650,-0.605923 END:
KINECT_DATA POSITION:-5.140947,-0.780631,-5.026519 HEAD_JOINT1:0.976725,0.134858,-0.000000,0.166801 LARM_JOINT2:0.866038,0.000000,-0.407112,-0.290239 LARM_JOINT3:0.930622,0.000000,-0.311920,-0.191439 LLEG_JOINT2:0.994845,0.058113,0.000000,0.083103 LLEG_JOINT4:0.992577,0.086131,0.000000,-0.085863 RARM_JOINT2:0.774354,0.000000,-0.064246,0.629483 RARM_JOINT3:0.964348,0.000000,0.205196,0.167116 RLEG_JOINT2:0.999422,-0.007452,-0.000000,-0.033171 RLEG_JOINT4:0.992994,0.118131,0.000000,0.002725 WAIST:0.993597,0.000000,-0.112943,-0.002891 WAIST_JOINT0:0.984579,0.000000,-0.174671,-0.009665 WAIST_JOINT1:0.997338,0.057794,0.000000,-0.044458 END:
KINECT_DATA_Sensor  AnkleLeft:0.083734,0.709069,-0.116163,-0.690446 AnkleRight:0.065847,0.616197,0.094497,0.779125 ElbowLeft:-0.411290,0.899536,-0.135132,-0.058431 ElbowRight:0.036460,0.782408,0.178150,0.595627 FootLeft:0.000000,0.000000,0.000000,0.000000 FootRight:0.000000,0.000000,0.000000,0.000000 HandLeft:-0.029347,-0.348441,-0.429442,0.832651 HandRight:-0.098743,0.793419,0.005909,-0.600585 HandTipLeft:0.000000,0.000000,0.000000,0.000000 HandTipRight:0.000000,0.000000,0.000000,0.000000 Head:0.000000,0.000000,0.000000,0.000000 HipLeft:0.198153,-0.666799,0.683655,-0.220750 HipRight:-0.058232,0.685604,0.714874,-0.124542 KneeLeft:-0.026180,0.782724,-0.095359,-0.614463 KneeRight:-0.028459,0.624662,0.023442,0.780024 Neck:0.176180,-0.048604,0.980289,-0.075049 ShoulderLeft:-0.123294,0.774774,-0.585813,0.203340 ShoulderRight:0.106425,0.769474,0.625562,0.072492 SpineBase:0.111470,-0.035338,0.992373,-0.039001 SpineMid:0.143318,-0.036574,0.988276,-0.037844 SpineShoulder:0.176086,-0.043109,0.981904,-0.054779 ThumbLeft:0.000000,0.000000,0.000000,0.000000 ThumbRight:0.000000,0.000000,0.000000,0.000000 WristLeft:-0.087602,-0.364476,-0.449682,0.810721 WristRight:-0.071358,0.803035,0.105597,-0.582145 END:
KINECT_DATA POSITION:-5.184579,-0.763792,-5.113113 HEAD_JOINT1:0.976742,0.133723,-0.000000,0.167610 LARM_JOINT2:0.866386,0.000000,-0.405591,-0.291325 LARM_JOINT3:0.930709,0.000000,-0.311819,-0.191180 LLEG_JOINT2:0.994859,0.057948,0.000000,0.083050 LLEG_JOINT4:0.993095,0.084353,0.000000,-0.081534 RARM_JOINT2:0.773748,0.000000,-0.062602,0.630393 RARM_JOINT3:0.965240,0.000000,0.200597,0.167549 RLEG_JOINT2:0.999421,-0.007675,-0.000000,-0.033154 RLEG_JOINT4:0.993139,0.116941,0.000000,0.000461 WAIST:0.993542,0.000000,-0.113424,-0.002936 WAIST_JOINT0:0.984444,0.000000,-0.175497,-0.008449 WAIST_JOINT1:0.997376,0.057269,0.000000,-0.044291 END:
KINECT_DATA_Sensor  AnkleLeft:0.093124,0.790844,-0.106111,-0.595512 AnkleRight:0.063391,0.616183,0.095358,0.779235 ElbowLeft:-0.411656,0.899280,-0.131914,-0.066584 ElbowRight:0.035531,0.783113,0.176354,0.595290 FootLeft:0.000000,0.000000,0.000000,0.000000 FootRight:0.000000,0.000000,0.000000,0.000000 HandLeft:-0.069322,-0.296213,-0.417915,0.856037 HandRight:-0.096545,0.761985,-0.003450,-0.640348 HandTipLeft:0.000000,0.000000,0.000000,0.000000 HandTipRight:0.000000,0.000000,0.000000,0.000000 Head:0.000000,0.000000,0.000000,0.000000 HipLeft:0.198661,-0.666903,0.683497,-0.220470 HipRight:-0.058104,0.685707,0.714943,-0.123638 KneeLeft:-0.026257,0.783046,-0.095152,-0.614081 KneeRight:-0.028647,0.624255,0.023336,0.780346 Neck:0.176862,-0.048456,0.980208,-0.074590 ShoulderLeft:-0.123306,0.774686,-0.586078,0.202903 ShoulderRight:0.107047,0.770296,0.624227,0.074338 SpineBase:0.111974,-0.035431,0.992337,-0.038385 SpineMid:0.143896,-0.036650,0.988213,-0.037223 SpineShoulder:0.176761,-0.043007,0.981817,-0.054233 ThumbLeft:0.000000,0.000000,0.000000,0.000000 ThumbRight:0.000000,0.000000,0.000000,0.000000 WristLeft:-0.116765,-0.305585,-0.447329,0.832394 WristRight:-0.066629,0.775103,0.108347,-0.618900 END:
KINECT_DATA POSITION:-5.197865,-0.758887,-5.171776 HEAD_JOINT1:0.976731,0.133939,-0.000000,0.167503 LARM_JOINT2:0.866370,0.000000,-0.404723,-0.292579 LARM_JOINT3:0.930309,0.000000,-0.311949,-0.192908 LLEG_JOINT2:0.994815,0.058109,0.000000,0.083463 LLEG_JOINT4:0.993264,0.083468,0.000000,-0.080378 RARM_JOINT2:0.773808,0.000000,-0.062839,0.630295 RARM_JOINT3:0.964656,0.000000,0.204121,0.166651 RLEG_JOINT2:0.999441,-0.007275,-0.000000,-0.032617 RLEG_JOINT4:0.993054,0.117626,0.000000,0.002832 WAIST:0.993619,0.000000,-0.112751,-0.002979 WAIST_JOINT0:0.984408,0.000000,-0.175703,-0.008256 WAIST_JOINT1:0.997398,0.057115,0.000000,-0.043993 END:
KINECT_DATA_Sensor  AnkleLeft:0.084813,0.752269,-0.111956,-0.643711 AnkleRight:0.081460,0.744343,0.080737,0.657875 ElbowLeft:-0.409409,0.900203,-0.135945,-0.059477 ElbowRight:0.035613,0.783890,0.176226,0.594300 FootLeft:0.000000,0.000000,0.000000,0.000000 FootRight:0.000000,0.000000,0.000000,0.000000 HandLeft:-0.029925,-0.329419,-0.421997,0.844101 HandRight:0.080811,-0.334633,-0.059130,0.937013 HandTipLeft:0.000000,0.000000,0.000000,0.000000 HandTipRight:0.000000,0.000000,0.000000,0.000000 Head:0.000000,0.000000,0.000000,0.000000 HipLeft:0.198435,-0.667072,0.683527,-0.220067 HipRight:-0.058747,0.685638,0.714900,-0.123965 KneeLeft:-0.026375,0.782637,-0.095527,-0.614539 KneeRight:-0.028044,0.624765,0.023173,0.779965 Neck:0.177088,-0.048272,0.980194,-0.074361 ShoulderLeft:-0.123819,0.774296,-0.586445,0.203019 ShoulderRight:0.106878,0.770223,0.624326,0.074500 SpineBase:0.111318,-0.035363,0.992422,-0.038172 SpineMid:0.143672,-0.036591,0.988256,-0.036997 SpineShoulder:0.176985,-0.042862,0.981797,-0.053990 ThumbLeft:0.000000,0.000000,0.000000,0.000000 ThumbRight:0.000000,0.000000,0.000000,0.000000 WristLeft:-0.094039,-0.346285,-0.446053,0.819927 WristRight:0.001007,-0.335927,-0.127544,0.933212 END:
KINECT_DATA POSITION:-5.169559,-0.742988,-5.227053 HEAD_JOINT1:0.976956,0.133320,-0.000000,0.166680 LARM_JOINT2:0.866427,0.000000,-0.404105,-0.293264 LARM_JOINT3:0.929614,0.000000,-0.314117,-0.192739 LLEG_JOINT2:0.994816,0.058279,0.000000,0.083340 LLEG_JOINT4:0.993450,0.080579,0.000000,-0.081023 RARM_JOINT2:0.773974,0.000000,-0.062759,0.630099 RARM_JOINT3:0.964981,0.000000,0.202961,0.166188 RLEG_JOINT2:0.999426,-0.007573,-0.000000,-0.033006 RLEG_JOINT4:0.993091,0.117329,0.000000,0.001992 WAIST:0.993573,0.000000,-0.113158,-0.002690 WAIST_JOINT0:0.984393,0.000000,-0.175795,-0.008140 WAIST_JOINT1:0.997400,0.057046,0.000000,-0.044029 END:
KINECT_DATA_Sensor  AnkleLeft:0.082574,0.747305,-0.110304,-0.650038 AnkleRight:0.064867,0.615608,0.094261,0.779701 ElbowLeft:-0.409067,0.900356,-0.135431,-0.060681 ElbowRight:0.035473,0.783255,0.176212,0.595150 FootLeft:0.000000,0.000000,0.000000,0.000000 FootRight:0.000000,0.000000,0.000000,0.000000 HandLeft:-0.007778,-0.283498,-0.412709,0.865586 HandRight:-0.093332,0.783422,0.002706,-0.614436 HandTipLeft:0.000000,0.000000,0.000000,0.000000 HandTipRight:0.000000,0.000000,0.000000,0.000000 Head:0.000000,0.000000,0.000000,0.000000 HipLeft:0.198650,-0.666863,0.683621,-0.220214 HipRight:-0.058538,0.685946,0.714697,-0.123532 KneeLeft:-0.026412,0.782879,-0.095776,-0.614191 KneeRight:-0.028308,0.624443,0.023100,0.780215 Neck:0.177182,-0.047973,0.980192,-0.074362 ShoulderLeft:-0.123927,0.773937,-0.586866,0.203105 ShoulderRight:0.106944,0.770111,0.624453,0.074493 SpineBase:0.111718,-0.035095,0.992390,-0.038062 SpineMid:0.143926,-0.036314,0.988233,-0.036900 SpineShoulder:0.177083,-0.042576,0.981793,-0.053966 ThumbLeft:0.000000,0.000000,0.000000,0.000000 ThumbRight:0.000000,0.000000,0.000000,0.000000 WristLeft:-0.118214,-0.313241,-0.442818,0.831756 WristRight:-0.071538,0.792987,0.106790,-0.595525 END:
KINECT_DATA POSITION:-5.153993,-0.730814,-5.284512 HEAD_JOINT1:0.977395,0.133073,-0.000000,0.164286 LARM_JOINT2:0.865765,0.000000,-0.404823,-0.294227 LARM_JOINT3:0.930386,0.000000,-0.314424,-0.188467 LLEG_JOINT2:0.994937,0.056821,0.000000,0.082896 LLEG_JOINT4:0.993593,0.081577,0.000000,-0.078215 RARM_JOINT2:0.773981,0.000000,-0.067433,0.629607 RARM_JOINT3:0.963987,0.000000,0.208114,0.165584 RLEG_JOINT2:0.999412,-0.007319,-0.000000,-0.033490 RLEG_JOINT4:0.992867,0.119152,0.000000,0.004351 WAIST:0.993599,0.000000,-0.112949,-0.002087 WAIST_JOINT0:0.984941,0.000000,-0.172644,-0.009231 WAIST_JOINT1:0.997391,0.056976,0.000000,-0.044335 END:
KINECT_DATA_Sensor  AnkleLeft:0.087530,0.790403,-0.105954,-0.596972 AnkleRight:0.068220,0.616902,0.093559,0.778476 ElbowLeft:-0.409241,0.900425,-0.133284,-0.063182 ElbowRight:0.037949,0.780011,0.177671,0.598812 FootLeft:0.000000,0.000000,0.000000,0.000000 FootRight:0.000000,0.000000,0.000000,0.000000 HandLeft:-0.005704,-0.360728,-0.432037,0.826551 HandRight:-0.092226,0.775700,0.013288,-0.624185 HandTipLeft:0.000000,0.000000,0.000000,0.000000 HandTipRight:0.000000,0.000000,0.000000,0.000000 Head:0.000000,0.000000,0.000000,0.000000 HipLeft:0.198509,-0.666623,0.683994,-0.219909 HipRight:-0.058605,0.686436,0.714227,-0.123491 KneeLeft:-0.027405,0.782640,-0.094789,-0.614605 KneeRight:-0.027988,0.624619,0.023205,0.780083 Neck:0.174512,-0.047476,0.980685,-0.074487 ShoulderLeft:-0.124970,0.773562,-0.587146,0.203087 ShoulderRight:0.102987,0.769258,0.626734,0.069570 SpineBase:0.111476,-0.034922,0.992428,-0.037956 SpineMid:0.142481,-0.036093,0.988453,-0.036845 SpineShoulder:0.174407,-0.042175,0.982285,-0.054036 ThumbLeft:0.000000,0.000000,0.000000,0.000000 ThumbRight:0.000000,0.000000,0.000000,0.000000 WristLeft:-0.076007,-0.381203,-0.452226,0.802745 WristRight:-0.070464,0.784123,0.108732,-0.606930 END:
KINECT_DATA POSITION:-5.146522,-0.729784,-5.287600 HEAD_JOINT1:0.977523,0.132723,-0.000000,0.163808 LARM_JOINT2:0.865175,0.000000,-0.406325,-0.293893 LARM_JOINT3:0.931236,0.000000,-0.310896,-0.190113 LLEG_JOINT2:0.994955,0.056580,0.000000,0.082839 LLEG_JOINT4:0.993383,0.082676,0.000000,-0.079714 RARM_JOINT2:0.774500,0.000000,-0.066204,0.629100 RARM_JOINT3:0.963779,0.000000,0.207003,0.168168 RLEG_JOINT2:0.999393,-0.008166,-0.000000,-0.033880 RLEG_JOINT4:0.993146,0.116858,0.000000,0.002191 WAIST:0.993618,0.000000,-0.112776,-0.002051 WAIST_JOINT0:0.984768,0.000000,-0.173633,-0.009185 WAIST_JOINT1:0.997388,0.057043,0.000000,-0.044297 END:
KINECT_DATA_Sensor  AnkleLeft:0.089349,0.790598,-0.105513,-0.596522 AnkleRight:0.064166,0.617092,0.093609,0.778664 ElbowLeft:-0.410156,0.900181,-0.132036,-0.063351 ElbowRight:0.037172,0.781284,0.177920,0.597124 FootLeft:0.000000,0.000000,0.000000,0.000000 FootRight:0.000000,0.000000,0.000000,0.000000 HandLeft:-0.040682,-0.327002,-0.420361,0.845406 HandRight:-0.098142,0.777136,0.006538,-0.621599 HandTipLeft:0.000000,0.000000,0.000000,0.000000 HandTipRight:0.000000,0.000000,0.000000,0.000000 Head:0.000000,0.000000,0.000000,0.000000 HipLeft:0.198360,-0.666597,0.684083,-0.219844 HipRight:-0.058690,0.686419,0.714222,-0.123575 KneeLeft:-0.027524,0.782514,-0.094594,-0.614790 KneeRight:-0.028872,0.624766,0.022955,0.779940 Neck:0.175404,-0.047496,0.980524,-0.074506 ShoulderLeft:-0.125266,0.773610,-0.586845,0.203593 ShoulderRight:0.103754,0.769417,0.626299,0.070581 SpineBase:0.111303,-0.034834,0.992449,-0.037992 SpineMid:0.142836,-0.036025,0.988403,-0.036864 SpineShoulder:0.175303,-0.042166,0.982125,-0.054047 ThumbLeft:0.000000,0.000000,0.000000,0.000000 ThumbRight:0.000000,0.000000,0.000000,0.000000 WristLeft:-0.097173,-0.339931,-0.448684,0.820784 WristRight:-0.071234,0.787558,0.108327,-0.602447 END:
KINECT_DATA POSITION:-5.190250,-0.734352,-5.261838 HEAD_JOINT1:0.977265,0.133977,-0.000000,0.164325 LARM_JOINT2:0.864695,0.000000,-0.407077,-0.294261 LARM_JOINT3:0.930052,0.000000,-0.314887,-0.189338 LLEG_JOINT2:0.994955,0.056373,0.000000,0.082987 LLEG_JOINT4:0.992690,0.083715,0.000000,-0.086941 RARM_JOINT2:0.774215,0.000000,-0.066477,0.629422 RARM_JOINT3:0.963348,0.000000,0.207982,0.169422 RLEG_JOINT2:0.999421,-0.008809,-0.000000,-0.032859 RLEG_JOINT4:0.993057,0.117631,0.000000,0.001220 WAIST:0.993639,0.000000,-0.112594,-0.002159 WAIST_JOINT0:0.984515,0.000000,-0.174991,-0.010415 WAIST_JOINT1:0.997364,0.057427,0.000000,-0.044352 END:
KINECT_DATA_Sensor  AnkleLeft:0.085520,0.731278,-0.109805,-0.667729 AnkleRight:0.064087,0.616253,0.093831,0.779308 ElbowLeft:-0.409884,0.900446,-0.131137,-0.063217 ElbowRight:0.037734,0.781251,0.177908,0.597136 FootLeft:0.000000,0.000000,0.000000,0.000000 FootRight:0.000000,0.000000,0.000000,0.000000 HandLeft:-0.344341,0.366714,-0.264996,0.822635 HandRight:-0.102480,0.776322,0.005724,-0.621924 HandTipLeft:0.000000,0.000000,0.000000,0.000000 HandTipRight:0.000000,0.000000,0.000000,0.000000 Head:0.000000,0.000000,0.000000,0.000000 HipLeft:0.198453,-0.666640,0.683984,-0.219940 HipRight:-0.058894,0.686252,0.714269,-0.124133 KneeLeft:-0.027678,0.782395,-0.094455,-0.614955 KneeRight:-0.028821,0.624978,0.021830,0.779805 Neck:0.176971,-0.047749,0.980200,-0.074890 ShoulderLeft:-0.128064,0.774062,-0.584691,0.206311 ShoulderRight:0.103107,0.769172,0.626763,0.070077 SpineBase:0.111110,-0.035151,0.992453,-0.038146 SpineMid:0.143496,-0.036380,0.988291,-0.036976 SpineShoulder:0.176870,-0.042426,0.981818,-0.054311 ThumbLeft:0.000000,0.000000,0.000000,0.000000 ThumbRight:0.000000,0.000000,0.000000,0.000000 WristLeft:-0.386442,0.342274,-0.247511,0.819908 WristRight:-0.071787,0.787711,0.108043,-0.602233 END:
KINECT_DATA POSITION:-5.208653,-0.731912,-5.252218 HEAD_JOINT1:0.977169,0.134805,-0.000000,0.164218 LARM_JOINT2:0.863737,0.000000,-0.408630,-0.294922 LARM_JOINT3:0.930321,0.000000,-0.314645,-0.188420 LLEG_JOINT2:0.994937,0.056507,0.000000,0.083106 LLEG_JOINT4:0.993073,0.083091,0.000000,-0.083072 RARM_JOINT2:0.774309,0.000000,-0.064654,0.629496 RARM_JOINT3:0.963165,0.000000,0.208680,0.169605 RLEG_JOINT2:0.999402,-0.007796,-0.000000,-0.033674 RLEG_JOINT4:0.993213,0.116283,0.000000,0.002291 WAIST:0.993638,0.000000,-0.112597,-0.002140 WAIST_JOINT0:0.984360,0.000000,-0.175864,-0.010396 WAIST_JOINT1:0.997354,0.057636,0.000000,-0.044311 END:
KINECT_DATA_Sensor  AnkleLeft:0.084740,0.747975,-0.109665,-0.649096 AnkleRight:0.063930,0.615749,0.093445,0.779765 ElbowLeft:-0.409944,0.900716,-0.129603,-0.062126 ElbowRight:0.037118,0.783114,0.177377,0.594888 FootLeft:0.000000,0.000000,0.000000,0.000000 FootRight:0.000000,0.000000,0.000000,0.000000 HandLeft:-0.099688,-0.215327,-0.422217,0.874888 HandRight:-0.108276,0.780732,0.010300,-0.615327 HandTipLeft:0.000000,0.000000,0.000000,0.000000 HandTipRight:0.000000,0.000000,0.000000,0.000000 Head:0.000000,0.000000,0.000000,0.000000 HipLeft:0.198631,-0.666536,0.683961,-0.220166 HipRight:-0.059115,0.686181,0.714259,-0.124478 KneeLeft:-0.027698,0.782397,-0.094648,-0.614923 KneeRight:-0.028520,0.624931,0.023082,0.779817 Neck:0.177803,-0.047705,0.980035,-0.075106 ShoulderLeft:-0.128236,0.774015,-0.584516,0.206878 ShoulderRight:0.103960,0.769167,0.626539,0.070874 SpineBase:0.111108,-0.035154,0.992450,-0.038234 SpineMid:0.143902,-0.036400,0.988228,-0.037049 SpineShoulder:0.177701,-0.042415,0.981660,-0.054468 ThumbLeft:0.000000,0.000000,0.000000,0.000000 ThumbRight:0.000000,0.000000,0.000000,0.000000 WristLeft:-0.155160,-0.234303,-0.432523,0.856710 WristRight:-0.072694,0.792159,0.106614,-0.596517 END:
KINECT_DATA POSITION:-5.248241,-0.706711,-5.255151 HEAD_JOINT1:0.977321,0.134260,-0.000000,0.163762 LARM_JOINT2:0.863174,0.000000,-0.408819,-0.296305 LARM_JOINT3:0.931326,0.000000,-0.313759,-0.184896 LLEG_JOINT2:0.994934,0.056927,0.000000,0.082862 LLEG_JOINT4:0.993303,0.080588,0.000000,-0.082790 RARM_JOINT2:0.773663,0.000000,-0.068981,0.629831 RARM_JOINT3:0.962608,0.000000,0.209532,0.171702 RLEG_JOINT2:0.999392,-0.008776,-0.000000,-0.033746 RLEG_JOINT4:0.992858,0.119230,0.000000,0.004204 WAIST:0.993634,0.000000,-0.112639,-0.002194 WAIST_JOINT0:0.984932,0.000000,-0.172542,-0.011720 WAIST_JOINT1:0.997339,0.058028,0.000000,-0.044142 END:
KINECT_DATA_Sensor  AnkleLeft:0.085350,0.759467,-0.106555,-0.636059 AnkleRight:0.066808,0.617339,0.093105,0.778306 ElbowLeft:-0.409170,0.901207,-0.127730,-0.063961 ElbowRight:0.040400,0.780924,0.178019,0.597356 FootLeft:0.000000,0.000000,0.000000,0.000000 FootRight:0.000000,0.000000,0.000000,0.000000 HandLeft:-0.092404,-0.198077,-0.424686,0.878561 HandRight:-0.108251,0.815897,-0.001441,-0.567971 HandTipLeft:0.000000,0.000000,0.000000,0.000000 HandTipRight:0.000000,0.000000,0.000000,0.000000 Head:0.000000,0.000000,0.000000,0.000000 HipLeft:0.198469,-0.666516,0.683943,-0.220427 HipRight:-0.058845,0.686170,0.714275,-0.124578 KneeLeft:-0.027209,0.782441,-0.094783,-0.614867 KneeRight:-0.029368,0.624935,0.022571,0.779797 Neck:0.174981,-0.047333,0.980519,-0.075658 ShoulderLeft:-0.128234,0.773811,-0.584888,0.206590 ShoulderRight:0.100875,0.767914,0.629113,0.065945 SpineBase:0.111143,-0.035104,0.992436,-0.038537 SpineMid:0.142526,-0.036307,0.988417,-0.037406 SpineShoulder:0.174876,-0.042123,0.982152,-0.054963 ThumbLeft:0.000000,0.000000,0.000000,0.000000 ThumbRight:0.000000,0.000000,0.000000,0.000000 WristLeft:-0.160923,-0.223542,-0.431193,0.859189 WristRight:-0.078975,0.826126,0.101187,-0.548671 END:
KINECT_DATA POSITION:-5.291289,-0.717136,-5.244303 HEAD_JOINT1:0.977236,0.135200,-0.000000,0.163495 LARM_JOINT2:0.866804,0.000000,-0.405385,-0.290367 LARM_JOINT3:0.929409,0.000000,-0.318201,-0.186942 LLEG_JOINT2:0.994874,0.056821,0.000000,0.083654 LLEG_JOINT4:0.993331,0.082680,0.000000,-0.080353 RARM_JOINT2:0.774077,0.000000,-0.065792,0.629664 RARM_JOINT3:0.961721,0.000000,0.212713,0.172757 RLEG_JOINT2:0.999408,-0.009171,-0.000000,-0.033161 RLEG_JOINT4:0.992957,0.118378,0.000000,0.004726 WAIST:0.993699,0.000000,-0.112053,-0.002395 WAIST_JOINT0:0.985261,0.000000,-0.170754,-0.010145 WAIST_JOINT1:0.997382,0.057487,0.000000,-0.043858 END:
KINECT_DATA_Sensor  AnkleLeft:0.089511,0.789143,-0.105637,-0.598400 AnkleRight:0.066383,0.618482,0.091610,0.777612 ElbowLeft:-0.412231,0.898603,-0.133483,-0.068997 ElbowRight:0.038441,0.785253,0.177057,0.592073 FootLeft:0.000000,0.000000,0.000000,0.000000 FootRight:0.000000,0.000000,0.000000,0.000000 HandLeft:-0.271594,0.825396,0.346694,-0.353216 HandRight:-0.125607,0.780371,0.021891,-0.612181 HandTipLeft:0.000000,0.000000,0.000000,0.000000 HandTipRight:0.000000,0.000000,0.000000,0.000000 Head:0.000000,0.000000,0.000000,0.000000 HipLeft:0.198251,-0.666896,0.683849,-0.219766 HipRight:-0.059223,0.686108,0.714332,-0.124411 KneeLeft:-0.027689,0.782086,-0.095074,-0.615253 KneeRight:-0.029470,0.625383,0.021993,0.779451 Neck:0.172966,-0.047164,0.980934,-0.075016 ShoulderLeft:-0.124843,0.773854,-0.586785,0.203094 ShoulderRight:0.101342,0.768624,0.628088,0.066733 SpineBase:0.110588,-0.035201,0.992511,-0.038108 SpineMid:0.141246,-0.036363,0.988614,-0.037000 SpineShoulder:0.172849,-0.042032,0.982542,-0.054473 ThumbLeft:0.000000,0.000000,0.000000,0.000000 ThumbRight:0.000000,0.000000,0.000000,0.000000 WristLeft:-0.257259,0.822289,0.384152,-0.331791 WristRight:-0.073630,0.793398,0.104117,-0.595195 END:
KINECT_DATA POSITION:-5.245021,-0.778198,-5.105889 HEAD_JOINT1:0.978773,0.138319,-0.000000,0.151234 LARM_JOINT2:0.874362,0.000000,-0.394906,-0.282027 LARM_JOINT3:0.922935,0.000000,-0.329309,-0.199364 LLEG_JOINT2:0.995292,0.055920,0.000000,0.079161 LLEG_JOINT4:0.993950,0.083500,0.000000,-0.071358 RARM_JOINT2:0.779208,0.000000,-0.058440,0.624035 RARM_JOINT3:0.960439,0.000000,0.213564,0.178736 RLEG_JOINT2:0.999367,-0.003623,-0.000000,-0.035397 RLEG_JOINT4:0.993164,0.116648,0.000000,0.004283 WAIST:0.994996,0.000000,-0.099918,-0.000221 WAIST_JOINT0:0.987594,0.000000,-0.156984,-0.003825 WAIST_JOINT1:0.997723,0.053358,0.000000,-0.041257 END:
KINECT_DATA_Sensor  AnkleLeft:0.086104,0.783010,-0.108952,-0.606309 AnkleRight:0.067954,0.626825,0.095432,0.770302 ElbowLeft:-0.415891,0.891977,-0.155085,-0.085795 ElbowRight:0.029426,0.802866,0.176172,0.568774 FootLeft:0.000000,0.000000,0.000000,0.000000 FootRight:0.000000,0.000000,0.000000,0.000000 HandLeft:-0.078614,-0.237040,-0.418908,0.873011 HandRight:-0.142204,0.766457,0.034220,-0.625420 HandTipLeft:0.000000,0.000000,0.000000,0.000000 HandTipRight:0.000000,0.000000,0.000000,0.000000 Head:0.000000,0.000000,0.000000,0.000000 HipLeft:0.193717,-0.668016,0.686042,-0.213484 HipRight:-0.069598,0.687082,0.711201,-0.131408 KneeLeft:-0.025165,0.774459,-0.093397,-0.625186 KneeRight:-0.025297,0.634539,0.025334,0.772061 Neck:0.159112,-0.042205,0.983940,-0.069019 ShoulderLeft:-0.117418,0.774581,-0.591900,0.189451 ShoulderRight:0.089951,0.774087,0.623815,0.059603 SpineBase:0.098500,-0.033269,0.993936,-0.035816 SpineMid:0.128244,-0.034327,0.990537,-0.034803 SpineShoulder:0.158936,-0.038364,0.985254,-0.050428 ThumbLeft:0.000000,0.000000,0.000000,0.000000 ThumbRight:0.000000,0.000000,0.000000,0.000000 WristLeft:-0.137121,-0.251409,-0.448495,0.846666 WristRight:-0.081125,0.780930,0.104089,-0.610518 END:
KINECT_DATA POSITION:-5.087051,-0.962681,-4.954910 HEAD_JOINT1:0.980619,0.144410,-0.000000,0.132410 LARM_JOINT2:0.890399,0.000000,-0.371941,-0.262392 LARM_JOINT3:0.908408,0.000000,-0.362828,-0.207727 LLEG_JOINT2:0.995608,0.053758,0.000000,0.076643 LLEG_JOINT4:0.994319,0.080570,0.000000,-0.069558 RARM_JOINT2:0.786076,0.000000,-0.056685,0.615525 RARM_JOINT3:0.959486,0.000000,0.212027,0.185556 RLEG_JOINT2:0.999401,0.001245,0.000000,-0.034598 RLEG_JOINT4:0.993490,0.113840,0.000000,0.004230 WAIST:0.996841,0.000000,-0.079418,-0.000328 WAIST_JOINT0:0.991999,0.000000,-0.126238,0.001091 WAIST_JOINT1:0.998218,0.049227,0.000000,-0.033734 END:
KINECT_DATA_Sensor  AnkleLeft:0.078804,0.730184,-0.108144,-0.670019 AnkleRight:0.068302,0.645441,0.097386,0.754491 ElbowLeft:-0.419654,0.878003,-0.198720,-0.116239 ElbowRight:0.022426,0.823072,0.177504,0.539019 FootLeft:0.000000,0.000000,0.000000,0.000000 FootRight:0.000000,0.000000,0.000000,0.000000 HandLeft:-0.358006,0.407107,-0.283294,0.791100 HandRight:-0.155430,0.736502,0.039168,-0.657170 HandTipLeft:0.000000,0.000000,0.000000,0.000000 HandTipRight:0.000000,0.000000,0.000000,0.000000 Head:0.000000,0.000000,0.000000,0.000000 HipLeft:0.180716,-0.673436,0.688167,-0.200628 HipRight:-0.083788,0.687413,0.707952,-0.138732 KneeLeft:-0.022714,0.761346,-0.090529,-0.641593 KneeRight:-0.021677,0.649741,0.027410,0.759352 Neck:0.128545,-0.034757,0.988999,-0.064420 ShoulderLeft:-0.099210,0.779844,-0.596176,0.163018 ShoulderRight:0.067434,0.781182,0.619426,0.038985 SpineBase:0.078368,-0.028622,0.995996,-0.032107 SpineMid:0.102946,-0.029406,0.993757,-0.031390 SpineShoulder:0.128336,-0.031860,0.990169,-0.045617 ThumbLeft:0.000000,0.000000,0.000000,0.000000 ThumbRight:0.000000,0.000000,0.000000,0.000000 WristLeft:-0.389532,0.387090,-0.266662,0.792034 WristRight:-0.083844,0.753505,0.102211,-0.644013 END:
KINECT_DATA POSITION:-4.998910,-1.149101,-4.974878 HEAD_JOINT1:0.981717,0.151764,-0.000000,0.114885 LARM_JOINT2:0.889250,0.000000,-0.348145,-0.296699 LARM_JOINT3:0.911423,0.000000,-0.398430,-0.102767 LLEG_JOINT2:0.996146,0.040513,0.000000,0.077794 LLEG_JOINT4:0.994304,0.091037,0.000000,-0.055425 RARM_JOINT2:0.789056,0.000000,-0.061819,0.611203 RARM_JOINT3:0.960229,0.000000,0.213037,0.180489 RLEG_JOINT2:0.999468,0.008381,0.000000,-0.031506 RLEG_JOINT4:0.994214,0.107116,0.000000,0.008003 WAIST:0.999113,0.000000,-0.042040,-0.002536 WAIST_JOINT0:0.996252,0.000000,-0.086469,0.002063 WAIST_JOINT1:0.998467,0.050840,0.000000,-0.021890 END:
KINECT_DATA_Sensor  AnkleLeft:0.078273,0.749031,-0.106722,-0.649182 AnkleRight:0.067371,0.669194,0.097044,0.733637 ElbowLeft:-0.405341,0.857830,-0.167300,-0.268025 ElbowRight:0.020565,0.835885,0.176870,0.519220 FootLeft:0.000000,0.000000,0.000000,0.000000 FootRight:0.000000,0.000000,0.000000,0.000000 HandLeft:-0.547609,0.821599,-0.035624,0.154368 HandRight:-0.155966,0.731092,0.025544,-0.663722 HandTipLeft:0.000000,0.000000,0.000000,0.000000 HandTipRight:0.000000,0.000000,0.000000,0.000000 Head:0.000000,0.000000,0.000000,0.000000 HipLeft:0.151306,-0.683456,0.691943,-0.176660 HipRight:-0.102217,0.685598,0.704609,-0.151766 KneeLeft:-0.027774,0.736040,-0.080788,-0.671526 KneeRight:-0.016908,0.677191,0.030679,0.734973 Neck:0.087054,-0.026345,0.993679,-0.065793 ShoulderLeft:-0.056800,0.785487,-0.604119,0.121756 ShoulderRight:0.055347,0.785217,0.616535,0.015954 SpineBase:0.041442,-0.022401,0.998423,-0.030544 SpineMid:0.063789,-0.023079,0.997244,-0.030035 SpineShoulder:0.086874,-0.023994,0.994878,-0.045782 ThumbLeft:0.000000,0.000000,0.000000,0.000000 ThumbRight:0.000000,0.000000,0.000000,0.000000 WristLeft:-0.524550,0.823992,0.047077,0.208968 WristRight:-0.085516,0.749323,0.095673,-0.649652 END:
KINECT_DATA POSITION:-4.803200,-1.310266,-5.045187 HEAD_JOINT1:0.982632,0.156316,-0.000000,0.100002 LARM_JOINT2:0.920855,0.000000,-0.331404,-0.205422 LARM_JOINT3:0.912262,0.000000,-0.382953,-0.145348 LLEG_JOINT2:0.996942,0.030869,0.000000,0.071788 LLEG_JOINT4:0.994993,0.089211,0.000000,-0.045066 RARM_JOINT2:0.795796,0.000000,-0.055801,0.602989 RARM_JOINT3:0.959373,0.000000,0.215380,0.182250 RLEG_JOINT2:0.999274,0.014594,0.000000,-0.035191 RLEG_JOINT4:0.994694,0.101488,0.000000,0.016858 WAIST:0.999929,0.000000,-0.011956,-0.000112 WAIST_JOINT0:0.998295,0.000000,-0.057848,0.007749 WAIST_JOINT1:0.998597,0.050669,0.000000,-0.015414 END:
KINECT_DATA_Sensor  AnkleLeft:0.069351,0.735573,-0.101013,-0.666273 AnkleRight:0.069421,0.685231,0.094626,0.718808 ElbowLeft:-0.433388,0.823724,-0.287056,-0.226391 ElbowRight:0.010992,0.853797,0.177046,0.489453 FootLeft:0.000000,0.000000,0.000000,0.000000 FootRight:0.000000,0.000000,0.000000,0.000000 HandLeft:0.057461,-0.081635,-0.525072,0.845182 HandRight:0.171022,-0.642123,-0.033315,0.746539 HandTipLeft:0.000000,0.000000,0.000000,0.000000 HandTipRight:0.000000,0.000000,0.000000,0.000000 Head:0.000000,0.000000,0.000000,0.000000 HipLeft:0.130495,-0.685419,0.698562,-0.158689 HipRight:-0.120140,0.683191,0.700949,-0.165794 KneeLeft:-0.029556,0.714916,-0.072227,-0.694841 KneeRight:-0.014185,0.698827,0.035468,0.714270 Neck:0.058037,-0.018069,0.996003,-0.065443 ShoulderLeft:-0.032673,0.786425,-0.609430,0.095197 ShoulderRight:0.041849,0.790648,0.610833,-0.002634 SpineBase:0.011448,-0.016541,0.999347,-0.030021 SpineMid:0.034299,-0.017224,0.998824,-0.029635 SpineShoulder:0.057860,-0.016978,0.997158,-0.045163 ThumbLeft:0.000000,0.000000,0.000000,0.000000 ThumbRight:0.000000,0.000000,0.000000,0.000000 WristLeft:-0.011939,-0.126123,-0.497525,0.858149 WristRight:0.080117,-0.647554,-0.104931,0.750497 END:
KINECT_DATA POSITION:-4.735922,-1.357693,-5.103004 HEAD_JOINT1:0.984089,0.154480,-0.000000,0.087778 LARM_JOINT2:0.916123,0.000000,-0.326997,-0.231932 LARM_JOINT3:0.951973,0.000000,-0.302069,-0.050020 LLEG_JOINT2:0.997245,0.027861,0.000000,0.068745 LLEG_JOINT4:0.995012,0.091729,0.000000,-0.039196 RARM_JOINT2:0.799089,0.000000,-0.054913,0.598699 RARM_JOINT3:0.961129,0.000000,0.207805,0.181789 RLEG_JOINT2:0.999178,0.015783,0.000000,-0.037328 RLEG_JOINT4:0.994380,0.103914,0.000000,0.020249 WAIST:0.999997,-0.000000,0.001723,0.001789 WAIST_JOINT0:0.999001,0.000000,-0.043327,0.010979 WAIST_JOINT1:0.998631,0.050818,0.000000,-0.012419 END:
KINECT_DATA_Sensor  AnkleLeft:0.067484,0.728208,-0.103039,-0.674198 AnkleRight:0.072666,0.692932,0.096096,0.710866 ElbowLeft:-0.438784,0.803576,-0.241928,-0.321255 ElbowRight:0.008415,0.861936,0.177450,0.474876 FootLeft:0.000000,0.000000,0.000000,0.000000 FootRight:0.000000,0.000000,0.000000,0.000000 HandLeft:0.151270,0.054935,-0.528825,0.833333 HandRight:0.141313,-0.630018,-0.010657,0.763541 HandTipLeft:0.000000,0.000000,0.000000,0.000000 HandTipRight:0.000000,0.000000,0.000000,0.000000 Head:0.000000,0.000000,0.000000,0.000000 HipLeft:0.121471,-0.685160,0.702277,-0.150361 HipRight:-0.128388,0.682368,0.699055,-0.170917 KneeLeft:-0.029920,0.705159,-0.069679,-0.704983 KneeRight:-0.014000,0.708500,0.036278,0.704638 Neck:0.043472,-0.014116,0.996786,-0.065796 ShoulderLeft:-0.024270,0.787398,-0.610093,0.084866 ShoulderRight:0.031516,0.794858,0.605794,-0.014850 SpineBase:-0.002200,-0.012776,0.999489,-0.029214 SpineMid:0.020243,-0.013428,0.999287,-0.028920 SpineShoulder:0.043381,-0.012652,0.997953,-0.045250 ThumbLeft:0.000000,0.000000,0.000000,0.000000 ThumbRight:0.000000,0.000000,0.000000,0.000000 WristLeft:0.057723,-0.003053,-0.519230,0.852678 WristRight:0.083720,-0.635059,-0.103721,0.760876 END:
KINECT_DATA POSITION:-4.735959,-1.369721,-5.089641 HEAD_JOINT1:0.984518,0.153849,-0.000000,0.083996 LARM_JOINT2:0.917528,0.000000,-0.325402,-0.228594 LARM_JOINT3:0.969623,0.000000,-0.243890,0.018681 LLEG_JOINT2:0.997363,0.027333,0.000000,0.067233 LLEG_JOINT4:0.995118,0.092303,0.000000,-0.034934 RARM_JOINT2:0.799747,0.000000,-0.054308,0.597876 RARM_JOINT3:0.962793,0.000000,0.202330,0.179141 RLEG_JOINT2:0.999128,0.016310,0.000000,-0.038441 RLEG_JOINT4:0.994233,0.104672,0.000000,0.023347 WAIST:0.999983,-0.000000,0.005240,0.002694 WAIST_JOINT0:0.999095,0.000000,-0.041514,0.009304 WAIST_JOINT1:0.998608,0.051335,0.000000,-0.012116 END:
KINECT_DATA_Sensor  AnkleLeft:0.065698,0.727482,-0.105381,-0.674795 AnkleRight:0.075061,0.693604,0.095428,0.710052 ElbowLeft:-0.463866,0.760159,-0.197975,-0.409625 ElbowRight:0.007859,0.863657,0.177398,0.471767 FootLeft:0.000000,0.000000,0.000000,0.000000 FootRight:0.000000,0.000000,0.000000,0.000000 HandLeft:0.133046,0.176743,-0.571807,0.789999 HandRight:0.120312,-0.654262,0.006318,0.746610 HandTipLeft:0.000000,0.000000,0.000000,0.000000 HandTipRight:0.000000,0.000000,0.000000,0.000000 Head:0.000000,0.000000,0.000000,0.000000 HipLeft:0.120782,-0.684233,0.703375,-0.150001 HipRight:-0.131705,0.682095,0.698207,-0.172937 KneeLeft:0.029638,-0.702638,0.068969,0.707577 KneeRight:-0.013913,0.710966,0.036743,0.702128 Neck:0.041584,-0.013574,0.996842,-0.066270 ShoulderLeft:-0.021966,0.787487,-0.610281,0.083302 ShoulderRight:0.031461,0.793635,0.607358,-0.016426 SpineBase:-0.005705,-0.010870,0.999503,-0.029023 SpineMid:0.017598,-0.011544,0.999365,-0.028762 SpineShoulder:0.041544,-0.011614,0.998021,-0.045761 ThumbLeft:0.000000,0.000000,0.000000,0.000000 ThumbRight:0.000000,0.000000,0.000000,0.000000 WristLeft:0.084696,0.149447,-0.546673,0.819537 WristRight:0.087054,-0.659240,-0.100086,0.740140 END:
KINECT_DATA POSITION:-4.773250,-1.350168,-5.044258 HEAD_JOINT1:0.984511,0.153218,-0.000000,0.085223 LARM_JOINT2:0.922486,0.000000,-0.317869,-0.219039 LARM_JOINT3:0.973902,0.000000,-0.219426,0.058035 LLEG_JOINT2:0.997465,0.025806,0.000000,0.066314 LLEG_JOINT4:0.994931,0.093553,0.000000,-0.036876 RARM_JOINT2:0.799570,0.000000,-0.054855,0.598062 RARM_JOINT3:0.964610,0.000000,0.196492,0.175838 RLEG_JOINT2:0.999092,0.015179,0.000000,-0.039805 RLEG_JOINT4:0.993895,0.106347,0.000000,0.029391 WAIST:0.999967,-0.000000,0.007358,0.003385 WAIST_JOINT0:0.998939,0.000000,-0.045332,0.008144 WAIST_JOINT1:0.998572,0.051997,0.000000,-0.012239 END:
KINECT_DATA_Sensor  AnkleLeft:0.067632,0.729161,-0.103115,-0.673140 AnkleRight:0.078575,0.690856,0.092698,0.712707 ElbowLeft:-0.485126,0.710212,-0.164541,-0.482884 ElbowRight:0.008013,0.862555,0.177247,0.473834 FootLeft:0.000000,0.000000,0.000000,0.000000 FootRight:0.000000,0.000000,0.000000,0.000000 HandLeft:0.147490,0.204958,-0.593075,0.764527 HandRight:0.106344,-0.667302,0.023686,0.736775 HandTipLeft:0.000000,0.000000,0.000000,0.000000 HandTipRight:0.000000,0.000000,0.000000,0.000000 Head:0.000000,0.000000,0.000000,0.000000 HipLeft:0.120172,-0.683021,0.704660,-0.149981 HipRight:-0.133494,0.681534,0.698153,-0.173991 KneeLeft:0.030440,-0.701047,0.067784,0.709234 KneeRight:-0.015272,0.712445,0.036373,0.700619 Neck:0.045190,-0.013726,0.996646,-0.066822 ShoulderLeft:-0.023364,0.787439,-0.609892,0.086166 ShoulderRight:0.034679,0.793217,0.607799,-0.013601 SpineBase:-0.007821,-0.009391,0.999498,-0.029238 SpineMid:0.018369,-0.010154,0.999360,-0.028982 SpineShoulder:0.045187,-0.011400,0.997837,-0.046361 ThumbLeft:0.000000,0.000000,0.000000,0.000000 ThumbRight:0.000000,0.000000,0.000000,0.000000 WristLeft:0.122333,0.194958,-0.569746,0.788933 WristRight:0.084654,-0.672479,-0.098342,0.728653 END:
KINECT_DATA POSITION:-4.816042,-1.289415,-4.988706 HEAD_JOINT1:0.984686,0.151457,-0.000000,0.086338 LARM_JOINT2:0.928461,0.000000,-0.319227,-0.189877 LARM_JOINT3:0.977572,0.000000,-0.205938,0.044074 LLEG_JOINT2:0.997457,0.024583,0.000000,0.066903 LLEG_JOINT4:0.994666,0.095892,0.000000,-0.038015 RARM_JOINT2:0.799956,0.000000,-0.046331,0.598268 RARM_JOINT3:0.965612,0.000000,0.193217,0.173958 RLEG_JOINT2:0.999111,0.015301,0.000000,-0.039278 RLEG_JOINT4:0.994024,0.105817,0.000000,0.026830 WAIST:0.999975,-0.000000,0.006022,0.003806 WAIST_JOINT0:0.998477,0.000000,-0.055124,0.002298 WAIST_JOINT1:0.998523,0.052816,0.000000,-0.012765 END:
KINECT_DATA_Sensor  AnkleLeft:0.073911,0.764922,-0.099994,-0.632007 AnkleRight:0.076687,0.685768,0.093881,0.717654 ElbowLeft:-0.502903,0.708277,-0.184611,-0.459729 ElbowRight:0.004132,0.866412,0.174785,0.467721 FootLeft:0.000000,0.000000,0.000000,0.000000 FootRight:0.000000,0.000000,0.000000,0.000000 HandLeft:0.175975,0.164245,-0.582760,0.776174 HandRight:0.112667,-0.667010,0.018134,0.736257 HandTipLeft:0.000000,0.000000,0.000000,0.000000 HandTipRight:0.000000,0.000000,0.000000,0.000000 Head:0.000000,0.000000,0.000000,0.000000 HipLeft:0.121392,-0.681707,0.705413,-0.151434 HipRight:-0.133011,0.681225,0.698704,-0.173361 KneeLeft:0.032115,-0.701888,0.067603,0.708345 KneeRight:-0.014463,0.711533,0.035815,0.701590 Neck:0.054841,-0.014471,0.996095,-0.067655 ShoulderLeft:-0.024993,0.786400,-0.610420,0.091312 ShoulderRight:0.045506,0.787103,0.615126,-0.004259 SpineBase:-0.006498,-0.008794,0.999504,-0.029534 SpineMid:0.023877,-0.009687,0.999240,-0.029253 SpineShoulder:0.054866,-0.011851,0.997314,-0.047054 ThumbLeft:0.000000,0.000000,0.000000,0.000000 ThumbRight:0.000000,0.000000,0.000000,0.000000 WristLeft:0.168678,0.165966,-0.563778,0.791301 WristRight:0.082950,-0.671892,-0.097703,0.729475 END:
KINECT_DATA POSITION:-4.860631,-1.257785,-4.974902 HEAD_JOINT1:0.984591,0.151676,-0.000000,0.087034 LARM_JOINT2:0.928955,0.000000,-0.320274,-0.185652 LARM_JOINT3:0.976744,0.000000,-0.208291,0.050854 LLEG_JOINT2:0.997407,0.024812,0.000000,0.067560 LLEG_JOINT4:0.994614,0.095982,0.000000,-0.039115 RARM_JOINT2:0.800096,0.000000,-0.049043,0.597863 RARM_JOINT3:0.965356,0.000000,0.193199,0.175389 RLEG_JOINT2:0.999150,0.014866,0.000000,-0.038452 RLEG_JOINT4:0.994048,0.106050,0.000000,0.024931 WAIST:0.999978,-0.000000,0.005460,0.003788 WAIST_JOINT0:0.998293,0.000000,-0.058397,0.000959 WAIST_JOINT1:0.998516,0.052840,0.000000,-0.013165 END:
KINECT_DATA_Sensor  AnkleLeft:0.069770,0.735674,-0.103146,-0.665791 AnkleRight:0.081974,0.732060,0.089151,0.670388 ElbowLeft:0.516847,-0.676596,0.152383,0.501864 ElbowRight:0.005773,0.865689,0.176449,0.468418 FootLeft:0.000000,0.000000,0.000000,0.000000 FootRight:0.000000,0.000000,0.000000,0.000000 HandLeft:0.163925,0.165194,-0.556685,0.797459 HandRight:0.107633,-0.663334,0.020890,0.740248 HandTipLeft:0.000000,0.000000,0.000000,0.000000 HandTipRight:0.000000,0.000000,0.000000,0.000000 Head:0.000000,0.000000,0.000000,0.000000 HipLeft:0.121934,-0.681464,0.705524,-0.151575 HipRight:-0.132628,0.681108,0.699018,-0.172843 KneeLeft:0.032434,-0.702277,0.068203,0.707887 KneeRight:-0.014174,0.711152,0.034946,0.702026 Neck:0.058105,-0.014920,0.995906,-0.067613 ShoulderLeft:-0.027136,0.786138,-0.610281,0.093850 ShoulderRight:0.047570,0.785884,0.616539,-0.001820 SpineBase:-0.005941,-0.009026,0.999510,-0.029390 SpineMid:0.025775,-0.009954,0.999195,-0.029089 SpineShoulder:0.058118,-0.012407,0.997124,-0.047028 ThumbLeft:0.000000,0.000000,0.000000,0.000000 ThumbRight:0.000000,0.000000,0.000000,0.000000 WristLeft:0.176211,0.161150,-0.588742,0.772246 WristRight:0.082582,-0.668266,-0.097796,0.732828 END:
KINECT_DATA POSITION:-4.955584,-1.212166,-5.121160 HEAD_JOINT1:0.984550,0.150556,-0.000000,0.089410 LARM_JOINT2:0.928610,0.000000,-0.327534,-0.174371 LARM_JOINT3:0.976501,0.000000,-0.210222,0.047470 LLEG_JOINT2:0.997330,0.023938,0.000000,0.068990 LLEG_JOINT4:0.994690,0.094808,0.000000,-0.040049 RARM_JOINT2:0.800233,0.000000,-0.052983,0.597344 RARM_JOINT3:0.965262,0.000000,0.191432,0.177829 RLEG_JOINT2:0.999234,0.013875,0.000000,-0.036579 RLEG_JOINT4:0.993987,0.107367,0.000000,0.021516 WAIST:0.999992,-0.000000,0.002259,0.003430 WAIST_JOINT0:0.998105,0.000000,-0.061526,-0.000261 WAIST_JOINT1:0.998472,0.053537,0.000000,-0.013664 END:
KINECT_DATA_Sensor  AnkleLeft:0.070686,0.756500,-0.100177,-0.642399 AnkleRight:0.074877,0.682520,0.095841,0.720677 ElbowLeft:0.523977,-0.684285,0.156752,0.482318 ElbowRight:0.009079,0.863409,0.179284,0.471487 FootLeft:0.000000,0.000000,0.000000,0.000000 FootRight:0.000000,0.000000,0.000000,0.000000 HandLeft:0.155563,0.123932,-0.575333,0.793368 HandRight:0.098865,-0.642694,0.025552,0.759287 HandTipLeft:0.000000,0.000000,0.000000,0.000000 HandTipRight:0.000000,0.000000,0.000000,0.000000 Head:0.000000,0.000000,0.000000,0.000000 HipLeft:0.123169,-0.681155,0.705176,-0.153572 HipRight:-0.130049,0.681155,0.699872,-0.171153 KneeLeft:-0.034023,0.704463,-0.068252,-0.705631 KneeRight:-0.013681,0.708924,0.033229,0.704368 Neck:0.061168,-0.015743,0.995669,-0.068215 ShoulderLeft:-0.028671,0.785915,-0.610044,0.096752 ShoulderRight:0.050019,0.784935,0.617556,0.000021 SpineBase:-0.002740,-0.009195,0.999501,-0.030085 SpineMid:0.028921,-0.010144,0.999087,-0.029778 SpineShoulder:0.061183,-0.013105,0.996897,-0.047754 ThumbLeft:0.000000,0.000000,0.000000,0.000000 ThumbRight:0.000000,0.000000,0.000000,0.000000 WristLeft:0.188846,0.143115,-0.583043,0.777120 WristRight:0.078142,-0.647559,-0.099455,0.751445 END:
KINECT_DATA POSITION:-5.137581,-1.197162,-5.241275 HEAD_JOINT1:0.984504,0.149736,-0.000000,0.091274 LARM_JOINT2:0.927712,0.000000,-0.334485,-0.165740 LARM_JOINT3:0.978766,0.000000,-0.200192,0.044056 LLEG_JOINT2:0.997255,0.024100,0.000000,0.070006 LLEG_JOINT4:0.994420,0.097156,0.000000,-0.041098 RARM_JOINT2:0.799065,0.000000,-0.057578,0.598481 RARM_JOINT3:0.963954,0.000000,0.198158,0.177558 RLEG_JOINT2:0.999330,0.012774,0.000000,-0.034300 RLEG_JOINT4:0.993921,0.108301,0.000000,0.019794 WAIST:0.999994,0.000000,-0.000862,0.003375 WAIST_JOINT0:0.997957,0.000000,-0.063881,0.000885 WAIST_JOINT1:0.998424,0.054188,0.000000,-0.014569 END:
KINECT_DATA_Sensor  AnkleLeft:0.071846,0.754842,-0.102277,-0.643887 AnkleRight:0.075510,0.681028,0.095105,0.722118 ElbowLeft:0.531326,-0.685361,0.152429,0.474065 ElbowRight:0.012369,0.857706,0.180622,0.481210 FootLeft:0.000000,0.000000,0.000000,0.000000 FootRight:0.000000,0.000000,0.000000,0.000000 HandLeft:0.127800,0.169777,-0.577695,0.788106 HandRight:-0.107204,0.707563,-0.023812,-0.698065 HandTipLeft:0.000000,0.000000,0.000000,0.000000 HandTipRight:0.000000,0.000000,0.000000,0.000000 Head:0.000000,0.000000,0.000000,0.000000 HipLeft:0.124452,-0.680748,0.704954,-0.155350 HipRight:-0.127454,0.681427,0.700461,-0.169606 KneeLeft:-0.034792,0.706625,-0.068947,-0.703361 KneeRight:-0.012779,0.706773,0.030926,0.706649 Neck:0.063514,-0.016634,0.995464,-0.068846 ShoulderLeft:-0.031047,0.785933,-0.609397,0.099906 ShoulderRight:0.050665,0.786028,0.616111,0.000772 SpineBase:0.000358,-0.009614,0.999482,-0.030708 SpineMid:0.031645,-0.010570,0.998981,-0.030392 SpineShoulder:0.063529,-0.013869,0.996708,-0.048415 ThumbLeft:0.000000,0.000000,0.000000,0.000000 ThumbRight:0.000000,0.000000,0.000000,0.000000 WristLeft:0.156884,0.182208,-0.595350,0.766646 WristRight:-0.087077,0.725495,0.092062,-0.676460 END:
KINECT_DATA POSITION:-5.304946,-1.178655,-5.373049 HEAD_JOINT1:0.984623,0.149354,-0.000000,0.090609 LARM_JOINT2:0.925966,0.000000,-0.341019,-0.162153 LARM_JOINT3:0.982529,0.000000,-0.181723,0.040176 LLEG_JOINT2:0.997236,0.022365,0.000000,0.070860 LLEG_JOINT4:0.994442,0.096780,0.000000,-0.041452 RARM_JOINT2:0.798796,0.000000,-0.061249,0.598476 RARM_JOINT3:0.963633,0.000000,0.200931,0.176177 RLEG_JOINT2:0.999371,0.011788,0.000000,-0.033445 RLEG_JOINT4:0.994201,0.105926,0.000000,0.018527 WAIST:0.999994,0.000000,-0.001284,0.003251 WAIST_JOINT0:0.997824,0.000000,-0.065922,0.000916 WAIST_JOINT1:0.998387,0.054903,0.000000,-0.014436 END:
KINECT_DATA_Sensor  AnkleLeft:0.068087,0.743390,-0.102509,-0.657440 AnkleRight:0.072744,0.680346,0.093109,0.723304 ElbowLeft:0.535459,-0.685130,0.146549,0.471599 ElbowRight:0.014485,0.853655,0.182152,0.487733 FootLeft:0.000000,0.000000,0.000000,0.000000 FootRight:0.000000,0.000000,0.000000,0.000000 HandLeft:0.134044,0.220275,-0.559918,0.787403 HandRight:-0.104170,0.715389,-0.023035,-0.690533 HandTipLeft:0.000000,0.000000,0.000000,0.000000 HandTipRight:0.000000,0.000000,0.000000,0.000000 Head:0.000000,0.000000,0.000000,0.000000 HipLeft:0.124287,-0.680629,0.704924,-0.156138 HipRight:-0.127070,0.681232,0.700651,-0.169898 KneeLeft:-0.036575,0.706804,-0.068218,-0.703162 KneeRight:-0.012948,0.706486,0.029718,0.706984 Neck:0.065361,-0.016822,0.995291,-0.069580 ShoulderLeft:-0.032014,0.785492,-0.609574,0.101970 ShoulderRight:0.052095,0.786450,0.615451,0.001737 SpineBase:0.000782,-0.009416,0.999463,-0.031370 SpineMid:0.032785,-0.010415,0.998926,-0.031052 SpineShoulder:0.065390,-0.013926,0.996554,-0.049104 ThumbLeft:0.000000,0.000000,0.000000,0.000000 ThumbRight:0.000000,0.000000,0.000000,0.000000 WristLeft:0.136177,0.206502,-0.602204,0.759054 WristRight:-0.086761,0.732172,0.092719,-0.669179 END:
KINECT_DATA POSITION:-5.369092,-1.191172,-5.460691 HEAD_JOINT1:0.984396,0.150284,-0.000000,0.091537 LARM_JOINT2:0.925833,0.000000,-0.342599,-0.159560 LARM_JOINT3:0.984310,0.000000,-0.172873,0.035346 LLEG_JOINT2:0.997268,0.021452,0.000000,0.070683 LLEG_JOINT4:0.994323,0.099593,0.000000,-0.037469 RARM_JOINT2:0.798914,0.000000,-0.062554,0.598184 RARM_JOINT3:0.962703,0.000000,0.203452,0.178353 RLEG_JOINT2:0.999366,0.012768,0.000000,-0.033221 RLEG_JOINT4:0.994308,0.104695,0.000000,0.019775 WAIST:0.999993,0.000000,-0.001610,0.003444 WAIST_JOINT0:0.997716,0.000000,-0.067544,0.000010 WAIST_JOINT1:0.998351,0.055430,0.000000,-0.014903 END:
KINECT_DATA_Sensor  AnkleLeft:0.066475,0.740873,-0.107017,-0.659724 AnkleRight:0.073681,0.679229,0.091855,0.724418 ElbowLeft:0.537095,-0.685504,0.146521,0.469195 ElbowRight:0.015422,0.852645,0.183364,0.489016 FootLeft:0.000000,0.000000,0.000000,0.000000 FootRight:0.000000,0.000000,0.000000,0.000000 HandLeft:0.147570,0.218564,-0.545476,0.795555 HandRight:0.112827,-0.695396,0.021489,0.709389 HandTipLeft:0.000000,0.000000,0.000000,0.000000 HandTipRight:0.000000,0.000000,0.000000,0.000000 Head:0.000000,0.000000,0.000000,0.000000 HipLeft:0.124029,-0.680384,0.705085,-0.156681 HipRight:-0.126246,0.681261,0.700663,-0.170344 KneeLeft:-0.037260,0.706959,-0.067568,-0.703033 KneeRight:-0.011948,0.706293,0.030120,0.707178 Neck:0.067084,-0.017141,0.995140,-0.070018 ShoulderLeft:-0.033302,0.786192,-0.608252,0.104032 ShoulderRight:0.052986,0.786080,0.615846,0.002310 SpineBase:0.001072,-0.009761,0.999434,-0.032173 SpineMid:0.033777,-0.010809,0.998864,-0.031837 SpineShoulder:0.067106,-0.014309,0.996409,-0.049616 ThumbLeft:0.000000,0.000000,0.000000,0.000000 ThumbRight:0.000000,0.000000,0.000000,0.000000 WristLeft:0.147166,0.199300,-0.598411,0.761922 WristRight:-0.084587,0.717006,0.094975,-0.685367 END:
KINECT_DATA POSITION:-5.368377,-1.178329,-5.519497 HEAD_JOINT1:0.984157,0.151587,-0.000000,0.091958 LARM_JOINT2:0.923967,0.000000,-0.347252,-0.160317 LARM_JOINT3:0.984993,0.000000,-0.169153,0.034291 LLEG_JOINT2:0.997221,0.021869,0.000000,0.071212 LLEG_JOINT4:0.994322,0.098474,0.000000,-0.040342 RARM_JOINT2:0.799414,0.000000,-0.062291,0.597542 RARM_JOINT3:0.962740,0.000000,0.202587,0.179134 RLEG_JOINT2:0.999360,0.012441,0.000000,-0.033526 RLEG_JOINT4:0.994395,0.103547,0.000000,0.021392 WAIST:0.999991,0.000000,-0.002366,0.003534 WAIST_JOINT0:0.997643,0.000000,-0.068608,-0.001214 WAIST_JOINT1:0.998329,0.055780,0.000000,-0.015097 END:
KINECT_DATA_Sensor  AnkleLeft:0.068483,0.748535,-0.104182,-0.651269 AnkleRight:0.073719,0.678550,0.089795,0.725308 ElbowLeft:0.537557,-0.687321,0.141283,0.467612 ElbowRight:0.015775,0.853597,0.184188,0.487029 FootLeft:0.000000,0.000000,0.000000,0.000000 FootRight:0.000000,0.000000,0.000000,0.000000 HandLeft:0.113792,0.240824,-0.555307,0.787839 HandRight:0.113934,-0.679000,0.018131,0.725017 HandTipLeft:0.000000,0.000000,0.000000,0.000000 HandTipRight:0.000000,0.000000,0.000000,0.000000 Head:0.000000,0.000000,0.000000,0.000000 HipLeft:0.124307,-0.680170,0.705060,-0.157504 HipRight:-0.125727,0.681354,0.700672,-0.170317 KneeLeft:-0.037450,0.707478,-0.068275,-0.702432 KneeRight:-0.012307,0.705765,0.030052,0.707702 Neck:0.067967,-0.017285,0.995055,-0.070336 ShoulderLeft:-0.032774,0.784916,-0.609867,0.104374 ShoulderRight:0.054782,0.784561,0.617618,0.003193 SpineBase:0.001818,-0.009633,0.999421,-0.032586 SpineMid:0.034610,-0.010697,0.998823,-0.032253 SpineShoulder:0.067996,-0.014385,0.996329,-0.049983 ThumbLeft:0.000000,0.000000,0.000000,0.000000 ThumbRight:0.000000,0.000000,0.000000,0.000000 WristLeft:0.126015,0.232065,-0.599564,0.755506 WristRight:0.078631,-0.683401,-0.097876,0.719166 END:
KINECT_DATA POSITION:-5.338438,-1.167888,-5.545425 HEAD_JOINT1:0.984124,0.151585,-0.000000,0.092310 LARM_JOINT2:0.922248,0.000000,-0.351217,-0.161572 LARM_JOINT3:0.985082,0.000000,-0.169171,0.031530 LLEG_JOINT2:0.997249,0.021837,0.000000,0.070831 LLEG_JOINT4:0.994555,0.094975,0.000000,-0.042903 RARM_JOINT2:0.799647,0.000000,-0.061942,0.597267 RARM_JOINT3:0.962161,0.000000,0.206330,0.177972 RLEG_JOINT2:0.999352,0.012130,0.000000,-0.033877 RLEG_JOINT4:0.994330,0.104204,0.000000,0.021200 WAIST:0.999991,0.000000,-0.001977,0.003789 WAIST_JOINT0:0.997661,0.000000,-0.068348,-0.001308 WAIST_JOINT1:0.998311,0.056055,0.000000,-0.015244 END:
KINECT_DATA_Sensor  AnkleLeft:0.066456,0.741320,-0.100608,-0.660232 AnkleRight:0.073707,0.678720,0.090279,0.725091 ElbowLeft:0.537381,-0.688810,0.137528,0.466742 ElbowRight:0.015678,0.854081,0.184422,0.486095 FootLeft:0.000000,0.000000,0.000000,0.000000 FootRight:0.000000,0.000000,0.000000,0.000000 HandLeft:0.134944,0.184707,-0.546917,0.805329 HandRight:0.120146,-0.682885,0.003684,0.720569 HandTipLeft:0.000000,0.000000,0.000000,0.000000 HandTipRight:0.000000,0.000000,0.000000,0.000000 Head:0.000000,0.000000,0.000000,0.000000 HipLeft:0.123857,-0.679999,0.705326,-0.157402 HipRight:-0.125776,0.681446,0.700510,-0.170580 KneeLeft:-0.037359,0.707196,-0.068177,-0.702730 KneeRight:-0.012606,0.706047,0.029895,0.707421 Neck:0.067589,-0.017293,0.995057,-0.070669 ShoulderLeft:-0.031782,0.784109,-0.611048,0.103843 ShoulderRight:0.055369,0.784124,0.618121,0.003115 SpineBase:0.001417,-0.009415,0.999416,-0.032807 SpineMid:0.034235,-0.010487,0.998831,-0.032480 SpineShoulder:0.067627,-0.014295,0.996343,-0.050239 ThumbLeft:0.000000,0.000000,0.000000,0.000000 ThumbRight:0.000000,0.000000,0.000000,0.000000 WristLeft:0.162398,0.185774,-0.588626,0.769828 WristRight:0.079186,-0.686910,-0.097306,0.715833 END:
KINECT_DATA POSITION:-5.292478,-1.176266,-5.563879 HEAD_JOINT1:0.984153,0.151753,-0.000000,0.091722 LARM_JOINT2:0.921758,0.000000,-0.352005,-0.162649 LARM_JOINT3:0.985380,0.000000,-0.167944,0.028641 LLEG_JOINT2:0.997321,0.021006,0.000000,0.070069 LLEG_JOINT4:0.994353,0.098831,0.000000,-0.038666 RARM_JOINT2:0.800070,0.000000,-0.061525,0.596744 RARM_JOINT3:0.962016,0.000000,0.207734,0.177121 RLEG_JOINT2:0.999337,0.010987,0.000000,-0.034706 RLEG_JOINT4:0.993963,0.107494,0.000000,0.021978 WAIST:0.999989,0.000000,-0.001989,0.004233 WAIST_JOINT0:0.997574,0.000000,-0.069584,-0.002154 WAIST_JOINT1:0.998292,0.056298,0.000000,-0.015608 END:
KINECT_DATA_Sensor  AnkleLeft:0.066321,0.741975,-0.105411,-0.658759 AnkleRight:0.075390,0.677721,0.091633,0.725682 ElbowLeft:0.536008,-0.691741,0.139088,0.463512 ElbowRight:0.015252,0.853902,0.184923,0.486233 FootLeft:0.000000,0.000000,0.000000,0.000000 FootRight:0.000000,0.000000,0.000000,0.000000 HandLeft:0.136868,0.185702,-0.539836,0.809542 HandRight:0.120184,-0.691696,-0.000122,0.712119 HandTipLeft:0.000000,0.000000,0.000000,0.000000 HandTipRight:0.000000,0.000000,0.000000,0.000000 Head:0.000000,0.000000,0.000000,0.000000 HipLeft:0.123831,-0.679666,0.705598,-0.157643 HipRight:-0.125798,0.681705,0.700199,-0.170807 KneeLeft:-0.037727,0.707153,-0.067359,-0.702833 KneeRight:-0.013688,0.706051,0.029364,0.707419 Neck:0.069010,-0.017445,0.994936,-0.070959 ShoulderLeft:-0.033177,0.784734,-0.609873,0.105581 ShoulderRight:0.055788,0.783412,0.618985,0.003470 SpineBase:0.001404,-0.009149,0.999413,-0.032994 SpineMid:0.034946,-0.010251,0.998803,-0.032668 SpineShoulder:0.069064,-0.014267,0.996234,-0.050444 ThumbLeft:0.000000,0.000000,0.000000,0.000000 ThumbRight:0.000000,0.000000,0.000000,0.000000 WristLeft:0.161882,0.183396,-0.586848,0.771861 WristRight:-0.082249,0.709253,0.095403,-0.693609 END:
KINECT_DATA POSITION:-5.284297,-1.181570,-5.570734 HEAD_JOINT1:0.984110,0.152001,-0.000000,0.091774 LARM_JOINT2:0.920750,0.000000,-0.353774,-0.164511 LARM_JOINT3:0.985138,0.000000,-0.169132,0.029963 LLEG_JOINT2:0.997326,0.020419,0.000000,0.070167 LLEG_JOINT4:0.994329,0.098685,0.000000,-0.039644 RARM_JOINT2:0.800143,0.000000,-0.061374,0.596661 RARM_JOINT3:0.961927,0.000000,0.208941,0.176182 RLEG_JOINT2:0.999326,0.011922,0.000000,-0.034725 RLEG_JOINT4:0.994268,0.104959,0.000000,0.020374 WAIST:0.999990,0.000000,-0.001478,0.004224 WAIST_JOINT0:0.997548,0.000000,-0.069931,-0.002681 WAIST_JOINT1:0.998271,0.056630,0.000000,-0.015730 END:
KINECT_DATA_Sensor  AnkleLeft:0.066475,0.742130,-0.104187,-0.658763 AnkleRight:0.073011,0.677959,0.091667,0.725698 ElbowLeft:0.534651,-0.693126,0.137348,0.463530 ElbowRight:0.015153,0.853961,0.185253,0.486006 FootLeft:0.000000,0.000000,0.000000,0.000000 FootRight:0.000000,0.000000,0.000000,0.000000 HandLeft:0.111611,0.216133,-0.548478,0.800001 HandRight:0.119489,-0.684413,-0.006708,0.719205 HandTipLeft:0.000000,0.000000,0.000000,0.000000 HandTipRight:0.000000,0.000000,0.000000,0.000000 Head:0.000000,0.000000,0.000000,0.000000 HipLeft:0.123466,-0.679723,0.705656,-0.157423 HipRight:-0.126030,0.681591,0.700159,-0.171250 KneeLeft:-0.038177,0.706756,-0.067023,-0.703240 KneeRight:-0.013060,0.706417,0.030036,0.707038 Neck:0.069486,-0.017744,0.994870,-0.071352 ShoulderLeft:-0.033371,0.785247,-0.609095,0.106192 ShoulderRight:0.056200,0.782925,0.619563,0.003526 SpineBase:0.000889,-0.009244,0.999408,-0.033128 SpineMid:0.034924,-0.010367,0.998798,-0.032794 SpineShoulder:0.069543,-0.014484,0.996184,-0.050711 ThumbLeft:0.000000,0.000000,0.000000,0.000000 ThumbRight:0.000000,0.000000,0.000000,0.000000 WristLeft:0.135471,0.214680,-0.592157,0.764794 WristRight:0.079397,-0.688143,-0.097981,0.714531 END:
KINECT_DATA POSITION:-5.275318,-1.185619,-5.577326 HEAD_JOINT1:0.984001,0.152713,-0.000000,0.091765 LARM_JOINT2:0.919014,0.000000,-0.357320,-0.166540 LARM_JOINT3:0.985446,0.000000,-0.166963,0.031924 LLEG_JOINT2:0.997350,0.020009,0.000000,0.069942 LLEG_JOINT4:0.994214,0.100030,0.000000,-0.039147 RARM_JOINT2:0.800240,0.000000,-0.061432,0.596525 RARM_JOINT3:0.962879,0.000000,0.203436,0.177422 RLEG_JOINT2:0.999312,0.012254,0.000000,-0.035010 RLEG_JOINT4:0.994242,0.105582,0.000000,0.018292 WAIST:0.999990,0.000000,-0.001534,0.004274 WAIST_JOINT0:0.997559,0.000000,-0.069772,-0.002771 WAIST_JOINT1:0.998252,0.056913,0.000000,-0.015938 END:
KINECT_DATA_Sensor  AnkleLeft:0.066953,0.741966,-0.105049,-0.658763 AnkleRight:0.072056,0.678334,0.093891,0.725159 ElbowLeft:0.534303,-0.693063,0.130996,0.465858 ElbowRight:0.015561,0.854584,0.185668,0.484738 FootLeft:0.000000,0.000000,0.000000,0.000000 FootRight:0.000000,0.000000,0.000000,0.000000 HandLeft:0.055871,0.290345,-0.558893,0.774736 HandRight:0.108738,-0.685182,0.009531,0.720147 HandTipLeft:0.000000,0.000000,0.000000,0.000000 HandTipRight:0.000000,0.000000,0.000000,0.000000 Head:0.000000,0.000000,0.000000,0.000000 HipLeft:0.123442,-0.679680,0.705684,-0.157504 HipRight:-0.125856,0.681608,0.700150,-0.171350 KneeLeft:-0.038350,0.706774,-0.066605,-0.703253 KneeRight:-0.012989,0.706384,0.030438,0.707055 Neck:0.069297,-0.017922,0.994854,-0.071711 ShoulderLeft:-0.032568,0.784793,-0.609785,0.105838 ShoulderRight:0.056816,0.782429,0.620132,0.003547 SpineBase:0.000934,-0.009376,0.999402,-0.033272 SpineMid:0.034856,-0.010500,0.998794,-0.032935 SpineShoulder:0.069354,-0.014638,0.996182,-0.050961 ThumbLeft:0.000000,0.000000,0.000000,0.000000 ThumbRight:0.000000,0.000000,0.000000,0.000000 WristLeft:0.076404,0.287556,-0.601655,0.741273 WristRight:0.078444,-0.689058,-0.096976,0.713892 END:
KINECT_DATA POSITION:-5.279663,-1.192677,-5.580807 HEAD_JOINT1:0.983952,0.152944,-0.000000,0.091908 LARM_JOINT2:0.918728,0.000000,-0.357791,-0.167104 LARM_JOINT3:0.985391,0.000000,-0.167559,0.030487 LLEG_JOINT2:0.997364,0.019832,0.000000,0.069802 LLEG_JOINT4:0.994161,0.100780,0.000000,-0.038567 RARM_JOINT2:0.800111,0.000000,-0.061566,0.596684 RARM_JOINT3:0.962256,0.000000,0.205530,0.178382 RLEG_JOINT2:0.999310,0.010600,0.000000,-0.035604 RLEG_JOINT4:0.994257,0.104890,0.000000,0.021224 WAIST:0.999990,0.000000,-0.001525,0.004235 WAIST_JOINT0:0.997485,0.000000,-0.070796,-0.003259 WAIST_JOINT1:0.998241,0.057073,0.000000,-0.016079 END:
KINECT_DATA_Sensor  AnkleLeft:0.067216,0.742466,-0.105664,-0.658074 AnkleRight:0.072010,0.677633,0.090700,0.726224 ElbowLeft:0.533824,-0.693432,0.130218,0.466076 ElbowRight:0.015638,0.854143,0.185779,0.485470 FootLeft:0.000000,0.000000,0.000000,0.000000 FootRight:0.000000,0.000000,0.000000,0.000000 HandLeft:0.128285,0.178919,-0.543719,0.809877 HandRight:0.117024,-0.687680,0.008042,0.716475 HandTipLeft:0.000000,0.000000,0.000000,0.000000 HandTipRight:0.000000,0.000000,0.000000,0.000000 Head:0.000000,0.000000,0.000000,0.000000 HipLeft:0.123438,-0.679725,0.705638,-0.157519 HipRight:-0.125764,0.681594,0.700164,-0.171414 KneeLeft:-0.038349,0.706764,-0.066352,-0.703287 KneeRight:-0.014608,0.706384,0.029719,0.707054 Neck:0.070452,-0.018234,0.994756,-0.071862 ShoulderLeft:-0.033819,0.785223,-0.608916,0.107254 ShoulderRight:0.057047,0.782040,0.620599,0.003865 SpineBase:0.000923,-0.009517,0.999399,-0.033331 SpineMid:0.035423,-0.010662,0.998771,-0.032983 SpineShoulder:0.070511,-0.014876,0.996091,-0.051083 ThumbLeft:0.000000,0.000000,0.000000,0.000000 ThumbRight:0.000000,0.000000,0.000000,0.000000 WristLeft:0.158670,0.182334,-0.584696,0.774409 WristRight:0.078809,-0.691694,-0.096984,0.711297 END:
KINECT_DATA POSITION:-5.278733,-1.198396,-5.572975 HEAD_JOINT1:0.983799,0.153868,-0.000000,0.092003 LARM_JOINT2:0.917273,0.000000,-0.360863,-0.168490 LARM_JOINT3:0.985758,0.000000,-0.165763,0.028358 LLEG_JOINT2:0.997357,0.020132,0.000000,0.069819 LLEG_JOINT4:0.994235,0.100722,0.000000,-0.036766 RARM_JOINT2:0.799125,0.000000,-0.062590,0.597898 RARM_JOINT3:0.961851,0.000000,0.208367,0.177276 RLEG_JOINT2:0.999304,0.010990,0.000000,-0.035644 RLEG_JOINT4:0.994252,0.105040,0.000000,0.020715 WAIST:0.999989,0.000000,-0.001628,0.004313 WAIST_JOINT0:0.997521,0.000000,-0.070345,-0.001775 WAIST_JOINT1:0.998215,0.057450,0.000000,-0.016310 END:
KINECT_DATA_Sensor  AnkleLeft:0.066130,0.742425,-0.107260,-0.657972 AnkleRight:0.072096,0.677903,0.091370,0.725880 ElbowLeft:-0.530909,0.702968,-0.136027,-0.453287 ElbowRight:0.016740,0.852485,0.185129,0.488585 FootLeft:0.000000,0.000000,0.000000,0.000000 FootRight:0.000000,0.000000,0.000000,0.000000 HandLeft:0.129438,0.177132,-0.547928,0.807245 HandRight:0.122104,-0.693118,0.003594,0.710398 HandTipLeft:0.000000,0.000000,0.000000,0.000000 HandTipRight:0.000000,0.000000,0.000000,0.000000 Head:0.000000,0.000000,0.000000,0.000000 HipLeft:0.123506,-0.679635,0.705685,-0.157641 HipRight:-0.125597,0.681614,0.700155,-0.171497 KneeLeft:-0.038209,0.706839,-0.066629,-0.703192 KneeRight:-0.014301,0.706322,0.029971,0.707111 Neck:0.069979,-0.018366,0.994756,-0.072296 ShoulderLeft:-0.033309,0.785053,-0.609188,0.107112 ShoulderRight:0.056945,0.783047,0.619341,0.003461 SpineBase:0.001014,-0.009657,0.999393,-0.033454 SpineMid:0.035228,-0.010797,0.998773,-0.033104 SpineShoulder:0.070035,-0.015020,0.996104,-0.051441 ThumbLeft:0.000000,0.000000,0.000000,0.000000 ThumbRight:0.000000,0.000000,0.000000,0.000000 WristLeft:0.154980,0.181574,-0.579308,0.779368 WristRight:-0.081660,0.712128,0.094739,-0.690819 END:
KINECT_DATA POSITION:-5.288945,-1.197414,-5.550146 HEAD_JOINT1:0.983732,0.154315,-0.000000,0.091973 LARM_JOINT2:0.915705,0.000000,-0.364151,-0.169937 LARM_JOINT3:0.986304,0.000000,-0.162268,0.029555 LLEG_JOINT2:0.997327,0.020059,0.000000,0.070262 LLEG_JOINT4:0.994170,0.101122,0.000000,-0.037426 RARM_JOINT2:0.799275,0.000000,-0.062285,0.597730 RARM_JOINT3:0.961584,0.000000,0.210970,0.175634 RLEG_JOINT2:0.999328,0.011312,0.000000,-0.034859 RLEG_JOINT4:0.994281,0.104767,0.000000,0.020741 WAIST:0.999991,0.000000,-0.001223,0.004041 WAIST_JOINT0:0.997508,0.000000,-0.070522,-0.001984 WAIST_JOINT1:0.998207,0.057635,0.000000,-0.016142 END:
KINECT_DATA_Sensor  AnkleLeft:0.066788,0.742415,-0.107044,-0.657952 AnkleRight:0.072417,0.677740,0.091113,0.726032 ElbowLeft:-0.530514,0.703937,-0.132183,-0.453381 ElbowRight:0.016469,0.852717,0.185405,0.488086 FootLeft:0.000000,0.000000,0.000000,0.000000 FootRight:0.000000,0.000000,0.000000,0.000000 HandLeft:0.127836,0.184551,-0.549776,0.804577 HandRight:0.123443,-0.695218,-0.008680,0.708067 HandTipLeft:0.000000,0.000000,0.000000,0.000000 HandTipRight:0.000000,0.000000,0.000000,0.000000 Head:0.000000,0.000000,0.000000,0.000000 HipLeft:0.123202,-0.679779,0.705625,-0.157525 HipRight:-0.125699,0.681285,0.700376,-0.171828 KneeLeft:-0.038356,0.706550,-0.066712,-0.703467 KneeRight:-0.013724,0.706612,0.029827,0.706839 Neck:0.070030,-0.018559,0.994738,-0.072442 ShoulderLeft:-0.032393,0.784202,-0.610413,0.106645 ShoulderRight:0.058010,0.782400,0.620055,0.003973 SpineBase:0.000618,-0.009846,0.999386,-0.033633 SpineMid:0.035057,-0.010999,0.998771,-0.033274 SpineShoulder:0.070087,-0.015174,0.996090,-0.051607 ThumbLeft:0.000000,0.000000,0.000000,0.000000 ThumbRight:0.000000,0.000000,0.000000,0.000000 WristLeft:0.149430,0.187354,-0.579400,0.779015 WristRight:-0.081682,0.711459,0.094987,-0.691471 END:
KINECT_DATA POSITION:-5.285872,-1.206189,-5.489433 HEAD_JOINT1:0.983537,0.155487,-0.000000,0.092084 LARM_JOINT2:0.915512,0.000000,-0.364331,-0.170588 LARM_JOINT3:0.986232,0.000000,-0.162745,0.029348 LLEG_JOINT2:0.997328,0.020964,0.000000,0.069984 LLEG_JOINT4:0.994391,0.098678,0.000000,-0.038064 RARM_JOINT2:0.799272,0.000000,-0.060107,0.597956 RARM_JOINT3:0.961369,0.000000,0.210796,0.177017 RLEG_JOINT2:0.999334,0.011376,0.000000,-0.034685 RLEG_JOINT4:0.994184,0.105567,0.000000,0.021306 WAIST:0.999990,0.000000,-0.002036,0.003944 WAIST_JOINT0:0.997369,0.000000,-0.072435,-0.002959 WAIST_JOINT1:0.998170,0.058219,0.000000,-0.016376 END:
KINECT_DATA_Sensor  AnkleLeft:0.066249,0.743491,-0.105318,-0.657069 AnkleRight:0.073483,0.676490,0.091299,0.727067 ElbowLeft:-0.530799,0.700822,-0.126568,-0.459436 ElbowRight:0.015552,0.852705,0.185058,0.488269 FootLeft:0.000000,0.000000,0.000000,0.000000 FootRight:0.000000,0.000000,0.000000,0.000000 HandLeft:0.101016,0.223727,-0.547264,0.800152 HandRight:0.131340,-0.682385,-0.005652,0.719075 HandTipLeft:0.000000,0.000000,0.000000,0.000000 HandTipRight:0.000000,0.000000,0.000000,0.000000 Head:0.000000,0.000000,0.000000,0.000000 HipLeft:0.123557,-0.679642,0.705526,-0.158279 HipRight:-0.125007,0.681204,0.700601,-0.171731 KneeLeft:-0.037499,0.707175,-0.067062,-0.702851 KneeRight:-0.013598,0.706049,0.029831,0.707404 Neck:0.072005,-0.018975,0.994549,-0.072989 ShoulderLeft:-0.032851,0.784701,-0.609465,0.108247 ShoulderRight:0.060068,0.781684,0.620752,0.005386 SpineBase:0.001422,-0.010035,0.999369,-0.034044 SpineMid:0.036443,-0.011222,0.998705,-0.033671 SpineShoulder:0.072062,-0.015556,0.995913,-0.052168 ThumbLeft:0.000000,0.000000,0.000000,0.000000 ThumbRight:0.000000,0.000000,0.000000,0.000000 WristLeft:0.120738,0.221413,-0.588401,0.768234 WristRight:0.077757,-0.686328,-0.098411,0.716396 END:
KINECT_DATA POSITION:-5.297336,-1.207799,-5.444384 HEAD_JOINT1:0.983429,0.156586,-0.000000,0.091373 LARM_JOINT2:0.914399,0.000000,-0.366647,-0.171595 LARM_JOINT3:0.986315,0.000000,-0.162616,0.027167 LLEG_JOINT2:0.997283,0.020631,0.000000,0.070716 LLEG_JOINT4:0.994199,0.100478,0.000000,-0.038370 RARM_JOINT2:0.799142,0.000000,-0.058417,0.598297 RARM_JOINT3:0.961373,0.000000,0.210365,0.177505 RLEG_JOINT2:0.999355,0.011188,0.000000,-0.034128 RLEG_JOINT4:0.993994,0.107649,0.000000,0.019707 WAIST:0.999991,0.000000,-0.002362,0.003558 WAIST_JOINT0:0.997341,0.000000,-0.072802,-0.003257 WAIST_JOINT1:0.998136,0.058803,0.000000,-0.016323 END:
KINECT_DATA_Sensor  AnkleLeft:0.067300,0.743515,-0.106317,-0.656774 AnkleRight:0.084342,0.757381,0.084236,0.642000 ElbowLeft:-0.529895,0.702906,-0.124558,-0.457842 ElbowRight:0.015214,0.853522,0.184716,0.486979 FootLeft:0.000000,0.000000,0.000000,0.000000 FootRight:0.000000,0.000000,0.000000,0.000000 HandLeft:0.095307,0.216775,-0.544079,0.804924 HandRight:0.135935,-0.681082,-0.004521,0.719464 HandTipLeft:0.000000,0.000000,0.000000,0.000000 HandTipRight:0.000000,0.000000,0.000000,0.000000 Head:0.000000,0.000000,0.000000,0.000000 HipLeft:0.123494,-0.679775,0.705301,-0.158763 HipRight:-0.124500,0.680903,0.700958,-0.171841 KneeLeft:-0.038004,0.707380,-0.067058,-0.702618 KneeRight:-0.013601,0.705818,0.029581,0.707645 Neck:0.072270,-0.019351,0.994480,-0.073573 ShoulderLeft:-0.031316,0.784207,-0.610252,0.107846 ShoulderRight:0.062000,0.781016,0.621395,0.006187 SpineBase:0.001759,-0.010268,0.999350,-0.034508 SpineMid:0.036750,-0.011470,0.998676,-0.034128 SpineShoulder:0.072327,-0.015896,0.995859,-0.052730 ThumbLeft:0.000000,0.000000,0.000000,0.000000 ThumbRight:0.000000,0.000000,0.000000,0.000000 WristLeft:0.122118,0.218352,-0.585943,0.770766 WristRight:0.077004,-0.685063,-0.097992,0.717744 END:
KINECT_DATA POSITION:-5.269122,-1.224522,-5.332530 HEAD_JOINT1:0.983393,0.156809,-0.000000,0.091371 LARM_JOINT2:0.914717,0.000000,-0.366186,-0.170883 LARM_JOINT3:0.986012,0.000000,-0.163765,0.031009 LLEG_JOINT2:0.997230,0.022508,0.000000,0.070894 LLEG_JOINT4:0.994491,0.098385,0.000000,-0.036167 RARM_JOINT2:0.799077,0.000000,-0.055497,0.598662 RARM_JOINT3:0.962639,0.000000,0.206747,0.174879 RLEG_JOINT2:0.999350,0.011090,0.000000,-0.034296 RLEG_JOINT4:0.993708,0.109878,0.000000,0.021698 WAIST:0.999987,0.000000,-0.003999,0.003176 WAIST_JOINT0:0.997132,0.000000,-0.075555,-0.004321 WAIST_JOINT1:0.998087,0.059590,0.000000,-0.016498 END:
KINECT_DATA_Sensor  AnkleLeft:0.065726,0.745209,-0.107747,-0.654778 AnkleRight:0.076415,0.674309,0.094082,0.728434 ElbowLeft:-0.529185,0.705620,-0.126542,-0.453929 ElbowRight:0.014516,0.854375,0.184228,0.485688 FootLeft:0.000000,0.000000,0.000000,0.000000 FootRight:0.000000,0.000000,0.000000,0.000000 HandLeft:0.110045,0.191859,-0.553912,0.802659 HandRight:-0.122232,0.721692,-0.002897,-0.681331 HandTipLeft:0.000000,0.000000,0.000000,0.000000 HandTipRight:0.000000,0.000000,0.000000,0.000000 Head:0.000000,0.000000,0.000000,0.000000 HipLeft:0.124053,-0.679698,0.704950,-0.160213 HipRight:-0.122931,0.680710,0.701498,-0.171530 KneeLeft:-0.036631,0.708628,-0.068193,-0.701324 KneeRight:-0.014004,0.704667,0.029929,0.708769 Neck:0.075096,-0.019956,0.994205,-0.074291 ShoulderLeft:-0.031620,0.784608,-0.609365,0.109839 ShoulderRight:0.065312,0.779886,0.622447,0.008522 SpineBase:0.003388,-0.010709,0.999311,-0.035366 SpineMid:0.038972,-0.011961,0.998557,-0.034962 SpineShoulder:0.075153,-0.016471,0.995600,-0.053502 ThumbLeft:0.000000,0.000000,0.000000,0.000000 ThumbRight:0.000000,0.000000,0.000000,0.000000 WristLeft:0.136063,0.198407,-0.581181,0.777400 WristRight:-0.083649,0.737752,0.091569,-0.663582 END:
KINECT_DATA POSITION:-5.248304,-1.219670,-5.299914 HEAD_JOINT1:0.983330,0.157303,-0.000000,0.091207 LARM_JOINT2:0.912241,0.000000,-0.371872,-0.171834 LARM_JOINT3:0.986924,0.000000,-0.158661,0.028405 LLEG_JOINT2:0.997212,0.022305,0.000000,0.071213 LLEG_JOINT4:0.993947,0.102013,0.000000,-0.040776 RARM_JOINT2:0.798499,0.000000,-0.057375,0.599256 RARM_JOINT3:0.962542,0.000000,0.207755,0.174216 RLEG_JOINT2:0.999343,0.011090,0.000000,-0.034511 RLEG_JOINT4:0.993891,0.108414,0.000000,0.020671 WAIST:0.999987,0.000000,-0.004038,0.003192 WAIST_JOINT0:0.997368,0.000000,-0.072456,-0.002486 WAIST_JOINT1:0.998058,0.060008,0.000000,-0.016724 END:
KINECT_DATA_Sensor  AnkleLeft:0.072125,0.750953,-0.106081,-0.647776 AnkleRight:0.074768,0.676347,0.093666,0.726768 ElbowLeft:-0.529985,0.705271,-0.118036,-0.455825 ElbowRight:0.016089,0.853091,0.184564,0.487763 FootLeft:0.000000,0.000000,0.000000,0.000000 FootRight:0.000000,0.000000,0.000000,0.000000 HandLeft:0.085901,0.220607,-0.547946,0.802315 HandRight:0.120485,-0.692778,-0.004048,0.711003 HandTipLeft:0.000000,0.000000,0.000000,0.000000 HandTipRight:0.000000,0.000000,0.000000,0.000000 Head:0.000000,0.000000,0.000000,0.000000 HipLeft:0.123946,-0.679649,0.704978,-0.160376 HipRight:-0.122689,0.680655,0.701531,-0.171785 KneeLeft:-0.037017,0.708621,-0.068283,-0.701302 KneeRight:-0.014142,0.704651,0.030071,0.708776 Neck:0.071783,-0.019925,0.994411,-0.074819 ShoulderLeft:-0.028218,0.783743,-0.611185,0.106785 ShoulderRight:0.064519,0.781025,0.621123,0.006627 SpineBase:0.003413,-0.010914,0.999298,-0.035665 SpineMid:0.037335,-0.012119,0.998607,-0.035274 SpineShoulder:0.071827,-0.016529,0.995820,-0.053944 ThumbLeft:0.000000,0.000000,0.000000,0.000000 ThumbRight:0.000000,0.000000,0.000000,0.000000 WristLeft:0.114478,0.225044,-0.585195,0.770582 WristRight:-0.079302,0.709527,0.094596,-0.693783 END:
KINECT_DATA POSITION:-5.186944,-1.219597,-5.282688 HEAD_JOINT1:0.983744,0.155776,-0.000000,0.089338 LARM_JOINT2:0.910520,0.000000,-0.374996,-0.174159 LARM_JOINT3:0.987065,0.000000,-0.157792,0.028361 LLEG_JOINT2:0.997289,0.022148,0.000000,0.070168 LLEG_JOINT4:0.994358,0.099532,0.000000,-0.036679 RARM_JOINT2:0.799259,0.000000,-0.056955,0.598282 RARM_JOINT3:0.963256,0.000000,0.207675,0.170318 RLEG_JOINT2:0.999298,0.011699,0.000000,-0.035594 RLEG_JOINT4:0.993940,0.107895,0.000000,0.021041 WAIST:0.999989,0.000000,-0.003330,0.003405 WAIST_JOINT0:0.997417,0.000000,-0.071776,-0.002911 WAIST_JOINT1:0.998059,0.060050,0.000000,-0.016516 END:
KINECT_DATA_Sensor  AnkleLeft:0.066794,0.743089,-0.107620,-0.657096 AnkleRight:0.074406,0.676852,0.094115,0.726276 ElbowLeft:-0.529382,0.705210,-0.113272,-0.457825 ElbowRight:0.015555,0.854026,0.185149,0.485918 FootLeft:0.000000,0.000000,0.000000,0.000000 FootRight:0.000000,0.000000,0.000000,0.000000 HandLeft:0.071104,0.236750,-0.546887,0.799880 HandRight:0.107780,-0.681455,-0.018507,0.723644 HandTipLeft:0.000000,0.000000,0.000000,0.000000 HandTipRight:0.000000,0.000000,0.000000,0.000000 Head:0.000000,0.000000,0.000000,0.000000 HipLeft:0.123420,-0.679578,0.705183,-0.160182 HipRight:-0.123222,0.680715,0.701265,-0.172254 KneeLeft:-0.036493,0.708142,-0.067608,-0.701878 KneeRight:-0.014345,0.705137,0.031107,0.708243 Neck:0.071066,-0.019559,0.994465,-0.074877 ShoulderLeft:-0.026344,0.783430,-0.611929,0.105290 ShoulderRight:0.065485,0.780287,0.621946,0.006907 SpineBase:0.002704,-0.010487,0.999302,-0.035765 SpineMid:0.036637,-0.011695,0.998633,-0.035388 SpineShoulder:0.071117,-0.016152,0.995874,-0.053998 ThumbLeft:0.000000,0.000000,0.000000,0.000000 ThumbRight:0.000000,0.000000,0.000000,0.000000 WristLeft:0.100377,0.240619,-0.587224,0.766287 WristRight:0.075575,-0.684371,-0.097251,0.718656 END:
