EastLYD/RoboCupatHomeSim/InteractiveCleanUp/JapanOpen2016/Motion_Data/File52.dat
KINECT_DATA POSITION:8.048642,-0.281965,-11.806560 HEAD_JOINT1:0.980216,0.154509,-0.000000,0.123710 LARM_JOINT2:0.836102,0.000000,-0.009129,-0.548498 LARM_JOINT3:0.966323,0.000000,-0.188157,-0.175550 LLEG_JOINT2:0.997112,0.022841,0.000000,0.072433 LLEG_JOINT4:0.994733,0.093733,0.000000,-0.041466 RARM_JOINT2:0.793696,0.000000,-0.062061,0.605141 RARM_JOINT3:0.969682,0.000000,0.212143,0.121294 RLEG_JOINT2:0.999007,0.006157,0.000000,-0.044123 RLEG_JOINT4:0.994341,0.103145,0.000000,0.025426 WAIST:0.999877,0.000000,-0.015301,-0.003398 WAIST_JOINT0:0.999268,0.000000,-0.038203,0.002207 WAIST_JOINT1:0.997559,0.068718,0.000000,-0.012403 END:
KINECT_DATA_Sensor  AnkleLeft:0.066412,0.742311,-0.099141,-0.659345 AnkleRight:0.069791,0.740007,0.086652,0.663333 ElbowLeft:-0.028936,0.899286,-0.194401,-0.390711 ElbowRight:0.017645,0.807934,0.187098,0.558504 FootLeft:0.000000,0.000000,0.000000,0.000000 FootRight:0.000000,0.000000,0.000000,0.000000 HandLeft:-0.121467,0.831304,-0.005715,0.542353 HandRight:-0.129434,0.913930,-0.092401,0.373417 HandTipLeft:0.000000,0.000000,0.000000,0.000000 HandTipRight:0.000000,0.000000,0.000000,0.000000 Head:0.000000,0.000000,0.000000,0.000000 HipLeft:0.130160,-0.677549,0.702276,-0.175482 HipRight:-0.110760,0.673878,0.710530,-0.169612 KneeLeft:-0.033620,0.716833,-0.064469,-0.693443 KneeRight:-0.028657,0.696175,0.038392,0.716272 Neck:0.037079,-0.017605,0.995530,-0.085059 ShoulderLeft:0.006855,0.778629,-0.622102,0.081729 ShoulderRight:0.055597,0.780547,0.622216,-0.022400 SpineBase:0.014955,-0.013589,0.998823,-0.044098 SpineMid:0.025808,-0.014067,0.998601,-0.043947 SpineShoulder:0.036973,-0.015775,0.997188,-0.063252 ThumbLeft:0.000000,0.000000,0.000000,0.000000 ThumbRight:0.000000,0.000000,0.000000,0.000000 WristLeft:-0.100011,0.838543,-0.081414,0.529353 WristRight:-0.105404,0.916510,0.021722,0.385263 END:
KINECT_DATA POSITION:8.044511,-0.289274,-11.810565 HEAD_JOINT1:0.980019,0.153920,-0.000000,0.125985 LARM_JOINT2:0.836332,0.000000,-0.008978,-0.548149 LARM_JOINT3:0.965647,0.000000,-0.190729,-0.176490 LLEG_JOINT2:0.997071,0.023578,0.000000,0.072762 LLEG_JOINT4:0.994243,0.097646,0.000000,-0.044115 RARM_JOINT2:0.792272,0.000000,-0.062669,0.606941 RARM_JOINT3:0.963782,0.000000,0.231688,0.132076 RLEG_JOINT2:0.999012,0.004966,0.000000,-0.044163 RLEG_JOINT4:0.994285,0.103525,0.000000,0.026058 WAIST:0.999857,0.000000,-0.016504,-0.003669 WAIST_JOINT0:0.999212,0.000000,-0.039628,0.002320 WAIST_JOINT1:0.997569,0.068527,0.000000,-0.012686 END:
KINECT_DATA_Sensor  AnkleLeft:0.070008,0.733018,-0.101466,-0.668945 AnkleRight:0.069414,0.738778,0.085848,0.664845 ElbowLeft:-0.029367,0.899416,-0.194188,-0.390486 ElbowRight:0.019822,0.809765,0.185633,0.556262 FootLeft:0.000000,0.000000,0.000000,0.000000 FootRight:0.000000,0.000000,0.000000,0.000000 HandLeft:-0.120956,0.658891,-0.039763,0.741385 HandRight:-0.206337,0.943579,-0.119977,0.229542 HandTipLeft:0.000000,0.000000,0.000000,0.000000 HandTipRight:0.000000,0.000000,0.000000,0.000000 Head:0.000000,0.000000,0.000000,0.000000 HipLeft:0.130999,-0.677635,0.701895,-0.176050 HipRight:-0.110074,0.673915,0.710777,-0.168876 KneeLeft:-0.033227,0.717713,-0.064995,-0.692502 KneeRight:-0.029691,0.695289,0.037815,0.717120 Neck:0.038433,-0.018183,0.995490,-0.084805 ShoulderLeft:0.006301,0.778638,-0.622021,0.082297 ShoulderRight:0.056813,0.780667,0.622012,-0.020788 SpineBase:0.016168,-0.013833,0.998807,-0.043963 SpineMid:0.027097,-0.014313,0.998570,-0.043809 SpineShoulder:0.038331,-0.016223,0.997140,-0.063088 ThumbLeft:0.000000,0.000000,0.000000,0.000000 ThumbRight:0.000000,0.000000,0.000000,0.000000 WristLeft:-0.076161,0.662328,-0.105879,0.737774 WristRight:-0.105494,0.958706,0.027891,0.262632 END:
KINECT_DATA POSITION:8.026940,-0.341275,-11.792194 HEAD_JOINT1:0.978857,0.150673,-0.000000,0.138338 LARM_JOINT2:0.838104,0.000000,-0.008034,-0.545452 LARM_JOINT3:0.958818,0.000000,-0.205695,-0.195850 LLEG_JOINT2:0.997089,0.023931,0.000000,0.072393 LLEG_JOINT4:0.994718,0.093437,0.000000,-0.042499 RARM_JOINT2:0.790247,0.000000,-0.062744,0.609567 RARM_JOINT3:0.935521,0.000000,0.301885,0.183482 RLEG_JOINT2:0.998941,0.003586,0.000000,-0.045864 RLEG_JOINT4:0.994234,0.104255,0.000000,0.025087 WAIST:0.999808,0.000000,-0.019342,-0.003058 WAIST_JOINT0:0.999010,0.000000,-0.044212,0.004924 WAIST_JOINT1:0.997584,0.068114,0.000000,-0.013629 END:
KINECT_DATA_Sensor  AnkleLeft:0.066431,0.740589,-0.099839,-0.661171 AnkleRight:0.067761,0.736150,0.086890,0.667788 ElbowLeft:-0.030265,0.901235,-0.196906,-0.384822 ElbowRight:0.020131,0.804085,0.183013,0.565286 FootLeft:0.000000,0.000000,0.000000,0.000000 FootRight:0.000000,0.000000,0.000000,0.000000 HandLeft:-0.160686,0.640916,-0.029487,0.750025 HandRight:-0.219045,0.842825,-0.300836,0.388796 HandTipLeft:0.000000,0.000000,0.000000,0.000000 HandTipRight:0.000000,0.000000,0.000000,0.000000 Head:0.000000,0.000000,0.000000,0.000000 HipLeft:0.132949,-0.677131,0.701755,-0.177080 HipRight:-0.108450,0.674964,0.710495,-0.166907 KneeLeft:-0.033338,0.719654,-0.065322,-0.690449 KneeRight:-0.031332,0.693241,0.037732,0.719035 Neck:0.042698,-0.018375,0.995353,-0.084333 ShoulderLeft:0.003396,0.778989,-0.621224,0.085125 ShoulderRight:0.059381,0.783666,0.618117,-0.016525 SpineBase:0.018948,-0.013894,0.998780,-0.043423 SpineMid:0.030613,-0.014400,0.998491,-0.043258 SpineShoulder:0.042595,-0.016477,0.996985,-0.062724 ThumbLeft:0.000000,0.000000,0.000000,0.000000 ThumbRight:0.000000,0.000000,0.000000,0.000000 WristLeft:-0.090916,0.646826,-0.107671,0.749505 WristRight:-0.152190,0.887205,-0.039834,0.433728 END:
KINECT_DATA POSITION:8.064775,-0.393631,-11.672771 HEAD_JOINT1:0.978111,0.148050,-0.000000,0.146219 LARM_JOINT2:0.839225,0.000000,-0.007710,-0.543729 LARM_JOINT3:0.958066,0.000000,-0.209807,-0.195167 LLEG_JOINT2:0.997196,0.025679,0.000000,0.070286 LLEG_JOINT4:0.995186,0.090056,0.000000,-0.038658 RARM_JOINT2:0.792205,0.000000,-0.055901,0.607689 RARM_JOINT3:0.914435,0.000000,0.349600,0.203932 RLEG_JOINT2:0.998856,0.001426,0.000000,-0.047808 RLEG_JOINT4:0.993851,0.107464,0.000000,0.026684 WAIST:0.999736,0.000000,-0.022809,-0.002587 WAIST_JOINT0:0.998864,0.000000,-0.047172,0.006758 WAIST_JOINT1:0.997648,0.067270,0.000000,-0.013157 END:
KINECT_DATA_Sensor  AnkleLeft:0.064121,0.748101,-0.100090,-0.652852 AnkleRight:0.063296,0.689586,0.091407,0.715619 ElbowLeft:-0.031941,0.903641,-0.199323,-0.377733 ElbowRight:0.014574,0.803190,0.181408,0.567243 FootLeft:0.000000,0.000000,0.000000,0.000000 FootRight:0.000000,0.000000,0.000000,0.000000 HandLeft:-0.157921,0.715967,-0.030340,0.679362 HandRight:-0.275986,0.843600,-0.323908,0.327497 HandTipLeft:0.000000,0.000000,0.000000,0.000000 HandTipRight:0.000000,0.000000,0.000000,0.000000 Head:0.000000,0.000000,0.000000,0.000000 HipLeft:0.135683,-0.676358,0.701709,-0.178143 HipRight:-0.107566,0.675798,0.710563,-0.163791 KneeLeft:-0.031162,0.722200,-0.065341,-0.687886 KneeRight:-0.033784,0.690623,0.037412,0.721456 Neck:0.045544,-0.016588,0.995345,-0.083305 ShoulderLeft:0.000377,0.779124,-0.620758,0.087328 ShoulderRight:0.059860,0.786043,0.615106,-0.014105 SpineBase:0.022420,-0.012952,0.998783,-0.041967 SpineMid:0.033760,-0.013428,0.998464,-0.041817 SpineShoulder:0.045406,-0.015442,0.996921,-0.062031 ThumbLeft:0.000000,0.000000,0.000000,0.000000 ThumbRight:0.000000,0.000000,0.000000,0.000000 WristLeft:-0.108577,0.730957,-0.095106,0.666984 WristRight:-0.196109,0.897013,-0.072286,0.389466 END:
KINECT_DATA POSITION:8.224499,-0.477814,-11.346006 HEAD_JOINT1:0.977632,0.146352,-0.000000,0.151051 LARM_JOINT2:0.839782,0.000000,-0.004772,-0.542903 LARM_JOINT3:0.957752,0.000000,-0.209306,-0.197239 LLEG_JOINT2:0.997540,0.028643,0.000000,0.063985 LLEG_JOINT4:0.995306,0.088701,0.000000,-0.038717 RARM_JOINT2:0.795374,0.000000,-0.043137,0.604581 RARM_JOINT3:0.897333,0.000000,0.391264,0.204218 RLEG_JOINT2:0.998594,0.001453,0.000000,-0.052999 RLEG_JOINT4:0.993508,0.110364,0.000000,0.027583 WAIST:0.999687,0.000000,-0.025036,0.000179 WAIST_JOINT0:0.998748,0.000000,-0.049287,0.008583 WAIST_JOINT1:0.997776,0.065211,0.000000,-0.013804 END:
KINECT_DATA_Sensor  AnkleLeft:0.064485,0.729064,-0.100830,-0.673900 AnkleRight:0.071627,0.739887,0.089211,0.662931 ElbowLeft:-0.033117,0.903911,-0.202309,-0.375392 ElbowRight:0.003262,0.803045,0.177371,0.568901 FootLeft:0.000000,0.000000,0.000000,0.000000 FootRight:0.000000,0.000000,0.000000,0.000000 HandLeft:-0.146790,0.829789,-0.005011,0.538403 HandRight:-0.373467,0.852591,-0.287541,0.225679 HandTipLeft:0.000000,0.000000,0.000000,0.000000 HandTipRight:0.000000,0.000000,0.000000,0.000000 Head:0.000000,0.000000,0.000000,0.000000 HipLeft:0.138431,-0.674582,0.703081,-0.177349 HipRight:-0.108642,0.678506,0.708764,-0.159623 KneeLeft:-0.026643,0.723914,-0.065022,-0.686302 KneeRight:-0.035310,0.688874,0.039309,0.722952 Neck:0.047612,-0.013731,0.995454,-0.081337 ShoulderLeft:-0.002905,0.779148,-0.620619,0.088043 ShoulderRight:0.058985,0.788425,0.612188,-0.011512 SpineBase:0.024579,-0.010012,0.998904,-0.038565 SpineMid:0.035910,-0.010449,0.998560,-0.038449 SpineShoulder:0.047453,-0.013380,0.996976,-0.060069 ThumbLeft:0.000000,0.000000,0.000000,0.000000 ThumbRight:0.000000,0.000000,0.000000,0.000000 WristLeft:-0.127322,0.837777,-0.074363,0.525728 WristRight:-0.239221,0.918121,-0.080005,0.305656 END:
KINECT_DATA POSITION:8.331993,-0.517393,-11.028528 HEAD_JOINT1:0.977887,0.146797,-0.000000,0.148958 LARM_JOINT2:0.839339,0.000000,-0.001756,-0.543606 LARM_JOINT3:0.957257,0.000000,-0.209878,-0.199024 LLEG_JOINT2:0.997750,0.032799,0.000000,0.058478 LLEG_JOINT4:0.995349,0.089698,0.000000,-0.035144 RARM_JOINT2:0.798054,0.000000,-0.037807,0.601399 RARM_JOINT3:0.894032,0.000000,0.368071,0.255404 RLEG_JOINT2:0.998347,0.004808,0.000000,-0.057273 RLEG_JOINT4:0.994084,0.105106,0.000000,0.027364 WAIST:0.999683,0.000000,-0.025031,0.002553 WAIST_JOINT0:0.998809,0.000000,-0.047668,0.010388 WAIST_JOINT1:0.997939,0.062721,0.000000,-0.013555 END:
KINECT_DATA_Sensor  AnkleLeft:0.069462,0.739063,-0.103752,-0.661964 AnkleRight:0.070020,0.748800,0.088795,0.653078 ElbowLeft:-0.033825,0.903048,-0.204012,-0.376484 ElbowRight:-0.003687,0.802103,0.175281,0.570871 FootLeft:0.000000,0.000000,0.000000,0.000000 FootRight:0.000000,0.000000,0.000000,0.000000 HandLeft:-0.144358,0.788020,-0.017257,0.598236 HandRight:-0.275869,0.912081,-0.303269,-0.005669 HandTipLeft:0.000000,0.000000,0.000000,0.000000 HandTipRight:0.000000,0.000000,0.000000,0.000000 Head:0.000000,0.000000,0.000000,0.000000 HipLeft:0.139780,-0.673364,0.704389,-0.175722 HipRight:-0.110824,0.680620,0.706926,-0.157259 KneeLeft:-0.021445,0.724075,-0.065910,-0.686230 KneeRight:-0.034145,0.688845,0.043043,0.722824 Neck:0.046046,-0.010504,0.995782,-0.078667 ShoulderLeft:-0.004233,0.779389,-0.620616,0.085852 ShoulderRight:0.055396,0.790726,0.609545,-0.011763 SpineBase:0.024533,-0.007508,0.999036,-0.035631 SpineMid:0.035129,-0.007885,0.998719,-0.035549 SpineShoulder:0.045882,-0.010848,0.997218,-0.057727 ThumbLeft:0.000000,0.000000,0.000000,0.000000 ThumbRight:0.000000,0.000000,0.000000,0.000000 WristLeft:-0.122849,0.796716,-0.084914,0.585611 WristRight:-0.285763,0.954988,-0.032993,0.072445 END:
KINECT_DATA POSITION:8.422415,-0.517123,-10.842907 HEAD_JOINT1:0.978308,0.146044,-0.000000,0.146919 LARM_JOINT2:0.838899,0.000000,0.000050,-0.544287 LARM_JOINT3:0.956234,0.000000,-0.212033,-0.201638 LLEG_JOINT2:0.997930,0.034565,0.000000,0.054225 LLEG_JOINT4:0.995793,0.085478,0.000000,-0.033021 RARM_JOINT2:0.799384,0.000000,-0.038197,0.599605 RARM_JOINT3:0.882485,0.000000,0.394614,0.255931 RLEG_JOINT2:0.998095,0.005446,0.000000,-0.061450 RLEG_JOINT4:0.993823,0.106350,0.000000,0.031711 WAIST:0.999677,0.000000,-0.024985,0.004690 WAIST_JOINT0:0.998933,0.000000,-0.044898,0.010838 WAIST_JOINT1:0.998017,0.061484,0.000000,-0.013457 END:
KINECT_DATA_Sensor  AnkleLeft:0.067819,0.739963,-0.102054,-0.661392 AnkleRight:0.065220,0.690474,0.094011,0.714250 ElbowLeft:-0.034323,0.902098,-0.205421,-0.377946 ElbowRight:-0.004843,0.800806,0.174811,0.572824 FootLeft:0.000000,0.000000,0.000000,0.000000 FootRight:0.000000,0.000000,0.000000,0.000000 HandLeft:-0.147857,0.869365,0.006544,0.471486 HandRight:-0.305231,0.904384,-0.298096,0.007968 HandTipLeft:0.000000,0.000000,0.000000,0.000000 HandTipRight:0.000000,0.000000,0.000000,0.000000 Head:0.000000,0.000000,0.000000,0.000000 HipLeft:0.139846,-0.671968,0.705715,-0.175695 HipRight:-0.111606,0.682212,0.705371,-0.156788 KneeLeft:-0.018651,0.724042,-0.065760,-0.686360 KneeRight:-0.035052,0.688837,0.045001,0.722669 Neck:0.043519,-0.008445,0.995998,-0.077601 ShoulderLeft:-0.004617,0.779516,-0.620692,0.084114 ShoulderRight:0.051675,0.790768,0.609767,-0.014131 SpineBase:0.024418,-0.005458,0.999070,-0.035114 SpineMid:0.033868,-0.005790,0.998794,-0.035060 SpineShoulder:0.043431,-0.008385,0.997421,-0.056517 ThumbLeft:0.000000,0.000000,0.000000,0.000000 ThumbRight:0.000000,0.000000,0.000000,0.000000 WristLeft:-0.136584,0.875705,-0.066129,0.458380 WristRight:-0.309730,0.945407,-0.050343,0.087967 END:
KINECT_DATA POSITION:8.468272,-0.546456,-10.664331 HEAD_JOINT1:0.978303,0.146539,-0.000000,0.146456 LARM_JOINT2:0.838212,0.000000,0.000608,-0.545344 LARM_JOINT3:0.956710,0.000000,-0.207407,-0.204178 LLEG_JOINT2:0.997978,0.036589,0.000000,0.051979 LLEG_JOINT4:0.995986,0.084149,0.000000,-0.030498 RARM_JOINT2:0.802464,0.000000,-0.037820,0.595501 RARM_JOINT3:0.877295,0.000000,0.406940,0.254467 RLEG_JOINT2:0.997942,0.005145,0.000000,-0.063918 RLEG_JOINT4:0.993306,0.110966,0.000000,0.032085 WAIST:0.999699,0.000000,-0.023825,0.005826 WAIST_JOINT0:0.998950,0.000000,-0.044420,0.011197 WAIST_JOINT1:0.998085,0.060395,0.000000,-0.013387 END:
KINECT_DATA_Sensor  AnkleLeft:0.066685,0.734221,-0.103993,-0.667577 AnkleRight:0.076530,0.754624,0.090913,0.645307 ElbowLeft:-0.034557,0.901548,-0.205187,-0.379363 ElbowRight:-0.009219,0.798095,0.177317,0.575775 FootLeft:0.000000,0.000000,0.000000,0.000000 FootRight:0.000000,0.000000,0.000000,0.000000 HandLeft:-0.135882,0.714903,-0.016615,0.685692 HandRight:0.354020,-0.214621,-0.245746,0.876480 HandTipLeft:0.000000,0.000000,0.000000,0.000000 HandTipRight:0.000000,0.000000,0.000000,0.000000 Head:0.000000,0.000000,0.000000,0.000000 HipLeft:0.139326,-0.671400,0.706568,-0.174850 HipRight:-0.112838,0.682954,0.704434,-0.156889 KneeLeft:-0.016352,0.723263,-0.066493,-0.687169 KneeRight:-0.036227,0.689614,0.045735,0.721823 Neck:0.042912,-0.007799,0.996098,-0.076730 ShoulderLeft:-0.004453,0.779805,-0.620552,0.082463 ShoulderRight:0.051024,0.791884,0.608391,-0.013319 SpineBase:0.023233,-0.004263,0.999124,-0.034544 SpineMid:0.033013,-0.004601,0.998849,-0.034501 SpineShoulder:0.042891,-0.007156,0.997519,-0.055359 ThumbLeft:0.000000,0.000000,0.000000,0.000000 ThumbRight:0.000000,0.000000,0.000000,0.000000 WristLeft:-0.114947,0.727300,-0.099907,0.669209 WristRight:0.113810,-0.276076,-0.304882,0.904365 END:
KINECT_DATA POSITION:8.518590,-0.571243,-10.549045 HEAD_JOINT1:0.978703,0.147559,-0.000000,0.142714 LARM_JOINT2:0.836331,0.000000,0.001862,-0.548221 LARM_JOINT3:0.957237,0.000000,-0.206498,-0.202624 LLEG_JOINT2:0.998037,0.037620,0.000000,0.050068 LLEG_JOINT4:0.995968,0.084716,0.000000,-0.029513 RARM_JOINT2:0.803569,0.000000,-0.024898,0.594690 RARM_JOINT3:0.873675,0.000000,0.407183,0.266261 RLEG_JOINT2:0.997810,0.007546,0.000000,-0.065709 RLEG_JOINT4:0.993583,0.108573,0.000000,0.031707 WAIST:0.999752,0.000000,-0.021188,0.006825 WAIST_JOINT0:0.999087,0.000000,-0.040945,0.012188 WAIST_JOINT1:0.998154,0.059479,0.000000,-0.012258 END:
KINECT_DATA_Sensor  AnkleLeft:0.067809,0.730775,-0.105140,-0.671055 AnkleRight:0.066581,0.692511,0.098746,0.711509 ElbowLeft:-0.033970,0.899244,-0.204119,-0.385411 ElbowRight:-0.016034,0.810213,0.171036,0.560396 FootLeft:0.000000,0.000000,0.000000,0.000000 FootRight:0.000000,0.000000,0.000000,0.000000 HandLeft:-0.133412,0.755296,-0.008152,0.641609 HandRight:0.309760,-0.014341,-0.306610,0.899907 HandTipLeft:0.000000,0.000000,0.000000,0.000000 HandTipRight:0.000000,0.000000,0.000000,0.000000 Head:0.000000,0.000000,0.000000,0.000000 HipLeft:0.138341,-0.671157,0.707370,-0.173314 HipRight:-0.115507,0.683477,0.703275,-0.157865 KneeLeft:-0.014798,0.721440,-0.066648,-0.689103 KneeRight:-0.035154,0.691541,0.047879,0.719890 Neck:0.039497,-0.005447,0.996356,-0.075400 ShoulderLeft:-0.002504,0.779615,-0.621238,0.079110 ShoulderRight:0.048501,0.792643,0.607559,-0.015402 SpineBase:0.020595,-0.002906,0.999217,-0.033654 SpineMid:0.029986,-0.003222,0.998979,-0.033625 SpineShoulder:0.039474,-0.005257,0.997716,-0.054559 ThumbLeft:0.000000,0.000000,0.000000,0.000000 ThumbRight:0.000000,0.000000,0.000000,0.000000 WristLeft:-0.119838,0.765706,-0.094683,0.624794 WristRight:0.073687,-0.092583,-0.332425,0.935677 END:
KINECT_DATA POSITION:8.634133,-0.624116,-10.455608 HEAD_JOINT1:0.979117,0.150520,-0.000000,0.136653 LARM_JOINT2:0.832682,0.000000,0.009365,-0.553673 LARM_JOINT3:0.960554,0.000000,-0.201156,-0.192019 LLEG_JOINT2:0.998242,0.038244,0.000000,0.045276 LLEG_JOINT4:0.996319,0.082500,0.000000,-0.023305 RARM_JOINT2:0.804969,0.000000,-0.001056,0.593316 RARM_JOINT3:0.871944,0.000000,0.409782,0.267940 RLEG_JOINT2:0.997433,0.010529,0.000000,-0.070832 RLEG_JOINT4:0.993786,0.105817,0.000000,0.034526 WAIST:0.999816,0.000000,-0.016747,0.009368 WAIST_JOINT0:0.999491,0.000000,-0.027448,0.016281 WAIST_JOINT1:0.998334,0.056522,0.000000,-0.011623 END:
KINECT_DATA_Sensor  AnkleLeft:0.065524,0.735255,-0.105888,-0.666254 AnkleRight:0.075688,0.760623,0.092154,0.638148 ElbowLeft:-0.032238,0.889929,-0.202266,-0.407524 ElbowRight:-0.032363,0.823261,0.158693,0.544068 FootLeft:0.000000,0.000000,0.000000,0.000000 FootRight:0.000000,0.000000,0.000000,0.000000 HandLeft:-0.093332,0.815758,-0.001689,0.570811 HandRight:0.310687,0.056828,-0.338801,0.886261 HandTipLeft:0.000000,0.000000,0.000000,0.000000 HandTipRight:0.000000,0.000000,0.000000,0.000000 Head:0.000000,0.000000,0.000000,0.000000 HipLeft:0.137269,-0.670246,0.709031,-0.170891 HipRight:-0.120506,0.684878,0.700536,-0.160220 KneeLeft:-0.012450,0.718302,-0.065599,-0.692520 KneeRight:-0.034999,0.694760,0.051670,0.716529 Neck:0.026092,-0.001377,0.997102,-0.071449 ShoulderLeft:0.003359,0.778744,-0.623665,0.067743 ShoulderRight:0.037110,0.795801,0.603904,-0.024996 SpineBase:0.016095,-0.000801,0.999356,-0.032069 SpineMid:0.021054,-0.000960,0.999264,-0.032064 SpineShoulder:0.026047,-0.002046,0.998308,-0.051938 ThumbLeft:0.000000,0.000000,0.000000,0.000000 ThumbRight:0.000000,0.000000,0.000000,0.000000 WristLeft:-0.126165,0.815635,-0.091680,0.557151 WristRight:0.070049,-0.029411,-0.349104,0.933999 END:
KINECT_DATA POSITION:8.861844,-0.638963,-10.395980 HEAD_JOINT1:0.980067,0.154676,-0.000000,0.124675 LARM_JOINT2:0.826611,0.000000,0.015780,-0.562552 LARM_JOINT3:0.964943,0.000000,-0.194390,-0.176343 LLEG_JOINT2:0.998489,0.037158,0.000000,0.040494 LLEG_JOINT4:0.996436,0.081468,0.000000,-0.021878 RARM_JOINT2:0.802656,0.000000,0.014998,0.596254 RARM_JOINT3:0.866600,0.000000,0.417401,0.273461 RLEG_JOINT2:0.996960,0.013827,0.000000,-0.076684 RLEG_JOINT4:0.993800,0.104721,0.000000,0.037353 WAIST:0.999888,0.000000,-0.008463,0.012332 WAIST_JOINT0:0.999762,0.000000,-0.003180,0.021589 WAIST_JOINT1:0.998573,0.052493,0.000000,-0.009850 END:
KINECT_DATA_Sensor  AnkleLeft:0.065053,0.729710,-0.103612,-0.672723 AnkleRight:0.074759,0.753525,0.095556,0.646127 ElbowLeft:-0.029146,0.881399,-0.197489,-0.428118 ElbowRight:-0.039078,0.845294,0.143370,0.513221 FootLeft:0.000000,0.000000,0.000000,0.000000 FootRight:0.000000,0.000000,0.000000,0.000000 HandLeft:-0.085750,0.716360,-0.034976,0.691558 HandRight:0.400563,-0.138349,-0.259387,0.867829 HandTipLeft:0.000000,0.000000,0.000000,0.000000 HandTipRight:0.000000,0.000000,0.000000,0.000000 Head:0.000000,0.000000,0.000000,0.000000 HipLeft:0.133443,-0.669262,0.711810,-0.166153 HipRight:-0.128327,0.685917,0.697278,-0.163869 KneeLeft:-0.011425,0.712409,-0.063608,-0.698782 KneeRight:-0.035129,0.700684,0.055725,0.710424 Neck:0.001933,0.004222,0.997715,-0.067396 ShoulderLeft:0.016658,0.774240,-0.630993,0.046071 ShoulderRight:0.019517,0.796972,0.602290,-0.041257 SpineBase:0.007802,0.003055,0.999512,-0.030105 SpineMid:0.004912,0.003142,0.999530,-0.030096 SpineShoulder:0.001904,0.002898,0.998852,-0.047773 ThumbLeft:0.000000,0.000000,0.000000,0.000000 ThumbRight:0.000000,0.000000,0.000000,0.000000 WristLeft:-0.093156,0.719998,-0.114196,0.678148 WristRight:0.189109,-0.209594,-0.335398,0.898786 END:
KINECT_DATA POSITION:9.050262,-0.684475,-10.393869 HEAD_JOINT1:0.980861,0.157260,-0.000000,0.114813 LARM_JOINT2:0.823577,0.000000,0.018355,-0.566907 LARM_JOINT3:0.964429,0.000000,-0.200423,-0.172356 LLEG_JOINT2:0.998680,0.037644,0.000000,0.034955 LLEG_JOINT4:0.996409,0.082268,0.000000,-0.020025 RARM_JOINT2:0.798265,0.000000,0.029079,0.601604 RARM_JOINT3:0.864556,0.000000,0.429306,0.261227 RLEG_JOINT2:0.996531,0.015876,0.000000,-0.081693 RLEG_JOINT4:0.993876,0.103692,0.000000,0.038192 WAIST:0.999866,0.000000,-0.001416,0.016332 WAIST_JOINT0:0.999626,-0.000000,0.011639,0.024750 WAIST_JOINT1:0.998661,0.050783,0.000000,-0.009908 END:
KINECT_DATA_Sensor  AnkleLeft:0.066335,0.724006,-0.104265,-0.678633 AnkleRight:0.074236,0.755074,0.097152,0.644138 ElbowLeft:-0.029122,0.872906,-0.196308,-0.445701 ElbowRight:-0.044957,0.852339,0.127027,0.505332 FootLeft:0.000000,0.000000,0.000000,0.000000 FootRight:0.000000,0.000000,0.000000,0.000000 HandLeft:-0.094681,0.663715,-0.054314,0.739978 HandRight:0.439385,-0.192100,-0.275258,0.833230 HandTipLeft:0.000000,0.000000,0.000000,0.000000 HandTipRight:0.000000,0.000000,0.000000,0.000000 Head:0.000000,0.000000,0.000000,0.000000 HipLeft:0.129969,-0.667582,0.715015,-0.161851 HipRight:-0.134139,0.687928,0.693478,-0.166883 KneeLeft:-0.009610,0.707299,-0.062878,-0.704047 KneeRight:-0.034837,0.705796,0.057595,0.705210 Neck:-0.012895,0.008222,0.997705,-0.065959 ShoulderLeft:0.022421,0.771381,-0.634993,0.035402 ShoulderRight:0.006194,0.798276,0.599871,-0.053590 SpineBase:0.000661,0.006327,0.999570,-0.028635 SpineMid:-0.006004,0.006518,0.999552,-0.028592 SpineShoulder:-0.012871,0.006816,0.998845,-0.045784 ThumbLeft:0.000000,0.000000,0.000000,0.000000 ThumbRight:0.000000,0.000000,0.000000,0.000000 WristLeft:-0.080640,0.664888,-0.127230,0.731597 WristRight:0.227054,-0.267584,-0.322349,0.879168 END:
KINECT_DATA POSITION:9.166731,-0.720084,-10.407662 HEAD_JOINT1:0.981374,0.158668,-0.000000,0.108300 LARM_JOINT2:0.822567,0.000000,0.020245,-0.568308 LARM_JOINT3:0.963531,0.000000,-0.202703,-0.174698 LLEG_JOINT2:0.998747,0.037994,0.000000,0.032571 LLEG_JOINT4:0.996879,0.076662,0.000000,-0.018868 RARM_JOINT2:0.796391,0.000000,0.044893,0.603113 RARM_JOINT3:0.861271,0.000000,0.426357,0.276465 RLEG_JOINT2:0.996277,0.017581,0.000000,-0.084398 RLEG_JOINT4:0.993897,0.102893,0.000000,0.039764 WAIST:0.999830,-0.000000,0.003714,0.018083 WAIST_JOINT0:0.999432,-0.000000,0.020499,0.026756 WAIST_JOINT1:0.998721,0.049737,0.000000,-0.009096 END:
KINECT_DATA_Sensor  AnkleLeft:0.063386,0.726541,-0.100219,-0.676813 AnkleRight:0.072842,0.745774,0.099011,0.654761 ElbowLeft:-0.028506,0.869242,-0.197299,-0.452414 ElbowRight:-0.053178,0.861289,0.115510,0.491945 FootLeft:0.000000,0.000000,0.000000,0.000000 FootRight:0.000000,0.000000,0.000000,0.000000 HandLeft:-0.113945,0.782801,-0.036447,0.610664 HandRight:0.424514,-0.055335,-0.312011,0.848160 HandTipLeft:0.000000,0.000000,0.000000,0.000000 HandTipRight:0.000000,0.000000,0.000000,0.000000 Head:0.000000,0.000000,0.000000,0.000000 HipLeft:0.127715,-0.667028,0.716571,-0.159021 HipRight:-0.138809,0.688540,0.691387,-0.169201 KneeLeft:0.008661,-0.703596,0.062658,0.707779 KneeRight:-0.034668,0.709463,0.059242,0.701392 Neck:-0.021782,0.010450,0.997590,-0.065037 ShoulderLeft:0.025053,0.769725,-0.637196,0.029628 ShoulderRight:-0.002652,0.799069,0.598081,-0.061487 SpineBase:-0.004471,0.008484,0.999576,-0.027477 SpineMid:-0.012959,0.008717,0.999502,-0.027404 SpineShoulder:-0.021696,0.009366,0.998728,-0.044547 ThumbLeft:0.000000,0.000000,0.000000,0.000000 ThumbRight:0.000000,0.000000,0.000000,0.000000 WristLeft:-0.100816,0.788504,-0.112827,0.596127 WristRight:0.200405,-0.141730,-0.354378,0.902312 END:
KINECT_DATA POSITION:9.186649,-0.730427,-10.424269 HEAD_JOINT1:0.982062,0.158978,-0.000000,0.101392 LARM_JOINT2:0.821452,0.000000,0.021876,-0.569857 LARM_JOINT3:0.963041,0.000000,-0.204870,-0.174870 LLEG_JOINT2:0.998777,0.037434,0.000000,0.032293 LLEG_JOINT4:0.997032,0.075129,0.000000,-0.016793 RARM_JOINT2:0.796267,0.000000,0.059698,0.601993 RARM_JOINT3:0.860541,0.000000,0.421939,0.285372 RLEG_JOINT2:0.996333,0.018367,0.000000,-0.083560 RLEG_JOINT4:0.994007,0.102389,0.000000,0.038296 WAIST:0.999807,-0.000000,0.008008,0.017948 WAIST_JOINT0:0.999283,-0.000000,0.025297,0.028172 WAIST_JOINT1:0.998740,0.049691,0.000000,-0.007007 END:
KINECT_DATA_Sensor  AnkleLeft:0.061690,0.727933,-0.099380,-0.675597 AnkleRight:0.068822,0.727380,0.102292,0.675069 ElbowLeft:-0.027403,0.865224,-0.197871,-0.459873 ElbowRight:-0.060857,0.872938,0.108528,0.471696 FootLeft:0.000000,0.000000,0.000000,0.000000 FootRight:0.000000,0.000000,0.000000,0.000000 HandLeft:-0.120428,0.756164,-0.044481,0.641665 HandRight:0.397023,0.078672,-0.367305,0.837419 HandTipLeft:0.000000,0.000000,0.000000,0.000000 HandTipRight:0.000000,0.000000,0.000000,0.000000 Head:0.000000,0.000000,0.000000,0.000000 HipLeft:0.125576,-0.667570,0.716882,-0.157038 HipRight:-0.142111,0.688147,0.690736,-0.170711 KneeLeft:0.008561,-0.700543,0.061953,0.710864 KneeRight:-0.033922,0.712493,0.059102,0.698363 Neck:-0.026725,0.011850,0.997446,-0.065165 ShoulderLeft:0.025036,0.767657,-0.639742,0.028400 ShoulderRight:-0.009156,0.799040,0.597395,-0.067603 SpineBase:-0.008695,0.010011,0.999552,-0.026819 SpineMid:-0.017502,0.010247,0.999437,-0.026730 SpineShoulder:-0.026575,0.011256,0.998598,-0.044365 ThumbLeft:0.000000,0.000000,0.000000,0.000000 ThumbRight:0.000000,0.000000,0.000000,0.000000 WristLeft:-0.093167,0.764749,-0.118934,0.626366 WristRight:0.169273,-0.017720,-0.374748,0.911371 END:
KINECT_DATA POSITION:9.173324,-0.748421,-10.401070 HEAD_JOINT1:0.982967,0.159273,-0.000000,0.091698 LARM_JOINT2:0.819515,0.000000,0.021005,-0.572673 LARM_JOINT3:0.964070,0.000000,-0.203397,-0.170878 LLEG_JOINT2:0.998778,0.036447,0.000000,0.033379 LLEG_JOINT4:0.997038,0.075429,0.000000,-0.015019 RARM_JOINT2:0.796297,0.000000,0.076035,0.600108 RARM_JOINT3:0.863031,0.000000,0.406246,0.300237 RLEG_JOINT2:0.996335,0.018775,0.000000,-0.083447 RLEG_JOINT4:0.993812,0.103959,0.000000,0.039124 WAIST:0.999757,-0.000000,0.013628,0.017354 WAIST_JOINT0:0.998881,-0.000000,0.035915,0.030780 WAIST_JOINT1:0.998769,0.049449,0.000000,-0.003862 END:
KINECT_DATA_Sensor  AnkleLeft:0.061391,0.732425,-0.099479,-0.670738 AnkleRight:0.074947,0.763504,0.100089,0.633582 ElbowLeft:-0.028145,0.859716,-0.196622,-0.470571 ElbowRight:-0.069668,0.886223,0.101001,0.446715 FootLeft:0.000000,0.000000,0.000000,0.000000 FootRight:0.000000,0.000000,0.000000,0.000000 HandLeft:-0.108351,0.695993,-0.052275,0.707899 HandRight:0.395046,0.170842,-0.377184,0.820051 HandTipLeft:0.000000,0.000000,0.000000,0.000000 HandTipRight:0.000000,0.000000,0.000000,0.000000 Head:0.000000,0.000000,0.000000,0.000000 HipLeft:0.123735,-0.668306,0.716778,-0.155838 HipRight:-0.147625,0.687026,0.689855,-0.174075 KneeLeft:0.009333,-0.696535,0.061601,0.714813 KneeRight:-0.034379,0.716355,0.059472,0.694346 Neck:-0.037566,0.014242,0.997085,-0.064866 ShoulderLeft:0.029962,0.765306,-0.642608,0.021531 ShoulderRight:-0.018274,0.799943,0.594798,-0.077287 SpineBase:-0.014212,0.011976,0.999482,-0.026283 SpineMid:-0.025629,0.012276,0.999254,-0.026144 SpineShoulder:-0.037368,0.013829,0.998237,-0.043995 ThumbLeft:0.000000,0.000000,0.000000,0.000000 ThumbRight:0.000000,0.000000,0.000000,0.000000 WristLeft:-0.080143,0.706167,-0.130856,0.691218 WristRight:0.152137,0.067654,-0.380631,0.909614 END:
KINECT_DATA POSITION:9.123579,-0.786762,-10.359394 HEAD_JOINT1:0.983512,0.159260,-0.000000,0.085680 LARM_JOINT2:0.818485,0.000000,0.021865,-0.574112 LARM_JOINT3:0.965102,0.000000,-0.202402,-0.166167 LLEG_JOINT2:0.998653,0.035655,0.000000,0.037691 LLEG_JOINT4:0.997066,0.075107,0.000000,-0.014789 RARM_JOINT2:0.796786,0.000000,0.085685,0.598156 RARM_JOINT3:0.862010,0.000000,0.400326,0.310932 RLEG_JOINT2:0.996440,0.021236,0.000000,-0.081590 RLEG_JOINT4:0.993793,0.102680,0.000000,0.042810 WAIST:0.999634,-0.000000,0.022036,0.015671 WAIST_JOINT0:0.998307,-0.000000,0.047899,0.033008 WAIST_JOINT1:0.998788,0.049204,0.000000,-0.000723 END:
KINECT_DATA_Sensor  AnkleLeft:0.060335,0.732684,-0.099824,-0.670499 AnkleRight:0.074895,0.752436,0.100469,0.646634 ElbowLeft:-0.027399,0.852395,-0.196530,-0.483786 ElbowRight:-0.075659,0.897600,0.097312,0.423226 FootLeft:0.000000,0.000000,0.000000,0.000000 FootRight:0.000000,0.000000,0.000000,0.000000 HandLeft:-0.092937,0.739578,-0.048809,0.664834 HandRight:0.383124,0.248304,-0.405739,0.791794 HandTipLeft:0.000000,0.000000,0.000000,0.000000 HandTipRight:0.000000,0.000000,0.000000,0.000000 Head:0.000000,0.000000,0.000000,0.000000 HipLeft:0.120836,-0.669955,0.716263,-0.153382 HipRight:-0.155253,0.684499,0.689264,-0.179644 KneeLeft:0.011275,-0.690525,0.062959,0.720475 KneeRight:-0.033114,0.722220,0.060759,0.688193 Neck:-0.049630,0.015605,0.996559,-0.064530 ShoulderLeft:0.036091,0.764276,-0.643740,0.013366 ShoulderRight:-0.027709,0.801023,0.591522,-0.087732 SpineBase:-0.022489,0.012968,0.999331,-0.025768 SpineMid:-0.035779,0.013310,0.998943,-0.025593 SpineShoulder:-0.049438,0.015011,0.997707,-0.043713 ThumbLeft:0.000000,0.000000,0.000000,0.000000 ThumbRight:0.000000,0.000000,0.000000,0.000000 WristLeft:-0.086305,0.744286,-0.130671,0.649242 WristRight:0.138376,0.142277,-0.384996,0.901325 END:
KINECT_DATA POSITION:9.001007,-0.850384,-10.308802 HEAD_JOINT1:0.984751,0.156481,-0.000000,0.076017 LARM_JOINT2:0.818264,0.000000,0.023035,-0.574381 LARM_JOINT3:0.964150,0.000000,-0.209354,-0.163048 LLEG_JOINT2:0.998463,0.034273,0.000000,0.043544 LLEG_JOINT4:0.997070,0.074853,0.000000,-0.015730 RARM_JOINT2:0.798180,0.000000,0.097155,0.594532 RARM_JOINT3:0.860657,0.000000,0.394783,0.321583 RLEG_JOINT2:0.996674,0.021572,0.000000,-0.078579 RLEG_JOINT4:0.993522,0.105494,0.000000,0.042246 WAIST:0.999491,-0.000000,0.028954,0.013382 WAIST_JOINT0:0.997682,-0.000000,0.057781,0.035942 WAIST_JOINT1:0.998786,0.049161,-0.000000,0.002960 END:
KINECT_DATA_Sensor  AnkleLeft:0.058204,0.728930,-0.100289,-0.674697 AnkleRight:0.079148,0.772381,0.101011,0.622061 ElbowLeft:-0.026762,0.846244,-0.197859,-0.493971 ElbowRight:-0.083245,0.908687,0.094904,0.397934 FootLeft:0.000000,0.000000,0.000000,0.000000 FootRight:0.000000,0.000000,0.000000,0.000000 HandLeft:-0.094733,0.659792,-0.078687,0.741288 HandRight:0.357705,0.354275,-0.450658,0.737186 HandTipLeft:0.000000,0.000000,0.000000,0.000000 HandTipRight:0.000000,0.000000,0.000000,0.000000 Head:0.000000,0.000000,0.000000,0.000000 HipLeft:0.117584,-0.671706,0.715672,-0.150996 HipRight:-0.160959,0.681783,0.689689,-0.183284 KneeLeft:0.014312,-0.685550,0.064656,0.725007 KneeRight:-0.032806,0.726916,0.060239,0.683292 Neck:-0.059771,0.016926,0.995980,-0.064533 ShoulderLeft:0.041929,0.762696,-0.645366,0.006320 ShoulderRight:-0.034896,0.802849,0.587331,-0.096220 SpineBase:-0.029247,0.014126,0.999147,-0.025486 SpineMid:-0.044200,0.014506,0.998598,-0.025271 SpineShoulder:-0.059580,0.016198,0.997136,-0.043672 ThumbLeft:0.000000,0.000000,0.000000,0.000000 ThumbRight:0.000000,0.000000,0.000000,0.000000 WristLeft:-0.066463,0.660813,-0.143665,0.733668 WristRight:0.113827,0.240570,-0.392914,0.880221 END:
KINECT_DATA POSITION:8.962721,-0.863583,-10.305584 HEAD_JOINT1:0.985631,0.154551,-0.000000,0.068150 LARM_JOINT2:0.818544,0.000000,0.024756,-0.573910 LARM_JOINT3:0.963770,0.000000,-0.208775,-0.166015 LLEG_JOINT2:0.998448,0.033461,0.000000,0.044510 LLEG_JOINT4:0.997175,0.073963,0.000000,-0.013092 RARM_JOINT2:0.799140,0.000000,0.112027,0.590615 RARM_JOINT3:0.860342,0.000000,0.389525,0.328757 RLEG_JOINT2:0.996725,0.021866,0.000000,-0.077856 RLEG_JOINT4:0.993450,0.105615,0.000000,0.043625 WAIST:0.999337,-0.000000,0.034005,0.013024 WAIST_JOINT0:0.997123,-0.000000,0.066102,0.037111 WAIST_JOINT1:0.998779,0.049116,-0.000000,0.005279 END:
KINECT_DATA_Sensor  AnkleLeft:0.057386,0.739424,-0.100264,-0.663254 AnkleRight:0.077194,0.757670,0.102583,0.639886 ElbowLeft:-0.025605,0.843413,-0.200749,-0.497694 ElbowRight:-0.092195,0.920447,0.091093,0.368753 FootLeft:0.000000,0.000000,0.000000,0.000000 FootRight:0.000000,0.000000,0.000000,0.000000 HandLeft:-0.094077,0.653831,-0.073830,0.747130 HandRight:0.331307,0.394149,-0.450995,0.729030 HandTipLeft:0.000000,0.000000,0.000000,0.000000 HandTipRight:0.000000,0.000000,0.000000,0.000000 Head:0.000000,0.000000,0.000000,0.000000 HipLeft:0.114203,-0.672345,0.716160,-0.148405 HipRight:-0.164198,0.680949,0.689241,-0.185186 KneeLeft:0.015034,-0.681864,0.064579,0.728468 KneeRight:-0.032681,0.730365,0.059997,0.679632 Neck:-0.068093,0.018889,0.995412,-0.064511 ShoulderLeft:0.046810,0.762367,-0.645450,0.000115 ShoulderRight:-0.040701,0.803500,0.584908,-0.103026 SpineBase:-0.034235,0.015611,0.998971,-0.025326 SpineMid:-0.050822,0.016030,0.998264,-0.025063 SpineShoulder:-0.067884,0.018043,0.996577,-0.043586 ThumbLeft:0.000000,0.000000,0.000000,0.000000 ThumbRight:0.000000,0.000000,0.000000,0.000000 WristLeft:-0.062340,0.654695,-0.145468,0.739139 WristRight:0.115903,0.298249,-0.405062,0.856469 END:
KINECT_DATA POSITION:8.929518,-0.872485,-10.350132 HEAD_JOINT1:0.985853,0.154844,-0.000000,0.064172 LARM_JOINT2:0.818005,0.000000,0.023622,-0.574725 LARM_JOINT3:0.962765,0.000000,-0.211243,-0.168702 LLEG_JOINT2:0.998441,0.031502,0.000000,0.046074 LLEG_JOINT4:0.996925,0.076903,0.000000,-0.015062 RARM_JOINT2:0.799548,0.000000,0.115304,0.589430 RARM_JOINT3:0.858773,0.000000,0.391027,0.331069 RLEG_JOINT2:0.996754,0.022549,0.000000,-0.077283 RLEG_JOINT4:0.993255,0.107388,0.000000,0.043729 WAIST:0.999161,-0.000000,0.038896,0.012807 WAIST_JOINT0:0.996767,-0.000000,0.070874,0.037845 WAIST_JOINT1:0.998780,0.048962,-0.000000,0.006428 END:
KINECT_DATA_Sensor  AnkleLeft:0.058865,0.735091,-0.100105,-0.667949 AnkleRight:0.076949,0.749555,0.105605,0.648917 ElbowLeft:-0.025725,0.840819,-0.200334,-0.502224 ElbowRight:-0.094485,0.924974,0.089909,0.356947 FootLeft:0.000000,0.000000,0.000000,0.000000 FootRight:0.000000,0.000000,0.000000,0.000000 HandLeft:-0.106439,0.619701,-0.080578,0.773400 HandRight:0.377273,0.305057,-0.405528,0.774695 HandTipLeft:0.000000,0.000000,0.000000,0.000000 HandTipRight:0.000000,0.000000,0.000000,0.000000 Head:0.000000,0.000000,0.000000,0.000000 HipLeft:0.110604,-0.672876,0.716903,-0.145099 HipRight:-0.166913,0.680138,0.688964,-0.186763 KneeLeft:0.017114,-0.678270,0.064275,0.731796 KneeRight:-0.032286,0.733718,0.060057,0.676024 Neck:-0.072963,0.019557,0.995059,-0.064427 ShoulderLeft:0.051196,0.761021,-0.646688,-0.004595 ShoulderRight:-0.042531,0.803301,0.584538,-0.105898 SpineBase:-0.039084,0.016565,0.998784,-0.025064 SpineMid:-0.055665,0.016979,0.997997,-0.024785 SpineShoulder:-0.072745,0.018743,0.996227,-0.043460 ThumbLeft:0.000000,0.000000,0.000000,0.000000 ThumbRight:0.000000,0.000000,0.000000,0.000000 WristLeft:-0.054560,0.621799,-0.149477,0.766842 WristRight:0.167851,0.216358,-0.394384,0.877198 END:
KINECT_DATA POSITION:8.888345,-0.869752,-10.465717 HEAD_JOINT1:0.986243,0.153353,-0.000000,0.061707 LARM_JOINT2:0.817250,0.000000,0.020631,-0.575914 LARM_JOINT3:0.963436,0.000000,-0.208255,-0.168584 LLEG_JOINT2:0.998439,0.029000,0.000000,0.047725 LLEG_JOINT4:0.996970,0.076483,0.000000,-0.014171 RARM_JOINT2:0.799791,0.000000,0.117135,0.588739 RARM_JOINT3:0.853803,0.000000,0.388096,0.346991 RLEG_JOINT2:0.996783,0.023113,0.000000,-0.076743 RLEG_JOINT4:0.993175,0.107660,0.000000,0.044862 WAIST:0.998977,-0.000000,0.043432,0.012608 WAIST_JOINT0:0.996597,-0.000000,0.073242,0.037816 WAIST_JOINT1:0.998766,0.049175,-0.000000,0.006910 END:
KINECT_DATA_Sensor  AnkleLeft:0.056946,0.741592,-0.099118,-0.661040 AnkleRight:0.077776,0.750644,0.105683,0.647546 ElbowLeft:-0.026042,0.839861,-0.198551,-0.504512 ElbowRight:-0.095526,0.929114,0.089721,0.345792 FootLeft:0.000000,0.000000,0.000000,0.000000 FootRight:0.000000,0.000000,0.000000,0.000000 HandLeft:-0.101771,0.585259,-0.080202,0.800426 HandRight:0.395253,0.341387,-0.404161,0.750922 HandTipLeft:0.000000,0.000000,0.000000,0.000000 HandTipRight:0.000000,0.000000,0.000000,0.000000 Head:0.000000,0.000000,0.000000,0.000000 HipLeft:0.107958,-0.673270,0.717366,-0.142960 HipRight:-0.169963,0.679066,0.688488,-0.189646 KneeLeft:0.019686,-0.674926,0.063700,0.734867 KneeRight:-0.031957,0.736808,0.060060,0.672670 Neck:-0.075393,0.019515,0.994862,-0.064695 ShoulderLeft:0.052937,0.760763,-0.646838,-0.006173 ShoulderRight:-0.043916,0.803079,0.584340,-0.108083 SpineBase:-0.043601,0.016782,0.998588,-0.025283 SpineMid:-0.059144,0.017174,0.997788,-0.025019 SpineShoulder:-0.075180,0.018701,0.996034,-0.043759 ThumbLeft:0.000000,0.000000,0.000000,0.000000 ThumbRight:0.000000,0.000000,0.000000,0.000000 WristLeft:-0.047164,0.587197,-0.151854,0.793672 WristRight:0.167799,0.244397,-0.399501,0.867475 END:
KINECT_DATA POSITION:8.876575,-0.872771,-10.520256 HEAD_JOINT1:0.986247,0.154278,-0.000000,0.059282 LARM_JOINT2:0.816250,0.000000,0.021519,-0.577297 LARM_JOINT3:0.964576,0.000000,-0.206383,-0.164314 LLEG_JOINT2:0.998464,0.027824,0.000000,0.047911 LLEG_JOINT4:0.996864,0.077852,0.000000,-0.014178 RARM_JOINT2:0.797924,0.000000,0.124348,0.589793 RARM_JOINT3:0.854982,0.000000,0.386447,0.345925 RLEG_JOINT2:0.996847,0.022768,0.000000,-0.076015 RLEG_JOINT4:0.993442,0.105132,0.000000,0.044949 WAIST:0.998880,-0.000000,0.045781,0.011939 WAIST_JOINT0:0.996412,-0.000000,0.075766,0.037718 WAIST_JOINT1:0.998786,0.048681,-0.000000,0.007530 END:
KINECT_DATA_Sensor  AnkleLeft:0.056093,0.729678,-0.099586,-0.674170 AnkleRight:0.075569,0.752252,0.103770,0.646249 ElbowLeft:-0.025332,0.836976,-0.197059,-0.509899 ElbowRight:-0.098984,0.933707,0.085309,0.333340 FootLeft:0.000000,0.000000,0.000000,0.000000 FootRight:0.000000,0.000000,0.000000,0.000000 HandLeft:-0.117303,0.859730,-0.036886,0.495726 HandRight:0.395709,0.336118,-0.407704,0.751143 HandTipLeft:0.000000,0.000000,0.000000,0.000000 HandTipRight:0.000000,0.000000,0.000000,0.000000 Head:0.000000,0.000000,0.000000,0.000000 HipLeft:0.106584,-0.673931,0.717226,-0.141577 HipRight:-0.171628,0.678245,0.688565,-0.190804 KneeLeft:0.020084,-0.673229,0.062599,0.736506 KneeRight:-0.032289,0.738351,0.059688,0.670993 Neck:-0.077898,0.019321,0.994710,-0.064113 ShoulderLeft:0.053851,0.760855,-0.646633,-0.008044 ShoulderRight:-0.046233,0.802956,0.583949,-0.110126 SpineBase:-0.045913,0.016785,0.998488,-0.025125 SpineMid:-0.061552,0.017177,0.997646,-0.024859 SpineShoulder:-0.077689,0.018569,0.995862,-0.043349 ThumbLeft:0.000000,0.000000,0.000000,0.000000 ThumbRight:0.000000,0.000000,0.000000,0.000000 WristLeft:-0.103744,0.863006,-0.119766,0.479703 WristRight:0.178204,0.244651,-0.396453,0.866726 END:
KINECT_DATA POSITION:8.888273,-0.875220,-10.564482 HEAD_JOINT1:0.986091,0.155566,-0.000000,0.058516 LARM_JOINT2:0.815883,0.000000,0.021758,-0.577808 LARM_JOINT3:0.964845,0.000000,-0.205087,-0.164360 LLEG_JOINT2:0.998485,0.026621,0.000000,0.048161 LLEG_JOINT4:0.996754,0.079569,0.000000,-0.012218 RARM_JOINT2:0.796900,0.000000,0.128029,0.590389 RARM_JOINT3:0.855249,0.000000,0.385214,0.346639 RLEG_JOINT2:0.996861,0.023461,0.000000,-0.075615 RLEG_JOINT4:0.993299,0.106037,0.000000,0.045968 WAIST:0.998819,-0.000000,0.047223,0.011410 WAIST_JOINT0:0.996309,-0.000000,0.077141,0.037655 WAIST_JOINT1:0.998793,0.048458,-0.000000,0.007965 END:
KINECT_DATA_Sensor  AnkleLeft:0.057342,0.739899,-0.100202,-0.662738 AnkleRight:0.077137,0.752707,0.104419,0.645429 ElbowLeft:-0.024642,0.836620,-0.196460,-0.510748 ElbowRight:-0.100964,0.935142,0.082762,0.329343 FootLeft:0.000000,0.000000,0.000000,0.000000 FootRight:0.000000,0.000000,0.000000,0.000000 HandLeft:-0.097828,0.610445,-0.077868,0.782127 HandRight:0.383026,0.373916,-0.424425,0.730302 HandTipLeft:0.000000,0.000000,0.000000,0.000000 HandTipRight:0.000000,0.000000,0.000000,0.000000 Head:0.000000,0.000000,0.000000,0.000000 HipLeft:0.105829,-0.674409,0.717061,-0.140699 HipRight:-0.172725,0.677674,0.688677,-0.191436 KneeLeft:0.020694,-0.672189,0.061618,0.737521 KneeRight:-0.031993,0.739335,0.060248,0.669874 Neck:-0.079222,0.019133,0.994621,-0.063937 ShoulderLeft:0.054171,0.760949,-0.646486,-0.008865 ShoulderRight:-0.047641,0.802707,0.583944,-0.111364 SpineBase:-0.047326,0.016771,0.998427,-0.024930 SpineMid:-0.062920,0.017158,0.997566,-0.024665 SpineShoulder:-0.079016,0.018414,0.995768,-0.043158 ThumbLeft:0.000000,0.000000,0.000000,0.000000 ThumbRight:0.000000,0.000000,0.000000,0.000000 WristLeft:-0.047632,0.611860,-0.149206,0.775304 WristRight:0.164448,0.281709,-0.403653,0.854787 END:
KINECT_DATA POSITION:8.874872,-0.876550,-10.670387 HEAD_JOINT1:0.985865,0.157397,-0.000000,0.057408 LARM_JOINT2:0.815524,0.000000,0.019296,-0.578402 LARM_JOINT3:0.964373,0.000000,-0.206530,-0.165316 LLEG_JOINT2:0.998484,0.026100,0.000000,0.048456 LLEG_JOINT4:0.996774,0.079130,0.000000,-0.013418 RARM_JOINT2:0.795618,0.000000,0.134324,0.590720 RARM_JOINT3:0.854661,0.000000,0.380895,0.352807 RLEG_JOINT2:0.996895,0.024253,0.000000,-0.074909 RLEG_JOINT4:0.993722,0.101498,0.000000,0.047054 WAIST:0.998720,-0.000000,0.049372,0.011025 WAIST_JOINT0:0.996174,-0.000000,0.078760,0.037870 WAIST_JOINT1:0.998805,0.048203,-0.000000,0.008091 END:
KINECT_DATA_Sensor  AnkleLeft:0.056872,0.734118,-0.098859,-0.669375 AnkleRight:0.075294,0.754688,0.100943,0.643885 ElbowLeft:-0.025272,0.837422,-0.194801,-0.510038 ElbowRight:-0.103911,0.940448,0.080276,0.313555 FootLeft:0.000000,0.000000,0.000000,0.000000 FootRight:0.000000,0.000000,0.000000,0.000000 HandLeft:-0.131614,0.834636,-0.043595,0.533067 HandRight:0.421209,0.309042,-0.379347,0.763657 HandTipLeft:0.000000,0.000000,0.000000,0.000000 HandTipRight:0.000000,0.000000,0.000000,0.000000 Head:0.000000,0.000000,0.000000,0.000000 HipLeft:0.105056,-0.674785,0.717039,-0.139584 HipRight:-0.174507,0.676947,0.688568,-0.192782 KneeLeft:0.020893,-0.670614,0.061242,0.738979 KneeRight:-0.031352,0.740813,0.060546,0.668241 Neck:-0.080848,0.018726,0.994511,-0.063723 ShoulderLeft:0.054074,0.761047,-0.646371,-0.009413 ShoulderRight:-0.049872,0.802808,0.583252,-0.113265 SpineBase:-0.049459,0.016542,0.998334,-0.024682 SpineMid:-0.064803,0.016920,0.997456,-0.024425 SpineShoulder:-0.080649,0.018040,0.995654,-0.042941 ThumbLeft:0.000000,0.000000,0.000000,0.000000 ThumbRight:0.000000,0.000000,0.000000,0.000000 WristLeft:-0.096320,0.842576,-0.122888,0.515448 WristRight:0.208735,0.221617,-0.389231,0.869376 END:
KINECT_DATA POSITION:8.858494,-0.873806,-10.734773 HEAD_JOINT1:0.985975,0.156929,-0.000000,0.056806 LARM_JOINT2:0.815198,0.000000,0.019426,-0.578857 LARM_JOINT3:0.964136,0.000000,-0.207144,-0.165930 LLEG_JOINT2:0.998521,0.024497,0.000000,0.048539 LLEG_JOINT4:0.996719,0.080142,0.000000,-0.011310 RARM_JOINT2:0.795203,0.000000,0.137142,0.590630 RARM_JOINT3:0.853015,0.000000,0.386824,0.350331 RLEG_JOINT2:0.996900,0.024513,0.000000,-0.074766 RLEG_JOINT4:0.993414,0.103175,0.000000,0.049826 WAIST:0.998690,-0.000000,0.050045,0.010685 WAIST_JOINT0:0.996132,-0.000000,0.079331,0.037785 WAIST_JOINT1:0.998807,0.048087,-0.000000,0.008461 END:
KINECT_DATA_Sensor  AnkleLeft:0.055907,0.737205,-0.099675,-0.665934 AnkleRight:0.074557,0.729873,0.103474,0.671581 ElbowLeft:-0.024865,0.837279,-0.194355,-0.510462 ElbowRight:-0.105653,0.941229,0.078852,0.310979 FootLeft:0.000000,0.000000,0.000000,0.000000 FootRight:0.000000,0.000000,0.000000,0.000000 HandLeft:-0.118596,0.675104,-0.075176,0.724236 HandRight:0.554472,-0.076063,-0.160860,0.812957 HandTipLeft:0.000000,0.000000,0.000000,0.000000 HandTipRight:0.000000,0.000000,0.000000,0.000000 Head:0.000000,0.000000,0.000000,0.000000 HipLeft:0.104861,-0.674983,0.716944,-0.139264 HipRight:-0.175228,0.676513,0.688695,-0.193195 KneeLeft:0.021866,-0.670131,0.059998,0.739491 KneeRight:-0.031355,0.741261,0.060857,0.667717 Neck:-0.081434,0.018771,0.994467,-0.063648 ShoulderLeft:0.053888,0.761195,-0.646210,-0.009552 ShoulderRight:-0.050837,0.802864,0.582944,-0.114027 SpineBase:-0.050116,0.016491,0.998305,-0.024561 SpineMid:-0.065428,0.016866,0.997419,-0.024305 SpineShoulder:-0.081240,0.018022,0.995610,-0.042842 ThumbLeft:0.000000,0.000000,0.000000,0.000000 ThumbRight:0.000000,0.000000,0.000000,0.000000 WristLeft:-0.061429,0.677418,-0.143704,0.718805 WristRight:0.352969,-0.155649,-0.268143,0.882772 END:
KINECT_DATA POSITION:8.847882,-0.871750,-10.744202 HEAD_JOINT1:0.985907,0.157692,-0.000000,0.055867 LARM_JOINT2:0.814962,0.000000,0.019159,-0.579198 LARM_JOINT3:0.963157,0.000000,-0.211437,-0.166200 LLEG_JOINT2:0.998549,0.023126,0.000000,0.048640 LLEG_JOINT4:0.996569,0.081625,0.000000,-0.013703 RARM_JOINT2:0.793686,0.000000,0.145959,0.590558 RARM_JOINT3:0.854643,0.000000,0.389771,0.343021 RLEG_JOINT2:0.996856,0.023591,0.000000,-0.075640 RLEG_JOINT4:0.993356,0.103140,0.000000,0.051044 WAIST:0.998669,-0.000000,0.050466,0.010656 WAIST_JOINT0:0.996111,-0.000000,0.079404,0.038188 WAIST_JOINT1:0.998808,0.047988,-0.000000,0.008954 END:
KINECT_DATA_Sensor  AnkleLeft:0.055531,0.724090,-0.098910,-0.680313 AnkleRight:0.077740,0.753805,0.099855,0.644797 ElbowLeft:-0.024481,0.838676,-0.194352,-0.508184 ElbowRight:-0.110698,0.942205,0.073709,0.307510 FootLeft:0.000000,0.000000,0.000000,0.000000 FootRight:0.000000,0.000000,0.000000,0.000000 HandLeft:-0.119100,0.611737,-0.098514,0.775814 HandRight:-0.435012,0.732752,-0.376990,-0.362929 HandTipLeft:0.000000,0.000000,0.000000,0.000000 HandTipRight:0.000000,0.000000,0.000000,0.000000 Head:0.000000,0.000000,0.000000,0.000000 HipLeft:0.104733,-0.674955,0.717004,-0.139181 HipRight:-0.175752,0.676373,0.688638,-0.193414 KneeLeft:0.022912,-0.669816,0.059140,0.739814 KneeRight:-0.032676,0.741466,0.060764,0.667434 Neck:-0.081573,0.019279,0.994450,-0.063591 ShoulderLeft:0.053331,0.760939,-0.646563,-0.009204 ShoulderRight:-0.051634,0.803172,0.582355,-0.114501 SpineBase:-0.050528,0.016751,0.998282,-0.024495 SpineMid:-0.065704,0.017122,0.997398,-0.024238 SpineShoulder:-0.081377,0.018429,0.995595,-0.042757 ThumbLeft:0.000000,0.000000,0.000000,0.000000 ThumbRight:0.000000,0.000000,0.000000,0.000000 WristLeft:-0.051230,0.615907,-0.147605,0.772170 WristRight:-0.408399,0.846933,-0.186436,-0.284879 END:
KINECT_DATA POSITION:8.849592,-0.867154,-10.731352 HEAD_JOINT1:0.986081,0.156864,-0.000000,0.055114 LARM_JOINT2:0.815331,0.000000,0.018605,-0.578696 LARM_JOINT3:0.963308,0.000000,-0.211637,-0.165071 LLEG_JOINT2:0.998538,0.022828,0.000000,0.048998 LLEG_JOINT4:0.996535,0.082166,0.000000,-0.012880 RARM_JOINT2:0.794387,0.000000,0.148729,0.588922 RARM_JOINT3:0.854828,0.000000,0.390400,0.341843 RLEG_JOINT2:0.996867,0.022170,0.000000,-0.075923 RLEG_JOINT4:0.993136,0.106453,0.000000,0.048454 WAIST:0.998642,-0.000000,0.051017,0.010517 WAIST_JOINT0:0.996134,-0.000000,0.078912,0.038587 WAIST_JOINT1:0.998775,0.048516,-0.000000,0.009709 END:
KINECT_DATA_Sensor  AnkleLeft:0.055148,0.723606,-0.099858,-0.680721 AnkleRight:0.078122,0.761727,0.102377,0.634971 ElbowLeft:-0.024367,0.839497,-0.195559,-0.506368 ElbowRight:-0.112586,0.942668,0.073590,0.305426 FootLeft:0.000000,0.000000,0.000000,0.000000 FootRight:0.000000,0.000000,0.000000,0.000000 HandLeft:-0.116153,0.634302,-0.101977,0.757476 HandRight:0.370432,0.365486,-0.432473,0.736320 HandTipLeft:0.000000,0.000000,0.000000,0.000000 HandTipRight:0.000000,0.000000,0.000000,0.000000 Head:0.000000,0.000000,0.000000,0.000000 HipLeft:0.104157,-0.675011,0.717052,-0.139095 HipRight:-0.176089,0.676153,0.688686,-0.193704 KneeLeft:0.023246,-0.669410,0.059117,0.740173 KneeRight:-0.033982,0.741740,0.059972,0.667136 Neck:-0.081194,0.019893,0.994421,-0.064327 ShoulderLeft:0.052470,0.760470,-0.647204,-0.007673 ShoulderRight:-0.052137,0.803186,0.582144,-0.115250 SpineBase:-0.051063,0.017113,0.998243,-0.024704 SpineMid:-0.065782,0.017476,0.997381,-0.024449 SpineShoulder:-0.080993,0.018937,0.995595,-0.043272 ThumbLeft:0.000000,0.000000,0.000000,0.000000 ThumbRight:0.000000,0.000000,0.000000,0.000000 WristLeft:-0.054741,0.638376,-0.145524,0.753858 WristRight:0.186384,0.290719,-0.411693,0.843358 END:
KINECT_DATA POSITION:8.859719,-0.865778,-10.670006 HEAD_JOINT1:0.985238,0.161527,-0.000000,0.056701 LARM_JOINT2:0.815751,0.000000,0.018934,-0.578094 LARM_JOINT3:0.962385,0.000000,-0.213929,-0.167478 LLEG_JOINT2:0.998543,0.023206,0.000000,0.048722 LLEG_JOINT4:0.996517,0.082568,0.000000,-0.011667 RARM_JOINT2:0.794679,0.000000,0.148284,0.588640 RARM_JOINT3:0.854282,0.000000,0.390325,0.343290 RLEG_JOINT2:0.996874,0.021884,0.000000,-0.075913 RLEG_JOINT4:0.992944,0.107538,0.000000,0.049981 WAIST:0.998671,-0.000000,0.050457,0.010530 WAIST_JOINT0:0.996213,-0.000000,0.077872,0.038666 WAIST_JOINT1:0.998740,0.049260,-0.000000,0.009575 END:
KINECT_DATA_Sensor  AnkleLeft:0.057096,0.736970,-0.100028,-0.666040 AnkleRight:0.075522,0.734016,0.105052,0.666695 ElbowLeft:-0.024184,0.838757,-0.196469,-0.507249 ElbowRight:-0.111913,0.942193,0.074487,0.306920 FootLeft:0.000000,0.000000,0.000000,0.000000 FootRight:0.000000,0.000000,0.000000,0.000000 HandLeft:-0.145259,0.836225,-0.057037,0.525713 HandRight:0.372667,0.366210,-0.426283,0.738439 HandTipLeft:0.000000,0.000000,0.000000,0.000000 HandTipRight:0.000000,0.000000,0.000000,0.000000 Head:0.000000,0.000000,0.000000,0.000000 HipLeft:0.104253,-0.674816,0.717091,-0.139768 HipRight:-0.175629,0.676082,0.688854,-0.193769 KneeLeft:0.022818,-0.669837,0.059164,0.739796 KneeRight:-0.034122,0.741346,0.059766,0.667585 Neck:-0.080246,0.019683,0.994449,-0.065151 ShoulderLeft:0.050570,0.760646,-0.647176,-0.004984 ShoulderRight:-0.052944,0.803225,0.581819,-0.116243 SpineBase:-0.050503,0.017146,0.998260,-0.025166 SpineMid:-0.065021,0.017511,0.997419,-0.024914 SpineShoulder:-0.080040,0.018833,0.995642,-0.043989 ThumbLeft:0.000000,0.000000,0.000000,0.000000 ThumbRight:0.000000,0.000000,0.000000,0.000000 WristLeft:-0.100084,0.845347,-0.121075,0.510600 WristRight:0.186934,0.289726,-0.413096,0.842892 END:
KINECT_DATA POSITION:8.873679,-0.874877,-10.546696 HEAD_JOINT1:0.984919,0.162902,-0.000000,0.058288 LARM_JOINT2:0.815803,0.000000,0.017107,-0.578076 LARM_JOINT3:0.962750,0.000000,-0.212483,-0.167223 LLEG_JOINT2:0.998470,0.024795,0.000000,0.049428 LLEG_JOINT4:0.996690,0.080067,0.000000,-0.014052 RARM_JOINT2:0.794105,0.000000,0.150497,0.588854 RARM_JOINT3:0.855852,0.000000,0.389545,0.340253 RLEG_JOINT2:0.996923,0.021912,0.000000,-0.075266 RLEG_JOINT4:0.993009,0.107097,0.000000,0.049625 WAIST:0.998719,-0.000000,0.049570,0.010209 WAIST_JOINT0:0.996301,-0.000000,0.076944,0.038266 WAIST_JOINT1:0.998725,0.049622,-0.000000,0.009231 END:
KINECT_DATA_Sensor  AnkleLeft:-0.047438,-0.667930,0.103176,0.735510 AnkleRight:0.076450,0.740602,0.103912,0.659444 ElbowLeft:-0.024390,0.841326,-0.195536,-0.503331 ElbowRight:-0.112905,0.942068,0.073882,0.307085 FootLeft:0.000000,0.000000,0.000000,0.000000 FootRight:0.000000,0.000000,0.000000,0.000000 HandLeft:-0.120100,0.612900,-0.102817,0.774182 HandRight:0.380912,0.345551,-0.416275,0.749810 HandTipLeft:0.000000,0.000000,0.000000,0.000000 HandTipRight:0.000000,0.000000,0.000000,0.000000 Head:0.000000,0.000000,0.000000,0.000000 HipLeft:0.104761,-0.674792,0.716902,-0.140473 HipRight:-0.175001,0.675803,0.689329,-0.193624 KneeLeft:0.021928,-0.670503,0.060514,0.739110 KneeRight:-0.033792,0.740754,0.059616,0.668272 Neck:-0.079375,0.018945,0.994510,-0.065498 ShoulderLeft:0.050126,0.760839,-0.646990,-0.003943 ShoulderRight:-0.052254,0.803070,0.582166,-0.115895 SpineBase:-0.049610,0.016750,0.998303,-0.025475 SpineMid:-0.064139,0.017119,0.997475,-0.025229 SpineShoulder:-0.079171,0.018242,0.995707,-0.044349 ThumbLeft:0.000000,0.000000,0.000000,0.000000 ThumbRight:0.000000,0.000000,0.000000,0.000000 WristLeft:-0.052171,0.617552,-0.146154,0.771069 WristRight:0.195498,0.268819,-0.407854,0.850395 END:
KINECT_DATA POSITION:8.876775,-0.884692,-10.493814 HEAD_JOINT1:0.984749,0.163191,-0.000000,0.060320 LARM_JOINT2:0.815850,0.000000,0.016171,-0.578038 LARM_JOINT3:0.962768,0.000000,-0.212527,-0.167060 LLEG_JOINT2:0.998482,0.024097,0.000000,0.049524 LLEG_JOINT4:0.996570,0.081895,0.000000,-0.011904 RARM_JOINT2:0.793840,0.000000,0.150132,0.589303 RARM_JOINT3:0.855811,0.000000,0.391562,0.338033 RLEG_JOINT2:0.996946,0.021867,0.000000,-0.074971 RLEG_JOINT4:0.992840,0.108980,0.000000,0.048902 WAIST:0.998738,-0.000000,0.049250,0.009875 WAIST_JOINT0:0.996378,-0.000000,0.076123,0.037891 WAIST_JOINT1:0.998715,0.049929,-0.000000,0.008692 END:
KINECT_DATA_Sensor  AnkleLeft:0.056885,0.735450,-0.100380,-0.667684 AnkleRight:0.080702,0.761818,0.103101,0.634421 ElbowLeft:-0.024734,0.841142,-0.194601,-0.503982 ElbowRight:-0.112689,0.940950,0.074188,0.310500 FootLeft:0.000000,0.000000,0.000000,0.000000 FootRight:0.000000,0.000000,0.000000,0.000000 HandLeft:-0.116673,0.567091,-0.106720,0.808335 HandRight:-0.031319,0.775091,-0.565269,0.280578 HandTipLeft:0.000000,0.000000,0.000000,0.000000 HandTipRight:0.000000,0.000000,0.000000,0.000000 Head:0.000000,0.000000,0.000000,0.000000 HipLeft:0.104844,-0.674984,0.716675,-0.140645 HipRight:-0.174504,0.675573,0.689675,-0.193646 KneeLeft:0.022292,-0.670758,0.059877,0.738919 KneeRight:-0.033818,0.740525,0.059632,0.668523 Neck:-0.078527,0.017901,0.994577,-0.065794 ShoulderLeft:0.050133,0.761148,-0.646630,-0.003342 ShoulderRight:-0.051088,0.802851,0.582708,-0.115203 SpineBase:-0.049287,0.016226,0.998322,-0.025710 SpineMid:-0.063556,0.016592,0.997515,-0.025476 SpineShoulder:-0.078326,0.017404,0.995775,-0.044666 ThumbLeft:0.000000,0.000000,0.000000,0.000000 ThumbRight:0.000000,0.000000,0.000000,0.000000 WristLeft:-0.044456,0.572148,-0.149332,0.805214 WristRight:-0.181116,0.817186,-0.413779,0.358037 END:
KINECT_DATA POSITION:8.874948,-0.886319,-10.469664 HEAD_JOINT1:0.984871,0.161945,-0.000000,0.061660 LARM_JOINT2:0.815778,0.000000,0.015897,-0.578147 LARM_JOINT3:0.963477,0.000000,-0.209706,-0.166540 LLEG_JOINT2:0.998454,0.024687,0.000000,0.049808 LLEG_JOINT4:0.996356,0.084386,0.000000,-0.012395 RARM_JOINT2:0.793734,0.000000,0.148860,0.589769 RARM_JOINT3:0.855419,0.000000,0.393641,0.336608 RLEG_JOINT2:0.996961,0.022757,0.000000,-0.074506 RLEG_JOINT4:0.993064,0.106962,0.000000,0.048826 WAIST:0.998774,-0.000000,0.048514,0.009823 WAIST_JOINT0:0.996429,-0.000000,0.075505,0.037791 WAIST_JOINT1:0.998709,0.050095,-0.000000,0.008369 END:
KINECT_DATA_Sensor  AnkleLeft:0.060489,0.742346,-0.101413,-0.659530 AnkleRight:0.078443,0.750492,0.103397,0.648011 ElbowLeft:-0.024909,0.841103,-0.194091,-0.504237 ElbowRight:-0.111815,0.939797,0.074575,0.314194 FootLeft:0.000000,0.000000,0.000000,0.000000 FootRight:0.000000,0.000000,0.000000,0.000000 HandLeft:-0.120433,0.651069,-0.084921,0.744576 HandRight:0.382872,0.337201,-0.420461,0.750278 HandTipLeft:0.000000,0.000000,0.000000,0.000000 HandTipRight:0.000000,0.000000,0.000000,0.000000 Head:0.000000,0.000000,0.000000,0.000000 HipLeft:0.105342,-0.674920,0.716560,-0.141164 HipRight:-0.173982,0.675573,0.689845,-0.193507 KneeLeft:0.022046,-0.671303,0.060435,0.738386 KneeRight:-0.032859,0.740090,0.060047,0.669016 Neck:-0.077895,0.017548,0.994624,-0.065944 ShoulderLeft:0.050230,0.761161,-0.646607,-0.003052 ShoulderRight:-0.050144,0.802750,0.583062,-0.114530 SpineBase:-0.048557,0.015906,0.998359,-0.025867 SpineMid:-0.062879,0.016275,0.997559,-0.025637 SpineShoulder:-0.077699,0.017074,0.995822,-0.044821 ThumbLeft:0.000000,0.000000,0.000000,0.000000 ThumbRight:0.000000,0.000000,0.000000,0.000000 WristLeft:-0.060371,0.654307,-0.143870,0.739959 WristRight:0.193853,0.258394,-0.407385,0.854220 END:
KINECT_DATA POSITION:8.880906,-0.882666,-10.483467 HEAD_JOINT1:0.984660,0.163400,-0.000000,0.061202 LARM_JOINT2:0.815668,0.000000,0.016197,-0.578294 LARM_JOINT3:0.963655,0.000000,-0.208236,-0.167354 LLEG_JOINT2:0.998407,0.025285,0.000000,0.050431 LLEG_JOINT4:0.996454,0.082987,0.000000,-0.013901 RARM_JOINT2:0.793566,0.000000,0.147519,0.590332 RARM_JOINT3:0.855963,0.000000,0.393294,0.335631 RLEG_JOINT2:0.996941,0.024431,0.000000,-0.074243 RLEG_JOINT4:0.993389,0.104179,0.000000,0.048220 WAIST:0.998780,-0.000000,0.048374,0.009874 WAIST_JOINT0:0.996478,-0.000000,0.074830,0.037845 WAIST_JOINT1:0.998723,0.049770,-0.000000,0.008712 END:
KINECT_DATA_Sensor  AnkleLeft:0.059335,0.736126,-0.100859,-0.666653 AnkleRight:0.078900,0.759660,0.101709,0.637454 ElbowLeft:-0.024812,0.841834,-0.194275,-0.502948 ElbowRight:-0.110988,0.938977,0.073994,0.317063 FootLeft:0.000000,0.000000,0.000000,0.000000 FootRight:0.000000,0.000000,0.000000,0.000000 HandLeft:-0.118568,0.645642,-0.082002,0.749909 HandRight:0.399723,0.302740,-0.400592,0.766874 HandTipLeft:0.000000,0.000000,0.000000,0.000000 HandTipRight:0.000000,0.000000,0.000000,0.000000 Head:0.000000,0.000000,0.000000,0.000000 HipLeft:0.105271,-0.674870,0.716635,-0.141075 HipRight:-0.173896,0.675656,0.689867,-0.193214 KneeLeft:0.022061,-0.671390,0.061334,0.738233 KneeRight:-0.031482,0.740092,0.061081,0.668986 Neck:-0.077252,0.018087,0.994690,-0.065550 ShoulderLeft:0.049419,0.760893,-0.646988,-0.002553 ShoulderRight:-0.050200,0.802762,0.583146,-0.113994 SpineBase:-0.048415,0.016108,0.998365,-0.025785 SpineMid:-0.062495,0.016470,0.997582,-0.025555 SpineShoulder:-0.077062,0.017407,0.995879,-0.044536 ThumbLeft:0.000000,0.000000,0.000000,0.000000 ThumbRight:0.000000,0.000000,0.000000,0.000000 WristLeft:-0.059275,0.648651,-0.143791,0.745025 WristRight:0.208967,0.222426,-0.400108,0.864160 END:
KINECT_DATA POSITION:8.874859,-0.880614,-10.510135 HEAD_JOINT1:0.984601,0.163561,-0.000000,0.061709 LARM_JOINT2:0.815642,0.000000,0.016547,-0.578321 LARM_JOINT3:0.963817,0.000000,-0.206715,-0.168304 LLEG_JOINT2:0.998444,0.024532,0.000000,0.050079 LLEG_JOINT4:0.996570,0.081958,0.000000,-0.011447 RARM_JOINT2:0.793748,0.000000,0.146441,0.590356 RARM_JOINT3:0.855416,0.000000,0.394260,0.335890 RLEG_JOINT2:0.996945,0.023701,0.000000,-0.074421 RLEG_JOINT4:0.993399,0.104372,0.000000,0.047591 WAIST:0.998777,-0.000000,0.048410,0.010018 WAIST_JOINT0:0.996538,-0.000000,0.074025,0.037855 WAIST_JOINT1:0.998752,0.049178,-0.000000,0.008740 END:
KINECT_DATA_Sensor  AnkleLeft:0.057974,0.745411,-0.100825,-0.656381 AnkleRight:0.078701,0.763837,0.101292,0.632534 ElbowLeft:-0.024178,0.844214,-0.194382,-0.498932 ElbowRight:-0.110882,0.938641,0.074090,0.318071 FootLeft:0.000000,0.000000,0.000000,0.000000 FootRight:0.000000,0.000000,0.000000,0.000000 HandLeft:-0.115905,0.634465,-0.085177,0.759451 HandRight:0.388931,0.328437,-0.416689,0.753148 HandTipLeft:0.000000,0.000000,0.000000,0.000000 HandTipRight:0.000000,0.000000,0.000000,0.000000 Head:0.000000,0.000000,0.000000,0.000000 HipLeft:0.105298,-0.674842,0.716706,-0.140832 HipRight:-0.174019,0.675834,0.689725,-0.192988 KneeLeft:0.022485,-0.671358,0.060668,0.738304 KneeRight:-0.032011,0.740086,0.060556,0.669015 Neck:-0.076462,0.018235,0.994794,-0.064856 ShoulderLeft:0.048077,0.760960,-0.647012,-0.001967 ShoulderRight:-0.050566,0.803003,0.582913,-0.113323 SpineBase:-0.048455,0.016264,0.998367,-0.025527 SpineMid:-0.062122,0.016612,0.997609,-0.025302 SpineShoulder:-0.076269,0.017544,0.995962,-0.043992 ThumbLeft:0.000000,0.000000,0.000000,0.000000 ThumbRight:0.000000,0.000000,0.000000,0.000000 WristLeft:-0.057367,0.637649,-0.142523,0.754851 WristRight:0.196436,0.247388,-0.406421,0.857341 END:
KINECT_DATA POSITION:8.872321,-0.873600,-10.589970 HEAD_JOINT1:0.984763,0.162386,-0.000000,0.062238 LARM_JOINT2:0.815558,0.000000,0.016275,-0.578446 LARM_JOINT3:0.963919,0.000000,-0.205858,-0.168770 LLEG_JOINT2:0.998470,0.024142,0.000000,0.049755 LLEG_JOINT4:0.996445,0.083223,0.000000,-0.013095 RARM_JOINT2:0.793533,0.000000,0.146091,0.590730 RARM_JOINT3:0.856694,0.000000,0.392363,0.334853 RLEG_JOINT2:0.996884,0.023062,0.000000,-0.075436 RLEG_JOINT4:0.993207,0.105773,0.000000,0.048495 WAIST:0.998819,-0.000000,0.047484,0.010287 WAIST_JOINT0:0.996595,-0.000000,0.073188,0.037978 WAIST_JOINT1:0.998754,0.049094,-0.000000,0.008982 END:
KINECT_DATA_Sensor  AnkleLeft:0.058274,0.737349,-0.100760,-0.665409 AnkleRight:0.078413,0.756608,0.102428,0.641018 ElbowLeft:-0.024295,0.845890,-0.194615,-0.495990 ElbowRight:-0.110379,0.937807,0.073292,0.320877 FootLeft:0.000000,0.000000,0.000000,0.000000 FootRight:0.000000,0.000000,0.000000,0.000000 HandLeft:-0.115102,0.617433,-0.088596,0.773097 HandRight:0.368627,0.363984,-0.428008,0.740567 HandTipLeft:0.000000,0.000000,0.000000,0.000000 HandTipRight:0.000000,0.000000,0.000000,0.000000 Head:0.000000,0.000000,0.000000,0.000000 HipLeft:0.105578,-0.674576,0.716803,-0.141400 HipRight:-0.173463,0.676220,0.689671,-0.192330 KneeLeft:0.022798,-0.672034,0.060342,0.737706 KneeRight:-0.032942,0.739415,0.060614,0.669706 Neck:-0.075732,0.018848,0.994846,-0.064744 ShoulderLeft:0.047672,0.760453,-0.647639,-0.001505 ShoulderRight:-0.050077,0.803079,0.582992,-0.112589 SpineBase:-0.047529,0.016783,0.998401,-0.025592 SpineMid:-0.061286,0.017134,0.997651,-0.025358 SpineShoulder:-0.075530,0.018095,0.996012,-0.043900 ThumbLeft:0.000000,0.000000,0.000000,0.000000 ThumbRight:0.000000,0.000000,0.000000,0.000000 WristLeft:-0.053688,0.620904,-0.142566,0.768941 WristRight:0.177503,0.282641,-0.415353,0.846220 END:
KINECT_DATA POSITION:8.849708,-0.857676,-10.640133 HEAD_JOINT1:0.985199,0.159377,-0.000000,0.063108 LARM_JOINT2:0.815811,0.000000,0.016783,-0.578074 LARM_JOINT3:0.963294,0.000000,-0.208015,-0.169691 LLEG_JOINT2:0.998450,0.023971,0.000000,0.050238 LLEG_JOINT4:0.996426,0.083083,0.000000,-0.015229 RARM_JOINT2:0.793020,0.000000,0.154568,0.589261 RARM_JOINT3:0.849884,0.000000,0.413747,0.326360 RLEG_JOINT2:0.996923,0.022958,0.000000,-0.074954 RLEG_JOINT4:0.993552,0.103316,0.000000,0.046690 WAIST:0.998864,-0.000000,0.046491,0.010418 WAIST_JOINT0:0.996642,-0.000000,0.072667,0.037730 WAIST_JOINT1:0.998765,0.048883,-0.000000,0.008862 END:
KINECT_DATA_Sensor  AnkleLeft:0.057923,0.731991,-0.099938,-0.671451 AnkleRight:0.074989,0.750813,0.102052,0.648260 ElbowLeft:-0.024336,0.846652,-0.195103,-0.494493 ElbowRight:-0.116471,0.936884,0.069753,0.322207 FootLeft:0.000000,0.000000,0.000000,0.000000 FootRight:0.000000,0.000000,0.000000,0.000000 HandLeft:-0.123762,0.647910,-0.088823,0.746328 HandRight:0.446227,0.190078,-0.388352,0.783539 HandTipLeft:0.000000,0.000000,0.000000,0.000000 HandTipRight:0.000000,0.000000,0.000000,0.000000 Head:0.000000,0.000000,0.000000,0.000000 HipLeft:0.106166,-0.674477,0.716755,-0.141676 HipRight:-0.172876,0.676548,0.689703,-0.191590 KneeLeft:0.023394,-0.672744,0.060661,0.737013 KneeRight:-0.032497,0.738771,0.060158,0.670479 Neck:-0.075202,0.018931,0.994900,-0.064501 ShoulderLeft:0.046928,0.760777,-0.647314,-0.001145 ShoulderRight:-0.050139,0.803199,0.582904,-0.112160 SpineBase:-0.046545,0.016775,0.998453,-0.025380 SpineMid:-0.060527,0.017129,0.997703,-0.025143 SpineShoulder:-0.074997,0.018184,0.996061,-0.043669 ThumbLeft:0.000000,0.000000,0.000000,0.000000 ThumbRight:0.000000,0.000000,0.000000,0.000000 WristLeft:-0.060115,0.651816,-0.140081,0.742899 WristRight:0.261149,0.112415,-0.383065,0.878877 END:
KINECT_DATA POSITION:8.892561,-0.658543,-10.643268 HEAD_JOINT1:0.985862,0.156537,-0.000000,0.059772 LARM_JOINT2:0.816194,0.000000,0.016065,-0.577554 LARM_JOINT3:0.963778,0.000000,-0.207521,-0.167535 LLEG_JOINT2:0.998566,0.022276,0.000000,0.048680 LLEG_JOINT4:0.996320,0.084547,0.000000,-0.014060 RARM_JOINT2:0.808055,0.000000,0.295716,0.509508 RARM_JOINT3:0.807257,0.000000,0.494101,0.322802 RLEG_JOINT2:0.996865,0.021781,0.000000,-0.076059 RLEG_JOINT4:0.992965,0.107372,0.000000,0.049910 WAIST:0.998671,-0.000000,0.050315,0.011157 WAIST_JOINT0:0.996282,-0.000000,0.077873,0.036860 WAIST_JOINT1:0.998840,0.047394,-0.000000,0.008491 END:
KINECT_DATA_Sensor  AnkleLeft:-0.048855,-0.667278,0.104514,0.735820 AnkleRight:0.079099,0.755946,0.101959,0.641789 ElbowLeft:-0.025258,0.846333,-0.195303,-0.494913 ElbowRight:-0.239501,0.945247,0.068573,0.210822 FootLeft:0.000000,0.000000,0.000000,0.000000 FootRight:0.000000,0.000000,0.000000,0.000000 HandLeft:-0.109047,0.633407,-0.099994,0.759543 HandRight:0.517415,0.058237,-0.375143,0.766914 HandTipLeft:0.000000,0.000000,0.000000,0.000000 HandTipRight:0.000000,0.000000,0.000000,0.000000 Head:0.000000,0.000000,0.000000,0.000000 HipLeft:0.103910,-0.674514,0.717804,-0.137807 HipRight:-0.175217,0.676697,0.688812,-0.192142 KneeLeft:0.023933,-0.669890,0.058950,0.739729 KneeRight:-0.033848,0.741293,0.059352,0.667694 Neck:-0.080079,0.019186,0.994627,-0.062740 ShoulderLeft:0.044816,0.762441,-0.645498,-0.002772 ShoulderRight:-0.058800,0.802392,0.582029,-0.118122 SpineBase:-0.050390,0.017185,0.998292,-0.024038 SpineMid:-0.064872,0.017532,0.997456,-0.023786 SpineShoulder:-0.079875,0.018448,0.995738,-0.042245 ThumbLeft:0.000000,0.000000,0.000000,0.000000 ThumbRight:0.000000,0.000000,0.000000,0.000000 WristLeft:-0.058776,0.636940,-0.142725,0.755303 WristRight:0.453035,0.038527,-0.359933,0.814692 END:
KINECT_DATA POSITION:9.095654,-0.234670,-10.535288 HEAD_JOINT1:0.987849,0.148912,-0.000000,0.044502 LARM_JOINT2:0.815331,0.000000,0.013191,-0.578845 LARM_JOINT3:0.964059,0.000000,-0.201399,-0.173289 LLEG_JOINT2:0.998655,0.017482,0.000000,0.048812 LLEG_JOINT4:0.995866,0.089957,0.000000,-0.012590 RARM_JOINT2:0.765021,0.000000,0.413843,0.493433 RARM_JOINT3:0.872060,0.000000,0.442304,0.209471 RLEG_JOINT2:0.996677,0.028440,0.000000,-0.076325 RLEG_JOINT4:0.993003,0.101800,0.000000,0.059847 WAIST:0.997559,-0.000000,0.069179,0.009461 WAIST_JOINT0:0.994129,-0.000000,0.101602,0.037217 WAIST_JOINT1:0.998882,0.045519,-0.000000,0.012738 END:
KINECT_DATA_Sensor  AnkleLeft:0.061785,0.727168,-0.097965,-0.676618 AnkleRight:0.080180,0.745882,0.101457,0.653405 ElbowLeft:-0.024426,0.840694,-0.195145,-0.504534 ElbowRight:-0.302967,0.939230,-0.021701,0.159962 FootLeft:0.000000,0.000000,0.000000,0.000000 FootRight:0.000000,0.000000,0.000000,0.000000 HandLeft:-0.100857,0.645517,-0.079574,0.752864 HandRight:0.588209,-0.039718,-0.323389,0.740171 HandTipLeft:0.000000,0.000000,0.000000,0.000000 HandTipRight:0.000000,0.000000,0.000000,0.000000 Head:0.000000,0.000000,0.000000,0.000000 HipLeft:0.093928,-0.677205,0.718725,-0.126512 HipRight:-0.188614,0.672804,0.686694,-0.200527 KneeLeft:0.025486,-0.655848,0.055000,0.752455 KneeRight:-0.032082,0.754032,0.064965,0.652830 Neck:-0.103117,0.021099,0.992558,-0.061239 ShoulderLeft:0.047282,0.763248,-0.644245,-0.012831 ShoulderRight:-0.087048,0.798750,0.577838,-0.143260 SpineBase:-0.069122,0.018829,0.997191,-0.021857 SpineMid:-0.085705,0.019190,0.995903,-0.021541 SpineShoulder:-0.102905,0.020375,0.993654,-0.040593 ThumbLeft:0.000000,0.000000,0.000000,0.000000 ThumbRight:0.000000,0.000000,0.000000,0.000000 WristLeft:-0.061574,0.647159,-0.145434,0.745817 WristRight:0.480579,-0.075990,-0.300894,0.820203 END:
KINECT_DATA POSITION:9.141463,-0.099870,-10.525823 HEAD_JOINT1:0.988236,0.148026,-0.000000,0.038438 LARM_JOINT2:0.814820,0.000000,0.012661,-0.579576 LARM_JOINT3:0.964005,0.000000,-0.200707,-0.174386 LLEG_JOINT2:0.998718,0.015832,0.000000,0.048080 LLEG_JOINT4:0.995998,0.089042,0.000000,-0.007705 RARM_JOINT2:0.823123,0.000000,0.356355,0.442131 RARM_JOINT3:0.817390,0.000000,0.518079,0.251928 RLEG_JOINT2:0.996535,0.031238,0.000000,-0.077090 RLEG_JOINT4:0.993090,0.100487,0.000000,0.060625 WAIST:0.997058,-0.000000,0.075990,0.010002 WAIST_JOINT0:0.992644,-0.000000,0.114936,0.038037 WAIST_JOINT1:0.998904,0.045064,-0.000000,0.012685 END:
KINECT_DATA_Sensor  AnkleLeft:-0.046664,-0.646105,0.105479,0.754483 AnkleRight:0.082259,0.759468,0.101499,0.637290 ElbowLeft:-0.023567,0.838003,-0.194597,-0.509243 ElbowRight:-0.315604,0.928565,0.065406,0.184075 FootLeft:0.000000,0.000000,0.000000,0.000000 FootRight:0.000000,0.000000,0.000000,0.000000 HandLeft:-0.104913,0.653900,-0.078831,0.745114 HandRight:0.547148,-0.023905,-0.354283,0.757985 HandTipLeft:0.000000,0.000000,0.000000,0.000000 HandTipRight:0.000000,0.000000,0.000000,0.000000 Head:0.000000,0.000000,0.000000,0.000000 HipLeft:0.089779,-0.677777,0.719505,-0.121943 HipRight:-0.192123,0.672410,0.685151,-0.203768 KneeLeft:0.026317,-0.650669,0.053879,0.756991 KneeRight:-0.030922,0.758618,0.066945,0.647349 Neck:-0.115993,0.021699,0.991149,-0.060808 ShoulderLeft:0.048921,0.763494,-0.643704,-0.018129 ShoulderRight:-0.102698,0.796848,0.574191,-0.157453 SpineBase:-0.075955,0.018732,0.996704,-0.021489 SpineMid:-0.095531,0.019151,0.995018,-0.021117 SpineShoulder:-0.115800,0.020802,0.992247,-0.040035 ThumbLeft:0.000000,0.000000,0.000000,0.000000 ThumbRight:0.000000,0.000000,0.000000,0.000000 WristLeft:-0.061430,0.655721,-0.145217,0.738355 WristRight:0.493024,-0.034887,-0.328850,0.804716 END:
KINECT_DATA POSITION:9.202425,0.211789,-10.561716 HEAD_JOINT1:0.988765,0.145625,-0.000000,0.033708 LARM_JOINT2:0.813146,0.000000,0.008299,-0.582000 LARM_JOINT3:0.963934,0.000000,-0.201810,-0.173505 LLEG_JOINT2:0.998699,0.012132,0.000000,0.049529 LLEG_JOINT4:0.995660,0.092732,0.000000,-0.007881 RARM_JOINT2:0.824446,0.000000,0.390133,0.409982 RARM_JOINT3:0.833762,0.000000,0.515590,0.197503 RLEG_JOINT2:0.996566,0.032947,0.000000,-0.075966 RLEG_JOINT4:0.993297,0.098627,0.000000,0.060277 WAIST:0.996361,-0.000000,0.084852,0.008060 WAIST_JOINT0:0.991391,-0.000000,0.126883,0.032331 WAIST_JOINT1:0.998886,0.044503,-0.000000,0.015672 END:
KINECT_DATA_Sensor  AnkleLeft:0.060679,0.728579,-0.097827,-0.675219 AnkleRight:0.080190,0.763662,0.103107,0.632265 ElbowLeft:-0.023890,0.836686,-0.191708,-0.512479 ElbowRight:-0.352635,0.916615,0.051570,0.181124 FootLeft:0.000000,0.000000,0.000000,0.000000 FootRight:0.000000,0.000000,0.000000,0.000000 HandLeft:-0.108898,0.620422,-0.096393,0.770666 HandRight:0.493759,0.031545,-0.429089,0.755704 HandTipLeft:0.000000,0.000000,0.000000,0.000000 HandTipRight:0.000000,0.000000,0.000000,0.000000 Head:0.000000,0.000000,0.000000,0.000000 HipLeft:0.084947,-0.680121,0.718577,-0.117759 HipRight:-0.197901,0.670114,0.684349,-0.208443 KneeLeft:0.028298,-0.643975,0.051401,0.762793 KneeRight:-0.030968,0.764358,0.068561,0.640388 Neck:-0.128079,0.022756,0.989658,-0.060463 ShoulderLeft:0.050891,0.762949,-0.644043,-0.022970 ShoulderRight:-0.117667,0.788071,0.579569,-0.170876 SpineBase:-0.084719,0.019050,0.995993,-0.021371 SpineMid:-0.105956,0.019502,0.993959,-0.020960 SpineShoulder:-0.127909,0.021545,0.990756,-0.039711 ThumbLeft:0.000000,0.000000,0.000000,0.000000 ThumbRight:0.000000,0.000000,0.000000,0.000000 WristLeft:-0.054722,0.623654,-0.147747,0.765658 WristRight:0.454358,0.032276,-0.391380,0.799587 END:
KINECT_DATA POSITION:9.201051,0.697262,-10.719288 HEAD_JOINT1:0.989480,0.141615,-0.000000,0.029583 LARM_JOINT2:0.812105,0.000000,-0.001644,-0.583508 LARM_JOINT3:0.966101,0.000000,-0.191179,-0.173489 LLEG_JOINT2:0.998743,0.005580,0.000000,0.049805 LLEG_JOINT4:0.994997,0.099762,0.000000,-0.005302 RARM_JOINT2:0.815948,0.000000,0.483040,0.317648 RARM_JOINT3:0.882669,0.000000,0.450692,0.133312 RLEG_JOINT2:0.996540,0.033841,0.000000,-0.075908 RLEG_JOINT4:0.993153,0.096475,0.000000,0.065877 WAIST:0.995138,-0.000000,0.098186,0.007703 WAIST_JOINT0:0.990162,-0.000000,0.139630,0.009060 WAIST_JOINT1:0.998830,0.045081,-0.000000,0.017526 END:
KINECT_DATA_Sensor  AnkleLeft:-0.048492,-0.630347,0.106008,0.767511 AnkleRight:0.083718,0.783032,0.098261,0.608438 ElbowLeft:-0.025537,0.837934,-0.189344,-0.511238 ElbowRight:-0.444463,0.889742,0.037212,0.097092 FootLeft:0.000000,0.000000,0.000000,0.000000 FootRight:0.000000,0.000000,0.000000,0.000000 HandLeft:-0.102985,0.674519,-0.075212,0.727160 HandRight:0.372145,0.126087,-0.526247,0.754105 HandTipLeft:0.000000,0.000000,0.000000,0.000000 HandTipRight:0.000000,0.000000,0.000000,0.000000 Head:0.000000,0.000000,0.000000,0.000000 HipLeft:0.076109,-0.681972,0.718873,-0.111103 HipRight:-0.204576,0.668205,0.681942,-0.215884 KneeLeft:0.032680,-0.633712,0.047507,0.771417 KneeRight:-0.031589,0.772882,0.068972,0.629999 Neck:-0.141658,0.023866,0.987727,-0.061317 ShoulderLeft:0.055176,0.762960,-0.643437,-0.028929 ShoulderRight:-0.134042,0.758952,0.609487,-0.185877 SpineBase:-0.098001,0.019626,0.994739,-0.022454 SpineMid:-0.119433,0.020106,0.992394,-0.022025 SpineShoulder:-0.141515,0.022343,0.988852,-0.040573 ThumbLeft:0.000000,0.000000,0.000000,0.000000 ThumbRight:0.000000,0.000000,0.000000,0.000000 WristLeft:-0.063568,0.675948,-0.142836,0.720175 WristRight:0.362698,0.159607,-0.455638,0.797101 END:
KINECT_DATA POSITION:9.147884,0.780832,-10.938120 HEAD_JOINT1:0.989980,0.137829,-0.000000,0.030711 LARM_JOINT2:0.813444,0.000000,-0.007162,-0.581598 LARM_JOINT3:0.965038,0.000000,-0.188419,-0.182210 LLEG_JOINT2:0.998602,-0.003545,0.000000,0.052733 LLEG_JOINT4:0.994479,0.104938,0.000000,-0.000098 RARM_JOINT2:0.800831,0.000000,0.551899,0.232547 RARM_JOINT3:0.939601,0.000000,0.337074,0.059415 RLEG_JOINT2:0.996822,0.036738,0.000000,-0.070680 RLEG_JOINT4:0.992803,0.094529,0.000000,0.073526 WAIST:0.993311,-0.000000,0.115439,0.002791 WAIST_JOINT0:0.987648,0.000000,0.156641,-0.003853 WAIST_JOINT1:0.998655,0.045935,-0.000000,0.024060 END:
KINECT_DATA_Sensor  AnkleLeft:-0.046020,-0.620101,0.105378,0.776049 AnkleRight:0.083381,0.757881,0.100442,0.639198 ElbowLeft:-0.022939,0.838813,-0.192770,-0.508632 ElbowRight:-0.516628,0.855089,0.008555,0.042958 FootLeft:0.000000,0.000000,0.000000,0.000000 FootRight:0.000000,0.000000,0.000000,0.000000 HandLeft:-0.101639,0.625226,-0.076913,0.769965 HandRight:-0.057324,-0.359186,0.659554,-0.657790 HandTipLeft:0.000000,0.000000,0.000000,0.000000 HandTipRight:0.000000,0.000000,0.000000,0.000000 Head:0.000000,0.000000,0.000000,0.000000 HipLeft:0.059559,-0.688745,0.715844,-0.098231 HipRight:-0.210385,0.664255,0.681814,-0.222786 KneeLeft:0.037450,-0.620452,0.041146,0.782268 KneeRight:-0.030417,0.783680,0.070807,0.616366 Neck:-0.158701,0.025332,0.984920,-0.064072 ShoulderLeft:0.063500,0.758678,-0.647355,-0.036150 ShoulderRight:-0.152168,0.733530,0.630543,-0.202963 SpineBase:-0.114981,0.019495,0.992881,-0.024207 SpineMid:-0.136522,0.020016,0.990149,-0.023778 SpineShoulder:-0.158638,0.022879,0.986175,-0.042053 ThumbLeft:0.000000,0.000000,0.000000,0.000000 ThumbRight:0.000000,0.000000,0.000000,0.000000 WristLeft:-0.054029,0.627001,-0.145118,0.763473 WristRight:-0.080413,-0.425871,0.570227,-0.697860 END:
KINECT_DATA POSITION:9.042898,0.169498,-11.137569 HEAD_JOINT1:0.990661,0.132524,-0.000000,0.032078 LARM_JOINT2:0.812546,0.000000,0.001427,-0.582895 LARM_JOINT3:0.964837,0.000000,-0.192471,-0.179007 LLEG_JOINT2:0.998246,-0.005475,0.000000,0.058949 LLEG_JOINT4:0.994591,0.103863,0.000000,0.000906 RARM_JOINT2:0.810453,0.000000,0.554514,0.188893 RARM_JOINT3:0.957190,0.000000,0.287954,0.029506 RLEG_JOINT2:0.997517,0.034297,0.000000,-0.061507 RLEG_JOINT4:0.992793,0.096526,0.000000,0.071028 WAIST:0.993419,0.000000,0.114440,-0.004769 WAIST_JOINT0:0.987139,0.000000,0.158340,-0.022018 WAIST_JOINT1:0.998382,0.047629,-0.000000,0.031064 END:
KINECT_DATA_Sensor  AnkleLeft:0.058282,0.722027,-0.096810,-0.682574 AnkleRight:0.083615,0.760379,0.100761,0.636144 ElbowLeft:-0.016121,0.832455,-0.193649,-0.518902 ElbowRight:-0.544377,0.834316,-0.002201,0.086986 FootLeft:0.000000,0.000000,0.000000,0.000000 FootRight:0.000000,0.000000,0.000000,0.000000 HandLeft:-0.097579,0.671477,-0.072010,0.731035 HandRight:-0.064542,-0.396788,0.654184,-0.640654 HandTipLeft:0.000000,0.000000,0.000000,0.000000 HandTipRight:0.000000,0.000000,0.000000,0.000000 Head:0.000000,0.000000,0.000000,0.000000 HipLeft:0.055959,-0.693743,0.711133,-0.099390 HipRight:-0.207261,0.659563,0.687614,-0.221826 KneeLeft:0.037509,-0.621656,0.039460,0.781396 KneeRight:-0.030054,0.782697,0.068538,0.617887 Neck:-0.159706,0.024845,0.984555,-0.067295 ShoulderLeft:0.069640,0.758408,-0.646890,-0.038732 ShoulderRight:-0.150186,0.708457,0.659398,-0.201811 SpineBase:-0.113536,0.018293,0.992988,-0.027392 SpineMid:-0.136361,0.018918,0.990111,-0.026964 SpineShoulder:-0.159668,0.022367,0.985925,-0.044240 ThumbLeft:0.000000,0.000000,0.000000,0.000000 ThumbRight:0.000000,0.000000,0.000000,0.000000 WristLeft:-0.060075,0.672600,-0.139803,0.724193 WristRight:0.000959,0.365716,-0.593097,0.717277 END:
KINECT_DATA POSITION:9.367278,-0.727192,-11.274040 HEAD_JOINT1:0.990218,0.135062,-0.000000,0.035015 LARM_JOINT2:0.813273,0.000000,0.006501,-0.581846 LARM_JOINT3:0.963033,0.000000,-0.202043,-0.178172 LLEG_JOINT2:0.998997,-0.002330,0.000000,0.044708 LLEG_JOINT4:0.994706,0.102542,0.000000,0.006764 RARM_JOINT2:0.839783,0.000000,0.537634,0.075589 RARM_JOINT3:0.964838,0.000000,0.258806,0.045903 RLEG_JOINT2:0.996536,0.032506,0.000000,-0.076545 RLEG_JOINT4:0.992361,0.098184,0.000000,0.074700 WAIST:0.994147,-0.000000,0.107966,0.003888 WAIST_JOINT0:0.984717,-0.000000,0.167233,0.048641 WAIST_JOINT1:0.998501,0.049643,-0.000000,0.023035 END:
KINECT_DATA_Sensor  AnkleLeft:-0.042663,-0.614826,0.105591,0.780397 AnkleRight:0.087672,0.795393,0.095640,0.592045 ElbowLeft:-0.013626,0.833512,-0.196936,-0.516031 ElbowRight:-0.595310,0.784944,0.164703,-0.048395 FootLeft:0.000000,0.000000,0.000000,0.000000 FootRight:0.000000,0.000000,0.000000,0.000000 HandLeft:-0.102707,0.686121,-0.096236,0.713743 HandRight:0.122064,-0.300675,0.697458,-0.638943 HandTipLeft:0.000000,0.000000,0.000000,0.000000 HandTipRight:0.000000,0.000000,0.000000,0.000000 Head:0.000000,0.000000,0.000000,0.000000 HipLeft:0.058182,-0.686377,0.717629,-0.102517 HipRight:-0.201261,0.665443,0.684802,-0.218463 KneeLeft:0.032539,-0.626720,0.036163,0.777724 KneeRight:-0.036351,0.778615,0.070657,0.622451 Neck:-0.172811,0.025368,0.982298,-0.067697 ShoulderLeft:0.069466,0.760599,-0.644116,-0.042164 ShoulderRight:-0.157866,0.801753,0.533695,-0.217806 SpineBase:-0.107446,0.020741,0.993589,-0.028410 SpineMid:-0.139396,0.021645,0.989612,-0.027727 SpineShoulder:-0.172644,0.024572,0.983660,-0.044747 ThumbLeft:0.000000,0.000000,0.000000,0.000000 ThumbRight:0.000000,0.000000,0.000000,0.000000 WristLeft:-0.064163,0.688564,-0.137055,0.709209 WristRight:-0.054068,0.381455,-0.558066,0.734936 END:
KINECT_DATA POSITION:9.481871,-1.040128,-11.167645 HEAD_JOINT1:0.987961,0.147998,-0.000000,0.045060 LARM_JOINT2:0.813464,0.000000,0.007559,-0.581566 LARM_JOINT3:0.961387,0.000000,-0.207023,-0.181317 LLEG_JOINT2:0.999035,0.002985,0.000000,0.043818 LLEG_JOINT4:0.995447,0.095250,0.000000,0.003613 RARM_JOINT2:0.838761,0.000000,0.540738,0.063889 RARM_JOINT3:0.976522,0.000000,0.214662,0.018025 RLEG_JOINT2:0.996234,0.030277,0.000000,-0.081252 RLEG_JOINT4:0.992138,0.098068,0.000000,0.077743 WAIST:0.995300,-0.000000,0.096689,0.005399 WAIST_JOINT0:0.982637,-0.000000,0.165934,0.083007 WAIST_JOINT1:0.998547,0.049523,-0.000000,0.021253 END:
KINECT_DATA_Sensor  AnkleLeft:0.055833,0.729045,-0.095756,-0.675431 AnkleRight:0.080189,0.744123,0.098859,0.655803 ElbowLeft:-0.015598,0.838326,-0.197023,-0.508083 ElbowRight:-0.613854,0.779660,0.121379,0.024125 FootLeft:0.000000,0.000000,0.000000,0.000000 FootRight:0.000000,0.000000,0.000000,0.000000 HandLeft:-0.126578,0.688834,-0.101273,0.706562 HandRight:-0.027971,-0.398142,0.768077,-0.500758 HandTipLeft:0.000000,0.000000,0.000000,0.000000 HandTipRight:0.000000,0.000000,0.000000,0.000000 Head:0.000000,0.000000,0.000000,0.000000 HipLeft:0.067811,-0.683917,0.717937,-0.110566 HipRight:-0.196941,0.667779,0.685397,-0.213347 KneeLeft:0.029313,-0.635393,0.039574,0.770617 KneeRight:-0.039509,0.771338,0.071308,0.631183 Neck:-0.174865,0.026665,0.982003,-0.066185 ShoulderLeft:0.065484,0.759751,-0.645713,-0.039322 ShoulderRight:-0.162546,0.842852,0.463533,-0.219811 SpineBase:-0.096278,0.021097,0.994752,-0.027455 SpineMid:-0.134365,0.022135,0.990327,-0.026625 SpineShoulder:-0.174725,0.025430,0.983300,-0.044110 ThumbLeft:0.000000,0.000000,0.000000,0.000000 ThumbRight:0.000000,0.000000,0.000000,0.000000 WristLeft:-0.068207,0.701187,-0.134569,0.696832 WristRight:-0.102047,0.235394,-0.600244,0.757551 END:
KINECT_DATA POSITION:9.503503,-1.062351,-11.114370 HEAD_JOINT1:0.987185,0.152317,-0.000000,0.047604 LARM_JOINT2:0.813012,0.000000,0.006207,-0.582213 LARM_JOINT3:0.963323,0.000000,-0.200339,-0.178529 LLEG_JOINT2:0.999058,0.004737,0.000000,0.043134 LLEG_JOINT4:0.995300,0.096796,0.000000,0.002810 RARM_JOINT2:0.836959,0.000000,0.543594,0.063293 RARM_JOINT3:0.977149,0.000000,0.211839,0.017425 RLEG_JOINT2:0.996160,0.029822,0.000000,-0.082314 RLEG_JOINT4:0.992026,0.099993,0.000000,0.076726 WAIST:0.995625,-0.000000,0.093227,0.006223 WAIST_JOINT0:0.982853,-0.000000,0.164681,0.082944 WAIST_JOINT1:0.998528,0.050223,-0.000000,0.020467 END:
KINECT_DATA_Sensor  AnkleLeft:0.059350,0.736291,-0.096613,-0.667097 AnkleRight:0.088547,0.794134,0.093375,0.593962 ElbowLeft:-0.016677,0.839701,-0.196097,-0.506133 ElbowRight:-0.605820,0.779720,0.156768,-0.021026 FootLeft:0.000000,0.000000,0.000000,0.000000 FootRight:0.000000,0.000000,0.000000,0.000000 HandLeft:-0.106397,0.674994,-0.087626,0.724834 HandRight:0.118560,-0.303859,0.712645,-0.621088 HandTipLeft:0.000000,0.000000,0.000000,0.000000 HandTipRight:0.000000,0.000000,0.000000,0.000000 Head:0.000000,0.000000,0.000000,0.000000 HipLeft:0.070404,-0.682562,0.718554,-0.113282 HipRight:-0.195201,0.668335,0.685724,-0.212151 KneeLeft:0.028233,-0.638036,0.040657,0.768414 KneeRight:-0.039779,0.769121,0.071205,0.633878 Neck:-0.174226,0.027406,0.982096,-0.066197 ShoulderLeft:0.067064,0.758393,-0.647164,-0.039008 ShoulderRight:-0.160152,0.842754,0.464899,-0.219055 SpineBase:-0.092861,0.021095,0.995068,-0.027772 SpineMid:-0.132332,0.022182,0.990592,-0.026912 SpineShoulder:-0.174120,0.025638,0.983374,-0.044733 ThumbLeft:0.000000,0.000000,0.000000,0.000000 ThumbRight:0.000000,0.000000,0.000000,0.000000 WristLeft:-0.064166,0.677475,-0.136525,0.719911 WristRight:-0.124584,0.304751,-0.576492,0.747839 END:
KINECT_DATA POSITION:9.520086,-1.014502,-11.087286 HEAD_JOINT1:0.986547,0.155732,-0.000000,0.049722 LARM_JOINT2:0.813050,0.000000,0.006015,-0.582163 LARM_JOINT3:0.963510,0.000000,-0.199647,-0.178298 LLEG_JOINT2:0.999043,0.005089,0.000000,0.043434 LLEG_JOINT4:0.995303,0.096790,0.000000,0.001860 RARM_JOINT2:0.836663,0.000000,0.544166,0.062276 RARM_JOINT3:0.981148,0.000000,0.192729,0.014313 RLEG_JOINT2:0.996173,0.028269,0.000000,-0.082700 RLEG_JOINT4:0.991830,0.101405,0.000000,0.077397 WAIST:0.995681,-0.000000,0.092652,0.005938 WAIST_JOINT0:0.983392,-0.000000,0.165068,0.075455 WAIST_JOINT1:0.998474,0.051200,-0.000000,0.020688 END:
KINECT_DATA_Sensor  AnkleLeft:0.059121,0.729884,-0.096648,-0.674117 AnkleRight:0.088628,0.794304,0.093146,0.593759 ElbowLeft:-0.016111,0.839786,-0.196370,-0.505904 ElbowRight:-0.618249,0.778034,0.096657,0.055581 FootLeft:0.000000,0.000000,0.000000,0.000000 FootRight:0.000000,0.000000,0.000000,0.000000 HandLeft:-0.102955,0.662854,-0.086526,0.736572 HandRight:0.267396,-0.408933,0.602625,-0.630965 HandTipLeft:0.000000,0.000000,0.000000,0.000000 HandTipRight:0.000000,0.000000,0.000000,0.000000 Head:0.000000,0.000000,0.000000,0.000000 HipLeft:0.070340,-0.682558,0.718479,-0.113818 HipRight:-0.194490,0.668082,0.686214,-0.212015 KneeLeft:0.027971,-0.638502,0.040898,0.768024 KneeRight:-0.041240,0.768617,0.070479,0.634476 Neck:-0.174457,0.027726,0.981990,-0.067025 ShoulderLeft:0.068622,0.758411,-0.646967,-0.039209 ShoulderRight:-0.159315,0.834429,0.479503,-0.220054 SpineBase:-0.092266,0.020958,0.995112,-0.028270 SpineMid:-0.132238,0.022078,0.990593,-0.027404 SpineShoulder:-0.174387,0.025533,0.983283,-0.045743 ThumbLeft:0.000000,0.000000,0.000000,0.000000 ThumbRight:0.000000,0.000000,0.000000,0.000000 WristLeft:-0.061257,0.665158,-0.136995,0.731468 WristRight:0.245260,-0.432842,0.569254,-0.654557 END:
KINECT_DATA POSITION:9.505004,-0.919174,-11.037922 HEAD_JOINT1:0.986505,0.155661,-0.000000,0.050775 LARM_JOINT2:0.812670,0.000000,0.005505,-0.582698 LARM_JOINT3:0.963377,0.000000,-0.202216,-0.176108 LLEG_JOINT2:0.999092,0.006191,0.000000,0.042153 LLEG_JOINT4:0.995321,0.096615,0.000000,0.001353 RARM_JOINT2:0.843769,0.000000,0.536574,0.011952 RARM_JOINT3:0.976114,0.000000,0.196685,0.092282 RLEG_JOINT2:0.996093,0.027898,0.000000,-0.083784 RLEG_JOINT4:0.991888,0.102761,0.000000,0.074822 WAIST:0.995878,-0.000000,0.090399,0.007421 WAIST_JOINT0:0.983729,-0.000000,0.165829,0.069125 WAIST_JOINT1:0.998484,0.051700,-0.000000,0.018885 END:
KINECT_DATA_Sensor  AnkleLeft:0.059960,0.732816,-0.096808,-0.670830 AnkleRight:0.088133,0.794708,0.094811,0.593028 ElbowLeft:-0.016678,0.839931,-0.195385,-0.506027 ElbowRight:-0.612398,0.747915,0.240223,-0.088795 FootLeft:0.000000,0.000000,0.000000,0.000000 FootRight:0.000000,0.000000,0.000000,0.000000 HandLeft:-0.131417,0.833727,-0.062433,0.532664 HandRight:0.253532,-0.440107,0.566559,-0.648874 HandTipLeft:0.000000,0.000000,0.000000,0.000000 HandTipRight:0.000000,0.000000,0.000000,0.000000 Head:0.000000,0.000000,0.000000,0.000000 HipLeft:0.072040,-0.681214,0.719350,-0.115299 HipRight:-0.192989,0.669134,0.685788,-0.211446 KneeLeft:0.027438,-0.640160,0.041611,0.766623 KneeRight:-0.041100,0.767216,0.069945,0.636237 Neck:-0.174666,0.027752,0.981937,-0.067237 ShoulderLeft:0.069461,0.757459,-0.647996,-0.039144 ShoulderRight:-0.159603,0.825336,0.494560,-0.220812 SpineBase:-0.090108,0.020636,0.995311,-0.028468 SpineMid:-0.131328,0.021800,0.990715,-0.027587 SpineShoulder:-0.174609,0.025404,0.983234,-0.046010 ThumbLeft:0.000000,0.000000,0.000000,0.000000 ThumbRight:0.000000,0.000000,0.000000,0.000000 WristLeft:-0.095375,0.840186,-0.115011,0.521309 WristRight:-0.244008,0.450480,-0.528576,0.676857 END:
KINECT_DATA POSITION:9.482866,-0.833969,-11.002421 HEAD_JOINT1:0.986389,0.155301,-0.000000,0.054012 LARM_JOINT2:0.813684,0.000000,0.001359,-0.581306 LARM_JOINT3:0.962653,0.000000,-0.204988,-0.176860 LLEG_JOINT2:0.999108,0.007072,0.000000,0.041622 LLEG_JOINT4:0.995633,0.093346,0.000000,0.000629 RARM_JOINT2:0.823046,0.000000,0.536235,0.187208 RARM_JOINT3:0.976543,0.000000,0.176547,-0.123264 RLEG_JOINT2:0.996099,0.027884,0.000000,-0.083718 RLEG_JOINT4:0.992073,0.102912,0.000000,0.072119 WAIST:0.996152,-0.000000,0.087256,0.008169 WAIST_JOINT0:0.984187,-0.000000,0.163143,0.068998 WAIST_JOINT1:0.998500,0.051692,-0.000000,0.018057 END:
KINECT_DATA_Sensor  AnkleLeft:0.057894,0.735471,-0.095269,-0.668323 AnkleRight:0.081734,0.759048,0.100560,0.638007 ElbowLeft:-0.020383,0.843356,-0.195666,-0.500050 ElbowRight:-0.504752,0.707690,-0.194834,0.454356 FootLeft:0.000000,0.000000,0.000000,0.000000 FootRight:0.000000,0.000000,0.000000,0.000000 HandLeft:-0.112634,0.589129,-0.115097,0.791829 HandRight:0.105199,-0.399962,0.754522,-0.509569 HandTipLeft:0.000000,0.000000,0.000000,0.000000 HandTipRight:0.000000,0.000000,0.000000,0.000000 Head:0.000000,0.000000,0.000000,0.000000 HipLeft:0.074024,-0.680290,0.719740,-0.117051 HipRight:-0.191105,0.669971,0.685982,-0.209873 KneeLeft:0.027064,-0.642534,0.042227,0.764614 KneeRight:-0.040296,0.765261,0.069508,0.638687 Neck:-0.172075,0.028047,0.982405,-0.066962 ShoulderLeft:0.068219,0.754937,-0.651232,-0.036239 ShoulderRight:-0.158376,0.822640,0.500263,-0.218902 SpineBase:-0.087012,0.020615,0.995587,-0.028475 SpineMid:-0.128523,0.021786,0.991083,-0.027589 SpineShoulder:-0.172029,0.025448,0.983693,-0.045904 ThumbLeft:0.000000,0.000000,0.000000,0.000000 ThumbRight:0.000000,0.000000,0.000000,0.000000 WristLeft:-0.048182,0.594620,-0.142880,0.789741 WristRight:-0.216733,0.251005,-0.619119,0.711839 END:
KINECT_DATA POSITION:9.449990,-0.801726,-10.997128 HEAD_JOINT1:0.986456,0.154133,-0.000000,0.056101 LARM_JOINT2:0.814249,0.000000,0.001920,-0.580513 LARM_JOINT3:0.964142,0.000000,-0.195888,-0.179048 LLEG_JOINT2:0.999093,0.007646,0.000000,0.041898 LLEG_JOINT4:0.995463,0.095145,0.000000,0.000959 RARM_JOINT2:0.822209,0.000000,0.533427,0.198562 RARM_JOINT3:0.973481,0.000000,0.187636,-0.130869 RLEG_JOINT2:0.996134,0.027015,0.000000,-0.083585 RLEG_JOINT4:0.992226,0.100954,0.000000,0.072768 WAIST:0.996314,-0.000000,0.085396,0.008133 WAIST_JOINT0:0.984390,-0.000000,0.161846,0.069151 WAIST_JOINT1:0.998492,0.051772,-0.000000,0.018273 END:
KINECT_DATA_Sensor  AnkleLeft:0.058557,0.730393,-0.097651,-0.673470 AnkleRight:0.086056,0.793131,0.093103,0.595709 ElbowLeft:-0.020601,0.844206,-0.196886,-0.498124 ElbowRight:-0.493277,0.701989,-0.201254,0.472638 FootLeft:0.000000,0.000000,0.000000,0.000000 FootRight:0.000000,0.000000,0.000000,0.000000 HandLeft:-0.110014,0.716425,-0.065703,0.685796 HandRight:0.076675,-0.385988,0.742241,-0.542414 HandTipLeft:0.000000,0.000000,0.000000,0.000000 HandTipRight:0.000000,0.000000,0.000000,0.000000 Head:0.000000,0.000000,0.000000,0.000000 HipLeft:0.075109,-0.680096,0.719605,-0.118305 HipRight:-0.190035,0.670219,0.686329,-0.208914 KneeLeft:0.026845,-0.643960,0.042743,0.763392 KneeRight:-0.040647,0.764017,0.068866,0.640221 Neck:-0.170955,0.028470,0.982589,-0.066956 ShoulderLeft:0.067079,0.754600,-0.651817,-0.034849 ShoulderRight:-0.158297,0.822693,0.500474,-0.218275 SpineBase:-0.085148,0.020734,0.995742,-0.028591 SpineMid:-0.127027,0.021921,0.991270,-0.027692 SpineShoulder:-0.170911,0.025727,0.983878,-0.045946 ThumbLeft:0.000000,0.000000,0.000000,0.000000 ThumbRight:0.000000,0.000000,0.000000,0.000000 WristLeft:-0.073192,0.725537,-0.132090,0.671410 WristRight:-0.195903,0.223967,-0.629976,0.717350 END:
KINECT_DATA POSITION:9.421597,-0.793035,-10.964691 HEAD_JOINT1:0.986356,0.154149,-0.000000,0.057796 LARM_JOINT2:0.814378,0.000000,0.002979,-0.580328 LARM_JOINT3:0.963404,0.000000,-0.198435,-0.180210 LLEG_JOINT2:0.999071,0.008165,0.000000,0.042308 LLEG_JOINT4:0.995644,0.093230,0.000000,-0.001378 RARM_JOINT2:0.819192,0.000000,0.537695,0.199520 RARM_JOINT3:0.969149,0.000000,0.202691,-0.140239 RLEG_JOINT2:0.996116,0.026818,0.000000,-0.083867 RLEG_JOINT4:0.991893,0.103211,0.000000,0.074133 WAIST:0.996404,-0.000000,0.084336,0.008149 WAIST_JOINT0:0.984568,-0.000000,0.160883,0.068862 WAIST_JOINT1:0.998494,0.051691,-0.000000,0.018389 END:
KINECT_DATA_Sensor  AnkleLeft:0.057754,0.727385,-0.095700,-0.677065 AnkleRight:0.088416,0.792350,0.093683,0.596312 ElbowLeft:-0.019773,0.845682,-0.197520,-0.495396 ElbowRight:-0.504124,0.732663,-0.172012,0.423645 FootLeft:0.000000,0.000000,0.000000,0.000000 FootRight:0.000000,0.000000,0.000000,0.000000 HandLeft:-0.114345,0.679091,-0.079113,0.720764 HandRight:0.206323,-0.318627,0.672847,-0.634968 HandTipLeft:0.000000,0.000000,0.000000,0.000000 HandTipRight:0.000000,0.000000,0.000000,0.000000 Head:0.000000,0.000000,0.000000,0.000000 HipLeft:0.075770,-0.680065,0.719464,-0.118920 HipRight:-0.189542,0.670459,0.686400,-0.208361 KneeLeft:0.026761,-0.644760,0.043380,0.762684 KneeRight:-0.040900,0.763315,0.068935,0.641035 Neck:-0.170151,0.028700,0.982735,-0.066766 ShoulderLeft:0.065922,0.755056,-0.651447,-0.034099 ShoulderRight:-0.158418,0.823192,0.499835,-0.217769 SpineBase:-0.084089,0.020816,0.995832,-0.028529 SpineMid:-0.126087,0.022003,0.991390,-0.027624 SpineShoulder:-0.170105,0.025915,0.984017,-0.045862 ThumbLeft:0.000000,0.000000,0.000000,0.000000 ThumbRight:0.000000,0.000000,0.000000,0.000000 WristLeft:-0.064560,0.681808,-0.134887,0.716084 WristRight:0.218951,-0.309761,0.641826,-0.666459 END:
KINECT_DATA POSITION:9.389894,-0.773992,-10.970736 HEAD_JOINT1:0.986094,0.155050,-0.000000,0.059816 LARM_JOINT2:0.814979,0.000000,0.004293,-0.579474 LARM_JOINT3:0.964241,0.000000,-0.195313,-0.179145 LLEG_JOINT2:0.999040,0.008571,0.000000,0.042968 LLEG_JOINT4:0.995571,0.093984,0.000000,-0.002180 RARM_JOINT2:0.818210,0.000000,0.539345,0.199094 RARM_JOINT3:0.967552,0.000000,0.208022,-0.143425 RLEG_JOINT2:0.996210,0.026593,0.000000,-0.082818 RLEG_JOINT4:0.991866,0.103695,0.000000,0.073823 WAIST:0.996501,-0.000000,0.083207,0.007904 WAIST_JOINT0:0.984647,-0.000000,0.160508,0.068606 WAIST_JOINT1:0.998541,0.050867,-0.000000,0.018098 END:
KINECT_DATA_Sensor  AnkleLeft:0.058102,0.722742,-0.096538,-0.681872 AnkleRight:0.082138,0.746710,0.099611,0.652499 ElbowLeft:-0.019890,0.846140,-0.198070,-0.494388 ElbowRight:-0.506332,0.734979,-0.169533,0.417961 FootLeft:0.000000,0.000000,0.000000,0.000000 FootRight:0.000000,0.000000,0.000000,0.000000 HandLeft:-0.101653,0.664188,-0.076844,0.736625 HandRight:0.194863,-0.302480,0.681387,-0.637375 HandTipLeft:0.000000,0.000000,0.000000,0.000000 HandTipRight:0.000000,0.000000,0.000000,0.000000 Head:0.000000,0.000000,0.000000,0.000000 HipLeft:0.076671,-0.680233,0.719166,-0.119187 HipRight:-0.189005,0.670601,0.686680,-0.207467 KneeLeft:0.026747,-0.645604,0.043948,0.761938 KneeRight:-0.040337,0.762608,0.068309,0.641978 Neck:-0.169568,0.028130,0.982923,-0.065706 ShoulderLeft:0.063933,0.756160,-0.650380,-0.033767 ShoulderRight:-0.159612,0.823824,0.498619,-0.217294 SpineBase:-0.082960,0.020563,0.995944,-0.028117 SpineMid:-0.125206,0.021740,0.991519,-0.027218 SpineShoulder:-0.169515,0.025501,0.984165,-0.045097 ThumbLeft:0.000000,0.000000,0.000000,0.000000 ThumbRight:0.000000,0.000000,0.000000,0.000000 WristLeft:-0.061225,0.666037,-0.136123,0.730833 WristRight:0.201601,-0.299584,0.652670,-0.666055 END:
KINECT_DATA POSITION:9.380116,-0.763881,-10.980511 HEAD_JOINT1:0.985989,0.155110,-0.000000,0.061373 LARM_JOINT2:0.814846,0.000000,0.003519,-0.579667 LARM_JOINT3:0.964353,0.000000,-0.195195,-0.178666 LLEG_JOINT2:0.999034,0.008543,0.000000,0.043116 LLEG_JOINT4:0.995570,0.094021,0.000000,-0.001025 RARM_JOINT2:0.818475,0.000000,0.538553,0.200149 RARM_JOINT3:0.965648,0.000000,0.216999,-0.142952 RLEG_JOINT2:0.996217,0.026319,0.000000,-0.082825 RLEG_JOINT4:0.991622,0.104487,0.000000,0.075953 WAIST:0.996533,-0.000000,0.082834,0.007760 WAIST_JOINT0:0.984494,-0.000000,0.161033,0.069574 WAIST_JOINT1:0.998559,0.050537,-0.000000,0.018053 END:
KINECT_DATA_Sensor  AnkleLeft:0.058410,0.729672,-0.096966,-0.674362 AnkleRight:0.091019,0.791973,0.092311,0.596635 ElbowLeft:-0.020561,0.846773,-0.197355,-0.493563 ElbowRight:-0.507308,0.738048,-0.164914,0.413190 FootLeft:0.000000,0.000000,0.000000,0.000000 FootRight:0.000000,0.000000,0.000000,0.000000 HandLeft:-0.107637,0.696538,-0.074050,0.705525 HandRight:0.142813,-0.267781,0.696592,-0.650121 HandTipLeft:0.000000,0.000000,0.000000,0.000000 HandTipRight:0.000000,0.000000,0.000000,0.000000 Head:0.000000,0.000000,0.000000,0.000000 HipLeft:0.076977,-0.680344,0.719029,-0.119182 HipRight:-0.188872,0.670633,0.686803,-0.207076 KneeLeft:0.026777,-0.645887,0.043934,0.761697 KneeRight:-0.040594,0.762346,0.068222,0.642282 Neck:-0.170086,0.027989,0.982863,-0.065334 ShoulderLeft:0.064431,0.755866,-0.650633,-0.034523 ShoulderRight:-0.159697,0.824689,0.497150,-0.217316 SpineBase:-0.082585,0.020495,0.995983,-0.027889 SpineMid:-0.125261,0.021673,0.991520,-0.026984 SpineShoulder:-0.170033,0.025383,0.984094,-0.044757 ThumbLeft:0.000000,0.000000,0.000000,0.000000 ThumbRight:0.000000,0.000000,0.000000,0.000000 WristLeft:-0.068428,0.705439,-0.132372,0.692929 WristRight:0.155702,-0.259100,0.666383,-0.681585 END:
KINECT_DATA POSITION:9.377946,-0.792545,-11.026155 HEAD_JOINT1:0.986119,0.154390,-0.000000,0.061098 LARM_JOINT2:0.814619,0.000000,0.005171,-0.579974 LARM_JOINT3:0.964306,0.000000,-0.193396,-0.180867 LLEG_JOINT2:0.999035,0.008156,0.000000,0.043155 LLEG_JOINT4:0.995600,0.093706,0.000000,-0.000608 RARM_JOINT2:0.818622,0.000000,0.541807,0.190534 RARM_JOINT3:0.961596,0.000000,0.234234,-0.143063 RLEG_JOINT2:0.996228,0.026576,0.000000,-0.082609 RLEG_JOINT4:0.991818,0.105251,0.000000,0.072251 WAIST:0.996486,-0.000000,0.083392,0.007889 WAIST_JOINT0:0.984260,-0.000000,0.159911,0.075240 WAIST_JOINT1:0.998610,0.049263,-0.000000,0.018754 END:
KINECT_DATA_Sensor  AnkleLeft:0.059278,0.741331,-0.095986,-0.661590 AnkleRight:0.083899,0.758457,0.100162,0.638492 ElbowLeft:-0.020408,0.846569,-0.197823,-0.493731 ElbowRight:-0.520162,0.748842,-0.149425,0.382543 FootLeft:0.000000,0.000000,0.000000,0.000000 FootRight:0.000000,0.000000,0.000000,0.000000 HandLeft:-0.106423,0.674459,-0.070101,0.727232 HandRight:0.157367,-0.275726,0.704116,-0.635162 HandTipLeft:0.000000,0.000000,0.000000,0.000000 HandTipRight:0.000000,0.000000,0.000000,0.000000 Head:0.000000,0.000000,0.000000,0.000000 HipLeft:0.076724,-0.680515,0.719073,-0.118096 HipRight:-0.189630,0.670978,0.686441,-0.206465 KneeLeft:0.027168,-0.645447,0.043816,0.762063 KneeRight:-0.040210,0.762755,0.068163,0.641826 Neck:-0.169546,0.028820,0.983018,-0.064032 ShoulderLeft:0.061975,0.756142,-0.650572,-0.034133 ShoulderRight:-0.161164,0.832436,0.484073,-0.216216 SpineBase:-0.083140,0.021132,0.995948,-0.027007 SpineMid:-0.125199,0.022256,0.991539,-0.026089 SpineShoulder:-0.169481,0.026095,0.984226,-0.043526 ThumbLeft:0.000000,0.000000,0.000000,0.000000 ThumbRight:0.000000,0.000000,0.000000,0.000000 WristLeft:-0.062592,0.676325,-0.135168,0.721385 WristRight:0.151194,-0.287596,0.677129,-0.660246 END:
KINECT_DATA POSITION:9.400609,-0.938965,-11.176872 HEAD_JOINT1:0.986495,0.153183,-0.000000,0.057983 LARM_JOINT2:0.814240,0.000000,0.005614,-0.580502 LARM_JOINT3:0.965071,0.000000,-0.190377,-0.179983 LLEG_JOINT2:0.999123,0.005931,0.000000,0.041459 LLEG_JOINT4:0.995425,0.095535,0.000000,-0.001369 RARM_JOINT2:0.821255,0.000000,0.540057,0.184062 RARM_JOINT3:0.958997,0.000000,0.244590,-0.143177 RLEG_JOINT2:0.996089,0.027352,0.000000,-0.084015 RLEG_JOINT4:0.991736,0.104416,0.000000,0.074550 WAIST:0.996120,-0.000000,0.087573,0.008690 WAIST_JOINT0:0.982717,-0.000000,0.162883,0.087952 WAIST_JOINT1:0.998615,0.049068,-0.000000,0.018982 END:
KINECT_DATA_Sensor  AnkleLeft:-0.043594,-0.617297,0.102784,0.778768 AnkleRight:0.083868,0.756142,0.099940,0.641270 ElbowLeft:-0.019982,0.843479,-0.198240,-0.498844 ElbowRight:-0.524847,0.748426,-0.148009,0.377475 FootLeft:0.000000,0.000000,0.000000,0.000000 FootRight:0.000000,0.000000,0.000000,0.000000 HandLeft:-0.085028,0.595545,-0.071202,0.795630 HandRight:0.183350,-0.306418,0.681563,-0.638719 HandTipLeft:0.000000,0.000000,0.000000,0.000000 HandTipRight:0.000000,0.000000,0.000000,0.000000 Head:0.000000,0.000000,0.000000,0.000000 HipLeft:0.073553,-0.680410,0.719974,-0.115195 HipRight:-0.191812,0.671008,0.685298,-0.208141 KneeLeft:0.028192,-0.642263,0.041745,0.764827 KneeRight:-0.040524,0.765492,0.068909,0.638461 Neck:-0.172185,0.029580,0.982548,-0.063842 ShoulderLeft:0.063594,0.756972,-0.649306,-0.036742 ShoulderRight:-0.161657,0.846177,0.459047,-0.217088 SpineBase:-0.087334,0.022059,0.995571,-0.026910 SpineMid:-0.128477,0.023154,0.991102,-0.025974 SpineShoulder:-0.172115,0.026832,0.983755,-0.043400 ThumbLeft:0.000000,0.000000,0.000000,0.000000 ThumbRight:0.000000,0.000000,0.000000,0.000000 WristLeft:-0.047645,0.596411,-0.142907,0.788417 WristRight:0.169328,-0.318751,0.687794,-0.629814 END:
KINECT_DATA POSITION:9.445024,-1.097875,-11.323750 HEAD_JOINT1:0.987081,0.150362,-0.000000,0.055333 LARM_JOINT2:0.814342,0.000000,0.005737,-0.580356 LARM_JOINT3:0.964058,0.000000,-0.196071,-0.179302 LLEG_JOINT2:0.999202,0.003727,0.000000,0.039768 LLEG_JOINT4:0.995312,0.096682,0.000000,0.002542 RARM_JOINT2:0.823638,0.000000,0.537276,0.181534 RARM_JOINT3:0.955371,0.000000,0.251828,-0.154428 RLEG_JOINT2:0.995805,0.028673,0.000000,-0.086891 RLEG_JOINT4:0.991816,0.101568,0.000000,0.077368 WAIST:0.995738,-0.000000,0.091721,0.009604 WAIST_JOINT0:0.981841,-0.000000,0.162103,0.098541 WAIST_JOINT1:0.998606,0.049249,-0.000000,0.018994 END:
KINECT_DATA_Sensor  AnkleLeft:0.057843,0.735379,-0.095911,-0.668335 AnkleRight:0.088324,0.792942,0.093756,0.595527 ElbowLeft:-0.019024,0.842077,-0.199421,-0.500775 ElbowRight:-0.524466,0.744379,-0.153160,0.383898 FootLeft:0.000000,0.000000,0.000000,0.000000 FootRight:0.000000,0.000000,0.000000,0.000000 HandLeft:-0.096894,0.658379,-0.085009,0.741567 HandRight:0.139725,-0.268507,0.703111,-0.643441 HandTipLeft:0.000000,0.000000,0.000000,0.000000 HandTipRight:0.000000,0.000000,0.000000,0.000000 Head:0.000000,0.000000,0.000000,0.000000 HipLeft:0.070106,-0.680028,0.721074,-0.112691 HipRight:-0.193699,0.670886,0.684266,-0.210174 KneeLeft:0.029306,-0.639105,0.039773,0.767531 KneeRight:-0.041539,0.768164,0.070938,0.634953 Neck:-0.170943,0.029977,0.982740,-0.064047 ShoulderLeft:0.064758,0.757202,-0.648902,-0.037113 ShoulderRight:-0.157647,0.856895,0.441480,-0.214414 SpineBase:-0.091495,0.022979,0.995164,-0.027366 SpineMid:-0.129902,0.024020,0.990883,-0.026457 SpineShoulder:-0.170862,0.027298,0.983943,-0.043779 ThumbLeft:0.000000,0.000000,0.000000,0.000000 ThumbRight:0.000000,0.000000,0.000000,0.000000 WristLeft:-0.058287,0.660152,-0.138707,0.735909 WristRight:0.127756,-0.279988,0.705801,-0.638067 END:
