EastLYD/RoboCupatHomeSim/InteractiveCleanUp/JapanOpen2016/Motion_Data/File18.dat
KINECT_DATA POSITION:3.533094,-1.510802,-6.215858 HEAD_JOINT1:0.982213,0.157327,-0.000000,0.102500 LARM_JOINT2:0.822246,0.000000,-0.038999,-0.567795 LARM_JOINT3:0.958028,0.000000,-0.214407,-0.190292 LLEG_JOINT2:0.997771,0.026019,0.000000,0.061447 LLEG_JOINT4:0.995054,0.091551,0.000000,-0.038554 RARM_JOINT2:0.799176,0.000000,-0.037005,0.599957 RARM_JOINT3:0.958218,0.000000,0.241526,0.153242 RLEG_JOINT2:0.998528,0.008774,0.000000,-0.053519 RLEG_JOINT4:0.993636,0.108463,0.000000,0.030401 WAIST:0.999976,0.000000,-0.003470,-0.006069 WAIST_JOINT0:0.999728,0.000000,-0.018915,0.013619 WAIST_JOINT1:0.997340,0.071589,0.000000,-0.013745 END:
KINECT_DATA_Sensor  AnkleLeft:0.073563,0.720716,-0.092813,-0.683039 AnkleRight:0.068915,0.737273,0.098807,0.664768 ElbowLeft:-0.031528,0.905798,-0.160459,-0.390882 ElbowRight:0.005159,0.845352,0.188401,0.499858 FootLeft:0.000000,0.000000,0.000000,0.000000 FootRight:0.000000,0.000000,0.000000,0.000000 HandLeft:-0.199568,0.422745,-0.093729,0.879019 HandRight:0.125989,-0.537200,-0.131704,0.823527 HandTipLeft:0.000000,0.000000,0.000000,0.000000 HandTipRight:0.000000,0.000000,0.000000,0.000000 Head:0.000000,0.000000,0.000000,0.000000 HipLeft:0.116517,-0.684264,0.699978,-0.168042 HipRight:-0.116030,0.672392,0.708436,-0.180400 KneeLeft:-0.020915,0.709173,-0.057502,-0.702374 KneeRight:-0.035711,0.704203,0.048486,0.707441 Neck:0.016505,-0.022814,0.995828,-0.086802 ShoulderLeft:0.020140,0.783896,-0.616698,0.069176 ShoulderRight:0.043128,0.796214,0.602158,-0.039846 SpineBase:0.003290,-0.015646,0.998741,-0.047551 SpineMid:0.009761,-0.015954,0.998699,-0.047448 SpineShoulder:0.016412,-0.019684,0.997463,-0.066411 ThumbLeft:0.000000,0.000000,0.000000,0.000000 ThumbRight:0.000000,0.000000,0.000000,0.000000 WristLeft:-0.093116,0.434830,-0.126819,0.886662 WristRight:0.057050,-0.545850,-0.126424,0.826324 END:
KINECT_DATA POSITION:3.505041,-1.514292,-6.131601 HEAD_JOINT1:0.982236,0.157137,-0.000000,0.102570 LARM_JOINT2:0.821502,0.000000,-0.045227,-0.568409 LARM_JOINT3:0.958795,0.000000,-0.210565,-0.190722 LLEG_JOINT2:0.997739,0.025562,0.000000,0.062160 LLEG_JOINT4:0.994686,0.096023,0.000000,-0.037142 RARM_JOINT2:0.799572,0.000000,-0.037389,0.599405 RARM_JOINT3:0.960203,0.000000,0.238057,0.146077 RLEG_JOINT2:0.998497,0.008534,0.000000,-0.054140 RLEG_JOINT4:0.993374,0.109851,0.000000,0.033790 WAIST:0.999976,0.000000,-0.001760,-0.006693 WAIST_JOINT0:0.999715,0.000000,-0.019787,0.013321 WAIST_JOINT1:0.997376,0.071233,0.000000,-0.012938 END:
KINECT_DATA_Sensor  AnkleLeft:0.075821,0.720500,-0.096358,-0.682529 AnkleRight:0.066821,0.709450,0.100977,0.694276 ElbowLeft:-0.034520,0.908612,-0.157563,-0.385236 ElbowRight:0.003709,0.843809,0.188824,0.502312 FootLeft:0.000000,0.000000,0.000000,0.000000 FootRight:0.000000,0.000000,0.000000,0.000000 HandLeft:-0.202697,0.835911,0.028659,0.509259 HandRight:0.103778,-0.618883,-0.118172,0.769578 HandTipLeft:0.000000,0.000000,0.000000,0.000000 HandTipRight:0.000000,0.000000,0.000000,0.000000 Head:0.000000,0.000000,0.000000,0.000000 HipLeft:0.116616,-0.684953,0.699580,-0.166819 HipRight:-0.117931,0.671771,0.708525,-0.181129 KneeLeft:-0.021197,0.707991,-0.057286,-0.703575 KneeRight:-0.036836,0.705331,0.049142,0.706213 Neck:0.017495,-0.022875,0.995839,-0.086460 ShoulderLeft:0.018574,0.783772,-0.616801,0.070091 ShoulderRight:0.042779,0.795610,0.603018,-0.039290 SpineBase:0.001625,-0.016133,0.998782,-0.046601 SpineMid:0.009381,-0.016495,0.998739,-0.046475 SpineShoulder:0.017390,-0.019826,0.997475,-0.065946 ThumbLeft:0.000000,0.000000,0.000000,0.000000 ThumbRight:0.000000,0.000000,0.000000,0.000000 WristLeft:-0.154749,0.854268,-0.050489,0.493690 WristRight:0.069511,-0.623089,-0.123066,0.769274 END:
KINECT_DATA POSITION:3.425424,-1.535431,-6.031370 HEAD_JOINT1:0.982288,0.156654,-0.000000,0.102812 LARM_JOINT2:0.821177,0.000000,-0.049080,-0.568559 LARM_JOINT3:0.959669,0.000000,-0.206759,-0.190487 LLEG_JOINT2:0.997625,0.025506,0.000000,0.063986 LLEG_JOINT4:0.994744,0.094904,0.000000,-0.038433 RARM_JOINT2:0.799804,0.000000,-0.037962,0.599060 RARM_JOINT3:0.961269,0.000000,0.231932,0.148896 RLEG_JOINT2:0.998533,0.010735,0.000000,-0.053077 RLEG_JOINT4:0.993692,0.106714,0.000000,0.034470 WAIST:0.999968,0.000000,-0.002486,-0.007646 WAIST_JOINT0:0.999686,0.000000,-0.021474,0.012905 WAIST_JOINT1:0.997428,0.070617,0.000000,-0.012242 END:
KINECT_DATA_Sensor  AnkleLeft:0.073952,0.712336,-0.096254,-0.691263 AnkleRight:0.066658,0.708525,0.099769,0.695410 ElbowLeft:-0.037162,0.910651,-0.155427,-0.381020 ElbowRight:0.003707,0.844114,0.189290,0.501624 FootLeft:0.000000,0.000000,0.000000,0.000000 FootRight:0.000000,0.000000,0.000000,0.000000 HandLeft:-0.184033,0.434044,-0.076788,0.878545 HandRight:0.079382,-0.501277,-0.108720,0.854751 HandTipLeft:0.000000,0.000000,0.000000,0.000000 HandTipRight:0.000000,0.000000,0.000000,0.000000 Head:0.000000,0.000000,0.000000,0.000000 HipLeft:0.118170,-0.685595,0.698687,-0.166828 HipRight:-0.118307,0.671302,0.709072,-0.180481 KneeLeft:-0.021899,0.708532,-0.057845,-0.702963 KneeRight:-0.035163,0.704818,0.050636,0.706705 Neck:0.019315,-0.022916,0.995833,-0.086127 ShoulderLeft:0.016270,0.783721,-0.616774,0.071458 ShoulderRight:0.042720,0.795054,0.603843,-0.037912 SpineBase:0.002402,-0.016960,0.998812,-0.045614 SpineMid:0.010631,-0.017335,0.998759,-0.045473 SpineShoulder:0.019174,-0.020165,0.997483,-0.065217 ThumbLeft:0.000000,0.000000,0.000000,0.000000 ThumbRight:0.000000,0.000000,0.000000,0.000000 WristLeft:-0.103648,0.444270,-0.127240,0.880733 WristRight:0.050648,-0.504108,-0.131739,0.852030 END:
KINECT_DATA POSITION:3.378806,-1.537313,-6.008399 HEAD_JOINT1:0.982547,0.154986,-0.000000,0.102863 LARM_JOINT2:0.821307,0.000000,-0.050141,-0.568279 LARM_JOINT3:0.960063,0.000000,-0.203328,-0.192189 LLEG_JOINT2:0.997574,0.026505,0.000000,0.064365 LLEG_JOINT4:0.994697,0.095715,0.000000,-0.037633 RARM_JOINT2:0.799738,0.000000,-0.036587,0.599233 RARM_JOINT3:0.961215,0.000000,0.232176,0.148862 RLEG_JOINT2:0.998577,0.011266,0.000000,-0.052118 RLEG_JOINT4:0.993638,0.107127,0.000000,0.034738 WAIST:0.999967,0.000000,-0.001846,-0.007882 WAIST_JOINT0:0.999678,0.000000,-0.022129,0.012455 WAIST_JOINT1:0.997454,0.070296,0.000000,-0.012030 END:
KINECT_DATA_Sensor  AnkleLeft:0.075618,0.718453,-0.097396,-0.684559 AnkleRight:0.067822,0.707936,0.099849,0.695886 ElbowLeft:-0.037527,0.912183,-0.155336,-0.377338 ElbowRight:0.002990,0.846078,0.188480,0.498616 FootLeft:0.000000,0.000000,0.000000,0.000000 FootRight:0.000000,0.000000,0.000000,0.000000 HandLeft:-0.192589,0.767707,0.013871,0.611019 HandRight:0.107965,-0.637347,-0.101474,0.756198 HandTipLeft:0.000000,0.000000,0.000000,0.000000 HandTipRight:0.000000,0.000000,0.000000,0.000000 Head:0.000000,0.000000,0.000000,0.000000 HipLeft:0.118057,-0.685883,0.698542,-0.166335 HipRight:-0.118794,0.671071,0.709121,-0.180829 KneeLeft:-0.021249,0.708133,-0.058672,-0.703316 KneeRight:-0.034306,0.705300,0.050479,0.706277 Neck:0.020044,-0.022968,0.995848,-0.085779 ShoulderLeft:0.015999,0.783774,-0.616716,0.071435 ShoulderRight:0.043338,0.794432,0.604683,-0.036858 SpineBase:0.001768,-0.017319,0.998817,-0.045406 SpineMid:0.010655,-0.017722,0.998762,-0.045250 SpineShoulder:0.019887,-0.020357,0.997489,-0.064854 ThumbLeft:0.000000,0.000000,0.000000,0.000000 ThumbRight:0.000000,0.000000,0.000000,0.000000 WristLeft:-0.149390,0.786894,-0.067195,0.594949 WristRight:0.070455,-0.641207,-0.119565,0.754714 END:
KINECT_DATA POSITION:3.403725,-1.516993,-5.955088 HEAD_JOINT1:0.984382,0.147164,-0.000000,0.096615 LARM_JOINT2:0.820578,0.000000,-0.044313,-0.569814 LARM_JOINT3:0.961641,0.000000,-0.199739,-0.188020 LLEG_JOINT2:0.997679,0.027837,0.000000,0.062149 LLEG_JOINT4:0.995017,0.092998,0.000000,-0.035942 RARM_JOINT2:0.823242,0.000000,0.080082,0.562013 RARM_JOINT3:0.932615,0.000000,0.350214,0.087057 RLEG_JOINT2:0.998395,0.010791,0.000000,-0.055604 RLEG_JOINT4:0.992860,0.111952,0.000000,0.041168 WAIST:0.999968,0.000000,-0.002702,-0.007469 WAIST_JOINT0:0.999869,0.000000,-0.011779,0.011148 WAIST_JOINT1:0.997896,0.063688,0.000000,-0.012183 END:
KINECT_DATA_Sensor  AnkleLeft:0.074542,0.718970,-0.096490,-0.684263 AnkleRight:0.069700,0.680899,0.102908,0.721754 ElbowLeft:-0.040139,0.908688,-0.153430,-0.386180 ElbowRight:-0.116533,0.813044,0.162650,0.546740 FootLeft:0.000000,0.000000,0.000000,0.000000 FootRight:0.000000,0.000000,0.000000,0.000000 HandLeft:-0.169833,0.787902,0.016277,0.591694 HandRight:0.150536,-0.323467,-0.376737,0.854855 HandTipLeft:0.000000,0.000000,0.000000,0.000000 HandTipRight:0.000000,0.000000,0.000000,0.000000 Head:0.000000,0.000000,0.000000,0.000000 HipLeft:0.120187,-0.685943,0.698459,-0.164902 HipRight:-0.119855,0.671933,0.708701,-0.178560 KneeLeft:-0.019080,0.708844,-0.058321,-0.702692 KneeRight:-0.036768,0.704566,0.052352,0.706749 Neck:0.010420,-0.021376,0.996647,-0.078292 ShoulderLeft:0.015372,0.784838,-0.616399,0.062008 ShoulderRight:0.030071,0.793737,0.605981,-0.043179 SpineBase:0.002595,-0.017249,0.998936,-0.042690 SpineMid:0.006291,-0.017406,0.998920,-0.042626 SpineShoulder:0.010215,-0.019446,0.998026,-0.058837 ThumbLeft:0.000000,0.000000,0.000000,0.000000 ThumbRight:0.000000,0.000000,0.000000,0.000000 WristLeft:-0.155217,0.800596,-0.068102,0.574731 WristRight:0.076267,-0.356997,-0.306159,0.879206 END:
KINECT_DATA POSITION:3.518328,-1.486356,-5.870342 HEAD_JOINT1:0.985812,0.141597,-0.000000,0.090143 LARM_JOINT2:0.819531,0.000000,-0.034501,-0.571995 LARM_JOINT3:0.962222,0.000000,-0.197416,-0.187497 LLEG_JOINT2:0.997794,0.029093,0.000000,0.059676 LLEG_JOINT4:0.995382,0.090232,0.000000,-0.032754 RARM_JOINT2:0.829427,0.000000,0.231381,0.508443 RARM_JOINT3:0.936798,0.000000,0.349871,-0.000223 RLEG_JOINT2:0.998137,0.008235,0.000000,-0.060458 RLEG_JOINT4:0.992912,0.109209,0.000000,0.046890 WAIST:0.999965,0.000000,-0.004494,-0.007083 WAIST_JOINT0:0.999923,-0.000000,0.002785,0.012082 WAIST_JOINT1:0.998260,0.057874,0.000000,-0.011291 END:
KINECT_DATA_Sensor  AnkleLeft:0.069726,0.700797,-0.098424,-0.703090 AnkleRight:0.077232,0.753696,0.090321,0.646390 ElbowLeft:-0.039446,0.905048,-0.153510,-0.394672 ElbowRight:-0.239958,0.796002,0.092474,0.547950 FootLeft:0.000000,0.000000,0.000000,0.000000 FootRight:0.000000,0.000000,0.000000,0.000000 HandLeft:-0.157250,0.791424,0.020196,0.590349 HandRight:0.048426,-0.098386,-0.489405,0.865134 HandTipLeft:0.000000,0.000000,0.000000,0.000000 HandTipRight:0.000000,0.000000,0.000000,0.000000 Head:0.000000,0.000000,0.000000,0.000000 HipLeft:0.123357,-0.686115,0.698128,-0.163238 HipRight:-0.121247,0.673285,0.708203,-0.174457 KneeLeft:-0.016819,0.710241,-0.057699,-0.701389 KneeRight:-0.041649,0.703009,0.053782,0.707920 Neck:-0.003655,-0.018414,0.997162,-0.072903 ShoulderLeft:0.016440,0.784838,-0.617409,0.050643 ShoulderRight:0.012855,0.794809,0.604291,-0.054276 SpineBase:0.004402,-0.016301,0.999111,-0.038616 SpineMid:0.000199,-0.016138,0.999121,-0.038684 SpineShoulder:-0.003918,-0.017327,0.998420,-0.053305 ThumbLeft:0.000000,0.000000,0.000000,0.000000 ThumbRight:0.000000,0.000000,0.000000,0.000000 WristLeft:-0.155710,0.802133,-0.070770,0.572126 WristRight:0.014906,-0.119407,-0.445027,0.887395 END:
KINECT_DATA POSITION:3.651378,-1.446566,-5.880892 HEAD_JOINT1:0.985868,0.144176,-0.000000,0.085305 LARM_JOINT2:0.818360,0.000000,-0.027603,-0.574043 LARM_JOINT3:0.962079,0.000000,-0.199630,-0.185879 LLEG_JOINT2:0.997951,0.028695,0.000000,0.057180 LLEG_JOINT4:0.995375,0.090917,0.000000,-0.031042 RARM_JOINT2:0.837570,0.000000,0.301607,0.455532 RARM_JOINT3:0.939361,0.000000,0.340442,-0.041229 RLEG_JOINT2:0.997928,0.007450,0.000000,-0.063907 RLEG_JOINT4:0.992398,0.111754,0.000000,0.051543 WAIST:0.999974,0.000000,-0.001934,-0.006872 WAIST_JOINT0:0.999794,-0.000000,0.015735,0.012799 WAIST_JOINT1:0.998325,0.057009,0.000000,-0.009882 END:
KINECT_DATA_Sensor  AnkleLeft:0.073610,0.720630,-0.095832,-0.682708 AnkleRight:0.073354,0.712318,0.095382,0.691466 ElbowLeft:-0.035752,0.900261,-0.154962,-0.405264 ElbowRight:-0.307611,0.788405,0.067313,0.528453 FootLeft:0.000000,0.000000,0.000000,0.000000 FootRight:0.000000,0.000000,0.000000,0.000000 HandLeft:-0.163387,0.758898,0.010554,0.630291 HandRight:-0.256458,0.353967,-0.479190,0.761127 HandTipLeft:0.000000,0.000000,0.000000,0.000000 HandTipRight:0.000000,0.000000,0.000000,0.000000 Head:0.000000,0.000000,0.000000,0.000000 HipLeft:0.122612,-0.686585,0.698405,-0.160616 HipRight:-0.124373,0.673565,0.707507,-0.173996 KneeLeft:-0.015325,0.708499,-0.055856,-0.703331 KneeRight:-0.044620,0.704579,0.055424,0.706049 Neck:-0.016276,-0.016300,0.997104,-0.072482 ShoulderLeft:0.018638,0.784205,-0.618623,0.044509 ShoulderRight:-0.001225,0.794428,0.603537,-0.068012 SpineBase:0.001893,-0.014755,0.999224,-0.036468 SpineMid:-0.007320,-0.014418,0.999199,-0.036603 SpineShoulder:-0.016535,-0.015314,0.998369,-0.052449 ThumbLeft:0.000000,0.000000,0.000000,0.000000 ThumbRight:0.000000,0.000000,0.000000,0.000000 WristLeft:-0.146925,0.773394,-0.081026,0.611317 WristRight:-0.245341,0.359808,-0.441338,0.784580 END:
KINECT_DATA POSITION:3.686234,-1.424871,-5.890560 HEAD_JOINT1:0.985416,0.149821,-0.000000,0.080678 LARM_JOINT2:0.817347,0.000000,-0.024657,-0.575617 LARM_JOINT3:0.961937,0.000000,-0.200799,-0.185358 LLEG_JOINT2:0.997983,0.029278,0.000000,0.056328 LLEG_JOINT4:0.995699,0.088213,0.000000,-0.028330 RARM_JOINT2:0.841583,0.000000,0.306765,0.444560 RARM_JOINT3:0.923594,0.000000,0.376581,-0.071838 RLEG_JOINT2:0.997822,0.008226,0.000000,-0.065454 RLEG_JOINT4:0.992169,0.113003,0.000000,0.053198 WAIST:0.999978,0.000000,0.000506,-0.006599 WAIST_JOINT0:0.999683,-0.000000,0.021803,0.012582 WAIST_JOINT1:0.998320,0.057289,0.000000,-0.008646 END:
KINECT_DATA_Sensor  AnkleLeft:-0.066856,-0.690559,0.098612,0.713396 AnkleRight:0.077344,0.731312,0.094687,0.670995 ElbowLeft:-0.033169,0.898078,-0.155896,-0.409941 ElbowRight:-0.318660,0.776061,0.061387,0.540755 FootLeft:0.000000,0.000000,0.000000,0.000000 FootRight:0.000000,0.000000,0.000000,0.000000 HandLeft:-0.167551,0.747404,0.004914,0.642876 HandRight:-0.252968,0.304555,-0.543884,0.739894 HandTipLeft:0.000000,0.000000,0.000000,0.000000 HandTipRight:0.000000,0.000000,0.000000,0.000000 Head:0.000000,0.000000,0.000000,0.000000 HipLeft:0.121217,-0.686711,0.698881,-0.159058 HipRight:-0.126355,0.673511,0.707017,-0.174770 KneeLeft:-0.014351,0.706812,-0.055906,-0.705043 KneeRight:-0.045095,0.706229,0.056777,0.704261 Neck:-0.022263,-0.014405,0.996974,-0.073067 ShoulderLeft:0.020338,0.783597,-0.619525,0.041841 ShoulderRight:-0.007325,0.793646,0.603718,-0.074809 SpineBase:-0.000527,-0.013799,0.999258,-0.035947 SpineMid:-0.011524,-0.013403,0.999192,-0.036097 SpineShoulder:-0.022539,-0.013839,0.998264,-0.052633 ThumbLeft:0.000000,0.000000,0.000000,0.000000 ThumbRight:0.000000,0.000000,0.000000,0.000000 WristLeft:-0.142249,0.763432,-0.083945,0.624412 WristRight:-0.231260,0.319606,-0.492915,0.775504 END:
KINECT_DATA POSITION:3.695071,-1.404829,-5.863476 HEAD_JOINT1:0.984406,0.155188,-0.000000,0.082830 LARM_JOINT2:0.816955,0.000000,-0.025319,-0.576145 LARM_JOINT3:0.958776,0.000000,-0.212645,-0.188497 LLEG_JOINT2:0.998022,0.029355,0.000000,0.055590 LLEG_JOINT4:0.995538,0.090270,0.000000,-0.027500 RARM_JOINT2:0.843691,0.000000,0.322772,0.428957 RARM_JOINT3:0.923619,0.000000,0.367891,-0.107631 RLEG_JOINT2:0.997853,0.008650,0.000000,-0.064921 RLEG_JOINT4:0.992270,0.112414,0.000000,0.052562 WAIST:0.999977,0.000000,0.000653,-0.006759 WAIST_JOINT0:0.999633,-0.000000,0.024161,0.012233 WAIST_JOINT1:0.998267,0.058363,0.000000,-0.007465 END:
KINECT_DATA_Sensor  AnkleLeft:0.073221,0.724309,-0.096611,-0.678735 AnkleRight:0.077011,0.731336,0.094805,0.670991 ElbowLeft:-0.033001,0.897516,-0.156383,-0.410999 ElbowRight:-0.336203,0.754489,0.044306,0.561917 FootLeft:0.000000,0.000000,0.000000,0.000000 FootRight:0.000000,0.000000,0.000000,0.000000 HandLeft:-0.208201,0.759930,-0.002160,0.615755 HandRight:-0.307200,0.313970,-0.521010,0.731846 HandTipLeft:0.000000,0.000000,0.000000,0.000000 HandTipRight:0.000000,0.000000,0.000000,0.000000 Head:0.000000,0.000000,0.000000,0.000000 HipLeft:0.120907,-0.686833,0.698789,-0.159171 HipRight:-0.126540,0.673518,0.707035,-0.174537 KneeLeft:-0.013656,0.706738,-0.055328,-0.705177 KneeRight:-0.044539,0.706325,0.056805,0.704198 Neck:-0.024611,-0.013256,0.996830,-0.074490 ShoulderLeft:0.021469,0.782301,-0.621132,0.041702 ShoulderRight:-0.009301,0.792017,0.605381,-0.078332 SpineBase:-0.000637,-0.013100,0.999268,-0.035944 SpineMid:-0.012749,-0.012663,0.999187,-0.036100 SpineShoulder:-0.024872,-0.012666,0.998172,-0.053601 ThumbLeft:0.000000,0.000000,0.000000,0.000000 ThumbRight:0.000000,0.000000,0.000000,0.000000 WristLeft:-0.145698,0.782852,-0.079760,0.599627 WristRight:-0.272908,0.338053,-0.511984,0.741022 END:
KINECT_DATA POSITION:3.689767,-1.401971,-5.806684 HEAD_JOINT1:0.984096,0.156435,-0.000000,0.084161 LARM_JOINT2:0.816985,0.000000,-0.025796,-0.576082 LARM_JOINT3:0.959277,0.000000,-0.210779,-0.188041 LLEG_JOINT2:0.998050,0.030155,0.000000,0.054661 LLEG_JOINT4:0.995593,0.089871,0.000000,-0.026802 RARM_JOINT2:0.845513,0.000000,0.342289,0.409813 RARM_JOINT3:0.939553,0.000000,0.318631,-0.125354 RLEG_JOINT2:0.997828,0.008032,0.000000,-0.065386 RLEG_JOINT4:0.992145,0.113670,0.000000,0.052225 WAIST:0.999977,0.000000,-0.000473,-0.006727 WAIST_JOINT0:0.999604,-0.000000,0.025367,0.012215 WAIST_JOINT1:0.998236,0.059016,0.000000,-0.006500 END:
KINECT_DATA_Sensor  AnkleLeft:0.073836,0.727228,-0.096587,-0.675543 AnkleRight:0.077364,0.732473,0.095468,0.669615 ElbowLeft:-0.032932,0.899091,-0.157477,-0.407127 ElbowRight:-0.356238,0.735257,0.026743,0.576000 FootLeft:0.000000,0.000000,0.000000,0.000000 FootRight:0.000000,0.000000,0.000000,0.000000 HandLeft:-0.177414,0.437734,-0.085345,0.877285 HandRight:-0.177886,0.055023,-0.559608,0.807569 HandTipLeft:0.000000,0.000000,0.000000,0.000000 HandTipRight:0.000000,0.000000,0.000000,0.000000 Head:0.000000,0.000000,0.000000,0.000000 HipLeft:0.121496,-0.686637,0.698672,-0.160082 HipRight:-0.126195,0.673773,0.707047,-0.173750 KneeLeft:-0.012521,0.707573,-0.055236,-0.704367 KneeRight:-0.045229,0.705467,0.056717,0.705020 Neck:-0.025845,-0.012118,0.996761,-0.075183 ShoulderLeft:0.021436,0.781464,-0.622147,0.042284 ShoulderRight:-0.010997,0.791283,0.605989,-0.080790 SpineBase:0.000512,-0.012314,0.999279,-0.035906 SpineMid:-0.012774,-0.011835,0.999198,-0.036066 SpineShoulder:-0.026076,-0.011423,0.998121,-0.054251 ThumbLeft:0.000000,0.000000,0.000000,0.000000 ThumbRight:0.000000,0.000000,0.000000,0.000000 WristLeft:-0.098196,0.447730,-0.133761,0.878637 WristRight:-0.133988,0.086306,-0.569131,0.806653 END:
KINECT_DATA POSITION:3.687431,-1.410932,-5.722988 HEAD_JOINT1:0.983769,0.158087,-0.000000,0.084892 LARM_JOINT2:0.818034,0.000000,-0.025675,-0.574596 LARM_JOINT3:0.960478,0.000000,-0.206395,-0.186770 LLEG_JOINT2:0.998113,0.028824,0.000000,0.054219 LLEG_JOINT4:0.995655,0.089781,0.000000,-0.024715 RARM_JOINT2:0.847430,0.000000,0.366644,0.383973 RARM_JOINT3:0.955415,0.000000,0.269732,-0.120109 RLEG_JOINT2:0.997807,0.009217,0.000000,-0.065546 RLEG_JOINT4:0.992258,0.112346,0.000000,0.052935 WAIST:0.999977,0.000000,0.001232,-0.006648 WAIST_JOINT0:0.999459,-0.000000,0.030240,0.012955 WAIST_JOINT1:0.998198,0.059754,0.000000,-0.005546 END:
KINECT_DATA_Sensor  AnkleLeft:-0.066090,-0.685903,0.100775,0.717645 AnkleRight:0.077834,0.735877,0.094790,0.665915 ElbowLeft:-0.032113,0.900646,-0.160620,-0.402501 ElbowRight:-0.380965,0.727852,0.012139,0.570044 FootLeft:0.000000,0.000000,0.000000,0.000000 FootRight:0.000000,0.000000,0.000000,0.000000 HandLeft:-0.175336,0.796447,-0.001951,0.578727 HandRight:-0.192691,0.056211,-0.540197,0.817250 HandTipLeft:0.000000,0.000000,0.000000,0.000000 HandTipRight:0.000000,0.000000,0.000000,0.000000 Head:0.000000,0.000000,0.000000,0.000000 HipLeft:0.120243,-0.686713,0.698918,-0.159630 HipRight:-0.127518,0.673621,0.706716,-0.174718 KneeLeft:-0.013111,0.706340,-0.054068,-0.705683 KneeRight:-0.044536,0.706663,0.057544,0.703799 Neck:-0.030556,-0.011059,0.996581,-0.075967 ShoulderLeft:0.019910,0.780717,-0.623078,0.043122 ShoulderRight:-0.018737,0.790584,0.605590,-0.088808 SpineBase:-0.001158,-0.011304,0.999284,-0.036094 SpineMid:-0.015933,-0.010769,0.999157,-0.036258 SpineShoulder:-0.030765,-0.010268,0.997961,-0.054968 ThumbLeft:0.000000,0.000000,0.000000,0.000000 ThumbRight:0.000000,0.000000,0.000000,0.000000 WristLeft:-0.147857,0.808402,-0.070650,0.565361 WristRight:-0.157042,0.081776,-0.554697,0.812996 END:
KINECT_DATA POSITION:3.690948,-1.408593,-5.689526 HEAD_JOINT1:0.983803,0.157766,-0.000000,0.085096 LARM_JOINT2:0.818408,0.000000,-0.026263,-0.574037 LARM_JOINT3:0.959955,0.000000,-0.209398,-0.186117 LLEG_JOINT2:0.998184,0.028075,0.000000,0.053299 LLEG_JOINT4:0.995551,0.091718,0.000000,-0.021578 RARM_JOINT2:0.848856,0.000000,0.367363,0.380116 RARM_JOINT3:0.958162,0.000000,0.261555,-0.116249 RLEG_JOINT2:0.997855,0.009061,0.000000,-0.064835 RLEG_JOINT4:0.992581,0.110991,0.000000,0.049647 WAIST:0.999978,0.000000,0.001524,-0.006492 WAIST_JOINT0:0.999415,-0.000000,0.031263,0.013854 WAIST_JOINT1:0.998154,0.060530,0.000000,-0.005051 END:
KINECT_DATA_Sensor  AnkleLeft:-0.065237,-0.685507,0.103267,0.717747 AnkleRight:0.074946,0.735480,0.095730,0.666550 ElbowLeft:-0.032092,0.901064,-0.161952,-0.401029 ElbowRight:-0.383403,0.728480,0.013944,0.567560 FootLeft:0.000000,0.000000,0.000000,0.000000 FootRight:0.000000,0.000000,0.000000,0.000000 HandLeft:-0.159239,0.422317,-0.099415,0.886797 HandRight:-0.203571,0.057933,-0.524761,0.824517 HandTipLeft:0.000000,0.000000,0.000000,0.000000 HandTipRight:0.000000,0.000000,0.000000,0.000000 Head:0.000000,0.000000,0.000000,0.000000 HipLeft:0.119641,-0.686566,0.699094,-0.159943 HipRight:-0.127557,0.673675,0.706572,-0.175063 KneeLeft:-0.013090,0.706118,-0.053003,-0.705986 KneeRight:-0.044050,0.706889,0.056808,0.703662 Neck:-0.031694,-0.010369,0.996491,-0.076767 ShoulderLeft:0.020438,0.780216,-0.623671,0.043371 ShoulderRight:-0.019691,0.791146,0.604548,-0.090675 SpineBase:-0.001438,-0.010695,0.999273,-0.036574 SpineMid:-0.016628,-0.010138,0.999135,-0.036732 SpineShoulder:-0.031889,-0.009557,0.997891,-0.055719 ThumbLeft:0.000000,0.000000,0.000000,0.000000 ThumbRight:0.000000,0.000000,0.000000,0.000000 WristLeft:-0.092668,0.431132,-0.132812,0.887637 WristRight:-0.163165,0.087202,-0.550603,0.814008 END:
KINECT_DATA POSITION:3.686708,-1.399436,-5.654132 HEAD_JOINT1:0.983034,0.160876,-0.000000,0.088106 LARM_JOINT2:0.819365,0.000000,-0.028414,-0.572568 LARM_JOINT3:0.958674,0.000000,-0.214911,-0.186433 LLEG_JOINT2:0.998176,0.028245,0.000000,0.053352 LLEG_JOINT4:0.995587,0.091224,0.000000,-0.022037 RARM_JOINT2:0.866513,0.000000,0.293020,0.404096 RARM_JOINT3:0.901389,0.000000,0.396372,-0.174317 RLEG_JOINT2:0.997834,0.009217,0.000000,-0.065139 RLEG_JOINT4:0.992176,0.113837,0.000000,0.051264 WAIST:0.999979,0.000000,0.001299,-0.006304 WAIST_JOINT0:0.999470,-0.000000,0.028774,0.015221 WAIST_JOINT1:0.998036,0.062500,0.000000,-0.004333 END:
KINECT_DATA_Sensor  AnkleLeft:0.073037,0.740020,-0.097451,-0.661468 AnkleRight:0.078028,0.733677,0.096716,0.668039 ElbowLeft:-0.033389,0.900206,-0.164221,-0.401928 ElbowRight:-0.349373,0.711509,0.065232,0.606167 FootLeft:0.000000,0.000000,0.000000,0.000000 FootRight:0.000000,0.000000,0.000000,0.000000 HandLeft:-0.166345,0.379557,-0.119469,0.902216 HandRight:-0.400672,0.254590,-0.579029,0.662852 HandTipLeft:0.000000,0.000000,0.000000,0.000000 HandTipRight:0.000000,0.000000,0.000000,0.000000 Head:0.000000,0.000000,0.000000,0.000000 HipLeft:0.118636,-0.686184,0.699363,-0.161143 HipRight:-0.126755,0.673720,0.706570,-0.175479 KneeLeft:-0.013151,0.706274,-0.053289,-0.705807 KneeRight:-0.044013,0.706709,0.057008,0.703829 Neck:-0.029556,-0.009600,0.996401,-0.078861 ShoulderLeft:0.021694,0.779153,-0.624812,0.045391 ShoulderRight:-0.015621,0.792291,0.603403,-0.089085 SpineBase:-0.001187,-0.009714,0.999233,-0.037922 SpineMid:-0.015420,-0.009172,0.999115,-0.038057 SpineShoulder:-0.029723,-0.008672,0.997860,-0.057589 ThumbLeft:0.000000,0.000000,0.000000,0.000000 ThumbRight:0.000000,0.000000,0.000000,0.000000 WristLeft:-0.084021,0.390551,-0.138410,0.906230 WristRight:-0.326514,0.312964,-0.522976,0.722453 END:
KINECT_DATA POSITION:3.688623,-1.386208,-5.657363 HEAD_JOINT1:0.980365,0.174232,-0.000000,0.092349 LARM_JOINT2:0.817576,0.000000,-0.027013,-0.575187 LARM_JOINT3:0.961776,0.000000,-0.199476,-0.187605 LLEG_JOINT2:0.998136,0.029666,0.000000,0.053327 LLEG_JOINT4:0.995777,0.088324,0.000000,-0.025061 RARM_JOINT2:0.858019,0.000000,0.281523,0.429590 RARM_JOINT3:0.892406,0.000000,0.408447,-0.191786 RLEG_JOINT2:0.997840,0.011534,0.000000,-0.064676 RLEG_JOINT4:0.992567,0.110761,0.000000,0.050424 WAIST:0.999984,0.000000,0.001511,-0.005455 WAIST_JOINT0:0.999475,-0.000000,0.025555,0.019929 WAIST_JOINT1:0.997533,0.070174,0.000000,-0.001604 END:
KINECT_DATA_Sensor  AnkleLeft:0.070794,0.721783,-0.096768,-0.681655 AnkleRight:0.077462,0.732135,0.096124,0.669879 ElbowLeft:-0.026537,0.897653,-0.168070,-0.406530 ElbowRight:-0.319830,0.686410,0.047884,0.651350 FootLeft:0.000000,0.000000,0.000000,0.000000 FootRight:0.000000,0.000000,0.000000,0.000000 HandLeft:-0.140686,0.458905,-0.038581,0.876427 HandRight:-0.361450,0.275265,-0.543602,0.705748 HandTipLeft:0.000000,0.000000,0.000000,0.000000 HandTipRight:0.000000,0.000000,0.000000,0.000000 Head:0.000000,0.000000,0.000000,0.000000 HipLeft:0.115150,-0.684884,0.700591,-0.163851 HipRight:-0.124608,0.673696,0.706496,-0.177401 KneeLeft:-0.012707,0.706122,-0.054879,-0.705846 KneeRight:-0.041457,0.706953,0.057716,0.703681 Neck:-0.027357,-0.005927,0.995802,-0.087155 ShoulderLeft:0.028775,0.774118,-0.630396,0.050138 ShoulderRight:-0.005592,0.793988,0.601283,-0.089501 SpineBase:-0.001362,-0.007471,0.999089,-0.041990 SpineMid:-0.014425,-0.006922,0.998986,-0.042084 SpineShoulder:-0.027457,-0.005094,0.997500,-0.064910 ThumbLeft:0.000000,0.000000,0.000000,0.000000 ThumbRight:0.000000,0.000000,0.000000,0.000000 WristLeft:-0.089959,0.465733,-0.126624,0.871187 WristRight:-0.339476,0.292464,-0.538579,0.713550 END:
KINECT_DATA POSITION:3.741151,-1.369052,-5.856812 HEAD_JOINT1:0.978207,0.180212,-0.000000,0.103120 LARM_JOINT2:0.816775,0.000000,-0.024028,-0.576456 LARM_JOINT3:0.960640,0.000000,-0.204103,-0.188449 LLEG_JOINT2:0.998526,0.023161,0.000000,0.049094 LLEG_JOINT4:0.995243,0.093637,0.000000,-0.026895 RARM_JOINT2:0.836738,0.000000,0.390372,0.384031 RARM_JOINT3:0.966515,0.000000,0.224111,-0.124990 RLEG_JOINT2:0.997623,0.013951,0.000000,-0.067480 RLEG_JOINT4:0.993100,0.106722,0.000000,0.048608 WAIST:0.999982,0.000000,0.005933,-0.001047 WAIST_JOINT0:0.999031,-0.000000,0.034835,0.026905 WAIST_JOINT1:0.997250,0.074103,-0.000000,0.001181 END:
KINECT_DATA_Sensor  AnkleLeft:-0.066643,-0.683089,0.097902,0.720668 AnkleRight:0.074383,0.726554,0.096576,0.676210 ElbowLeft:-0.021593,0.896497,-0.176106,-0.405972 ElbowRight:-0.363648,0.695624,-0.040294,0.618258 FootLeft:0.000000,0.000000,0.000000,0.000000 FootRight:0.000000,0.000000,0.000000,0.000000 HandLeft:-0.148583,0.749813,-0.001767,0.644749 HandRight:-0.527169,0.814475,-0.038007,0.239329 HandTipLeft:0.000000,0.000000,0.000000,0.000000 HandTipRight:0.000000,0.000000,0.000000,0.000000 Head:0.000000,0.000000,0.000000,0.000000 HipLeft:0.108250,-0.681685,0.704752,-0.164050 HipRight:-0.124733,0.675485,0.703781,-0.181259 KneeLeft:0.017241,-0.702680,0.050479,0.709503 KneeRight:-0.038869,0.710269,0.058134,0.700449 Neck:-0.037231,0.001878,0.995150,-0.091033 ShoulderLeft:0.032798,0.770239,-0.634997,0.049344 ShoulderRight:-0.014712,0.797491,0.594270,-0.103129 SpineBase:-0.005944,-0.002712,0.998907,-0.046276 SpineMid:-0.021606,-0.001986,0.998691,-0.046312 SpineShoulder:-0.037253,0.002081,0.996946,-0.068608 ThumbLeft:0.000000,0.000000,0.000000,0.000000 ThumbRight:0.000000,0.000000,0.000000,0.000000 WristLeft:-0.124321,0.762578,-0.082130,0.629502 WristRight:-0.560738,0.792275,-0.030805,0.238589 END:
KINECT_DATA POSITION:3.764340,-1.367198,-5.872202 HEAD_JOINT1:0.977709,0.178796,-0.000000,0.110075 LARM_JOINT2:0.819093,0.000000,-0.021491,-0.573258 LARM_JOINT3:0.957271,0.000000,-0.215042,-0.193362 LLEG_JOINT2:0.998604,0.021507,0.000000,0.048245 LLEG_JOINT4:0.994427,0.101397,0.000000,-0.028866 RARM_JOINT2:0.849581,0.000000,0.329045,0.412241 RARM_JOINT3:0.927431,0.000000,0.334746,-0.166784 RLEG_JOINT2:0.997551,0.012342,0.000000,-0.068848 RLEG_JOINT4:0.993019,0.108910,0.000000,0.045297 WAIST:0.999986,-0.000000,0.005194,0.000895 WAIST_JOINT0:0.999032,-0.000000,0.032067,0.030112 WAIST_JOINT1:0.997333,0.072984,-0.000000,0.000042 END:
KINECT_DATA_Sensor  AnkleLeft:0.075038,0.707826,-0.099044,-0.695371 AnkleRight:0.074498,0.736143,0.097797,0.665567 ElbowLeft:-0.022656,0.896481,-0.180818,-0.403874 ElbowRight:-0.334986,0.704906,0.013217,0.625074 FootLeft:0.000000,0.000000,0.000000,0.000000 FootRight:0.000000,0.000000,0.000000,0.000000 HandLeft:-0.180743,0.800261,-0.004122,0.571749 HandRight:-0.333510,0.280693,-0.532209,0.725766 HandTipLeft:0.000000,0.000000,0.000000,0.000000 HandTipRight:0.000000,0.000000,0.000000,0.000000 Head:0.000000,0.000000,0.000000,0.000000 HipLeft:0.108181,-0.680436,0.705815,-0.164710 HipRight:-0.124310,0.677155,0.702376,-0.180766 KneeLeft:0.019234,-0.703077,0.050069,0.709088 KneeRight:-0.039567,0.709763,0.056609,0.701046 Neck:-0.034712,0.002324,0.995411,-0.089148 ShoulderLeft:0.031364,0.769926,-0.635401,0.049956 ShoulderRight:-0.012725,0.800982,0.590237,-0.099430 SpineBase:-0.005309,-0.001011,0.998905,-0.046469 SpineMid:-0.019958,-0.000329,0.998720,-0.046479 SpineShoulder:-0.034682,0.002834,0.997099,-0.067701 ThumbLeft:0.000000,0.000000,0.000000,0.000000 ThumbRight:0.000000,0.000000,0.000000,0.000000 WristLeft:-0.132387,0.815620,-0.072304,0.558578 WristRight:-0.312322,0.293199,-0.501654,0.751554 END:
KINECT_DATA POSITION:3.785497,-1.367949,-5.867136 HEAD_JOINT1:0.977107,0.181569,-0.000000,0.110880 LARM_JOINT2:0.819477,0.000000,-0.021681,-0.572702 LARM_JOINT3:0.955546,0.000000,-0.216277,-0.200389 LLEG_JOINT2:0.998476,0.026944,0.000000,0.048161 LLEG_JOINT4:0.995263,0.092893,0.000000,-0.028694 RARM_JOINT2:0.861792,0.000000,0.281924,0.421703 RARM_JOINT3:0.890240,0.000000,0.418291,-0.180292 RLEG_JOINT2:0.997500,0.010747,0.000000,-0.069849 RLEG_JOINT4:0.992929,0.108798,0.000000,0.047490 WAIST:0.999996,-0.000000,0.002817,0.000891 WAIST_JOINT0:0.999256,-0.000000,0.024551,0.029735 WAIST_JOINT1:0.997341,0.072844,0.000000,-0.001944 END:
KINECT_DATA_Sensor  AnkleLeft:-0.069512,-0.688569,0.099347,0.714962 AnkleRight:0.073919,0.732241,0.095866,0.670200 ElbowLeft:-0.022939,0.897415,-0.179438,-0.402396 ElbowRight:-0.319834,0.705048,0.057883,0.630288 FootLeft:0.000000,0.000000,0.000000,0.000000 FootRight:0.000000,0.000000,0.000000,0.000000 HandLeft:-0.183002,0.585581,-0.041239,0.788609 HandRight:-0.368057,0.291135,-0.560778,0.682131 HandTipLeft:0.000000,0.000000,0.000000,0.000000 HandTipRight:0.000000,0.000000,0.000000,0.000000 Head:0.000000,0.000000,0.000000,0.000000 HipLeft:0.109557,-0.680156,0.705505,-0.166276 HipRight:-0.122914,0.677488,0.702553,-0.179783 KneeLeft:0.015416,-0.704863,0.053798,0.707132 KneeRight:-0.041273,0.707998,0.056280,0.702757 Neck:-0.027391,-0.000706,0.995660,-0.088941 ShoulderLeft:0.029434,0.770293,-0.634779,0.053272 ShoulderRight:-0.004853,0.801591,0.590852,-0.091228 SpineBase:-0.002939,-0.001076,0.998904,-0.046692 SpineMid:-0.015046,-0.000510,0.998795,-0.046702 SpineShoulder:-0.027288,0.000923,0.997335,-0.067654 ThumbLeft:0.000000,0.000000,0.000000,0.000000 ThumbRight:0.000000,0.000000,0.000000,0.000000 WristLeft:-0.108227,0.594017,-0.110696,0.789415 WristRight:-0.331182,0.318791,-0.527326,0.714576 END:
KINECT_DATA POSITION:3.769374,-1.334647,-5.966830 HEAD_JOINT1:0.974246,0.198784,-0.000000,0.106440 LARM_JOINT2:0.817130,0.000000,-0.023156,-0.575988 LARM_JOINT3:0.960633,0.000000,-0.198565,-0.194310 LLEG_JOINT2:0.998573,0.025854,0.000000,0.046727 LLEG_JOINT4:0.995559,0.090165,0.000000,-0.027065 RARM_JOINT2:0.856334,0.000000,0.351207,0.378609 RARM_JOINT3:0.942473,0.000000,0.304779,-0.137315 RLEG_JOINT2:0.997384,0.010242,0.000000,-0.071550 RLEG_JOINT4:0.993068,0.107710,0.000000,0.047049 WAIST:0.999987,-0.000000,0.004548,0.002191 WAIST_JOINT0:0.998984,-0.000000,0.033450,0.030196 WAIST_JOINT1:0.996923,0.078378,0.000000,-0.000733 END:
KINECT_DATA_Sensor  AnkleLeft:0.070022,0.717542,-0.094687,-0.686487 AnkleRight:0.072533,0.737310,0.095144,0.664876 ElbowLeft:-0.018291,0.896312,-0.179790,-0.404928 ElbowRight:-0.362988,0.714696,0.018242,0.597592 FootLeft:0.000000,0.000000,0.000000,0.000000 FootRight:0.000000,0.000000,0.000000,0.000000 HandLeft:-0.120458,0.806221,0.042875,0.577633 HandRight:-0.155400,0.061178,-0.551426,0.817336 HandTipLeft:0.000000,0.000000,0.000000,0.000000 HandTipRight:0.000000,0.000000,0.000000,0.000000 Head:0.000000,0.000000,0.000000,0.000000 HipLeft:0.106169,-0.678989,0.706933,-0.167173 HipRight:-0.122024,0.677663,0.701912,-0.182215 KneeLeft:0.016013,-0.703568,0.052954,0.708471 KneeRight:-0.042019,0.709197,0.056129,0.701515 Neck:-0.036220,0.002916,0.994733,-0.095842 ShoulderLeft:0.036240,0.766520,-0.639041,0.052539 ShoulderRight:-0.009880,0.797190,0.594609,-0.104068 SpineBase:-0.004735,0.000244,0.998754,-0.049681 SpineMid:-0.020378,0.001022,0.998557,-0.049671 SpineShoulder:-0.036143,0.003777,0.996696,-0.072639 ThumbLeft:0.000000,0.000000,0.000000,0.000000 ThumbRight:0.000000,0.000000,0.000000,0.000000 WristLeft:-0.131184,0.816477,-0.068643,0.558071 WristRight:-0.152091,0.066005,-0.570930,0.804084 END:
KINECT_DATA POSITION:3.720103,-1.256800,-6.144118 HEAD_JOINT1:0.974064,0.203343,-0.000000,0.099252 LARM_JOINT2:0.815542,0.000000,-0.016434,-0.578465 LARM_JOINT3:0.961080,0.000000,-0.204511,-0.185742 LLEG_JOINT2:0.998912,0.020580,0.000000,0.041852 LLEG_JOINT4:0.995439,0.091616,0.000000,-0.026604 RARM_JOINT2:0.857118,0.000000,0.390667,0.335750 RARM_JOINT3:0.978306,0.000000,0.174914,-0.111003 RLEG_JOINT2:0.996911,0.013606,0.000000,-0.077346 RLEG_JOINT4:0.992997,0.107478,0.000000,0.049056 WAIST:0.999863,-0.000000,0.014456,0.008044 WAIST_JOINT0:0.997541,-0.000000,0.059961,0.036291 WAIST_JOINT1:0.996188,0.087065,-0.000000,0.005308 END:
KINECT_DATA_Sensor  AnkleLeft:0.066559,0.706697,-0.092803,-0.698239 AnkleRight:0.071833,0.720640,0.098911,0.682447 ElbowLeft:-0.008896,0.886577,-0.193751,-0.419955 ElbowRight:-0.390371,0.724440,-0.005850,0.568123 FootLeft:0.000000,0.000000,0.000000,0.000000 FootRight:0.000000,0.000000,0.000000,0.000000 HandLeft:-0.105627,0.669637,-0.012714,0.735029 HandRight:-0.235559,0.008993,-0.470307,0.850436 HandTipLeft:0.000000,0.000000,0.000000,0.000000 HandTipRight:0.000000,0.000000,0.000000,0.000000 Head:0.000000,0.000000,0.000000,0.000000 HipLeft:0.093250,-0.674418,0.713216,-0.166698 HipRight:-0.124801,0.678804,0.698229,-0.190070 KneeLeft:0.020034,-0.696380,0.050059,0.715645 KneeRight:-0.040270,0.716174,0.058019,0.694340 Neck:-0.063627,0.016235,0.992427,-0.103812 ShoulderLeft:0.054395,0.757347,-0.649314,0.043100 ShoulderRight:-0.028783,0.792935,0.593239,-0.135986 SpineBase:-0.014795,0.008855,0.998239,-0.056761 SpineMid:-0.039004,0.010230,0.997586,-0.056530 SpineShoulder:-0.063422,0.016295,0.994575,-0.080828 ThumbLeft:0.000000,0.000000,0.000000,0.000000 ThumbRight:0.000000,0.000000,0.000000,0.000000 WristLeft:-0.094363,0.673130,-0.098690,0.726809 WristRight:-0.168604,0.052862,-0.512682,0.840200 END:
KINECT_DATA POSITION:3.701615,-1.236811,-6.211710 HEAD_JOINT1:0.972312,0.206041,-0.000000,0.110254 LARM_JOINT2:0.819342,0.000000,-0.015364,-0.573099 LARM_JOINT3:0.953888,0.000000,-0.223128,-0.200777 LLEG_JOINT2:0.998998,0.019840,0.000000,0.040116 LLEG_JOINT4:0.995185,0.093746,0.000000,-0.028596 RARM_JOINT2:0.875661,0.000000,0.325222,0.357000 RARM_JOINT3:0.947274,0.000000,0.288307,-0.139822 RLEG_JOINT2:0.996895,0.012866,0.000000,-0.077678 RLEG_JOINT4:0.993031,0.107930,0.000000,0.047333 WAIST:0.999842,-0.000000,0.014464,0.010365 WAIST_JOINT0:0.997836,-0.000000,0.054722,0.036440 WAIST_JOINT1:0.996155,0.087524,-0.000000,0.003758 END:
KINECT_DATA_Sensor  AnkleLeft:0.069179,0.711414,-0.092178,-0.693259 AnkleRight:0.071905,0.721617,0.098441,0.681474 ElbowLeft:-0.009555,0.888087,-0.200853,-0.413362 ElbowRight:-0.364512,0.717950,0.048264,0.591058 FootLeft:0.000000,0.000000,0.000000,0.000000 FootRight:0.000000,0.000000,0.000000,0.000000 HandLeft:-0.169307,0.590444,-0.054581,0.787231 HandRight:0.095007,-0.363890,-0.585608,0.718068 HandTipLeft:0.000000,0.000000,0.000000,0.000000 HandTipRight:0.000000,0.000000,0.000000,0.000000 Head:0.000000,0.000000,0.000000,0.000000 HipLeft:0.091459,-0.672767,0.714517,-0.168775 HipRight:-0.123936,0.680491,0.696402,-0.191299 KneeLeft:0.020996,-0.696317,0.049939,0.715687 KneeRight:-0.039396,0.716228,0.056077,0.694493 Neck:-0.058547,0.016100,0.992718,-0.104036 ShoulderLeft:0.047778,0.757180,-0.649507,0.050369 ShoulderRight:-0.029005,0.793411,0.592840,-0.134900 SpineBase:-0.014928,0.011563,0.998080,-0.058997 SpineMid:-0.036403,0.012830,0.997527,-0.058734 SpineShoulder:-0.058261,0.016744,0.994836,-0.081401 ThumbLeft:0.000000,0.000000,0.000000,0.000000 ThumbRight:0.000000,0.000000,0.000000,0.000000 WristLeft:-0.086565,0.597316,-0.108665,0.789881 WristRight:0.115145,-0.355169,-0.551924,0.745639 END:
KINECT_DATA POSITION:3.608918,-1.230109,-6.316221 HEAD_JOINT1:0.971302,0.206435,-0.000000,0.118137 LARM_JOINT2:0.822706,0.000000,-0.018827,-0.568155 LARM_JOINT3:0.947535,0.000000,-0.228375,-0.223655 LLEG_JOINT2:0.998994,0.020680,0.000000,0.039793 LLEG_JOINT4:0.995609,0.089359,0.000000,-0.027900 RARM_JOINT2:0.872414,0.000000,0.333767,0.357062 RARM_JOINT3:0.959814,0.000000,0.253042,-0.121354 RLEG_JOINT2:0.997054,0.010784,0.000000,-0.075935 RLEG_JOINT4:0.992924,0.110707,0.000000,0.042957 WAIST:0.999909,-0.000000,0.008002,0.010893 WAIST_JOINT0:0.998510,-0.000000,0.040561,0.036513 WAIST_JOINT1:0.996041,0.088889,-0.000000,0.000867 END:
KINECT_DATA_Sensor  AnkleLeft:-0.060706,-0.680429,0.094143,0.724201 AnkleRight:0.071809,0.718388,0.099900,0.684677 ElbowLeft:-0.010911,0.896149,-0.203407,-0.394238 ElbowRight:-0.365859,0.716075,0.044746,0.592775 FootLeft:0.000000,0.000000,0.000000,0.000000 FootRight:0.000000,0.000000,0.000000,0.000000 HandLeft:-0.201054,0.469737,-0.048008,0.858266 HandRight:0.040634,-0.398983,-0.526151,0.749884 HandTipLeft:0.000000,0.000000,0.000000,0.000000 HandTipRight:0.000000,0.000000,0.000000,0.000000 Head:0.000000,0.000000,0.000000,0.000000 HipLeft:0.093197,-0.671914,0.714129,-0.172817 HipRight:-0.117149,0.682089,0.696729,-0.188676 KneeLeft:0.020823,-0.700814,0.050577,0.711244 KneeRight:-0.038833,0.711832,0.053297,0.699248 Neck:-0.044177,0.012995,0.993322,-0.105786 ShoulderLeft:0.040026,0.757829,-0.648300,0.061644 ShoulderRight:-0.017575,0.794894,0.593735,-0.123744 SpineBase:-0.008640,0.010622,0.998028,-0.061261 SpineMid:-0.026045,0.011689,0.997725,-0.061066 SpineShoulder:-0.043813,0.014482,0.995494,-0.082842 ThumbLeft:0.000000,0.000000,0.000000,0.000000 ThumbRight:0.000000,0.000000,0.000000,0.000000 WristLeft:-0.087222,0.478634,-0.118331,0.865621 WristRight:0.102737,-0.355646,-0.547744,0.750291 END:
KINECT_DATA POSITION:3.498591,-1.229098,-6.591320 HEAD_JOINT1:0.969407,0.211476,-0.000000,0.124615 LARM_JOINT2:0.822890,0.000000,-0.018574,-0.567896 LARM_JOINT3:0.951984,0.000000,-0.211469,-0.221375 LLEG_JOINT2:0.999086,0.017993,0.000000,0.038769 LLEG_JOINT4:0.995598,0.088627,0.000000,-0.030509 RARM_JOINT2:0.858572,0.000000,0.389690,0.333161 RARM_JOINT3:0.986785,0.000000,0.135264,-0.089218 RLEG_JOINT2:0.996851,0.009241,0.000000,-0.078758 RLEG_JOINT4:0.993104,0.109681,0.000000,0.041410 WAIST:0.999849,-0.000000,0.010269,0.014016 WAIST_JOINT0:0.998149,-0.000000,0.046509,0.039180 WAIST_JOINT1:0.995349,0.096176,-0.000000,0.005490 END:
KINECT_DATA_Sensor  AnkleLeft:0.063812,0.718104,-0.087769,-0.687423 AnkleRight:0.070229,0.729875,0.098168,0.672840 ElbowLeft:-0.004828,0.897346,-0.213567,-0.386181 ElbowRight:-0.382144,0.702701,-0.015800,0.599940 FootLeft:0.000000,0.000000,0.000000,0.000000 FootRight:0.000000,0.000000,0.000000,0.000000 HandLeft:-0.109571,0.756718,0.033995,0.643596 HandRight:-0.061453,-0.313105,-0.467094,0.824628 HandTipLeft:0.000000,0.000000,0.000000,0.000000 HandTipRight:0.000000,0.000000,0.000000,0.000000 Head:0.000000,0.000000,0.000000,0.000000 HipLeft:0.087561,-0.668901,0.716776,-0.176457 HipRight:-0.116948,0.682931,0.694640,-0.193401 KneeLeft:0.024131,-0.699206,0.050206,0.712747 KneeRight:-0.039884,0.713200,0.051849,0.697901 Neck:-0.050792,0.022003,0.991989,-0.113547 ShoulderLeft:0.048673,0.751830,-0.654578,0.062530 ShoulderRight:-0.018558,0.792153,0.595029,-0.134499 SpineBase:-0.011021,0.015728,0.997574,-0.066919 SpineMid:-0.030558,0.017036,0.997166,-0.066598 SpineShoulder:-0.050388,0.022264,0.994457,-0.089559 ThumbLeft:0.000000,0.000000,0.000000,0.000000 ThumbRight:0.000000,0.000000,0.000000,0.000000 WristLeft:-0.120364,0.767530,-0.072807,0.625387 WristRight:-0.010957,-0.279189,-0.509664,0.813742 END:
KINECT_DATA POSITION:3.289887,-1.217373,-6.748211 HEAD_JOINT1:0.968803,0.215539,-0.000000,0.122328 LARM_JOINT2:0.824387,0.000000,-0.011067,-0.565919 LARM_JOINT3:0.953505,0.000000,-0.202740,-0.222989 LLEG_JOINT2:0.999270,0.015339,0.000000,0.034983 LLEG_JOINT4:0.995663,0.088910,0.000000,-0.027383 RARM_JOINT2:0.855094,0.000000,0.388199,0.343680 RARM_JOINT3:0.986006,0.000000,0.128961,-0.105644 RLEG_JOINT2:0.996394,0.007768,0.000000,-0.084489 RLEG_JOINT4:0.992907,0.110119,0.000000,0.044839 WAIST:0.999722,-0.000000,0.014198,0.018830 WAIST_JOINT0:0.997390,-0.000000,0.056879,0.044466 WAIST_JOINT1:0.995063,0.099018,-0.000000,0.006653 END:
KINECT_DATA_Sensor  AnkleLeft:-0.053959,-0.671707,0.092423,0.733046 AnkleRight:0.069878,0.726609,0.096459,0.676648 ElbowLeft:0.002626,0.896344,-0.224726,-0.382176 ElbowRight:-0.366013,0.684221,-0.036411,0.629722 FootLeft:0.000000,0.000000,0.000000,0.000000 FootRight:0.000000,0.000000,0.000000,0.000000 HandLeft:-0.115953,0.577426,0.008859,0.808119 HandRight:-0.036017,-0.362765,-0.479426,0.798283 HandTipLeft:0.000000,0.000000,0.000000,0.000000 HandTipRight:0.000000,0.000000,0.000000,0.000000 Head:0.000000,0.000000,0.000000,0.000000 HipLeft:0.081019,-0.665066,0.720661,-0.178242 HipRight:-0.119147,0.685106,0.691116,-0.196960 KneeLeft:0.026626,-0.696569,0.049109,0.715312 KneeRight:-0.041901,0.715506,0.051175,0.695469 Neck:-0.061872,0.027999,0.991013,-0.115244 ShoulderLeft:0.059525,0.745777,-0.661184,0.055762 ShoulderRight:-0.022752,0.791334,0.593737,-0.144048 SpineBase:-0.015056,0.023956,0.997086,-0.070846 SpineMid:-0.037841,0.025569,0.996481,-0.070280 SpineShoulder:-0.061328,0.028645,0.993431,-0.092266 ThumbLeft:0.000000,0.000000,0.000000,0.000000 ThumbRight:0.000000,0.000000,0.000000,0.000000 WristLeft:-0.074101,0.582011,-0.094447,0.804271 WristRight:0.015350,-0.330984,-0.503100,0.798188 END:
KINECT_DATA POSITION:2.958278,-1.222538,-6.827033 HEAD_JOINT1:0.969117,0.213667,-0.000000,0.123123 LARM_JOINT2:0.823522,0.000000,-0.009662,-0.567202 LARM_JOINT3:0.950888,0.000000,-0.215541,-0.222157 LLEG_JOINT2:0.999242,0.014496,0.000000,0.036135 LLEG_JOINT4:0.995283,0.092106,0.000000,-0.030455 RARM_JOINT2:0.852806,0.000000,0.391196,0.345959 RARM_JOINT3:0.986778,0.000000,0.120020,-0.108920 RLEG_JOINT2:0.996527,0.007206,0.000000,-0.082962 RLEG_JOINT4:0.992933,0.110520,0.000000,0.043231 WAIST:0.999670,-0.000000,0.015309,0.020634 WAIST_JOINT0:0.997401,-0.000000,0.057177,0.043831 WAIST_JOINT1:0.995081,0.098991,-0.000000,0.003824 END:
KINECT_DATA_Sensor  AnkleLeft:-0.055877,-0.671230,0.093822,0.733161 AnkleRight:0.074050,0.750353,0.092706,0.650302 ElbowLeft:0.003287,0.893350,-0.222884,-0.390178 ElbowRight:-0.363948,0.677218,-0.045207,0.637867 FootLeft:0.000000,0.000000,0.000000,0.000000 FootRight:0.000000,0.000000,0.000000,0.000000 HandLeft:-0.143433,0.679267,-0.001277,0.719737 HandRight:-0.213577,-0.055030,-0.433920,0.873539 HandTipLeft:0.000000,0.000000,0.000000,0.000000 HandTipRight:0.000000,0.000000,0.000000,0.000000 Head:0.000000,0.000000,0.000000,0.000000 HipLeft:0.079513,-0.664133,0.721697,-0.178211 HipRight:-0.119055,0.686039,0.689637,-0.198942 KneeLeft:0.029273,-0.695537,0.050634,0.716105 KneeRight:-0.039987,0.716523,0.048378,0.694734 Neck:-0.062088,0.026782,0.991062,-0.114994 ShoulderLeft:0.060990,0.746212,-0.660656,0.054601 ShoulderRight:-0.021383,0.790943,0.594462,-0.143410 SpineBase:-0.016425,0.024055,0.996969,-0.072137 SpineMid:-0.038612,0.025655,0.996357,-0.071584 SpineShoulder:-0.061584,0.027388,0.993441,-0.092365 ThumbLeft:0.000000,0.000000,0.000000,0.000000 ThumbRight:0.000000,0.000000,0.000000,0.000000 WristLeft:-0.089684,0.684543,-0.085650,0.718347 WristRight:-0.167392,-0.024809,-0.471582,0.865433 END:
KINECT_DATA POSITION:2.883421,-1.239919,-6.649673 HEAD_JOINT1:0.972051,0.201082,-0.000000,0.121174 LARM_JOINT2:0.825128,0.000000,-0.001118,-0.564945 LARM_JOINT3:0.951471,0.000000,-0.210639,-0.224351 LLEG_JOINT2:0.999147,0.016905,0.000000,0.037676 LLEG_JOINT4:0.994964,0.095032,0.000000,-0.031854 RARM_JOINT2:0.863587,0.000000,0.340524,0.371834 RARM_JOINT3:0.953337,0.000000,0.273207,-0.128480 RLEG_JOINT2:0.996716,0.008802,0.000000,-0.080494 RLEG_JOINT4:0.992984,0.110098,0.000000,0.043151 WAIST:0.999750,-0.000000,0.012307,0.018687 WAIST_JOINT0:0.997988,-0.000000,0.046124,0.043511 WAIST_JOINT1:0.996559,0.082794,0.000000,-0.003959 END:
KINECT_DATA_Sensor  AnkleLeft:0.067141,0.721363,-0.092191,-0.683102 AnkleRight:0.072199,0.724650,0.095621,0.678621 ElbowLeft:-0.003330,0.894890,-0.213471,-0.391906 ElbowRight:-0.356831,0.717289,0.021506,0.598085 FootLeft:0.000000,0.000000,0.000000,0.000000 FootRight:0.000000,0.000000,0.000000,0.000000 HandLeft:-0.151338,0.460382,-0.039599,0.873829 HandRight:-0.173943,0.078125,-0.568077,0.800580 HandTipLeft:0.000000,0.000000,0.000000,0.000000 HandTipRight:0.000000,0.000000,0.000000,0.000000 Head:0.000000,0.000000,0.000000,0.000000 HipLeft:0.086591,-0.666313,0.719439,-0.175887 HipRight:-0.120696,0.686190,0.690457,-0.194537 KneeLeft:0.027365,-0.697550,0.051993,0.714123 KneeRight:-0.038267,0.714752,0.049347,0.696585 Neck:-0.050829,0.014756,0.993957,-0.096163 ShoulderLeft:0.044436,0.753798,-0.653624,0.050887 ShoulderRight:-0.021540,0.800048,0.586929,-0.122363 SpineBase:-0.013341,0.020438,0.997518,-0.066043 SpineMid:-0.031372,0.021629,0.997114,-0.065662 SpineShoulder:-0.050368,0.017303,0.995558,-0.077644 ThumbLeft:0.000000,0.000000,0.000000,0.000000 ThumbRight:0.000000,0.000000,0.000000,0.000000 WristLeft:-0.070017,0.466197,-0.111433,0.874837 WristRight:-0.178816,0.065438,-0.510857,0.838313 END:
KINECT_DATA POSITION:2.939849,-1.308468,-5.790651 HEAD_JOINT1:0.981331,0.161648,-0.000000,0.104209 LARM_JOINT2:0.822509,0.000000,0.000475,-0.568752 LARM_JOINT3:0.955099,0.000000,-0.207816,-0.211185 LLEG_JOINT2:0.998635,0.027439,0.000000,0.044440 LLEG_JOINT4:0.995539,0.090770,0.000000,-0.025742 RARM_JOINT2:0.863477,0.000000,0.308653,0.398923 RARM_JOINT3:0.895518,0.000000,0.434586,-0.095825 RLEG_JOINT2:0.997340,0.008912,0.000000,-0.072348 RLEG_JOINT4:0.992237,0.115215,0.000000,0.046809 WAIST:0.999955,-0.000000,0.003511,0.008828 WAIST_JOINT0:0.998861,-0.000000,0.035269,0.032143 WAIST_JOINT1:0.998493,0.053510,0.000000,-0.012199 END:
KINECT_DATA_Sensor  AnkleLeft:-0.062739,-0.683705,0.103471,0.719656 AnkleRight:0.081007,0.736490,0.095024,0.664823 ElbowLeft:-0.024872,0.894821,-0.181995,-0.406884 ElbowRight:-0.355471,0.750321,0.065875,0.553461 FootLeft:0.000000,0.000000,0.000000,0.000000 FootRight:0.000000,0.000000,0.000000,0.000000 HandLeft:-0.187354,0.457235,-0.057432,0.867488 HandRight:0.252694,-0.346881,0.616748,-0.659880 HandTipLeft:0.000000,0.000000,0.000000,0.000000 HandTipRight:0.000000,0.000000,0.000000,0.000000 Head:0.000000,0.000000,0.000000,0.000000 HipLeft:0.112757,-0.676384,0.709415,-0.162855 HipRight:-0.129126,0.684408,0.695473,-0.176719 KneeLeft:0.018012,-0.703984,0.057121,0.707686 KneeRight:-0.038785,0.708792,0.051107,0.702494 Neck:-0.036640,-0.002758,0.997026,-0.067739 ShoulderLeft:0.018756,0.774414,-0.631387,0.035789 ShoulderRight:-0.027839,0.806339,0.584072,-0.088890 SpineBase:-0.004007,0.005151,0.999166,-0.040299 SpineMid:-0.019945,0.005793,0.998975,-0.040212 SpineShoulder:-0.036639,-0.001518,0.998126,-0.048985 ThumbLeft:0.000000,0.000000,0.000000,0.000000 ThumbRight:0.000000,0.000000,0.000000,0.000000 WristLeft:-0.084758,0.466212,-0.129161,0.871080 WristRight:-0.272676,0.328862,-0.542426,0.723375 END:
KINECT_DATA POSITION:3.015681,-1.332986,-5.655479 HEAD_JOINT1:0.984069,0.155835,-0.000000,0.085578 LARM_JOINT2:0.820255,0.000000,-0.003100,-0.571989 LARM_JOINT3:0.958207,0.000000,-0.204140,-0.200417 LLEG_JOINT2:0.998384,0.029465,0.000000,0.048592 LLEG_JOINT4:0.995647,0.088584,0.000000,-0.028966 RARM_JOINT2:0.840965,0.000000,0.374898,0.390165 RARM_JOINT3:0.901933,0.000000,0.425696,-0.072797 RLEG_JOINT2:0.997627,0.007429,0.000000,-0.068453 RLEG_JOINT4:0.991778,0.119001,0.000000,0.047061 WAIST:0.999982,-0.000000,0.004386,0.004066 WAIST_JOINT0:0.998875,-0.000000,0.040327,0.024968 WAIST_JOINT1:0.998802,0.047722,0.000000,-0.010821 END:
KINECT_DATA_Sensor  AnkleLeft:-0.065038,-0.680334,0.100919,0.723001 AnkleRight:0.082582,0.738838,0.096788,0.661763 ElbowLeft:-0.030712,0.892996,-0.171711,-0.414886 ElbowRight:-0.381389,0.780615,0.026460,0.494452 FootLeft:0.000000,0.000000,0.000000,0.000000 FootRight:0.000000,0.000000,0.000000,0.000000 HandLeft:-0.156765,0.514358,-0.046504,0.841842 HandRight:0.239572,-0.433344,0.610009,-0.618634 HandTipLeft:0.000000,0.000000,0.000000,0.000000 HandTipRight:0.000000,0.000000,0.000000,0.000000 Head:0.000000,0.000000,0.000000,0.000000 HipLeft:0.119342,-0.680921,0.705458,-0.156311 HipRight:-0.134160,0.681877,0.697863,-0.173296 KneeLeft:0.016070,-0.703632,0.058146,0.707999 KneeRight:-0.040478,0.709267,0.050629,0.701953 Neck:-0.041048,-0.005977,0.997166,-0.062760 ShoulderLeft:0.018091,0.778110,-0.627263,0.027537 ShoulderRight:-0.034197,0.802065,0.589613,-0.088762 SpineBase:-0.004678,-0.001210,0.999481,-0.031843 SpineMid:-0.022632,-0.000638,0.999236,-0.031859 SpineShoulder:-0.041142,-0.004976,0.998210,-0.043112 ThumbLeft:0.000000,0.000000,0.000000,0.000000 ThumbRight:0.000000,0.000000,0.000000,0.000000 WristLeft:-0.103870,0.522075,-0.130545,0.836425 WristRight:-0.269550,0.411173,-0.567986,0.660054 END:
KINECT_DATA POSITION:3.273022,-1.408656,-5.657279 HEAD_JOINT1:0.984920,0.159859,-0.000000,0.066159 LARM_JOINT2:0.816060,0.000000,-0.002526,-0.577962 LARM_JOINT3:0.962019,0.000000,-0.194388,-0.191658 LLEG_JOINT2:0.998318,0.026523,0.000000,0.051544 LLEG_JOINT4:0.995707,0.089245,0.000000,-0.024563 RARM_JOINT2:0.845899,0.000000,0.417976,0.331288 RARM_JOINT3:0.871508,0.000000,0.487309,0.054801 RLEG_JOINT2:0.997624,0.009721,0.000000,-0.068211 RLEG_JOINT4:0.991313,0.119075,0.000000,0.055862 WAIST:0.999825,0.000000,0.018661,-0.001022 WAIST_JOINT0:0.996819,-0.000000,0.076580,0.022065 WAIST_JOINT1:0.998898,0.046823,0.000000,-0.003374 END:
KINECT_DATA_Sensor  AnkleLeft:0.068764,0.710203,-0.096350,-0.693974 AnkleRight:0.080477,0.712542,0.100927,0.689653 ElbowLeft:-0.026908,0.886812,-0.167517,-0.429859 ElbowRight:-0.428337,0.839557,0.079621,0.324549 FootLeft:0.000000,0.000000,0.000000,0.000000 FootRight:0.000000,0.000000,0.000000,0.000000 HandLeft:-0.131037,0.654374,-0.011461,0.744642 HandRight:0.144175,0.298172,-0.600434,0.727864 HandTipLeft:0.000000,0.000000,0.000000,0.000000 HandTipRight:0.000000,0.000000,0.000000,0.000000 Head:0.000000,0.000000,0.000000,0.000000 HipLeft:0.113344,-0.686975,0.703075,-0.144585 HipRight:-0.146229,0.677411,0.698606,-0.177993 KneeLeft:0.015862,-0.693666,0.054822,0.718033 KneeRight:-0.043062,0.718900,0.055077,0.691589 Neck:-0.076787,-0.002893,0.995105,-0.062133 ShoulderLeft:0.031406,0.778379,-0.626977,0.006291 ShoulderRight:-0.067340,0.795877,0.588858,-0.123657 SpineBase:-0.018656,-0.002635,0.999467,-0.026674 SpineMid:-0.047467,-0.001865,0.998513,-0.026739 SpineShoulder:-0.076917,-0.002411,0.996145,-0.042100 ThumbLeft:0.000000,0.000000,0.000000,0.000000 ThumbRight:0.000000,0.000000,0.000000,0.000000 WristLeft:-0.119554,0.660184,-0.111760,0.733058 WristRight:0.084422,0.248648,-0.622197,0.737508 END:
KINECT_DATA POSITION:3.560956,-1.433127,-5.774713 HEAD_JOINT1:0.985653,0.161753,-0.000000,0.048216 LARM_JOINT2:0.812236,0.000000,-0.005155,-0.583306 LARM_JOINT3:0.962281,0.000000,-0.201450,-0.182846 LLEG_JOINT2:0.998337,0.022575,0.000000,0.053044 LLEG_JOINT4:0.996170,0.085569,0.000000,-0.017963 RARM_JOINT2:0.866158,0.000000,0.389458,0.313196 RARM_JOINT3:0.807889,0.000000,0.577900,0.115530 RLEG_JOINT2:0.997454,0.014052,0.000000,-0.069914 RLEG_JOINT4:0.991235,0.115747,0.000000,0.063689 WAIST:0.999019,0.000000,0.044107,-0.004027 WAIST_JOINT0:0.994176,-0.000000,0.105719,0.020933 WAIST_JOINT1:0.998874,0.047197,-0.000000,0.004841 END:
KINECT_DATA_Sensor  AnkleLeft:-0.055696,-0.643118,0.097679,0.757466 AnkleRight:0.081268,0.731621,0.101323,0.669223 ElbowLeft:-0.025524,0.870480,-0.166003,-0.462661 ElbowRight:-0.427876,0.851540,0.120542,0.277977 FootLeft:0.000000,0.000000,0.000000,0.000000 FootRight:0.000000,0.000000,0.000000,0.000000 HandLeft:-0.123743,0.577477,-0.053775,0.805181 HandRight:0.222050,0.283549,-0.593315,0.719910 HandTipLeft:0.000000,0.000000,0.000000,0.000000 HandTipRight:0.000000,0.000000,0.000000,0.000000 Head:0.000000,0.000000,0.000000,0.000000 HipLeft:0.097492,-0.691415,0.703738,-0.131126 HipRight:-0.164152,0.671669,0.696635,-0.191350 KneeLeft:0.016258,-0.675235,0.051546,0.735620 KneeRight:-0.044870,0.736049,0.060450,0.672729 Neck:-0.104934,0.001992,0.992526,-0.062269 ShoulderLeft:0.049233,0.774877,-0.630038,-0.013933 ShoulderRight:-0.086547,0.786555,0.593403,-0.147354 SpineBase:-0.043821,0.001168,0.998695,-0.026190 SpineMid:-0.074109,0.001962,0.996906,-0.026142 SpineShoulder:-0.105083,0.001530,0.993551,-0.042554 ThumbLeft:0.000000,0.000000,0.000000,0.000000 ThumbRight:0.000000,0.000000,0.000000,0.000000 WristLeft:-0.101100,0.581783,-0.135054,0.795656 WristRight:0.219236,0.271146,-0.612890,0.709071 END:
KINECT_DATA POSITION:3.754003,-1.406644,-5.988371 HEAD_JOINT1:0.986260,0.161734,-0.000000,0.033664 LARM_JOINT2:0.808124,0.000000,0.007369,-0.588966 LARM_JOINT3:0.962180,0.000000,-0.211502,-0.171689 LLEG_JOINT2:0.998399,0.017353,0.000000,0.053829 LLEG_JOINT4:0.996227,0.085623,0.000000,-0.014172 RARM_JOINT2:0.872565,0.000000,0.380322,0.306570 RARM_JOINT3:0.801747,0.000000,0.585066,0.122061 RLEG_JOINT2:0.997291,0.017611,0.000000,-0.071418 RLEG_JOINT4:0.991156,0.113518,0.000000,0.068724 WAIST:0.997644,0.000000,0.068459,-0.004525 WAIST_JOINT0:0.991474,-0.000000,0.129512,0.014359 WAIST_JOINT1:0.998827,0.047173,-0.000000,0.010901 END:
KINECT_DATA_Sensor  AnkleLeft:0.062204,0.708829,-0.089359,-0.696927 AnkleRight:0.087665,0.783173,0.097481,0.607826 ElbowLeft:-0.018043,0.838478,-0.168577,-0.517891 ElbowRight:-0.424964,0.865649,0.135351,0.227458 FootLeft:0.000000,0.000000,0.000000,0.000000 FootRight:0.000000,0.000000,0.000000,0.000000 HandLeft:-0.130143,0.807494,-0.027815,0.574668 HandRight:-0.136602,-0.387721,0.692647,-0.592666 HandTipLeft:0.000000,0.000000,0.000000,0.000000 HandTipRight:0.000000,0.000000,0.000000,0.000000 Head:0.000000,0.000000,0.000000,0.000000 HipLeft:0.080850,-0.693681,0.706149,-0.116720 HipRight:-0.177269,0.667897,0.694109,-0.201748 KneeLeft:0.019037,-0.657057,0.048807,0.752019 KneeRight:-0.045390,0.752234,0.063440,0.654262 Neck:-0.128701,0.007272,0.989685,-0.062499 ShoulderLeft:0.065485,0.771590,-0.631904,-0.032534 ShoulderRight:-0.102178,0.774184,0.602274,-0.165725 SpineBase:-0.068031,0.004503,0.997324,-0.026382 SpineMid:-0.098135,0.005298,0.994813,-0.026234 SpineShoulder:-0.128879,0.005640,0.990724,-0.042712 ThumbLeft:0.000000,0.000000,0.000000,0.000000 ThumbRight:0.000000,0.000000,0.000000,0.000000 WristLeft:-0.128300,0.812421,-0.114514,0.557133 WristRight:-0.110428,-0.431142,0.606923,-0.658458 END:
KINECT_DATA POSITION:4.122085,-1.305062,-6.304860 HEAD_JOINT1:0.991499,0.129695,-0.000000,0.010431 LARM_JOINT2:0.799458,0.000000,0.007797,-0.600672 LARM_JOINT3:0.962195,0.000000,-0.219608,-0.161101 LLEG_JOINT2:0.998717,0.014384,0.000000,0.048554 LLEG_JOINT4:0.996504,0.083297,0.000000,-0.006434 RARM_JOINT2:0.875697,0.000000,0.369651,0.310667 RARM_JOINT3:0.795041,0.000000,0.597221,0.106002 RLEG_JOINT2:0.996893,0.018544,0.000000,-0.076547 RLEG_JOINT4:0.990235,0.118346,0.000000,0.073679 WAIST:0.995665,0.000000,0.092986,-0.002279 WAIST_JOINT0:0.987390,-0.000000,0.156532,0.023621 WAIST_JOINT1:0.998092,0.057480,-0.000000,0.022554 END:
KINECT_DATA_Sensor  AnkleLeft:-0.047651,-0.613069,0.094124,0.782954 AnkleRight:0.081762,0.744726,0.109434,0.653240 ElbowLeft:-0.008783,0.809965,-0.172204,-0.560559 ElbowRight:-0.411187,0.872450,0.113248,0.238602 FootLeft:0.000000,0.000000,0.000000,0.000000 FootRight:0.000000,0.000000,0.000000,0.000000 HandLeft:-0.112082,0.691806,-0.062125,0.710621 HandRight:-0.201270,-0.364331,0.686285,-0.596462 HandTipLeft:0.000000,0.000000,0.000000,0.000000 HandTipRight:0.000000,0.000000,0.000000,0.000000 Head:0.000000,0.000000,0.000000,0.000000 HipLeft:0.062851,-0.692544,0.710000,-0.111053 HipRight:-0.191039,0.663512,0.689233,-0.219575 KneeLeft:0.018250,-0.638581,0.044972,0.768022 KneeRight:-0.048633,0.767858,0.064788,0.635477 Neck:-0.155758,0.022061,0.984830,-0.073226 ShoulderLeft:0.109653,0.762277,-0.634859,-0.062158 ShoulderRight:-0.092466,0.775742,0.597989,-0.179121 SpineBase:-0.092299,0.011151,0.995104,-0.033536 SpineMid:-0.123926,0.012213,0.991662,-0.033164 SpineShoulder:-0.156021,0.017480,0.986152,-0.053447 ThumbLeft:0.000000,0.000000,0.000000,0.000000 ThumbRight:0.000000,0.000000,0.000000,0.000000 WristLeft:-0.089998,0.705212,-0.145503,0.688045 WristRight:-0.157454,-0.391466,0.610472,-0.670288 END:
KINECT_DATA POSITION:4.302446,-1.213717,-6.568027 HEAD_JOINT1:0.988026,0.154257,0.000000,-0.003196 LARM_JOINT2:0.797020,0.000000,0.028291,-0.603290 LARM_JOINT3:0.958069,0.000000,-0.225644,-0.176601 LLEG_JOINT2:0.998856,0.012149,0.000000,0.046246 LLEG_JOINT4:0.996607,0.082179,0.000000,-0.004493 RARM_JOINT2:0.872163,0.000000,0.375887,0.313114 RARM_JOINT3:0.813011,0.000000,0.574340,0.095632 RLEG_JOINT2:0.996644,0.021331,0.000000,-0.079029 RLEG_JOINT4:0.990499,0.115125,0.000000,0.075225 WAIST:0.994155,0.000000,0.107952,-0.001208 WAIST_JOINT0:0.986139,-0.000000,0.163748,0.026752 WAIST_JOINT1:0.998397,0.050556,-0.000000,0.025453 END:
KINECT_DATA_Sensor  AnkleLeft:-0.046802,-0.608485,0.091323,0.786903 AnkleRight:0.087667,0.799217,0.104048,0.585441 ElbowLeft:0.001329,0.795955,-0.176158,-0.579157 ElbowRight:-0.417191,0.875019,0.093730,0.226956 FootLeft:0.000000,0.000000,0.000000,0.000000 FootRight:0.000000,0.000000,0.000000,0.000000 HandLeft:-0.146125,0.733864,-0.048248,0.661636 HandRight:-0.158427,-0.379060,0.693866,-0.591409 HandTipLeft:0.000000,0.000000,0.000000,0.000000 HandTipRight:0.000000,0.000000,0.000000,0.000000 Head:0.000000,0.000000,0.000000,0.000000 HipLeft:0.056452,-0.693371,0.710994,-0.102653 HipRight:-0.203465,0.662812,0.684548,-0.225113 KneeLeft:0.018605,-0.626957,0.042823,0.777653 KneeRight:-0.048980,0.777468,0.067065,0.623415 Neck:-0.163035,0.023678,0.984026,-0.067464 ShoulderLeft:0.096926,0.759192,-0.640769,-0.060400 ShoulderRight:-0.116279,0.773195,0.593823,-0.189798 SpineBase:-0.107237,0.015886,0.993644,-0.030337 SpineMid:-0.134884,0.016725,0.990270,-0.029883 SpineShoulder:-0.163072,0.020898,0.985279,-0.046865 ThumbLeft:0.000000,0.000000,0.000000,0.000000 ThumbRight:0.000000,0.000000,0.000000,0.000000 WristLeft:-0.094386,0.751271,-0.141030,0.637804 WristRight:-0.132730,-0.419848,0.615344,-0.653806 END:
KINECT_DATA POSITION:4.317317,-1.190334,-6.651604 HEAD_JOINT1:0.987135,0.159845,0.000000,-0.003825 LARM_JOINT2:0.796600,0.000000,0.037672,-0.603332 LARM_JOINT3:0.954056,0.000000,-0.237703,-0.182414 LLEG_JOINT2:0.998879,0.010979,0.000000,0.046037 LLEG_JOINT4:0.996733,0.080497,0.000000,-0.006575 RARM_JOINT2:0.825552,0.000000,0.446074,0.345662 RARM_JOINT3:0.868556,0.000000,0.495326,0.016166 RLEG_JOINT2:0.996708,0.022134,0.000000,-0.077996 RLEG_JOINT4:0.990055,0.118270,0.000000,0.076179 WAIST:0.994212,0.000000,0.107426,-0.001157 WAIST_JOINT0:0.987053,-0.000000,0.158420,0.025110 WAIST_JOINT1:0.998450,0.049778,-0.000000,0.024881 END:
KINECT_DATA_Sensor  AnkleLeft:-0.046265,-0.611653,0.087665,0.784892 AnkleRight:0.082113,0.742985,0.113299,0.654519 ElbowLeft:0.006962,0.792837,-0.177875,-0.582856 ElbowRight:-0.413204,0.872724,-0.018505,0.259371 FootLeft:0.000000,0.000000,0.000000,0.000000 FootRight:0.000000,0.000000,0.000000,0.000000 HandLeft:-0.167416,0.736544,-0.061949,0.652408 HandRight:-0.089686,-0.374868,0.677787,-0.626127 HandTipLeft:0.000000,0.000000,0.000000,0.000000 HandTipRight:0.000000,0.000000,0.000000,0.000000 Head:0.000000,0.000000,0.000000,0.000000 HipLeft:0.058136,-0.693385,0.710748,-0.103320 HipRight:-0.204318,0.663169,0.684116,-0.224601 KneeLeft:0.019446,-0.627350,0.041953,0.777363 KneeRight:-0.047593,0.777261,0.067037,0.623784 Neck:-0.157527,0.022461,0.985001,-0.066743 ShoulderLeft:0.085088,0.761715,-0.640311,-0.050517 ShoulderRight:-0.121631,0.772512,0.593379,-0.190610 SpineBase:-0.106727,0.016355,0.993719,-0.029395 SpineMid:-0.131835,0.017093,0.990701,-0.028972 SpineShoulder:-0.157516,0.020345,0.986228,-0.046152 ThumbLeft:0.000000,0.000000,0.000000,0.000000 ThumbRight:0.000000,0.000000,0.000000,0.000000 WristLeft:-0.098913,0.756251,-0.139846,0.631461 WristRight:-0.102042,-0.398416,0.654028,-0.634901 END:
KINECT_DATA POSITION:4.355440,-1.156620,-6.729019 HEAD_JOINT1:0.985964,0.166957,0.000000,-0.000840 LARM_JOINT2:0.797273,0.000000,0.023796,-0.603149 LARM_JOINT3:0.957329,0.000000,-0.227526,-0.178196 LLEG_JOINT2:0.998774,0.011128,0.000000,0.048227 LLEG_JOINT4:0.996691,0.081132,0.000000,-0.004984 RARM_JOINT2:0.824104,0.000000,0.447924,0.346723 RARM_JOINT3:0.872885,0.000000,0.487500,0.020413 RLEG_JOINT2:0.996774,0.019962,0.000000,-0.077733 RLEG_JOINT4:0.990161,0.118080,0.000000,0.075087 WAIST:0.994434,0.000000,0.105322,-0.002778 WAIST_JOINT0:0.986121,-0.000000,0.165353,0.014932 WAIST_JOINT1:0.998543,0.047878,-0.000000,0.024879 END:
KINECT_DATA_Sensor  AnkleLeft:-0.044784,-0.607587,0.090357,0.787825 AnkleRight:0.079483,0.744055,0.112580,0.653751 ElbowLeft:-0.003033,0.801271,-0.172146,-0.572994 ElbowRight:-0.415205,0.879229,-0.006908,0.233480 FootLeft:0.000000,0.000000,0.000000,0.000000 FootRight:0.000000,0.000000,0.000000,0.000000 HandLeft:-0.161149,0.739329,-0.051823,0.651720 HandRight:-0.309672,-0.289999,0.736440,-0.526935 HandTipLeft:0.000000,0.000000,0.000000,0.000000 HandTipRight:0.000000,0.000000,0.000000,0.000000 Head:0.000000,0.000000,0.000000,0.000000 HipLeft:0.061610,-0.694275,0.709400,-0.104589 HipRight:-0.205055,0.662639,0.684956,-0.222928 KneeLeft:0.019653,-0.628984,0.042561,0.776004 KneeRight:-0.049772,0.775747,0.066416,0.625562 Neck:-0.165044,0.021261,0.983938,-0.064606 ShoulderLeft:0.089406,0.761871,-0.638835,-0.058740 ShoulderRight:-0.127919,0.762289,0.604071,-0.194037 SpineBase:-0.104594,0.016002,0.994001,-0.027683 SpineMid:-0.134475,0.016828,0.990401,-0.027189 SpineShoulder:-0.165027,0.019510,0.985108,-0.044124 ThumbLeft:0.000000,0.000000,0.000000,0.000000 ThumbRight:0.000000,0.000000,0.000000,0.000000 WristLeft:-0.102783,0.758268,-0.139877,0.628411 WristRight:0.195886,0.235257,-0.575309,0.758487 END:
KINECT_DATA POSITION:4.390460,-1.156571,-6.806076 HEAD_JOINT1:0.985716,0.168407,0.000000,-0.001732 LARM_JOINT2:0.797551,0.000000,0.034286,-0.602276 LARM_JOINT3:0.956492,0.000000,-0.228007,-0.182031 LLEG_JOINT2:0.998753,0.009462,0.000000,0.049024 LLEG_JOINT4:0.996543,0.082926,0.000000,-0.005054 RARM_JOINT2:0.868114,0.000000,0.392600,0.303715 RARM_JOINT3:0.841843,0.000000,0.528009,0.111838 RLEG_JOINT2:0.996853,0.022177,0.000000,-0.076104 RLEG_JOINT4:0.990738,0.113186,0.000000,0.075015 WAIST:0.994311,0.000000,0.106473,-0.003176 WAIST_JOINT0:0.986950,-0.000000,0.160491,0.013111 WAIST_JOINT1:0.998567,0.047217,-0.000000,0.025174 END:
KINECT_DATA_Sensor  AnkleLeft:-0.045273,-0.610570,0.090437,0.785478 AnkleRight:0.077468,0.738268,0.110750,0.660828 ElbowLeft:0.003260,0.796978,-0.175676,-0.577887 ElbowRight:-0.432861,0.869134,0.083043,0.224367 FootLeft:0.000000,0.000000,0.000000,0.000000 FootRight:0.000000,0.000000,0.000000,0.000000 HandLeft:-0.147070,0.722015,-0.044768,0.674581 HandRight:-0.096552,-0.440031,0.600443,-0.660696 HandTipLeft:0.000000,0.000000,0.000000,0.000000 HandTipRight:0.000000,0.000000,0.000000,0.000000 Head:0.000000,0.000000,0.000000,0.000000 HipLeft:0.062020,-0.694732,0.709014,-0.103922 HipRight:-0.206677,0.662361,0.684622,-0.223282 KneeLeft:0.021120,-0.628063,0.041881,0.776748 KneeRight:-0.047449,0.776674,0.067352,0.624492 Neck:-0.160543,0.020749,0.984719,-0.064214 ShoulderLeft:0.078299,0.764473,-0.637952,-0.049675 ShoulderRight:-0.133707,0.762159,0.602387,-0.195871 SpineBase:-0.105748,0.016038,0.993903,-0.026787 SpineMid:-0.132797,0.016762,0.990651,-0.026340 SpineShoulder:-0.160514,0.019138,0.985884,-0.043608 ThumbLeft:0.000000,0.000000,0.000000,0.000000 ThumbRight:0.000000,0.000000,0.000000,0.000000 WristLeft:-0.099383,0.740338,-0.142514,0.649393 WristRight:-0.103663,-0.432392,0.622962,-0.643591 END:
KINECT_DATA POSITION:4.388569,-1.142868,-6.887364 HEAD_JOINT1:0.985645,0.168833,0.000000,-0.000454 LARM_JOINT2:0.797872,0.000000,0.027651,-0.602193 LARM_JOINT3:0.955958,0.000000,-0.225864,-0.187431 LLEG_JOINT2:0.998822,0.008074,0.000000,0.047855 LLEG_JOINT4:0.996622,0.081999,0.000000,-0.004468 RARM_JOINT2:0.835321,0.000000,0.478977,0.269851 RARM_JOINT3:0.916414,0.000000,0.381350,0.121478 RLEG_JOINT2:0.996699,0.027678,0.000000,-0.076327 RLEG_JOINT4:0.991396,0.107601,0.000000,0.074537 WAIST:0.993740,0.000000,0.111702,-0.001828 WAIST_JOINT0:0.985733,-0.000000,0.166948,0.021432 WAIST_JOINT1:0.998638,0.046156,-0.000000,0.024310 END:
KINECT_DATA_Sensor  AnkleLeft:-0.043411,-0.606825,0.089220,0.788618 AnkleRight:0.076497,0.737661,0.111122,0.661556 ElbowLeft:0.000812,0.803950,-0.173949,-0.568688 ElbowRight:-0.476185,0.871329,0.055669,0.104567 FootLeft:0.000000,0.000000,0.000000,0.000000 FootRight:0.000000,0.000000,0.000000,0.000000 HandLeft:-0.165389,0.746878,-0.042751,0.642645 HandRight:0.012502,-0.532756,0.540831,-0.650782 HandTipLeft:0.000000,0.000000,0.000000,0.000000 HandTipRight:0.000000,0.000000,0.000000,0.000000 Head:0.000000,0.000000,0.000000,0.000000 HipLeft:0.059885,-0.694055,0.710354,-0.100494 HipRight:-0.210168,0.662296,0.682877,-0.225549 KneeLeft:0.022200,-0.623886,0.041176,0.780114 KneeRight:-0.043527,0.780360,0.070626,0.619803 Neck:-0.166552,0.021107,0.983787,-0.063080 ShoulderLeft:0.078494,0.764082,-0.638173,-0.052467 ShoulderRight:-0.140799,0.769448,0.589314,-0.202073 SpineBase:-0.111059,0.016462,0.993342,-0.025835 SpineMid:-0.138416,0.017168,0.989900,-0.025371 SpineShoulder:-0.166525,0.019451,0.984927,-0.042550 ThumbLeft:0.000000,0.000000,0.000000,0.000000 ThumbRight:0.000000,0.000000,0.000000,0.000000 WristLeft:-0.107357,0.766687,-0.134920,0.618436 WristRight:0.004858,-0.526767,0.565607,-0.634493 END:
KINECT_DATA POSITION:4.276618,-0.990134,-7.034373 HEAD_JOINT1:0.985715,0.168421,-0.000000,0.000878 LARM_JOINT2:0.798782,0.000000,0.008292,-0.601563 LARM_JOINT3:0.958837,0.000000,-0.211742,-0.189202 LLEG_JOINT2:0.998942,0.003530,0.000000,0.045858 LLEG_JOINT4:0.996108,0.088105,0.000000,-0.002405 RARM_JOINT2:0.811383,0.000000,0.518798,0.269270 RARM_JOINT3:0.942300,0.000000,0.321647,0.092816 RLEG_JOINT2:0.996172,0.027246,0.000000,-0.083064 RLEG_JOINT4:0.990812,0.106928,0.000000,0.082810 WAIST:0.992536,-0.000000,0.121943,0.001212 WAIST_JOINT0:0.983737,-0.000000,0.177779,0.025606 WAIST_JOINT1:0.998653,0.047055,-0.000000,0.021869 END:
KINECT_DATA_Sensor  AnkleLeft:0.056693,0.710933,-0.084340,-0.695878 AnkleRight:0.076707,0.735144,0.109126,0.664658 ElbowLeft:-0.007575,0.813624,-0.170391,-0.555811 ElbowRight:-0.485509,0.871551,0.016158,0.066474 FootLeft:0.000000,0.000000,0.000000,0.000000 FootRight:0.000000,0.000000,0.000000,0.000000 HandLeft:-0.160776,0.757847,-0.025210,0.631809 HandRight:-0.071205,0.558333,-0.545946,0.620595 HandTipLeft:0.000000,0.000000,0.000000,0.000000 HandTipRight:0.000000,0.000000,0.000000,0.000000 Head:0.000000,0.000000,0.000000,0.000000 HipLeft:0.054468,-0.692742,0.712729,-0.095701 HipRight:-0.215120,0.662072,0.679198,-0.232538 KneeLeft:0.026267,-0.615668,0.039193,0.786592 KneeRight:-0.047663,0.786578,0.071864,0.611440 Neck:-0.176504,0.021425,0.982000,-0.063743 ShoulderLeft:0.088658,0.762390,-0.638024,-0.061864 ShoulderRight:-0.143127,0.770231,0.585553,-0.208297 SpineBase:-0.121435,0.016077,0.992110,-0.026692 SpineMid:-0.148619,0.016804,0.988403,-0.026240 SpineShoulder:-0.176524,0.019387,0.983149,-0.043380 ThumbLeft:0.000000,0.000000,0.000000,0.000000 ThumbRight:0.000000,0.000000,0.000000,0.000000 WristLeft:-0.111034,0.777931,-0.131290,0.604366 WristRight:-0.049045,0.566830,-0.554870,0.606974 END:
KINECT_DATA POSITION:4.250228,-0.899307,-7.102752 HEAD_JOINT1:0.985824,0.167778,-0.000000,0.000905 LARM_JOINT2:0.798541,0.000000,0.001483,-0.601939 LARM_JOINT3:0.959857,0.000000,-0.205138,-0.191295 LLEG_JOINT2:0.998957,0.000211,0.000000,0.045651 LLEG_JOINT4:0.995788,0.091589,0.000000,-0.004333 RARM_JOINT2:0.800979,0.000000,0.536005,0.266704 RARM_JOINT3:0.951218,0.000000,0.297324,0.082350 RLEG_JOINT2:0.996116,0.029701,0.000000,-0.082894 RLEG_JOINT4:0.990906,0.104685,0.000000,0.084540 WAIST:0.991811,-0.000000,0.127707,0.001488 WAIST_JOINT0:0.982890,-0.000000,0.182204,0.026993 WAIST_JOINT1:0.998631,0.047298,-0.000000,0.022326 END:
KINECT_DATA_Sensor  AnkleLeft:-0.056677,-0.693597,0.083522,0.713257 AnkleRight:0.089477,0.807568,0.099191,0.574446 ElbowLeft:-0.009944,0.816235,-0.169004,-0.552359 ElbowRight:-0.490291,0.870895,0.007598,0.033152 FootLeft:0.000000,0.000000,0.000000,0.000000 FootRight:0.000000,0.000000,0.000000,0.000000 HandLeft:-0.160837,0.760927,-0.013134,0.628449 HandRight:0.050254,-0.542174,0.576364,-0.609366 HandTipLeft:0.000000,0.000000,0.000000,0.000000 HandTipRight:0.000000,0.000000,0.000000,0.000000 Head:0.000000,0.000000,0.000000,0.000000 HipLeft:0.050934,-0.692903,0.713193,-0.092994 HipRight:-0.218510,0.661002,0.677905,-0.236166 KneeLeft:0.028741,-0.611089,0.037345,0.790158 KneeRight:-0.046232,0.790265,0.073236,0.606614 Neck:-0.180741,0.021943,0.981196,-0.064077 ShoulderLeft:0.092941,0.760535,-0.639289,-0.065246 ShoulderRight:-0.144588,0.769089,0.585671,-0.211154 SpineBase:-0.127186,0.016408,0.991370,-0.027186 SpineMid:-0.153636,0.017128,0.987617,-0.026737 SpineShoulder:-0.180777,0.019695,0.982351,-0.043799 ThumbLeft:0.000000,0.000000,0.000000,0.000000 ThumbRight:0.000000,0.000000,0.000000,0.000000 WristLeft:-0.111489,0.782972,-0.129673,0.598089 WristRight:-0.057713,0.565056,-0.538453,0.622454 END:
KINECT_DATA POSITION:4.234385,-0.818404,-7.147503 HEAD_JOINT1:0.985703,0.168491,-0.000000,0.000620 LARM_JOINT2:0.798663,0.000000,-0.001600,-0.601776 LARM_JOINT3:0.959551,0.000000,-0.208190,-0.189523 LLEG_JOINT2:0.998994,-0.001589,0.000000,0.044807 LLEG_JOINT4:0.995563,0.094084,0.000000,-0.001458 RARM_JOINT2:0.807669,0.000000,0.529384,0.259659 RARM_JOINT3:0.944482,0.000000,0.316345,0.088768 RLEG_JOINT2:0.995969,0.029564,0.000000,-0.084688 RLEG_JOINT4:0.990457,0.105618,0.000000,0.088546 WAIST:0.991407,-0.000000,0.130804,0.001593 WAIST_JOINT0:0.982755,-0.000000,0.183038,0.026270 WAIST_JOINT1:0.998612,0.047493,-0.000000,0.022756 END:
KINECT_DATA_Sensor  AnkleLeft:-0.045308,-0.596371,0.091908,0.796142 AnkleRight:0.091203,0.807709,0.098739,0.574054 ElbowLeft:-0.010773,0.818020,-0.169014,-0.549692 ElbowRight:-0.493421,0.868904,0.014953,0.036310 FootLeft:0.000000,0.000000,0.000000,0.000000 FootRight:0.000000,0.000000,0.000000,0.000000 HandLeft:-0.167371,0.746296,-0.036442,0.643196 HandRight:-0.028031,-0.457931,0.576688,-0.675977 HandTipLeft:0.000000,0.000000,0.000000,0.000000 HandTipRight:0.000000,0.000000,0.000000,0.000000 Head:0.000000,0.000000,0.000000,0.000000 HipLeft:0.049363,-0.693113,0.713271,-0.091668 HipRight:-0.220709,0.660464,0.677007,-0.238194 KneeLeft:0.029619,-0.608640,0.035743,0.792087 KneeRight:-0.047891,0.792073,0.074002,0.604029 Neck:-0.181318,0.022208,0.981055,-0.064517 ShoulderLeft:0.092361,0.760678,-0.639268,-0.064613 ShoulderRight:-0.146256,0.767570,0.586753,-0.212525 SpineBase:-0.130275,0.016688,0.990963,-0.027245 SpineMid:-0.155482,0.017377,0.987322,-0.026811 SpineShoulder:-0.181355,0.019929,0.982226,-0.044097 ThumbLeft:0.000000,0.000000,0.000000,0.000000 ThumbRight:0.000000,0.000000,0.000000,0.000000 WristLeft:-0.107436,0.767350,-0.131720,0.618289 WristRight:-0.035365,-0.474908,0.548334,-0.687417 END:
KINECT_DATA POSITION:4.209516,-0.785031,-7.137513 HEAD_JOINT1:0.985765,0.168125,-0.000000,0.001338 LARM_JOINT2:0.798996,0.000000,0.020295,-0.600994 LARM_JOINT3:0.956358,0.000000,-0.217063,-0.195608 LLEG_JOINT2:0.998938,-0.001464,0.000000,0.046058 LLEG_JOINT4:0.995468,0.095085,0.000000,-0.001107 RARM_JOINT2:0.808843,0.000000,0.527514,0.259812 RARM_JOINT3:0.943137,0.000000,0.319477,0.091801 RLEG_JOINT2:0.996048,0.029906,0.000000,-0.083626 RLEG_JOINT4:0.990607,0.104179,0.000000,0.088569 WAIST:0.991248,-0.000000,0.132012,0.000651 WAIST_JOINT0:0.985096,-0.000000,0.170234,0.024634 WAIST_JOINT1:0.998590,0.047427,-0.000000,0.023827 END:
KINECT_DATA_Sensor  AnkleLeft:-0.047054,-0.604279,0.092609,0.789973 AnkleRight:0.089458,0.802069,0.099027,0.582130 ElbowLeft:0.002851,0.806549,-0.175571,-0.564487 ElbowRight:-0.492557,0.869653,0.023571,0.023157 FootLeft:0.000000,0.000000,0.000000,0.000000 FootRight:0.000000,0.000000,0.000000,0.000000 HandLeft:-0.156825,0.708560,-0.043322,0.686638 HandRight:-0.024987,-0.459864,0.587707,-0.665208 HandTipLeft:0.000000,0.000000,0.000000,0.000000 HandTipRight:0.000000,0.000000,0.000000,0.000000 Head:0.000000,0.000000,0.000000,0.000000 HipLeft:0.048878,-0.693796,0.712707,-0.091145 HipRight:-0.221615,0.659649,0.677320,-0.238723 KneeLeft:0.029570,-0.607698,0.036182,0.792792 KneeRight:-0.047592,0.792808,0.074231,0.603059 Neck:-0.168538,0.021413,0.983317,-0.064991 ShoulderLeft:0.074372,0.763697,-0.639579,-0.046635 ShoulderRight:-0.148797,0.768183,0.586290,-0.209803 SpineBase:-0.131438,0.016520,0.990814,-0.027175 SpineMid:-0.149729,0.017019,0.988215,-0.026865 SpineShoulder:-0.168553,0.019358,0.984500,-0.044444 ThumbLeft:0.000000,0.000000,0.000000,0.000000 ThumbRight:0.000000,0.000000,0.000000,0.000000 WristLeft:-0.098809,0.729855,-0.137754,0.662248 WristRight:-0.033708,-0.486761,0.540813,-0.685163 END:
KINECT_DATA POSITION:4.167961,-0.723103,-7.149231 HEAD_JOINT1:0.985667,0.168699,-0.000000,0.001015 LARM_JOINT2:0.799649,0.000000,0.007713,-0.600418 LARM_JOINT3:0.958748,0.000000,-0.206979,-0.194839 LLEG_JOINT2:0.998942,-0.002874,0.000000,0.045907 LLEG_JOINT4:0.995549,0.094242,0.000000,0.000610 RARM_JOINT2:0.804054,0.000000,0.539323,0.250256 RARM_JOINT3:0.954688,0.000000,0.281953,0.095258 RLEG_JOINT2:0.996074,0.031686,0.000000,-0.082663 RLEG_JOINT4:0.990494,0.103107,0.000000,0.091051 WAIST:0.990852,-0.000000,0.134949,0.001034 WAIST_JOINT0:0.983554,-0.000000,0.178517,0.027448 WAIST_JOINT1:0.998546,0.048022,-0.000000,0.024477 END:
KINECT_DATA_Sensor  AnkleLeft:-0.044036,-0.599588,0.092775,0.793693 AnkleRight:0.092809,0.805410,0.097100,0.577298 ElbowLeft:-0.003813,0.813433,-0.174296,-0.554917 ElbowRight:-0.500086,0.865318,0.030857,-0.013707 FootLeft:0.000000,0.000000,0.000000,0.000000 FootRight:0.000000,0.000000,0.000000,0.000000 HandLeft:-0.151188,0.752080,-0.020491,0.641169 HandRight:0.022777,-0.552520,0.581496,-0.596712 HandTipLeft:0.000000,0.000000,0.000000,0.000000 HandTipRight:0.000000,0.000000,0.000000,0.000000 Head:0.000000,0.000000,0.000000,0.000000 HipLeft:0.046825,-0.693591,0.713216,-0.089788 HipRight:-0.223168,0.659201,0.676644,-0.240423 KneeLeft:0.030765,-0.605351,0.035567,0.794569 KneeRight:-0.045686,0.794750,0.074657,0.600593 Neck:-0.176877,0.022714,0.981768,-0.065807 ShoulderLeft:0.083610,0.760751,-0.641306,-0.054714 ShoulderRight:-0.150391,0.767869,0.584641,-0.214370 SpineBase:-0.134368,0.016987,0.990402,-0.027572 SpineMid:-0.155350,0.017568,0.987328,-0.027205 SpineShoulder:-0.176907,0.020393,0.982989,-0.044954 ThumbLeft:0.000000,0.000000,0.000000,0.000000 ThumbRight:0.000000,0.000000,0.000000,0.000000 WristLeft:-0.107154,0.771445,-0.130634,0.613454 WristRight:-0.080573,0.573989,-0.513528,0.632720 END:
KINECT_DATA POSITION:4.155604,-0.584265,-7.142413 HEAD_JOINT1:0.985199,0.171399,-0.000000,0.002091 LARM_JOINT2:0.801462,0.000000,0.013773,-0.597887 LARM_JOINT3:0.955906,0.000000,-0.209107,-0.206200 LLEG_JOINT2:0.998950,-0.005200,0.000000,0.045508 LLEG_JOINT4:0.995105,0.098777,0.000000,0.003073 RARM_JOINT2:0.786418,0.000000,0.570790,0.236105 RARM_JOINT3:0.961133,0.000000,0.244727,0.127794 RLEG_JOINT2:0.996031,0.032941,0.000000,-0.082689 RLEG_JOINT4:0.990438,0.102216,0.000000,0.092651 WAIST:0.990570,-0.000000,0.137009,0.000665 WAIST_JOINT0:0.983428,-0.000000,0.179119,0.028020 WAIST_JOINT1:0.998498,0.048026,-0.000000,0.026369 END:
KINECT_DATA_Sensor  AnkleLeft:0.058496,0.707483,-0.087776,-0.698814 AnkleRight:0.079301,0.717874,0.109014,0.682997 ElbowLeft:0.001100,0.815555,-0.180158,-0.549920 ElbowRight:-0.514519,0.852268,0.036830,-0.086913 FootLeft:0.000000,0.000000,0.000000,0.000000 FootRight:0.000000,0.000000,0.000000,0.000000 HandLeft:-0.163696,0.778131,-0.007579,0.606349 HandRight:0.116988,0.449350,-0.523852,0.714127 HandTipLeft:0.000000,0.000000,0.000000,0.000000 HandTipRight:0.000000,0.000000,0.000000,0.000000 Head:0.000000,0.000000,0.000000,0.000000 HipLeft:0.045488,-0.694037,0.712959,-0.089065 HipRight:-0.224891,0.658679,0.676203,-0.241486 KneeLeft:0.032046,-0.603770,0.033651,0.795803 KneeRight:-0.045348,0.796039,0.075842,0.598760 Neck:-0.177283,0.024348,0.981625,-0.066256 ShoulderLeft:0.079368,0.760080,-0.642974,-0.050638 ShoulderRight:-0.156340,0.766409,0.583623,-0.218080 SpineBase:-0.136377,0.017879,0.990109,-0.027666 SpineMid:-0.156563,0.018440,0.987119,-0.027296 SpineShoulder:-0.177318,0.021624,0.982878,-0.045181 ThumbLeft:0.000000,0.000000,0.000000,0.000000 ThumbRight:0.000000,0.000000,0.000000,0.000000 WristLeft:-0.113473,0.799469,-0.122293,0.577077 WristRight:0.058357,0.425420,-0.506160,0.747940 END:
KINECT_DATA POSITION:4.141428,-0.412287,-7.182288 HEAD_JOINT1:0.984934,0.172910,0.000000,-0.002575 LARM_JOINT2:0.799415,0.000000,0.011244,-0.600674 LARM_JOINT3:0.957393,0.000000,-0.199938,-0.208384 LLEG_JOINT2:0.998934,-0.006425,0.000000,0.045713 LLEG_JOINT4:0.995233,0.097500,0.000000,0.002045 RARM_JOINT2:0.791147,0.000000,0.561338,0.242871 RARM_JOINT3:0.959699,0.000000,0.249781,0.128793 RLEG_JOINT2:0.995864,0.035981,0.000000,-0.083432 RLEG_JOINT4:0.990616,0.098125,0.000000,0.095143 WAIST:0.989716,-0.000000,0.143043,0.000797 WAIST_JOINT0:0.980848,-0.000000,0.193283,0.024076 WAIST_JOINT1:0.998369,0.049491,-0.000000,0.028449 END:
KINECT_DATA_Sensor  AnkleLeft:0.057033,0.702573,-0.085686,-0.704129 AnkleRight:0.077908,0.711020,0.108877,0.690309 ElbowLeft:0.003537,0.817219,-0.178793,-0.547882 ElbowRight:-0.506709,0.857554,0.035078,-0.081343 FootLeft:0.000000,0.000000,0.000000,0.000000 FootRight:0.000000,0.000000,0.000000,0.000000 HandLeft:-0.151260,0.804792,0.023280,0.573487 HandRight:0.010529,0.595367,-0.536530,0.597965 HandTipLeft:0.000000,0.000000,0.000000,0.000000 HandTipRight:0.000000,0.000000,0.000000,0.000000 Head:0.000000,0.000000,0.000000,0.000000 HipLeft:0.041212,-0.693914,0.713611,-0.086853 HipRight:-0.228463,0.657128,0.675144,-0.245291 KneeLeft:0.033036,-0.598999,0.033371,0.799372 KneeRight:-0.044456,0.799785,0.078363,0.593487 Neck:-0.193043,0.027013,0.978431,-0.068385 ShoulderLeft:0.083827,0.757319,-0.645281,-0.055254 ShoulderRight:-0.175406,0.756918,0.583746,-0.235688 SpineBase:-0.142340,0.019045,0.989214,-0.028837 SpineMid:-0.167368,0.019770,0.985289,-0.028345 SpineShoulder:-0.193113,0.023759,0.979784,-0.046552 ThumbLeft:0.000000,0.000000,0.000000,0.000000 ThumbRight:0.000000,0.000000,0.000000,0.000000 WristLeft:-0.117690,0.825270,-0.113207,0.540613 WristRight:-0.054814,0.584188,-0.502152,0.635267 END:
KINECT_DATA POSITION:4.127139,-0.329148,-7.162511 HEAD_JOINT1:0.984403,0.175869,0.000000,-0.004620 LARM_JOINT2:0.799202,0.000000,0.008907,-0.600997 LARM_JOINT3:0.956687,0.000000,-0.202720,-0.208936 LLEG_JOINT2:0.998869,-0.007516,0.000000,0.046951 LLEG_JOINT4:0.995207,0.097720,0.000000,0.003580 RARM_JOINT2:0.795512,0.000000,0.555281,0.242534 RARM_JOINT3:0.960144,0.000000,0.249067,0.126843 RLEG_JOINT2:0.995891,0.037291,0.000000,-0.082521 RLEG_JOINT4:0.990561,0.098393,0.000000,0.095437 WAIST:0.989010,-0.000000,0.147849,0.000084 WAIST_JOINT0:0.979772,-0.000000,0.198782,0.023091 WAIST_JOINT1:0.998299,0.050163,-0.000000,0.029720 END:
KINECT_DATA_Sensor  AnkleLeft:-0.042344,-0.586773,0.094164,0.803143 AnkleRight:0.095231,0.814399,0.096502,0.564245 ElbowLeft:0.004173,0.817441,-0.178610,-0.547604 ElbowRight:-0.504838,0.858754,0.037114,-0.079389 FootLeft:0.000000,0.000000,0.000000,0.000000 FootRight:0.000000,0.000000,0.000000,0.000000 HandLeft:-0.165654,0.769512,-0.000223,0.616774 HandRight:0.029064,0.541376,-0.531456,0.650862 HandTipLeft:0.000000,0.000000,0.000000,0.000000 HandTipRight:0.000000,0.000000,0.000000,0.000000 Head:0.000000,0.000000,0.000000,0.000000 HipLeft:0.038334,-0.694582,0.713347,-0.084986 HipRight:-0.231501,0.655532,0.674558,-0.248309 KneeLeft:0.033984,-0.595165,0.033377,0.802191 KneeRight:-0.043814,0.802702,0.079159,0.589477 Neck:-0.199055,0.027021,0.977155,-0.069396 ShoulderLeft:0.088085,0.756738,-0.645062,-0.059025 ShoulderRight:-0.179402,0.754614,0.583379,-0.240919 SpineBase:-0.147072,0.019313,0.988500,-0.029416 SpineMid:-0.172722,0.020071,0.984342,-0.028904 SpineShoulder:-0.199106,0.024161,0.978531,-0.047427 ThumbLeft:0.000000,0.000000,0.000000,0.000000 ThumbRight:0.000000,0.000000,0.000000,0.000000 WristLeft:-0.109543,0.793638,-0.118652,0.586567 WristRight:-0.014177,0.535292,-0.503695,0.677903 END:
KINECT_DATA POSITION:4.144777,-0.283744,-7.107460 HEAD_JOINT1:0.984815,0.173521,0.000000,-0.005407 LARM_JOINT2:0.799292,0.000000,0.004728,-0.600924 LARM_JOINT3:0.954990,0.000000,-0.207082,-0.212395 LLEG_JOINT2:0.998828,-0.007323,0.000000,0.047840 LLEG_JOINT4:0.995196,0.097794,0.000000,0.004653 RARM_JOINT2:0.797619,0.000000,0.553315,0.240096 RARM_JOINT3:0.959981,0.000000,0.249114,0.127981 RLEG_JOINT2:0.995859,0.038175,0.000000,-0.082505 RLEG_JOINT4:0.990793,0.095418,0.000000,0.096048 WAIST:0.988707,0.000000,0.149858,-0.000762 WAIST_JOINT0:0.979386,-0.000000,0.200653,0.023262 WAIST_JOINT1:0.998180,0.051341,-0.000000,0.031638 END:
KINECT_DATA_Sensor  AnkleLeft:-0.042252,-0.585664,0.095182,0.803837 AnkleRight:0.080581,0.736584,0.106563,0.663019 ElbowLeft:0.003046,0.819049,-0.179128,-0.545034 ElbowRight:-0.504733,0.859032,0.037212,-0.076963 FootLeft:0.000000,0.000000,0.000000,0.000000 FootRight:0.000000,0.000000,0.000000,0.000000 HandLeft:-0.188623,0.769181,-0.009079,0.610491 HandRight:-0.146179,0.724094,-0.501907,0.449898 HandTipLeft:0.000000,0.000000,0.000000,0.000000 HandTipRight:0.000000,0.000000,0.000000,0.000000 Head:0.000000,0.000000,0.000000,0.000000 HipLeft:0.036466,-0.695410,0.712588,-0.085397 HipRight:-0.232716,0.654584,0.674397,-0.250105 KneeLeft:0.033684,-0.593686,0.033684,0.803285 KneeRight:-0.044021,0.803859,0.080372,0.587719 Neck:-0.201371,0.027803,0.976568,-0.070655 ShoulderLeft:0.092813,0.755663,-0.645431,-0.061462 ShoulderRight:-0.177602,0.754185,0.583982,-0.242130 SpineBase:-0.148956,0.020218,0.988161,-0.030694 SpineMid:-0.174815,0.021016,0.983915,-0.030154 SpineShoulder:-0.201410,0.025051,0.977963,-0.048929 ThumbLeft:0.000000,0.000000,0.000000,0.000000 ThumbRight:0.000000,0.000000,0.000000,0.000000 WristLeft:-0.110364,0.797546,-0.117825,0.581254 WristRight:-0.172198,0.723527,-0.474628,0.470727 END:
KINECT_DATA POSITION:4.145084,-0.237243,-7.027543 HEAD_JOINT1:0.984867,0.173164,0.000000,-0.007175 LARM_JOINT2:0.798454,0.000000,-0.004252,-0.602040 LARM_JOINT3:0.956606,0.000000,-0.203684,-0.208368 LLEG_JOINT2:0.998852,-0.008096,0.000000,0.047208 LLEG_JOINT4:0.995120,0.098502,0.000000,0.005798 RARM_JOINT2:0.800112,0.000000,0.550516,0.238228 RARM_JOINT3:0.956162,0.000000,0.262816,0.129156 RLEG_JOINT2:0.995727,0.038272,0.000000,-0.084037 RLEG_JOINT4:0.990582,0.095233,0.000000,0.098375 WAIST:0.988490,0.000000,0.151286,-0.000796 WAIST_JOINT0:0.978774,-0.000000,0.203536,0.023968 WAIST_JOINT1:0.998021,0.053614,-0.000000,0.032855 END:
KINECT_DATA_Sensor  AnkleLeft:-0.041980,-0.583798,0.095514,0.805167 AnkleRight:0.094077,0.816779,0.094827,0.561275 ElbowLeft:-0.000243,0.822273,-0.177488,-0.540708 ElbowRight:-0.503249,0.860270,0.037492,-0.072603 FootLeft:0.000000,0.000000,0.000000,0.000000 FootRight:0.000000,0.000000,0.000000,0.000000 HandLeft:-0.186028,0.777590,-0.007869,0.600571 HandRight:-0.052847,0.654148,-0.534184,0.532864 HandTipLeft:0.000000,0.000000,0.000000,0.000000 HandTipRight:0.000000,0.000000,0.000000,0.000000 Head:0.000000,0.000000,0.000000,0.000000 HipLeft:0.034316,-0.695622,0.712368,-0.086399 HipRight:-0.232803,0.654158,0.674100,-0.251932 KneeLeft:0.033854,-0.592706,0.032750,0.804041 KneeRight:-0.045333,0.804595,0.081322,0.586479 Neck:-0.204965,0.028785,0.975614,-0.073063 ShoulderLeft:0.102029,0.753117,-0.646527,-0.066389 ShoulderRight:-0.172751,0.753683,0.585762,-0.242904 SpineBase:-0.150274,0.021171,0.987877,-0.032684 SpineMid:-0.177270,0.022059,0.983391,-0.032092 SpineShoulder:-0.205005,0.026060,0.977069,-0.051273 ThumbLeft:0.000000,0.000000,0.000000,0.000000 ThumbRight:0.000000,0.000000,0.000000,0.000000 WristLeft:-0.110071,0.804619,-0.115904,0.571873 WristRight:-0.100701,0.651861,-0.495509,0.565162 END:
KINECT_DATA POSITION:4.158601,-0.223296,-7.003009 HEAD_JOINT1:0.984503,0.175289,0.000000,-0.005282 LARM_JOINT2:0.796360,0.000000,-0.005341,-0.604799 LARM_JOINT3:0.957531,0.000000,-0.199670,-0.208005 LLEG_JOINT2:0.998898,-0.007979,0.000000,0.046255 LLEG_JOINT4:0.995197,0.097717,0.000000,0.005856 RARM_JOINT2:0.812492,0.000000,0.515251,0.272714 RARM_JOINT3:0.926487,0.000000,0.370683,0.064927 RLEG_JOINT2:0.995869,0.038962,0.000000,-0.082020 RLEG_JOINT4:0.990928,0.094594,0.000000,0.095469 WAIST:0.988441,-0.000000,0.151609,0.000177 WAIST_JOINT0:0.979951,-0.000000,0.197577,0.025674 WAIST_JOINT1:0.997919,0.055884,-0.000000,0.032167 END:
KINECT_DATA_Sensor  AnkleLeft:-0.041805,-0.587760,0.094857,0.802367 AnkleRight:0.093528,0.814157,0.095290,0.565084 ElbowLeft:0.001547,0.821355,-0.174815,-0.542967 ElbowRight:-0.472291,0.878596,-0.014226,0.069348 FootLeft:0.000000,0.000000,0.000000,0.000000 FootRight:0.000000,0.000000,0.000000,0.000000 HandLeft:-0.182732,0.773602,0.006141,0.606722 HandRight:-0.109938,-0.445644,0.623075,-0.633319 HandTipLeft:0.000000,0.000000,0.000000,0.000000 HandTipRight:0.000000,0.000000,0.000000,0.000000 Head:0.000000,0.000000,0.000000,0.000000 HipLeft:0.032290,-0.694951,0.713063,-0.086845 HipRight:-0.231279,0.654468,0.673963,-0.252893 KneeLeft:0.033869,-0.592500,0.032752,0.804191 KneeRight:-0.042653,0.804928,0.079971,0.586410 Neck:-0.200118,0.028361,0.976455,-0.075390 ShoulderLeft:0.101710,0.749562,-0.651341,-0.059731 ShoulderRight:-0.167706,0.753112,0.588883,-0.240653 SpineBase:-0.150585,0.021368,0.987762,-0.034549 SpineMid:-0.175040,0.022218,0.983723,-0.034009 SpineShoulder:-0.200152,0.025844,0.977959,-0.053548 ThumbLeft:0.000000,0.000000,0.000000,0.000000 ThumbRight:0.000000,0.000000,0.000000,0.000000 WristLeft:-0.108523,0.803024,-0.114324,0.574722 WristRight:-0.079198,-0.461826,0.563115,-0.680695 END:
KINECT_DATA POSITION:4.225401,-0.190621,-6.959116 HEAD_JOINT1:0.984713,0.174140,0.000000,-0.004034 LARM_JOINT2:0.795450,0.000000,-0.014487,-0.605847 LARM_JOINT3:0.960622,0.000000,-0.194285,-0.198642 LLEG_JOINT2:0.998971,-0.008594,0.000000,0.044524 LLEG_JOINT4:0.994953,0.100232,0.000000,0.004638 RARM_JOINT2:0.801278,0.000000,0.539284,0.259087 RARM_JOINT3:0.944256,0.000000,0.320973,0.073185 RLEG_JOINT2:0.995655,0.038062,0.000000,-0.084989 RLEG_JOINT4:0.990648,0.095778,0.000000,0.097172 WAIST:0.988565,-0.000000,0.150790,0.001085 WAIST_JOINT0:0.979346,-0.000000,0.200343,0.027273 WAIST_JOINT1:0.997866,0.057126,-0.000000,0.031624 END:
KINECT_DATA_Sensor  AnkleLeft:-0.044033,-0.585512,0.094429,0.803941 AnkleRight:0.079780,0.730430,0.107183,0.669791 ElbowLeft:-0.003724,0.823939,-0.171975,-0.539940 ElbowRight:-0.485454,0.873936,-0.011619,0.020866 FootLeft:0.000000,0.000000,0.000000,0.000000 FootRight:0.000000,0.000000,0.000000,0.000000 HandLeft:-0.159308,0.794492,0.008389,0.585946 HandRight:-0.098029,-0.442532,0.611642,-0.648421 HandTipLeft:0.000000,0.000000,0.000000,0.000000 HandTipRight:0.000000,0.000000,0.000000,0.000000 Head:0.000000,0.000000,0.000000,0.000000 HipLeft:0.032021,-0.694326,0.713478,-0.088521 HipRight:-0.230165,0.654997,0.673598,-0.253514 KneeLeft:0.034008,-0.593241,0.031609,0.803685 KneeRight:-0.044878,0.804300,0.080406,0.587045 Neck:-0.202967,0.028898,0.975776,-0.076358 ShoulderLeft:0.109791,0.746445,-0.653116,-0.064842 ShoulderRight:-0.163061,0.752697,0.591030,-0.239880 SpineBase:-0.149765,0.021808,0.987828,-0.035913 SpineMid:-0.176051,0.022758,0.983484,-0.035318 SpineShoulder:-0.203006,0.026345,0.977300,-0.054576 ThumbLeft:0.000000,0.000000,0.000000,0.000000 ThumbRight:0.000000,0.000000,0.000000,0.000000 WristLeft:-0.111388,0.815798,-0.113145,0.556116 WristRight:-0.065454,-0.460244,0.542942,-0.699361 END:
KINECT_DATA POSITION:4.247407,-0.181555,-6.949925 HEAD_JOINT1:0.984716,0.174147,0.000000,-0.002763 LARM_JOINT2:0.795749,0.000000,-0.017141,-0.605384 LARM_JOINT3:0.959426,0.000000,-0.196746,-0.201970 LLEG_JOINT2:0.998999,-0.008217,0.000000,0.043971 LLEG_JOINT4:0.994913,0.100658,0.000000,0.003935 RARM_JOINT2:0.798970,0.000000,0.547701,0.248336 RARM_JOINT3:0.947745,0.000000,0.299911,0.108782 RLEG_JOINT2:0.995541,0.038019,0.000000,-0.086328 RLEG_JOINT4:0.990291,0.097225,0.000000,0.099351 WAIST:0.988625,-0.000000,0.150391,0.001544 WAIST_JOINT0:0.979284,-0.000000,0.200627,0.027399 WAIST_JOINT1:0.997851,0.057676,-0.000000,0.031080 END:
KINECT_DATA_Sensor  AnkleLeft:-0.044986,-0.585181,0.094271,0.804147 AnkleRight:0.095667,0.815193,0.095334,0.563222 ElbowLeft:-0.005001,0.825782,-0.171902,-0.537130 ElbowRight:-0.494111,0.869284,0.002681,-0.013843 FootLeft:0.000000,0.000000,0.000000,0.000000 FootRight:0.000000,0.000000,0.000000,0.000000 HandLeft:-0.181112,0.782429,0.003938,0.595809 HandRight:-0.020308,0.600459,-0.547948,0.582057 HandTipLeft:0.000000,0.000000,0.000000,0.000000 HandTipRight:0.000000,0.000000,0.000000,0.000000 Head:0.000000,0.000000,0.000000,0.000000 HipLeft:0.031857,-0.693982,0.713770,-0.088920 HipRight:-0.229538,0.655270,0.673508,-0.253615 KneeLeft:0.033713,-0.593565,0.031697,0.803455 KneeRight:-0.045623,0.804023,0.080863,0.587304 Neck:-0.203160,0.028800,0.975704,-0.076801 ShoulderLeft:0.111511,0.745770,-0.653530,-0.065511 ShoulderRight:-0.161592,0.752195,0.592234,-0.239476 SpineBase:-0.149383,0.021820,0.987869,-0.036369 SpineMid:-0.175958,0.022793,0.983484,-0.035768 SpineShoulder:-0.203202,0.026272,0.977237,-0.055019 ThumbLeft:0.000000,0.000000,0.000000,0.000000 ThumbRight:0.000000,0.000000,0.000000,0.000000 WristLeft:-0.109597,0.809975,-0.113913,0.564759 WristRight:-0.034379,0.599435,-0.536468,0.593041 END:
KINECT_DATA POSITION:4.288723,-0.174010,-6.938386 HEAD_JOINT1:0.984895,0.173119,0.000000,-0.003391 LARM_JOINT2:0.794172,0.000000,-0.010473,-0.607603 LARM_JOINT3:0.960928,0.000000,-0.194069,-0.197371 LLEG_JOINT2:0.999023,-0.007244,0.000000,0.043591 LLEG_JOINT4:0.994945,0.100253,0.000000,0.005882 RARM_JOINT2:0.790490,0.000000,0.550485,0.268499 RARM_JOINT3:0.954152,0.000000,0.293829,0.057082 RLEG_JOINT2:0.995682,0.038477,0.000000,-0.084477 RLEG_JOINT4:0.990584,0.098109,0.000000,0.095485 WAIST:0.988819,-0.000000,0.149118,0.001096 WAIST_JOINT0:0.980099,-0.000000,0.196925,0.025022 WAIST_JOINT1:0.997827,0.057764,-0.000000,0.031682 END:
KINECT_DATA_Sensor  AnkleLeft:0.059194,0.705309,-0.087389,-0.700998 AnkleRight:0.094627,0.813664,0.097991,0.565150 ElbowLeft:-0.001201,0.820215,-0.171132,-0.545857 ElbowRight:-0.479892,0.876220,-0.033746,0.028346 FootLeft:0.000000,0.000000,0.000000,0.000000 FootRight:0.000000,0.000000,0.000000,0.000000 HandLeft:-0.155976,0.764433,0.009604,0.625477 HandRight:-0.065990,-0.459549,0.612304,-0.639957 HandTipLeft:0.000000,0.000000,0.000000,0.000000 HandTipRight:0.000000,0.000000,0.000000,0.000000 Head:0.000000,0.000000,0.000000,0.000000 HipLeft:0.031933,-0.694442,0.713215,-0.089748 HipRight:-0.228812,0.655437,0.673833,-0.252977 KneeLeft:0.032424,-0.594696,0.031611,0.802674 KneeRight:-0.044074,0.803329,0.080502,0.588421 Neck:-0.199894,0.028825,0.976363,-0.076990 ShoulderLeft:0.107148,0.748061,-0.651992,-0.061889 ShoulderRight:-0.161636,0.752406,0.592362,-0.238465 SpineBase:-0.148049,0.022297,0.988047,-0.036711 SpineMid:-0.173643,0.023243,0.983872,-0.036120 SpineShoulder:-0.199920,0.026395,0.977899,-0.055211 ThumbLeft:0.000000,0.000000,0.000000,0.000000 ThumbRight:0.000000,0.000000,0.000000,0.000000 WristLeft:-0.104805,0.789221,-0.118294,0.593425 WristRight:-0.032059,-0.474335,0.543267,-0.691983 END:
KINECT_DATA POSITION:4.310898,-0.173625,-6.939149 HEAD_JOINT1:0.984840,0.173439,0.000000,-0.002902 LARM_JOINT2:0.794728,0.000000,-0.004451,-0.606950 LARM_JOINT3:0.958587,0.000000,-0.200744,-0.202024 LLEG_JOINT2:0.999060,-0.007055,0.000000,0.042761 LLEG_JOINT4:0.995065,0.099056,0.000000,0.005874 RARM_JOINT2:0.797708,0.000000,0.549780,0.247798 RARM_JOINT3:0.953098,0.000000,0.286044,0.098913 RLEG_JOINT2:0.995591,0.038983,0.000000,-0.085316 RLEG_JOINT4:0.990556,0.096920,0.000000,0.096981 WAIST:0.988756,-0.000000,0.149535,0.001085 WAIST_JOINT0:0.980814,-0.000000,0.193504,0.023678 WAIST_JOINT1:0.997842,0.057512,-0.000000,0.031673 END:
KINECT_DATA_Sensor  AnkleLeft:-0.044873,-0.589786,0.094117,0.800800 AnkleRight:0.094354,0.812172,0.097383,0.567442 ElbowLeft:0.002141,0.816951,-0.173315,-0.550044 ElbowRight:-0.494757,0.868237,0.012928,-0.034820 FootLeft:0.000000,0.000000,0.000000,0.000000 FootRight:0.000000,0.000000,0.000000,0.000000 HandLeft:-0.172983,0.787552,0.010432,0.591380 HandRight:0.557489,-0.546275,-0.101902,0.616771 HandTipLeft:0.000000,0.000000,0.000000,0.000000 HandTipRight:0.000000,0.000000,0.000000,0.000000 Head:0.000000,0.000000,0.000000,0.000000 HipLeft:0.031505,-0.694577,0.713167,-0.089232 HipRight:-0.228786,0.655538,0.673785,-0.252863 KneeLeft:0.031761,-0.594384,0.031059,0.802953 KneeRight:-0.044479,0.803570,0.081403,0.587938 Neck:-0.196401,0.028424,0.977101,-0.076761 ShoulderLeft:0.102096,0.749810,-0.651190,-0.057555 ShoulderRight:-0.162290,0.752319,0.592688,-0.237486 SpineBase:-0.148466,0.022362,0.987986,-0.036615 SpineMid:-0.172108,0.023234,0.984143,-0.036068 SpineShoulder:-0.196409,0.026178,0.978622,-0.055109 ThumbLeft:0.000000,0.000000,0.000000,0.000000 ThumbRight:0.000000,0.000000,0.000000,0.000000 WristLeft:-0.109641,0.813918,-0.114165,0.559002 WristRight:0.520356,-0.553237,-0.073644,0.646324 END:
KINECT_DATA POSITION:4.288133,-0.195377,-6.970739 HEAD_JOINT1:0.984981,0.172613,0.000000,-0.004100 LARM_JOINT2:0.795433,0.000000,-0.015472,-0.605843 LARM_JOINT3:0.960810,0.000000,-0.189683,-0.202151 LLEG_JOINT2:0.999030,-0.007106,0.000000,0.043462 LLEG_JOINT4:0.995344,0.096121,0.000000,0.007126 RARM_JOINT2:0.803341,0.000000,0.542767,0.245045 RARM_JOINT3:0.952841,0.000000,0.285006,0.104241 RLEG_JOINT2:0.995466,0.040962,0.000000,-0.085847 RLEG_JOINT4:0.990444,0.095711,0.000000,0.099296 WAIST:0.988526,-0.000000,0.151051,0.000902 WAIST_JOINT0:0.979167,-0.000000,0.201502,0.025067 WAIST_JOINT1:0.997909,0.056267,-0.000000,0.031802 END:
KINECT_DATA_Sensor  AnkleLeft:-0.054652,-0.698125,0.086772,0.708594 AnkleRight:0.096395,0.815505,0.096671,0.562419 ElbowLeft:-0.005038,0.824401,-0.171506,-0.539374 ElbowRight:-0.495920,0.867279,0.023252,-0.036741 FootLeft:0.000000,0.000000,0.000000,0.000000 FootRight:0.000000,0.000000,0.000000,0.000000 HandLeft:-0.161414,0.790887,0.025722,0.589730 HandRight:0.557187,-0.546729,-0.088575,0.618696 HandTipLeft:0.000000,0.000000,0.000000,0.000000 HandTipRight:0.000000,0.000000,0.000000,0.000000 Head:0.000000,0.000000,0.000000,0.000000 HipLeft:0.030905,-0.694926,0.713003,-0.088033 HipRight:-0.229798,0.655316,0.673481,-0.253333 KneeLeft:0.032041,-0.593120,0.031512,0.803859 KneeRight:-0.043955,0.804549,0.083384,0.586359 Neck:-0.203925,0.028927,0.975668,-0.075166 ShoulderLeft:0.110024,0.747267,-0.651938,-0.066808 ShoulderRight:-0.164059,0.750975,0.593004,-0.239723 SpineBase:-0.149985,0.022277,0.987776,-0.036164 SpineMid:-0.176622,0.023246,0.983362,-0.035549 SpineShoulder:-0.203949,0.026473,0.977141,-0.053848 ThumbLeft:0.000000,0.000000,0.000000,0.000000 ThumbRight:0.000000,0.000000,0.000000,0.000000 WristLeft:-0.111259,0.816895,-0.113424,0.554472 WristRight:0.512728,-0.564641,-0.082842,0.641427 END:
KINECT_DATA POSITION:4.241159,-0.238274,-7.048798 HEAD_JOINT1:0.984496,0.175344,0.000000,-0.004799 LARM_JOINT2:0.795273,0.000000,0.010986,-0.606151 LARM_JOINT3:0.956187,0.000000,-0.203050,-0.210895 LLEG_JOINT2:0.999007,-0.007725,0.000000,0.043884 LLEG_JOINT4:0.995082,0.098686,0.000000,0.008548 RARM_JOINT2:0.808316,0.000000,0.539930,0.234738 RARM_JOINT3:0.954216,0.000000,0.278286,0.109673 RLEG_JOINT2:0.995589,0.039739,0.000000,-0.084986 RLEG_JOINT4:0.990676,0.093941,0.000000,0.098676 WAIST:0.988859,-0.000000,0.148852,0.000597 WAIST_JOINT0:0.982105,-0.000000,0.187451,0.018198 WAIST_JOINT1:0.997971,0.055252,-0.000000,0.031625 END:
KINECT_DATA_Sensor  AnkleLeft:0.056678,0.708703,-0.088438,-0.697644 AnkleRight:0.081336,0.732379,0.106010,0.667658 ElbowLeft:0.010208,0.811991,-0.176786,-0.556160 ElbowRight:-0.501680,0.861863,0.047024,-0.057439 FootLeft:0.000000,0.000000,0.000000,0.000000 FootRight:0.000000,0.000000,0.000000,0.000000 HandLeft:-0.173233,0.775491,0.020827,0.606771 HandRight:0.554292,-0.492748,-0.142503,0.655479 HandTipLeft:0.000000,0.000000,0.000000,0.000000 HandTipRight:0.000000,0.000000,0.000000,0.000000 Head:0.000000,0.000000,0.000000,0.000000 HipLeft:0.031899,-0.695174,0.712714,-0.088057 HipRight:-0.228082,0.656029,0.674230,-0.251036 KneeLeft:0.032644,-0.594873,0.031199,0.802550 KneeRight:-0.044036,0.803212,0.082195,0.588349 Neck:-0.190480,0.027774,0.978478,-0.074344 ShoulderLeft:0.086869,0.756028,-0.646930,-0.048557 ShoulderRight:-0.170314,0.751469,0.591382,-0.237814 SpineBase:-0.147800,0.022142,0.988133,-0.035469 SpineMid:-0.168807,0.022892,0.984762,-0.034990 SpineShoulder:-0.190468,0.025625,0.979921,-0.053103 ThumbLeft:0.000000,0.000000,0.000000,0.000000 ThumbRight:0.000000,0.000000,0.000000,0.000000 WristLeft:-0.109472,0.805459,-0.114542,0.571080 WristRight:0.488082,-0.519995,-0.136287,0.687609 END:
KINECT_DATA POSITION:4.185888,-0.336529,-7.129979 HEAD_JOINT1:0.983601,0.180317,0.000000,-0.003879 LARM_JOINT2:0.795017,0.000000,0.007140,-0.606545 LARM_JOINT3:0.957934,0.000000,-0.199349,-0.206451 LLEG_JOINT2:0.998973,-0.006422,0.000000,0.044859 LLEG_JOINT4:0.994977,0.099975,0.000000,0.005139 RARM_JOINT2:0.808233,0.000000,0.546574,0.219125 RARM_JOINT3:0.963119,0.000000,0.240621,0.120431 RLEG_JOINT2:0.995737,0.037215,0.000000,-0.084401 RLEG_JOINT4:0.990611,0.096941,0.000000,0.096401 WAIST:0.989797,-0.000000,0.142482,0.000062 WAIST_JOINT0:0.981373,-0.000000,0.191352,0.017083 WAIST_JOINT1:0.998073,0.054118,-0.000000,0.030347 END:
KINECT_DATA_Sensor  AnkleLeft:-0.058356,-0.701247,0.088401,0.705005 AnkleRight:0.084539,0.753577,0.103921,0.643565 ElbowLeft:0.005956,0.816467,-0.173479,-0.550682 ElbowRight:-0.512621,0.852402,0.066817,-0.078524 FootLeft:0.000000,0.000000,0.000000,0.000000 FootRight:0.000000,0.000000,0.000000,0.000000 HandLeft:-0.170749,0.778035,0.026482,0.603991 HandRight:-0.521527,0.717312,0.060418,-0.458064 HandTipLeft:0.000000,0.000000,0.000000,0.000000 HandTipRight:0.000000,0.000000,0.000000,0.000000 Head:0.000000,0.000000,0.000000,0.000000 HipLeft:0.035877,-0.695404,0.711972,-0.090676 HipRight:-0.224338,0.657338,0.675699,-0.247002 KneeLeft:0.032005,-0.599945,0.032169,0.798753 KneeRight:-0.044959,0.799274,0.080476,0.593854 Neck:-0.193984,0.026908,0.977956,-0.072444 ShoulderLeft:0.087814,0.757342,-0.644923,-0.052879 ShoulderRight:-0.173557,0.751024,0.590378,-0.239365 SpineBase:-0.141461,0.021441,0.989105,-0.034642 SpineMid:-0.167315,0.022341,0.985061,-0.034069 SpineShoulder:-0.193972,0.024916,0.979336,-0.051532 ThumbLeft:0.000000,0.000000,0.000000,0.000000 ThumbRight:0.000000,0.000000,0.000000,0.000000 WristLeft:-0.110445,0.808049,-0.112996,0.567530 WristRight:0.502368,-0.658538,-0.027092,0.559661 END:
