EastLYD/RoboCupatHomeSim/InteractiveCleanUp/JapanOpen2016/Motion_Data/File20.dat
KINECT_DATA POSITION:22.536781,-0.672743,-14.956606 HEAD_JOINT1:0.972770,0.193837,-0.000000,0.127069 LARM_JOINT2:0.854044,0.000000,0.009582,-0.520113 LARM_JOINT3:0.963120,0.000000,-0.181931,-0.198247 LLEG_JOINT2:0.998260,0.018847,0.000000,0.055877 LLEG_JOINT4:0.995096,0.087657,0.000000,-0.045835 RARM_JOINT2:0.798958,0.000000,-0.082465,0.595706 RARM_JOINT3:0.973067,0.000000,0.186045,0.136115 RLEG_JOINT2:0.999361,0.008684,0.000000,-0.034667 RLEG_JOINT4:0.994428,0.100136,0.000000,0.032944 WAIST:0.999643,0.000000,-0.026521,-0.003121 WAIST_JOINT0:0.998949,0.000000,-0.045648,0.004102 WAIST_JOINT1:0.996665,0.080602,0.000000,-0.012699 END:
KINECT_DATA_Sensor  AnkleLeft:0.068046,0.716625,-0.081808,-0.689293 AnkleRight:0.078297,0.705975,0.075418,0.699843 ElbowLeft:-0.013792,0.909238,-0.235941,-0.342679 ElbowRight:0.043486,0.810504,0.208597,0.545600 FootLeft:0.000000,0.000000,0.000000,0.000000 FootRight:0.000000,0.000000,0.000000,0.000000 HandLeft:-0.091132,0.841801,-0.007649,0.531984 HandRight:0.015676,-0.352828,0.015630,0.935426 HandTipLeft:0.000000,0.000000,0.000000,0.000000 HandTipRight:0.000000,0.000000,0.000000,0.000000 Head:0.000000,0.000000,0.000000,0.000000 HipLeft:0.130434,-0.675958,0.699511,-0.191708 HipRight:-0.092161,0.677897,0.709855,-0.167532 KneeLeft:-0.025360,0.724685,-0.049928,-0.686801 KneeRight:-0.019715,0.688524,0.033362,0.724177 Neck:0.044321,-0.015958,0.994161,-0.097078 ShoulderLeft:0.006939,0.776045,-0.622925,0.098338 ShoulderRight:0.065349,0.780499,0.621131,-0.027344 SpineBase:0.026047,-0.012439,0.998014,-0.055985 SpineMid:0.035021,-0.012941,0.997740,-0.055871 SpineShoulder:0.044219,-0.014811,0.996066,-0.075350 ThumbLeft:0.000000,0.000000,0.000000,0.000000 ThumbRight:0.000000,0.000000,0.000000,0.000000 WristLeft:-0.068683,0.846664,-0.074994,0.522321 WristRight:-0.028604,-0.347580,-0.083198,0.933514 END:
KINECT_DATA POSITION:22.590321,-0.673725,-15.010368 HEAD_JOINT1:0.973573,0.189911,-0.000000,0.126847 LARM_JOINT2:0.854032,0.000000,0.008988,-0.520142 LARM_JOINT3:0.963405,0.000000,-0.178765,-0.199733 LLEG_JOINT2:0.998289,0.017958,0.000000,0.055649 LLEG_JOINT4:0.995204,0.086973,0.000000,-0.044776 RARM_JOINT2:0.799010,0.000000,-0.082302,0.595659 RARM_JOINT3:0.972732,0.000000,0.188505,0.135126 RLEG_JOINT2:0.999356,0.008501,0.000000,-0.034862 RLEG_JOINT4:0.994779,0.096798,0.000000,0.032331 WAIST:0.999626,0.000000,-0.027180,-0.003002 WAIST_JOINT0:0.998869,0.000000,-0.047394,0.003922 WAIST_JOINT1:0.996679,0.080459,0.000000,-0.012561 END:
KINECT_DATA_Sensor  AnkleLeft:0.068279,0.734605,-0.079655,-0.670334 AnkleRight:0.074574,0.699451,0.074251,0.706890 ElbowLeft:-0.014494,0.909659,-0.235875,-0.341575 ElbowRight:0.043814,0.811078,0.208217,0.544865 FootLeft:0.000000,0.000000,0.000000,0.000000 FootRight:0.000000,0.000000,0.000000,0.000000 HandLeft:-0.079816,0.823496,-0.002707,0.561673 HandRight:0.013026,-0.398582,0.001885,0.917038 HandTipLeft:0.000000,0.000000,0.000000,0.000000 HandTipRight:0.000000,0.000000,0.000000,0.000000 Head:0.000000,0.000000,0.000000,0.000000 HipLeft:0.130684,-0.675783,0.699529,-0.192089 HipRight:-0.091688,0.678109,0.709832,-0.167034 KneeLeft:-0.025928,0.725103,-0.049190,-0.686392 KneeRight:-0.019878,0.688041,0.033304,0.724634 Neck:0.046002,-0.015734,0.994113,-0.096827 ShoulderLeft:0.006483,0.776133,-0.622716,0.098995 ShoulderRight:0.067023,0.780623,0.620880,-0.025370 SpineBase:0.026702,-0.012191,0.997998,-0.056019 SpineMid:0.036193,-0.012724,0.997699,-0.055901 SpineShoulder:0.045910,-0.014587,0.996002,-0.075232 ThumbLeft:0.000000,0.000000,0.000000,0.000000 ThumbRight:0.000000,0.000000,0.000000,0.000000 WristLeft:-0.067677,0.827768,-0.077087,0.551614 WristRight:-0.023776,-0.394625,-0.084083,0.914678 END:
KINECT_DATA POSITION:22.647650,-0.678274,-15.123916 HEAD_JOINT1:0.974542,0.185077,-0.000000,0.126545 LARM_JOINT2:0.854334,0.000000,0.008256,-0.519659 LARM_JOINT3:0.963562,0.000000,-0.178497,-0.199216 LLEG_JOINT2:0.998298,0.019391,0.000000,0.055006 LLEG_JOINT4:0.995336,0.085365,0.000000,-0.044935 RARM_JOINT2:0.799902,0.000000,-0.078190,0.595016 RARM_JOINT3:0.966651,0.000000,0.210948,0.145212 RLEG_JOINT2:0.999348,0.008284,0.000000,-0.035141 RLEG_JOINT4:0.994743,0.097081,0.000000,0.032586 WAIST:0.999626,0.000000,-0.027161,-0.003181 WAIST_JOINT0:0.998815,0.000000,-0.048518,0.003689 WAIST_JOINT1:0.996775,0.079363,0.000000,-0.011877 END:
KINECT_DATA_Sensor  AnkleLeft:0.068890,0.735065,-0.078801,-0.669869 AnkleRight:0.074524,0.699803,0.074402,0.706531 ElbowLeft:-0.016085,0.910091,-0.236157,-0.340154 ElbowRight:0.039935,0.812327,0.206720,0.543872 FootLeft:0.000000,0.000000,0.000000,0.000000 FootRight:0.000000,0.000000,0.000000,0.000000 HandLeft:-0.076425,0.841201,-0.005173,0.535270 HandRight:0.076577,-0.385497,-0.073775,0.916562 HandTipLeft:0.000000,0.000000,0.000000,0.000000 HandTipRight:0.000000,0.000000,0.000000,0.000000 Head:0.000000,0.000000,0.000000,0.000000 HipLeft:0.131262,-0.675965,0.699316,-0.191830 HipRight:-0.092338,0.678091,0.709871,-0.166581 KneeLeft:-0.024341,0.725204,-0.049665,-0.686309 KneeRight:-0.020356,0.688007,0.033484,0.724645 Neck:0.047139,-0.015199,0.994190,-0.095564 ShoulderLeft:0.005812,0.776550,-0.622281,0.098507 ShoulderRight:0.067702,0.780830,0.620632,-0.023178 SpineBase:0.026720,-0.012026,0.998041,-0.055269 SpineMid:0.036755,-0.012582,0.997722,-0.055145 SpineShoulder:0.047039,-0.014225,0.996035,-0.074155 ThumbLeft:0.000000,0.000000,0.000000,0.000000 ThumbRight:0.000000,0.000000,0.000000,0.000000 WristLeft:-0.071841,0.843839,-0.075482,0.526381 WristRight:-0.018367,-0.388607,-0.091955,0.916620 END:
KINECT_DATA POSITION:22.640722,-0.686677,-15.126300 HEAD_JOINT1:0.974856,0.183828,-0.000000,0.125952 LARM_JOINT2:0.854249,0.000000,0.007950,-0.519804 LARM_JOINT3:0.962708,0.000000,-0.179599,-0.202330 LLEG_JOINT2:0.998302,0.018865,0.000000,0.055112 LLEG_JOINT4:0.995588,0.082016,0.000000,-0.045581 RARM_JOINT2:0.800155,0.000000,-0.074622,0.595133 RARM_JOINT3:0.946357,0.000000,0.269361,0.178474 RLEG_JOINT2:0.999360,0.007332,0.000000,-0.035020 RLEG_JOINT4:0.994338,0.100990,0.000000,0.033068 WAIST:0.999622,0.000000,-0.027311,-0.003222 WAIST_JOINT0:0.998824,0.000000,-0.048308,0.004070 WAIST_JOINT1:0.996836,0.078662,0.000000,-0.011432 END:
KINECT_DATA_Sensor  AnkleLeft:0.064769,0.719732,-0.077207,-0.686899 AnkleRight:0.076848,0.696858,0.076212,0.708996 ElbowLeft:-0.016923,0.910335,-0.235995,-0.339573 ElbowRight:0.037335,0.813730,0.204801,0.542684 FootLeft:0.000000,0.000000,0.000000,0.000000 FootRight:0.000000,0.000000,0.000000,0.000000 HandLeft:-0.087002,0.847359,0.004371,0.523827 HandRight:0.158466,-0.322408,-0.168492,0.917906 HandTipLeft:0.000000,0.000000,0.000000,0.000000 HandTipRight:0.000000,0.000000,0.000000,0.000000 Head:0.000000,0.000000,0.000000,0.000000 HipLeft:0.131538,-0.676053,0.699209,-0.191721 HipRight:-0.092534,0.678194,0.709843,-0.166169 KneeLeft:-0.024760,0.725303,-0.049324,-0.686214 KneeRight:-0.020990,0.687874,0.032773,0.724786 Neck:0.046900,-0.014674,0.994285,-0.094780 ShoulderLeft:0.005553,0.776356,-0.622629,0.097839 ShoulderRight:0.067104,0.781187,0.620259,-0.022877 SpineBase:0.026890,-0.011839,0.998061,-0.054867 SpineMid:0.036716,-0.012378,0.997748,-0.054748 SpineShoulder:0.046797,-0.013809,0.996102,-0.073486 ThumbLeft:0.000000,0.000000,0.000000,0.000000 ThumbRight:0.000000,0.000000,0.000000,0.000000 WristLeft:-0.073498,0.852073,-0.074705,0.512823 WristRight:0.018855,-0.343567,-0.132217,0.929583 END:
KINECT_DATA POSITION:22.559349,-0.734740,-15.082836 HEAD_JOINT1:0.974912,0.184201,-0.000000,0.124971 LARM_JOINT2:0.853854,0.000000,0.008977,-0.520435 LARM_JOINT3:0.963208,0.000000,-0.178536,-0.200886 LLEG_JOINT2:0.998286,0.018344,0.000000,0.055575 LLEG_JOINT4:0.995256,0.085442,0.000000,-0.046535 RARM_JOINT2:0.798631,0.000000,-0.067587,0.598013 RARM_JOINT3:0.932318,0.000000,0.300706,0.200894 RLEG_JOINT2:0.999384,0.006727,0.000000,-0.034441 RLEG_JOINT4:0.994602,0.099803,0.000000,0.028402 WAIST:0.999601,0.000000,-0.028059,-0.003089 WAIST_JOINT0:0.999021,0.000000,-0.043780,0.006385 WAIST_JOINT1:0.996987,0.076783,0.000000,-0.011051 END:
KINECT_DATA_Sensor  AnkleLeft:0.066341,0.714369,-0.079631,-0.692051 AnkleRight:0.074633,0.712105,0.076268,0.693916 ElbowLeft:-0.018177,0.910044,-0.235394,-0.340705 ElbowRight:0.033335,0.816597,0.198110,0.541120 FootLeft:0.000000,0.000000,0.000000,0.000000 FootRight:0.000000,0.000000,0.000000,0.000000 HandLeft:-0.081872,0.832059,-0.000696,0.548611 HandRight:0.212558,-0.377115,-0.176806,0.883936 HandTipLeft:0.000000,0.000000,0.000000,0.000000 HandTipRight:0.000000,0.000000,0.000000,0.000000 Head:0.000000,0.000000,0.000000,0.000000 HipLeft:0.132910,-0.676153,0.699049,-0.191002 HipRight:-0.092987,0.678636,0.709719,-0.164638 KneeLeft:-0.025587,0.725791,-0.049336,-0.685667 KneeRight:-0.020917,0.687333,0.031856,0.725342 Neck:0.042423,-0.013518,0.994703,-0.092644 ShoulderLeft:0.003918,0.776586,-0.622673,0.095796 ShoulderRight:0.059634,0.783779,0.617553,-0.027614 SpineBase:0.027633,-0.011870,0.998127,-0.053269 SpineMid:0.034835,-0.012254,0.997902,-0.053182 SpineShoulder:0.042304,-0.012914,0.996438,-0.071792 ThumbLeft:0.000000,0.000000,0.000000,0.000000 ThumbRight:0.000000,0.000000,0.000000,0.000000 WristLeft:-0.072452,0.836155,-0.077821,0.538088 WristRight:0.063692,-0.401244,-0.158959,0.899821 END:
KINECT_DATA POSITION:22.669882,-0.748812,-14.786137 HEAD_JOINT1:0.974784,0.184265,-0.000000,0.125868 LARM_JOINT2:0.853501,0.000000,0.011856,-0.520955 LARM_JOINT3:0.962797,0.000000,-0.181349,-0.200335 LLEG_JOINT2:0.998422,0.021279,0.000000,0.051968 LLEG_JOINT4:0.995532,0.083229,0.000000,-0.044595 RARM_JOINT2:0.799475,0.000000,-0.061043,0.597590 RARM_JOINT3:0.897530,0.000000,0.383393,0.217829 RLEG_JOINT2:0.999313,0.006799,0.000000,-0.036426 RLEG_JOINT4:0.994393,0.101881,0.000000,0.028349 WAIST:0.999577,0.000000,-0.029026,-0.001840 WAIST_JOINT0:0.999054,0.000000,-0.042861,0.007374 WAIST_JOINT1:0.997092,0.075367,0.000000,-0.011284 END:
KINECT_DATA_Sensor  AnkleLeft:0.065755,0.703705,-0.081061,-0.702783 AnkleRight:0.075899,0.711627,0.078157,0.694059 ElbowLeft:-0.018501,0.908536,-0.236130,-0.344185 ElbowRight:0.025837,0.811651,0.195272,0.549931 FootLeft:0.000000,0.000000,0.000000,0.000000 FootRight:0.000000,0.000000,0.000000,0.000000 HandLeft:-0.088861,0.837870,-0.003752,0.538575 HandRight:0.261069,-0.328114,-0.326088,0.847260 HandTipLeft:0.000000,0.000000,0.000000,0.000000 HandTipRight:0.000000,0.000000,0.000000,0.000000 Head:0.000000,0.000000,0.000000,0.000000 HipLeft:0.134971,-0.675775,0.699476,-0.189326 HipRight:-0.094760,0.680311,0.708694,-0.161089 KneeLeft:-0.021867,0.726672,-0.049855,-0.684824 KneeRight:-0.021319,0.686526,0.032482,0.726067 Neck:0.041555,-0.011845,0.994855,-0.091637 ShoulderLeft:0.003627,0.776828,-0.622648,0.093991 ShoulderRight:0.058045,0.784897,0.616301,-0.027217 SpineBase:0.028609,-0.009876,0.998306,-0.049686 SpineMid:0.034921,-0.010190,0.998105,-0.049623 SpineShoulder:0.041394,-0.011868,0.996595,-0.070315 ThumbLeft:0.000000,0.000000,0.000000,0.000000 ThumbRight:0.000000,0.000000,0.000000,0.000000 WristLeft:-0.073105,0.842553,-0.078799,0.527779 WristRight:0.106562,-0.380003,-0.211190,0.894226 END:
KINECT_DATA POSITION:22.911669,-0.739948,-14.496696 HEAD_JOINT1:0.974791,0.184189,-0.000000,0.125921 LARM_JOINT2:0.852394,0.000000,0.014208,-0.522706 LARM_JOINT3:0.962175,0.000000,-0.183277,-0.201564 LLEG_JOINT2:0.998638,0.023883,0.000000,0.046377 LLEG_JOINT4:0.995660,0.083452,0.000000,-0.041186 RARM_JOINT2:0.801858,0.000000,-0.062580,0.594229 RARM_JOINT3:0.868938,0.000000,0.436382,0.233489 RLEG_JOINT2:0.999119,0.008187,0.000000,-0.041154 RLEG_JOINT4:0.994171,0.102865,0.000000,0.032280 WAIST:0.999561,0.000000,-0.029642,-0.000113 WAIST_JOINT0:0.999118,0.000000,-0.041247,0.007831 WAIST_JOINT1:0.997244,0.073328,0.000000,-0.011303 END:
KINECT_DATA_Sensor  AnkleLeft:0.068036,0.704724,-0.082880,-0.701332 AnkleRight:0.076979,0.698372,0.080327,0.707035 ElbowLeft:-0.018752,0.907942,-0.235830,-0.345940 ElbowRight:0.021350,0.802996,0.197228,0.561999 FootLeft:0.000000,0.000000,0.000000,0.000000 FootRight:0.000000,0.000000,0.000000,0.000000 HandLeft:-0.099125,0.855846,0.000228,0.507644 HandRight:0.275447,-0.275898,-0.384062,0.836962 HandTipLeft:0.000000,0.000000,0.000000,0.000000 HandTipRight:0.000000,0.000000,0.000000,0.000000 Head:0.000000,0.000000,0.000000,0.000000 HipLeft:0.135947,-0.674784,0.700435,-0.188614 HipRight:-0.095964,0.682036,0.707435,-0.158598 KneeLeft:-0.017257,0.727256,-0.049121,-0.684389 KneeRight:-0.022310,0.685961,0.035667,0.726421 Neck:0.039976,-0.010690,0.995044,-0.090418 ShoulderLeft:0.003067,0.776945,-0.622895,0.091376 ShoulderRight:0.055385,0.785412,0.615895,-0.027089 SpineBase:0.029207,-0.007231,0.998415,-0.047559 SpineMid:0.034546,-0.007485,0.998245,-0.047520 SpineShoulder:0.039934,-0.009780,0.996833,-0.068074 ThumbLeft:0.000000,0.000000,0.000000,0.000000 ThumbRight:0.000000,0.000000,0.000000,0.000000 WristLeft:-0.076086,0.861610,-0.076723,0.495937 WristRight:0.126355,-0.336920,-0.260194,0.896001 END:
KINECT_DATA POSITION:23.193363,-0.722951,-14.213109 HEAD_JOINT1:0.974863,0.184349,-0.000000,0.125130 LARM_JOINT2:0.850740,0.000000,0.017193,-0.525305 LARM_JOINT3:0.963036,0.000000,-0.180409,-0.200033 LLEG_JOINT2:0.998799,0.027141,0.000000,0.040787 LLEG_JOINT4:0.996120,0.080848,0.000000,-0.034761 RARM_JOINT2:0.805960,0.000000,-0.073079,0.587442 RARM_JOINT3:0.857641,0.000000,0.417277,0.300553 RLEG_JOINT2:0.998873,0.010153,0.000000,-0.046365 RLEG_JOINT4:0.994216,0.101286,0.000000,0.035723 WAIST:0.999536,0.000000,-0.030448,0.001036 WAIST_JOINT0:0.999301,0.000000,-0.036360,0.008693 WAIST_JOINT1:0.997410,0.071194,0.000000,-0.010268 END:
KINECT_DATA_Sensor  AnkleLeft:0.069122,0.723496,-0.083030,-0.681823 AnkleRight:0.077594,0.703263,0.080345,0.702101 ElbowLeft:-0.018539,0.907310,-0.235217,-0.348019 ElbowRight:0.023112,0.797122,0.204983,0.567489 FootLeft:0.000000,0.000000,0.000000,0.000000 FootRight:0.000000,0.000000,0.000000,0.000000 HandLeft:-0.087629,0.865247,-0.000016,0.493627 HandRight:0.293400,-0.048512,-0.281457,0.912329 HandTipLeft:0.000000,0.000000,0.000000,0.000000 HandTipRight:0.000000,0.000000,0.000000,0.000000 Head:0.000000,0.000000,0.000000,0.000000 HipLeft:0.136791,-0.674064,0.700977,-0.188566 HipRight:-0.096280,0.683247,0.706602,-0.156901 KneeLeft:-0.011800,0.727932,-0.048457,-0.683833 KneeRight:-0.023603,0.685286,0.040018,0.726790 Neck:0.035432,-0.008263,0.995438,-0.088202 ShoulderLeft:0.003223,0.777526,-0.622711,0.087606 ShoulderRight:0.049514,0.785948,0.615546,-0.030607 SpineBase:0.029993,-0.005626,0.998457,-0.046399 SpineMid:0.032706,-0.005752,0.998372,-0.046384 SpineShoulder:0.035450,-0.007162,0.997163,-0.066020 ThumbLeft:0.000000,0.000000,0.000000,0.000000 ThumbRight:0.000000,0.000000,0.000000,0.000000 WristLeft:-0.077425,0.868756,-0.075798,0.483243 WristRight:0.077747,-0.113756,-0.320803,0.937070 END:
KINECT_DATA POSITION:23.253649,-0.704749,-14.130211 HEAD_JOINT1:0.974844,0.185005,-0.000000,0.124309 LARM_JOINT2:0.850433,0.000000,0.017368,-0.525797 LARM_JOINT3:0.963143,0.000000,-0.178967,-0.200815 LLEG_JOINT2:0.998796,0.027915,0.000000,0.040346 LLEG_JOINT4:0.996140,0.080588,0.000000,-0.034802 RARM_JOINT2:0.805796,0.000000,-0.081342,0.586580 RARM_JOINT3:0.841259,0.000000,0.447751,0.302989 RLEG_JOINT2:0.998863,0.009891,0.000000,-0.046635 RLEG_JOINT4:0.994099,0.102668,0.000000,0.035015 WAIST:0.999553,0.000000,-0.029899,0.000750 WAIST_JOINT0:0.999431,0.000000,-0.032514,0.009020 WAIST_JOINT1:0.997438,0.070868,0.000000,-0.009756 END:
KINECT_DATA_Sensor  AnkleLeft:0.068788,0.712552,-0.083899,-0.693181 AnkleRight:0.078547,0.711941,0.081114,0.693102 ElbowLeft:-0.018179,0.907529,-0.234862,-0.347708 ElbowRight:0.027006,0.792305,0.208292,0.572833 FootLeft:0.000000,0.000000,0.000000,0.000000 FootRight:0.000000,0.000000,0.000000,0.000000 HandLeft:-0.084780,0.856098,0.001616,0.509810 HandRight:0.346691,-0.226056,-0.269130,0.869639 HandTipLeft:0.000000,0.000000,0.000000,0.000000 HandTipRight:0.000000,0.000000,0.000000,0.000000 Head:0.000000,0.000000,0.000000,0.000000 HipLeft:0.136628,-0.674295,0.700845,-0.188351 HipRight:-0.096677,0.682948,0.706749,-0.157294 KneeLeft:-0.010718,0.727592,-0.048522,-0.684208 KneeRight:-0.024204,0.685659,0.040224,0.726408 Neck:0.031895,-0.007625,0.995614,-0.087621 ShoulderLeft:0.003775,0.777803,-0.622596,0.085918 ShoulderRight:0.045455,0.785726,0.615932,-0.034586 SpineBase:0.029461,-0.005830,0.998472,-0.046387 SpineMid:0.030654,-0.005885,0.998436,-0.046380 SpineShoulder:0.031884,-0.006845,0.997301,-0.065782 ThumbLeft:0.000000,0.000000,0.000000,0.000000 ThumbRight:0.000000,0.000000,0.000000,0.000000 WristLeft:-0.076081,0.859750,-0.076600,0.499173 WristRight:0.147364,-0.286247,-0.317258,0.892017 END:
KINECT_DATA POSITION:23.299187,-0.691629,-14.048779 HEAD_JOINT1:0.974776,0.185428,-0.000000,0.124211 LARM_JOINT2:0.850180,0.000000,0.017838,-0.526190 LARM_JOINT3:0.962539,0.000000,-0.183842,-0.199301 LLEG_JOINT2:0.998795,0.028856,0.000000,0.039687 LLEG_JOINT4:0.996106,0.081485,0.000000,-0.033654 RARM_JOINT2:0.805883,0.000000,-0.076616,0.587097 RARM_JOINT3:0.814221,0.000000,0.499278,0.296253 RLEG_JOINT2:0.998807,0.011415,0.000000,-0.047477 RLEG_JOINT4:0.994149,0.101619,0.000000,0.036615 WAIST:0.999550,0.000000,-0.029985,0.000728 WAIST_JOINT0:0.999501,0.000000,-0.030271,0.009008 WAIST_JOINT1:0.997432,0.070968,0.000000,-0.009643 END:
KINECT_DATA_Sensor  AnkleLeft:0.071242,0.725130,-0.084271,-0.679713 AnkleRight:0.078079,0.700591,0.082108,0.704510 ElbowLeft:-0.017492,0.907723,-0.234743,-0.347316 ElbowRight:0.021959,0.787344,0.206474,0.580496 FootLeft:0.000000,0.000000,0.000000,0.000000 FootRight:0.000000,0.000000,0.000000,0.000000 HandLeft:-0.098092,0.858837,-0.010500,0.502660 HandRight:0.343178,-0.249214,-0.342472,0.838352 HandTipLeft:0.000000,0.000000,0.000000,0.000000 HandTipRight:0.000000,0.000000,0.000000,0.000000 Head:0.000000,0.000000,0.000000,0.000000 HipLeft:0.136667,-0.674247,0.700799,-0.188666 HipRight:-0.096572,0.682905,0.706752,-0.157528 KneeLeft:-0.009581,0.727671,-0.048739,-0.684125 KneeRight:-0.023679,0.685604,0.041901,0.726382 Neck:0.029864,-0.007251,0.995685,-0.087559 ShoulderLeft:0.003710,0.777993,-0.622403,0.085604 ShoulderRight:0.042748,0.785519,0.616217,-0.037532 SpineBase:0.029544,-0.005879,0.998458,-0.046632 SpineMid:0.029676,-0.005885,0.998454,-0.046631 SpineShoulder:0.029840,-0.006632,0.997355,-0.065951 ThumbLeft:0.000000,0.000000,0.000000,0.000000 ThumbRight:0.000000,0.000000,0.000000,0.000000 WristLeft:-0.076806,0.863282,-0.075141,0.493152 WristRight:0.183213,-0.311985,-0.348636,0.864611 END:
KINECT_DATA POSITION:23.336214,-0.701018,-13.976598 HEAD_JOINT1:0.974899,0.185989,-0.000000,0.122396 LARM_JOINT2:0.850264,0.000000,0.018221,-0.526041 LARM_JOINT3:0.962848,0.000000,-0.182309,-0.199218 LLEG_JOINT2:0.998819,0.029490,0.000000,0.038618 LLEG_JOINT4:0.996231,0.080205,0.000000,-0.033042 RARM_JOINT2:0.805495,0.000000,-0.065578,0.588964 RARM_JOINT3:0.818049,0.000000,0.489804,0.301477 RLEG_JOINT2:0.998730,0.013038,0.000000,-0.048667 RLEG_JOINT4:0.994122,0.101246,0.000000,0.038346 WAIST:0.999596,0.000000,-0.028399,0.001291 WAIST_JOINT0:0.999542,0.000000,-0.028871,0.009085 WAIST_JOINT1:0.997438,0.070902,0.000000,-0.009547 END:
KINECT_DATA_Sensor  AnkleLeft:0.070617,0.722167,-0.083985,-0.682960 AnkleRight:0.078265,0.689968,0.083521,0.714732 ElbowLeft:-0.017648,0.906293,-0.235584,-0.350460 ElbowRight:0.016881,0.795304,0.200182,0.571956 FootLeft:0.000000,0.000000,0.000000,0.000000 FootRight:0.000000,0.000000,0.000000,0.000000 HandLeft:-0.081532,0.707754,-0.030670,0.701068 HandRight:0.389123,-0.393943,-0.239061,0.797648 HandTipLeft:0.000000,0.000000,0.000000,0.000000 HandTipRight:0.000000,0.000000,0.000000,0.000000 Head:0.000000,0.000000,0.000000,0.000000 HipLeft:0.136091,-0.674045,0.701257,-0.188099 HipRight:-0.098066,0.683039,0.706147,-0.158736 KneeLeft:-0.008689,0.726577,-0.048876,-0.685290 KneeRight:-0.022981,0.686778,0.043445,0.725203 Neck:0.028544,-0.006658,0.995737,-0.087460 ShoulderLeft:0.003632,0.777929,-0.622536,0.085216 ShoulderRight:0.040941,0.785546,0.616199,-0.039247 SpineBase:0.027932,-0.005442,0.998511,-0.046544 SpineMid:0.028209,-0.005455,0.998503,-0.046542 SpineShoulder:0.028520,-0.006134,0.997402,-0.065873 ThumbLeft:0.000000,0.000000,0.000000,0.000000 ThumbRight:0.000000,0.000000,0.000000,0.000000 WristLeft:-0.056651,0.714186,-0.093173,0.691410 WristRight:0.257488,-0.443446,-0.317111,0.797807 END:
KINECT_DATA POSITION:23.390097,-0.718587,-13.900137 HEAD_JOINT1:0.975320,0.186691,-0.000000,0.117887 LARM_JOINT2:0.850089,0.000000,0.020445,-0.526243 LARM_JOINT3:0.963725,0.000000,-0.176227,-0.200443 LLEG_JOINT2:0.998770,0.031352,0.000000,0.038421 LLEG_JOINT4:0.996497,0.076383,0.000000,-0.034053 RARM_JOINT2:0.808450,0.000000,-0.053556,0.586123 RARM_JOINT3:0.813136,0.000000,0.494717,0.306700 RLEG_JOINT2:0.998682,0.014443,0.000000,-0.049246 RLEG_JOINT4:0.994549,0.097386,0.000000,0.037250 WAIST:0.999681,0.000000,-0.025219,0.001278 WAIST_JOINT0:0.999633,0.000000,-0.024992,0.010414 WAIST_JOINT1:0.997460,0.070708,0.000000,-0.008587 END:
KINECT_DATA_Sensor  AnkleLeft:0.069192,0.710051,-0.082534,-0.695865 AnkleRight:0.076877,0.708242,0.081661,0.697004 ElbowLeft:-0.016967,0.902794,-0.236837,-0.358584 ElbowRight:0.007024,0.801109,0.198095,0.564742 FootLeft:0.000000,0.000000,0.000000,0.000000 FootRight:0.000000,0.000000,0.000000,0.000000 HandLeft:-0.056518,0.833317,0.002231,0.549894 HandRight:0.416911,-0.374454,-0.236466,0.793759 HandTipLeft:0.000000,0.000000,0.000000,0.000000 HandTipRight:0.000000,0.000000,0.000000,0.000000 Head:0.000000,0.000000,0.000000,0.000000 HipLeft:0.134952,-0.674331,0.701550,-0.186797 HipRight:-0.101190,0.682540,0.705768,-0.160598 KneeLeft:-0.007094,0.724449,-0.050105,-0.687469 KneeRight:-0.022512,0.689038,0.044765,0.722991 Neck:0.024493,-0.005768,0.995862,-0.087320 ShoulderLeft:0.005472,0.777490,-0.623453,0.082379 ShoulderRight:0.037564,0.786923,0.614435,-0.042556 SpineBase:0.024808,-0.004627,0.998621,-0.046030 SpineMid:0.024631,-0.004619,0.998626,-0.046031 SpineShoulder:0.024463,-0.005392,0.997531,-0.065605 ThumbLeft:0.000000,0.000000,0.000000,0.000000 ThumbRight:0.000000,0.000000,0.000000,0.000000 WristLeft:-0.074835,0.833866,-0.082721,0.540578 WristRight:0.264585,-0.432134,-0.322544,0.799512 END:
KINECT_DATA POSITION:23.416122,-0.733493,-13.860846 HEAD_JOINT1:0.975696,0.187067,-0.000000,0.114122 LARM_JOINT2:0.848934,0.000000,0.021178,-0.528074 LARM_JOINT3:0.963965,0.000000,-0.174240,-0.201028 LLEG_JOINT2:0.998758,0.032415,0.000000,0.037842 LLEG_JOINT4:0.996554,0.076625,0.000000,-0.031767 RARM_JOINT2:0.809335,0.000000,-0.050177,0.585200 RARM_JOINT3:0.808347,0.000000,0.500446,0.310047 RLEG_JOINT2:0.998631,0.015308,0.000000,-0.050017 RLEG_JOINT4:0.994434,0.098527,0.000000,0.037316 WAIST:0.999736,0.000000,-0.022936,0.001445 WAIST_JOINT0:0.999696,0.000000,-0.021892,0.011369 WAIST_JOINT1:0.997482,0.070467,0.000000,-0.008045 END:
KINECT_DATA_Sensor  AnkleLeft:0.070394,0.720676,-0.083369,-0.684632 AnkleRight:0.078137,0.712084,0.083272,0.692745 ElbowLeft:-0.015789,0.901627,-0.235735,-0.362282 ElbowRight:0.004938,0.806236,0.197114,0.557768 FootLeft:0.000000,0.000000,0.000000,0.000000 FootRight:0.000000,0.000000,0.000000,0.000000 HandLeft:-0.059868,0.827678,0.010785,0.557897 HandRight:0.477496,-0.694790,-0.021666,0.537396 HandTipLeft:0.000000,0.000000,0.000000,0.000000 HandTipRight:0.000000,0.000000,0.000000,0.000000 Head:0.000000,0.000000,0.000000,0.000000 HipLeft:0.133866,-0.674522,0.701895,-0.185589 HipRight:-0.103061,0.682384,0.705394,-0.161708 KneeLeft:-0.005944,0.722896,-0.050605,-0.689076 KneeRight:-0.022403,0.690668,0.045748,0.721375 Neck:0.021284,-0.004987,0.995970,-0.086985 ShoulderLeft:0.007706,0.777138,-0.624239,0.079516 ShoulderRight:0.035652,0.787688,0.613420,-0.044625 SpineBase:0.022544,-0.004110,0.998693,-0.045689 SpineMid:0.021894,-0.004080,0.998707,-0.045691 SpineShoulder:0.021239,-0.004841,0.997624,-0.065363 ThumbLeft:0.000000,0.000000,0.000000,0.000000 ThumbRight:0.000000,0.000000,0.000000,0.000000 WristLeft:-0.071326,0.830156,-0.083880,0.546551 WristRight:-0.410031,0.778445,0.131443,-0.456749 END:
KINECT_DATA POSITION:23.426531,-0.742678,-13.843536 HEAD_JOINT1:0.975893,0.187738,-0.000000,0.111298 LARM_JOINT2:0.847885,0.000000,0.020614,-0.529780 LARM_JOINT3:0.963373,0.000000,-0.177202,-0.201275 LLEG_JOINT2:0.998781,0.031680,0.000000,0.037845 LLEG_JOINT4:0.996681,0.074831,0.000000,-0.032065 RARM_JOINT2:0.805936,0.000000,-0.050263,0.589866 RARM_JOINT3:0.802579,0.000000,0.500304,0.324906 RLEG_JOINT2:0.998576,0.016451,0.000000,-0.050751 RLEG_JOINT4:0.994346,0.099291,0.000000,0.037647 WAIST:0.999764,0.000000,-0.021670,0.001712 WAIST_JOINT0:0.999753,0.000000,-0.018946,0.011597 WAIST_JOINT1:0.997515,0.069988,0.000000,-0.008060 END:
KINECT_DATA_Sensor  AnkleLeft:0.068675,0.719285,-0.081533,-0.686487 AnkleRight:0.079776,0.716041,0.084340,0.688337 ElbowLeft:-0.015207,0.902144,-0.233857,-0.362237 ElbowRight:0.008363,0.810223,0.191804,0.553787 FootLeft:0.000000,0.000000,0.000000,0.000000 FootRight:0.000000,0.000000,0.000000,0.000000 HandLeft:-0.079573,0.817692,0.006322,0.570094 HandRight:0.442037,-0.377553,-0.195731,0.789776 HandTipLeft:0.000000,0.000000,0.000000,0.000000 HandTipRight:0.000000,0.000000,0.000000,0.000000 Head:0.000000,0.000000,0.000000,0.000000 HipLeft:0.133511,-0.674560,0.702089,-0.184972 HipRight:-0.104284,0.682419,0.704983,-0.162567 KneeLeft:-0.006582,0.722002,-0.050272,-0.690031 KneeRight:-0.021953,0.691598,0.046852,0.720428 Neck:0.018489,-0.004670,0.996090,-0.086260 ShoulderLeft:0.009557,0.777156,-0.624523,0.076866 ShoulderRight:0.033883,0.787245,0.613955,-0.046441 SpineBase:0.021266,-0.003977,0.998733,-0.045446 SpineMid:0.019859,-0.003913,0.998761,-0.045452 SpineShoulder:0.018437,-0.004603,0.997707,-0.064963 ThumbLeft:0.000000,0.000000,0.000000,0.000000 ThumbRight:0.000000,0.000000,0.000000,0.000000 WristLeft:-0.068923,0.823301,-0.083897,0.557123 WristRight:0.306798,-0.438052,-0.321721,0.781333 END:
KINECT_DATA POSITION:23.456167,-0.756145,-13.821327 HEAD_JOINT1:0.976096,0.188535,-0.000000,0.108128 LARM_JOINT2:0.846596,0.000000,0.019730,-0.531870 LARM_JOINT3:0.964678,0.000000,-0.175515,-0.196443 LLEG_JOINT2:0.998805,0.031880,0.000000,0.037058 LLEG_JOINT4:0.996752,0.074485,0.000000,-0.030623 RARM_JOINT2:0.804510,0.000000,-0.047716,0.592019 RARM_JOINT3:0.808445,0.000000,0.484322,0.334438 RLEG_JOINT2:0.998525,0.017630,0.000000,-0.051347 RLEG_JOINT4:0.994567,0.096593,0.000000,0.038819 WAIST:0.999796,0.000000,-0.020110,0.002097 WAIST_JOINT0:0.999786,0.000000,-0.017058,0.011739 WAIST_JOINT1:0.997568,0.069236,0.000000,-0.008018 END:
KINECT_DATA_Sensor  AnkleLeft:0.067974,0.718390,-0.082039,-0.687433 AnkleRight:0.078386,0.711142,0.083455,0.693663 ElbowLeft:-0.015478,0.901773,-0.231486,-0.364665 ElbowRight:0.009603,0.818732,0.187808,0.542507 FootLeft:0.000000,0.000000,0.000000,0.000000 FootRight:0.000000,0.000000,0.000000,0.000000 HandLeft:-0.072335,0.797033,-0.005051,0.599567 HandRight:0.392275,-0.227356,-0.214966,0.864997 HandTipLeft:0.000000,0.000000,0.000000,0.000000 HandTipRight:0.000000,0.000000,0.000000,0.000000 Head:0.000000,0.000000,0.000000,0.000000 HipLeft:0.133039,-0.674595,0.702402,-0.183993 HipRight:-0.105791,0.682544,0.704467,-0.163304 KneeLeft:-0.006071,0.720917,-0.050150,-0.691178 KneeRight:-0.021314,0.692740,0.047790,0.719286 Neck:0.016443,-0.004258,0.996213,-0.085266 ShoulderLeft:0.011693,0.776555,-0.625592,0.073895 ShoulderRight:0.033391,0.787216,0.614002,-0.046662 SpineBase:0.019695,-0.003663,0.998789,-0.044945 SpineMid:0.018051,-0.003589,0.998820,-0.044951 SpineShoulder:0.016383,-0.004297,0.997788,-0.064277 ThumbLeft:0.000000,0.000000,0.000000,0.000000 ThumbRight:0.000000,0.000000,0.000000,0.000000 WristLeft:-0.065503,0.801322,-0.086703,0.588282 WristRight:0.261138,-0.289039,-0.366361,0.845011 END:
KINECT_DATA POSITION:23.507126,-0.788208,-13.778580 HEAD_JOINT1:0.975925,0.190700,-0.000000,0.105849 LARM_JOINT2:0.846240,0.000000,0.020790,-0.532396 LARM_JOINT3:0.964630,0.000000,-0.175956,-0.196288 LLEG_JOINT2:0.998845,0.031741,0.000000,0.036084 LLEG_JOINT4:0.996710,0.074625,0.000000,-0.031642 RARM_JOINT2:0.804471,0.000000,-0.041360,0.592551 RARM_JOINT3:0.813424,0.000000,0.481410,0.326474 RLEG_JOINT2:0.998416,0.019826,0.000000,-0.052644 RLEG_JOINT4:0.994685,0.095140,0.000000,0.039368 WAIST:0.999838,0.000000,-0.017704,0.003150 WAIST_JOINT0:0.999794,0.000000,-0.015717,0.012833 WAIST_JOINT1:0.997610,0.068550,0.000000,-0.008691 END:
KINECT_DATA_Sensor  AnkleLeft:0.068944,0.717452,-0.081148,-0.688422 AnkleRight:0.076715,0.694404,0.085956,0.710302 ElbowLeft:-0.014926,0.900235,-0.231372,-0.368539 ElbowRight:0.005071,0.822439,0.184339,0.538134 FootLeft:0.000000,0.000000,0.000000,0.000000 FootRight:0.000000,0.000000,0.000000,0.000000 HandLeft:-0.071160,0.880487,0.005088,0.468672 HandRight:0.347150,-0.117988,-0.259613,0.893402 HandTipLeft:0.000000,0.000000,0.000000,0.000000 HandTipRight:0.000000,0.000000,0.000000,0.000000 Head:0.000000,0.000000,0.000000,0.000000 HipLeft:0.132456,-0.674290,0.703204,-0.182462 HipRight:-0.107932,0.682948,0.703443,-0.164625 KneeLeft:-0.006097,0.719197,-0.050128,-0.692968 KneeRight:-0.020002,0.694547,0.049451,0.717467 Neck:0.014782,-0.004237,0.996303,-0.084520 ShoulderLeft:0.012292,0.776480,-0.625879,0.072132 ShoulderRight:0.031903,0.789148,0.611554,-0.047220 SpineBase:0.017221,-0.003440,0.998865,-0.044276 SpineMid:0.015989,-0.003385,0.998885,-0.044281 SpineShoulder:0.014737,-0.004119,0.997858,-0.063599 ThumbLeft:0.000000,0.000000,0.000000,0.000000 ThumbRight:0.000000,0.000000,0.000000,0.000000 WristLeft:-0.078506,0.881525,-0.076266,0.459276 WristRight:0.216163,-0.178306,-0.395211,0.874808 END:
KINECT_DATA POSITION:23.577465,-0.805975,-13.720965 HEAD_JOINT1:0.975731,0.193055,-0.000000,0.103343 LARM_JOINT2:0.845738,0.000000,0.020955,-0.533187 LARM_JOINT3:0.964195,0.000000,-0.178625,-0.196012 LLEG_JOINT2:0.998876,0.030914,0.000000,0.035931 LLEG_JOINT4:0.996501,0.077056,0.000000,-0.032383 RARM_JOINT2:0.799307,0.000000,-0.038191,0.599708 RARM_JOINT3:0.819771,0.000000,0.479284,0.313469 RLEG_JOINT2:0.998340,0.021072,0.000000,-0.053608 RLEG_JOINT4:0.994959,0.092296,0.000000,0.039209 WAIST:0.999875,0.000000,-0.015367,0.003666 WAIST_JOINT0:0.999825,0.000000,-0.013309,0.013177 WAIST_JOINT1:0.997636,0.068203,0.000000,-0.008352 END:
KINECT_DATA_Sensor  AnkleLeft:0.070516,0.715486,-0.081868,-0.690221 AnkleRight:0.075443,0.700519,0.085032,0.704522 ElbowLeft:-0.014704,0.899040,-0.231244,-0.371534 ElbowRight:0.005764,0.821025,0.174809,0.543439 FootLeft:0.000000,0.000000,0.000000,0.000000 FootRight:0.000000,0.000000,0.000000,0.000000 HandLeft:-0.079168,0.791847,-0.012317,0.605441 HandRight:0.377411,-0.267428,-0.199197,0.863923 HandTipLeft:0.000000,0.000000,0.000000,0.000000 HandTipRight:0.000000,0.000000,0.000000,0.000000 Head:0.000000,0.000000,0.000000,0.000000 HipLeft:0.131350,-0.674267,0.703805,-0.181023 HipRight:-0.109764,0.683055,0.702856,-0.165475 KneeLeft:-0.006816,0.717553,-0.049802,-0.694688 KneeRight:-0.019530,0.696233,0.050594,0.715764 Neck:0.012525,-0.003646,0.996354,-0.084317 ShoulderLeft:0.012863,0.776193,-0.626397,0.070610 ShoulderRight:0.029543,0.788727,0.612052,-0.049286 SpineBase:0.014883,-0.002745,0.998927,-0.043764 SpineMid:0.013704,-0.002694,0.998944,-0.043768 SpineShoulder:0.012498,-0.003412,0.997918,-0.063174 ThumbLeft:0.000000,0.000000,0.000000,0.000000 ThumbRight:0.000000,0.000000,0.000000,0.000000 WristLeft:-0.065109,0.796714,-0.088622,0.594268 WristRight:0.276414,-0.322223,-0.354816,0.832991 END:
KINECT_DATA POSITION:23.607172,-0.812322,-13.680387 HEAD_JOINT1:0.975552,0.194627,-0.000000,0.102069 LARM_JOINT2:0.845418,0.000000,0.021174,-0.533686 LARM_JOINT3:0.964127,0.000000,-0.178975,-0.196027 LLEG_JOINT2:0.998866,0.032118,0.000000,0.035148 LLEG_JOINT4:0.996958,0.071674,0.000000,-0.030635 RARM_JOINT2:0.798576,0.000000,-0.034797,0.600887 RARM_JOINT3:0.823562,0.000000,0.478219,0.305045 RLEG_JOINT2:0.998286,0.020874,0.000000,-0.054673 RLEG_JOINT4:0.994718,0.094688,0.000000,0.039638 WAIST:0.999884,0.000000,-0.014756,0.003896 WAIST_JOINT0:0.999838,0.000000,-0.012195,0.013243 WAIST_JOINT1:0.997643,0.068134,0.000000,-0.008082 END:
KINECT_DATA_Sensor  AnkleLeft:0.066816,0.715839,-0.079682,-0.690479 AnkleRight:0.077940,0.710545,0.085761,0.694043 ElbowLeft:-0.014455,0.898714,-0.231217,-0.372347 ElbowRight:0.004374,0.822357,0.171859,0.542379 FootLeft:0.000000,0.000000,0.000000,0.000000 FootRight:0.000000,0.000000,0.000000,0.000000 HandLeft:-0.081140,0.833377,-0.006541,0.546677 HandRight:0.307837,-0.055790,-0.285714,0.905810 HandTipLeft:0.000000,0.000000,0.000000,0.000000 HandTipRight:0.000000,0.000000,0.000000,0.000000 Head:0.000000,0.000000,0.000000,0.000000 HipLeft:0.130851,-0.674181,0.704102,-0.180552 HipRight:-0.110047,0.683145,0.702709,-0.165537 KneeLeft:-0.005546,0.717134,-0.050284,-0.695096 KneeRight:-0.020284,0.696654,0.051046,0.715301 Neck:0.011447,-0.003087,0.996368,-0.084328 ShoulderLeft:0.013391,0.775845,-0.626905,0.069824 ShoulderRight:0.028657,0.788430,0.612400,-0.050229 SpineBase:0.014266,-0.002448,0.998940,-0.043689 SpineMid:0.012857,-0.002387,0.998959,-0.043692 SpineShoulder:0.011420,-0.002949,0.997940,-0.063068 ThumbLeft:0.000000,0.000000,0.000000,0.000000 ThumbRight:0.000000,0.000000,0.000000,0.000000 WristLeft:-0.071111,0.837125,-0.083826,0.535853 WristRight:0.183495,-0.113325,-0.408566,0.886882 END:
KINECT_DATA POSITION:23.617289,-0.825398,-13.644290 HEAD_JOINT1:0.975730,0.194044,-0.000000,0.101475 LARM_JOINT2:0.845570,0.000000,0.021083,-0.533449 LARM_JOINT3:0.963591,0.000000,-0.181742,-0.196120 LLEG_JOINT2:0.998877,0.032582,0.000000,0.034395 LLEG_JOINT4:0.996842,0.073627,0.000000,-0.029747 RARM_JOINT2:0.799199,0.000000,-0.031920,0.600218 RARM_JOINT3:0.825966,0.000000,0.475844,0.302245 RLEG_JOINT2:0.998256,0.021348,0.000000,-0.055038 RLEG_JOINT4:0.994614,0.094933,0.000000,0.041592 WAIST:0.999890,0.000000,-0.014236,0.004101 WAIST_JOINT0:0.999842,0.000000,-0.011959,0.013177 WAIST_JOINT1:0.997629,0.068381,0.000000,-0.007730 END:
KINECT_DATA_Sensor  AnkleLeft:0.069463,0.725014,-0.080620,-0.680464 AnkleRight:0.079044,0.705984,0.085504,0.698590 ElbowLeft:-0.014412,0.898550,-0.232042,-0.372231 ElbowRight:0.002400,0.823140,0.171150,0.541427 FootLeft:0.000000,0.000000,0.000000,0.000000 FootRight:0.000000,0.000000,0.000000,0.000000 HandLeft:-0.088077,0.820114,-0.015199,0.565177 HandRight:0.301547,-0.042682,-0.283260,0.909401 HandTipLeft:0.000000,0.000000,0.000000,0.000000 HandTipRight:0.000000,0.000000,0.000000,0.000000 Head:0.000000,0.000000,0.000000,0.000000 HipLeft:0.130261,-0.674061,0.704393,-0.180290 HipRight:-0.110141,0.683191,0.702602,-0.165740 KneeLeft:-0.004805,0.716770,-0.050238,-0.695481 KneeRight:-0.020079,0.697036,0.051482,0.714903 Neck:0.011229,-0.002464,0.996346,-0.084634 ShoulderLeft:0.013331,0.775616,-0.627159,0.070091 ShoulderRight:0.028280,0.788280,0.612557,-0.050873 SpineBase:0.013740,-0.002182,0.998941,-0.043861 SpineMid:0.012477,-0.002127,0.998957,-0.043864 SpineShoulder:0.011198,-0.002482,0.997930,-0.063280 ThumbLeft:0.000000,0.000000,0.000000,0.000000 ThumbRight:0.000000,0.000000,0.000000,0.000000 WristLeft:-0.069066,0.824794,-0.085677,0.554621 WristRight:0.176998,-0.099974,-0.410365,0.888976 END:
KINECT_DATA POSITION:23.615602,-0.835047,-13.631212 HEAD_JOINT1:0.975677,0.193804,-0.000000,0.102438 LARM_JOINT2:0.846160,0.000000,0.021126,-0.532510 LARM_JOINT3:0.963785,0.000000,-0.181207,-0.195659 LLEG_JOINT2:0.998861,0.033517,0.000000,0.033949 LLEG_JOINT4:0.996888,0.072942,0.000000,-0.029882 RARM_JOINT2:0.798888,0.000000,-0.030205,0.600721 RARM_JOINT3:0.826873,0.000000,0.475186,0.300797 RLEG_JOINT2:0.998235,0.021510,0.000000,-0.055359 RLEG_JOINT4:0.994835,0.092996,0.000000,0.040676 WAIST:0.999879,0.000000,-0.014909,0.004356 WAIST_JOINT0:0.999836,0.000000,-0.012490,0.013143 WAIST_JOINT1:0.997614,0.068614,0.000000,-0.007589 END:
KINECT_DATA_Sensor  AnkleLeft:0.068502,0.714332,-0.081736,-0.691633 AnkleRight:0.076975,0.704435,0.085129,0.700428 ElbowLeft:-0.014949,0.898498,-0.233470,-0.371442 ElbowRight:0.002419,0.824245,0.169759,0.540182 FootLeft:0.000000,0.000000,0.000000,0.000000 FootRight:0.000000,0.000000,0.000000,0.000000 HandLeft:-0.081277,0.830151,-0.015448,0.551367 HandRight:0.304902,-0.069155,-0.281016,0.907349 HandTipLeft:0.000000,0.000000,0.000000,0.000000 HandTipRight:0.000000,0.000000,0.000000,0.000000 Head:0.000000,0.000000,0.000000,0.000000 HipLeft:0.130516,-0.673748,0.704525,-0.180759 HipRight:-0.109656,0.683412,0.702534,-0.165436 KneeLeft:-0.004043,0.717230,-0.050776,-0.694973 KneeRight:-0.019969,0.696570,0.051660,0.715348 Neck:0.011838,-0.001941,0.996318,-0.084897 ShoulderLeft:0.012877,0.775650,-0.627038,0.070877 ShoulderRight:0.028571,0.788128,0.612749,-0.050765 SpineBase:0.014394,-0.001990,0.998925,-0.044025 SpineMid:0.013105,-0.001933,0.998942,-0.044027 SpineShoulder:0.011809,-0.002058,0.997910,-0.063504 ThumbLeft:0.000000,0.000000,0.000000,0.000000 ThumbRight:0.000000,0.000000,0.000000,0.000000 WristLeft:-0.070820,0.833297,-0.085241,0.541604 WristRight:0.189176,-0.124169,-0.403768,0.886434 END:
KINECT_DATA POSITION:23.611519,-0.840657,-13.611221 HEAD_JOINT1:0.975536,0.193756,-0.000000,0.103866 LARM_JOINT2:0.846777,0.000000,0.021026,-0.531532 LARM_JOINT3:0.963265,0.000000,-0.180280,-0.199046 LLEG_JOINT2:0.998868,0.033944,0.000000,0.033318 LLEG_JOINT4:0.997042,0.071594,0.000000,-0.027959 RARM_JOINT2:0.798210,0.000000,-0.029720,0.601645 RARM_JOINT3:0.828335,0.000000,0.471583,0.302442 RLEG_JOINT2:0.998217,0.022190,0.000000,-0.055417 RLEG_JOINT4:0.994607,0.095499,0.000000,0.040459 WAIST:0.999874,0.000000,-0.015217,0.004609 WAIST_JOINT0:0.999826,0.000000,-0.013080,0.013292 WAIST_JOINT1:0.997615,0.068616,0.000000,-0.007498 END:
KINECT_DATA_Sensor  AnkleLeft:0.066937,0.716396,-0.082027,-0.689614 AnkleRight:0.078630,0.698305,0.087897,0.706018 ElbowLeft:-0.015422,0.898790,-0.234779,-0.369888 ElbowRight:0.002847,0.824069,0.168317,0.540900 FootLeft:0.000000,0.000000,0.000000,0.000000 FootRight:0.000000,0.000000,0.000000,0.000000 HandLeft:-0.082725,0.865399,-0.000911,0.494206 HandRight:0.358698,-0.250642,-0.196076,0.877535 HandTipLeft:0.000000,0.000000,0.000000,0.000000 HandTipRight:0.000000,0.000000,0.000000,0.000000 Head:0.000000,0.000000,0.000000,0.000000 HipLeft:0.130640,-0.673521,0.704679,-0.180917 HipRight:-0.109428,0.683631,0.702419,-0.165173 KneeLeft:-0.003486,0.717435,-0.050821,-0.694760 KneeRight:-0.019323,0.696375,0.052004,0.715531 Neck:0.012474,-0.001574,0.996311,-0.084887 ShoulderLeft:0.012606,0.775375,-0.627337,0.071296 ShoulderRight:0.029103,0.787871,0.613098,-0.050224 SpineBase:0.014689,-0.001785,0.998921,-0.044028 SpineMid:0.013569,-0.001736,0.998937,-0.044030 SpineShoulder:0.012451,-0.001726,0.997902,-0.063509 ThumbLeft:0.000000,0.000000,0.000000,0.000000 ThumbRight:0.000000,0.000000,0.000000,0.000000 WristLeft:-0.076394,0.868304,-0.080648,0.483433 WristRight:0.268037,-0.303037,-0.356756,0.842051 END:
KINECT_DATA POSITION:23.608040,-0.833488,-13.604725 HEAD_JOINT1:0.975487,0.193574,-0.000000,0.104663 LARM_JOINT2:0.846798,0.000000,0.021846,-0.531465 LARM_JOINT3:0.963535,0.000000,-0.178541,-0.199308 LLEG_JOINT2:0.998931,0.032878,0.000000,0.032492 LLEG_JOINT4:0.996870,0.073627,0.000000,-0.028801 RARM_JOINT2:0.796892,0.000000,-0.028908,0.603429 RARM_JOINT3:0.829691,0.000000,0.471921,0.298168 RLEG_JOINT2:0.998182,0.022376,0.000000,-0.055965 RLEG_JOINT4:0.994760,0.093396,0.000000,0.041602 WAIST:0.999863,0.000000,-0.015714,0.005220 WAIST_JOINT0:0.999824,0.000000,-0.013524,0.013041 WAIST_JOINT1:0.997619,0.068505,0.000000,-0.007940 END:
KINECT_DATA_Sensor  AnkleLeft:0.068531,0.718233,-0.081849,-0.687565 AnkleRight:0.078219,0.699104,0.085585,0.705557 ElbowLeft:-0.015381,0.898356,-0.235200,-0.370677 ElbowRight:0.003362,0.823607,0.165934,0.542335 FootLeft:0.000000,0.000000,0.000000,0.000000 FootRight:0.000000,0.000000,0.000000,0.000000 HandLeft:-0.074960,0.864130,0.003418,0.497643 HandRight:0.303031,-0.065102,-0.271280,0.911231 HandTipLeft:0.000000,0.000000,0.000000,0.000000 HandTipRight:0.000000,0.000000,0.000000,0.000000 Head:0.000000,0.000000,0.000000,0.000000 HipLeft:0.130928,-0.673012,0.705078,-0.181049 HipRight:-0.109072,0.684037,0.702140,-0.164914 KneeLeft:-0.004096,0.717739,-0.049913,-0.694509 KneeRight:-0.019110,0.696061,0.052107,0.715835 Neck:0.013014,-0.001342,0.996319,-0.084718 ShoulderLeft:0.012541,0.775315,-0.627398,0.071415 ShoulderRight:0.029707,0.787279,0.613881,-0.049600 SpineBase:0.015134,-0.001705,0.998914,-0.044026 SpineMid:0.014060,-0.001658,0.998930,-0.044028 SpineShoulder:0.012992,-0.001544,0.997900,-0.063430 ThumbLeft:0.000000,0.000000,0.000000,0.000000 ThumbRight:0.000000,0.000000,0.000000,0.000000 WristLeft:-0.076229,0.866333,-0.081295,0.486874 WristRight:0.187117,-0.120579,-0.405132,0.886745 END:
KINECT_DATA POSITION:23.605707,-0.834806,-13.610518 HEAD_JOINT1:0.975450,0.193649,-0.000000,0.104866 LARM_JOINT2:0.846775,0.000000,0.022273,-0.531484 LARM_JOINT3:0.963632,0.000000,-0.178275,-0.199077 LLEG_JOINT2:0.998923,0.033136,0.000000,0.032491 LLEG_JOINT4:0.996881,0.073652,0.000000,-0.028332 RARM_JOINT2:0.798403,0.000000,-0.028112,0.601467 RARM_JOINT3:0.828436,0.000000,0.473605,0.298984 RLEG_JOINT2:0.998168,0.023065,0.000000,-0.055932 RLEG_JOINT4:0.995005,0.091443,0.000000,0.040048 WAIST:0.999862,0.000000,-0.015775,0.005292 WAIST_JOINT0:0.999811,0.000000,-0.014060,0.013428 WAIST_JOINT1:0.997649,0.068085,0.000000,-0.007858 END:
KINECT_DATA_Sensor  AnkleLeft:0.068162,0.716751,-0.082581,-0.689059 AnkleRight:0.077807,0.711568,0.084427,0.693174 ElbowLeft:-0.015569,0.898175,-0.235281,-0.371054 ElbowRight:0.001373,0.823788,0.167356,0.541631 FootLeft:0.000000,0.000000,0.000000,0.000000 FootRight:0.000000,0.000000,0.000000,0.000000 HandLeft:-0.073703,0.858759,0.002132,0.507046 HandRight:0.316326,-0.097763,-0.267766,0.904810 HandTipLeft:0.000000,0.000000,0.000000,0.000000 HandTipRight:0.000000,0.000000,0.000000,0.000000 Head:0.000000,0.000000,0.000000,0.000000 HipLeft:0.130964,-0.673003,0.705097,-0.180977 HipRight:-0.109072,0.684148,0.702074,-0.164734 KneeLeft:-0.003968,0.717781,-0.050147,-0.694450 KneeRight:-0.018536,0.696031,0.052513,0.715849 Neck:0.013369,-0.001237,0.996358,-0.084205 ShoulderLeft:0.012230,0.775173,-0.627597,0.071270 ShoulderRight:0.029870,0.788127,0.612849,-0.048786 SpineBase:0.015194,-0.001606,0.998919,-0.043904 SpineMid:0.014269,-0.001566,0.998933,-0.043905 SpineShoulder:0.013352,-0.001407,0.997921,-0.063038 ThumbLeft:0.000000,0.000000,0.000000,0.000000 ThumbRight:0.000000,0.000000,0.000000,0.000000 WristLeft:-0.075392,0.860940,-0.082443,0.496288 WristRight:0.201025,-0.153015,-0.398100,0.881868 END:
KINECT_DATA POSITION:23.601027,-0.845469,-13.622093 HEAD_JOINT1:0.975387,0.193851,-0.000000,0.105082 LARM_JOINT2:0.846755,0.000000,0.022901,-0.531490 LARM_JOINT3:0.963388,0.000000,-0.179288,-0.199345 LLEG_JOINT2:0.998911,0.033229,0.000000,0.032750 LLEG_JOINT4:0.996932,0.072993,0.000000,-0.028255 RARM_JOINT2:0.798455,0.000000,-0.028266,0.601390 RARM_JOINT3:0.827434,0.000000,0.476985,0.296376 RLEG_JOINT2:0.998176,0.023048,0.000000,-0.055797 RLEG_JOINT4:0.995167,0.089759,0.000000,0.039820 WAIST:0.999867,0.000000,-0.015475,0.005229 WAIST_JOINT0:0.999801,0.000000,-0.014589,0.013626 WAIST_JOINT1:0.997677,0.067659,0.000000,-0.007936 END:
KINECT_DATA_Sensor  AnkleLeft:0.067682,0.717334,-0.082277,-0.688536 AnkleRight:0.075609,0.705301,0.084163,0.699822 ElbowLeft:-0.015424,0.897883,-0.235183,-0.371829 ElbowRight:0.000796,0.823417,0.167393,0.542183 FootLeft:0.000000,0.000000,0.000000,0.000000 FootRight:0.000000,0.000000,0.000000,0.000000 HandLeft:-0.077511,0.840716,-0.001342,0.535898 HandRight:0.283945,-0.005370,-0.312072,0.906619 HandTipLeft:0.000000,0.000000,0.000000,0.000000 HandTipRight:0.000000,0.000000,0.000000,0.000000 Head:0.000000,0.000000,0.000000,0.000000 HipLeft:0.130919,-0.673153,0.705045,-0.180653 HipRight:-0.109344,0.684124,0.702048,-0.164761 KneeLeft:-0.004030,0.717578,-0.050350,-0.694644 KneeRight:-0.018517,0.696242,0.052442,0.715649 Neck:0.013816,-0.001568,0.996395,-0.083689 ShoulderLeft:0.011505,0.775150,-0.627618,0.071460 ShoulderRight:0.029748,0.788564,0.612339,-0.048191 SpineBase:0.014901,-0.001688,0.998933,-0.043688 SpineMid:0.014349,-0.001664,0.998941,-0.043689 SpineShoulder:0.013809,-0.001590,0.997939,-0.062639 ThumbLeft:0.000000,0.000000,0.000000,0.000000 ThumbRight:0.000000,0.000000,0.000000,0.000000 WristLeft:-0.072709,0.844049,-0.084959,0.524478 WristRight:0.158777,-0.063169,-0.416576,0.892896 END:
KINECT_DATA POSITION:23.607309,-0.848956,-13.639235 HEAD_JOINT1:0.975512,0.193408,-0.000000,0.104739 LARM_JOINT2:0.846551,0.000000,0.023162,-0.531804 LARM_JOINT3:0.963783,0.000000,-0.177284,-0.199230 LLEG_JOINT2:0.998906,0.033482,0.000000,0.032659 LLEG_JOINT4:0.996935,0.072432,0.000000,-0.029557 RARM_JOINT2:0.799161,0.000000,-0.027775,0.600475 RARM_JOINT3:0.828317,0.000000,0.474604,0.297727 RLEG_JOINT2:0.998164,0.023225,0.000000,-0.055944 RLEG_JOINT4:0.995256,0.088725,0.000000,0.039918 WAIST:0.999872,0.000000,-0.015171,0.005150 WAIST_JOINT0:0.999797,0.000000,-0.014736,0.013717 WAIST_JOINT1:0.997708,0.067225,0.000000,-0.007772 END:
KINECT_DATA_Sensor  AnkleLeft:0.068471,0.716615,-0.081055,-0.689351 AnkleRight:0.074888,0.705792,0.083680,0.699462 ElbowLeft:-0.015325,0.897943,-0.234852,-0.371897 ElbowRight:-0.000425,0.823815,0.167872,0.541431 FootLeft:0.000000,0.000000,0.000000,0.000000 FootRight:0.000000,0.000000,0.000000,0.000000 HandLeft:-0.073229,0.829137,0.000201,0.554228 HandRight:0.295593,-0.028981,-0.295788,0.907907 HandTipLeft:0.000000,0.000000,0.000000,0.000000 HandTipRight:0.000000,0.000000,0.000000,0.000000 Head:0.000000,0.000000,0.000000,0.000000 HipLeft:0.130722,-0.673307,0.705022,-0.180314 HipRight:-0.109574,0.684100,0.702052,-0.164692 KneeLeft:-0.003718,0.717377,-0.050413,-0.694849 KneeRight:-0.018564,0.696449,0.052721,0.715427 Neck:0.013885,-0.001552,0.996435,-0.083196 ShoulderLeft:0.011344,0.775258,-0.627531,0.071073 ShoulderRight:0.029676,0.789030,0.611784,-0.047655 SpineBase:0.014611,-0.001606,0.998945,-0.043501 SpineMid:0.014240,-0.001590,0.998951,-0.043501 SpineShoulder:0.013881,-0.001551,0.997965,-0.062218 ThumbLeft:0.000000,0.000000,0.000000,0.000000 ThumbRight:0.000000,0.000000,0.000000,0.000000 WristLeft:-0.070325,0.832631,-0.086455,0.542500 WristRight:0.169712,-0.086974,-0.411910,0.891047 END:
KINECT_DATA POSITION:23.609240,-0.849057,-13.645161 HEAD_JOINT1:0.975379,0.194006,-0.000000,0.104866 LARM_JOINT2:0.846593,0.000000,0.023579,-0.531718 LARM_JOINT3:0.963688,0.000000,-0.179009,-0.198145 LLEG_JOINT2:0.998922,0.032811,0.000000,0.032851 LLEG_JOINT4:0.997027,0.071577,0.000000,-0.028517 RARM_JOINT2:0.797320,0.000000,-0.028875,0.602865 RARM_JOINT3:0.828070,0.000000,0.477643,0.293525 RLEG_JOINT2:0.998158,0.022451,0.000000,-0.056359 RLEG_JOINT4:0.995120,0.089820,0.000000,0.040847 WAIST:0.999872,0.000000,-0.015056,0.005326 WAIST_JOINT0:0.999801,0.000000,-0.014701,0.013496 WAIST_JOINT1:0.997724,0.066951,0.000000,-0.008046 END:
KINECT_DATA_Sensor  AnkleLeft:0.067026,0.721909,-0.080448,-0.684020 AnkleRight:0.075880,0.708260,0.083129,0.696921 ElbowLeft:-0.015157,0.897945,-0.234887,-0.371879 ElbowRight:0.001311,0.823110,0.165714,0.543164 FootLeft:0.000000,0.000000,0.000000,0.000000 FootRight:0.000000,0.000000,0.000000,0.000000 HandLeft:-0.077102,0.802934,-0.010744,0.590962 HandRight:0.300190,-0.062693,-0.299152,0.903584 HandTipLeft:0.000000,0.000000,0.000000,0.000000 HandTipRight:0.000000,0.000000,0.000000,0.000000 Head:0.000000,0.000000,0.000000,0.000000 HipLeft:0.130796,-0.673277,0.705113,-0.180020 HipRight:-0.109723,0.684259,0.701902,-0.164571 KneeLeft:-0.004443,0.717283,-0.050189,-0.694958 KneeRight:-0.019292,0.696522,0.052353,0.715363 Neck:0.013978,-0.001715,0.996456,-0.082930 ShoulderLeft:0.010839,0.775299,-0.627478,0.071166 ShoulderRight:0.029281,0.788460,0.612536,-0.047674 SpineBase:0.014483,-0.001626,0.998958,-0.043243 SpineMid:0.014225,-0.001615,0.998962,-0.043244 SpineShoulder:0.013975,-0.001664,0.997980,-0.061944 ThumbLeft:0.000000,0.000000,0.000000,0.000000 ThumbRight:0.000000,0.000000,0.000000,0.000000 WristLeft:-0.066070,0.807267,-0.089462,0.579614 WristRight:0.183284,-0.117653,-0.405793,0.887636 END:
KINECT_DATA POSITION:23.615938,-0.853517,-13.644445 HEAD_JOINT1:0.975330,0.194019,-0.000000,0.105302 LARM_JOINT2:0.846918,0.000000,0.023594,-0.531200 LARM_JOINT3:0.963150,0.000000,-0.180960,-0.198985 LLEG_JOINT2:0.998908,0.032606,0.000000,0.033466 LLEG_JOINT4:0.996913,0.072103,0.000000,-0.031084 RARM_JOINT2:0.796928,0.000000,-0.029293,0.603363 RARM_JOINT3:0.829723,0.000000,0.473760,0.295147 RLEG_JOINT2:0.998164,0.022952,0.000000,-0.056051 RLEG_JOINT4:0.994940,0.091325,0.000000,0.041891 WAIST:0.999868,0.000000,-0.015316,0.005353 WAIST_JOINT0:0.999802,0.000000,-0.014732,0.013365 WAIST_JOINT1:0.997720,0.066999,0.000000,-0.008128 END:
KINECT_DATA_Sensor  AnkleLeft:0.068022,0.717053,-0.079817,-0.689084 AnkleRight:0.077589,0.701823,0.084111,0.703100 ElbowLeft:-0.015378,0.897961,-0.235401,-0.371506 ElbowRight:0.001876,0.822623,0.165420,0.543990 FootLeft:0.000000,0.000000,0.000000,0.000000 FootRight:0.000000,0.000000,0.000000,0.000000 HandLeft:-0.081927,0.845982,-0.007024,0.526832 HandRight:0.296449,-0.045135,-0.288963,0.909165 HandTipLeft:0.000000,0.000000,0.000000,0.000000 HandTipRight:0.000000,0.000000,0.000000,0.000000 Head:0.000000,0.000000,0.000000,0.000000 HipLeft:0.130958,-0.673249,0.705085,-0.180114 HipRight:-0.109581,0.684329,0.701894,-0.164412 KneeLeft:-0.005058,0.717457,-0.050491,-0.694752 KneeRight:-0.018683,0.696354,0.052467,0.715535 Neck:0.014053,-0.001753,0.996448,-0.083016 ShoulderLeft:0.010625,0.775403,-0.627328,0.071397 ShoulderRight:0.029158,0.788320,0.612711,-0.047811 SpineBase:0.014739,-0.001647,0.998956,-0.043206 SpineMid:0.014392,-0.001632,0.998961,-0.043207 SpineShoulder:0.014052,-0.001684,0.997977,-0.061986 ThumbLeft:0.000000,0.000000,0.000000,0.000000 ThumbRight:0.000000,0.000000,0.000000,0.000000 WristLeft:-0.073756,0.849174,-0.084101,0.516130 WristRight:0.175316,-0.101396,-0.409333,0.889623 END:
KINECT_DATA POSITION:23.619991,-0.859345,-13.646614 HEAD_JOINT1:0.975392,0.193466,-0.000000,0.105742 LARM_JOINT2:0.847548,0.000000,0.023508,-0.530199 LARM_JOINT3:0.963354,0.000000,-0.180196,-0.198691 LLEG_JOINT2:0.998896,0.033565,0.000000,0.032857 LLEG_JOINT4:0.996917,0.072768,0.000000,-0.029350 RARM_JOINT2:0.796182,0.000000,-0.029666,0.604330 RARM_JOINT3:0.824543,0.000000,0.483190,0.294376 RLEG_JOINT2:0.998164,0.023508,0.000000,-0.055829 RLEG_JOINT4:0.994947,0.091579,0.000000,0.041158 WAIST:0.999864,0.000000,-0.015562,0.005393 WAIST_JOINT0:0.999807,0.000000,-0.014516,0.013273 WAIST_JOINT1:0.997732,0.066797,0.000000,-0.008339 END:
KINECT_DATA_Sensor  AnkleLeft:0.068802,0.721239,-0.081393,-0.684438 AnkleRight:0.077203,0.695994,0.085604,0.708734 ElbowLeft:-0.015747,0.898430,-0.236203,-0.369842 ElbowRight:0.002552,0.822556,0.164579,0.544342 FootLeft:0.000000,0.000000,0.000000,0.000000 FootRight:0.000000,0.000000,0.000000,0.000000 HandLeft:-0.074935,0.843335,-0.010733,0.532029 HandRight:0.384013,-0.310457,-0.220809,0.841067 HandTipLeft:0.000000,0.000000,0.000000,0.000000 HandTipRight:0.000000,0.000000,0.000000,0.000000 Head:0.000000,0.000000,0.000000,0.000000 HipLeft:0.131160,-0.673218,0.705073,-0.180128 HipRight:-0.109443,0.684402,0.701893,-0.164204 KneeLeft:-0.003991,0.717634,-0.050782,-0.694555 KneeRight:-0.018087,0.696195,0.052671,0.715689 Neck:0.013945,-0.001922,0.996468,-0.082788 ShoulderLeft:0.009943,0.775716,-0.626924,0.071639 ShoulderRight:0.028325,0.788237,0.612823,-0.048248 SpineBase:0.014979,-0.001725,0.998957,-0.043105 SpineMid:0.014461,-0.001702,0.998964,-0.043106 SpineShoulder:0.013944,-0.001808,0.997990,-0.061797 ThumbLeft:0.000000,0.000000,0.000000,0.000000 ThumbRight:0.000000,0.000000,0.000000,0.000000 WristLeft:-0.074180,0.845206,-0.084409,0.522493 WristRight:0.289792,-0.360181,-0.339485,0.819170 END:
KINECT_DATA POSITION:23.622456,-0.865439,-13.644910 HEAD_JOINT1:0.975740,0.192536,-0.000000,0.104218 LARM_JOINT2:0.847655,0.000000,0.023081,-0.530046 LARM_JOINT3:0.963374,0.000000,-0.180248,-0.198546 LLEG_JOINT2:0.998921,0.032982,0.000000,0.032708 LLEG_JOINT4:0.996940,0.072894,0.000000,-0.028215 RARM_JOINT2:0.799102,0.000000,-0.026628,0.600605 RARM_JOINT3:0.821095,0.000000,0.488373,0.295457 RLEG_JOINT2:0.998163,0.023700,0.000000,-0.055750 RLEG_JOINT4:0.995037,0.090751,0.000000,0.040806 WAIST:0.999869,0.000000,-0.015323,0.005243 WAIST_JOINT0:0.999810,0.000000,-0.014031,0.013565 WAIST_JOINT1:0.997733,0.066813,0.000000,-0.008115 END:
KINECT_DATA_Sensor  AnkleLeft:0.068301,0.724450,-0.081318,-0.681099 AnkleRight:0.078208,0.710982,0.083866,0.693797 ElbowLeft:-0.015995,0.898532,-0.236306,-0.369518 ElbowRight:-0.001550,0.823963,0.167294,0.541383 FootLeft:0.000000,0.000000,0.000000,0.000000 FootRight:0.000000,0.000000,0.000000,0.000000 HandLeft:-0.075996,0.836510,-0.012662,0.542509 HandRight:0.312246,-0.073945,-0.326966,0.888891 HandTipLeft:0.000000,0.000000,0.000000,0.000000 HandTipRight:0.000000,0.000000,0.000000,0.000000 Head:0.000000,0.000000,0.000000,0.000000 HipLeft:0.131064,-0.673370,0.704980,-0.179995 HipRight:-0.109668,0.684299,0.701938,-0.164288 KneeLeft:-0.004174,0.717477,-0.050154,-0.694762 KneeRight:-0.018012,0.696357,0.052848,0.715521 Neck:0.013333,-0.001791,0.996473,-0.082834 ShoulderLeft:0.010094,0.775783,-0.626873,0.071333 ShoulderRight:0.027689,0.789031,0.611785,-0.048804 SpineBase:0.014756,-0.001715,0.998963,-0.043029 SpineMid:0.014041,-0.001684,0.998974,-0.043031 SpineShoulder:0.013327,-0.001738,0.997998,-0.061798 ThumbLeft:0.000000,0.000000,0.000000,0.000000 ThumbRight:0.000000,0.000000,0.000000,0.000000 WristLeft:-0.072803,0.838726,-0.085569,0.532837 WristRight:0.192479,-0.130317,-0.406638,0.883524 END:
KINECT_DATA POSITION:23.601902,-0.871301,-13.592184 HEAD_JOINT1:0.976208,0.191900,-0.000000,0.100960 LARM_JOINT2:0.847307,0.000000,0.022625,-0.530621 LARM_JOINT3:0.963190,0.000000,-0.180019,-0.199642 LLEG_JOINT2:0.998936,0.032311,0.000000,0.032902 LLEG_JOINT4:0.996717,0.075536,0.000000,-0.029154 RARM_JOINT2:0.801287,0.000000,-0.021806,0.597882 RARM_JOINT3:0.818784,0.000000,0.492423,0.295149 RLEG_JOINT2:0.998174,0.023238,0.000000,-0.055764 RLEG_JOINT4:0.995000,0.091222,0.000000,0.040669 WAIST:0.999879,0.000000,-0.014649,0.005270 WAIST_JOINT0:0.999827,0.000000,-0.012560,0.013710 WAIST_JOINT1:0.997762,0.066387,0.000000,-0.008038 END:
KINECT_DATA_Sensor  AnkleLeft:0.069387,0.716510,-0.082873,-0.689153 AnkleRight:0.076859,0.701405,0.085129,0.703475 ElbowLeft:-0.016570,0.898061,-0.235475,-0.371166 ElbowRight:-0.006561,0.826186,0.167990,0.537730 FootLeft:0.000000,0.000000,0.000000,0.000000 FootRight:0.000000,0.000000,0.000000,0.000000 HandLeft:-0.080270,0.865884,-0.001147,0.493762 HandRight:0.314530,-0.077805,-0.338347,0.883481 HandTipLeft:0.000000,0.000000,0.000000,0.000000 HandTipRight:0.000000,0.000000,0.000000,0.000000 Head:0.000000,0.000000,0.000000,0.000000 HipLeft:0.131217,-0.673516,0.705017,-0.179191 HipRight:-0.110549,0.684266,0.701825,-0.164320 KneeLeft:-0.004770,0.717007,-0.049827,-0.695266 KneeRight:-0.018375,0.696828,0.052503,0.715078 Neck:0.011772,-0.001649,0.996539,-0.082272 ShoulderLeft:0.010663,0.775850,-0.626933,0.069984 ShoulderRight:0.026247,0.789578,0.611059,-0.049840 SpineBase:0.014086,-0.001850,0.999002,-0.042335 SpineMid:0.012919,-0.001800,0.999018,-0.042337 SpineShoulder:0.011762,-0.001637,0.998042,-0.061410 ThumbLeft:0.000000,0.000000,0.000000,0.000000 ThumbRight:0.000000,0.000000,0.000000,0.000000 WristLeft:-0.077873,0.868254,-0.081915,0.483074 WristRight:0.197869,-0.133747,-0.407714,0.881323 END:
KINECT_DATA POSITION:23.551407,-0.902991,-13.532627 HEAD_JOINT1:0.976766,0.191841,-0.000000,0.095531 LARM_JOINT2:0.846001,0.000000,0.021984,-0.532728 LARM_JOINT3:0.963763,0.000000,-0.178070,-0.198624 LLEG_JOINT2:0.998904,0.031959,0.000000,0.034198 LLEG_JOINT4:0.996990,0.071200,0.000000,-0.030698 RARM_JOINT2:0.802746,0.000000,0.031676,0.595479 RARM_JOINT3:0.810157,0.000000,0.511946,0.285581 RLEG_JOINT2:0.998180,0.023189,0.000000,-0.055669 RLEG_JOINT4:0.994846,0.093000,0.000000,0.040396 WAIST:0.999919,0.000000,-0.011803,0.004808 WAIST_JOINT0:0.999877,0.000000,-0.008054,0.013450 WAIST_JOINT1:0.997887,0.064547,0.000000,-0.007484 END:
KINECT_DATA_Sensor  AnkleLeft:0.066520,0.712454,-0.079097,-0.694066 AnkleRight:0.078561,0.712338,0.085944,0.692110 ElbowLeft:-0.017976,0.896043,-0.232394,-0.377858 ElbowRight:-0.042940,0.842616,0.147053,0.516266 FootLeft:0.000000,0.000000,0.000000,0.000000 FootRight:0.000000,0.000000,0.000000,0.000000 HandLeft:-0.080261,0.812870,-0.000844,0.576888 HandRight:0.435387,-0.162911,-0.339447,0.817725 HandTipLeft:0.000000,0.000000,0.000000,0.000000 HandTipRight:0.000000,0.000000,0.000000,0.000000 Head:0.000000,0.000000,0.000000,0.000000 HipLeft:0.130959,-0.674355,0.704746,-0.177282 HipRight:-0.113409,0.683702,0.701620,-0.165592 KneeLeft:-0.005483,0.715054,-0.050158,-0.697246 KneeRight:-0.018831,0.698820,0.052664,0.713107 Neck:0.007270,-0.001797,0.996778,-0.079863 ShoulderLeft:0.011658,0.776253,-0.626857,0.065917 ShoulderRight:0.021440,0.789826,0.610677,-0.052815 SpineBase:0.011284,-0.002283,0.999090,-0.041072 SpineMid:0.009259,-0.002200,0.999111,-0.041076 SpineShoulder:0.007266,-0.001605,0.998187,-0.059723 ThumbLeft:0.000000,0.000000,0.000000,0.000000 ThumbRight:0.000000,0.000000,0.000000,0.000000 WristLeft:-0.070300,0.818138,-0.091220,0.563372 WristRight:0.279278,-0.238469,-0.389446,0.844671 END:
KINECT_DATA POSITION:23.463737,-0.918808,-13.513327 HEAD_JOINT1:0.977552,0.191831,-0.000000,0.087135 LARM_JOINT2:0.843313,0.000000,0.022684,-0.536945 LARM_JOINT3:0.966447,0.000000,-0.171588,-0.191148 LLEG_JOINT2:0.998796,0.031267,0.000000,0.037807 LLEG_JOINT4:0.996758,0.074895,0.000000,-0.029395 RARM_JOINT2:0.803445,0.000000,0.081956,0.589711 RARM_JOINT3:0.811475,0.000000,0.513338,0.279273 RLEG_JOINT2:0.998306,0.024130,0.000000,-0.052945 RLEG_JOINT4:0.994858,0.091940,0.000000,0.042489 WAIST:0.999969,0.000000,-0.007247,0.002998 WAIST_JOINT0:0.999886,-0.000000,0.002601,0.014895 WAIST_JOINT1:0.997958,0.063671,0.000000,-0.005043 END:
KINECT_DATA_Sensor  AnkleLeft:0.069012,0.727650,-0.081222,-0.677618 AnkleRight:0.078334,0.701050,0.085634,0.703605 ElbowLeft:-0.017523,0.891488,-0.228322,-0.390911 ElbowRight:-0.077932,0.853706,0.127263,0.498917 FootLeft:0.000000,0.000000,0.000000,0.000000 FootRight:0.000000,0.000000,0.000000,0.000000 HandLeft:-0.054585,0.807596,0.003519,0.587194 HandRight:0.319431,0.106780,-0.437783,0.833611 HandTipLeft:0.000000,0.000000,0.000000,0.000000 HandTipRight:0.000000,0.000000,0.000000,0.000000 Head:0.000000,0.000000,0.000000,0.000000 HipLeft:0.129152,-0.676210,0.703903,-0.174871 HipRight:-0.117107,0.682124,0.702126,-0.167366 KneeLeft:-0.007040,0.711970,-0.050932,-0.700325 KneeRight:-0.017787,0.701970,0.052556,0.710042 Neck:-0.003630,-0.000816,0.996858,-0.079125 ShoulderLeft:0.017115,0.774341,-0.629891,0.057796 ShoulderRight:0.012866,0.790055,0.609805,-0.061522 SpineBase:0.006904,-0.002157,0.999171,-0.040059 SpineMid:0.001618,-0.001945,0.999194,-0.040070 SpineShoulder:-0.003665,-0.000936,0.998266,-0.058747 ThumbLeft:0.000000,0.000000,0.000000,0.000000 ThumbRight:0.000000,0.000000,0.000000,0.000000 WristLeft:-0.067623,0.809854,-0.094915,0.574939 WristRight:0.177912,0.026492,-0.479851,0.858713 END:
KINECT_DATA POSITION:23.343834,-0.884179,-13.612806 HEAD_JOINT1:0.977927,0.192899,-0.000000,0.080304 LARM_JOINT2:0.842063,0.000000,0.022610,-0.538905 LARM_JOINT3:0.966035,0.000000,-0.175108,-0.190037 LLEG_JOINT2:0.998678,0.028767,0.000000,0.042592 LLEG_JOINT4:0.996555,0.077042,0.000000,-0.030714 RARM_JOINT2:0.804243,0.000000,0.097633,0.586226 RARM_JOINT3:0.810035,0.000000,0.512204,0.285465 RLEG_JOINT2:0.998527,0.024076,0.000000,-0.048620 RLEG_JOINT4:0.994662,0.093920,0.000000,0.042749 WAIST:0.999999,0.000000,-0.001673,0.000250 WAIST_JOINT0:0.999845,-0.000000,0.009643,0.014754 WAIST_JOINT1:0.997952,0.063926,0.000000,-0.002273 END:
KINECT_DATA_Sensor  AnkleLeft:0.066350,0.703962,-0.083036,-0.702239 AnkleRight:0.079981,0.700492,0.086563,0.703861 ElbowLeft:-0.015533,0.889170,-0.226417,-0.397329 ElbowRight:-0.087645,0.866883,0.123619,0.474922 FootLeft:0.000000,0.000000,0.000000,0.000000 FootRight:0.000000,0.000000,0.000000,0.000000 HandLeft:-0.071628,0.825562,-0.001150,0.559747 HandRight:0.354390,0.066102,-0.418798,0.833454 HandTipLeft:0.000000,0.000000,0.000000,0.000000 HandTipRight:0.000000,0.000000,0.000000,0.000000 Head:0.000000,0.000000,0.000000,0.000000 HipLeft:0.125569,-0.678789,0.702739,-0.172153 HipRight:-0.120534,0.679649,0.703245,-0.170277 KneeLeft:-0.009977,0.708166,-0.050630,-0.704158 KneeRight:-0.017028,0.705787,0.051277,0.706361 Neck:-0.010685,-0.000845,0.996773,-0.079558 ShoulderLeft:0.020634,0.773546,-0.631138,0.053533 ShoulderRight:0.007263,0.789023,0.610518,-0.068244 SpineBase:0.001555,-0.002501,0.999189,-0.040157 SpineMid:-0.004603,-0.002253,0.999180,-0.040171 SpineShoulder:-0.010758,-0.001212,0.998205,-0.058912 ThumbLeft:0.000000,0.000000,0.000000,0.000000 ThumbRight:0.000000,0.000000,0.000000,0.000000 WristLeft:-0.068529,0.829181,-0.092641,0.546974 WristRight:0.225594,-0.008342,-0.466578,0.855186 END:
KINECT_DATA POSITION:23.268930,-0.854079,-13.693810 HEAD_JOINT1:0.978276,0.192541,-0.000000,0.076838 LARM_JOINT2:0.841857,0.000000,0.021596,-0.539268 LARM_JOINT3:0.966016,0.000000,-0.175718,-0.189571 LLEG_JOINT2:0.998615,0.027215,0.000000,0.045025 LLEG_JOINT4:0.996471,0.078126,0.000000,-0.030684 RARM_JOINT2:0.805386,0.000000,0.110201,0.582416 RARM_JOINT3:0.811009,0.000000,0.507879,0.290385 RLEG_JOINT2:0.998628,0.023566,0.000000,-0.046762 RLEG_JOINT4:0.994650,0.094779,0.000000,0.041082 WAIST:0.999999,0.000000,0.001131,-0.001120 WAIST_JOINT0:0.999821,-0.000000,0.012033,0.014598 WAIST_JOINT1:0.997936,0.064215,0.000000,-0.001045 END:
KINECT_DATA_Sensor  AnkleLeft:0.065576,0.702747,-0.083228,-0.703505 AnkleRight:0.080009,0.709219,0.087097,0.694997 ElbowLeft:-0.014949,0.888755,-0.225755,-0.398655 ElbowRight:-0.096451,0.873774,0.121524,0.460920 FootLeft:0.000000,0.000000,0.000000,0.000000 FootRight:0.000000,0.000000,0.000000,0.000000 HandLeft:-0.074296,0.845921,-0.002198,0.528103 HandRight:0.349845,0.109162,-0.422873,0.828776 HandTipLeft:0.000000,0.000000,0.000000,0.000000 HandTipRight:0.000000,0.000000,0.000000,0.000000 Head:0.000000,0.000000,0.000000,0.000000 HipLeft:0.123733,-0.680056,0.702143,-0.170908 HipRight:-0.122302,0.678288,0.703789,-0.172190 KneeLeft:-0.011685,0.706218,-0.050318,-0.706108 KneeRight:-0.017190,0.707705,0.050522,0.704490 Neck:-0.013135,-0.001072,0.996715,-0.079905 ShoulderLeft:0.021080,0.773126,-0.631686,0.052950 ShoulderRight:0.004524,0.788580,0.610755,-0.071416 SpineBase:-0.001162,-0.002917,0.999177,-0.040443 SpineMid:-0.007205,-0.002673,0.999152,-0.040460 SpineShoulder:-0.013232,-0.001577,0.998158,-0.059179 ThumbLeft:0.000000,0.000000,0.000000,0.000000 ThumbRight:0.000000,0.000000,0.000000,0.000000 WristLeft:-0.071746,0.848729,-0.089744,0.516195 WristRight:0.217165,0.031756,-0.473266,0.853141 END:
KINECT_DATA POSITION:23.238043,-0.819845,-13.748301 HEAD_JOINT1:0.978288,0.193208,-0.000000,0.074992 LARM_JOINT2:0.841749,0.000000,0.020521,-0.539479 LARM_JOINT3:0.965732,0.000000,-0.178223,-0.188675 LLEG_JOINT2:0.998573,0.025979,0.000000,0.046659 LLEG_JOINT4:0.996379,0.079740,0.000000,-0.029516 RARM_JOINT2:0.803608,0.000000,0.122248,0.582469 RARM_JOINT3:0.810193,0.000000,0.504460,0.298510 RLEG_JOINT2:0.998682,0.023468,0.000000,-0.045635 RLEG_JOINT4:0.994403,0.096148,0.000000,0.043787 WAIST:0.999993,0.000000,0.003171,-0.002083 WAIST_JOINT0:0.999809,-0.000000,0.013003,0.014575 WAIST_JOINT1:0.997930,0.064312,0.000000,-0.000061 END:
KINECT_DATA_Sensor  AnkleLeft:0.066870,0.718986,-0.082992,-0.686804 AnkleRight:0.080915,0.695629,0.087816,0.708407 ElbowLeft:-0.014854,0.888635,-0.225295,-0.399186 ElbowRight:-0.101898,0.882020,0.115893,0.445226 FootLeft:0.000000,0.000000,0.000000,0.000000 FootRight:0.000000,0.000000,0.000000,0.000000 HandLeft:-0.084079,0.820290,-0.013464,0.565574 HandRight:0.376216,0.085204,-0.402872,0.829997 HandTipLeft:0.000000,0.000000,0.000000,0.000000 HandTipRight:0.000000,0.000000,0.000000,0.000000 Head:0.000000,0.000000,0.000000,0.000000 HipLeft:0.122343,-0.680906,0.701821,-0.169843 HipRight:-0.123586,0.677338,0.704222,-0.173239 KneeLeft:0.012929,-0.704808,0.049954,0.707519 KneeRight:-0.017245,0.709081,0.050302,0.703119 Neck:-0.014083,-0.001247,0.996687,-0.080100 ShoulderLeft:0.020834,0.772685,-0.632225,0.053058 ShoulderRight:0.003030,0.787999,0.611330,-0.072964 SpineBase:-0.003114,-0.002980,0.999171,-0.040491 SpineMid:-0.008661,-0.002756,0.999138,-0.040507 SpineShoulder:-0.014185,-0.001748,0.998141,-0.059245 ThumbLeft:0.000000,0.000000,0.000000,0.000000 ThumbRight:0.000000,0.000000,0.000000,0.000000 WristLeft:-0.066922,0.825021,-0.092900,0.553381 WristRight:0.250392,0.009394,-0.463743,0.849799 END:
KINECT_DATA POSITION:23.207891,-0.798506,-13.832188 HEAD_JOINT1:0.978357,0.193598,-0.000000,0.073062 LARM_JOINT2:0.841822,0.000000,0.018236,-0.539447 LARM_JOINT3:0.966052,0.000000,-0.176549,-0.188613 LLEG_JOINT2:0.998553,0.024678,0.000000,0.047783 LLEG_JOINT4:0.996390,0.079533,0.000000,-0.029704 RARM_JOINT2:0.803200,0.000000,0.133918,0.580462 RARM_JOINT3:0.813321,0.000000,0.498142,0.300607 RLEG_JOINT2:0.998757,0.023665,0.000000,-0.043880 RLEG_JOINT4:0.994662,0.093773,0.000000,0.043070 WAIST:0.999980,0.000000,0.005478,-0.003063 WAIST_JOINT0:0.999758,-0.000000,0.016073,0.015034 WAIST_JOINT1:0.997895,0.064838,-0.000000,0.001106 END:
KINECT_DATA_Sensor  AnkleLeft:-0.064008,-0.700742,0.083359,0.705631 AnkleRight:0.079818,0.702301,0.085892,0.702158 ElbowLeft:-0.015244,0.888792,-0.225038,-0.398967 ElbowRight:-0.108159,0.889466,0.112457,0.429540 FootLeft:0.000000,0.000000,0.000000,0.000000 FootRight:0.000000,0.000000,0.000000,0.000000 HandLeft:-0.080669,0.817487,-0.012213,0.570140 HandRight:0.403801,0.043891,-0.377681,0.832091 HandTipLeft:0.000000,0.000000,0.000000,0.000000 HandTipRight:0.000000,0.000000,0.000000,0.000000 Head:0.000000,0.000000,0.000000,0.000000 HipLeft:0.120484,-0.681779,0.701472,-0.169111 HipRight:-0.124798,0.676305,0.704593,-0.174889 KneeLeft:0.013835,-0.703208,0.049179,0.709147 KneeRight:-0.016668,0.710659,0.049862,0.701570 Neck:-0.017285,-0.001029,0.996591,-0.080668 ShoulderLeft:0.022259,0.772191,-0.632882,0.051831 ShoulderRight:0.000300,0.788148,0.610701,-0.076600 SpineBase:-0.005333,-0.002957,0.999136,-0.041103 SpineMid:-0.011378,-0.002709,0.999086,-0.041120 SpineShoulder:-0.017404,-0.001677,0.998059,-0.059767 ThumbLeft:0.000000,0.000000,0.000000,0.000000 ThumbRight:0.000000,0.000000,0.000000,0.000000 WristLeft:-0.066321,0.821960,-0.093458,0.557896 WristRight:0.282848,-0.029082,-0.441947,0.850784 END:
KINECT_DATA POSITION:23.157970,-0.760609,-13.923287 HEAD_JOINT1:0.978585,0.192963,-0.000000,0.071676 LARM_JOINT2:0.842035,0.000000,0.016144,-0.539181 LARM_JOINT3:0.965675,0.000000,-0.179190,-0.188052 LLEG_JOINT2:0.998529,0.023080,0.000000,0.049070 LLEG_JOINT4:0.996203,0.081816,0.000000,-0.029764 RARM_JOINT2:0.802638,0.000000,0.138401,0.580187 RARM_JOINT3:0.815254,0.000000,0.498234,0.295168 RLEG_JOINT2:0.998793,0.024161,0.000000,-0.042765 RLEG_JOINT4:0.994421,0.095403,0.000000,0.045007 WAIST:0.999966,0.000000,0.007368,-0.003764 WAIST_JOINT0:0.999738,-0.000000,0.017339,0.014958 WAIST_JOINT1:0.997849,0.065531,-0.000000,0.001868 END:
KINECT_DATA_Sensor  AnkleLeft:0.067348,0.724777,-0.081676,-0.680802 AnkleRight:0.081922,0.695966,0.086765,0.708091 ElbowLeft:-0.015609,0.888848,-0.225027,-0.398833 ElbowRight:-0.110060,0.892157,0.110575,0.423928 FootLeft:0.000000,0.000000,0.000000,0.000000 FootRight:0.000000,0.000000,0.000000,0.000000 HandLeft:-0.088919,0.834468,-0.016439,0.543587 HandRight:0.372453,0.099851,-0.413866,0.824635 HandTipLeft:0.000000,0.000000,0.000000,0.000000 HandTipRight:0.000000,0.000000,0.000000,0.000000 Head:0.000000,0.000000,0.000000,0.000000 HipLeft:0.118856,-0.682341,0.701278,-0.168799 HipRight:-0.125499,0.675377,0.704893,-0.176754 KneeLeft:0.015288,-0.701862,0.048512,0.710495 KneeRight:-0.016111,0.711962,0.049901,0.700258 Neck:-0.018598,-0.000993,0.996513,-0.081334 ShoulderLeft:0.023255,0.771709,-0.633447,0.051673 ShoulderRight:-0.000423,0.787626,0.611139,-0.078452 SpineBase:-0.007170,-0.003272,0.999083,-0.042090 SpineMid:-0.012974,-0.003027,0.999024,-0.042108 SpineShoulder:-0.018737,-0.001807,0.997992,-0.060477 ThumbLeft:0.000000,0.000000,0.000000,0.000000 ThumbRight:0.000000,0.000000,0.000000,0.000000 WristLeft:-0.069479,0.838959,-0.091563,0.531917 WristRight:0.254174,0.031029,-0.456364,0.852153 END:
KINECT_DATA POSITION:23.132654,-0.739507,-14.008129 HEAD_JOINT1:0.978572,0.193267,-0.000000,0.071022 LARM_JOINT2:0.842335,0.000000,0.015671,-0.538727 LARM_JOINT3:0.965185,0.000000,-0.179234,-0.190509 LLEG_JOINT2:0.998508,0.022538,0.000000,0.049739 LLEG_JOINT4:0.996307,0.080399,0.000000,-0.030147 RARM_JOINT2:0.844221,0.000000,0.152718,0.513779 RARM_JOINT3:0.778008,0.000000,0.505964,0.372430 RLEG_JOINT2:0.998852,0.023157,0.000000,-0.041925 RLEG_JOINT4:0.994380,0.096217,0.000000,0.044172 WAIST:0.999960,0.000000,0.007671,-0.004487 WAIST_JOINT0:0.999739,-0.000000,0.017337,0.014850 WAIST_JOINT1:0.997815,0.066016,-0.000000,0.002530 END:
KINECT_DATA_Sensor  AnkleLeft:0.065483,0.718522,-0.080635,-0.687703 AnkleRight:0.080990,0.694022,0.087407,0.710024 ElbowLeft:-0.015547,0.888945,-0.225500,-0.398352 ElbowRight:-0.146222,0.914290,0.180293,0.331945 FootLeft:0.000000,0.000000,0.000000,0.000000 FootRight:0.000000,0.000000,0.000000,0.000000 HandLeft:-0.094077,0.860796,-0.004584,0.500159 HandRight:0.382736,0.057887,-0.393591,0.833815 HandTipLeft:0.000000,0.000000,0.000000,0.000000 HandTipRight:0.000000,0.000000,0.000000,0.000000 Head:0.000000,0.000000,0.000000,0.000000 HipLeft:0.118456,-0.682729,0.700904,-0.169066 HipRight:-0.125739,0.674761,0.705345,-0.177129 KneeLeft:0.015616,-0.701685,0.048104,0.710690 KneeRight:-0.016748,0.712116,0.049101,0.700142 Neck:-0.018640,-0.001135,0.996469,-0.081863 ShoulderLeft:0.022767,0.771567,-0.633556,0.052656 ShoulderRight:-0.000975,0.787443,0.611245,-0.079449 SpineBase:-0.007403,-0.003151,0.999067,-0.042429 SpineMid:-0.013104,-0.002909,0.999009,-0.042446 SpineShoulder:-0.018776,-0.001883,0.997962,-0.060954 ThumbLeft:0.000000,0.000000,0.000000,0.000000 ThumbRight:0.000000,0.000000,0.000000,0.000000 WristLeft:-0.073729,0.865764,-0.087890,0.487126 WristRight:0.333812,0.029528,-0.409978,0.848302 END:
KINECT_DATA POSITION:23.090345,-0.728090,-14.077557 HEAD_JOINT1:0.978544,0.193576,-0.000000,0.070566 LARM_JOINT2:0.842526,0.000000,0.015952,-0.538419 LARM_JOINT3:0.965384,0.000000,-0.178159,-0.190510 LLEG_JOINT2:0.998418,0.022612,0.000000,0.051480 LLEG_JOINT4:0.996220,0.080599,0.000000,-0.032387 RARM_JOINT2:0.844552,0.000000,0.152880,0.513186 RARM_JOINT3:0.774092,0.000000,0.505979,0.380483 RLEG_JOINT2:0.998909,0.021644,0.000000,-0.041375 RLEG_JOINT4:0.994656,0.093954,0.000000,0.042807 WAIST:0.999955,0.000000,0.007970,-0.005049 WAIST_JOINT0:0.999745,-0.000000,0.017231,0.014560 WAIST_JOINT1:0.997789,0.066404,-0.000000,0.002892 END:
KINECT_DATA_Sensor  AnkleLeft:-0.064310,-0.699948,0.081730,0.706581 AnkleRight:0.078996,0.708156,0.084184,0.696554 ElbowLeft:-0.014988,0.888792,-0.225891,-0.398494 ElbowRight:-0.146340,0.914417,0.181126,0.331089 FootLeft:0.000000,0.000000,0.000000,0.000000 FootRight:0.000000,0.000000,0.000000,0.000000 HandLeft:-0.088807,0.854925,-0.004114,0.511077 HandRight:0.396439,0.057688,-0.381881,0.832872 HandTipLeft:0.000000,0.000000,0.000000,0.000000 HandTipRight:0.000000,0.000000,0.000000,0.000000 Head:0.000000,0.000000,0.000000,0.000000 HipLeft:0.118050,-0.683090,0.700632,-0.169018 HipRight:-0.125718,0.674286,0.705736,-0.177396 KneeLeft:0.016368,-0.701484,0.049007,0.710810 KneeRight:-0.017834,0.712279,0.048028,0.700025 Neck:-0.018541,-0.001367,0.996435,-0.082295 ShoulderLeft:0.022444,0.771751,-0.633282,0.053378 ShoulderRight:-0.001172,0.787328,0.611318,-0.080017 SpineBase:-0.007662,-0.003371,0.999053,-0.042690 SpineMid:-0.013191,-0.003135,0.998996,-0.042708 SpineShoulder:-0.018684,-0.002126,0.997940,-0.061335 ThumbLeft:0.000000,0.000000,0.000000,0.000000 ThumbRight:0.000000,0.000000,0.000000,0.000000 WristLeft:-0.072343,0.859452,-0.088592,0.498257 WristRight:0.340938,0.023070,-0.407773,0.846729 END:
KINECT_DATA POSITION:23.082098,-0.711995,-14.110661 HEAD_JOINT1:0.978498,0.194012,-0.000000,0.070010 LARM_JOINT2:0.842540,0.000000,0.016408,-0.538383 LARM_JOINT3:0.966188,0.000000,-0.173574,-0.190664 LLEG_JOINT2:0.998445,0.022449,0.000000,0.051019 LLEG_JOINT4:0.996358,0.080224,0.000000,-0.028882 RARM_JOINT2:0.843425,0.000000,0.155381,0.514287 RARM_JOINT3:0.773114,0.000000,0.501458,0.388373 RLEG_JOINT2:0.998892,0.022723,0.000000,-0.041200 RLEG_JOINT4:0.994554,0.094817,0.000000,0.043269 WAIST:0.999951,0.000000,0.008599,-0.004924 WAIST_JOINT0:0.999737,-0.000000,0.017749,0.014533 WAIST_JOINT1:0.997805,0.066165,-0.000000,0.002788 END:
KINECT_DATA_Sensor  AnkleLeft:-0.061841,-0.700156,0.083550,0.706383 AnkleRight:0.080140,0.702577,0.085735,0.701863 ElbowLeft:-0.014360,0.889126,-0.226036,-0.397690 ElbowRight:-0.146924,0.916360,0.179020,0.326571 FootLeft:0.000000,0.000000,0.000000,0.000000 FootRight:0.000000,0.000000,0.000000,0.000000 HandLeft:-0.073540,0.866277,0.002357,0.494116 HandRight:0.408333,0.070273,-0.372313,0.830487 HandTipLeft:0.000000,0.000000,0.000000,0.000000 HandTipRight:0.000000,0.000000,0.000000,0.000000 Head:0.000000,0.000000,0.000000,0.000000 HipLeft:0.117904,-0.683087,0.700771,-0.168556 HipRight:-0.126323,0.674279,0.705571,-0.177650 KneeLeft:0.016218,-0.701034,0.048664,0.711281 KneeRight:-0.016889,0.712743,0.048578,0.699538 Neck:-0.019064,-0.001440,0.996440,-0.082103 ShoulderLeft:0.022301,0.771958,-0.633066,0.053013 ShoulderRight:-0.001989,0.787492,0.611046,-0.080462 SpineBase:-0.008298,-0.003318,0.999059,-0.042441 SpineMid:-0.013767,-0.003085,0.998999,-0.042459 SpineShoulder:-0.019203,-0.002142,0.997946,-0.061083 ThumbLeft:0.000000,0.000000,0.000000,0.000000 ThumbRight:0.000000,0.000000,0.000000,0.000000 WristLeft:-0.073699,0.868441,-0.086539,0.482586 WristRight:0.342709,0.028679,-0.406638,0.846389 END:
KINECT_DATA POSITION:23.107048,-0.674086,-14.159346 HEAD_JOINT1:0.978169,0.195694,-0.000000,0.069931 LARM_JOINT2:0.842178,0.000000,0.015999,-0.538962 LARM_JOINT3:0.966218,0.000000,-0.173952,-0.190167 LLEG_JOINT2:0.998482,0.021824,0.000000,0.050577 LLEG_JOINT4:0.996368,0.079244,0.000000,-0.031165 RARM_JOINT2:0.840654,0.000000,0.165475,0.515673 RARM_JOINT3:0.769715,0.000000,0.501795,0.394641 RLEG_JOINT2:0.998862,0.022915,0.000000,-0.041826 RLEG_JOINT4:0.994656,0.093988,0.000000,0.042736 WAIST:0.999955,0.000000,0.008546,-0.004219 WAIST_JOINT0:0.999716,-0.000000,0.018815,0.014615 WAIST_JOINT1:0.997852,0.065465,-0.000000,0.002220 END:
KINECT_DATA_Sensor  AnkleLeft:0.064464,0.720998,-0.079103,-0.685382 AnkleRight:0.079998,0.707817,0.085005,0.696684 ElbowLeft:-0.014656,0.890011,-0.225175,-0.396185 ElbowRight:-0.152130,0.919225,0.172400,0.319626 FootLeft:0.000000,0.000000,0.000000,0.000000 FootRight:0.000000,0.000000,0.000000,0.000000 HandLeft:-0.077979,0.863642,-0.001433,0.498035 HandRight:0.428537,0.075493,-0.368134,0.821666 HandTipLeft:0.000000,0.000000,0.000000,0.000000 HandTipRight:0.000000,0.000000,0.000000,0.000000 Head:0.000000,0.000000,0.000000,0.000000 HipLeft:0.118462,-0.682616,0.701201,-0.168285 HipRight:-0.126738,0.674740,0.705105,-0.177455 KneeLeft:0.016857,-0.701013,0.048408,0.711304 KneeRight:-0.016699,0.712749,0.048658,0.699530 Neck:-0.020096,-0.001224,0.996479,-0.081388 ShoulderLeft:0.022102,0.771924,-0.633195,0.052054 ShoulderRight:-0.003556,0.787451,0.611006,-0.081119 SpineBase:-0.008304,-0.003182,0.999082,-0.041901 SpineMid:-0.014280,-0.002932,0.999015,-0.041919 SpineShoulder:-0.020233,-0.001941,0.997968,-0.060383 ThumbLeft:0.000000,0.000000,0.000000,0.000000 ThumbRight:0.000000,0.000000,0.000000,0.000000 WristLeft:-0.073371,0.866261,-0.086273,0.486585 WristRight:0.353793,0.028808,-0.404858,0.842669 END:
KINECT_DATA POSITION:23.129004,-0.647243,-14.187658 HEAD_JOINT1:0.978157,0.196134,-0.000000,0.068857 LARM_JOINT2:0.842024,0.000000,0.017115,-0.539168 LARM_JOINT3:0.966389,0.000000,-0.173183,-0.189997 LLEG_JOINT2:0.998502,0.021750,0.000000,0.050201 LLEG_JOINT4:0.996231,0.080640,0.000000,-0.031938 RARM_JOINT2:0.839627,0.000000,0.168767,0.516280 RARM_JOINT3:0.771957,0.000000,0.501046,0.391197 RLEG_JOINT2:0.998861,0.022758,0.000000,-0.041944 RLEG_JOINT4:0.994724,0.093843,0.000000,0.041441 WAIST:0.999950,0.000000,0.009253,-0.003877 WAIST_JOINT0:0.999707,-0.000000,0.019353,0.014538 WAIST_JOINT1:0.997876,0.065106,-0.000000,0.002256 END:
KINECT_DATA_Sensor  AnkleLeft:0.065597,0.716526,-0.079709,-0.689880 AnkleRight:0.079849,0.715558,0.084783,0.688776 ElbowLeft:-0.014115,0.889369,-0.225517,-0.397450 ElbowRight:-0.154107,0.919978,0.169393,0.318116 FootLeft:0.000000,0.000000,0.000000,0.000000 FootRight:0.000000,0.000000,0.000000,0.000000 HandLeft:-0.071233,0.843503,-0.004458,0.532362 HandRight:0.427741,0.057259,-0.358222,0.827911 HandTipLeft:0.000000,0.000000,0.000000,0.000000 HandTipRight:0.000000,0.000000,0.000000,0.000000 Head:0.000000,0.000000,0.000000,0.000000 HipLeft:0.118167,-0.682472,0.701533,-0.167691 HipRight:-0.127380,0.674878,0.704820,-0.177604 KneeLeft:0.016853,-0.700497,0.048342,0.711817 KneeRight:-0.016684,0.713257,0.048376,0.699032 Neck:-0.020613,-0.000863,0.996498,-0.081032 ShoulderLeft:0.021499,0.771974,-0.633164,0.051932 ShoulderRight:-0.004874,0.787405,0.610962,-0.081821 SpineBase:-0.009027,-0.002890,0.999089,-0.041604 SpineMid:-0.014898,-0.002645,0.999019,-0.041620 SpineShoulder:-0.020749,-0.001637,0.997980,-0.060019 ThumbLeft:0.000000,0.000000,0.000000,0.000000 ThumbRight:0.000000,0.000000,0.000000,0.000000 WristLeft:-0.070416,0.845843,-0.089093,0.521204 WristRight:0.366109,0.014213,-0.399362,0.840400 END:
KINECT_DATA POSITION:23.151150,-0.608621,-14.264429 HEAD_JOINT1:0.978215,0.196028,-0.000000,0.068320 LARM_JOINT2:0.841957,0.000000,0.017503,-0.539261 LARM_JOINT3:0.965549,0.000000,-0.176642,-0.191081 LLEG_JOINT2:0.998562,0.020741,0.000000,0.049443 LLEG_JOINT4:0.996108,0.082567,0.000000,-0.030837 RARM_JOINT2:0.839580,0.000000,0.171066,0.515598 RARM_JOINT3:0.773324,0.000000,0.502318,0.386842 RLEG_JOINT2:0.998823,0.022707,0.000000,-0.042853 RLEG_JOINT4:0.994726,0.093605,0.000000,0.041927 WAIST:0.999947,0.000000,0.009596,-0.003609 WAIST_JOINT0:0.999700,-0.000000,0.019803,0.014401 WAIST_JOINT1:0.997866,0.065263,-0.000000,0.002166 END:
KINECT_DATA_Sensor  AnkleLeft:0.066680,0.722925,-0.080105,-0.683020 AnkleRight:0.079393,0.714888,0.084819,0.689520 ElbowLeft:-0.013822,0.888815,-0.225752,-0.398563 ElbowRight:-0.155950,0.919841,0.168415,0.318133 FootLeft:0.000000,0.000000,0.000000,0.000000 FootRight:0.000000,0.000000,0.000000,0.000000 HandLeft:-0.082113,0.863432,-0.004494,0.497717 HandRight:0.408184,0.087996,-0.375958,0.827223 HandTipLeft:0.000000,0.000000,0.000000,0.000000 HandTipRight:0.000000,0.000000,0.000000,0.000000 Head:0.000000,0.000000,0.000000,0.000000 HipLeft:0.118079,-0.682364,0.701658,-0.167669 HipRight:-0.127753,0.675051,0.704511,-0.177904 KneeLeft:0.017218,-0.700231,0.047290,0.712140 KneeRight:-0.017194,0.713494,0.048784,0.698749 Neck:-0.021060,-0.000733,0.996472,-0.081235 ShoulderLeft:0.022189,0.772086,-0.633045,0.051427 ShoulderRight:-0.004756,0.787355,0.610998,-0.082044 SpineBase:-0.009381,-0.002655,0.999087,-0.041592 SpineMid:-0.015292,-0.002409,0.999014,-0.041607 SpineShoulder:-0.021191,-0.001467,0.997963,-0.060159 ThumbLeft:0.000000,0.000000,0.000000,0.000000 ThumbRight:0.000000,0.000000,0.000000,0.000000 WristLeft:-0.074434,0.866312,-0.086231,0.486340 WristRight:0.351346,0.047421,-0.414867,0.837970 END:
KINECT_DATA POSITION:23.151312,-0.588012,-14.315641 HEAD_JOINT1:0.978038,0.196720,-0.000000,0.068863 LARM_JOINT2:0.842034,0.000000,0.017263,-0.539148 LARM_JOINT3:0.964960,0.000000,-0.180614,-0.190342 LLEG_JOINT2:0.998561,0.020558,0.000000,0.049537 LLEG_JOINT4:0.996025,0.083889,0.000000,-0.029947 RARM_JOINT2:0.839360,0.000000,0.172136,0.515600 RARM_JOINT3:0.773972,0.000000,0.501491,0.386620 RLEG_JOINT2:0.998827,0.022084,0.000000,-0.043082 RLEG_JOINT4:0.994720,0.093451,0.000000,0.042421 WAIST:0.999951,0.000000,0.009334,-0.003413 WAIST_JOINT0:0.999712,-0.000000,0.019373,0.014163 WAIST_JOINT1:0.997878,0.065079,-0.000000,0.001986 END:
KINECT_DATA_Sensor  AnkleLeft:0.067968,0.733421,-0.080712,-0.671535 AnkleRight:0.079587,0.718062,0.083548,0.686348 ElbowLeft:-0.014132,0.889193,-0.225746,-0.397713 ElbowRight:-0.156715,0.919857,0.167771,0.318050 FootLeft:0.000000,0.000000,0.000000,0.000000 FootRight:0.000000,0.000000,0.000000,0.000000 HandLeft:-0.093340,0.818837,-0.021549,0.565976 HandRight:0.450404,-0.016463,-0.320715,0.833071 HandTipLeft:0.000000,0.000000,0.000000,0.000000 HandTipRight:0.000000,0.000000,0.000000,0.000000 Head:0.000000,0.000000,0.000000,0.000000 HipLeft:0.118458,-0.682279,0.701674,-0.167682 HipRight:-0.127819,0.675294,0.704328,-0.177658 KneeLeft:0.017567,-0.700398,0.047362,0.711962 KneeRight:-0.017643,0.713312,0.048365,0.698953 Neck:-0.020604,-0.000739,0.996494,-0.081087 ShoulderLeft:0.021078,0.772218,-0.632864,0.052145 ShoulderRight:-0.005302,0.787227,0.611154,-0.082068 SpineBase:-0.009134,-0.002595,0.999101,-0.041313 SpineMid:-0.014937,-0.002355,0.999031,-0.041327 SpineShoulder:-0.020730,-0.001440,0.997985,-0.059958 ThumbLeft:0.000000,0.000000,0.000000,0.000000 ThumbRight:0.000000,0.000000,0.000000,0.000000 WristLeft:-0.067426,0.824285,-0.091906,0.554582 WristRight:0.400819,-0.057225,-0.368277,0.836924 END:
KINECT_DATA POSITION:23.137280,-0.566795,-14.362823 HEAD_JOINT1:0.978372,0.194602,-0.000000,0.070126 LARM_JOINT2:0.842535,0.000000,0.016236,-0.538398 LARM_JOINT3:0.965183,0.000000,-0.180009,-0.189786 LLEG_JOINT2:0.998495,0.020040,0.000000,0.051056 LLEG_JOINT4:0.996079,0.082143,0.000000,-0.032842 RARM_JOINT2:0.838931,0.000000,0.173787,0.515746 RARM_JOINT3:0.772997,0.000000,0.502593,0.387139 RLEG_JOINT2:0.998845,0.021789,0.000000,-0.042815 RLEG_JOINT4:0.994842,0.092671,0.000000,0.041252 WAIST:0.999950,0.000000,0.009452,-0.003226 WAIST_JOINT0:0.999711,-0.000000,0.019245,0.014374 WAIST_JOINT1:0.997879,0.065066,-0.000000,0.001939 END:
KINECT_DATA_Sensor  AnkleLeft:-0.063071,-0.699093,0.081561,0.707558 AnkleRight:0.078210,0.717496,0.083416,0.687113 ElbowLeft:-0.014923,0.889760,-0.226363,-0.396060 ElbowRight:-0.157605,0.920150,0.166551,0.317404 FootLeft:0.000000,0.000000,0.000000,0.000000 FootRight:0.000000,0.000000,0.000000,0.000000 HandLeft:-0.090281,0.815771,-0.024750,0.570749 HandRight:0.450033,0.003951,-0.330481,0.829600 HandTipLeft:0.000000,0.000000,0.000000,0.000000 HandTipRight:0.000000,0.000000,0.000000,0.000000 Head:0.000000,0.000000,0.000000,0.000000 HipLeft:0.118396,-0.682193,0.701783,-0.167617 HipRight:-0.127933,0.675416,0.704165,-0.177756 KneeLeft:0.019126,-0.700261,0.048221,0.712000 KneeRight:-0.017534,0.713409,0.047833,0.698893 Neck:-0.020482,-0.000603,0.996497,-0.081078 ShoulderLeft:0.020960,0.771828,-0.633329,0.052314 ShoulderRight:-0.005277,0.787076,0.611357,-0.082016 SpineBase:-0.009266,-0.002506,0.999101,-0.041300 SpineMid:-0.014944,-0.002271,0.999032,-0.041313 SpineShoulder:-0.020608,-0.001331,0.997988,-0.059942 ThumbLeft:0.000000,0.000000,0.000000,0.000000 ThumbRight:0.000000,0.000000,0.000000,0.000000 WristLeft:-0.066863,0.820614,-0.092746,0.559928 WristRight:0.393381,-0.039146,-0.376689,0.837749 END:
KINECT_DATA POSITION:23.139124,-0.553177,-14.399851 HEAD_JOINT1:0.978344,0.194439,-0.000000,0.070965 LARM_JOINT2:0.843135,0.000000,0.015139,-0.537489 LARM_JOINT3:0.965570,0.000000,-0.177106,-0.190549 LLEG_JOINT2:0.998537,0.019046,0.000000,0.050612 LLEG_JOINT4:0.996011,0.082841,0.000000,-0.033173 RARM_JOINT2:0.838691,0.000000,0.178595,0.514492 RARM_JOINT3:0.773397,0.000000,0.502963,0.385857 RLEG_JOINT2:0.998790,0.022583,0.000000,-0.043696 RLEG_JOINT4:0.994904,0.091329,0.000000,0.042727 WAIST:0.999943,0.000000,0.010221,-0.002982 WAIST_JOINT0:0.999695,-0.000000,0.019739,0.014840 WAIST_JOINT1:0.997870,0.065207,-0.000000,0.001868 END:
KINECT_DATA_Sensor  AnkleLeft:0.066984,0.730710,-0.077897,-0.674914 AnkleRight:0.078496,0.719350,0.082344,0.685269 ElbowLeft:-0.015223,0.890632,-0.227247,-0.393576 ElbowRight:-0.160638,0.921628,0.165297,0.312208 FootLeft:0.000000,0.000000,0.000000,0.000000 FootRight:0.000000,0.000000,0.000000,0.000000 HandLeft:-0.084677,0.857135,-0.014451,0.507879 HandRight:0.427943,0.063077,-0.363843,0.824927 HandTipLeft:0.000000,0.000000,0.000000,0.000000 HandTipRight:0.000000,0.000000,0.000000,0.000000 Head:0.000000,0.000000,0.000000,0.000000 HipLeft:0.117875,-0.682094,0.702035,-0.167335 HipRight:-0.128342,0.675443,0.703928,-0.178296 KneeLeft:0.019662,-0.699687,0.047396,0.712604 KneeRight:-0.017467,0.713953,0.048833,0.698270 Neck:-0.020996,-0.000495,0.996476,-0.081210 ShoulderLeft:0.021090,0.771656,-0.633538,0.052275 ShoulderRight:-0.005815,0.787343,0.610914,-0.082710 SpineBase:-0.010044,-0.002340,0.999087,-0.041448 SpineMid:-0.015588,-0.002110,0.999016,-0.041461 SpineShoulder:-0.021122,-0.001229,0.997969,-0.060083 ThumbLeft:0.000000,0.000000,0.000000,0.000000 ThumbRight:0.000000,0.000000,0.000000,0.000000 WristLeft:-0.072954,0.859991,-0.087485,0.497432 WristRight:0.368354,0.022044,-0.401012,0.838462 END:
KINECT_DATA POSITION:23.128738,-0.546404,-14.423132 HEAD_JOINT1:0.978335,0.194512,-0.000000,0.070885 LARM_JOINT2:0.843226,0.000000,0.014572,-0.537362 LARM_JOINT3:0.965027,0.000000,-0.177310,-0.193089 LLEG_JOINT2:0.998564,0.019064,0.000000,0.050068 LLEG_JOINT4:0.996117,0.081518,0.000000,-0.033266 RARM_JOINT2:0.838744,0.000000,0.178565,0.514414 RARM_JOINT3:0.775194,0.000000,0.501472,0.384188 RLEG_JOINT2:0.998800,0.022674,0.000000,-0.043405 RLEG_JOINT4:0.995015,0.090395,0.000000,0.042111 WAIST:0.999947,0.000000,0.009879,-0.002816 WAIST_JOINT0:0.999678,-0.000000,0.020404,0.015060 WAIST_JOINT1:0.997845,0.065593,-0.000000,0.001756 END:
KINECT_DATA_Sensor  AnkleLeft:-0.062588,-0.698405,0.079756,0.708486 AnkleRight:0.077667,0.718059,0.081982,0.686759 ElbowLeft:-0.015071,0.891485,-0.227419,-0.391547 ElbowRight:-0.160266,0.921520,0.165495,0.312613 FootLeft:0.000000,0.000000,0.000000,0.000000 FootRight:0.000000,0.000000,0.000000,0.000000 HandLeft:-0.088989,0.833463,-0.012389,0.545222 HandRight:0.441694,0.008075,-0.334975,0.832246 HandTipLeft:0.000000,0.000000,0.000000,0.000000 HandTipRight:0.000000,0.000000,0.000000,0.000000 Head:0.000000,0.000000,0.000000,0.000000 HipLeft:0.117965,-0.681930,0.702104,-0.167648 HipRight:-0.128017,0.675576,0.703861,-0.178290 KneeLeft:0.019404,-0.699930,0.047129,0.712391 KneeRight:-0.017062,0.713733,0.048583,0.698523 Neck:-0.021679,-0.000317,0.996419,-0.081725 ShoulderLeft:0.021515,0.771495,-0.633725,0.052210 ShoulderRight:-0.006286,0.787372,0.610741,-0.083671 SpineBase:-0.009715,-0.002332,0.999082,-0.041656 SpineMid:-0.015765,-0.002080,0.999005,-0.041669 SpineShoulder:-0.021808,-0.001095,0.997934,-0.060426 ThumbLeft:0.000000,0.000000,0.000000,0.000000 ThumbRight:0.000000,0.000000,0.000000,0.000000 WristLeft:-0.069487,0.838292,-0.089667,0.533289 WristRight:0.393152,-0.030454,-0.377498,0.837854 END:
KINECT_DATA POSITION:23.117430,-0.541366,-14.408374 HEAD_JOINT1:0.978061,0.195751,-0.000000,0.071255 LARM_JOINT2:0.843283,0.000000,0.014595,-0.537271 LARM_JOINT3:0.965175,0.000000,-0.176824,-0.192798 LLEG_JOINT2:0.998581,0.020028,0.000000,0.049350 LLEG_JOINT4:0.996258,0.080032,0.000000,-0.032627 RARM_JOINT2:0.839035,0.000000,0.178645,0.513913 RARM_JOINT3:0.774609,0.000000,0.500755,0.386297 RLEG_JOINT2:0.998823,0.021702,0.000000,-0.043379 RLEG_JOINT4:0.994781,0.092636,0.000000,0.042776 WAIST:0.999949,0.000000,0.009770,-0.002753 WAIST_JOINT0:0.999671,-0.000000,0.020574,0.015297 WAIST_JOINT1:0.997823,0.065927,-0.000000,0.001856 END:
KINECT_DATA_Sensor  AnkleLeft:-0.062180,-0.698322,0.079419,0.708642 AnkleRight:0.077914,0.707820,0.083454,0.697105 ElbowLeft:-0.014711,0.891774,-0.227802,-0.390677 ElbowRight:-0.160150,0.921583,0.165987,0.312226 FootLeft:0.000000,0.000000,0.000000,0.000000 FootRight:0.000000,0.000000,0.000000,0.000000 HandLeft:-0.086123,0.848041,-0.011000,0.522770 HandRight:0.446463,0.000026,-0.326557,0.833085 HandTipLeft:0.000000,0.000000,0.000000,0.000000 HandTipRight:0.000000,0.000000,0.000000,0.000000 Head:0.000000,0.000000,0.000000,0.000000 HipLeft:0.117987,-0.681845,0.702133,-0.167856 HipRight:-0.127942,0.675609,0.703828,-0.178354 KneeLeft:0.018261,-0.700039,0.047333,0.712300 KneeRight:-0.017678,0.713647,0.047828,0.698647 Neck:-0.021896,-0.000110,0.996381,-0.082127 ShoulderLeft:0.021738,0.771290,-0.633952,0.052386 ShoulderRight:-0.006350,0.787493,0.610520,-0.084140 SpineBase:-0.009609,-0.002255,0.999078,-0.041785 SpineMid:-0.015821,-0.001996,0.998999,-0.041798 SpineShoulder:-0.022024,-0.000908,0.997910,-0.060737 ThumbLeft:0.000000,0.000000,0.000000,0.000000 ThumbRight:0.000000,0.000000,0.000000,0.000000 WristLeft:-0.071573,0.851802,-0.087430,0.511534 WristRight:0.398193,-0.039806,-0.372723,0.837219 END:
KINECT_DATA POSITION:23.113409,-0.542523,-14.395893 HEAD_JOINT1:0.977821,0.196621,-0.000000,0.072148 LARM_JOINT2:0.843355,0.000000,0.014749,-0.537155 LARM_JOINT3:0.965037,0.000000,-0.176963,-0.193361 LLEG_JOINT2:0.998570,0.020261,0.000000,0.049473 LLEG_JOINT4:0.996305,0.079634,0.000000,-0.032179 RARM_JOINT2:0.838924,0.000000,0.178666,0.514087 RARM_JOINT3:0.773794,0.000000,0.502154,0.386114 RLEG_JOINT2:0.998802,0.021451,0.000000,-0.043977 RLEG_JOINT4:0.994733,0.093270,0.000000,0.042502 WAIST:0.999949,0.000000,0.009662,-0.002849 WAIST_JOINT0:0.999668,-0.000000,0.020717,0.015295 WAIST_JOINT1:0.997811,0.066108,-0.000000,0.001896 END:
KINECT_DATA_Sensor  AnkleLeft:-0.061713,-0.698344,0.079661,0.708634 AnkleRight:0.078324,0.714415,0.083634,0.690276 ElbowLeft:-0.014415,0.891914,-0.227993,-0.390256 ElbowRight:-0.159717,0.921950,0.166108,0.311299 FootLeft:0.000000,0.000000,0.000000,0.000000 FootRight:0.000000,0.000000,0.000000,0.000000 HandLeft:-0.085821,0.847094,-0.010941,0.524354 HandRight:0.447337,0.002810,-0.332476,0.830266 HandTipLeft:0.000000,0.000000,0.000000,0.000000 HandTipRight:0.000000,0.000000,0.000000,0.000000 Head:0.000000,0.000000,0.000000,0.000000 HipLeft:0.118071,-0.681856,0.702058,-0.168065 HipRight:-0.127927,0.675526,0.703896,-0.178409 KneeLeft:0.018117,-0.700126,0.047514,0.712206 KneeRight:-0.018343,0.713550,0.048137,0.698708 Neck:-0.022010,-0.000167,0.996361,-0.082337 ShoulderLeft:0.021497,0.771600,-0.633556,0.052698 ShoulderRight:-0.006737,0.787674,0.610215,-0.084630 SpineBase:-0.009493,-0.002244,0.999075,-0.041870 SpineMid:-0.015817,-0.001979,0.998995,-0.041883 SpineShoulder:-0.022137,-0.000934,0.997897,-0.060909 ThumbLeft:0.000000,0.000000,0.000000,0.000000 ThumbRight:0.000000,0.000000,0.000000,0.000000 WristLeft:-0.071664,0.850821,-0.087162,0.513196 WristRight:0.396742,-0.035916,-0.373415,0.837775 END:
KINECT_DATA POSITION:23.102978,-0.542560,-14.379395 HEAD_JOINT1:0.977757,0.196906,-0.000000,0.072252 LARM_JOINT2:0.843197,0.000000,0.014530,-0.537408 LARM_JOINT3:0.965167,0.000000,-0.175346,-0.194183 LLEG_JOINT2:0.998557,0.019815,0.000000,0.049915 LLEG_JOINT4:0.996081,0.081869,0.000000,-0.033481 RARM_JOINT2:0.838429,0.000000,0.179085,0.514749 RARM_JOINT3:0.772279,0.000000,0.502238,0.389028 RLEG_JOINT2:0.998807,0.021528,0.000000,-0.043821 RLEG_JOINT4:0.994549,0.094544,0.000000,0.043970 WAIST:0.999947,0.000000,0.009844,-0.002938 WAIST_JOINT0:0.999670,-0.000000,0.020679,0.015230 WAIST_JOINT1:0.997791,0.066399,-0.000000,0.001937 END:
KINECT_DATA_Sensor  AnkleLeft:-0.063683,-0.698060,0.080197,0.708678 AnkleRight:0.079795,0.709764,0.084035,0.694842 ElbowLeft:-0.014095,0.892023,-0.227729,-0.390174 ElbowRight:-0.159229,0.922509,0.165468,0.310231 FootLeft:0.000000,0.000000,0.000000,0.000000 FootRight:0.000000,0.000000,0.000000,0.000000 HandLeft:-0.082028,0.851723,-0.004036,0.517516 HandRight:0.451201,0.009925,-0.331798,0.828390 HandTipLeft:0.000000,0.000000,0.000000,0.000000 HandTipRight:0.000000,0.000000,0.000000,0.000000 Head:0.000000,0.000000,0.000000,0.000000 HipLeft:0.117868,-0.681869,0.702056,-0.168163 HipRight:-0.127954,0.675381,0.703966,-0.178663 KneeLeft:0.018674,-0.699988,0.047459,0.712332 KneeRight:-0.018248,0.713672,0.048143,0.698585 Neck:-0.021969,-0.000296,0.996336,-0.082661 ShoulderLeft:0.021830,0.771630,-0.633502,0.052792 ShoulderRight:-0.006335,0.787593,0.610320,-0.084662 SpineBase:-0.009664,-0.002230,0.999065,-0.042089 SpineMid:-0.015879,-0.001969,0.998985,-0.042102 SpineShoulder:-0.022092,-0.000989,0.997881,-0.061191 ThumbLeft:0.000000,0.000000,0.000000,0.000000 ThumbRight:0.000000,0.000000,0.000000,0.000000 WristLeft:-0.072480,0.855208,-0.086096,0.505918 WristRight:0.397003,-0.031072,-0.374707,0.837268 END:
KINECT_DATA POSITION:23.105110,-0.541303,-14.374554 HEAD_JOINT1:0.977640,0.197617,-0.000000,0.071883 LARM_JOINT2:0.843070,0.000000,0.014670,-0.537603 LARM_JOINT3:0.965239,0.000000,-0.176740,-0.192553 LLEG_JOINT2:0.998568,0.019581,0.000000,0.049793 LLEG_JOINT4:0.996044,0.082855,0.000000,-0.032110 RARM_JOINT2:0.829909,0.000000,0.191025,0.524175 RARM_JOINT3:0.781404,0.000000,0.495210,0.379703 RLEG_JOINT2:0.998792,0.022559,0.000000,-0.043645 RLEG_JOINT4:0.994925,0.091172,0.000000,0.042571 WAIST:0.999945,0.000000,0.010045,-0.002869 WAIST_JOINT0:0.999662,-0.000000,0.021001,0.015327 WAIST_JOINT1:0.997785,0.066499,-0.000000,0.001951 END:
KINECT_DATA_Sensor  AnkleLeft:0.065634,0.717809,-0.079807,-0.688529 AnkleRight:0.078713,0.721994,0.081885,0.682513 ElbowLeft:-0.013907,0.891755,-0.227674,-0.390826 ElbowRight:-0.161085,0.925530,0.148950,0.308642 FootLeft:0.000000,0.000000,0.000000,0.000000 FootRight:0.000000,0.000000,0.000000,0.000000 HandLeft:-0.082674,0.851043,-0.011283,0.518424 HandRight:0.416832,0.105221,-0.372897,0.822270 HandTipLeft:0.000000,0.000000,0.000000,0.000000 HandTipRight:0.000000,0.000000,0.000000,0.000000 Head:0.000000,0.000000,0.000000,0.000000 HipLeft:0.117773,-0.681830,0.702123,-0.168107 HipRight:-0.128136,0.675378,0.703894,-0.178827 KneeLeft:0.018794,-0.699839,0.047260,0.712488 KneeRight:-0.017360,0.713833,0.048704,0.698404 Neck:-0.022290,-0.000208,0.996319,-0.082777 ShoulderLeft:0.022008,0.771542,-0.633609,0.052701 ShoulderRight:-0.006579,0.787566,0.610296,-0.085057 SpineBase:-0.009867,-0.002161,0.999062,-0.042103 SpineMid:-0.016140,-0.001896,0.998981,-0.042116 SpineShoulder:-0.022413,-0.000915,0.997868,-0.061286 ThumbLeft:0.000000,0.000000,0.000000,0.000000 ThumbRight:0.000000,0.000000,0.000000,0.000000 WristLeft:-0.072437,0.854037,-0.086245,0.507873 WristRight:0.356036,0.061040,-0.416387,0.834347 END:
KINECT_DATA POSITION:23.102150,-0.540989,-14.374232 HEAD_JOINT1:0.977455,0.198320,-0.000000,0.072457 LARM_JOINT2:0.843202,0.000000,0.014837,-0.537392 LARM_JOINT3:0.965087,0.000000,-0.177529,-0.192588 LLEG_JOINT2:0.998578,0.019316,0.000000,0.049687 LLEG_JOINT4:0.996089,0.082209,0.000000,-0.032378 RARM_JOINT2:0.831718,0.000000,0.187286,0.522656 RARM_JOINT3:0.780549,0.000000,0.496449,0.379843 RLEG_JOINT2:0.998772,0.023159,0.000000,-0.043786 RLEG_JOINT4:0.994906,0.090793,0.000000,0.043811 WAIST:0.999943,0.000000,0.010321,-0.002807 WAIST_JOINT0:0.999662,-0.000000,0.020952,0.015397 WAIST_JOINT1:0.997785,0.066497,-0.000000,0.001862 END:
KINECT_DATA_Sensor  AnkleLeft:-0.062950,-0.698071,0.080750,0.708671 AnkleRight:0.078131,0.709325,0.082694,0.695640 ElbowLeft:-0.013663,0.891829,-0.227936,-0.390511 ElbowRight:-0.159749,0.925025,0.152681,0.309027 FootLeft:0.000000,0.000000,0.000000,0.000000 FootRight:0.000000,0.000000,0.000000,0.000000 HandLeft:-0.084835,0.859204,-0.012215,0.504403 HandRight:0.454871,-0.008868,-0.318770,0.831505 HandTipLeft:0.000000,0.000000,0.000000,0.000000 HandTipRight:0.000000,0.000000,0.000000,0.000000 Head:0.000000,0.000000,0.000000,0.000000 HipLeft:0.117605,-0.681826,0.702189,-0.167971 HipRight:-0.128283,0.675371,0.703822,-0.179034 KneeLeft:0.018940,-0.699633,0.047048,0.712700 KneeRight:-0.017008,0.714037,0.049183,0.698171 Neck:-0.022235,-0.000278,0.996322,-0.082757 ShoulderLeft:0.021661,0.771619,-0.633505,0.052975 ShoulderRight:-0.006856,0.787678,0.610125,-0.085229 SpineBase:-0.010149,-0.002175,0.999058,-0.042139 SpineMid:-0.016254,-0.001917,0.998977,-0.042152 SpineShoulder:-0.022359,-0.000983,0.997869,-0.061289 ThumbLeft:0.000000,0.000000,0.000000,0.000000 ThumbRight:0.000000,0.000000,0.000000,0.000000 WristLeft:-0.073774,0.862057,-0.084859,0.494180 WristRight:0.407540,-0.048899,-0.365779,0.835300 END:
KINECT_DATA POSITION:23.101994,-0.543776,-14.380610 HEAD_JOINT1:0.977486,0.198311,-0.000000,0.072068 LARM_JOINT2:0.843275,0.000000,0.014493,-0.537287 LARM_JOINT3:0.965253,0.000000,-0.178038,-0.191281 LLEG_JOINT2:0.998579,0.019947,0.000000,0.049412 LLEG_JOINT4:0.996411,0.078099,0.000000,-0.032636 RARM_JOINT2:0.832744,0.000000,0.188383,0.520624 RARM_JOINT3:0.782513,0.000000,0.493223,0.380007 RLEG_JOINT2:0.998776,0.023117,0.000000,-0.043718 RLEG_JOINT4:0.995084,0.089766,0.000000,0.041820 WAIST:0.999942,0.000000,0.010444,-0.002708 WAIST_JOINT0:0.999662,-0.000000,0.020954,0.015412 WAIST_JOINT1:0.997783,0.066523,-0.000000,0.001878 END:
KINECT_DATA_Sensor  AnkleLeft:-0.060744,-0.698280,0.078038,0.708961 AnkleRight:0.075246,0.702669,0.083983,0.702525 ElbowLeft:-0.013860,0.891962,-0.228062,-0.390128 ElbowRight:-0.161319,0.925131,0.154141,0.307163 FootLeft:0.000000,0.000000,0.000000,0.000000 FootRight:0.000000,0.000000,0.000000,0.000000 HandLeft:-0.083875,0.843285,-0.020537,0.530485 HandRight:0.418453,0.068730,-0.355034,0.833141 HandTipLeft:0.000000,0.000000,0.000000,0.000000 HandTipRight:0.000000,0.000000,0.000000,0.000000 Head:0.000000,0.000000,0.000000,0.000000 HipLeft:0.117499,-0.681770,0.702263,-0.167963 HipRight:-0.128361,0.675418,0.703734,-0.179145 KneeLeft:0.018360,-0.699559,0.047365,0.712767 KneeRight:-0.016925,0.714129,0.049034,0.698090 Neck:-0.022242,-0.000153,0.996320,-0.082770 ShoulderLeft:0.021559,0.771741,-0.633353,0.053058 ShoulderRight:-0.006971,0.787835,0.609908,-0.085327 SpineBase:-0.010276,-0.002078,0.999055,-0.042189 SpineMid:-0.016321,-0.001823,0.998974,-0.042201 SpineShoulder:-0.022366,-0.000892,0.997867,-0.061317 ThumbLeft:0.000000,0.000000,0.000000,0.000000 ThumbRight:0.000000,0.000000,0.000000,0.000000 WristLeft:-0.071019,0.846135,-0.087246,0.520961 WristRight:0.370510,0.029208,-0.400592,0.837494 END:
KINECT_DATA POSITION:23.100067,-0.541735,-14.406311 HEAD_JOINT1:0.977616,0.197793,-0.000000,0.071720 LARM_JOINT2:0.843535,0.000000,0.014441,-0.536880 LARM_JOINT3:0.965366,0.000000,-0.178142,-0.190612 LLEG_JOINT2:0.998562,0.019645,0.000000,0.049886 LLEG_JOINT4:0.996200,0.080425,0.000000,-0.033432 RARM_JOINT2:0.832995,0.000000,0.188216,0.520283 RARM_JOINT3:0.782646,0.000000,0.492859,0.380203 RLEG_JOINT2:0.998793,0.022745,0.000000,-0.043523 RLEG_JOINT4:0.994996,0.090567,0.000000,0.042187 WAIST:0.999945,0.000000,0.010153,-0.002719 WAIST_JOINT0:0.999656,-0.000000,0.021117,0.015554 WAIST_JOINT1:0.997792,0.066375,-0.000000,0.002132 END:
KINECT_DATA_Sensor  AnkleLeft:-0.062380,-0.697979,0.079233,0.708982 AnkleRight:0.077258,0.713228,0.082695,0.691736 ElbowLeft:-0.014457,0.891818,-0.228631,-0.390103 ElbowRight:-0.161093,0.925616,0.154700,0.305535 FootLeft:0.000000,0.000000,0.000000,0.000000 FootRight:0.000000,0.000000,0.000000,0.000000 HandLeft:-0.084977,0.835330,-0.023710,0.542623 HandRight:0.426158,0.056306,-0.353002,0.831029 HandTipLeft:0.000000,0.000000,0.000000,0.000000 HandTipRight:0.000000,0.000000,0.000000,0.000000 Head:0.000000,0.000000,0.000000,0.000000 HipLeft:0.117662,-0.681725,0.702222,-0.168201 HipRight:-0.128316,0.675462,0.703747,-0.178958 KneeLeft:0.018914,-0.699757,0.047480,0.712550 KneeRight:-0.017042,0.713919,0.048643,0.698329 Neck:-0.022441,0.000172,0.996334,-0.082558 ShoulderLeft:0.021139,0.771867,-0.633206,0.053137 ShoulderRight:-0.007670,0.788218,0.609352,-0.085697 SpineBase:-0.009977,-0.001871,0.999059,-0.042165 SpineMid:-0.016267,-0.001605,0.998976,-0.042176 SpineShoulder:-0.022563,-0.000608,0.997871,-0.061189 ThumbLeft:0.000000,0.000000,0.000000,0.000000 ThumbRight:0.000000,0.000000,0.000000,0.000000 WristLeft:-0.068648,0.838613,-0.089284,0.532958 WristRight:0.373980,0.017513,-0.393013,0.839865 END:
