EastLYD/RoboCupatHomeSim/InteractiveCleanUp/JapanOpen2016/Motion_Data/File64.dat
KINECT_DATA POSITION:13.545951,-0.659338,6.805432 HEAD_JOINT1:0.978886,0.193474,-0.000000,0.065961 LARM_JOINT2:0.808830,0.000000,-0.050430,-0.585876 LARM_JOINT3:0.966637,0.000000,-0.194295,-0.166918 LLEG_JOINT2:0.998677,0.037928,0.000000,0.034725 LLEG_JOINT4:0.996426,0.082313,0.000000,-0.018986 RARM_JOINT2:0.800488,0.000000,-0.066964,0.595596 RARM_JOINT3:0.973759,0.000000,0.184854,0.132749 RLEG_JOINT2:0.999641,0.016723,0.000000,-0.020953 RLEG_JOINT4:0.994659,0.094285,0.000000,0.041993 WAIST:0.999965,0.000000,0.002962,-0.007854 WAIST_JOINT0:0.999958,0.000000,-0.009178,-0.000637 WAIST_JOINT1:0.997527,0.069829,0.000000,-0.007937 END:
KINECT_DATA_Sensor  AnkleLeft:0.083141,0.725621,-0.086947,-0.677497 AnkleRight:0.089770,0.724072,0.066442,0.680622 ElbowLeft:-0.035451,0.895459,-0.138502,-0.421561 ElbowRight:0.024644,0.847687,0.198551,0.491321 FootLeft:0.000000,0.000000,0.000000,0.000000 FootRight:0.000000,0.000000,0.000000,0.000000 HandLeft:-0.050020,0.868483,0.182700,-0.458100 HandRight:-0.030806,0.760705,0.053654,-0.646143 HandTipLeft:0.000000,0.000000,0.000000,0.000000 HandTipRight:0.000000,0.000000,0.000000,0.000000 Head:0.000000,0.000000,0.000000,0.000000 HipLeft:0.113861,-0.685932,0.699904,-0.163303 HipRight:-0.114679,0.672060,0.710153,-0.175689 KneeLeft:-0.008019,-0.705317,0.045809,0.707365 KneeRight:-0.008596,0.709250,0.032190,0.704169 Neck:0.009575,-0.017718,0.996137,-0.085471 ShoulderLeft:0.014901,0.786775,-0.613196,0.068956 ShoulderRight:0.028028,0.781650,0.620798,-0.053356 SpineBase:-0.002929,-0.015170,0.998850,-0.045384 SpineMid:0.003047,-0.015441,0.998850,-0.045293 SpineShoulder:0.009355,-0.016507,0.997738,-0.064488 ThumbLeft:0.000000,0.000000,0.000000,0.000000 ThumbRight:0.000000,0.000000,0.000000,0.000000 WristLeft:-0.129024,0.870190,0.089801,-0.466967 WristRight:-0.031686,0.760173,0.082470,-0.643686 END:
KINECT_DATA POSITION:13.538030,-0.674095,6.810117 HEAD_JOINT1:0.978889,0.193011,-0.000000,0.067257 LARM_JOINT2:0.808772,0.000000,-0.050606,-0.585941 LARM_JOINT3:0.965748,0.000000,-0.197968,-0.167748 LLEG_JOINT2:0.998687,0.037780,0.000000,0.034608 LLEG_JOINT4:0.996455,0.082375,0.000000,-0.017085 RARM_JOINT2:0.800015,0.000000,-0.066767,0.596253 RARM_JOINT3:0.974174,0.000000,0.183303,0.131850 RLEG_JOINT2:0.999636,0.017207,0.000000,-0.020757 RLEG_JOINT4:0.994963,0.091105,0.000000,0.041821 WAIST:0.999964,0.000000,0.002663,-0.008079 WAIST_JOINT0:0.999948,0.000000,-0.010183,-0.000677 WAIST_JOINT1:0.997534,0.069752,0.000000,-0.007833 END:
KINECT_DATA_Sensor  AnkleLeft:0.080718,0.716054,-0.089236,-0.687596 AnkleRight:0.085674,0.703052,0.067358,0.702738 ElbowLeft:-0.035199,0.896826,-0.138304,-0.418731 ElbowRight:0.024482,0.846790,0.197883,0.493142 FootLeft:0.000000,0.000000,0.000000,0.000000 FootRight:0.000000,0.000000,0.000000,0.000000 HandLeft:-0.050479,0.841040,0.193306,-0.502729 HandRight:-0.025253,0.767882,0.048975,-0.638217 HandTipLeft:0.000000,0.000000,0.000000,0.000000 HandTipRight:0.000000,0.000000,0.000000,0.000000 Head:0.000000,0.000000,0.000000,0.000000 HipLeft:0.114118,-0.686044,0.699708,-0.163491 HipRight:-0.114523,0.671954,0.710318,-0.175529 KneeLeft:-0.008139,-0.705537,0.045463,0.707166 KneeRight:-0.008267,0.709024,0.032554,0.704384 Neck:0.010565,-0.017881,0.996135,-0.085341 ShoulderLeft:0.014582,0.786960,-0.612918,0.069373 ShoulderRight:0.028978,0.781770,0.620701,-0.052212 SpineBase:-0.002616,-0.015311,0.998850,-0.045358 SpineMid:0.003695,-0.015597,0.998847,-0.045260 SpineShoulder:0.010347,-0.016648,0.997731,-0.064414 ThumbLeft:0.000000,0.000000,0.000000,0.000000 ThumbRight:0.000000,0.000000,0.000000,0.000000 WristLeft:-0.123239,0.844219,0.098730,-0.512209 WristRight:-0.032816,0.766757,0.082554,-0.635761 END:
KINECT_DATA POSITION:13.499862,-0.688829,6.808186 HEAD_JOINT1:0.978814,0.191371,-0.000000,0.072799 LARM_JOINT2:0.808905,0.000000,-0.055709,-0.585295 LARM_JOINT3:0.963971,0.000000,-0.203509,-0.171298 LLEG_JOINT2:0.998702,0.037324,0.000000,0.034654 LLEG_JOINT4:0.996241,0.084762,0.000000,-0.017841 RARM_JOINT2:0.798478,0.000000,-0.066894,0.598296 RARM_JOINT3:0.975172,0.000000,0.178693,0.130798 RLEG_JOINT2:0.999633,0.017816,0.000000,-0.020420 RLEG_JOINT4:0.994998,0.090482,0.000000,0.042321 WAIST:0.999963,0.000000,0.001202,-0.008476 WAIST_JOINT0:0.999877,0.000000,-0.015643,-0.001321 WAIST_JOINT1:0.997576,0.069134,0.000000,-0.007919 END:
KINECT_DATA_Sensor  AnkleLeft:0.082265,0.713245,-0.090300,-0.690189 AnkleRight:0.087419,0.716313,0.065119,0.689212 ElbowLeft:-0.038242,0.901841,-0.136389,-0.408188 ElbowRight:0.024833,0.845085,0.195837,0.496853 FootLeft:0.000000,0.000000,0.000000,0.000000 FootRight:0.000000,0.000000,0.000000,0.000000 HandLeft:-0.089004,0.890439,0.199190,-0.399400 HandRight:-0.010419,0.736592,0.035588,-0.675320 HandTipLeft:0.000000,0.000000,0.000000,0.000000 HandTipRight:0.000000,0.000000,0.000000,0.000000 Head:0.000000,0.000000,0.000000,0.000000 HipLeft:0.115150,-0.686222,0.699238,-0.164030 HipRight:-0.113568,0.671985,0.710703,-0.174470 KneeLeft:0.007988,0.706583,-0.044896,-0.706160 KneeRight:-0.007840,0.707977,0.033031,0.705419 Neck:0.016096,-0.018524,0.996126,-0.084449 ShoulderLeft:0.011075,0.787623,-0.611740,0.072806 ShoulderRight:0.032536,0.781559,0.621203,-0.047047 SpineBase:-0.001145,-0.015761,0.998857,-0.045109 SpineMid:0.007180,-0.016136,0.998832,-0.044976 SpineShoulder:0.015878,-0.017303,0.997686,-0.063801 ThumbLeft:0.000000,0.000000,0.000000,0.000000 ThumbRight:0.000000,0.000000,0.000000,0.000000 WristLeft:-0.134489,0.896701,0.092302,-0.411485 WristRight:-0.029182,0.734914,0.083981,-0.672307 END:
KINECT_DATA POSITION:13.370376,-0.698134,6.843102 HEAD_JOINT1:0.979438,0.186047,-0.000000,0.078022 LARM_JOINT2:0.812063,0.000000,-0.074543,-0.578790 LARM_JOINT3:0.945944,0.000000,-0.257335,-0.197402 LLEG_JOINT2:0.998594,0.037978,0.000000,0.036991 LLEG_JOINT4:0.996490,0.081965,0.000000,-0.017012 RARM_JOINT2:0.797444,0.000000,-0.066881,0.599675 RARM_JOINT3:0.975310,0.000000,0.179144,0.129145 RLEG_JOINT2:0.999675,0.018133,0.000000,-0.017905 RLEG_JOINT4:0.995124,0.089440,0.000000,0.041575 WAIST:0.999953,0.000000,-0.000084,-0.009661 WAIST_JOINT0:0.999789,0.000000,-0.020458,-0.001704 WAIST_JOINT1:0.997609,0.068704,0.000000,-0.007447 END:
KINECT_DATA_Sensor  AnkleLeft:0.079483,0.716330,-0.090123,-0.687337 AnkleRight:0.088482,0.727553,0.062541,0.677441 ElbowLeft:-0.051515,0.912890,-0.135276,-0.381678 ElbowRight:0.024632,0.843116,0.194762,0.500615 FootLeft:0.000000,0.000000,0.000000,0.000000 FootRight:0.000000,0.000000,0.000000,0.000000 HandLeft:-0.175865,0.858412,0.267289,-0.400945 HandRight:-0.007863,-0.449708,-0.035847,0.892421 HandTipLeft:0.000000,0.000000,0.000000,0.000000 HandTipRight:0.000000,0.000000,0.000000,0.000000 Head:0.000000,0.000000,0.000000,0.000000 HipLeft:0.116395,-0.686966,0.698312,-0.163980 HipRight:-0.112809,0.671382,0.711666,-0.173356 KneeLeft:0.007576,0.707577,-0.046177,-0.705085 KneeRight:-0.006642,0.707047,0.032316,0.706397 Neck:0.020936,-0.019228,0.996072,-0.083860 ShoulderLeft:0.007489,0.787741,-0.611216,0.076309 ShoulderRight:0.035154,0.781347,0.621621,-0.042989 SpineBase:0.000181,-0.017125,0.998864,-0.044469 SpineMid:0.010204,-0.017570,0.998812,-0.044295 SpineShoulder:0.020694,-0.018201,0.997612,-0.063336 ThumbLeft:0.000000,0.000000,0.000000,0.000000 ThumbRight:0.000000,0.000000,0.000000,0.000000 WristLeft:-0.149983,0.880726,0.152995,-0.422397 WristRight:-0.001666,-0.447872,-0.090411,0.889513 END:
KINECT_DATA POSITION:11.987236,-0.600485,7.368195 HEAD_JOINT1:0.980115,0.179980,-0.000000,0.083560 LARM_JOINT2:0.805255,0.000000,-0.271676,-0.527026 LARM_JOINT3:0.945869,0.000000,-0.291853,-0.141960 LLEG_JOINT2:0.996263,0.048422,0.000000,0.071522 LLEG_JOINT4:0.996521,0.074166,0.000000,-0.038014 RARM_JOINT2:0.792513,0.000000,-0.072239,0.605561 RARM_JOINT3:0.975261,0.000000,0.177289,0.132043 RLEG_JOINT2:0.999524,0.025172,0.000000,0.017854 RLEG_JOINT4:0.996384,0.082075,0.000000,0.021986 WAIST:0.999657,0.000000,-0.007152,-0.025184 WAIST_JOINT0:0.999353,0.000000,-0.035572,-0.005242 WAIST_JOINT1:0.997978,0.063534,0.000000,-0.002052 END:
KINECT_DATA_Sensor  AnkleLeft:0.081315,0.715833,-0.091479,-0.687461 AnkleRight:0.088900,0.723303,0.061215,0.682043 ElbowLeft:-0.199290,0.928330,-0.064949,-0.307033 ElbowRight:0.024779,0.840104,0.195531,0.505350 FootLeft:0.000000,0.000000,0.000000,0.000000 FootRight:0.000000,0.000000,0.000000,0.000000 HandLeft:-0.349911,0.435805,-0.261015,0.787088 HandRight:-0.019583,-0.354139,-0.030058,0.934505 HandTipLeft:0.000000,0.000000,0.000000,0.000000 HandTipRight:0.000000,0.000000,0.000000,0.000000 Head:0.000000,0.000000,0.000000,0.000000 HipLeft:-0.127172,0.698114,-0.686014,0.160776 HipRight:-0.111180,0.662550,0.721884,-0.165982 KneeLeft:0.001050,0.713948,-0.066923,-0.696992 KneeRight:0.012644,0.701128,0.022758,0.712560 Neck:0.036468,-0.026804,0.995978,-0.077321 ShoulderLeft:-0.012889,0.790363,-0.605998,0.089032 ShoulderRight:0.034777,0.780908,0.622872,-0.031696 SpineBase:0.007841,-0.031257,0.998800,-0.036876 SpineMid:0.021282,-0.031750,0.998604,-0.036452 SpineShoulder:0.035811,-0.028987,0.997248,-0.058077 ThumbLeft:0.000000,0.000000,0.000000,0.000000 ThumbRight:0.000000,0.000000,0.000000,0.000000 WristLeft:-0.281712,0.455563,-0.217826,0.815876 WristRight:-0.011107,-0.351934,-0.092069,0.931420 END:
KINECT_DATA POSITION:11.742995,-0.632139,7.413387 HEAD_JOINT1:0.980314,0.176198,-0.000000,0.089099 LARM_JOINT2:0.803617,0.000000,-0.354061,-0.478373 LARM_JOINT3:0.957900,0.000000,-0.257631,-0.126706 LLEG_JOINT2:0.995528,0.052809,0.000000,0.078326 LLEG_JOINT4:0.996584,0.070111,0.000000,-0.043641 RARM_JOINT2:0.790944,0.000000,-0.076058,0.607143 RARM_JOINT3:0.976096,0.000000,0.168066,0.137808 RLEG_JOINT2:0.999419,0.025632,0.000000,0.022456 RLEG_JOINT4:0.996308,0.083748,0.000000,0.018878 WAIST:0.999516,0.000000,-0.014428,-0.027564 WAIST_JOINT0:0.998333,0.000000,-0.056568,-0.011485 WAIST_JOINT1:0.998206,0.059780,0.000000,-0.003200 END:
KINECT_DATA_Sensor  AnkleLeft:0.083468,0.735062,-0.089548,-0.666857 AnkleRight:0.086338,0.676605,0.067702,0.728126 ElbowLeft:-0.271095,0.932362,-0.053615,-0.233098 ElbowRight:0.026179,0.839307,0.195524,0.506605 FootLeft:0.000000,0.000000,0.000000,0.000000 FootRight:0.000000,0.000000,0.000000,0.000000 HandLeft:-0.349978,0.453752,-0.263168,0.776123 HandRight:0.014091,0.741300,0.007787,-0.670981 HandTipLeft:0.000000,0.000000,0.000000,0.000000 HandTipRight:0.000000,0.000000,0.000000,0.000000 Head:0.000000,0.000000,0.000000,0.000000 HipLeft:-0.134580,0.698544,-0.683068,0.165353 HipRight:-0.109693,0.661796,0.723679,-0.162117 KneeLeft:0.000351,0.719348,-0.073017,-0.690801 KneeRight:0.014530,0.695751,0.021240,0.717822 Neck:0.057786,-0.032145,0.995155,-0.072765 ShoulderLeft:-0.037593,0.794496,-0.596429,0.107870 ShoulderRight:0.037577,0.780123,0.624249,-0.017602 SpineBase:0.015200,-0.032187,0.998756,-0.034926 SpineMid:0.035686,-0.032897,0.998234,-0.034258 SpineShoulder:0.057261,-0.032353,0.996377,-0.053911 ThumbLeft:0.000000,0.000000,0.000000,0.000000 ThumbRight:0.000000,0.000000,0.000000,0.000000 WristLeft:-0.307440,0.465984,-0.229873,0.797181 WristRight:-0.031005,0.738698,0.085948,-0.667815 END:
KINECT_DATA POSITION:11.646229,-0.670268,7.434881 HEAD_JOINT1:0.980346,0.174180,-0.000000,0.092647 LARM_JOINT2:0.804311,0.000000,-0.387351,-0.450603 LARM_JOINT3:0.963262,0.000000,-0.240376,-0.119776 LLEG_JOINT2:0.995165,0.055894,0.000000,0.080761 LLEG_JOINT4:0.996725,0.065955,0.000000,-0.046785 RARM_JOINT2:0.788850,0.000000,-0.081074,0.609214 RARM_JOINT3:0.975209,0.000000,0.169934,0.141739 RLEG_JOINT2:0.999402,0.025028,0.000000,0.023853 RLEG_JOINT4:0.996448,0.082784,0.000000,0.015437 WAIST:0.999381,0.000000,-0.021191,-0.028086 WAIST_JOINT0:0.997332,0.000000,-0.071537,-0.014540 WAIST_JOINT1:0.998331,0.057593,0.000000,-0.004200 END:
KINECT_DATA_Sensor  AnkleLeft:0.081200,0.727766,-0.089821,-0.675052 AnkleRight:0.089001,0.729689,0.060608,0.675248 ElbowLeft:-0.304818,0.930531,-0.053817,-0.195706 ElbowRight:0.029774,0.835857,0.194441,0.512493 FootLeft:0.000000,0.000000,0.000000,0.000000 FootRight:0.000000,0.000000,0.000000,0.000000 HandLeft:-0.343008,0.453730,-0.271960,0.776217 HandRight:0.000198,-0.430279,-0.009938,0.902641 HandTipLeft:0.000000,0.000000,0.000000,0.000000 HandTipRight:0.000000,0.000000,0.000000,0.000000 Head:0.000000,0.000000,0.000000,0.000000 HipLeft:-0.140414,0.697912,-0.681499,0.169595 HipRight:-0.107433,0.662379,0.724315,-0.158366 KneeLeft:0.000510,0.724169,-0.076432,-0.685373 KneeRight:0.014702,0.690874,0.019954,0.722550 Neck:0.072859,-0.034675,0.994248,-0.070427 ShoulderLeft:-0.056070,0.795481,-0.590837,0.122383 ShoulderRight:0.038682,0.779747,0.624836,-0.008870 SpineBase:0.021967,-0.032032,0.998676,-0.033740 SpineMid:0.046640,-0.032856,0.997828,-0.032938 SpineShoulder:0.072422,-0.033589,0.995483,-0.051384 ThumbLeft:0.000000,0.000000,0.000000,0.000000 ThumbRight:0.000000,0.000000,0.000000,0.000000 WristLeft:-0.312021,0.462188,-0.241386,0.794202 WristRight:-0.004426,-0.428302,-0.089082,0.899223 END:
KINECT_DATA POSITION:11.567254,-0.680733,7.420826 HEAD_JOINT1:0.980272,0.173842,-0.000000,0.094052 LARM_JOINT2:0.797976,0.000000,-0.423584,-0.428733 LARM_JOINT3:0.973227,0.000000,-0.202114,-0.109448 LLEG_JOINT2:0.994929,0.059566,0.000000,0.081048 LLEG_JOINT4:0.996888,0.060758,0.000000,-0.050228 RARM_JOINT2:0.789128,0.000000,-0.080961,0.608870 RARM_JOINT3:0.974467,0.000000,0.174346,0.141480 RLEG_JOINT2:0.999466,0.022476,0.000000,0.023731 RLEG_JOINT4:0.995949,0.088758,0.000000,0.014373 WAIST:0.999101,0.000000,-0.031976,-0.027850 WAIST_JOINT0:0.996428,0.000000,-0.083096,-0.015069 WAIST_JOINT1:0.998490,0.054481,0.000000,-0.007068 END:
KINECT_DATA_Sensor  AnkleLeft:0.082831,0.748953,-0.085666,-0.651821 AnkleRight:0.089865,0.704838,0.064648,0.700677 ElbowLeft:-0.335950,0.929953,-0.046600,-0.141959 ElbowRight:0.028924,0.834081,0.194925,0.515244 FootLeft:0.000000,0.000000,0.000000,0.000000 FootRight:0.000000,0.000000,0.000000,0.000000 HandLeft:-0.308693,0.404889,-0.295342,0.808422 HandRight:-0.009609,0.735546,0.039182,-0.676272 HandTipLeft:0.000000,0.000000,0.000000,0.000000 HandTipRight:0.000000,0.000000,0.000000,0.000000 Head:0.000000,0.000000,0.000000,0.000000 HipLeft:-0.147424,0.696563,-0.680296,0.173963 HipRight:-0.100788,0.664128,0.725362,-0.150415 KneeLeft:0.001652,0.731700,-0.079253,-0.677002 KneeRight:0.012926,0.683213,0.017757,0.729889 Neck:0.084282,-0.037652,0.993456,-0.067256 ShoulderLeft:-0.071580,0.793597,-0.589406,0.132965 ShoulderRight:0.038308,0.779184,0.625621,-0.001780 SpineBase:0.032662,-0.032651,0.998414,-0.032191 SpineMid:0.057766,-0.033450,0.997277,-0.031360 SpineShoulder:0.083915,-0.035278,0.994677,-0.048280 ThumbLeft:0.000000,0.000000,0.000000,0.000000 ThumbRight:0.000000,0.000000,0.000000,0.000000 WristLeft:-0.290414,0.408838,-0.268532,0.822436 WristRight:-0.029431,0.733617,0.086213,-0.673430 END:
KINECT_DATA POSITION:11.486775,-0.663103,7.332754 HEAD_JOINT1:0.981043,0.170285,-0.000000,0.092513 LARM_JOINT2:0.796233,0.000000,-0.444447,-0.410464 LARM_JOINT3:0.978931,0.000000,-0.167173,-0.117252 LLEG_JOINT2:0.994833,0.061773,0.000000,0.080566 LLEG_JOINT4:0.996652,0.061639,0.000000,-0.053721 RARM_JOINT2:0.788606,0.000000,-0.083189,0.609246 RARM_JOINT3:0.975232,0.000000,0.167543,0.144399 RLEG_JOINT2:0.999507,0.020525,0.000000,0.023755 RLEG_JOINT4:0.995774,0.091128,0.000000,0.011407 WAIST:0.998704,0.000000,-0.042780,-0.027574 WAIST_JOINT0:0.995565,0.000000,-0.092972,-0.014393 WAIST_JOINT1:0.998573,0.052498,0.000000,-0.009815 END:
KINECT_DATA_Sensor  AnkleLeft:0.086203,0.753523,-0.086189,-0.646021 AnkleRight:0.091010,0.719778,0.062892,0.685333 ElbowLeft:-0.355034,0.930537,-0.059658,-0.067031 ElbowRight:0.029926,0.828328,0.195769,0.524072 FootLeft:0.000000,0.000000,0.000000,0.000000 FootRight:0.000000,0.000000,0.000000,0.000000 HandLeft:-0.294050,0.431713,-0.275174,0.807117 HandRight:-0.007579,-0.522605,-0.011799,0.852459 HandTipLeft:0.000000,0.000000,0.000000,0.000000 HandTipRight:0.000000,0.000000,0.000000,0.000000 Head:0.000000,0.000000,0.000000,0.000000 HipLeft:-0.153452,0.695224,-0.679534,0.177060 HipRight:-0.093999,0.665487,0.726696,-0.142142 KneeLeft:0.002264,0.739111,-0.080542,-0.668748 KneeRight:0.011679,0.675416,0.015872,0.737173 Neck:0.093995,-0.039822,0.992601,-0.065744 ShoulderLeft:-0.082288,0.790864,-0.589830,0.140935 ShoulderRight:0.040419,0.778627,0.626162,0.005355 SpineBase:0.043371,-0.033543,0.998029,-0.030516 SpineMid:0.067997,-0.034286,0.996654,-0.029679 SpineShoulder:0.093625,-0.036984,0.993843,-0.046299 ThumbLeft:0.000000,0.000000,0.000000,0.000000 ThumbRight:0.000000,0.000000,0.000000,0.000000 WristLeft:-0.288447,0.431173,-0.254920,0.816029 WristRight:0.002190,-0.520417,-0.092492,0.848885 END:
KINECT_DATA POSITION:11.468341,-0.652307,7.130802 HEAD_JOINT1:0.981361,0.168649,-0.000000,0.092129 LARM_JOINT2:0.790971,0.000000,-0.434194,-0.431093 LARM_JOINT3:0.985747,0.000000,-0.142601,-0.089266 LLEG_JOINT2:0.994866,0.062861,0.000000,0.079313 LLEG_JOINT4:0.996663,0.061126,0.000000,-0.054097 RARM_JOINT2:0.786963,0.000000,-0.090391,0.610344 RARM_JOINT3:0.972844,0.000000,0.177017,0.149131 RLEG_JOINT2:0.999554,0.019175,0.000000,0.022895 RLEG_JOINT4:0.995773,0.091394,0.000000,0.009073 WAIST:0.998381,0.000000,-0.050131,-0.026861 WAIST_JOINT0:0.995472,0.000000,-0.094212,-0.012635 WAIST_JOINT1:0.998589,0.051783,0.000000,-0.011798 END:
KINECT_DATA_Sensor  AnkleLeft:0.085966,0.754246,-0.087006,-0.645099 AnkleRight:0.090267,0.729122,0.061532,0.675608 ElbowLeft:-0.342543,0.927082,-0.014646,-0.151554 ElbowRight:0.034719,0.819972,0.196736,0.536410 FootLeft:0.000000,0.000000,0.000000,0.000000 FootRight:0.000000,0.000000,0.000000,0.000000 HandLeft:-0.222925,0.477670,-0.248705,0.812577 HandRight:0.008840,-0.399133,-0.031528,0.916308 HandTipLeft:0.000000,0.000000,0.000000,0.000000 HandTipRight:0.000000,0.000000,0.000000,0.000000 Head:0.000000,0.000000,0.000000,0.000000 HipLeft:-0.158582,0.693944,-0.678829,0.180233 HipRight:-0.090582,0.666748,0.726771,-0.138008 KneeLeft:0.002699,0.744062,-0.080876,-0.663192 KneeRight:0.010578,0.670091,0.014870,0.742055 Neck:0.095540,-0.040412,0.992435,-0.065662 ShoulderLeft:-0.089213,0.789430,-0.589687,0.145297 ShoulderRight:0.035846,0.779577,0.625271,0.003261 SpineBase:0.050634,-0.034020,0.997701,-0.029513 SpineMid:0.072414,-0.034656,0.996357,-0.028763 SpineShoulder:0.095149,-0.037580,0.993698,-0.045818 ThumbLeft:0.000000,0.000000,0.000000,0.000000 ThumbRight:0.000000,0.000000,0.000000,0.000000 WristLeft:-0.295930,0.449974,-0.267412,0.799024 WristRight:-0.010936,-0.397405,-0.092705,0.912883 END:
KINECT_DATA POSITION:11.520241,-0.628700,6.904960 HEAD_JOINT1:0.981149,0.170818,-0.000000,0.090377 LARM_JOINT2:0.792057,0.000000,-0.433052,-0.430247 LARM_JOINT3:0.983982,0.000000,-0.166857,-0.062752 LLEG_JOINT2:0.995076,0.063538,0.000000,0.076076 LLEG_JOINT4:0.996793,0.059506,0.000000,-0.053497 RARM_JOINT2:0.787903,0.000000,-0.082584,0.610236 RARM_JOINT3:0.973680,0.000000,0.175489,0.145433 RLEG_JOINT2:0.999647,0.017657,0.000000,0.019832 RLEG_JOINT4:0.995867,0.090218,0.000000,0.010479 WAIST:0.998248,0.000000,-0.053541,-0.025192 WAIST_JOINT0:0.995129,0.000000,-0.097630,-0.013653 WAIST_JOINT1:0.998595,0.051272,0.000000,-0.013348 END:
KINECT_DATA_Sensor  AnkleLeft:0.085647,0.756010,-0.086028,-0.643205 AnkleRight:0.086916,0.710905,0.061656,0.695168 ElbowLeft:-0.343452,0.922988,-0.006113,-0.173485 ElbowRight:0.030881,0.824340,0.194479,0.530743 FootLeft:0.000000,0.000000,0.000000,0.000000 FootRight:0.000000,0.000000,0.000000,0.000000 HandLeft:-0.266446,0.431960,-0.326769,0.797270 HandRight:-0.018677,0.741790,0.042537,-0.669021 HandTipLeft:0.000000,0.000000,0.000000,0.000000 HandTipRight:0.000000,0.000000,0.000000,0.000000 Head:0.000000,0.000000,0.000000,0.000000 HipLeft:-0.161360,0.692389,-0.679282,0.182033 HipRight:-0.089532,0.668169,0.725858,-0.136615 KneeLeft:0.004040,0.746265,-0.080327,-0.660772 KneeRight:0.008571,0.667717,0.014854,0.744217 Neck:0.098844,-0.040121,0.992146,-0.065325 ShoulderLeft:-0.092071,0.788869,-0.589352,0.147893 ShoulderRight:0.037346,0.778642,0.626331,0.005578 SpineBase:0.053947,-0.033591,0.997555,-0.029081 SpineMid:0.075735,-0.034218,0.996138,-0.028340 SpineShoulder:0.098461,-0.037294,0.993404,-0.045422 ThumbLeft:0.000000,0.000000,0.000000,0.000000 ThumbRight:0.000000,0.000000,0.000000,0.000000 WristLeft:-0.286142,0.417873,-0.287764,0.812833 WristRight:-0.029007,0.740609,0.088968,-0.665388 END:
KINECT_DATA POSITION:11.649438,-0.573734,6.682551 HEAD_JOINT1:0.981648,0.168393,-0.000000,0.089507 LARM_JOINT2:0.797969,0.000000,-0.463805,-0.384876 LARM_JOINT3:0.986063,0.000000,-0.138761,-0.091792 LLEG_JOINT2:0.995453,0.062605,0.000000,0.071786 LLEG_JOINT4:0.996878,0.059569,0.000000,-0.051828 RARM_JOINT2:0.789687,0.000000,-0.073978,0.609034 RARM_JOINT3:0.973844,0.000000,0.174310,0.145757 RLEG_JOINT2:0.999789,0.014243,0.000000,0.014810 RLEG_JOINT4:0.995745,0.091461,0.000000,0.011250 WAIST:0.998043,0.000000,-0.058356,-0.022450 WAIST_JOINT0:0.994520,0.000000,-0.103595,-0.014066 WAIST_JOINT1:0.998537,0.051778,0.000000,-0.015582 END:
KINECT_DATA_Sensor  AnkleLeft:0.084602,0.759254,-0.085901,-0.639529 AnkleRight:0.085838,0.721676,0.059402,0.684315 ElbowLeft:-0.379475,0.922391,-0.060913,-0.038517 ElbowRight:0.028115,0.830203,0.193277,0.522128 FootLeft:0.000000,0.000000,0.000000,0.000000 FootRight:0.000000,0.000000,0.000000,0.000000 HandLeft:-0.259487,0.427807,-0.320316,0.804391 HandRight:-0.020564,0.712064,0.055938,-0.699580 HandTipLeft:0.000000,0.000000,0.000000,0.000000 HandTipRight:0.000000,0.000000,0.000000,0.000000 Head:0.000000,0.000000,0.000000,0.000000 HipLeft:-0.163466,0.689772,-0.680432,0.185757 HipRight:-0.086229,0.670508,0.724374,-0.135153 KneeLeft:0.004195,0.749224,-0.078640,-0.657618 KneeRight:0.004612,0.664444,0.014271,0.747187 Neck:0.105058,-0.039421,0.991503,-0.065809 ShoulderLeft:-0.096843,0.787217,-0.589229,0.154014 ShoulderRight:0.040896,0.777149,0.627924,0.008787 SpineBase:0.058647,-0.032136,0.997295,-0.030499 SpineMid:0.081240,-0.032820,0.995709,-0.029762 SpineShoulder:0.104705,-0.036626,0.992757,-0.046145 ThumbLeft:0.000000,0.000000,0.000000,0.000000 ThumbRight:0.000000,0.000000,0.000000,0.000000 WristLeft:-0.273897,0.417008,-0.283379,0.819012 WristRight:-0.026466,0.711116,0.089242,-0.696885 END:
KINECT_DATA POSITION:11.643193,-0.541925,6.527722 HEAD_JOINT1:0.982585,0.161990,-0.000000,0.091030 LARM_JOINT2:0.797972,0.000000,-0.458146,-0.391590 LARM_JOINT3:0.985591,0.000000,-0.144275,-0.088287 LLEG_JOINT2:0.995579,0.062693,0.000000,0.069940 LLEG_JOINT4:0.996888,0.058491,0.000000,-0.052845 RARM_JOINT2:0.791410,0.000000,-0.070459,0.607211 RARM_JOINT3:0.974837,0.000000,0.165660,0.149162 RLEG_JOINT2:0.999835,0.013081,0.000000,0.012635 RLEG_JOINT4:0.995753,0.091385,0.000000,0.011200 WAIST:0.997830,0.000000,-0.062437,-0.020916 WAIST_JOINT0:0.993825,0.000000,-0.110212,-0.012820 WAIST_JOINT1:0.998460,0.052917,0.000000,-0.016646 END:
KINECT_DATA_Sensor  AnkleLeft:0.084642,0.762588,-0.084522,-0.635729 AnkleRight:0.084905,0.721556,0.058555,0.684631 ElbowLeft:-0.375288,0.921538,-0.036784,-0.092588 ElbowRight:0.028407,0.833190,0.194305,0.516945 FootLeft:0.000000,0.000000,0.000000,0.000000 FootRight:0.000000,0.000000,0.000000,0.000000 HandLeft:-0.260774,0.429981,-0.288240,0.814881 HandRight:-0.002211,-0.695085,-0.026674,0.718429 HandTipLeft:0.000000,0.000000,0.000000,0.000000 HandTipRight:0.000000,0.000000,0.000000,0.000000 Head:0.000000,0.000000,0.000000,0.000000 HipLeft:-0.165239,0.687991,-0.680954,0.188856 HipRight:-0.083041,0.671825,0.723732,-0.134043 KneeLeft:0.004168,0.751816,-0.078517,-0.654668 KneeRight:0.003380,0.661539,0.013965,0.749773 Neck:0.112231,-0.038612,0.990650,-0.067282 ShoulderLeft:-0.100643,0.784375,-0.590738,0.160176 ShoulderRight:0.046628,0.775613,0.629338,0.013559 SpineBase:0.062644,-0.031761,0.997020,-0.031914 SpineMid:0.086811,-0.032526,0.995207,-0.031134 SpineShoulder:0.111869,-0.036181,0.991941,-0.047220 ThumbLeft:0.000000,0.000000,0.000000,0.000000 ThumbRight:0.000000,0.000000,0.000000,0.000000 WristLeft:-0.280733,0.421997,-0.292468,0.810907 WristRight:0.026335,-0.692394,-0.089133,0.715509 END:
KINECT_DATA POSITION:11.605776,-0.511394,6.475496 HEAD_JOINT1:0.982988,0.159471,-0.000000,0.091125 LARM_JOINT2:0.795080,0.000000,-0.461114,-0.393981 LARM_JOINT3:0.986152,0.000000,-0.141479,-0.086534 LLEG_JOINT2:0.995621,0.062108,0.000000,0.069861 LLEG_JOINT4:0.996819,0.058419,0.000000,-0.054207 RARM_JOINT2:0.793138,0.000000,-0.069432,0.605072 RARM_JOINT3:0.973016,0.000000,0.175034,0.150340 RLEG_JOINT2:0.999847,0.012724,0.000000,0.012022 RLEG_JOINT4:0.995659,0.092151,0.000000,0.013121 WAIST:0.997837,0.000000,-0.062560,-0.020203 WAIST_JOINT0:0.993636,0.000000,-0.111957,-0.012385 WAIST_JOINT1:0.998382,0.054434,0.000000,-0.016431 END:
KINECT_DATA_Sensor  AnkleLeft:0.077231,0.705036,-0.090565,-0.699112 AnkleRight:0.086203,0.718235,0.057586,0.688034 ElbowLeft:-0.374163,0.921363,-0.028935,-0.101270 ElbowRight:0.029038,0.834649,0.196259,0.513810 FootLeft:0.000000,0.000000,0.000000,0.000000 FootRight:0.000000,0.000000,0.000000,0.000000 HandLeft:-0.259049,0.439754,-0.275859,0.814501 HandRight:-0.022808,0.725322,0.059441,-0.685459 HandTipLeft:0.000000,0.000000,0.000000,0.000000 HandTipRight:0.000000,0.000000,0.000000,0.000000 Head:0.000000,0.000000,0.000000,0.000000 HipLeft:-0.165050,0.687213,-0.681589,0.189564 HipRight:-0.082740,0.672063,0.723428,-0.134674 KneeLeft:0.003323,0.751823,-0.078532,-0.654663 KneeRight:0.003213,0.661503,0.013683,0.749811 Neck:0.114057,-0.037803,0.990344,-0.069145 ShoulderLeft:-0.101398,0.782776,-0.591980,0.162911 ShoulderRight:0.048467,0.774993,0.629963,0.013528 SpineBase:0.062737,-0.031336,0.997002,-0.032711 SpineMid:0.087758,-0.032148,0.995111,-0.031913 SpineShoulder:0.113716,-0.035304,0.991696,-0.048585 ThumbLeft:0.000000,0.000000,0.000000,0.000000 ThumbRight:0.000000,0.000000,0.000000,0.000000 WristLeft:-0.285250,0.430685,-0.290570,0.805427 WristRight:-0.029494,0.724252,0.087059,-0.683382 END:
KINECT_DATA POSITION:11.523037,-0.500986,6.443739 HEAD_JOINT1:0.983065,0.159979,-0.000000,0.089383 LARM_JOINT2:0.792220,0.000000,-0.457794,-0.403500 LARM_JOINT3:0.985606,0.000000,-0.147593,-0.082439 LLEG_JOINT2:0.995536,0.062681,0.000000,0.070568 LLEG_JOINT4:0.996933,0.055535,0.000000,-0.055134 RARM_JOINT2:0.793267,0.000000,-0.068350,0.605025 RARM_JOINT3:0.973279,0.000000,0.173842,0.150022 RLEG_JOINT2:0.999869,0.011321,0.000000,0.011607 RLEG_JOINT4:0.995829,0.090302,0.000000,0.013087 WAIST:0.997949,0.000000,-0.060879,-0.019779 WAIST_JOINT0:0.993812,0.000000,-0.110464,-0.011616 WAIST_JOINT1:0.998342,0.055411,0.000000,-0.015565 END:
KINECT_DATA_Sensor  AnkleLeft:0.083336,0.762859,-0.081804,-0.635932 AnkleRight:0.084531,0.732005,0.054337,0.673848 ElbowLeft:-0.366986,0.919446,-0.011565,-0.140738 ElbowRight:0.028227,0.832936,0.195568,0.516889 FootLeft:0.000000,0.000000,0.000000,0.000000 FootRight:0.000000,0.000000,0.000000,0.000000 HandLeft:-0.254007,0.434942,-0.263519,0.822717 HandRight:-0.028140,0.745428,0.046463,-0.664370 HandTipLeft:0.000000,0.000000,0.000000,0.000000 HandTipRight:0.000000,0.000000,0.000000,0.000000 Head:0.000000,0.000000,0.000000,0.000000 HipLeft:-0.163829,0.686911,-0.682218,0.189452 HipRight:-0.084122,0.672057,0.723024,-0.136011 KneeLeft:0.003039,0.750664,-0.079751,-0.655846 KneeRight:0.002188,0.662825,0.012795,0.748662 Neck:0.112335,-0.036832,0.990513,-0.070060 ShoulderLeft:-0.098472,0.781395,-0.594621,0.161711 ShoulderRight:0.049252,0.774735,0.630248,0.012144 SpineBase:0.061075,-0.030102,0.997129,-0.033133 SpineMid:0.086102,-0.030924,0.995280,-0.032366 SpineShoulder:0.112045,-0.034019,0.991883,-0.049563 ThumbLeft:0.000000,0.000000,0.000000,0.000000 ThumbRight:0.000000,0.000000,0.000000,0.000000 WristLeft:-0.290463,0.424502,-0.295663,0.804992 WristRight:-0.031117,0.744905,0.087235,-0.660710 END:
KINECT_DATA POSITION:11.482643,-0.513992,6.455827 HEAD_JOINT1:0.982929,0.162314,-0.000000,0.086628 LARM_JOINT2:0.792083,0.000000,-0.447504,-0.415143 LARM_JOINT3:0.983026,0.000000,-0.167590,-0.074651 LLEG_JOINT2:0.995602,0.062490,0.000000,0.069797 LLEG_JOINT4:0.996936,0.055411,0.000000,-0.055217 RARM_JOINT2:0.794446,0.000000,-0.069168,0.603383 RARM_JOINT3:0.972097,0.000000,0.177236,0.153671 RLEG_JOINT2:0.999872,0.011259,0.000000,0.011398 RLEG_JOINT4:0.995650,0.092341,0.000000,0.012412 WAIST:0.998171,0.000000,-0.057461,-0.018773 WAIST_JOINT0:0.994375,0.000000,-0.105324,-0.011172 WAIST_JOINT1:0.998390,0.054934,0.000000,-0.014102 END:
KINECT_DATA_Sensor  AnkleLeft:0.083330,0.760237,-0.081529,-0.639100 AnkleRight:0.085850,0.731004,0.056171,0.674616 ElbowLeft:-0.356869,0.914794,0.001019,-0.189198 ElbowRight:0.028645,0.836232,0.195300,0.511619 FootLeft:0.000000,0.000000,0.000000,0.000000 FootRight:0.000000,0.000000,0.000000,0.000000 HandLeft:-0.277378,0.489304,-0.248908,0.788472 HandRight:-0.049976,0.771299,0.050417,-0.632502 HandTipLeft:0.000000,0.000000,0.000000,0.000000 HandTipRight:0.000000,0.000000,0.000000,0.000000 Head:0.000000,0.000000,0.000000,0.000000 HipLeft:-0.162199,0.686763,-0.683085,0.188264 HipRight:-0.087086,0.672661,0.721761,-0.137858 KneeLeft:0.003092,0.748295,-0.079842,-0.658537 KneeRight:0.002718,0.665368,0.012253,0.746410 Neck:0.107235,-0.034352,0.991211,-0.069436 ShoulderLeft:-0.094297,0.782328,-0.595291,0.157161 ShoulderRight:0.046540,0.775441,0.629641,0.008832 SpineBase:0.057656,-0.028365,0.997394,-0.032804 SpineMid:0.081871,-0.029154,0.995699,-0.032105 SpineShoulder:0.106972,-0.031700,0.992538,-0.049190 ThumbLeft:0.000000,0.000000,0.000000,0.000000 ThumbRight:0.000000,0.000000,0.000000,0.000000 WristLeft:-0.320732,0.475272,-0.279557,0.770127 WristRight:-0.036141,0.772397,0.083816,-0.628547 END:
KINECT_DATA POSITION:11.535571,-0.584597,6.480718 HEAD_JOINT1:0.982081,0.170089,-0.000000,0.081156 LARM_JOINT2:0.835585,0.000000,-0.356448,-0.418021 LARM_JOINT3:0.943837,0.000000,-0.307134,-0.121820 LLEG_JOINT2:0.996629,0.053112,0.000000,0.062533 LLEG_JOINT4:0.997039,0.062031,0.000000,-0.045448 RARM_JOINT2:0.798743,0.000000,-0.068870,0.597718 RARM_JOINT3:0.970307,0.000000,0.186204,0.154380 RLEG_JOINT2:0.999897,0.014052,0.000000,0.002809 RLEG_JOINT4:0.995824,0.089301,0.000000,0.018954 WAIST:0.999368,0.000000,-0.033518,-0.011858 WAIST_JOINT0:0.997129,0.000000,-0.074592,-0.013041 WAIST_JOINT1:0.998607,0.052087,0.000000,-0.008408 END:
KINECT_DATA_Sensor  AnkleLeft:0.074320,0.722265,-0.087195,-0.682061 AnkleRight:0.086254,0.728827,0.056958,0.676851 ElbowLeft:-0.326402,0.903072,-0.086967,-0.265254 ElbowRight:0.024290,0.849396,0.190243,0.491675 FootLeft:0.000000,0.000000,0.000000,0.000000 FootRight:0.000000,0.000000,0.000000,0.000000 HandLeft:-0.313817,0.417509,-0.298045,0.798983 HandRight:-0.088540,0.786413,0.065668,-0.607785 HandTipLeft:0.000000,0.000000,0.000000,0.000000 HandTipRight:0.000000,0.000000,0.000000,0.000000 Head:0.000000,0.000000,0.000000,0.000000 HipLeft:0.147917,-0.687719,0.688582,-0.176120 HipRight:-0.105217,0.676919,0.712251,-0.152998 KneeLeft:-0.000759,0.731495,-0.073146,-0.677912 KneeRight:0.003804,0.683059,0.015929,0.730179 Neck:0.076383,-0.021490,0.994635,-0.066365 ShoulderLeft:-0.065160,0.794822,-0.590156,0.125411 ShoulderRight:0.033626,0.781263,0.623256,-0.006994 SpineBase:0.033503,-0.022422,0.998690,-0.031516 SpineMid:0.054370,-0.023076,0.997771,-0.031041 SpineShoulder:0.076175,-0.020436,0.995790,-0.046713 ThumbLeft:0.000000,0.000000,0.000000,0.000000 ThumbRight:0.000000,0.000000,0.000000,0.000000 WristLeft:-0.333763,0.409682,-0.307167,0.791461 WristRight:-0.048004,0.790580,0.078256,-0.605437 END:
KINECT_DATA POSITION:11.687740,-0.634623,6.455743 HEAD_JOINT1:0.982063,0.175800,-0.000000,0.068164 LARM_JOINT2:0.875566,0.000000,-0.316022,-0.365396 LARM_JOINT3:0.913680,0.000000,-0.364383,-0.180038 LLEG_JOINT2:0.997799,0.041295,0.000000,0.051883 LLEG_JOINT4:0.996881,0.070181,0.000000,-0.036103 RARM_JOINT2:0.804388,0.000000,-0.069399,0.590038 RARM_JOINT3:0.971347,0.000000,0.178706,0.156678 RLEG_JOINT2:0.999871,0.014200,0.000000,-0.007449 RLEG_JOINT4:0.995629,0.089322,0.000000,0.027292 WAIST:0.999971,0.000000,-0.005990,-0.004684 WAIST_JOINT0:0.999548,0.000000,-0.029857,-0.003387 WAIST_JOINT1:0.998739,0.050128,0.000000,-0.002639 END:
KINECT_DATA_Sensor  AnkleLeft:0.074384,0.736521,-0.083376,-0.667122 AnkleRight:0.087242,0.732454,0.057575,0.672745 ElbowLeft:-0.327058,0.894603,-0.207735,-0.222631 ElbowRight:0.022157,0.869238,0.187249,0.457026 FootLeft:0.000000,0.000000,0.000000,0.000000 FootRight:0.000000,0.000000,0.000000,0.000000 HandLeft:-0.364195,0.446873,-0.375461,0.725738 HandRight:-0.082454,0.791503,0.048140,-0.603661 HandTipLeft:0.000000,0.000000,0.000000,0.000000 HandTipRight:0.000000,0.000000,0.000000,0.000000 Head:0.000000,0.000000,0.000000,0.000000 HipLeft:0.125563,-0.687354,0.698287,-0.155477 HipRight:-0.120424,0.678959,0.705696,-0.162807 KneeLeft:-0.004428,0.711734,-0.062546,-0.699645 KneeRight:0.001561,0.702983,0.018590,0.710962 Neck:0.031612,-0.008172,0.997346,-0.065081 ShoulderLeft:-0.025411,0.794671,-0.600999,0.081563 ShoulderRight:0.015113,0.786606,0.616411,-0.032559 SpineBase:0.005833,-0.014319,0.999433,-0.029898 SpineMid:0.018283,-0.014690,0.999283,-0.029717 SpineShoulder:0.031486,-0.008321,0.998453,-0.045068 ThumbLeft:0.000000,0.000000,0.000000,0.000000 ThumbRight:0.000000,0.000000,0.000000,0.000000 WristLeft:-0.324150,0.457235,-0.275458,0.781016 WristRight:-0.053882,0.794463,0.067312,-0.601161 END:
KINECT_DATA POSITION:11.677537,-0.646523,6.410003 HEAD_JOINT1:0.983388,0.176098,-0.000000,0.044022 LARM_JOINT2:0.907587,0.000000,-0.081122,-0.411952 LARM_JOINT3:0.806468,0.000000,-0.581130,-0.109077 LLEG_JOINT2:0.998651,0.033390,0.000000,0.039761 LLEG_JOINT4:0.996580,0.076521,0.000000,-0.031191 RARM_JOINT2:0.813010,0.000000,-0.063602,0.578765 RARM_JOINT3:0.971893,0.000000,0.171341,0.161449 RLEG_JOINT2:0.999699,0.014726,0.000000,-0.019621 RLEG_JOINT4:0.995062,0.092522,0.000000,0.035929 WAIST:0.999835,-0.000000,0.017359,0.005432 WAIST_JOINT0:0.999702,-0.000000,0.020403,0.013390 WAIST_JOINT1:0.998611,0.052620,-0.000000,0.002835 END:
KINECT_DATA_Sensor  AnkleLeft:0.071570,0.707019,-0.084125,-0.698516 AnkleRight:0.090518,0.718917,0.061191,0.686455 ElbowLeft:-0.224464,0.762673,-0.274724,-0.540808 ElbowRight:0.020851,0.890815,0.185602,0.414205 FootLeft:0.000000,0.000000,0.000000,0.000000 FootRight:0.000000,0.000000,0.000000,0.000000 HandLeft:-0.308219,0.493907,-0.464150,0.667549 HandRight:0.067693,-0.672814,-0.048808,0.735090 HandTipLeft:0.000000,0.000000,0.000000,0.000000 HandTipRight:0.000000,0.000000,0.000000,0.000000 Head:0.000000,0.000000,0.000000,0.000000 HipLeft:0.108211,-0.682351,0.708501,-0.143923 HipRight:-0.135642,0.683485,0.696732,-0.170338 KneeLeft:0.007366,-0.694469,0.055641,0.717330 KneeRight:-0.000035,0.719437,0.020384,0.694258 Neck:-0.019093,0.007461,0.997466,-0.068134 ShoulderLeft:0.016446,0.785794,-0.617055,0.038732 ShoulderRight:-0.008050,0.792913,0.605445,-0.068267 SpineBase:-0.017592,0.002153,0.999413,-0.029316 SpineMid:-0.018387,0.002176,0.999399,-0.029314 SpineShoulder:-0.018979,0.007404,0.998656,-0.047656 ThumbLeft:0.000000,0.000000,0.000000,0.000000 ThumbRight:0.000000,0.000000,0.000000,0.000000 WristLeft:-0.346320,0.465074,-0.437303,0.687412 WristRight:0.047760,-0.673991,-0.063598,0.734446 END:
KINECT_DATA POSITION:11.410820,-0.645100,6.436181 HEAD_JOINT1:0.984295,0.173926,-0.000000,0.030228 LARM_JOINT2:0.883378,0.000000,0.028443,-0.467797 LARM_JOINT3:0.751765,0.000000,-0.659343,0.010792 LLEG_JOINT2:0.999176,0.027686,0.000000,0.029670 LLEG_JOINT4:0.996359,0.082514,0.000000,-0.021435 RARM_JOINT2:0.818819,0.000000,-0.055542,0.571359 RARM_JOINT3:0.971864,0.000000,0.163221,0.169824 RLEG_JOINT2:0.999493,0.015755,0.000000,-0.027685 RLEG_JOINT4:0.994711,0.094791,0.000000,0.039561 WAIST:0.999265,-0.000000,0.035422,0.014632 WAIST_JOINT0:0.997681,-0.000000,0.062639,0.026627 WAIST_JOINT1:0.998443,0.055480,-0.000000,0.005775 END:
KINECT_DATA_Sensor  AnkleLeft:0.072621,0.737213,-0.084982,-0.666349 AnkleRight:0.095701,0.740699,0.060257,0.662250 ElbowLeft:-0.155600,0.654753,-0.282086,-0.683751 ElbowRight:0.019592,0.909468,0.181742,0.373435 FootLeft:0.000000,0.000000,0.000000,0.000000 FootRight:0.000000,0.000000,0.000000,0.000000 HandLeft:0.204502,-0.455459,0.629587,-0.595278 HandRight:-0.087572,0.791242,0.010453,-0.605109 HandTipLeft:0.000000,0.000000,0.000000,0.000000 HandTipRight:0.000000,0.000000,0.000000,0.000000 Head:0.000000,0.000000,0.000000,0.000000 HipLeft:0.095696,-0.676289,0.716856,-0.139977 HipRight:-0.147989,0.686797,0.688484,-0.179994 KneeLeft:0.010260,-0.681003,0.050923,0.730436 KneeRight:0.000830,0.731950,0.020054,0.681063 Neck:-0.062509,0.020382,0.995335,-0.070606 ShoulderLeft:0.056302,0.772528,-0.632479,-0.000423 ShoulderRight:-0.023759,0.794980,0.598457,-0.096393 SpineBase:-0.035782,0.016239,0.998719,-0.031884 SpineMid:-0.048851,0.016655,0.998165,-0.031669 SpineShoulder:-0.062264,0.019700,0.996604,-0.050155 ThumbLeft:0.000000,0.000000,0.000000,0.000000 ThumbRight:0.000000,0.000000,0.000000,0.000000 WristLeft:0.239442,-0.436955,0.558817,-0.662919 WristRight:-0.059865,0.794979,0.040829,-0.602293 END:
KINECT_DATA POSITION:10.785728,-0.664783,6.510818 HEAD_JOINT1:0.985900,0.167017,-0.000000,0.010357 LARM_JOINT2:0.877310,0.000000,0.064516,-0.475567 LARM_JOINT3:0.730872,0.000000,-0.674996,0.101029 LLEG_JOINT2:0.999527,0.018920,0.000000,0.024254 LLEG_JOINT4:0.996003,0.088090,0.000000,-0.014737 RARM_JOINT2:0.827546,0.000000,-0.037479,0.560146 RARM_JOINT3:0.971654,0.000000,0.156022,0.177613 RLEG_JOINT2:0.999223,0.017160,0.000000,-0.035496 RLEG_JOINT4:0.994324,0.096157,0.000000,0.045539 WAIST:0.998182,-0.000000,0.055477,0.023552 WAIST_JOINT0:0.993975,-0.000000,0.101891,0.040403 WAIST_JOINT1:0.998252,0.058586,-0.000000,0.007802 END:
KINECT_DATA_Sensor  AnkleLeft:0.064354,0.717888,-0.089813,-0.687335 AnkleRight:0.101554,0.760080,0.057782,0.639239 ElbowLeft:0.161499,-0.542059,0.289118,0.772335 ElbowRight:0.010551,0.932297,0.179626,0.313762 FootLeft:0.000000,0.000000,0.000000,0.000000 FootRight:0.000000,0.000000,0.000000,0.000000 HandLeft:0.326502,-0.457990,0.627094,-0.538883 HandRight:-0.087447,0.711543,0.020889,-0.696866 HandTipLeft:0.000000,0.000000,0.000000,0.000000 HandTipRight:0.000000,0.000000,0.000000,0.000000 Head:0.000000,0.000000,0.000000,0.000000 HipLeft:0.080882,-0.670684,0.725253,-0.132848 HipRight:-0.161788,0.688655,0.680158,-0.192261 KneeLeft:0.018687,-0.666030,0.047341,0.744187 KneeRight:0.001642,0.745625,0.019805,0.666069 Neck:-0.103043,0.031597,0.991479,-0.073165 ShoulderLeft:0.092238,0.754355,-0.649011,-0.035000 ShoulderRight:-0.040131,0.794617,0.593014,-0.123723 SpineBase:-0.056066,0.027101,0.997452,-0.034807 SpineMid:-0.079032,0.027895,0.995896,-0.034173 SpineShoulder:-0.102688,0.030467,0.992859,-0.052518 ThumbLeft:0.000000,0.000000,0.000000,0.000000 ThumbRight:0.000000,0.000000,0.000000,0.000000 WristLeft:0.217758,-0.551499,0.604963,-0.531460 WristRight:-0.064007,0.714199,0.036298,-0.696064 END:
KINECT_DATA POSITION:9.858840,-0.819057,6.702256 HEAD_JOINT1:0.986465,0.163968,0.000000,-0.000609 LARM_JOINT2:0.879709,0.000000,0.090485,-0.466823 LARM_JOINT3:0.713059,0.000000,-0.671959,0.200047 LLEG_JOINT2:0.999773,0.004311,0.000000,0.020878 LLEG_JOINT4:0.995326,0.096398,0.000000,-0.005818 RARM_JOINT2:0.832898,0.000000,-0.031862,0.552508 RARM_JOINT3:0.971298,0.000000,0.152440,0.182598 RLEG_JOINT2:0.999148,0.016943,0.000000,-0.037646 RLEG_JOINT4:0.993588,0.101399,0.000000,0.050017 WAIST:0.996960,-0.000000,0.072099,0.029531 WAIST_JOINT0:0.990106,-0.000000,0.131561,0.048803 WAIST_JOINT1:0.998207,0.059330,-0.000000,0.007949 END:
KINECT_DATA_Sensor  AnkleLeft:0.055463,0.721899,-0.092594,-0.683530 AnkleRight:0.109805,0.773751,0.056348,0.621351 ElbowLeft:0.177230,-0.451079,0.302139,0.820871 ElbowRight:0.004752,0.942369,0.180655,0.281570 FootLeft:0.000000,0.000000,0.000000,0.000000 FootRight:0.000000,0.000000,0.000000,0.000000 HandLeft:0.302485,-0.491932,0.658495,-0.482587 HandRight:0.079798,-0.607582,-0.027829,0.789748 HandTipLeft:0.000000,0.000000,0.000000,0.000000 HandTipRight:0.000000,0.000000,0.000000,0.000000 Head:0.000000,0.000000,0.000000,0.000000 HipLeft:0.069831,-0.667516,0.730646,-0.125308 HipRight:-0.174034,0.688913,0.673563,-0.203527 KneeLeft:0.031254,-0.653641,0.039493,0.755127 KneeRight:0.003493,0.756711,0.016562,0.653530 Neck:-0.133308,0.037767,0.987649,-0.073153 ShoulderLeft:0.116398,0.742175,-0.657230,-0.060637 ShoulderRight:-0.055222,0.793620,0.588490,-0.144215 SpineBase:-0.072900,0.032607,0.996156,-0.035983 SpineMid:-0.102476,0.033662,0.993550,-0.034998 SpineShoulder:-0.132922,0.036266,0.989063,-0.052633 ThumbLeft:0.000000,0.000000,0.000000,0.000000 ThumbRight:0.000000,0.000000,0.000000,0.000000 WristLeft:0.211974,-0.561176,0.666228,-0.443046 WristRight:0.063957,-0.608845,-0.040445,0.789672 END:
KINECT_DATA POSITION:8.986281,-0.890195,7.068074 HEAD_JOINT1:0.987377,0.158104,0.000000,-0.009443 LARM_JOINT2:0.933390,0.000000,0.028384,-0.357739 LARM_JOINT3:0.873994,0.000000,-0.440617,0.204918 LLEG_JOINT2:0.999780,0.002196,0.000000,0.020842 LLEG_JOINT4:0.994908,0.100781,0.000000,-0.001116 RARM_JOINT2:0.836509,0.000000,-0.030942,0.547079 RARM_JOINT3:0.971426,0.000000,0.150200,0.183771 RLEG_JOINT2:0.999232,0.018561,0.000000,-0.034523 RLEG_JOINT4:0.993445,0.103684,0.000000,0.048128 WAIST:0.995679,-0.000000,0.086382,0.034070 WAIST_JOINT0:0.987966,-0.000000,0.144301,0.055678 WAIST_JOINT1:0.998265,0.057769,-0.000000,0.011426 END:
KINECT_DATA_Sensor  AnkleLeft:-0.040990,-0.626468,0.105564,0.771177 AnkleRight:0.114943,0.779295,0.057024,0.613380 ElbowLeft:0.305439,-0.430518,0.335699,0.780171 ElbowRight:0.000265,0.947252,0.178098,0.266449 FootLeft:0.000000,0.000000,0.000000,0.000000 FootRight:0.000000,0.000000,0.000000,0.000000 HandLeft:0.041773,-0.623339,0.693412,-0.359003 HandRight:0.066209,-0.684247,-0.013644,0.726111 HandTipLeft:0.000000,0.000000,0.000000,0.000000 HandTipRight:0.000000,0.000000,0.000000,0.000000 Head:0.000000,0.000000,0.000000,0.000000 HipLeft:0.060417,-0.665432,0.734633,-0.117745 HipRight:-0.185468,0.689519,0.667695,-0.210591 KneeLeft:0.035781,-0.642732,0.041466,0.764131 KneeRight:0.009596,0.766058,0.012323,0.642582 Neck:-0.146299,0.045028,0.985633,-0.071388 ShoulderLeft:0.122605,0.736691,-0.661260,-0.070634 ShoulderRight:-0.065851,0.796179,0.581412,-0.154022 SpineBase:-0.087210,0.039446,0.994785,-0.035223 SpineMid:-0.116034,0.040451,0.991836,-0.034064 SpineShoulder:-0.145812,0.043318,0.987041,-0.051108 ThumbLeft:0.000000,0.000000,0.000000,0.000000 ThumbRight:0.000000,0.000000,0.000000,0.000000 WristLeft:-0.073132,0.649084,-0.646539,0.394118 WristRight:0.077083,-0.684210,-0.030503,0.724558 END:
KINECT_DATA POSITION:8.245510,-0.816481,7.425702 HEAD_JOINT1:0.987983,0.154224,0.000000,-0.010224 LARM_JOINT2:0.961158,0.000000,-0.010439,-0.275802 LARM_JOINT3:0.926332,0.000000,-0.334249,0.173744 LLEG_JOINT2:0.999750,0.002542,0.000000,0.022192 LLEG_JOINT4:0.994971,0.099991,0.000000,-0.005903 RARM_JOINT2:0.837672,0.000000,-0.033710,0.545133 RARM_JOINT3:0.972161,0.000000,0.144727,0.184273 RLEG_JOINT2:0.999249,0.016982,0.000000,-0.034843 RLEG_JOINT4:0.992692,0.108871,0.000000,0.052064 WAIST:0.994943,-0.000000,0.093120,0.037632 WAIST_JOINT0:0.987794,-0.000000,0.144559,0.058022 WAIST_JOINT1:0.998362,0.056445,-0.000000,0.009309 END:
KINECT_DATA_Sensor  AnkleLeft:-0.041560,-0.626005,0.104397,0.771681 AnkleRight:0.120424,0.766967,0.058533,0.627561 ElbowLeft:0.387035,-0.420071,0.355372,0.739902 ElbowRight:-0.001451,0.947987,0.178992,0.263211 FootLeft:0.000000,0.000000,0.000000,0.000000 FootRight:0.000000,0.000000,0.000000,0.000000 HandLeft:-0.010351,-0.612927,0.708606,-0.349414 HandRight:0.055638,-0.683395,0.004631,0.727911 HandTipLeft:0.000000,0.000000,0.000000,0.000000 HandTipRight:0.000000,0.000000,0.000000,0.000000 Head:0.000000,0.000000,0.000000,0.000000 HipLeft:0.056444,-0.663848,0.737262,-0.112090 HipRight:-0.190277,0.690814,0.663982,-0.213772 KneeLeft:0.038779,-0.637218,0.045317,0.768372 KneeRight:0.010614,0.770420,0.008692,0.637389 Neck:-0.146837,0.045610,0.985615,-0.070155 ShoulderLeft:0.119329,0.734352,-0.664656,-0.068696 ShoulderRight:-0.070280,0.796506,0.579945,-0.155893 SpineBase:-0.094102,0.040905,0.994151,-0.033712 SpineMid:-0.119735,0.041762,0.991390,-0.032645 SpineShoulder:-0.146313,0.044109,0.986997,-0.049842 ThumbLeft:0.000000,0.000000,0.000000,0.000000 ThumbRight:0.000000,0.000000,0.000000,0.000000 WristLeft:0.012983,0.664179,-0.653512,0.362795 WristRight:0.074477,-0.684018,-0.031986,0.724948 END:
KINECT_DATA POSITION:8.108094,-0.758219,7.521021 HEAD_JOINT1:0.988296,0.152184,0.000000,-0.010572 LARM_JOINT2:0.970411,0.000000,-0.034212,-0.239024 LARM_JOINT3:0.948074,0.000000,-0.282355,0.146392 LLEG_JOINT2:0.999776,0.003526,0.000000,0.020864 LLEG_JOINT4:0.994948,0.100356,0.000000,-0.002565 RARM_JOINT2:0.837808,0.000000,-0.036189,0.544764 RARM_JOINT3:0.971990,0.000000,0.137530,0.190581 RLEG_JOINT2:0.999211,0.019178,0.000000,-0.034784 RLEG_JOINT4:0.993328,0.104137,0.000000,0.049544 WAIST:0.994975,-0.000000,0.092271,0.038856 WAIST_JOINT0:0.988631,-0.000000,0.138522,0.058487 WAIST_JOINT1:0.998374,0.056345,-0.000000,0.008589 END:
KINECT_DATA_Sensor  AnkleLeft:0.053584,0.718329,-0.101786,-0.686128 AnkleRight:0.118641,0.775890,0.055510,0.617120 ElbowLeft:0.432017,-0.408791,0.349215,0.724085 ElbowRight:-0.000129,0.946731,0.179672,0.267241 FootLeft:0.000000,0.000000,0.000000,0.000000 FootRight:0.000000,0.000000,0.000000,0.000000 HandLeft:-0.105113,0.705908,-0.666008,0.216975 HandRight:-0.040215,0.706738,-0.045047,-0.704894 HandTipLeft:0.000000,0.000000,0.000000,0.000000 HandTipRight:0.000000,0.000000,0.000000,0.000000 Head:0.000000,0.000000,0.000000,0.000000 HipLeft:0.056813,-0.663001,0.737979,-0.112200 HipRight:-0.189815,0.691811,0.663270,-0.213169 KneeLeft:0.038056,-0.637815,0.045774,0.767886 KneeRight:0.012958,0.769998,0.009486,0.637844 Neck:-0.140927,0.045788,0.986465,-0.070210 ShoulderLeft:0.112853,0.735025,-0.665729,-0.061700 ShoulderRight:-0.069366,0.797417,0.579486,-0.153330 SpineBase:-0.093314,0.041482,0.994209,-0.033480 SpineMid:-0.116384,0.042248,0.991773,-0.032507 SpineShoulder:-0.140377,0.044406,0.987844,-0.049867 ThumbLeft:0.000000,0.000000,0.000000,0.000000 ThumbRight:0.000000,0.000000,0.000000,0.000000 WristLeft:-0.092566,0.713868,-0.662134,0.208331 WristRight:-0.075835,0.710941,0.029307,-0.698536 END:
KINECT_DATA POSITION:8.129239,-0.716671,7.535064 HEAD_JOINT1:0.988625,0.150161,0.000000,-0.008462 LARM_JOINT2:0.975741,0.000000,-0.060768,-0.210327 LARM_JOINT3:0.963596,0.000000,-0.238380,0.121069 LLEG_JOINT2:0.999813,0.005649,0.000000,0.018512 LLEG_JOINT4:0.994873,0.101131,0.000000,0.000111 RARM_JOINT2:0.835828,0.000000,-0.044516,0.547184 RARM_JOINT3:0.970693,0.000000,0.142160,0.193766 RLEG_JOINT2:0.999184,0.019061,0.000000,-0.035612 RLEG_JOINT4:0.993168,0.106104,0.000000,0.048580 WAIST:0.995224,-0.000000,0.088797,0.040560 WAIST_JOINT0:0.990350,-0.000000,0.126137,0.057420 WAIST_JOINT1:0.998391,0.056387,-0.000000,0.005958 END:
KINECT_DATA_Sensor  AnkleLeft:0.054624,0.720912,-0.105186,-0.682817 AnkleRight:0.119603,0.769659,0.057306,0.624529 ElbowLeft:0.465193,-0.415613,0.340621,0.703448 ElbowRight:0.004651,0.940579,0.180691,0.287473 FootLeft:0.000000,0.000000,0.000000,0.000000 FootRight:0.000000,0.000000,0.000000,0.000000 HandLeft:-0.182301,-0.568370,0.633740,-0.492032 HandRight:0.051532,-0.701042,0.064295,0.708344 HandTipLeft:0.000000,0.000000,0.000000,0.000000 HandTipRight:0.000000,0.000000,0.000000,0.000000 Head:0.000000,0.000000,0.000000,0.000000 HipLeft:0.058998,-0.661293,0.739136,-0.113532 HipRight:-0.187744,0.693058,0.663030,-0.211694 KneeLeft:0.036196,-0.640356,0.046495,0.765815 KneeRight:0.013582,0.767833,0.008771,0.640446 Neck:-0.128701,0.044274,0.988190,-0.070396 ShoulderLeft:0.102113,0.737294,-0.665970,-0.049534 ShoulderRight:-0.064458,0.798762,0.580040,-0.146212 SpineBase:-0.089976,0.041075,0.994539,-0.033318 SpineMid:-0.108614,0.041693,0.992676,-0.032541 SpineShoulder:-0.128124,0.043274,0.989546,-0.050098 ThumbLeft:0.000000,0.000000,0.000000,0.000000 ThumbRight:0.000000,0.000000,0.000000,0.000000 WristLeft:-0.200644,-0.569575,0.640328,-0.474664 WristRight:-0.075029,0.711930,0.031745,-0.697509 END:
KINECT_DATA POSITION:8.316206,-0.607443,7.537055 HEAD_JOINT1:0.988491,0.151282,0.000000,-0.000248 LARM_JOINT2:0.979152,0.000000,-0.071828,-0.190004 LARM_JOINT3:0.972851,0.000000,-0.205696,0.106065 LLEG_JOINT2:0.999846,0.008896,0.000000,0.015124 LLEG_JOINT4:0.995362,0.096203,0.000000,0.000455 RARM_JOINT2:0.832110,0.000000,-0.051825,0.552185 RARM_JOINT3:0.971639,0.000000,0.141496,0.189463 RLEG_JOINT2:0.999142,0.018939,0.000000,-0.036830 RLEG_JOINT4:0.993105,0.105920,0.000000,0.050231 WAIST:0.995819,-0.000000,0.081277,0.041701 WAIST_JOINT0:0.992747,-0.000000,0.106862,0.055086 WAIST_JOINT1:0.998445,0.055739,-0.000000,0.000926 END:
KINECT_DATA_Sensor  AnkleLeft:-0.042169,-0.649198,0.108426,0.751670 AnkleRight:0.120711,0.759646,0.056276,0.636554 ElbowLeft:0.482931,-0.424648,0.337701,0.687321 ElbowRight:0.009318,0.933252,0.180998,0.310151 FootLeft:0.000000,0.000000,0.000000,0.000000 FootRight:0.000000,0.000000,0.000000,0.000000 HandLeft:-0.237412,-0.542637,0.615980,-0.519374 HandRight:-0.035509,0.725838,-0.072079,-0.683157 HandTipLeft:0.000000,0.000000,0.000000,0.000000 HandTipRight:0.000000,0.000000,0.000000,0.000000 Head:0.000000,0.000000,0.000000,0.000000 HipLeft:0.063704,-0.660416,0.739192,-0.115704 HipRight:-0.182035,0.695246,0.663599,-0.207683 KneeLeft:0.032483,-0.645952,0.046758,0.761252 KneeRight:0.013665,0.763075,0.008770,0.646105 Neck:-0.109472,0.039761,0.990736,-0.069832 ShoulderLeft:0.085185,0.741365,-0.664932,-0.031417 ShoulderRight:-0.056649,0.800312,0.581633,-0.134144 SpineBase:-0.082621,0.038422,0.995306,-0.032624 SpineMid:-0.095367,0.038837,0.994165,-0.032129 SpineShoulder:-0.108899,0.039344,0.992031,-0.049669 ThumbLeft:0.000000,0.000000,0.000000,0.000000 ThumbRight:0.000000,0.000000,0.000000,0.000000 WristLeft:-0.250051,-0.543128,0.620512,-0.507397 WristRight:-0.072928,0.734656,0.033116,-0.673696 END:
KINECT_DATA POSITION:8.618993,-0.488564,7.556748 HEAD_JOINT1:0.987865,0.154575,-0.000000,0.015166 LARM_JOINT2:0.980716,0.000000,-0.095950,-0.170264 LARM_JOINT3:0.975727,0.000000,-0.196996,0.095651 LLEG_JOINT2:0.999818,0.013769,0.000000,0.013189 LLEG_JOINT4:0.995749,0.092032,0.000000,-0.003745 RARM_JOINT2:0.827715,0.000000,-0.058236,0.558119 RARM_JOINT3:0.971015,0.000000,0.148198,0.187530 RLEG_JOINT2:0.999201,0.017113,0.000000,-0.036115 RLEG_JOINT4:0.993463,0.106085,0.000000,0.042166 WAIST:0.996706,-0.000000,0.069423,0.041913 WAIST_JOINT0:0.994872,-0.000000,0.086279,0.052776 WAIST_JOINT1:0.998506,0.054579,0.000000,-0.002752 END:
KINECT_DATA_Sensor  AnkleLeft:0.054397,0.719660,-0.100901,-0.684798 AnkleRight:0.115044,0.750058,0.059091,0.648603 ElbowLeft:0.498285,-0.459702,0.335416,0.654127 ElbowRight:0.014763,0.924498,0.179423,0.335997 FootLeft:0.000000,0.000000,0.000000,0.000000 FootRight:0.000000,0.000000,0.000000,0.000000 HandLeft:-0.103104,-0.553772,0.681754,-0.466817 HandRight:0.075028,-0.327595,0.037593,0.941084 HandTipLeft:0.000000,0.000000,0.000000,0.000000 HandTipRight:0.000000,0.000000,0.000000,0.000000 Head:0.000000,0.000000,0.000000,0.000000 HipLeft:0.071728,-0.659871,0.738162,-0.120592 HipRight:-0.174201,0.697808,0.665160,-0.200698 KneeLeft:0.027897,-0.654802,0.048601,0.753720 KneeRight:0.013613,0.755323,0.006958,0.655174 Neck:-0.088566,0.036310,0.993029,-0.068783 ShoulderLeft:0.067767,0.746079,-0.662257,-0.013739 ShoulderRight:-0.047021,0.802086,0.583251,-0.119440 SpineBase:-0.070845,0.035809,0.996347,-0.031472 SpineMid:-0.079074,0.036068,0.995728,-0.031175 SpineShoulder:-0.088001,0.036181,0.994270,-0.048725 ThumbLeft:0.000000,0.000000,0.000000,0.000000 ThumbRight:0.000000,0.000000,0.000000,0.000000 WristLeft:-0.158617,-0.610077,0.640404,-0.438782 WristRight:0.047338,-0.331039,-0.066084,0.940109 END:
KINECT_DATA POSITION:8.685621,-0.429368,7.529438 HEAD_JOINT1:0.988183,0.151758,-0.000000,0.021516 LARM_JOINT2:0.980765,0.000000,-0.124160,-0.150613 LARM_JOINT3:0.979721,0.000000,-0.182559,0.082576 LLEG_JOINT2:0.999793,0.013640,0.000000,0.015101 LLEG_JOINT4:0.995678,0.092653,0.000000,-0.006436 RARM_JOINT2:0.823839,0.000000,-0.067263,0.562819 RARM_JOINT3:0.972835,0.000000,0.148604,0.177506 RLEG_JOINT2:0.999212,0.018810,0.000000,-0.034950 RLEG_JOINT4:0.994132,0.100804,0.000000,0.039237 WAIST:0.997163,-0.000000,0.063067,0.041098 WAIST_JOINT0:0.996597,-0.000000,0.065660,0.049839 WAIST_JOINT1:0.998483,0.054975,0.000000,-0.003053 END:
KINECT_DATA_Sensor  AnkleLeft:-0.047903,-0.672720,0.104173,0.730959 AnkleRight:0.110771,0.739984,0.058677,0.660841 ElbowLeft:0.514414,-0.489537,0.333537,0.620068 ElbowRight:0.021085,0.913254,0.178812,0.365444 FootLeft:0.000000,0.000000,0.000000,0.000000 FootRight:0.000000,0.000000,0.000000,0.000000 HandLeft:0.136790,-0.670099,0.677866,-0.269730 HandRight:0.028827,-0.673023,0.066907,0.736025 HandTipLeft:0.000000,0.000000,0.000000,0.000000 HandTipRight:0.000000,0.000000,0.000000,0.000000 Head:0.000000,0.000000,0.000000,0.000000 HipLeft:0.074766,-0.659709,0.737533,-0.123443 HipRight:-0.169615,0.698243,0.667106,-0.196612 KneeLeft:0.028800,-0.659580,0.049386,0.749457 KneeRight:0.015266,0.751170,0.008137,0.659882 Neck:-0.068041,0.034432,0.994642,-0.069794 ShoulderLeft:0.052358,0.749230,-0.660221,0.004576 ShoulderRight:-0.035985,0.803184,0.585154,-0.105804 SpineBase:-0.064476,0.035132,0.996797,-0.031696 SpineMid:-0.065649,0.035169,0.996720,-0.031654 SpineShoulder:-0.067440,0.034722,0.995883,-0.049630 ThumbLeft:0.000000,0.000000,0.000000,0.000000 ThumbRight:0.000000,0.000000,0.000000,0.000000 WristLeft:-0.076237,0.713109,-0.657067,0.232220 WristRight:0.065658,-0.678961,-0.045554,0.729812 END:
KINECT_DATA POSITION:8.679862,-0.338244,7.491148 HEAD_JOINT1:0.987697,0.151368,-0.000000,0.039259 LARM_JOINT2:0.979099,0.000000,-0.145853,-0.141744 LARM_JOINT3:0.980434,0.000000,-0.185040,0.067151 LLEG_JOINT2:0.999747,0.014299,0.000000,0.017370 LLEG_JOINT4:0.995774,0.091480,0.000000,-0.008103 RARM_JOINT2:0.820024,0.000000,-0.070275,0.567999 RARM_JOINT3:0.973573,0.000000,0.155804,0.166978 RLEG_JOINT2:0.999326,0.016128,0.000000,-0.032978 RLEG_JOINT4:0.993915,0.103383,0.000000,0.038010 WAIST:0.997817,-0.000000,0.053127,0.039231 WAIST_JOINT0:0.998185,-0.000000,0.039242,0.045688 WAIST_JOINT1:0.998356,0.057211,0.000000,-0.003365 END:
KINECT_DATA_Sensor  AnkleLeft:0.054693,0.728369,-0.100163,-0.675615 AnkleRight:0.110181,0.726175,0.059782,0.675985 ElbowLeft:0.517831,-0.525123,0.333803,0.587088 ElbowRight:0.026583,0.903653,0.177536,0.388826 FootLeft:0.000000,0.000000,0.000000,0.000000 FootRight:0.000000,0.000000,0.000000,0.000000 HandLeft:-0.149297,0.676054,-0.655315,0.302031 HandRight:-0.026471,0.709692,-0.042182,-0.702750 HandTipLeft:0.000000,0.000000,0.000000,0.000000 HandTipRight:0.000000,0.000000,0.000000,0.000000 Head:0.000000,0.000000,0.000000,0.000000 HipLeft:0.079165,-0.659457,0.736356,-0.128951 HipRight:-0.161326,0.698353,0.670885,-0.190240 KneeLeft:0.028705,-0.667038,0.050197,0.742777 KneeRight:0.013992,0.744425,0.006284,0.667530 Neck:-0.041445,0.031106,0.995971,-0.073194 ShoulderLeft:0.033509,0.751565,-0.658145,0.029557 ShoulderRight:-0.020657,0.801465,0.590977,-0.089294 SpineBase:-0.054518,0.034032,0.997384,-0.033085 SpineMid:-0.047362,0.033794,0.997750,-0.033329 SpineShoulder:-0.040770,0.032216,0.997280,-0.052274 ThumbLeft:0.000000,0.000000,0.000000,0.000000 ThumbRight:0.000000,0.000000,0.000000,0.000000 WristLeft:-0.092712,0.706819,-0.650023,0.263214 WristRight:-0.063407,0.714132,0.044673,-0.695701 END:
KINECT_DATA POSITION:8.576842,-0.278153,7.421219 HEAD_JOINT1:0.985602,0.154536,-0.000000,0.068613 LARM_JOINT2:0.976859,0.000000,-0.166697,-0.134012 LARM_JOINT3:0.982787,0.000000,-0.174023,0.062021 LLEG_JOINT2:0.999699,0.015289,0.000000,0.019191 LLEG_JOINT4:0.995628,0.092655,0.000000,-0.011867 RARM_JOINT2:0.815840,0.000000,-0.072127,0.573762 RARM_JOINT3:0.974051,0.000000,0.157857,0.162192 RLEG_JOINT2:0.999390,0.013760,0.000000,-0.032093 RLEG_JOINT4:0.993849,0.103976,0.000000,0.038115 WAIST:0.998274,-0.000000,0.044189,0.038677 WAIST_JOINT0:0.998832,-0.000000,0.022660,0.042678 WAIST_JOINT1:0.998188,0.059690,0.000000,-0.007553 END:
KINECT_DATA_Sensor  AnkleLeft:-0.051775,-0.696638,0.103138,0.708080 AnkleRight:0.109888,0.717225,0.057927,0.685680 ElbowLeft:0.525128,-0.547117,0.322332,0.566574 ElbowRight:0.030847,0.895245,0.177464,0.407542 FootLeft:0.000000,0.000000,0.000000,0.000000 FootRight:0.000000,0.000000,0.000000,0.000000 HandLeft:-0.058168,-0.558302,0.663018,-0.495301 HandRight:-0.016735,0.827901,-0.042683,-0.558997 HandTipLeft:0.000000,0.000000,0.000000,0.000000 HandTipRight:0.000000,0.000000,0.000000,0.000000 Head:0.000000,0.000000,0.000000,0.000000 HipLeft:0.084028,-0.659133,0.735142,-0.134346 HipRight:-0.153563,0.699442,0.672747,-0.186041 KneeLeft:0.029014,-0.673550,0.051804,0.736753 KneeRight:0.012961,0.738394,0.004453,0.674230 Neck:-0.024138,0.025656,0.996475,-0.076131 ShoulderLeft:0.023696,0.754236,-0.654669,0.044449 ShoulderRight:-0.007864,0.799049,0.596187,-0.077594 SpineBase:-0.045702,0.031530,0.997860,-0.034536 SpineMid:-0.034282,0.031132,0.998318,-0.034894 SpineShoulder:-0.023456,0.027520,0.997850,-0.054654 ThumbLeft:0.000000,0.000000,0.000000,0.000000 ThumbRight:0.000000,0.000000,0.000000,0.000000 WristLeft:-0.087765,-0.583229,0.648213,-0.481624 WristRight:-0.066803,0.828434,0.035400,-0.554961 END:
KINECT_DATA POSITION:8.530043,-0.248478,7.392693 HEAD_JOINT1:0.984394,0.155750,-0.000000,0.081919 LARM_JOINT2:0.977586,0.000000,-0.166289,-0.129127 LARM_JOINT3:0.985297,0.000000,-0.160938,0.057356 LLEG_JOINT2:0.999723,0.014935,0.000000,0.018167 LLEG_JOINT4:0.995492,0.093975,0.000000,-0.012785 RARM_JOINT2:0.814266,0.000000,-0.073254,0.575851 RARM_JOINT3:0.973450,0.000000,0.159013,0.164650 RLEG_JOINT2:0.999332,0.015804,0.000000,-0.032963 RLEG_JOINT4:0.994336,0.100045,0.000000,0.035883 WAIST:0.998462,-0.000000,0.038507,0.039879 WAIST_JOINT0:0.999082,-0.000000,0.012783,0.040898 WAIST_JOINT1:0.998093,0.060905,0.000000,-0.010067 END:
KINECT_DATA_Sensor  AnkleLeft:0.057995,0.737171,-0.100645,-0.665647 AnkleRight:0.107542,0.712257,0.057472,0.691247 ElbowLeft:0.525600,-0.554432,0.326424,0.556594 ElbowRight:0.034167,0.892311,0.177210,0.413777 FootLeft:0.000000,0.000000,0.000000,0.000000 FootRight:0.000000,0.000000,0.000000,0.000000 HandLeft:-0.153106,-0.509913,0.647513,-0.545228 HandRight:-0.037485,0.744324,-0.047412,-0.665078 HandTipLeft:0.000000,0.000000,0.000000,0.000000 HandTipRight:0.000000,0.000000,0.000000,0.000000 Head:0.000000,0.000000,0.000000,0.000000 HipLeft:0.087957,-0.657444,0.735366,-0.138809 HipRight:-0.149748,0.700601,0.672808,-0.184563 KneeLeft:0.029575,-0.677627,0.051649,0.732993 KneeRight:0.014742,0.734701,0.005771,0.678206 Neck:-0.013837,0.024230,0.996631,-0.077127 ShoulderLeft:0.016749,0.755882,-0.652257,0.054057 ShoulderRight:-0.001505,0.798214,0.598126,-0.071394 SpineBase:-0.040198,0.030627,0.998085,-0.035665 SpineMid:-0.026397,0.030131,0.998546,-0.036085 SpineShoulder:-0.013163,0.026209,0.997999,-0.056013 ThumbLeft:0.000000,0.000000,0.000000,0.000000 ThumbRight:0.000000,0.000000,0.000000,0.000000 WristLeft:-0.161598,-0.525570,0.632019,-0.546090 WristRight:-0.058479,0.750200,0.042758,-0.657231 END:
KINECT_DATA POSITION:8.488132,-0.233884,7.354248 HEAD_JOINT1:0.983341,0.157221,-0.000000,0.091222 LARM_JOINT2:0.978289,0.000000,-0.164024,-0.126678 LARM_JOINT3:0.987438,0.000000,-0.148566,0.053804 LLEG_JOINT2:0.999720,0.014553,0.000000,0.018665 LLEG_JOINT4:0.995359,0.095230,0.000000,-0.013874 RARM_JOINT2:0.812373,0.000000,-0.071577,0.578729 RARM_JOINT3:0.971884,0.000000,0.169022,0.163931 RLEG_JOINT2:0.999349,0.015270,0.000000,-0.032677 RLEG_JOINT4:0.994229,0.101033,0.000000,0.036082 WAIST:0.998569,-0.000000,0.035342,0.040140 WAIST_JOINT0:0.999129,-0.000000,0.009902,0.040530 WAIST_JOINT1:0.998015,0.061703,0.000000,-0.012597 END:
KINECT_DATA_Sensor  AnkleLeft:0.053307,0.703523,-0.104081,-0.700986 AnkleRight:0.108698,0.710457,0.056997,0.692955 ElbowLeft:0.525706,-0.555282,0.326642,0.555518 ElbowRight:0.034413,0.890443,0.175970,0.418283 FootLeft:0.000000,0.000000,0.000000,0.000000 FootRight:0.000000,0.000000,0.000000,0.000000 HandLeft:-0.007287,-0.651415,0.658459,-0.376877 HandRight:0.072416,-0.466296,-0.000974,0.881659 HandTipLeft:0.000000,0.000000,0.000000,0.000000 HandTipRight:0.000000,0.000000,0.000000,0.000000 Head:0.000000,0.000000,0.000000,0.000000 HipLeft:0.090495,-0.657335,0.734752,-0.140929 HipRight:-0.147378,0.701253,0.672712,-0.184342 KneeLeft:0.030457,-0.679839,0.051927,0.730886 KneeRight:0.014880,0.732608,0.005041,0.680470 Neck:-0.010584,0.022547,0.996651,-0.077890 ShoulderLeft:0.015338,0.755561,-0.652421,0.056910 ShoulderRight:0.001317,0.796579,0.600546,-0.069320 SpineBase:-0.037159,0.028539,0.998246,-0.036179 SpineMid:-0.023301,0.028034,0.998666,-0.036572 SpineShoulder:-0.009994,0.023935,0.998056,-0.056674 ThumbLeft:0.000000,0.000000,0.000000,0.000000 ThumbRight:0.000000,0.000000,0.000000,0.000000 WristLeft:0.006235,-0.650603,0.651570,-0.390043 WristRight:0.039955,-0.467931,-0.061673,0.880705 END:
KINECT_DATA POSITION:8.505336,-0.229961,7.325900 HEAD_JOINT1:0.983272,0.159830,-0.000000,0.087353 LARM_JOINT2:0.978906,0.000000,-0.158852,-0.128486 LARM_JOINT3:0.989111,0.000000,-0.135154,0.058255 LLEG_JOINT2:0.999727,0.013666,0.000000,0.018946 LLEG_JOINT4:0.995227,0.096731,0.000000,-0.012915 RARM_JOINT2:0.812496,0.000000,-0.072104,0.578491 RARM_JOINT3:0.972009,0.000000,0.167839,0.164405 RLEG_JOINT2:0.999362,0.015216,0.000000,-0.032307 RLEG_JOINT4:0.994528,0.098502,0.000000,0.034804 WAIST:0.998605,-0.000000,0.034696,0.039814 WAIST_JOINT0:0.999141,-0.000000,0.011126,0.039920 WAIST_JOINT1:0.998027,0.061385,0.000000,-0.013164 END:
KINECT_DATA_Sensor  AnkleLeft:0.053001,0.702923,-0.105305,-0.701427 AnkleRight:0.106223,0.711455,0.055657,0.692423 ElbowLeft:0.525468,-0.549036,0.324076,0.563398 ElbowRight:0.034190,0.890115,0.176973,0.418577 FootLeft:0.000000,0.000000,0.000000,0.000000 FootRight:0.000000,0.000000,0.000000,0.000000 HandLeft:-0.070416,-0.631200,0.665483,-0.392123 HandRight:-0.062176,0.775357,-0.030379,-0.627720 HandTipLeft:0.000000,0.000000,0.000000,0.000000 HandTipRight:0.000000,0.000000,0.000000,0.000000 Head:0.000000,0.000000,0.000000,0.000000 HipLeft:0.091013,-0.657753,0.734208,-0.141480 HipRight:-0.146928,0.701205,0.672762,-0.184705 KneeLeft:0.031086,-0.680306,0.051295,0.730470 KneeRight:0.014905,0.732178,0.004989,0.680932 Neck:-0.011748,0.021785,0.996709,-0.077188 ShoulderLeft:0.015781,0.756080,-0.651900,0.055858 ShoulderRight:0.000258,0.796270,0.600862,-0.070137 SpineBase:-0.036533,0.027684,0.998284,-0.036434 SpineMid:-0.023593,0.027210,0.998674,-0.036789 SpineShoulder:-0.011179,0.023233,0.998076,-0.056382 ThumbLeft:0.000000,0.000000,0.000000,0.000000 ThumbRight:0.000000,0.000000,0.000000,0.000000 WristLeft:-0.041274,-0.631987,0.649029,-0.421486 WristRight:-0.060936,0.780562,0.041323,-0.620728 END:
KINECT_DATA POSITION:8.541019,-0.227499,7.315743 HEAD_JOINT1:0.983248,0.160720,-0.000000,0.085981 LARM_JOINT2:0.980235,0.000000,-0.150592,-0.128300 LARM_JOINT3:0.989385,0.000000,-0.129993,0.064961 LLEG_JOINT2:0.999729,0.013003,0.000000,0.019313 LLEG_JOINT4:0.994948,0.098621,0.000000,-0.018765 RARM_JOINT2:0.812982,0.000000,-0.070986,0.577945 RARM_JOINT3:0.970976,0.000000,0.172225,0.165963 RLEG_JOINT2:0.999376,0.014575,0.000000,-0.032162 RLEG_JOINT4:0.994267,0.100992,0.000000,0.035121 WAIST:0.998606,-0.000000,0.035192,0.039337 WAIST_JOINT0:0.999107,-0.000000,0.014621,0.039643 WAIST_JOINT1:0.998071,0.060466,0.000000,-0.014078 END:
KINECT_DATA_Sensor  AnkleLeft:0.057515,0.700199,-0.101736,-0.704317 AnkleRight:0.107545,0.713221,0.056850,0.690303 ElbowLeft:0.526285,-0.537787,0.322799,0.574117 ElbowRight:0.032402,0.892307,0.177835,0.413657 FootLeft:0.000000,0.000000,0.000000,0.000000 FootRight:0.000000,0.000000,0.000000,0.000000 HandLeft:-0.125080,-0.599189,0.670954,-0.418507 HandRight:-0.077522,0.835329,-0.023977,-0.543729 HandTipLeft:0.000000,0.000000,0.000000,0.000000 HandTipRight:0.000000,0.000000,0.000000,0.000000 Head:0.000000,0.000000,0.000000,0.000000 HipLeft:0.091729,-0.658473,0.733622,-0.140704 HipRight:-0.147314,0.700841,0.672808,-0.185607 KneeLeft:0.031476,-0.679913,0.050773,0.730855 KneeRight:0.014221,0.732537,0.004751,0.680562 Neck:-0.015051,0.020704,0.996778,-0.076019 ShoulderLeft:0.017401,0.755962,-0.652270,0.052559 ShoulderRight:-0.002399,0.795247,0.601986,-0.072029 SpineBase:-0.037048,0.025588,0.998339,-0.035940 SpineMid:-0.025561,0.025173,0.998699,-0.036232 SpineShoulder:-0.014528,0.022015,0.998118,-0.055364 ThumbLeft:0.000000,0.000000,0.000000,0.000000 ThumbRight:0.000000,0.000000,0.000000,0.000000 WristLeft:-0.093343,-0.607741,0.645113,-0.453615 WristRight:-0.065524,0.839739,0.035126,-0.537876 END:
KINECT_DATA POSITION:8.565468,-0.233259,7.312226 HEAD_JOINT1:0.984625,0.158414,-0.000000,0.073615 LARM_JOINT2:0.981237,0.000000,-0.143378,-0.128905 LARM_JOINT3:0.989967,0.000000,-0.122833,0.069834 LLEG_JOINT2:0.999729,0.012940,0.000000,0.019352 LLEG_JOINT4:0.995101,0.097368,0.000000,-0.017105 RARM_JOINT2:0.815510,0.000000,-0.070371,0.574448 RARM_JOINT3:0.970857,0.000000,0.170783,0.168138 RLEG_JOINT2:0.999387,0.014810,0.000000,-0.031712 RLEG_JOINT4:0.994335,0.100486,0.000000,0.034658 WAIST:0.998597,-0.000000,0.035768,0.039047 WAIST_JOINT0:0.999025,-0.000000,0.018438,0.040117 WAIST_JOINT1:0.998076,0.060923,0.000000,-0.011512 END:
KINECT_DATA_Sensor  AnkleLeft:0.059766,0.728151,-0.099556,-0.675509 AnkleRight:0.107237,0.715363,0.056639,0.688148 ElbowLeft:0.531049,-0.521523,0.318406,0.587042 ElbowRight:0.031831,0.893535,0.179604,0.410275 FootLeft:0.000000,0.000000,0.000000,0.000000 FootRight:0.000000,0.000000,0.000000,0.000000 HandLeft:-0.186723,-0.563948,0.665353,-0.452108 HandRight:-0.072465,0.820345,-0.027318,-0.566601 HandTipLeft:0.000000,0.000000,0.000000,0.000000 HandTipRight:0.000000,0.000000,0.000000,0.000000 Head:0.000000,0.000000,0.000000,0.000000 HipLeft:0.091241,-0.658780,0.733396,-0.140763 HipRight:-0.148032,0.700640,0.672745,-0.186022 KneeLeft:0.031329,-0.679535,0.050558,0.731228 KneeRight:0.014487,0.732901,0.004814,0.680164 Neck:-0.019334,0.024015,0.996585,-0.076603 ShoulderLeft:0.021920,0.756475,-0.651871,0.048254 ShoulderRight:-0.003489,0.797220,0.599061,-0.074527 SpineBase:-0.037584,0.026190,0.998300,-0.036048 SpineMid:-0.028013,0.025844,0.998614,-0.036297 SpineShoulder:-0.018860,0.024173,0.997969,-0.055833 ThumbLeft:0.000000,0.000000,0.000000,0.000000 ThumbRight:0.000000,0.000000,0.000000,0.000000 WristLeft:-0.154939,-0.576071,0.636984,-0.488249 WristRight:-0.064944,0.824939,0.036966,-0.560260 END:
KINECT_DATA POSITION:8.620789,-0.234814,7.276666 HEAD_JOINT1:0.985554,0.156746,-0.000000,0.064146 LARM_JOINT2:0.982290,0.000000,-0.136230,-0.128642 LARM_JOINT3:0.990095,0.000000,-0.123454,0.066864 LLEG_JOINT2:0.999734,0.012592,0.000000,0.019343 LLEG_JOINT4:0.995157,0.097329,0.000000,-0.013780 RARM_JOINT2:0.817113,0.000000,-0.067840,0.572472 RARM_JOINT3:0.970759,0.000000,0.170281,0.169207 RLEG_JOINT2:0.999376,0.015293,0.000000,-0.031827 RLEG_JOINT4:0.994279,0.100872,0.000000,0.035118 WAIST:0.998580,-0.000000,0.036886,0.038425 WAIST_JOINT0:0.998918,-0.000000,0.022607,0.040629 WAIST_JOINT1:0.998082,0.061184,0.000000,-0.009388 END:
KINECT_DATA_Sensor  AnkleLeft:0.059523,0.738266,-0.100408,-0.664333 AnkleRight:0.107667,0.717632,0.057319,0.685657 ElbowLeft:0.535142,-0.505965,0.315316,0.598497 ElbowRight:0.030258,0.895826,0.179718,0.405316 FootLeft:0.000000,0.000000,0.000000,0.000000 FootRight:0.000000,0.000000,0.000000,0.000000 HandLeft:-0.180785,-0.565411,0.654908,-0.467678 HandRight:-0.073603,0.811962,-0.026225,-0.578457 HandTipLeft:0.000000,0.000000,0.000000,0.000000 HandTipRight:0.000000,0.000000,0.000000,0.000000 Head:0.000000,0.000000,0.000000,0.000000 HipLeft:0.089924,-0.659382,0.733013,-0.140789 HipRight:-0.148882,0.700240,0.672806,-0.186628 KneeLeft:0.031109,-0.678805,0.049882,0.731962 KneeRight:0.014255,0.733625,0.005673,0.679381 Neck:-0.023876,0.025872,0.996414,-0.076945 ShoulderLeft:0.026378,0.756462,-0.652040,0.043747 ShoulderRight:-0.004872,0.798446,0.597085,-0.077136 SpineBase:-0.038634,0.027288,0.998214,-0.036492 SpineMid:-0.030799,0.027000,0.998486,-0.036705 SpineShoulder:-0.023400,0.025726,0.997821,-0.056071 ThumbLeft:0.000000,0.000000,0.000000,0.000000 ThumbRight:0.000000,0.000000,0.000000,0.000000 WristLeft:-0.170745,-0.577073,0.636569,-0.482299 WristRight:-0.065462,0.816712,0.037581,-0.572088 END:
KINECT_DATA POSITION:8.636092,-0.237414,7.262135 HEAD_JOINT1:0.986004,0.156630,-0.000000,0.057130 LARM_JOINT2:0.982549,0.000000,-0.133830,-0.129176 LARM_JOINT3:0.989047,0.000000,-0.130142,0.069638 LLEG_JOINT2:0.999724,0.012400,0.000000,0.019934 LLEG_JOINT4:0.995428,0.094314,0.000000,-0.015079 RARM_JOINT2:0.818164,0.000000,-0.067783,0.570976 RARM_JOINT3:0.970559,0.000000,0.169936,0.170694 RLEG_JOINT2:0.999395,0.014480,0.000000,-0.031620 RLEG_JOINT4:0.994059,0.102827,0.000000,0.035671 WAIST:0.998571,-0.000000,0.037429,0.038132 WAIST_JOINT0:0.998823,-0.000000,0.025774,0.041084 WAIST_JOINT1:0.998059,0.061707,0.000000,-0.008416 END:
KINECT_DATA_Sensor  AnkleLeft:-0.051357,-0.694931,0.101084,0.710082 AnkleRight:0.111635,0.752876,0.052117,0.646528 ElbowLeft:0.534004,-0.504565,0.317671,0.599449 ElbowRight:0.030594,0.897135,0.180887,0.401861 FootLeft:0.000000,0.000000,0.000000,0.000000 FootRight:0.000000,0.000000,0.000000,0.000000 HandLeft:-0.085818,-0.613294,0.677956,-0.396083 HandRight:-0.076275,0.712749,-0.016487,-0.697065 HandTipLeft:0.000000,0.000000,0.000000,0.000000 HandTipRight:0.000000,0.000000,0.000000,0.000000 Head:0.000000,0.000000,0.000000,0.000000 HipLeft:0.089329,-0.659669,0.732801,-0.140926 HipRight:-0.149262,0.700031,0.672812,-0.187086 KneeLeft:0.031430,-0.678426,0.049980,0.732293 KneeRight:0.013630,0.733952,0.005138,0.679046 Neck:-0.027243,0.026553,0.996272,-0.077426 ShoulderLeft:0.028902,0.756238,-0.652339,0.041493 ShoulderRight:-0.006692,0.799027,0.595908,-0.080030 SpineBase:-0.039153,0.027708,0.998170,-0.036809 SpineMid:-0.032725,0.027470,0.998402,-0.036987 SpineShoulder:-0.026746,0.026551,0.997688,-0.056562 ThumbLeft:0.000000,0.000000,0.000000,0.000000 ThumbRight:0.000000,0.000000,0.000000,0.000000 WristLeft:-0.087538,-0.633874,0.654103,-0.403349 WristRight:-0.058795,0.719539,0.046223,-0.690413 END:
KINECT_DATA POSITION:8.683698,-0.240103,7.237172 HEAD_JOINT1:0.986389,0.155359,-0.000000,0.053860 LARM_JOINT2:0.982485,0.000000,-0.135110,-0.128330 LARM_JOINT3:0.988496,0.000000,-0.133328,0.071409 LLEG_JOINT2:0.999738,0.011908,0.000000,0.019541 LLEG_JOINT4:0.995070,0.097963,0.000000,-0.015478 RARM_JOINT2:0.818723,0.000000,-0.066843,0.570285 RARM_JOINT3:0.970581,0.000000,0.167588,0.172876 RLEG_JOINT2:0.999349,0.015988,0.000000,-0.032351 RLEG_JOINT4:0.994165,0.101788,0.000000,0.035713 WAIST:0.998527,-0.000000,0.038687,0.038037 WAIST_JOINT0:0.998756,-0.000000,0.027720,0.041451 WAIST_JOINT1:0.998030,0.062264,0.000000,-0.007663 END:
KINECT_DATA_Sensor  AnkleLeft:0.060162,0.733035,-0.099108,-0.670237 AnkleRight:0.108515,0.720424,0.058602,0.682481 ElbowLeft:0.536384,-0.501080,0.315502,0.601389 ElbowRight:0.030132,0.897983,0.181045,0.399928 FootLeft:0.000000,0.000000,0.000000,0.000000 FootRight:0.000000,0.000000,0.000000,0.000000 HandLeft:-0.084091,-0.608685,0.679020,-0.401701 HandRight:0.075338,-0.674645,0.025862,0.733832 HandTipLeft:0.000000,0.000000,0.000000,0.000000 HandTipRight:0.000000,0.000000,0.000000,0.000000 Head:0.000000,0.000000,0.000000,0.000000 HipLeft:0.088052,-0.659857,0.732792,-0.140897 HipRight:-0.149957,0.699824,0.672604,-0.188054 KneeLeft:0.031428,-0.677551,0.049298,0.733149 KneeRight:0.014009,0.734833,0.006792,0.678069 Neck:-0.029404,0.027093,0.996146,-0.078070 ShoulderLeft:0.031644,0.755839,-0.652804,0.039415 ShoulderRight:-0.006676,0.799359,0.595290,-0.081305 SpineBase:-0.040398,0.028463,0.998078,-0.037401 SpineMid:-0.034405,0.028238,0.998302,-0.037571 SpineShoulder:-0.028888,0.027177,0.997581,-0.057088 ThumbLeft:0.000000,0.000000,0.000000,0.000000 ThumbRight:0.000000,0.000000,0.000000,0.000000 WristLeft:-0.089163,-0.629366,0.656593,-0.405997 WristRight:0.056511,-0.677403,-0.049503,0.731766 END:
KINECT_DATA POSITION:8.700885,-0.241426,7.218599 HEAD_JOINT1:0.986544,0.155042,-0.000000,0.051886 LARM_JOINT2:0.982450,0.000000,-0.135678,-0.128000 LARM_JOINT3:0.988764,0.000000,-0.131983,0.070185 LLEG_JOINT2:0.999739,0.011915,0.000000,0.019474 LLEG_JOINT4:0.994972,0.098927,0.000000,-0.015631 RARM_JOINT2:0.818951,0.000000,-0.066902,0.569950 RARM_JOINT3:0.971686,0.000000,0.162455,0.171563 RLEG_JOINT2:0.999382,0.014885,0.000000,-0.031843 RLEG_JOINT4:0.994258,0.100452,0.000000,0.036884 WAIST:0.998527,-0.000000,0.038796,0.037919 WAIST_JOINT0:0.998732,-0.000000,0.028315,0.041621 WAIST_JOINT1:0.998022,0.062436,0.000000,-0.007363 END:
KINECT_DATA_Sensor  AnkleLeft:-0.055296,-0.692877,0.102793,0.711546 AnkleRight:0.108036,0.720576,0.055776,0.682632 ElbowLeft:0.536565,-0.501635,0.315805,0.600606 ElbowRight:0.030508,0.898655,0.181298,0.398271 FootLeft:0.000000,0.000000,0.000000,0.000000 FootRight:0.000000,0.000000,0.000000,0.000000 HandLeft:-0.126505,-0.590146,0.669250,-0.433392 HandRight:0.053608,-0.701445,0.036980,0.709742 HandTipLeft:0.000000,0.000000,0.000000,0.000000 HandTipRight:0.000000,0.000000,0.000000,0.000000 Head:0.000000,0.000000,0.000000,0.000000 HipLeft:0.087787,-0.659875,0.732736,-0.141265 HipRight:-0.150022,0.699693,0.672659,-0.188289 KneeLeft:0.031291,-0.677493,0.049172,0.733217 KneeRight:0.013546,0.734859,0.005720,0.678060 Neck:-0.030088,0.027216,0.996110,-0.078220 ShoulderLeft:0.032354,0.755756,-0.652896,0.038890 ShoulderRight:-0.006827,0.799629,0.594856,-0.081816 SpineBase:-0.040499,0.028800,0.998051,-0.037739 SpineMid:-0.034786,0.028583,0.998267,-0.037903 SpineShoulder:-0.029562,0.027403,0.997545,-0.057265 ThumbLeft:0.000000,0.000000,0.000000,0.000000 ThumbRight:0.000000,0.000000,0.000000,0.000000 WristLeft:-0.124907,-0.604599,0.651207,-0.441349 WristRight:-0.058574,0.709172,0.046187,-0.701078 END:
KINECT_DATA POSITION:8.715041,-0.242435,7.200563 HEAD_JOINT1:0.986367,0.156813,-0.000000,0.049900 LARM_JOINT2:0.982438,0.000000,-0.136530,-0.127185 LARM_JOINT3:0.988925,0.000000,-0.131545,0.068727 LLEG_JOINT2:0.999744,0.011842,0.000000,0.019269 LLEG_JOINT4:0.995215,0.096609,0.000000,-0.014591 RARM_JOINT2:0.819186,0.000000,-0.067442,0.569548 RARM_JOINT3:0.972093,0.000000,0.161155,0.170482 RLEG_JOINT2:0.999368,0.015282,0.000000,-0.032101 RLEG_JOINT4:0.994349,0.100116,0.000000,0.035320 WAIST:0.998518,-0.000000,0.039233,0.037730 WAIST_JOINT0:0.998730,-0.000000,0.028365,0.041640 WAIST_JOINT1:0.998022,0.062471,0.000000,-0.007022 END:
KINECT_DATA_Sensor  AnkleLeft:-0.053148,-0.693172,0.101679,0.711583 AnkleRight:0.109215,0.753345,0.051940,0.646410 ElbowLeft:0.537083,-0.502008,0.316237,0.599603 ElbowRight:0.030837,0.898996,0.181761,0.397263 FootLeft:0.000000,0.000000,0.000000,0.000000 FootRight:0.000000,0.000000,0.000000,0.000000 HandLeft:-0.156005,-0.571812,0.660793,-0.460484 HandRight:0.046825,-0.698237,0.035767,0.713438 HandTipLeft:0.000000,0.000000,0.000000,0.000000 HandTipRight:0.000000,0.000000,0.000000,0.000000 Head:0.000000,0.000000,0.000000,0.000000 HipLeft:0.087409,-0.660033,0.732643,-0.141248 HipRight:-0.150331,0.699502,0.672697,-0.188616 KneeLeft:0.031061,-0.677202,0.048840,0.733518 KneeRight:0.013477,0.735158,0.006316,0.677732 Neck:-0.030174,0.027259,0.996102,-0.078276 ShoulderLeft:0.032432,0.755795,-0.652849,0.038861 ShoulderRight:-0.006849,0.799775,0.594646,-0.081906 SpineBase:-0.040921,0.028987,0.998023,-0.037898 SpineMid:-0.035035,0.028763,0.998246,-0.038068 SpineShoulder:-0.029639,0.027523,0.997536,-0.057320 ThumbLeft:0.000000,0.000000,0.000000,0.000000 ThumbRight:0.000000,0.000000,0.000000,0.000000 WristLeft:-0.154011,-0.583968,0.645274,-0.467849 WristRight:0.057280,-0.701093,-0.046408,0.709248 END:
KINECT_DATA POSITION:8.722068,-0.249129,7.198083 HEAD_JOINT1:0.985337,0.160955,-0.000000,0.056601 LARM_JOINT2:0.982653,0.000000,-0.136997,-0.124997 LARM_JOINT3:0.988298,0.000000,-0.139151,0.062485 LLEG_JOINT2:0.999744,0.011742,0.000000,0.019345 LLEG_JOINT4:0.995043,0.098577,0.000000,-0.013077 RARM_JOINT2:0.817950,0.000000,-0.068530,0.571193 RARM_JOINT3:0.971886,0.000000,0.160829,0.171967 RLEG_JOINT2:0.999362,0.014239,0.000000,-0.032748 RLEG_JOINT4:0.993990,0.102004,0.000000,0.039739 WAIST:0.998526,-0.000000,0.039161,0.037576 WAIST_JOINT0:0.998755,-0.000000,0.027917,0.041353 WAIST_JOINT1:0.998062,0.061505,0.000000,-0.009449 END:
KINECT_DATA_Sensor  AnkleLeft:0.059676,0.733816,-0.100635,-0.669197 AnkleRight:0.109779,0.720057,0.055494,0.682925 ElbowLeft:0.532349,-0.511900,0.323926,0.591300 ElbowRight:0.030907,0.899508,0.182032,0.395973 FootLeft:0.000000,0.000000,0.000000,0.000000 FootRight:0.000000,0.000000,0.000000,0.000000 HandLeft:-0.010383,-0.652440,0.669937,-0.354116 HandRight:-0.041544,0.851023,-0.046436,-0.521419 HandTipLeft:0.000000,0.000000,0.000000,0.000000 HandTipRight:0.000000,0.000000,0.000000,0.000000 Head:0.000000,0.000000,0.000000,0.000000 HipLeft:0.088075,-0.660255,0.732439,-0.140850 HipRight:-0.150183,0.699376,0.672810,-0.188800 KneeLeft:0.031081,-0.677218,0.048716,0.733509 KneeRight:0.012189,0.735122,0.006100,0.677798 Neck:-0.029379,0.024096,0.996310,-0.076962 ShoulderLeft:0.030001,0.755191,-0.653591,0.040071 ShoulderRight:-0.008259,0.797860,0.597226,-0.081684 SpineBase:-0.040874,0.027654,0.998075,-0.037556 SpineMid:-0.034604,0.027418,0.998312,-0.037729 SpineShoulder:-0.028837,0.025153,0.997679,-0.056332 ThumbLeft:0.000000,0.000000,0.000000,0.000000 ThumbRight:0.000000,0.000000,0.000000,0.000000 WristLeft:0.021754,0.665356,-0.660157,0.347880 WristRight:-0.066164,0.853578,0.030745,-0.515831 END:
KINECT_DATA POSITION:8.739380,-0.260440,7.204700 HEAD_JOINT1:0.984965,0.164143,-0.000000,0.053864 LARM_JOINT2:0.982581,0.000000,-0.138031,-0.124425 LARM_JOINT3:0.988633,0.000000,-0.137417,0.061004 LLEG_JOINT2:0.999745,0.011217,0.000000,0.019612 LLEG_JOINT4:0.994954,0.099368,0.000000,-0.013892 RARM_JOINT2:0.818080,0.000000,-0.069005,0.570949 RARM_JOINT3:0.971184,0.000000,0.163710,0.173207 RLEG_JOINT2:0.999392,0.013328,0.000000,-0.032203 RLEG_JOINT4:0.994033,0.102779,0.000000,0.036542 WAIST:0.998547,-0.000000,0.038900,0.037292 WAIST_JOINT0:0.998778,-0.000000,0.027648,0.040963 WAIST_JOINT1:0.998034,0.061919,0.000000,-0.009673 END:
KINECT_DATA_Sensor  AnkleLeft:-0.054400,-0.693432,0.103538,0.710966 AnkleRight:0.107576,0.720432,0.057281,0.682733 ElbowLeft:0.529528,-0.518351,0.328296,0.585776 ElbowRight:0.031529,0.899684,0.183027,0.395065 FootLeft:0.000000,0.000000,0.000000,0.000000 FootRight:0.000000,0.000000,0.000000,0.000000 HandLeft:-0.067453,-0.625130,0.667267,-0.399270 HandRight:-0.052794,0.843519,-0.041590,-0.532878 HandTipLeft:0.000000,0.000000,0.000000,0.000000 HandTipRight:0.000000,0.000000,0.000000,0.000000 Head:0.000000,0.000000,0.000000,0.000000 HipLeft:0.088424,-0.660475,0.732197,-0.140859 HipRight:-0.149903,0.699216,0.673044,-0.188781 KneeLeft:0.031454,-0.677404,0.048352,0.733346 KneeRight:0.011779,0.734925,0.005265,0.678026 Neck:-0.029030,0.023727,0.996276,-0.077640 ShoulderLeft:0.029559,0.754885,-0.653907,0.041001 ShoulderRight:-0.008300,0.797010,0.598309,-0.082049 SpineBase:-0.040616,0.026986,0.998106,-0.037505 SpineMid:-0.034313,0.026749,0.998342,-0.037675 SpineShoulder:-0.028506,0.024588,0.997684,-0.056645 ThumbLeft:0.000000,0.000000,0.000000,0.000000 ThumbRight:0.000000,0.000000,0.000000,0.000000 WristLeft:-0.071308,-0.636808,0.654612,-0.401090 WristRight:-0.065157,0.846846,0.031279,-0.526904 END:
KINECT_DATA POSITION:8.735647,-0.275839,7.222974 HEAD_JOINT1:0.985229,0.165969,-0.000000,0.042155 LARM_JOINT2:0.982284,0.000000,-0.138713,-0.126004 LARM_JOINT3:0.988197,0.000000,-0.139014,0.064354 LLEG_JOINT2:0.999745,0.010041,0.000000,0.020221 LLEG_JOINT4:0.994763,0.100984,0.000000,-0.015752 RARM_JOINT2:0.818979,0.000000,-0.070347,0.569495 RARM_JOINT3:0.970426,0.000000,0.169719,0.171663 RLEG_JOINT2:0.999386,0.014470,0.000000,-0.031898 RLEG_JOINT4:0.993717,0.105149,0.000000,0.038331 WAIST:0.998538,-0.000000,0.039419,0.036990 WAIST_JOINT0:0.998732,-0.000000,0.029258,0.040967 WAIST_JOINT1:0.998015,0.062355,0.000000,-0.008880 END:
KINECT_DATA_Sensor  AnkleLeft:0.059758,0.720206,-0.100363,-0.683856 AnkleRight:0.111243,0.720810,0.058676,0.681627 ElbowLeft:0.527651,-0.520635,0.329412,0.584818 ElbowRight:0.032235,0.899514,0.184771,0.394583 FootLeft:0.000000,0.000000,0.000000,0.000000 FootRight:0.000000,0.000000,0.000000,0.000000 HandLeft:-0.070595,-0.612232,0.675371,-0.405047 HandRight:-0.066653,0.789795,-0.015567,-0.609540 HandTipLeft:0.000000,0.000000,0.000000,0.000000 HandTipRight:0.000000,0.000000,0.000000,0.000000 Head:0.000000,0.000000,0.000000,0.000000 HipLeft:0.088063,-0.660695,0.732051,-0.140812 HipRight:-0.150235,0.698906,0.673176,-0.189196 KneeLeft:0.032506,-0.677038,0.047791,0.733675 KneeRight:0.012548,0.735291,0.006103,0.677608 Neck:-0.030742,0.024354,0.996172,-0.078127 ShoulderLeft:0.030467,0.755259,-0.653477,0.040291 ShoulderRight:-0.009637,0.797608,0.597223,-0.083977 SpineBase:-0.041116,0.027008,0.998078,-0.037677 SpineMid:-0.035426,0.026792,0.998297,-0.037830 SpineShoulder:-0.030222,0.025060,0.997598,-0.057063 ThumbLeft:0.000000,0.000000,0.000000,0.000000 ThumbRight:0.000000,0.000000,0.000000,0.000000 WristLeft:-0.077893,-0.634006,0.652166,-0.408225 WristRight:-0.061485,0.793190,0.037272,-0.604715 END:
KINECT_DATA POSITION:8.743564,-0.274067,7.249522 HEAD_JOINT1:0.985519,0.165453,-0.000000,0.037104 LARM_JOINT2:0.981984,0.000000,-0.139992,-0.126925 LARM_JOINT3:0.988362,0.000000,-0.136719,0.066701 LLEG_JOINT2:0.999747,0.009892,0.000000,0.020210 LLEG_JOINT4:0.994731,0.101714,0.000000,-0.012834 RARM_JOINT2:0.819502,0.000000,-0.070290,0.568749 RARM_JOINT3:0.970369,0.000000,0.167691,0.173965 RLEG_JOINT2:0.999384,0.014144,0.000000,-0.032115 RLEG_JOINT4:0.993565,0.106029,0.000000,0.039823 WAIST:0.998524,-0.000000,0.040201,0.036527 WAIST_JOINT0:0.998693,-0.000000,0.030575,0.040956 WAIST_JOINT1:0.998017,0.062423,0.000000,-0.008078 END:
KINECT_DATA_Sensor  AnkleLeft:-0.054631,-0.691751,0.104842,0.712394 AnkleRight:0.112185,0.721389,0.058592,0.680866 ElbowLeft:0.530104,-0.516174,0.324316,0.589384 ElbowRight:0.031280,0.898529,0.185413,0.396597 FootLeft:0.000000,0.000000,0.000000,0.000000 FootRight:0.000000,0.000000,0.000000,0.000000 HandLeft:-0.139316,-0.570798,0.666272,-0.459197 HandRight:-0.067996,0.707199,-0.024948,-0.703295 HandTipLeft:0.000000,0.000000,0.000000,0.000000 HandTipRight:0.000000,0.000000,0.000000,0.000000 Head:0.000000,0.000000,0.000000,0.000000 HipLeft:0.087572,-0.661004,0.731882,-0.140545 HipRight:-0.150807,0.698439,0.673425,-0.189579 KneeLeft:0.032263,-0.676510,0.047363,0.734200 KneeRight:0.011814,0.735794,0.006329,0.677073 Neck:-0.032143,0.024693,0.996113,-0.078200 ShoulderLeft:0.031833,0.755405,-0.653327,0.038897 ShoulderRight:-0.010058,0.797870,0.596751,-0.084799 SpineBase:-0.041859,0.027106,0.998043,-0.037731 SpineMid:-0.036500,0.026903,0.998253,-0.037876 SpineShoulder:-0.031620,0.025382,0.997542,-0.057146 ThumbLeft:0.000000,0.000000,0.000000,0.000000 ThumbRight:0.000000,0.000000,0.000000,0.000000 WristLeft:-0.141073,-0.590997,0.642690,-0.466658 WristRight:-0.056311,0.714520,0.046146,-0.695817 END:
KINECT_DATA POSITION:8.745691,-0.273670,7.248700 HEAD_JOINT1:0.985722,0.164610,-0.000000,0.035423 LARM_JOINT2:0.981853,0.000000,-0.140696,-0.127161 LARM_JOINT3:0.988030,0.000000,-0.138330,0.068276 LLEG_JOINT2:0.999740,0.009938,0.000000,0.020526 LLEG_JOINT4:0.994739,0.101326,0.000000,-0.015087 RARM_JOINT2:0.819729,0.000000,-0.069844,0.568477 RARM_JOINT3:0.970617,0.000000,0.166466,0.173756 RLEG_JOINT2:0.999386,0.014620,0.000000,-0.031848 RLEG_JOINT4:0.993930,0.102562,0.000000,0.039801 WAIST:0.998514,-0.000000,0.040685,0.036257 WAIST_JOINT0:0.998689,-0.000000,0.030762,0.040925 WAIST_JOINT1:0.998009,0.062623,0.000000,-0.007539 END:
KINECT_DATA_Sensor  AnkleLeft:0.062876,0.739366,-0.098789,-0.663043 AnkleRight:0.110110,0.721693,0.056479,0.681061 ElbowLeft:0.531022,-0.514616,0.322647,0.590834 ElbowRight:0.031001,0.898775,0.185449,0.396045 FootLeft:0.000000,0.000000,0.000000,0.000000 FootRight:0.000000,0.000000,0.000000,0.000000 HandLeft:-0.157012,-0.554479,0.663390,-0.477299 HandRight:0.065420,-0.655905,0.023012,0.751651 HandTipLeft:0.000000,0.000000,0.000000,0.000000 HandTipRight:0.000000,0.000000,0.000000,0.000000 Head:0.000000,0.000000,0.000000,0.000000 HipLeft:0.087108,-0.661167,0.731813,-0.140425 HipRight:-0.151035,0.698144,0.673600,-0.189859 KneeLeft:0.032241,-0.676170,0.047437,0.734510 KneeRight:0.012126,0.736119,0.006682,0.676710 Neck:-0.032387,0.024954,0.996082,-0.078421 ShoulderLeft:0.032459,0.755428,-0.653289,0.038590 ShoulderRight:-0.009736,0.797984,0.596588,-0.084903 SpineBase:-0.042326,0.027201,0.998014,-0.037911 SpineMid:-0.036859,0.026993,0.998231,-0.038060 SpineShoulder:-0.031866,0.025580,0.997516,-0.057372 ThumbLeft:0.000000,0.000000,0.000000,0.000000 ThumbRight:0.000000,0.000000,0.000000,0.000000 WristLeft:-0.159697,-0.575633,0.639213,-0.484303 WristRight:0.052606,-0.658310,-0.050467,0.749209 END:
KINECT_DATA POSITION:8.750443,-0.272094,7.237339 HEAD_JOINT1:0.985146,0.167526,-0.000000,0.037715 LARM_JOINT2:0.981890,0.000000,-0.141431,-0.126052 LARM_JOINT3:0.987658,0.000000,-0.140972,0.068257 LLEG_JOINT2:0.999727,0.010387,0.000000,0.020930 LLEG_JOINT4:0.994833,0.100556,0.000000,-0.013990 RARM_JOINT2:0.819022,0.000000,-0.071278,0.569318 RARM_JOINT3:0.970325,0.000000,0.166262,0.175573 RLEG_JOINT2:0.999380,0.014017,0.000000,-0.032313 RLEG_JOINT4:0.993882,0.102557,0.000000,0.041005 WAIST:0.998515,-0.000000,0.041109,0.035738 WAIST_JOINT0:0.998672,-0.000000,0.031192,0.041006 WAIST_JOINT1:0.998045,0.061920,0.000000,-0.008546 END:
KINECT_DATA_Sensor  AnkleLeft:-0.055034,-0.691318,0.103429,0.712989 AnkleRight:0.109856,0.721934,0.055929,0.680893 ElbowLeft:0.531534,-0.514218,0.321375,0.591413 ElbowRight:0.031268,0.898893,0.185948,0.395521 FootLeft:0.000000,0.000000,0.000000,0.000000 FootRight:0.000000,0.000000,0.000000,0.000000 HandLeft:-0.128772,-0.569425,0.668364,-0.460936 HandRight:0.067075,-0.674646,0.028662,0.734529 HandTipLeft:0.000000,0.000000,0.000000,0.000000 HandTipRight:0.000000,0.000000,0.000000,0.000000 Head:0.000000,0.000000,0.000000,0.000000 HipLeft:0.087198,-0.661678,0.731473,-0.139735 HipRight:-0.151271,0.697785,0.673888,-0.189971 KneeLeft:0.031808,-0.675858,0.047677,0.734800 KneeRight:0.010996,0.736398,0.006916,0.676424 Neck:-0.032572,0.023144,0.996189,-0.077534 ShoulderLeft:0.030672,0.754971,-0.653860,0.039307 ShoulderRight:-0.011816,0.796972,0.597788,-0.085712 SpineBase:-0.042726,0.026356,0.998034,-0.037532 SpineMid:-0.037149,0.026146,0.998257,-0.037679 SpineShoulder:-0.032055,0.024151,0.997587,-0.056657 ThumbLeft:0.000000,0.000000,0.000000,0.000000 ThumbRight:0.000000,0.000000,0.000000,0.000000 WristLeft:-0.135577,-0.591126,0.645343,-0.464459 WristRight:0.054054,-0.677334,-0.048904,0.732056 END:
KINECT_DATA POSITION:8.765211,-0.273802,7.240057 HEAD_JOINT1:0.984579,0.170315,-0.000000,0.039958 LARM_JOINT2:0.981777,0.000000,-0.142822,-0.125360 LARM_JOINT3:0.987492,0.000000,-0.142249,0.067999 LLEG_JOINT2:0.999728,0.010160,0.000000,0.020984 LLEG_JOINT4:0.994923,0.099729,0.000000,-0.013506 RARM_JOINT2:0.818673,0.000000,-0.072825,0.569624 RARM_JOINT3:0.970264,0.000000,0.167366,0.174862 RLEG_JOINT2:0.999396,0.014918,0.000000,-0.031386 RLEG_JOINT4:0.994129,0.100411,0.000000,0.040305 WAIST:0.998500,-0.000000,0.041727,0.035460 WAIST_JOINT0:0.998655,-0.000000,0.031567,0.041120 WAIST_JOINT1:0.998083,0.061180,0.000000,-0.009318 END:
KINECT_DATA_Sensor  AnkleLeft:0.059149,0.725479,-0.100098,-0.678353 AnkleRight:0.108913,0.722182,0.055151,0.680845 ElbowLeft:0.532671,-0.513166,0.319036,0.592570 ElbowRight:0.031373,0.898871,0.186634,0.395240 FootLeft:0.000000,0.000000,0.000000,0.000000 FootRight:0.000000,0.000000,0.000000,0.000000 HandLeft:-0.474796,0.706316,-0.485343,-0.200323 HandRight:-0.063357,0.721396,-0.025129,-0.689161 HandTipLeft:0.000000,0.000000,0.000000,0.000000 HandTipRight:0.000000,0.000000,0.000000,0.000000 Head:0.000000,0.000000,0.000000,0.000000 HipLeft:0.087290,-0.662037,0.731295,-0.138904 HipRight:-0.151627,0.697524,0.673997,-0.190257 KneeLeft:0.031802,-0.675394,0.047367,0.735247 KneeRight:0.012071,0.736842,0.007138,0.675920 Neck:-0.032662,0.022055,0.996276,-0.076681 ShoulderLeft:0.028804,0.754637,-0.654287,0.040015 ShoulderRight:-0.013896,0.796177,0.598698,-0.086428 SpineBase:-0.043341,0.025436,0.998047,-0.037105 SpineMid:-0.037524,0.025219,0.998283,-0.037253 SpineShoulder:-0.032169,0.023080,0.997651,-0.055902 ThumbLeft:0.000000,0.000000,0.000000,0.000000 ThumbRight:0.000000,0.000000,0.000000,0.000000 WristLeft:-0.452122,0.719336,-0.480996,-0.216298 WristRight:-0.057530,0.727647,0.045026,-0.682051 END:
KINECT_DATA POSITION:8.794605,-0.280531,7.262182 HEAD_JOINT1:0.985048,0.168318,-0.000000,0.036723 LARM_JOINT2:0.981505,0.000000,-0.144211,-0.125899 LARM_JOINT3:0.987637,0.000000,-0.141159,0.068166 LLEG_JOINT2:0.999729,0.010053,0.000000,0.020975 LLEG_JOINT4:0.994810,0.100969,0.000000,-0.012608 RARM_JOINT2:0.819515,0.000000,-0.072772,0.568419 RARM_JOINT3:0.970071,0.000000,0.167664,0.175645 RLEG_JOINT2:0.999391,0.015177,0.000000,-0.031420 RLEG_JOINT4:0.993943,0.102095,0.000000,0.040670 WAIST:0.998486,-0.000000,0.042284,0.035171 WAIST_JOINT0:0.998641,-0.000000,0.032073,0.041073 WAIST_JOINT1:0.998015,0.062470,0.000000,-0.007912 END:
KINECT_DATA_Sensor  AnkleLeft:-0.054701,-0.690880,0.104029,0.713352 AnkleRight:0.110202,0.722381,0.056621,0.680306 ElbowLeft:0.533113,-0.512935,0.318373,0.592728 ElbowRight:0.032121,0.898894,0.187583,0.394678 FootLeft:0.000000,0.000000,0.000000,0.000000 FootRight:0.000000,0.000000,0.000000,0.000000 HandLeft:0.665901,-0.457160,0.123669,0.576444 HandRight:-0.062395,0.710818,-0.027046,-0.700081 HandTipLeft:0.000000,0.000000,0.000000,0.000000 HandTipRight:0.000000,0.000000,0.000000,0.000000 Head:0.000000,0.000000,0.000000,0.000000 HipLeft:0.086619,-0.662180,0.731223,-0.139025 HipRight:-0.151807,0.697162,0.674180,-0.190790 KneeLeft:0.031657,-0.675013,0.047089,0.735620 KneeRight:0.012000,0.737212,0.007549,0.675512 Neck:-0.033326,0.023436,0.996095,-0.078325 ShoulderLeft:0.030777,0.755158,-0.653618,0.039651 ShoulderRight:-0.012765,0.796849,0.597713,-0.087226 SpineBase:-0.043887,0.025631,0.998000,-0.037584 SpineMid:-0.038144,0.025414,0.998236,-0.037731 SpineShoulder:-0.032845,0.023978,0.997537,-0.057156 ThumbLeft:0.000000,0.000000,0.000000,0.000000 ThumbRight:0.000000,0.000000,0.000000,0.000000 WristLeft:0.648199,-0.460673,0.128018,0.592646 WristRight:-0.056741,0.717565,0.045405,-0.692690 END:
KINECT_DATA POSITION:8.801932,-0.282907,7.290697 HEAD_JOINT1:0.984926,0.169085,-0.000000,0.036474 LARM_JOINT2:0.981417,0.000000,-0.145211,-0.125434 LARM_JOINT3:0.987404,0.000000,-0.142262,0.069246 LLEG_JOINT2:0.999732,0.009599,0.000000,0.021074 LLEG_JOINT4:0.994855,0.100201,0.000000,-0.014930 RARM_JOINT2:0.819359,0.000000,-0.073265,0.568580 RARM_JOINT3:0.970241,0.000000,0.167497,0.174861 RLEG_JOINT2:0.999390,0.015587,0.000000,-0.031260 RLEG_JOINT4:0.993981,0.102031,0.000000,0.039885 WAIST:0.998482,-0.000000,0.042574,0.034951 WAIST_JOINT0:0.998655,-0.000000,0.031966,0.040811 WAIST_JOINT1:0.998004,0.062649,0.000000,-0.007947 END:
KINECT_DATA_Sensor  AnkleLeft:0.060638,0.727377,-0.098327,-0.676445 AnkleRight:0.111261,0.740262,0.054557,0.660800 ElbowLeft:0.533481,-0.513164,0.317836,0.592487 ElbowRight:0.032451,0.898687,0.187886,0.394978 FootLeft:0.000000,0.000000,0.000000,0.000000 FootRight:0.000000,0.000000,0.000000,0.000000 HandLeft:0.660008,-0.490475,0.160736,0.545882 HandRight:-0.059035,0.711274,-0.026091,-0.699945 HandTipLeft:0.000000,0.000000,0.000000,0.000000 HandTipRight:0.000000,0.000000,0.000000,0.000000 Head:0.000000,0.000000,0.000000,0.000000 HipLeft:0.086228,-0.662305,0.731146,-0.139079 HipRight:-0.151789,0.696913,0.674347,-0.191127 KneeLeft:0.031897,-0.674813,0.046700,0.735819 KneeRight:0.012229,0.737412,0.007895,0.675286 Neck:-0.033242,0.022840,0.996119,-0.078228 ShoulderLeft:0.030876,0.755184,-0.653566,0.039944 ShoulderRight:-0.012529,0.796586,0.598048,-0.087365 SpineBase:-0.044174,0.025569,0.997977,-0.037908 SpineMid:-0.038235,0.025343,0.998222,-0.038059 SpineShoulder:-0.032743,0.023764,0.997530,-0.057429 ThumbLeft:0.000000,0.000000,0.000000,0.000000 ThumbRight:0.000000,0.000000,0.000000,0.000000 WristLeft:0.640177,-0.495096,0.164768,0.563830 WristRight:-0.056351,0.717459,0.045343,-0.692835 END:
KINECT_DATA POSITION:8.790467,-0.302446,7.377970 HEAD_JOINT1:0.984945,0.169369,-0.000000,0.034599 LARM_JOINT2:0.983133,0.000000,-0.088402,-0.160107 LARM_JOINT3:0.935252,0.000000,-0.328545,0.131767 LLEG_JOINT2:0.999731,0.009973,0.000000,0.020925 LLEG_JOINT4:0.994624,0.102823,0.000000,-0.012297 RARM_JOINT2:0.819520,0.000000,-0.072822,0.568405 RARM_JOINT3:0.970149,0.000000,0.164096,0.178559 RLEG_JOINT2:0.999381,0.015870,0.000000,-0.031405 RLEG_JOINT4:0.993977,0.102642,0.000000,0.038406 WAIST:0.998494,-0.000000,0.041859,0.035460 WAIST_JOINT0:0.998658,-0.000000,0.031494,0.041117 WAIST_JOINT1:0.997930,0.063891,0.000000,-0.007287 END:
KINECT_DATA_Sensor  AnkleLeft:-0.055663,-0.691046,0.105607,0.712884 AnkleRight:0.109613,0.722377,0.058762,0.680223 ElbowLeft:0.490794,-0.494759,0.344453,0.629037 ElbowRight:0.033486,0.898006,0.187552,0.396596 FootLeft:0.000000,0.000000,0.000000,0.000000 FootRight:0.000000,0.000000,0.000000,0.000000 HandLeft:0.718379,-0.570520,-0.026214,0.397179 HandRight:0.061807,-0.692135,0.046269,0.717627 HandTipLeft:0.000000,0.000000,0.000000,0.000000 HandTipRight:0.000000,0.000000,0.000000,0.000000 Head:0.000000,0.000000,0.000000,0.000000 HipLeft:0.085955,-0.661667,0.731516,-0.140327 HipRight:-0.150952,0.697149,0.674222,-0.191368 KneeLeft:0.031897,-0.675313,0.047199,0.735328 KneeRight:0.012698,0.736948,0.007849,0.675784 Neck:-0.033134,0.024191,0.995974,-0.079702 ShoulderLeft:0.034276,0.755266,-0.653384,0.038570 ShoulderRight:-0.008824,0.797619,0.596931,-0.086015 SpineBase:-0.043517,0.026177,0.997950,-0.038955 SpineMid:-0.037851,0.025955,0.998181,-0.039103 SpineShoulder:-0.032623,0.024884,0.997436,-0.058638 ThumbLeft:0.000000,0.000000,0.000000,0.000000 ThumbRight:0.000000,0.000000,0.000000,0.000000 WristLeft:0.674862,-0.523610,0.103558,0.509578 WristRight:0.054235,-0.695745,-0.046522,0.714726 END:
KINECT_DATA POSITION:8.921294,-0.325347,7.503116 HEAD_JOINT1:0.984203,0.172377,-0.000000,0.040387 LARM_JOINT2:0.971289,0.000000,-0.004900,-0.237851 LARM_JOINT3:0.766397,0.000000,-0.607515,0.208713 LLEG_JOINT2:0.999723,0.011054,0.000000,0.020779 LLEG_JOINT4:0.994336,0.105190,0.000000,-0.015199 RARM_JOINT2:0.816985,0.000000,-0.074264,0.571857 RARM_JOINT3:0.969032,0.000000,0.170339,0.178778 RLEG_JOINT2:0.999374,0.017145,0.000000,-0.030947 RLEG_JOINT4:0.994123,0.102193,0.000000,0.035716 WAIST:0.998560,-0.000000,0.040288,0.035435 WAIST_JOINT0:0.998477,-0.000000,0.035512,0.042213 WAIST_JOINT1:0.997983,0.063041,0.000000,-0.007417 END:
KINECT_DATA_Sensor  AnkleLeft:0.065470,0.727275,-0.102430,-0.675495 AnkleRight:0.108906,0.724686,0.060220,0.677748 ElbowLeft:0.401380,-0.478313,0.366370,0.689844 ElbowRight:0.034825,0.895060,0.184203,0.404628 FootLeft:0.000000,0.000000,0.000000,0.000000 FootRight:0.000000,0.000000,0.000000,0.000000 HandLeft:0.684766,-0.544755,-0.324648,0.359086 HandRight:0.091810,-0.700003,0.041386,0.707004 HandTipLeft:0.000000,0.000000,0.000000,0.000000 HandTipRight:0.000000,0.000000,0.000000,0.000000 Head:0.000000,0.000000,0.000000,0.000000 HipLeft:0.087600,-0.661581,0.731287,-0.140910 HipRight:-0.150633,0.697516,0.674305,-0.189983 KneeLeft:0.031019,-0.676480,0.047798,0.734253 KneeRight:0.013933,0.735898,0.008512,0.676895 Neck:-0.037365,0.024465,0.995896,-0.078721 ShoulderLeft:0.038268,0.755573,-0.653115,0.032943 ShoulderRight:-0.010094,0.799219,0.594618,-0.087045 SpineBase:-0.041910,0.026315,0.998046,-0.038147 SpineMid:-0.039140,0.026209,0.998159,-0.038220 SpineShoulder:-0.036846,0.025268,0.997336,-0.057653 ThumbLeft:0.000000,0.000000,0.000000,0.000000 ThumbRight:0.000000,0.000000,0.000000,0.000000 WristLeft:0.708186,-0.492917,-0.201570,0.463546 WristRight:-0.055023,0.714245,0.045140,-0.696267 END:
KINECT_DATA POSITION:9.735423,-0.391674,7.822919 HEAD_JOINT1:0.981348,0.176854,-0.000000,0.075360 LARM_JOINT2:0.927110,0.000000,-0.008952,-0.374684 LARM_JOINT3:0.699171,0.000000,-0.703289,0.128624 LLEG_JOINT2:0.999534,0.022930,0.000000,0.020154 LLEG_JOINT4:0.995009,0.096565,0.000000,-0.025156 RARM_JOINT2:0.802483,0.000000,-0.076664,0.591729 RARM_JOINT3:0.969468,0.000000,0.181875,0.164480 RLEG_JOINT2:0.999245,0.019733,0.000000,-0.033482 RLEG_JOINT4:0.994292,0.101651,0.000000,0.032405 WAIST:0.999056,-0.000000,0.026531,0.034401 WAIST_JOINT0:0.998907,-0.000000,0.024048,0.040069 WAIST_JOINT1:0.998255,0.057748,0.000000,-0.012328 END:
KINECT_DATA_Sensor  AnkleLeft:0.071362,0.716945,-0.098691,-0.686409 AnkleRight:0.109349,0.745991,0.060269,0.654146 ElbowLeft:0.285073,-0.565855,0.298118,0.713910 ElbowRight:0.034361,0.867578,0.167642,0.466931 FootLeft:0.000000,0.000000,0.000000,0.000000 FootRight:0.000000,0.000000,0.000000,0.000000 HandLeft:0.627242,-0.539312,0.353261,-0.436940 HandRight:0.117512,-0.517832,0.019256,0.847154 HandTipLeft:0.000000,0.000000,0.000000,0.000000 HandTipRight:0.000000,0.000000,0.000000,0.000000 Head:0.000000,0.000000,0.000000,0.000000 HipLeft:0.100288,-0.661518,0.728710,-0.146006 HipRight:-0.144548,0.699349,0.676171,-0.181133 KneeLeft:0.021533,-0.686463,0.054704,0.724784 KneeRight:0.013608,0.726623,0.013015,0.686779 Neck:-0.025607,0.019377,0.996831,-0.072774 ShoulderLeft:0.030303,0.762114,-0.645791,0.034912 ShoulderRight:-0.002363,0.802724,0.592053,-0.071427 SpineBase:-0.028076,0.022380,0.998773,-0.034101 SpineMid:-0.026390,0.022323,0.998819,-0.034138 SpineShoulder:-0.025148,0.020606,0.998092,-0.052488 ThumbLeft:0.000000,0.000000,0.000000,0.000000 ThumbRight:0.000000,0.000000,0.000000,0.000000 WristLeft:-0.565565,0.624491,-0.449565,0.296712 WristRight:0.048030,-0.519617,-0.074352,0.849802 END:
KINECT_DATA POSITION:10.370491,-0.438038,7.854247 HEAD_JOINT1:0.979102,0.168348,-0.000000,0.114097 LARM_JOINT2:0.909280,0.000000,0.034627,-0.414741 LARM_JOINT3:0.708695,0.000000,-0.688719,-0.153029 LLEG_JOINT2:0.999080,0.034527,0.000000,0.025447 LLEG_JOINT4:0.995368,0.089488,0.000000,-0.035126 RARM_JOINT2:0.790377,0.000000,-0.079479,0.607443 RARM_JOINT3:0.969565,0.000000,0.195003,0.148048 RLEG_JOINT2:0.999318,0.022540,0.000000,-0.029240 RLEG_JOINT4:0.995105,0.095730,0.000000,0.024540 WAIST:0.999494,-0.000000,0.013124,0.028967 WAIST_JOINT0:0.999566,0.000000,-0.003038,0.029312 WAIST_JOINT1:0.998285,0.055922,0.000000,-0.017293 END:
KINECT_DATA_Sensor  AnkleLeft:0.077274,0.703250,-0.097866,-0.699922 AnkleRight:0.101101,0.727708,0.065055,0.675269 ElbowLeft:-0.161218,0.714075,-0.332349,-0.594685 ElbowRight:0.034526,0.838706,0.160724,0.519180 FootLeft:0.000000,0.000000,0.000000,0.000000 FootRight:0.000000,0.000000,0.000000,0.000000 HandLeft:-0.430512,0.653173,-0.361402,0.507358 HandRight:0.105817,-0.534750,0.010607,0.838292 HandTipLeft:0.000000,0.000000,0.000000,0.000000 HandTipRight:0.000000,0.000000,0.000000,0.000000 Head:0.000000,0.000000,0.000000,0.000000 HipLeft:0.112043,-0.664030,0.723536,-0.151681 HipRight:-0.136193,0.697289,0.681686,-0.174768 KneeLeft:0.013431,-0.696268,0.062778,0.714905 KneeRight:0.015268,0.717280,0.016050,0.696433 Neck:0.001656,0.008762,0.997423,-0.071188 ShoulderLeft:0.012656,0.774618,-0.630095,0.052795 ShoulderRight:0.015167,0.804007,0.592533,-0.047409 SpineBase:-0.014569,0.013142,0.999275,-0.032617 SpineMid:-0.006198,0.012868,0.999362,-0.032726 SpineShoulder:0.001978,0.010359,0.998648,-0.050895 ThumbLeft:0.000000,0.000000,0.000000,0.000000 ThumbRight:0.000000,0.000000,0.000000,0.000000 WristLeft:-0.475655,0.569359,-0.379697,0.552642 WristRight:0.051288,-0.537115,-0.091565,0.836954 END:
