EastLYD/RoboCupatHomeSim/InteractiveCleanUp/JapanOpen2016/Motion_Data/File29.dat
KINECT_DATA POSITION:9.200538,-1.754106,-5.506563 HEAD_JOINT1:0.975134,0.183802,-0.000000,0.123820 LARM_JOINT2:0.835467,0.000000,-0.015164,-0.549331 LARM_JOINT3:0.976459,0.000000,-0.157809,-0.147053 LLEG_JOINT2:0.997634,0.035314,0.000000,0.058979 LLEG_JOINT4:0.995774,0.084196,0.000000,-0.036683 RARM_JOINT2:0.798779,0.000000,-0.055665,0.599043 RARM_JOINT3:0.968524,0.000000,0.213698,0.127651 RLEG_JOINT2:0.999293,0.007486,0.000000,-0.036831 RLEG_JOINT4:0.993824,0.107269,0.000000,0.028422 WAIST:0.999838,0.000000,-0.017787,-0.002837 WAIST_JOINT0:0.999113,0.000000,-0.040772,0.010511 WAIST_JOINT1:0.996955,0.076738,0.000000,-0.013879 END:
KINECT_DATA_Sensor  AnkleLeft:0.071258,0.727142,-0.097401,-0.675796 AnkleRight:0.077307,0.707180,0.085274,0.697602 ElbowLeft:-0.027631,0.897759,-0.193399,-0.394793 ElbowRight:0.019636,0.817160,0.195979,0.541715 FootLeft:0.000000,0.000000,0.000000,0.000000 FootRight:0.000000,0.000000,0.000000,0.000000 HandLeft:0.000767,-0.489566,-0.069074,0.869226 HandRight:0.043271,-0.254422,-0.110966,0.959731 HandTipLeft:0.000000,0.000000,0.000000,0.000000 HandTipRight:0.000000,0.000000,0.000000,0.000000 Head:0.000000,0.000000,0.000000,0.000000 HipLeft:0.121818,-0.679109,0.701312,-0.179259 HipRight:-0.100040,0.677005,0.708873,-0.170750 KneeLeft:-0.015805,0.719244,-0.064392,-0.691587 KneeRight:-0.022150,0.694761,0.033734,0.718108 Neck:0.038718,-0.018555,0.994756,-0.092831 ShoulderLeft:0.007636,0.775332,-0.624865,0.091359 ShoulderRight:0.059144,0.785926,0.614847,-0.028031 SpineBase:0.017319,-0.013191,0.998392,-0.052332 SpineMid:0.027872,-0.013744,0.998154,-0.052189 SpineShoulder:0.038656,-0.016414,0.996563,-0.071408 ThumbLeft:0.000000,0.000000,0.000000,0.000000 ThumbRight:0.000000,0.000000,0.000000,0.000000 WristLeft:0.086592,-0.478769,-0.066698,0.871110 WristRight:-0.027627,-0.261113,-0.106962,0.958966 END:
KINECT_DATA POSITION:9.194738,-1.749291,-5.512810 HEAD_JOINT1:0.975245,0.183194,-0.000000,0.123845 LARM_JOINT2:0.835363,0.000000,-0.016021,-0.549465 LARM_JOINT3:0.976241,0.000000,-0.158218,-0.148055 LLEG_JOINT2:0.997633,0.035248,0.000000,0.059038 LLEG_JOINT4:0.995587,0.086680,0.000000,-0.035952 RARM_JOINT2:0.799000,0.000000,-0.055326,0.598780 RARM_JOINT3:0.969484,0.000000,0.212070,0.122993 RLEG_JOINT2:0.999284,0.008353,0.000000,-0.036891 RLEG_JOINT4:0.994126,0.104666,0.000000,0.027545 WAIST:0.999840,0.000000,-0.017658,-0.002832 WAIST_JOINT0:0.999108,0.000000,-0.040889,0.010510 WAIST_JOINT1:0.996946,0.076846,0.000000,-0.013911 END:
KINECT_DATA_Sensor  AnkleLeft:0.072479,0.727048,-0.099607,-0.675445 AnkleRight:0.073586,0.692715,0.086369,0.712230 ElbowLeft:-0.027904,0.898104,-0.192960,-0.394205 ElbowRight:0.019127,0.816814,0.196240,0.542162 FootLeft:0.000000,0.000000,0.000000,0.000000 FootRight:0.000000,0.000000,0.000000,0.000000 HandLeft:0.002968,-0.555984,-0.067943,0.828407 HandRight:0.013917,-0.246981,-0.100697,0.963674 HandTipLeft:0.000000,0.000000,0.000000,0.000000 HandTipRight:0.000000,0.000000,0.000000,0.000000 Head:0.000000,0.000000,0.000000,0.000000 HipLeft:0.121759,-0.679135,0.701306,-0.179220 HipRight:-0.100062,0.676993,0.708844,-0.170905 KneeLeft:-0.015889,0.719147,-0.064392,-0.691686 KneeRight:-0.021567,0.694863,0.034373,0.717996 Neck:0.038839,-0.018593,0.994739,-0.092953 ShoulderLeft:0.007489,0.775222,-0.624964,0.091621 ShoulderRight:0.059164,0.785843,0.614948,-0.028105 SpineBase:0.017182,-0.013299,0.998390,-0.052387 SpineMid:0.027858,-0.013859,0.998150,-0.052241 SpineShoulder:0.038773,-0.016476,0.996550,-0.071504 ThumbLeft:0.000000,0.000000,0.000000,0.000000 ThumbRight:0.000000,0.000000,0.000000,0.000000 WristLeft:0.090898,-0.544072,-0.062035,0.831790 WristRight:-0.028099,-0.250149,-0.108617,0.961685 END:
KINECT_DATA POSITION:9.188439,-1.749099,-5.500996 HEAD_JOINT1:0.975430,0.181895,-0.000000,0.124303 LARM_JOINT2:0.835340,0.000000,-0.016911,-0.549473 LARM_JOINT3:0.976032,0.000000,-0.158437,-0.149198 LLEG_JOINT2:0.997631,0.035414,0.000000,0.058976 LLEG_JOINT4:0.995882,0.083389,0.000000,-0.035560 RARM_JOINT2:0.799101,0.000000,-0.054560,0.598717 RARM_JOINT3:0.969532,0.000000,0.211051,0.124361 RLEG_JOINT2:0.999271,0.008779,0.000000,-0.037142 RLEG_JOINT4:0.993937,0.105902,0.000000,0.029559 WAIST:0.999841,0.000000,-0.017625,-0.002647 WAIST_JOINT0:0.999086,0.000000,-0.041476,0.010376 WAIST_JOINT1:0.996902,0.077355,0.000000,-0.014246 END:
KINECT_DATA_Sensor  AnkleLeft:0.069946,0.727749,-0.097768,-0.675226 AnkleRight:0.077256,0.701858,0.085090,0.702984 ElbowLeft:-0.027791,0.898667,-0.192710,-0.393050 ElbowRight:0.018777,0.816612,0.196450,0.542403 FootLeft:0.000000,0.000000,0.000000,0.000000 FootRight:0.000000,0.000000,0.000000,0.000000 HandLeft:-0.004435,-0.499588,-0.069128,0.863489 HandRight:0.017079,-0.225254,-0.092897,0.969711 HandTipLeft:0.000000,0.000000,0.000000,0.000000 HandTipRight:0.000000,0.000000,0.000000,0.000000 Head:0.000000,0.000000,0.000000,0.000000 HipLeft:0.121668,-0.678991,0.701425,-0.179362 HipRight:-0.099881,0.677052,0.708731,-0.171244 KneeLeft:-0.015858,0.719105,-0.064600,-0.691710 KneeRight:-0.021303,0.694916,0.034718,0.717936 Neck:0.039382,-0.018797,0.994660,-0.093530 ShoulderLeft:0.007951,0.775444,-0.624632,0.091968 ShoulderRight:0.060333,0.785868,0.614826,-0.027578 SpineBase:0.017118,-0.013482,0.998374,-0.052681 SpineMid:0.028091,-0.014061,0.998125,-0.052530 SpineShoulder:0.039314,-0.016675,0.996491,-0.071979 ThumbLeft:0.000000,0.000000,0.000000,0.000000 ThumbRight:0.000000,0.000000,0.000000,0.000000 WristLeft:0.085856,-0.488160,-0.068671,0.865802 WristRight:-0.030724,-0.228161,-0.108523,0.967068 END:
KINECT_DATA POSITION:9.189813,-1.750355,-5.479741 HEAD_JOINT1:0.975103,0.182453,-0.000000,0.126038 LARM_JOINT2:0.835336,0.000000,-0.017123,-0.549473 LARM_JOINT3:0.976133,0.000000,-0.158060,-0.148931 LLEG_JOINT2:0.997616,0.036123,0.000000,0.058801 LLEG_JOINT4:0.995684,0.085698,0.000000,-0.035619 RARM_JOINT2:0.798926,0.000000,-0.055088,0.598901 RARM_JOINT3:0.969578,0.000000,0.209934,0.125884 RLEG_JOINT2:0.999262,0.008339,0.000000,-0.037498 RLEG_JOINT4:0.993911,0.106550,0.000000,0.028070 WAIST:0.999837,0.000000,-0.017830,-0.002674 WAIST_JOINT0:0.999070,0.000000,-0.041868,0.010280 WAIST_JOINT1:0.996896,0.077413,0.000000,-0.014355 END:
KINECT_DATA_Sensor  AnkleLeft:0.072268,0.727631,-0.099685,-0.674829 AnkleRight:0.074969,0.691988,0.087617,0.712640 ElbowLeft:-0.027491,0.899573,-0.192578,-0.391059 ElbowRight:0.019200,0.816185,0.196580,0.542982 FootLeft:0.000000,0.000000,0.000000,0.000000 FootRight:0.000000,0.000000,0.000000,0.000000 HandLeft:0.001150,-0.548100,-0.071177,0.833378 HandRight:0.025216,-0.249416,-0.086403,0.964205 HandTipLeft:0.000000,0.000000,0.000000,0.000000 HandTipRight:0.000000,0.000000,0.000000,0.000000 Head:0.000000,0.000000,0.000000,0.000000 HipLeft:0.121775,-0.678984,0.701383,-0.179478 HipRight:-0.099681,0.677055,0.708773,-0.171176 KneeLeft:-0.015231,0.719272,-0.064965,-0.691516 KneeRight:-0.021878,0.694767,0.034692,0.718065 Neck:0.039842,-0.018943,0.994635,-0.093573 ShoulderLeft:0.007060,0.775692,-0.624207,0.092832 ShoulderRight:0.060022,0.785880,0.614834,-0.027728 SpineBase:0.017318,-0.013594,0.998366,-0.052735 SpineMid:0.028419,-0.014180,0.998111,-0.052581 SpineShoulder:0.039774,-0.016813,0.996467,-0.072040 ThumbLeft:0.000000,0.000000,0.000000,0.000000 ThumbRight:0.000000,0.000000,0.000000,0.000000 WristLeft:0.088912,-0.536051,-0.062764,0.837140 WristRight:-0.028419,-0.251992,-0.108706,0.961185 END:
KINECT_DATA POSITION:9.177835,-1.802198,-5.353570 HEAD_JOINT1:0.975407,0.180109,-0.000000,0.127049 LARM_JOINT2:0.834547,0.000000,-0.017174,-0.550668 LARM_JOINT3:0.974303,0.000000,-0.162862,-0.155596 LLEG_JOINT2:0.997660,0.036262,0.000000,0.057969 LLEG_JOINT4:0.995774,0.085027,0.000000,-0.034719 RARM_JOINT2:0.798104,0.000000,-0.038747,0.601273 RARM_JOINT3:0.956138,0.000000,0.267496,0.119359 RLEG_JOINT2:0.999279,0.007193,0.000000,-0.037268 RLEG_JOINT4:0.993792,0.107440,0.000000,0.028867 WAIST:0.999839,0.000000,-0.017812,-0.002230 WAIST_JOINT0:0.999114,0.000000,-0.040654,0.010852 WAIST_JOINT1:0.996924,0.076975,0.000000,-0.014721 END:
KINECT_DATA_Sensor  AnkleLeft:0.071446,0.727079,-0.099752,-0.675501 AnkleRight:0.075850,0.692429,0.086351,0.712272 ElbowLeft:-0.027360,0.899543,-0.191196,-0.391814 ElbowRight:0.004725,0.806724,0.188228,0.560128 FootLeft:0.000000,0.000000,0.000000,0.000000 FootRight:0.000000,0.000000,0.000000,0.000000 HandLeft:-0.012199,-0.561446,-0.092568,0.822229 HandRight:0.059695,-0.283161,-0.239790,0.926692 HandTipLeft:0.000000,0.000000,0.000000,0.000000 HandTipRight:0.000000,0.000000,0.000000,0.000000 Head:0.000000,0.000000,0.000000,0.000000 HipLeft:0.122400,-0.678852,0.701575,-0.178806 HipRight:-0.100251,0.677473,0.708416,-0.170667 KneeLeft:-0.014848,0.719254,-0.064800,-0.691559 KneeRight:-0.022233,0.694808,0.033418,0.718075 Neck:0.038616,-0.018590,0.994736,-0.093078 ShoulderLeft:0.007589,0.776165,-0.623794,0.091603 ShoulderRight:0.058910,0.786812,0.613720,-0.028363 SpineBase:0.017265,-0.013600,0.998415,-0.051812 SpineMid:0.027765,-0.014144,0.998178,-0.051666 SpineShoulder:0.038524,-0.016704,0.996545,-0.071657 ThumbLeft:0.000000,0.000000,0.000000,0.000000 ThumbRight:0.000000,0.000000,0.000000,0.000000 WristLeft:0.088208,-0.544936,-0.065994,0.831209 WristRight:-0.001927,-0.302503,-0.152873,0.940807 END:
KINECT_DATA POSITION:9.248776,-1.845933,-5.133259 HEAD_JOINT1:0.976146,0.175232,-0.000000,0.128191 LARM_JOINT2:0.832764,0.000000,-0.015376,-0.553414 LARM_JOINT3:0.971977,0.000000,-0.168198,-0.164228 LLEG_JOINT2:0.997706,0.037669,0.000000,0.056249 LLEG_JOINT4:0.995715,0.085475,0.000000,-0.035306 RARM_JOINT2:0.795716,0.000000,-0.017013,0.605431 RARM_JOINT3:0.939336,0.000000,0.326347,0.105569 RLEG_JOINT2:0.999213,0.008160,0.000000,-0.038831 RLEG_JOINT4:0.993823,0.107369,0.000000,0.028083 WAIST:0.999843,0.000000,-0.017649,-0.001791 WAIST_JOINT0:0.999212,0.000000,-0.037972,0.011576 WAIST_JOINT1:0.997073,0.075100,0.000000,-0.014314 END:
KINECT_DATA_Sensor  AnkleLeft:0.073860,0.725233,-0.099887,-0.677203 AnkleRight:0.075388,0.694099,0.088175,0.710471 ElbowLeft:-0.025147,0.902394,-0.189221,-0.386326 ElbowRight:-0.017281,0.780504,0.173014,0.600484 FootLeft:0.000000,0.000000,0.000000,0.000000 FootRight:0.000000,0.000000,0.000000,0.000000 HandLeft:-0.006398,0.718696,0.095388,-0.688720 HandRight:0.158258,-0.404030,-0.289594,0.853141 HandTipLeft:0.000000,0.000000,0.000000,0.000000 HandTipRight:0.000000,0.000000,0.000000,0.000000 Head:0.000000,0.000000,0.000000,0.000000 HipLeft:0.124035,-0.678972,0.701602,-0.177105 HipRight:-0.102568,0.678241,0.707825,-0.168678 KneeLeft:-0.012922,0.719243,-0.064928,-0.691598 KneeRight:-0.022320,0.694814,0.034898,0.717995 Neck:0.036095,-0.017028,0.995102,-0.090435 ShoulderLeft:0.007368,0.776321,-0.623949,0.089212 ShoulderRight:0.055283,0.787584,0.612987,-0.030028 SpineBase:0.017147,-0.012505,0.998581,-0.048838 SpineMid:0.026447,-0.012960,0.998378,-0.048719 SpineShoulder:0.035956,-0.015866,0.996766,-0.070092 ThumbLeft:0.000000,0.000000,0.000000,0.000000 ThumbRight:0.000000,0.000000,0.000000,0.000000 WristLeft:-0.096200,0.714444,0.059228,-0.690512 WristRight:0.052098,-0.437589,-0.217771,0.870849 END:
KINECT_DATA POSITION:9.369678,-1.892071,-4.897022 HEAD_JOINT1:0.977043,0.170175,-0.000000,0.128168 LARM_JOINT2:0.831474,0.000000,-0.013294,-0.555404 LARM_JOINT3:0.970211,0.000000,-0.178193,-0.164125 LLEG_JOINT2:0.997717,0.040691,0.000000,0.053904 LLEG_JOINT4:0.996008,0.083102,0.000000,-0.032593 RARM_JOINT2:0.795533,0.000000,0.003618,0.605900 RARM_JOINT3:0.910614,0.000000,0.404234,0.085894 RLEG_JOINT2:0.999144,0.006065,0.000000,-0.040914 RLEG_JOINT4:0.993064,0.113992,0.000000,0.028812 WAIST:0.999837,0.000000,-0.018009,-0.001499 WAIST_JOINT0:0.999255,0.000000,-0.036346,0.012948 WAIST_JOINT1:0.997308,0.072144,0.000000,-0.013084 END:
KINECT_DATA_Sensor  AnkleLeft:0.073635,0.724408,-0.100988,-0.677947 AnkleRight:0.083907,0.738512,0.086656,0.663363 ElbowLeft:-0.026105,0.901903,-0.188034,-0.387985 ElbowRight:-0.036715,0.763026,0.159089,0.625407 FootLeft:0.000000,0.000000,0.000000,0.000000 FootRight:0.000000,0.000000,0.000000,0.000000 HandLeft:0.014725,-0.614847,-0.110970,0.780661 HandRight:0.214277,-0.388119,-0.403993,0.800149 HandTipLeft:0.000000,0.000000,0.000000,0.000000 HandTipRight:0.000000,0.000000,0.000000,0.000000 Head:0.000000,0.000000,0.000000,0.000000 HipLeft:0.126080,-0.679100,0.701473,-0.175680 HipRight:-0.105107,0.679083,0.707311,-0.165864 KneeLeft:-0.009349,0.719647,-0.065672,-0.691164 KneeRight:-0.025063,0.694353,0.034742,0.718359 Neck:0.034458,-0.014404,0.995604,-0.085898 ShoulderLeft:0.007146,0.776407,-0.624292,0.086031 ShoulderRight:0.052720,0.789439,0.610851,-0.029465 SpineBase:0.017607,-0.010590,0.998757,-0.045410 SpineMid:0.025867,-0.010966,0.998577,-0.045321 SpineShoulder:0.034253,-0.014470,0.997013,-0.067701 ThumbLeft:0.000000,0.000000,0.000000,0.000000 ThumbRight:0.000000,0.000000,0.000000,0.000000 WristLeft:0.085830,-0.602863,-0.081607,0.789006 WristRight:0.095178,-0.446739,-0.284051,0.843018 END:
KINECT_DATA POSITION:9.541089,-1.891243,-4.670870 HEAD_JOINT1:0.977132,0.169322,-0.000000,0.128622 LARM_JOINT2:0.830132,0.000000,-0.009877,-0.557480 LARM_JOINT3:0.967827,0.000000,-0.181805,-0.173947 LLEG_JOINT2:0.997817,0.043149,0.000000,0.049995 LLEG_JOINT4:0.996361,0.079444,0.000000,-0.030877 RARM_JOINT2:0.800416,0.000000,-0.002437,0.599440 RARM_JOINT3:0.855439,0.000000,0.509929,0.090533 RLEG_JOINT2:0.999005,0.007616,0.000000,-0.043949 RLEG_JOINT4:0.992999,0.114086,0.000000,0.030615 WAIST:0.999810,0.000000,-0.019470,-0.000680 WAIST_JOINT0:0.999281,0.000000,-0.035115,0.014279 WAIST_JOINT1:0.997500,0.069593,0.000000,-0.012277 END:
KINECT_DATA_Sensor  AnkleLeft:0.071423,0.710806,-0.100898,-0.692440 AnkleRight:0.082338,0.716701,0.090420,0.686574 ElbowLeft:-0.025866,0.901829,-0.187505,-0.388429 ElbowRight:-0.042541,0.746282,0.164631,0.643545 FootLeft:0.000000,0.000000,0.000000,0.000000 FootRight:0.000000,0.000000,0.000000,0.000000 HandLeft:-0.004864,-0.612096,-0.120033,0.781606 HandRight:0.236112,-0.311511,-0.492422,0.777646 HandTipLeft:0.000000,0.000000,0.000000,0.000000 HandTipRight:0.000000,0.000000,0.000000,0.000000 Head:0.000000,0.000000,0.000000,0.000000 HipLeft:0.127996,-0.678737,0.701658,-0.174957 HipRight:-0.106281,0.680484,0.706610,-0.162322 KneeLeft:-0.005499,0.720720,-0.065288,-0.690123 KneeRight:-0.025423,0.693151,0.037459,0.719369 Neck:0.033215,-0.012098,0.995908,-0.083177 ShoulderLeft:0.006888,0.776167,-0.625002,0.083005 ShoulderRight:0.050682,0.790840,0.609257,-0.028450 SpineBase:0.019126,-0.008197,0.998879,-0.042522 SpineMid:0.026055,-0.008492,0.998722,-0.042464 SpineShoulder:0.032997,-0.012693,0.997240,-0.065293 ThumbLeft:0.000000,0.000000,0.000000,0.000000 ThumbRight:0.000000,0.000000,0.000000,0.000000 WristLeft:0.083488,-0.596427,-0.090851,0.793128 WristRight:0.124854,-0.382083,-0.371047,0.837107 END:
KINECT_DATA POSITION:9.592156,-1.876494,-4.564536 HEAD_JOINT1:0.977046,0.169914,-0.000000,0.128493 LARM_JOINT2:0.829192,0.000000,-0.008778,-0.558896 LARM_JOINT3:0.967574,0.000000,-0.181152,-0.176025 LLEG_JOINT2:0.997819,0.044927,0.000000,0.048363 LLEG_JOINT4:0.996464,0.079967,0.000000,-0.025800 RARM_JOINT2:0.802504,0.000000,-0.004648,0.596628 RARM_JOINT3:0.846022,0.000000,0.527743,0.075719 RLEG_JOINT2:0.998943,0.008945,0.000000,-0.045092 RLEG_JOINT4:0.993038,0.113567,0.000000,0.031271 WAIST:0.999797,0.000000,-0.020149,-0.000652 WAIST_JOINT0:0.999329,0.000000,-0.033709,0.014344 WAIST_JOINT1:0.997606,0.068201,0.000000,-0.011477 END:
KINECT_DATA_Sensor  AnkleLeft:0.072448,0.724408,-0.103632,-0.677676 AnkleRight:0.080017,0.695826,0.093589,0.707576 ElbowLeft:-0.025919,0.902260,-0.186583,-0.387869 ElbowRight:-0.047038,0.732841,0.166062,0.658145 FootLeft:0.000000,0.000000,0.000000,0.000000 FootRight:0.000000,0.000000,0.000000,0.000000 HandLeft:-0.007071,0.734607,0.109560,-0.669551 HandRight:-0.493674,0.790768,-0.200937,0.300992 HandTipLeft:0.000000,0.000000,0.000000,0.000000 HandTipRight:0.000000,0.000000,0.000000,0.000000 Head:0.000000,0.000000,0.000000,0.000000 HipLeft:0.128735,-0.678772,0.701511,-0.174865 HipRight:-0.106522,0.680826,0.706529,-0.161075 KneeLeft:-0.003152,0.721226,-0.065451,-0.689593 KneeRight:-0.025210,0.692613,0.039201,0.719802 Neck:0.031948,-0.011184,0.996037,-0.082242 ShoulderLeft:0.006434,0.776086,-0.625338,0.081242 ShoulderRight:0.048511,0.790714,0.609580,-0.028808 SpineBase:0.019837,-0.007538,0.998909,-0.041602 SpineMid:0.025792,-0.007786,0.998773,-0.041556 SpineShoulder:0.031750,-0.011666,0.997390,-0.063789 ThumbLeft:0.000000,0.000000,0.000000,0.000000 ThumbRight:0.000000,0.000000,0.000000,0.000000 WristLeft:-0.097995,0.728603,0.080329,-0.673114 WristRight:-0.417633,0.829564,-0.126471,0.348442 END:
KINECT_DATA POSITION:9.574969,-1.870399,-4.546666 HEAD_JOINT1:0.977162,0.170470,-0.000000,0.126863 LARM_JOINT2:0.827510,0.000000,-0.006905,-0.561408 LARM_JOINT3:0.968053,0.000000,-0.179016,-0.175575 LLEG_JOINT2:0.997842,0.044794,0.000000,0.048007 LLEG_JOINT4:0.996459,0.080474,0.000000,-0.024372 RARM_JOINT2:0.802393,0.000000,-0.005621,0.596769 RARM_JOINT3:0.843818,0.000000,0.534543,0.047273 RLEG_JOINT2:0.998933,0.008735,0.000000,-0.045343 RLEG_JOINT4:0.993004,0.114005,0.000000,0.030748 WAIST:0.999803,0.000000,-0.019810,-0.000853 WAIST_JOINT0:0.999389,0.000000,-0.032063,0.013918 WAIST_JOINT1:0.997665,0.067459,0.000000,-0.010666 END:
KINECT_DATA_Sensor  AnkleLeft:0.071853,0.722404,-0.104676,-0.679715 AnkleRight:0.086753,0.750061,0.087856,0.649741 ElbowLeft:-0.024364,0.901607,-0.184847,-0.390312 ElbowRight:-0.049475,0.721294,0.164635,0.670957 FootLeft:0.000000,0.000000,0.000000,0.000000 FootRight:0.000000,0.000000,0.000000,0.000000 HandLeft:-0.025500,-0.545438,-0.099095,0.831881 HandRight:-0.522974,0.770045,-0.169071,0.323952 HandTipLeft:0.000000,0.000000,0.000000,0.000000 HandTipRight:0.000000,0.000000,0.000000,0.000000 Head:0.000000,0.000000,0.000000,0.000000 HipLeft:0.128626,-0.678923,0.701432,-0.174676 HipRight:-0.106831,0.680629,0.706643,-0.161207 KneeLeft:-0.002826,0.721005,-0.064967,-0.689872 KneeRight:-0.025690,0.692829,0.039369,0.719568 Neck:0.030409,-0.010951,0.996119,-0.081867 ShoulderLeft:0.006451,0.776066,-0.625545,0.079836 ShoulderRight:0.046535,0.790213,0.610331,-0.029901 SpineBase:0.019516,-0.007557,0.998919,-0.041510 SpineMid:0.024871,-0.007780,0.998800,-0.041469 SpineShoulder:0.030266,-0.010867,0.997500,-0.062929 ThumbLeft:0.000000,0.000000,0.000000,0.000000 ThumbRight:0.000000,0.000000,0.000000,0.000000 WristLeft:0.072614,-0.530594,-0.103577,0.838134 WristRight:-0.431690,0.817943,-0.126024,0.358790 END:
KINECT_DATA POSITION:9.536383,-1.862210,-4.559505 HEAD_JOINT1:0.977172,0.171204,-0.000000,0.125797 LARM_JOINT2:0.827204,0.000000,-0.006682,-0.561861 LARM_JOINT3:0.968148,0.000000,-0.180486,-0.173533 LLEG_JOINT2:0.997810,0.045044,0.000000,0.048446 LLEG_JOINT4:0.996576,0.079132,0.000000,-0.023949 RARM_JOINT2:0.802606,0.000000,-0.006928,0.596469 RARM_JOINT3:0.836872,0.000000,0.546750,0.026627 RLEG_JOINT2:0.998868,0.009593,0.000000,-0.046582 RLEG_JOINT4:0.993244,0.110740,0.000000,0.034679 WAIST:0.999819,0.000000,-0.018998,-0.001233 WAIST_JOINT0:0.999439,0.000000,-0.030715,0.013383 WAIST_JOINT1:0.997726,0.066700,0.000000,-0.009719 END:
KINECT_DATA_Sensor  AnkleLeft:0.070796,0.721833,-0.104204,-0.680505 AnkleRight:0.079323,0.697621,0.091105,0.706210 ElbowLeft:-0.024613,0.901504,-0.184664,-0.390620 ElbowRight:-0.053006,0.706220,0.163472,0.686819 FootLeft:0.000000,0.000000,0.000000,0.000000 FootRight:0.000000,0.000000,0.000000,0.000000 HandLeft:-0.007087,-0.600748,-0.098649,0.793297 HandRight:-0.537390,0.760631,-0.165205,0.324591 HandTipLeft:0.000000,0.000000,0.000000,0.000000 HandTipRight:0.000000,0.000000,0.000000,0.000000 Head:0.000000,0.000000,0.000000,0.000000 HipLeft:0.128123,-0.679277,0.701281,-0.174274 HipRight:-0.107305,0.680270,0.706815,-0.161651 KneeLeft:-0.002645,0.720469,-0.065186,-0.690412 KneeRight:-0.026229,0.693366,0.041106,0.718934 Neck:0.029205,-0.010936,0.996175,-0.081631 ShoulderLeft:0.005970,0.776124,-0.625610,0.078791 ShoulderRight:0.044494,0.789538,0.611309,-0.030841 SpineBase:0.018732,-0.007660,0.998932,-0.041532 SpineMid:0.023886,-0.007874,0.998822,-0.041492 SpineShoulder:0.029122,-0.010170,0.997600,-0.061980 ThumbLeft:0.000000,0.000000,0.000000,0.000000 ThumbRight:0.000000,0.000000,0.000000,0.000000 WristLeft:0.079627,-0.587305,-0.099734,0.799240 WristRight:-0.451715,0.806279,-0.120402,0.362451 END:
KINECT_DATA POSITION:9.505061,-1.850533,-4.584646 HEAD_JOINT1:0.977132,0.170379,-0.000000,0.127216 LARM_JOINT2:0.827913,0.000000,-0.007789,-0.560802 LARM_JOINT3:0.967549,0.000000,-0.184040,-0.173142 LLEG_JOINT2:0.997803,0.045132,0.000000,0.048502 LLEG_JOINT4:0.996597,0.079088,0.000000,-0.023246 RARM_JOINT2:0.802398,0.000000,-0.006411,0.596754 RARM_JOINT3:0.839714,0.000000,0.542974,0.007743 RLEG_JOINT2:0.998882,0.009905,0.000000,-0.046217 RLEG_JOINT4:0.993229,0.110249,0.000000,0.036634 WAIST:0.999825,0.000000,-0.018647,-0.001467 WAIST_JOINT0:0.999428,0.000000,-0.031193,0.013093 WAIST_JOINT1:0.997743,0.066502,0.000000,-0.009319 END:
KINECT_DATA_Sensor  AnkleLeft:0.070565,0.722119,-0.104528,-0.680176 AnkleRight:0.080467,0.697067,0.089576,0.706823 ElbowLeft:-0.025660,0.902366,-0.185499,-0.388158 ElbowRight:-0.054739,0.699847,0.162145,0.693489 FootLeft:0.000000,0.000000,0.000000,0.000000 FootRight:0.000000,0.000000,0.000000,0.000000 HandLeft:0.005690,-0.589301,-0.108290,0.800603 HandRight:-0.542505,0.752472,-0.131084,0.349702 HandTipLeft:0.000000,0.000000,0.000000,0.000000 HandTipRight:0.000000,0.000000,0.000000,0.000000 Head:0.000000,0.000000,0.000000,0.000000 HipLeft:0.127753,-0.679471,0.701184,-0.174182 HipRight:-0.107316,0.680049,0.706948,-0.161987 KneeLeft:-0.002435,0.720240,-0.065124,-0.690658 KneeRight:-0.025930,0.693622,0.041216,0.718691 Neck:0.029734,-0.011087,0.996145,-0.081777 ShoulderLeft:0.005485,0.775875,-0.625905,0.078938 ShoulderRight:0.044704,0.788871,0.612186,-0.030224 SpineBase:0.018392,-0.007834,0.998928,-0.041759 SpineMid:0.023979,-0.008067,0.998809,-0.041714 SpineShoulder:0.029677,-0.010012,0.997606,-0.061648 ThumbLeft:0.000000,0.000000,0.000000,0.000000 ThumbRight:0.000000,0.000000,0.000000,0.000000 WristLeft:0.078635,-0.577788,-0.101569,0.806016 WristRight:-0.456148,0.801160,-0.117549,0.369126 END:
KINECT_DATA POSITION:9.482977,-1.837901,-4.606485 HEAD_JOINT1:0.977010,0.170422,-0.000000,0.128090 LARM_JOINT2:0.828329,0.000000,-0.008652,-0.560175 LARM_JOINT3:0.968119,0.000000,-0.179163,-0.175062 LLEG_JOINT2:0.997809,0.044619,0.000000,0.048854 LLEG_JOINT4:0.996629,0.078175,0.000000,-0.024889 RARM_JOINT2:0.802347,0.000000,-0.005503,0.596832 RARM_JOINT3:0.840276,0.000000,0.542101,-0.007888 RLEG_JOINT2:0.998915,0.010098,0.000000,-0.045460 RLEG_JOINT4:0.993215,0.110969,0.000000,0.034777 WAIST:0.999825,0.000000,-0.018623,-0.001493 WAIST_JOINT0:0.999423,0.000000,-0.031333,0.013124 WAIST_JOINT1:0.997759,0.066304,0.000000,-0.009029 END:
KINECT_DATA_Sensor  AnkleLeft:0.070489,0.722178,-0.102598,-0.680415 AnkleRight:0.080368,0.697043,0.091024,0.706673 ElbowLeft:-0.026606,0.902927,-0.186024,-0.386537 ElbowRight:-0.056886,0.692569,0.160664,0.700927 FootLeft:0.000000,0.000000,0.000000,0.000000 FootRight:0.000000,0.000000,0.000000,0.000000 HandLeft:-0.006312,-0.604814,-0.094536,0.790711 HandRight:-0.553675,0.735223,-0.127719,0.369566 HandTipLeft:0.000000,0.000000,0.000000,0.000000 HandTipRight:0.000000,0.000000,0.000000,0.000000 Head:0.000000,0.000000,0.000000,0.000000 HipLeft:0.127597,-0.679487,0.701196,-0.174187 HipRight:-0.107243,0.680035,0.706978,-0.161968 KneeLeft:-0.003027,0.720217,-0.064982,-0.690692 KneeRight:-0.025286,0.693656,0.040821,0.718704 Neck:0.029917,-0.011002,0.996141,-0.081771 ShoulderLeft:0.004763,0.775658,-0.626140,0.079247 ShoulderRight:0.044221,0.788658,0.612493,-0.030259 SpineBase:0.018375,-0.007751,0.998925,-0.041838 SpineMid:0.024067,-0.007990,0.998804,-0.041793 SpineShoulder:0.029883,-0.009713,0.997620,-0.061380 ThumbLeft:0.000000,0.000000,0.000000,0.000000 ThumbRight:0.000000,0.000000,0.000000,0.000000 WristLeft:0.080786,-0.591552,-0.100452,0.795896 WristRight:-0.457274,0.790855,-0.119126,0.388918 END:
KINECT_DATA POSITION:9.467604,-1.820641,-4.642618 HEAD_JOINT1:0.976736,0.171667,-0.000000,0.128517 LARM_JOINT2:0.828291,0.000000,-0.008855,-0.560228 LARM_JOINT3:0.968588,0.000000,-0.176963,-0.174705 LLEG_JOINT2:0.997811,0.044424,0.000000,0.048991 LLEG_JOINT4:0.996448,0.080366,0.000000,-0.025155 RARM_JOINT2:0.803117,0.000000,-0.007346,0.595777 RARM_JOINT3:0.831086,0.000000,0.556131,-0.003852 RLEG_JOINT2:0.998925,0.009703,0.000000,-0.045330 RLEG_JOINT4:0.993042,0.111981,0.000000,0.036432 WAIST:0.999829,0.000000,-0.018433,-0.001599 WAIST_JOINT0:0.999415,0.000000,-0.031640,0.013000 WAIST_JOINT1:0.997767,0.066246,0.000000,-0.008527 END:
KINECT_DATA_Sensor  AnkleLeft:0.072125,0.722090,-0.103788,-0.680156 AnkleRight:0.085551,0.725267,0.086817,0.677593 ElbowLeft:-0.026721,0.903219,-0.186248,-0.385737 ElbowRight:-0.057263,0.689253,0.162010,0.703850 FootLeft:0.000000,0.000000,0.000000,0.000000 FootRight:0.000000,0.000000,0.000000,0.000000 HandLeft:-0.010658,-0.583146,-0.086741,0.807653 HandRight:-0.582267,0.730229,-0.156594,0.321260 HandTipLeft:0.000000,0.000000,0.000000,0.000000 HandTipRight:0.000000,0.000000,0.000000,0.000000 Head:0.000000,0.000000,0.000000,0.000000 HipLeft:0.127200,-0.679572,0.701189,-0.174173 HipRight:-0.107240,0.679955,0.707037,-0.162047 KneeLeft:-0.003174,0.720087,-0.064862,-0.690838 KneeRight:-0.025565,0.693772,0.040524,0.718599 Neck:0.030222,-0.010717,0.996126,-0.081883 ShoulderLeft:0.004453,0.775275,-0.626592,0.079450 ShoulderRight:0.044306,0.788335,0.612914,-0.030019 SpineBase:0.018202,-0.007536,0.998923,-0.042008 SpineMid:0.024136,-0.007785,0.998797,-0.041963 SpineShoulder:0.030201,-0.009344,0.997621,-0.061254 ThumbLeft:0.000000,0.000000,0.000000,0.000000 ThumbRight:0.000000,0.000000,0.000000,0.000000 WristLeft:0.078116,-0.570533,-0.102088,0.811152 WristRight:-0.465106,0.795848,-0.108717,0.372132 END:
KINECT_DATA POSITION:9.436489,-1.810842,-4.658437 HEAD_JOINT1:0.976477,0.172886,-0.000000,0.128853 LARM_JOINT2:0.827851,0.000000,-0.008397,-0.560885 LARM_JOINT3:0.968057,0.000000,-0.178300,-0.176281 LLEG_JOINT2:0.997806,0.044442,0.000000,0.049074 LLEG_JOINT4:0.996584,0.079354,0.000000,-0.022890 RARM_JOINT2:0.801768,0.000000,-0.015278,0.597440 RARM_JOINT3:0.814057,0.000000,0.580760,0.005391 RLEG_JOINT2:0.998915,0.010548,0.000000,-0.045358 RLEG_JOINT4:0.992927,0.113289,0.000000,0.035519 WAIST:0.999822,0.000000,-0.018814,-0.001618 WAIST_JOINT0:0.999409,0.000000,-0.032038,0.012424 WAIST_JOINT1:0.997787,0.065950,0.000000,-0.008494 END:
KINECT_DATA_Sensor  AnkleLeft:0.069768,0.722703,-0.104738,-0.679605 AnkleRight:0.088797,0.741552,0.086698,0.659317 ElbowLeft:-0.026236,0.903712,-0.185626,-0.384914 ElbowRight:-0.051968,0.685631,0.164457,0.707222 FootLeft:0.000000,0.000000,0.000000,0.000000 FootRight:0.000000,0.000000,0.000000,0.000000 HandLeft:-0.018561,-0.534736,-0.097643,0.839153 HandRight:-0.581054,0.731829,-0.181887,0.306137 HandTipLeft:0.000000,0.000000,0.000000,0.000000 HandTipRight:0.000000,0.000000,0.000000,0.000000 Head:0.000000,0.000000,0.000000,0.000000 HipLeft:0.127454,-0.679585,0.701114,-0.174238 HipRight:-0.107057,0.680046,0.707064,-0.161669 KneeLeft:-0.003233,0.720353,-0.064918,-0.690556 KneeRight:-0.024972,0.693507,0.041152,0.718840 Neck:0.030677,-0.010776,0.996128,-0.081682 ShoulderLeft:0.003857,0.774977,-0.626936,0.079673 ShoulderRight:0.044301,0.787515,0.613987,-0.029626 SpineBase:0.018585,-0.007520,0.998923,-0.041850 SpineMid:0.024560,-0.007770,0.998794,-0.041804 SpineShoulder:0.030667,-0.009283,0.997628,-0.060930 ThumbLeft:0.000000,0.000000,0.000000,0.000000 ThumbRight:0.000000,0.000000,0.000000,0.000000 WristLeft:0.071137,-0.521657,-0.105872,0.843567 WristRight:-0.480836,0.788334,-0.116580,0.365699 END:
KINECT_DATA POSITION:9.431089,-1.805045,-4.671204 HEAD_JOINT1:0.976217,0.174408,-0.000000,0.128772 LARM_JOINT2:0.827634,0.000000,-0.007775,-0.561214 LARM_JOINT3:0.968877,0.000000,-0.174980,-0.175098 LLEG_JOINT2:0.997814,0.044582,0.000000,0.048781 LLEG_JOINT4:0.996631,0.078324,0.000000,-0.024344 RARM_JOINT2:0.801542,0.000000,-0.018827,0.597643 RARM_JOINT3:0.807979,0.000000,0.589186,0.005492 RLEG_JOINT2:0.998899,0.010270,0.000000,-0.045784 RLEG_JOINT4:0.993083,0.111392,0.000000,0.037124 WAIST:0.999819,0.000000,-0.018956,-0.001588 WAIST_JOINT0:0.999411,0.000000,-0.032067,0.012213 WAIST_JOINT1:0.997817,0.065516,0.000000,-0.008356 END:
KINECT_DATA_Sensor  AnkleLeft:0.069920,0.720126,-0.103199,-0.682553 AnkleRight:0.087247,0.736712,0.085043,0.665140 ElbowLeft:-0.025874,0.904175,-0.185509,-0.383907 ElbowRight:-0.050238,0.683628,0.165663,0.709003 FootLeft:0.000000,0.000000,0.000000,0.000000 FootRight:0.000000,0.000000,0.000000,0.000000 HandLeft:-0.017612,-0.533525,-0.084823,0.841336 HandRight:-0.580750,0.735044,-0.174129,0.303510 HandTipLeft:0.000000,0.000000,0.000000,0.000000 HandTipRight:0.000000,0.000000,0.000000,0.000000 Head:0.000000,0.000000,0.000000,0.000000 HipLeft:0.127641,-0.679591,0.701084,-0.174198 HipRight:-0.107151,0.680149,0.707016,-0.161383 KneeLeft:-0.002955,0.720453,-0.064835,-0.690460 KneeRight:-0.025442,0.693383,0.041250,0.718937 Neck:0.030756,-0.010653,0.996159,-0.081291 ShoulderLeft:0.003128,0.774824,-0.627120,0.079736 ShoulderRight:0.043663,0.787210,0.614425,-0.029614 SpineBase:0.018732,-0.007357,0.998931,-0.041608 SpineMid:0.024679,-0.007605,0.998802,-0.041563 SpineShoulder:0.030755,-0.009087,0.997654,-0.060484 ThumbLeft:0.000000,0.000000,0.000000,0.000000 ThumbRight:0.000000,0.000000,0.000000,0.000000 WristLeft:0.070537,-0.521887,-0.105396,0.843534 WristRight:-0.490778,0.786602,-0.116741,0.356042 END:
KINECT_DATA POSITION:9.414086,-1.800299,-4.709208 HEAD_JOINT1:0.976102,0.175031,-0.000000,0.128796 LARM_JOINT2:0.827348,0.000000,-0.006880,-0.561648 LARM_JOINT3:0.968559,0.000000,-0.176150,-0.175681 LLEG_JOINT2:0.997799,0.044669,0.000000,0.049019 LLEG_JOINT4:0.996676,0.078207,0.000000,-0.022836 RARM_JOINT2:0.801252,0.000000,-0.020198,0.597986 RARM_JOINT3:0.802499,0.000000,0.596653,0.000852 RLEG_JOINT2:0.998899,0.009772,0.000000,-0.045888 RLEG_JOINT4:0.993289,0.109280,0.000000,0.037889 WAIST:0.999816,0.000000,-0.019089,-0.001822 WAIST_JOINT0:0.999424,0.000000,-0.031776,0.011885 WAIST_JOINT1:0.997815,0.065561,0.000000,-0.008162 END:
KINECT_DATA_Sensor  AnkleLeft:0.069171,0.722628,-0.104007,-0.679857 AnkleRight:0.085186,0.734270,0.083384,0.668310 ElbowLeft:-0.024992,0.904170,-0.185360,-0.384048 ElbowRight:-0.049559,0.681477,0.166021,0.711035 FootLeft:0.000000,0.000000,0.000000,0.000000 FootRight:0.000000,0.000000,0.000000,0.000000 HandLeft:-0.007634,0.742742,0.092256,-0.663148 HandRight:0.170820,-0.306544,-0.589188,0.727811 HandTipLeft:0.000000,0.000000,0.000000,0.000000 HandTipRight:0.000000,0.000000,0.000000,0.000000 Head:0.000000,0.000000,0.000000,0.000000 HipLeft:0.127626,-0.679736,0.700928,-0.174271 HipRight:-0.107065,0.680036,0.707176,-0.161213 KneeLeft:-0.002909,0.720558,-0.064898,-0.690345 KneeRight:-0.026034,0.693255,0.041147,0.719045 Neck:0.030477,-0.010687,0.996156,-0.081430 ShoulderLeft:0.003423,0.774736,-0.627262,0.079469 ShoulderRight:0.043605,0.786835,0.614898,-0.029826 SpineBase:0.018886,-0.007299,0.998929,-0.041602 SpineMid:0.024622,-0.007537,0.998804,-0.041559 SpineShoulder:0.030478,-0.009079,0.997662,-0.060499 ThumbLeft:0.000000,0.000000,0.000000,0.000000 ThumbRight:0.000000,0.000000,0.000000,0.000000 WristLeft:-0.096180,0.735215,0.081348,-0.666026 WristRight:0.119959,-0.356058,-0.497257,0.782028 END:
KINECT_DATA POSITION:9.403065,-1.798370,-4.725468 HEAD_JOINT1:0.975954,0.175446,-0.000000,0.129352 LARM_JOINT2:0.827300,0.000000,-0.006444,-0.561724 LARM_JOINT3:0.968159,0.000000,-0.178037,-0.175988 LLEG_JOINT2:0.997784,0.044829,0.000000,0.049172 LLEG_JOINT4:0.996654,0.078563,0.000000,-0.022568 RARM_JOINT2:0.806922,0.000000,-0.001905,0.590655 RARM_JOINT3:0.806326,0.000000,0.591471,-0.000217 RLEG_JOINT2:0.998921,0.010223,0.000000,-0.045314 RLEG_JOINT4:0.993414,0.108364,0.000000,0.037237 WAIST:0.999815,0.000000,-0.019136,-0.001900 WAIST_JOINT0:0.999427,0.000000,-0.031779,0.011658 WAIST_JOINT1:0.997805,0.065699,0.000000,-0.008255 END:
KINECT_DATA_Sensor  AnkleLeft:0.069288,0.722626,-0.104611,-0.679755 AnkleRight:0.084711,0.734206,0.083225,0.668460 ElbowLeft:-0.024318,0.904464,-0.185365,-0.383396 ElbowRight:-0.064736,0.690377,0.163310,0.701797 FootLeft:0.000000,0.000000,0.000000,0.000000 FootRight:0.000000,0.000000,0.000000,0.000000 HandLeft:-0.007895,-0.581799,-0.099394,0.807198 HandRight:0.170007,-0.302829,-0.580442,0.736532 HandTipLeft:0.000000,0.000000,0.000000,0.000000 HandTipRight:0.000000,0.000000,0.000000,0.000000 Head:0.000000,0.000000,0.000000,0.000000 HipLeft:0.127524,-0.679780,0.700884,-0.174352 HipRight:-0.106870,0.679979,0.707246,-0.161277 KneeLeft:-0.002855,0.720596,-0.065063,-0.690290 KneeRight:-0.025364,0.693243,0.041102,0.719084 Neck:0.030490,-0.010888,0.996137,-0.081630 ShoulderLeft:0.003642,0.774767,-0.627225,0.079449 ShoulderRight:0.043853,0.786579,0.615209,-0.029805 SpineBase:0.018934,-0.007405,0.998921,-0.041768 SpineMid:0.024654,-0.007644,0.998796,-0.041725 SpineShoulder:0.030493,-0.009232,0.997652,-0.060618 ThumbLeft:0.000000,0.000000,0.000000,0.000000 ThumbRight:0.000000,0.000000,0.000000,0.000000 WristLeft:0.074982,-0.569315,-0.100288,0.812527 WristRight:0.126405,-0.343363,-0.504149,0.782277 END:
KINECT_DATA POSITION:9.388158,-1.792045,-4.736757 HEAD_JOINT1:0.975580,0.177210,-0.000000,0.129773 LARM_JOINT2:0.827316,0.000000,-0.005980,-0.561706 LARM_JOINT3:0.967981,0.000000,-0.179266,-0.175715 LLEG_JOINT2:0.997763,0.044830,0.000000,0.049585 LLEG_JOINT4:0.996660,0.077621,0.000000,-0.025385 RARM_JOINT2:0.811257,0.000000,0.018831,0.584386 RARM_JOINT3:0.812735,0.000000,0.582611,-0.005196 RLEG_JOINT2:0.998921,0.011340,0.000000,-0.045044 RLEG_JOINT4:0.993577,0.107515,0.000000,0.035278 WAIST:0.999811,0.000000,-0.019348,-0.002032 WAIST_JOINT0:0.999431,0.000000,-0.031767,0.011377 WAIST_JOINT1:0.997798,0.065806,0.000000,-0.008312 END:
KINECT_DATA_Sensor  AnkleLeft:0.070333,0.722415,-0.102218,-0.680236 AnkleRight:0.084314,0.738415,0.084226,0.663732 ElbowLeft:-0.023849,0.904554,-0.185431,-0.383183 ElbowRight:-0.080067,0.699577,0.158002,0.692255 FootLeft:0.000000,0.000000,0.000000,0.000000 FootRight:0.000000,0.000000,0.000000,0.000000 HandLeft:0.008128,-0.678242,-0.103237,0.727505 HandRight:0.167754,-0.306937,-0.574236,0.740204 HandTipLeft:0.000000,0.000000,0.000000,0.000000 HandTipRight:0.000000,0.000000,0.000000,0.000000 Head:0.000000,0.000000,0.000000,0.000000 HipLeft:0.127670,-0.679852,0.700747,-0.174516 HipRight:-0.106712,0.679919,0.707332,-0.161259 KneeLeft:-0.003071,0.720751,-0.065257,-0.690109 KneeRight:-0.024454,0.693109,0.041781,0.719205 Neck:0.030506,-0.011079,0.996122,-0.081779 ShoulderLeft:0.003618,0.774730,-0.627252,0.079595 ShoulderRight:0.043862,0.786217,0.615664,-0.029958 SpineBase:0.019151,-0.007567,0.998913,-0.041825 SpineMid:0.024770,-0.007802,0.998789,-0.041782 SpineShoulder:0.030509,-0.009381,0.997645,-0.060714 ThumbLeft:0.000000,0.000000,0.000000,0.000000 ThumbRight:0.000000,0.000000,0.000000,0.000000 WristLeft:0.086367,-0.665438,-0.089898,0.735969 WristRight:0.135592,-0.337194,-0.507378,0.781334 END:
KINECT_DATA POSITION:9.384757,-1.793870,-4.734623 HEAD_JOINT1:0.975453,0.177988,-0.000000,0.129657 LARM_JOINT2:0.827217,0.000000,-0.006073,-0.561850 LARM_JOINT3:0.967968,0.000000,-0.180658,-0.174356 LLEG_JOINT2:0.997799,0.044268,0.000000,0.049368 LLEG_JOINT4:0.996719,0.077618,0.000000,-0.022951 RARM_JOINT2:0.811919,0.000000,0.021203,0.583385 RARM_JOINT3:0.813592,0.000000,0.581398,-0.006714 RLEG_JOINT2:0.998945,0.010025,0.000000,-0.044819 RLEG_JOINT4:0.993366,0.109587,0.000000,0.034864 WAIST:0.999806,0.000000,-0.019583,-0.002012 WAIST_JOINT0:0.999442,0.000000,-0.031486,0.011195 WAIST_JOINT1:0.997783,0.066046,0.000000,-0.008236 END:
KINECT_DATA_Sensor  AnkleLeft:0.068320,0.722608,-0.103420,-0.680055 AnkleRight:0.085026,0.739769,0.084609,0.662083 ElbowLeft:-0.023804,0.904472,-0.185411,-0.383389 ElbowRight:-0.081630,0.701065,0.157771,0.690617 FootLeft:0.000000,0.000000,0.000000,0.000000 FootRight:0.000000,0.000000,0.000000,0.000000 HandLeft:0.004119,-0.599809,-0.105673,0.793124 HandRight:0.156918,-0.303179,-0.575666,0.743013 HandTipLeft:0.000000,0.000000,0.000000,0.000000 HandTipRight:0.000000,0.000000,0.000000,0.000000 Head:0.000000,0.000000,0.000000,0.000000 HipLeft:0.127689,-0.679778,0.700751,-0.174773 HipRight:-0.106499,0.679942,0.707348,-0.161232 KneeLeft:-0.003338,0.720903,-0.064716,-0.690000 KneeRight:-0.025225,0.692928,0.040697,0.719415 Neck:0.030240,-0.010897,0.996105,-0.082113 ShoulderLeft:0.004016,0.774578,-0.627449,0.079502 ShoulderRight:0.043916,0.785903,0.616042,-0.030322 SpineBase:0.019385,-0.007494,0.998902,-0.041991 SpineMid:0.024755,-0.007719,0.998783,-0.041950 SpineShoulder:0.030241,-0.009247,0.997641,-0.060933 ThumbLeft:0.000000,0.000000,0.000000,0.000000 ThumbRight:0.000000,0.000000,0.000000,0.000000 WristLeft:0.076994,-0.588517,-0.097958,0.798826 WristRight:0.132353,-0.327916,-0.509430,0.784496 END:
KINECT_DATA POSITION:9.373086,-1.787334,-4.748547 HEAD_JOINT1:0.975618,0.177529,-0.000000,0.129050 LARM_JOINT2:0.827182,0.000000,-0.006525,-0.561896 LARM_JOINT3:0.968272,0.000000,-0.180899,-0.172412 LLEG_JOINT2:0.997795,0.044181,0.000000,0.049528 LLEG_JOINT4:0.996851,0.076378,0.000000,-0.021310 RARM_JOINT2:0.813844,0.000000,0.022460,0.580649 RARM_JOINT3:0.816247,0.000000,0.577702,-0.000725 RLEG_JOINT2:0.998939,0.009980,0.000000,-0.044968 RLEG_JOINT4:0.993306,0.109803,0.000000,0.035879 WAIST:0.999809,0.000000,-0.019433,-0.002041 WAIST_JOINT0:0.999443,0.000000,-0.031454,0.011138 WAIST_JOINT1:0.997769,0.066294,0.000000,-0.007905 END:
KINECT_DATA_Sensor  AnkleLeft:0.066189,0.722954,-0.103695,-0.679856 AnkleRight:0.080250,0.696993,0.089273,0.706959 ElbowLeft:-0.024038,0.904321,-0.185560,-0.383657 ElbowRight:-0.083505,0.704477,0.159744,0.686455 FootLeft:0.000000,0.000000,0.000000,0.000000 FootRight:0.000000,0.000000,0.000000,0.000000 HandLeft:0.006856,-0.570531,-0.101114,0.814999 HandRight:0.177572,-0.333222,-0.557143,0.739610 HandTipLeft:0.000000,0.000000,0.000000,0.000000 HandTipRight:0.000000,0.000000,0.000000,0.000000 Head:0.000000,0.000000,0.000000,0.000000 HipLeft:0.127384,-0.679779,0.700781,-0.174869 HipRight:-0.106485,0.679898,0.707360,-0.161372 KneeLeft:-0.003483,0.720796,-0.064744,-0.690108 KneeRight:-0.025388,0.693022,0.040790,0.719314 Neck:0.030186,-0.010558,0.996086,-0.082401 ShoulderLeft:0.004239,0.774413,-0.627638,0.079606 ShoulderRight:0.044064,0.785867,0.616069,-0.030521 SpineBase:0.019244,-0.007284,0.998897,-0.042203 SpineMid:0.024658,-0.007512,0.998778,-0.042163 SpineShoulder:0.030187,-0.008976,0.997631,-0.061160 ThumbLeft:0.000000,0.000000,0.000000,0.000000 ThumbRight:0.000000,0.000000,0.000000,0.000000 WristLeft:0.073856,-0.560744,-0.100988,0.818482 WristRight:0.153009,-0.355830,-0.501560,0.773570 END:
KINECT_DATA POSITION:9.356054,-1.780066,-4.778028 HEAD_JOINT1:0.975827,0.176445,-0.000000,0.128951 LARM_JOINT2:0.827307,0.000000,-0.007307,-0.561703 LARM_JOINT3:0.968522,0.000000,-0.180453,-0.171467 LLEG_JOINT2:0.997833,0.043481,0.000000,0.049392 LLEG_JOINT4:0.996531,0.080561,0.000000,-0.020883 RARM_JOINT2:0.818747,0.000000,0.042706,0.572565 RARM_JOINT3:0.828426,0.000000,0.560087,-0.003671 RLEG_JOINT2:0.998937,0.009999,0.000000,-0.045008 RLEG_JOINT4:0.993365,0.109060,0.000000,0.036502 WAIST:0.999815,0.000000,-0.019161,-0.001852 WAIST_JOINT0:0.999488,0.000000,-0.029959,0.011208 WAIST_JOINT1:0.997754,0.066516,0.000000,-0.007920 END:
KINECT_DATA_Sensor  AnkleLeft:0.068255,0.721822,-0.106515,-0.680419 AnkleRight:0.085050,0.735865,0.083601,0.666543 ElbowLeft:-0.024992,0.903278,-0.185665,-0.385996 ElbowRight:-0.099473,0.713632,0.155684,0.675720 FootLeft:0.000000,0.000000,0.000000,0.000000 FootRight:0.000000,0.000000,0.000000,0.000000 HandLeft:0.004483,-0.553564,-0.095866,0.827258 HandRight:0.160210,-0.316287,-0.553721,0.753451 HandTipLeft:0.000000,0.000000,0.000000,0.000000 HandTipRight:0.000000,0.000000,0.000000,0.000000 Head:0.000000,0.000000,0.000000,0.000000 HipLeft:0.127047,-0.679645,0.700973,-0.174868 HipRight:-0.106494,0.679945,0.707241,-0.161691 KneeLeft:-0.003990,0.720587,-0.064281,-0.690367 KneeRight:-0.025279,0.693230,0.040693,0.719122 Neck:0.028743,-0.010261,0.996114,-0.082620 ShoulderLeft:0.004256,0.774448,-0.627607,0.079505 ShoulderRight:0.042207,0.786028,0.615883,-0.032663 SpineBase:0.018961,-0.007187,0.998892,-0.042458 SpineMid:0.023794,-0.007392,0.998789,-0.042423 SpineShoulder:0.028740,-0.008760,0.997661,-0.061396 ThumbLeft:0.000000,0.000000,0.000000,0.000000 ThumbRight:0.000000,0.000000,0.000000,0.000000 WristLeft:0.073376,-0.543893,-0.103197,0.829546 WristRight:0.142510,-0.333284,-0.500608,0.786133 END:
KINECT_DATA POSITION:9.348063,-1.776397,-4.782188 HEAD_JOINT1:0.976372,0.175418,-0.000000,0.126203 LARM_JOINT2:0.826697,0.000000,-0.007399,-0.562599 LARM_JOINT3:0.969108,0.000000,-0.174978,-0.173819 LLEG_JOINT2:0.997839,0.043180,0.000000,0.049534 LLEG_JOINT4:0.996531,0.080227,0.000000,-0.022111 RARM_JOINT2:0.811907,0.000000,0.009689,0.583706 RARM_JOINT3:0.826528,0.000000,0.562811,0.009817 RLEG_JOINT2:0.998953,0.010369,0.000000,-0.044554 RLEG_JOINT4:0.993290,0.109923,0.000000,0.035953 WAIST:0.999830,0.000000,-0.018339,-0.001871 WAIST_JOINT0:0.999526,0.000000,-0.028617,0.011315 WAIST_JOINT1:0.997706,0.067315,0.000000,-0.007135 END:
KINECT_DATA_Sensor  AnkleLeft:0.068634,0.721019,-0.105263,-0.681425 AnkleRight:0.084339,0.724330,0.086059,0.678842 ElbowLeft:-0.024185,0.902712,-0.185697,-0.387355 ElbowRight:-0.073223,0.701298,0.164001,0.689871 FootLeft:0.000000,0.000000,0.000000,0.000000 FootRight:0.000000,0.000000,0.000000,0.000000 HandLeft:-0.008797,-0.618227,-0.083436,0.781509 HandRight:0.150220,-0.328030,-0.519542,0.774536 HandTipLeft:0.000000,0.000000,0.000000,0.000000 HandTipRight:0.000000,0.000000,0.000000,0.000000 Head:0.000000,0.000000,0.000000,0.000000 HipLeft:0.126052,-0.679713,0.701142,-0.174644 HipRight:-0.106754,0.679823,0.707210,-0.162170 KneeLeft:-0.004236,0.720012,-0.064154,-0.690977 KneeRight:-0.024744,0.693817,0.040615,0.718579 Neck:0.027350,-0.009436,0.996081,-0.083583 ShoulderLeft:0.005872,0.773800,-0.628477,0.078843 ShoulderRight:0.042037,0.785772,0.616138,-0.034193 SpineBase:0.018160,-0.006733,0.998895,-0.042833 SpineMid:0.022698,-0.006927,0.998802,-0.042802 SpineShoulder:0.027352,-0.008025,0.997661,-0.062131 ThumbLeft:0.000000,0.000000,0.000000,0.000000 ThumbRight:0.000000,0.000000,0.000000,0.000000 WristLeft:0.080997,-0.605290,-0.095888,0.786046 WristRight:0.130788,-0.342565,-0.493912,0.788412 END:
KINECT_DATA POSITION:9.323078,-1.785462,-4.746366 HEAD_JOINT1:0.975940,0.177701,-0.000000,0.126346 LARM_JOINT2:0.826253,0.000000,-0.008828,-0.563229 LARM_JOINT3:0.967120,0.000000,-0.185121,-0.174380 LLEG_JOINT2:0.997817,0.043502,0.000000,0.049689 LLEG_JOINT4:0.996733,0.077568,0.000000,-0.022515 RARM_JOINT2:0.806908,0.000000,-0.011491,0.590565 RARM_JOINT3:0.822270,0.000000,0.568993,0.010940 RLEG_JOINT2:0.998973,0.009950,0.000000,-0.044202 RLEG_JOINT4:0.993308,0.109809,0.000000,0.035802 WAIST:0.999833,0.000000,-0.018130,-0.002183 WAIST_JOINT0:0.999501,0.000000,-0.029474,0.011390 WAIST_JOINT1:0.997689,0.067588,0.000000,-0.006942 END:
KINECT_DATA_Sensor  AnkleLeft:0.067473,0.721635,-0.103164,-0.681210 AnkleRight:0.083625,0.722815,0.086025,0.680547 ElbowLeft:-0.024353,0.903323,-0.184525,-0.386479 ElbowRight:-0.056455,0.693934,0.169444,0.697537 FootLeft:0.000000,0.000000,0.000000,0.000000 FootRight:0.000000,0.000000,0.000000,0.000000 HandLeft:-0.001905,-0.547759,-0.126080,0.827079 HandRight:0.124253,-0.311930,-0.536602,0.774157 HandTipLeft:0.000000,0.000000,0.000000,0.000000 HandTipRight:0.000000,0.000000,0.000000,0.000000 Head:0.000000,0.000000,0.000000,0.000000 HipLeft:0.125803,-0.679881,0.700987,-0.174793 HipRight:-0.106839,0.679537,0.707403,-0.162469 KneeLeft:-0.003888,0.719889,-0.064274,-0.691096 KneeRight:-0.025032,0.693943,0.040287,0.718466 Neck:0.028137,-0.009697,0.996036,-0.083819 ShoulderLeft:0.005969,0.773536,-0.628742,0.079305 ShoulderRight:0.043189,0.785698,0.616197,-0.033388 SpineBase:0.017978,-0.006717,0.998887,-0.043075 SpineMid:0.023005,-0.006934,0.998784,-0.043041 SpineShoulder:0.028145,-0.008202,0.997621,-0.062397 ThumbLeft:0.000000,0.000000,0.000000,0.000000 ThumbRight:0.000000,0.000000,0.000000,0.000000 WristLeft:0.071945,-0.535415,-0.102042,0.835310 WristRight:0.108091,-0.327607,-0.488748,0.801321 END:
KINECT_DATA POSITION:9.304543,-1.785242,-4.706264 HEAD_JOINT1:0.975822,0.178415,-0.000000,0.126255 LARM_JOINT2:0.826096,0.000000,-0.009760,-0.563444 LARM_JOINT3:0.968183,0.000000,-0.181422,-0.172360 LLEG_JOINT2:0.997796,0.043609,0.000000,0.050022 LLEG_JOINT4:0.996610,0.079253,0.000000,-0.022096 RARM_JOINT2:0.805074,0.000000,0.005264,0.593151 RARM_JOINT3:0.838697,0.000000,0.544315,-0.017567 RLEG_JOINT2:0.998999,0.009661,0.000000,-0.043683 RLEG_JOINT4:0.993096,0.111720,0.000000,0.035754 WAIST:0.999832,0.000000,-0.018198,-0.002372 WAIST_JOINT0:0.999499,0.000000,-0.029569,0.011276 WAIST_JOINT1:0.997695,0.067508,0.000000,-0.006943 END:
KINECT_DATA_Sensor  AnkleLeft:0.068338,0.721562,-0.104813,-0.680949 AnkleRight:0.086547,0.734356,0.085361,0.667791 ElbowLeft:-0.024765,0.903824,-0.183759,-0.385644 ElbowRight:-0.064750,0.693098,0.157769,0.700380 FootLeft:0.000000,0.000000,0.000000,0.000000 FootRight:0.000000,0.000000,0.000000,0.000000 HandLeft:0.000953,-0.570234,-0.111493,0.813881 HandRight:0.018804,-0.242222,-0.558306,0.793265 HandTipLeft:0.000000,0.000000,0.000000,0.000000 HandTipRight:0.000000,0.000000,0.000000,0.000000 Head:0.000000,0.000000,0.000000,0.000000 HipLeft:0.125961,-0.680023,0.700834,-0.174739 HipRight:-0.106910,0.679433,0.707515,-0.162369 KneeLeft:-0.003923,0.719949,-0.064449,-0.691017 KneeRight:-0.025012,0.693891,0.039846,0.718541 Neck:0.028242,-0.009900,0.996035,-0.083779 ShoulderLeft:0.005836,0.773590,-0.628676,0.079316 ShoulderRight:0.043195,0.785599,0.616331,-0.033242 SpineBase:0.018057,-0.006840,0.998892,-0.042925 SpineMid:0.023097,-0.007057,0.998788,-0.042890 SpineShoulder:0.028248,-0.008382,0.997622,-0.062302 ThumbLeft:0.000000,0.000000,0.000000,0.000000 ThumbRight:0.000000,0.000000,0.000000,0.000000 WristLeft:0.074484,-0.558647,-0.100348,0.819937 WristRight:0.040524,-0.236568,-0.486270,0.840199 END:
KINECT_DATA POSITION:9.293412,-1.785437,-4.669452 HEAD_JOINT1:0.975918,0.179140,-0.000000,0.124472 LARM_JOINT2:0.825762,0.000000,-0.007516,-0.563969 LARM_JOINT3:0.970140,0.000000,-0.171902,-0.171106 LLEG_JOINT2:0.997802,0.043338,0.000000,0.050119 LLEG_JOINT4:0.996616,0.079045,0.000000,-0.022542 RARM_JOINT2:0.803278,0.000000,0.019395,0.595289 RARM_JOINT3:0.848933,0.000000,0.527770,-0.027774 RLEG_JOINT2:0.999008,0.010672,0.000000,-0.043242 RLEG_JOINT4:0.993104,0.111542,0.000000,0.036096 WAIST:0.999861,0.000000,-0.016546,-0.002053 WAIST_JOINT0:0.999570,0.000000,-0.026792,0.011878 WAIST_JOINT1:0.997709,0.067272,0.000000,-0.007148 END:
KINECT_DATA_Sensor  AnkleLeft:0.068147,0.720078,-0.104382,-0.682604 AnkleRight:0.084845,0.712659,0.088099,0.690765 ElbowLeft:-0.023247,0.902084,-0.184042,-0.389657 ElbowRight:-0.072411,0.689566,0.146823,0.705477 FootLeft:0.000000,0.000000,0.000000,0.000000 FootRight:0.000000,0.000000,0.000000,0.000000 HandLeft:-0.010477,-0.620434,-0.074655,0.780627 HandRight:0.032732,-0.224156,-0.554204,0.800962 HandTipLeft:0.000000,0.000000,0.000000,0.000000 HandTipRight:0.000000,0.000000,0.000000,0.000000 Head:0.000000,0.000000,0.000000,0.000000 HipLeft:0.125292,-0.680124,0.701141,-0.173593 HipRight:-0.108107,0.679492,0.707085,-0.163201 KneeLeft:-0.004297,0.718785,-0.064557,-0.692216 KneeRight:-0.023814,0.695128,0.039970,0.717379 Neck:0.025468,-0.009799,0.996127,-0.083583 ShoulderLeft:0.006980,0.773475,-0.629043,0.077412 ShoulderRight:0.040771,0.786012,0.615836,-0.035608 SpineBase:0.016381,-0.006899,0.998935,-0.042590 SpineMid:0.020867,-0.007090,0.998851,-0.042558 SpineShoulder:0.025467,-0.008317,0.997713,-0.062058 ThumbLeft:0.000000,0.000000,0.000000,0.000000 ThumbRight:0.000000,0.000000,0.000000,0.000000 WristLeft:0.080901,-0.607988,-0.094108,0.784187 WristRight:0.029409,-0.235842,-0.481567,0.843568 END:
KINECT_DATA POSITION:9.296148,-1.784161,-4.675233 HEAD_JOINT1:0.976066,0.179904,-0.000000,0.122187 LARM_JOINT2:0.825323,0.000000,-0.006470,-0.564624 LARM_JOINT3:0.968810,0.000000,-0.178678,-0.171698 LLEG_JOINT2:0.997820,0.042968,0.000000,0.050081 LLEG_JOINT4:0.996466,0.081023,0.000000,-0.022146 RARM_JOINT2:0.802793,0.000000,0.023070,0.595811 RARM_JOINT3:0.849323,0.000000,0.526997,-0.030394 RLEG_JOINT2:0.998999,0.010157,0.000000,-0.043554 RLEG_JOINT4:0.993290,0.110090,0.000000,0.035441 WAIST:0.999879,0.000000,-0.015443,-0.001990 WAIST_JOINT0:0.999622,0.000000,-0.024488,0.012529 WAIST_JOINT1:0.997718,0.067178,0.000000,-0.006829 END:
KINECT_DATA_Sensor  AnkleLeft:0.069038,0.718703,-0.105775,-0.683748 AnkleRight:0.085091,0.732585,0.085221,0.669938 ElbowLeft:-0.022341,0.901251,-0.184048,-0.391630 ElbowRight:-0.074151,0.689486,0.143660,0.706025 FootLeft:0.000000,0.000000,0.000000,0.000000 FootRight:0.000000,0.000000,0.000000,0.000000 HandLeft:-0.016240,-0.482263,-0.103242,0.869770 HandRight:0.041435,-0.214857,-0.563679,0.796483 HandTipLeft:0.000000,0.000000,0.000000,0.000000 HandTipRight:0.000000,0.000000,0.000000,0.000000 Head:0.000000,0.000000,0.000000,0.000000 HipLeft:0.124554,-0.680236,0.701296,-0.173058 HipRight:-0.108849,0.679416,0.706900,-0.163824 KneeLeft:-0.004502,0.718011,-0.064316,-0.693039 KneeRight:-0.024400,0.695895,0.039764,0.716626 Neck:0.023136,-0.009363,0.996203,-0.083403 ShoulderLeft:0.008445,0.773043,-0.629773,0.075621 ShoulderRight:0.039237,0.786245,0.615532,-0.037416 SpineBase:0.015286,-0.006639,0.998953,-0.042615 SpineMid:0.019157,-0.006804,0.998886,-0.042589 SpineShoulder:0.023132,-0.007941,0.997777,-0.061993 ThumbLeft:0.000000,0.000000,0.000000,0.000000 ThumbRight:0.000000,0.000000,0.000000,0.000000 WristLeft:0.064860,-0.470689,-0.104059,0.873737 WristRight:0.028175,-0.234664,-0.481309,0.844086 END:
KINECT_DATA POSITION:9.297437,-1.780361,-4.696476 HEAD_JOINT1:0.975709,0.181735,-0.000000,0.122326 LARM_JOINT2:0.825260,0.000000,-0.006135,-0.564720 LARM_JOINT3:0.969620,0.000000,-0.174716,-0.171204 LLEG_JOINT2:0.997826,0.043220,0.000000,0.049746 LLEG_JOINT4:0.996572,0.079429,0.000000,-0.023139 RARM_JOINT2:0.802361,0.000000,0.022776,0.596405 RARM_JOINT3:0.849355,0.000000,0.526917,-0.030917 RLEG_JOINT2:0.998971,0.010599,0.000000,-0.044098 RLEG_JOINT4:0.993326,0.109349,0.000000,0.036705 WAIST:0.999885,0.000000,-0.015085,-0.001827 WAIST_JOINT0:0.999658,0.000000,-0.022599,0.013132 WAIST_JOINT1:0.997789,0.066074,0.000000,-0.007126 END:
KINECT_DATA_Sensor  AnkleLeft:0.068811,0.717676,-0.104085,-0.685108 AnkleRight:0.085079,0.730259,0.084714,0.672538 ElbowLeft:-0.022856,0.901178,-0.183505,-0.392022 ElbowRight:-0.074458,0.689379,0.142608,0.706311 FootLeft:0.000000,0.000000,0.000000,0.000000 FootRight:0.000000,0.000000,0.000000,0.000000 HandLeft:-0.018019,-0.503438,-0.090593,0.859080 HandRight:0.044279,-0.222267,-0.563425,0.794474 HandTipLeft:0.000000,0.000000,0.000000,0.000000 HandTipRight:0.000000,0.000000,0.000000,0.000000 Head:0.000000,0.000000,0.000000,0.000000 HipLeft:0.124546,-0.680280,0.701409,-0.172433 HipRight:-0.109248,0.679571,0.706735,-0.163624 KneeLeft:-0.004177,0.717761,-0.064380,-0.693294 KneeRight:-0.024359,0.696153,0.040340,0.716346 Neck:0.021290,-0.009489,0.996357,-0.082032 ShoulderLeft:0.008672,0.773027,-0.630012,0.073748 ShoulderRight:0.037083,0.786567,0.615193,-0.038389 SpineBase:0.014920,-0.006608,0.998979,-0.042132 SpineMid:0.018062,-0.006741,0.998927,-0.042111 SpineShoulder:0.021288,-0.007991,0.997879,-0.060994 ThumbLeft:0.000000,0.000000,0.000000,0.000000 ThumbRight:0.000000,0.000000,0.000000,0.000000 WristLeft:0.067747,-0.491958,-0.102614,0.861892 WristRight:0.032550,-0.240875,-0.482447,0.841525 END:
KINECT_DATA POSITION:9.296567,-1.767265,-4.748678 HEAD_JOINT1:0.975857,0.181565,-0.000000,0.121393 LARM_JOINT2:0.825381,0.000000,-0.004863,-0.564555 LARM_JOINT3:0.969700,0.000000,-0.175079,-0.170381 LLEG_JOINT2:0.997846,0.043111,0.000000,0.049450 LLEG_JOINT4:0.996661,0.078916,0.000000,-0.020963 RARM_JOINT2:0.801907,0.000000,0.023858,0.596972 RARM_JOINT3:0.849627,0.000000,0.526498,-0.030563 RLEG_JOINT2:0.998967,0.010325,0.000000,-0.044263 RLEG_JOINT4:0.993331,0.109291,0.000000,0.036720 WAIST:0.999900,0.000000,-0.014058,-0.001624 WAIST_JOINT0:0.999680,0.000000,-0.021298,0.013680 WAIST_JOINT1:0.997828,0.065490,0.000000,-0.007110 END:
KINECT_DATA_Sensor  AnkleLeft:0.067042,0.717269,-0.105031,-0.685565 AnkleRight:0.081197,0.702473,0.087996,0.701567 ElbowLeft:-0.022292,0.900890,-0.184149,-0.392415 ElbowRight:-0.075163,0.689116,0.140732,0.706869 FootLeft:0.000000,0.000000,0.000000,0.000000 FootRight:0.000000,0.000000,0.000000,0.000000 HandLeft:-0.006525,-0.539114,-0.087290,0.837672 HandRight:0.058924,-0.223077,-0.563111,0.793518 HandTipLeft:0.000000,0.000000,0.000000,0.000000 HandTipRight:0.000000,0.000000,0.000000,0.000000 Head:0.000000,0.000000,0.000000,0.000000 HipLeft:0.124117,-0.680369,0.701617,-0.171539 HipRight:-0.110120,0.679661,0.706458,-0.163864 KneeLeft:-0.004117,0.717039,-0.064244,-0.694053 KneeRight:-0.024568,0.696883,0.040100,0.715642 Neck:0.019989,-0.009310,0.996437,-0.081405 ShoulderLeft:0.008735,0.772737,-0.630491,0.072681 ShoulderRight:0.035465,0.786852,0.614867,-0.039311 SpineBase:0.013889,-0.006426,0.999013,-0.041696 SpineMid:0.016898,-0.006551,0.998967,-0.041677 SpineShoulder:0.019985,-0.007833,0.997942,-0.060420 ThumbLeft:0.000000,0.000000,0.000000,0.000000 ThumbRight:0.000000,0.000000,0.000000,0.000000 WristLeft:0.071886,-0.528680,-0.100007,0.839838 WristRight:0.036940,-0.248392,-0.482767,0.838972 END:
KINECT_DATA POSITION:9.317570,-1.754559,-4.837382 HEAD_JOINT1:0.976202,0.180059,-0.000000,0.120867 LARM_JOINT2:0.825297,0.000000,-0.004777,-0.564679 LARM_JOINT3:0.969752,0.000000,-0.177197,-0.167874 LLEG_JOINT2:0.997898,0.042109,0.000000,0.049253 LLEG_JOINT4:0.996763,0.077330,0.000000,-0.021982 RARM_JOINT2:0.801307,0.000000,0.025713,0.597700 RARM_JOINT3:0.850349,0.000000,0.525264,-0.031689 RLEG_JOINT2:0.998971,0.010135,0.000000,-0.044196 RLEG_JOINT4:0.993299,0.109997,0.000000,0.035474 WAIST:0.999902,0.000000,-0.013952,-0.001382 WAIST_JOINT0:0.999694,0.000000,-0.020521,0.013820 WAIST_JOINT1:0.997825,0.065525,0.000000,-0.007175 END:
KINECT_DATA_Sensor  AnkleLeft:0.065855,0.717011,-0.102565,-0.686323 AnkleRight:0.084781,0.732791,0.085386,0.669730 ElbowLeft:-0.022447,0.900263,-0.184192,-0.393823 ElbowRight:-0.075460,0.688958,0.138846,0.707364 FootLeft:0.000000,0.000000,0.000000,0.000000 FootRight:0.000000,0.000000,0.000000,0.000000 HandLeft:0.000473,-0.522679,-0.091857,0.847566 HandRight:0.064581,-0.230670,-0.557988,0.794525 HandTipLeft:0.000000,0.000000,0.000000,0.000000 HandTipRight:0.000000,0.000000,0.000000,0.000000 Head:0.000000,0.000000,0.000000,0.000000 HipLeft:0.124035,-0.680222,0.701788,-0.171484 HipRight:-0.110233,0.679823,0.706280,-0.163883 KneeLeft:-0.004844,0.716939,-0.063561,-0.694215 KneeRight:-0.024491,0.696967,0.039746,0.715582 Neck:0.019224,-0.009079,0.996449,-0.081467 ShoulderLeft:0.009136,0.772613,-0.630690,0.072227 ShoulderRight:0.034873,0.786846,0.614860,-0.040051 SpineBase:0.013773,-0.006207,0.999017,-0.041671 SpineMid:0.016463,-0.006319,0.998977,-0.041654 SpineShoulder:0.019220,-0.007627,0.997957,-0.060453 ThumbLeft:0.000000,0.000000,0.000000,0.000000 ThumbRight:0.000000,0.000000,0.000000,0.000000 WristLeft:0.070896,-0.513255,-0.100616,0.849364 WristRight:0.041782,-0.255465,-0.483498,0.836195 END:
KINECT_DATA POSITION:9.344165,-1.746952,-4.921746 HEAD_JOINT1:0.976263,0.179789,-0.000000,0.120777 LARM_JOINT2:0.825396,0.000000,-0.005349,-0.564530 LARM_JOINT3:0.969536,0.000000,-0.176896,-0.169432 LLEG_JOINT2:0.997923,0.041774,0.000000,0.049045 LLEG_JOINT4:0.996665,0.078934,0.000000,-0.020688 RARM_JOINT2:0.800912,0.000000,0.026191,0.598209 RARM_JOINT3:0.849096,0.000000,0.527478,-0.028345 RLEG_JOINT2:0.998951,0.011393,0.000000,-0.044343 RLEG_JOINT4:0.993638,0.107054,0.000000,0.034974 WAIST:0.999906,0.000000,-0.013640,-0.001342 WAIST_JOINT0:0.999712,0.000000,-0.019640,0.013827 WAIST_JOINT1:0.997863,0.064943,0.000000,-0.007180 END:
KINECT_DATA_Sensor  AnkleLeft:0.065971,0.716542,-0.104241,-0.686549 AnkleRight:0.083740,0.738506,0.084126,0.663717 ElbowLeft:-0.023323,0.900351,-0.183944,-0.393686 ElbowRight:-0.075486,0.690277,0.137791,0.706281 FootLeft:0.000000,0.000000,0.000000,0.000000 FootRight:0.000000,0.000000,0.000000,0.000000 HandLeft:-0.000955,-0.547898,-0.096483,0.830962 HandRight:0.070953,-0.215264,-0.561588,0.795767 HandTipLeft:0.000000,0.000000,0.000000,0.000000 HandTipRight:0.000000,0.000000,0.000000,0.000000 Head:0.000000,0.000000,0.000000,0.000000 HipLeft:0.124113,-0.680341,0.701781,-0.170981 HipRight:-0.110708,0.679925,0.706156,-0.163677 KneeLeft:-0.004939,0.716720,-0.063206,-0.694473 KneeRight:-0.023674,0.697202,0.040693,0.715328 Neck:0.018451,-0.009052,0.996513,-0.080862 ShoulderLeft:0.008122,0.772899,-0.630367,0.072103 ShoulderRight:0.032826,0.786967,0.614745,-0.041147 SpineBase:0.013464,-0.006113,0.999043,-0.041167 SpineMid:0.015926,-0.006214,0.999007,-0.041152 SpineShoulder:0.018447,-0.007584,0.998006,-0.059882 ThumbLeft:0.000000,0.000000,0.000000,0.000000 ThumbRight:0.000000,0.000000,0.000000,0.000000 WristLeft:0.074346,-0.537091,-0.098670,0.834428 WristRight:0.039238,-0.246107,-0.484862,0.838332 END:
KINECT_DATA POSITION:9.355445,-1.748729,-4.980540 HEAD_JOINT1:0.977158,0.177294,-0.000000,0.117174 LARM_JOINT2:0.825368,0.000000,-0.006288,-0.564560 LARM_JOINT3:0.969253,0.000000,-0.178071,-0.169824 LLEG_JOINT2:0.997963,0.040825,0.000000,0.049031 LLEG_JOINT4:0.996676,0.078853,0.000000,-0.020480 RARM_JOINT2:0.800797,0.000000,0.028716,0.598248 RARM_JOINT3:0.834841,0.000000,0.550339,-0.012947 RLEG_JOINT2:0.998944,0.011126,0.000000,-0.044583 RLEG_JOINT4:0.993369,0.109261,0.000000,0.035787 WAIST:0.999927,0.000000,-0.012047,-0.001257 WAIST_JOINT0:0.999747,0.000000,-0.017805,0.013781 WAIST_JOINT1:0.997870,0.064872,0.000000,-0.006886 END:
KINECT_DATA_Sensor  AnkleLeft:0.065235,0.715651,-0.103600,-0.687644 AnkleRight:0.085307,0.737656,0.085211,0.664323 ElbowLeft:-0.024022,0.899527,-0.183894,-0.395546 ElbowRight:-0.075095,0.700329,0.136748,0.696563 FootLeft:0.000000,0.000000,0.000000,0.000000 FootRight:0.000000,0.000000,0.000000,0.000000 HandLeft:0.009325,-0.633446,-0.100264,0.767207 HandRight:0.117823,-0.178077,-0.597444,0.772960 HandTipLeft:0.000000,0.000000,0.000000,0.000000 HandTipRight:0.000000,0.000000,0.000000,0.000000 Head:0.000000,0.000000,0.000000,0.000000 HipLeft:0.122983,-0.680593,0.702007,-0.169868 HipRight:-0.111613,0.679882,0.705913,-0.164286 KneeLeft:-0.005554,0.715596,-0.062587,-0.695682 KneeRight:-0.024037,0.698324,0.040582,0.714227 Neck:0.016630,-0.008714,0.996554,-0.080797 ShoulderLeft:0.008926,0.772912,-0.630475,0.070911 ShoulderRight:0.031261,0.786995,0.614678,-0.042809 SpineBase:0.011879,-0.005885,0.999070,-0.041031 SpineMid:0.014223,-0.005981,0.999039,-0.041017 SpineShoulder:0.016624,-0.007310,0.998045,-0.059796 ThumbLeft:0.000000,0.000000,0.000000,0.000000 ThumbRight:0.000000,0.000000,0.000000,0.000000 WristLeft:0.085448,-0.621340,-0.090915,0.773544 WristRight:0.054915,-0.235590,-0.493362,0.835509 END:
KINECT_DATA POSITION:9.434012,-1.753851,-5.016541 HEAD_JOINT1:0.978503,0.177307,-0.000000,0.105328 LARM_JOINT2:0.822280,0.000000,0.000102,-0.569083 LARM_JOINT3:0.971710,0.000000,-0.173178,-0.160587 LLEG_JOINT2:0.997969,0.041088,0.000000,0.048674 LLEG_JOINT4:0.996862,0.076227,0.000000,-0.021338 RARM_JOINT2:0.802836,0.000000,0.066384,0.592492 RARM_JOINT3:0.844875,0.000000,0.534955,0.002960 RLEG_JOINT2:0.998972,0.007851,0.000000,-0.044650 RLEG_JOINT4:0.992866,0.113795,0.000000,0.035618 WAIST:0.999977,0.000000,-0.006682,-0.001356 WAIST_JOINT0:0.999864,0.000000,-0.004884,0.015778 WAIST_JOINT1:0.997926,0.064155,0.000000,-0.005283 END:
KINECT_DATA_Sensor  AnkleLeft:0.064508,0.708619,-0.101016,-0.695337 AnkleRight:0.081754,0.711522,0.090387,0.692013 ElbowLeft:-0.021796,0.886978,-0.182064,-0.423849 ElbowRight:-0.095436,0.729725,0.119445,0.666428 FootLeft:0.000000,0.000000,0.000000,0.000000 FootRight:0.000000,0.000000,0.000000,0.000000 HandLeft:-0.003322,-0.588701,-0.068209,0.805461 HandRight:0.156393,-0.171942,-0.561577,0.794109 HandTipLeft:0.000000,0.000000,0.000000,0.000000 HandTipRight:0.000000,0.000000,0.000000,0.000000 Head:0.000000,0.000000,0.000000,0.000000 HipLeft:0.118891,-0.681533,0.702649,-0.166323 HipRight:-0.114965,0.679322,0.705406,-0.166454 KneeLeft:-0.004705,0.711867,-0.062487,-0.699513 KneeRight:-0.026708,0.702010,0.038271,0.710636 Neck:0.003450,-0.006643,0.996777,-0.079878 ShoulderLeft:0.022006,0.771930,-0.632799,0.056609 ShoulderRight:0.027383,0.787993,0.613113,-0.049087 SpineBase:0.006587,-0.004679,0.999137,-0.040730 SpineMid:0.005003,-0.004615,0.999147,-0.040737 SpineShoulder:0.003406,-0.005783,0.998226,-0.059157 ThumbLeft:0.000000,0.000000,0.000000,0.000000 ThumbRight:0.000000,0.000000,0.000000,0.000000 WristLeft:0.088130,-0.576909,-0.091454,0.806874 WristRight:0.088991,-0.221436,-0.494550,0.835744 END:
KINECT_DATA POSITION:9.728295,-1.741480,-5.227268 HEAD_JOINT1:0.980298,0.178051,-0.000000,0.085520 LARM_JOINT2:0.818809,0.000000,0.011220,-0.573956 LARM_JOINT3:0.973578,0.000000,-0.170914,-0.151443 LLEG_JOINT2:0.998170,0.037864,0.000000,0.047156 LLEG_JOINT4:0.996849,0.077163,0.000000,-0.018407 RARM_JOINT2:0.810602,0.000000,0.043431,0.583985 RARM_JOINT3:0.832187,0.000000,0.553209,0.037737 RLEG_JOINT2:0.998889,0.007462,0.000000,-0.046522 RLEG_JOINT4:0.992496,0.116123,0.000000,0.038296 WAIST:0.999952,0.000000,0.009802,-0.000935 WAIST_JOINT0:0.999306,-0.000000,0.030735,0.021038 WAIST_JOINT1:0.997886,0.064987,0.000000,-0.001080 END:
KINECT_DATA_Sensor  AnkleLeft:0.066403,0.719386,-0.097635,-0.684502 AnkleRight:0.083617,0.730548,0.091186,0.671560 ElbowLeft:-0.012523,0.871035,-0.185372,-0.454729 ElbowRight:-0.087043,0.749899,0.138251,0.641063 FootLeft:0.000000,0.000000,0.000000,0.000000 FootRight:0.000000,0.000000,0.000000,0.000000 HandLeft:0.007522,-0.594392,-0.040481,0.803121 HandRight:0.165179,-0.149000,-0.547234,0.806876 HandTipLeft:0.000000,0.000000,0.000000,0.000000 HandTipRight:0.000000,0.000000,0.000000,0.000000 Head:0.000000,0.000000,0.000000,0.000000 HipLeft:0.104826,-0.683286,0.705240,-0.157382 HipRight:-0.123081,0.677836,0.703683,-0.173839 KneeLeft:0.005213,-0.700201,0.059529,0.711440 KneeRight:-0.028643,0.713352,0.038568,0.699157 Neck:-0.032223,-0.000979,0.996248,-0.080309 ShoulderLeft:0.044297,0.768725,-0.637265,0.031508 ShoulderRight:0.003587,0.789598,0.608462,-0.079342 SpineBase:-0.009697,0.000017,0.999056,-0.042347 SpineMid:-0.020876,0.000491,0.998885,-0.042344 SpineShoulder:-0.032329,-0.001243,0.997669,-0.060085 ThumbLeft:0.000000,0.000000,0.000000,0.000000 ThumbRight:0.000000,0.000000,0.000000,0.000000 WristLeft:0.094140,-0.585977,-0.078292,0.801024 WristRight:0.104321,-0.190170,-0.491954,0.843169 END:
KINECT_DATA POSITION:10.169671,-1.811665,-5.626154 HEAD_JOINT1:0.981372,0.181547,-0.000000,0.062848 LARM_JOINT2:0.812937,0.000000,0.017620,-0.582086 LARM_JOINT3:0.973188,0.000000,-0.181340,-0.141499 LLEG_JOINT2:0.998364,0.035215,0.000000,0.045041 LLEG_JOINT4:0.997346,0.071509,0.000000,-0.013700 RARM_JOINT2:0.815586,0.000000,0.042384,0.577082 RARM_JOINT3:0.822012,0.000000,0.566078,0.062073 RLEG_JOINT2:0.998678,0.008409,0.000000,-0.050705 RLEG_JOINT4:0.992565,0.115160,0.000000,0.039417 WAIST:0.999584,0.000000,0.028831,-0.000203 WAIST_JOINT0:0.997400,-0.000000,0.066550,0.027635 WAIST_JOINT1:0.997724,0.067290,-0.000000,0.004435 END:
KINECT_DATA_Sensor  AnkleLeft:-0.054836,-0.669496,0.096454,0.734483 AnkleRight:0.079119,0.735302,0.095300,0.666325 ElbowLeft:-0.006806,0.845576,-0.185310,-0.500614 ElbowRight:-0.087141,0.771112,0.141385,0.614656 FootLeft:0.000000,0.000000,0.000000,0.000000 FootRight:0.000000,0.000000,0.000000,0.000000 HandLeft:0.014582,-0.540562,-0.049553,0.839717 HandRight:0.189848,-0.105764,-0.534698,0.816621 HandTipLeft:0.000000,0.000000,0.000000,0.000000 HandTipRight:0.000000,0.000000,0.000000,0.000000 Head:0.000000,0.000000,0.000000,0.000000 HipLeft:0.091864,-0.684227,0.707633,-0.150496 HipRight:-0.135472,0.675395,0.700824,-0.185294 KneeLeft:0.005068,-0.686567,0.056792,0.724828 KneeRight:-0.031248,0.726163,0.041060,0.685584 Neck:-0.068372,0.004731,0.994272,-0.082007 ShoulderLeft:0.070523,0.764244,-0.641041,0.004942 ShoulderRight:-0.016668,0.790970,0.601891,-0.108701 SpineBase:-0.028470,0.005773,0.998583,-0.044578 SpineMid:-0.048166,0.006652,0.997827,-0.044455 SpineShoulder:-0.068373,0.005044,0.995688,-0.062488 ThumbLeft:0.000000,0.000000,0.000000,0.000000 ThumbRight:0.000000,0.000000,0.000000,0.000000 WristLeft:0.100568,-0.531611,-0.076573,0.837504 WristRight:0.121948,-0.148461,-0.496990,0.846220 END:
KINECT_DATA POSITION:10.901305,-1.857187,-5.885196 HEAD_JOINT1:0.982711,0.178776,-0.000000,0.048150 LARM_JOINT2:0.807395,0.000000,0.026109,-0.589434 LARM_JOINT3:0.972829,0.000000,-0.188477,-0.134462 LLEG_JOINT2:0.998737,0.035407,0.000000,0.035646 LLEG_JOINT4:0.997989,0.062724,0.000000,-0.009186 RARM_JOINT2:0.820411,0.000000,0.042826,0.570168 RARM_JOINT3:0.818186,0.000000,0.568429,0.086366 RLEG_JOINT2:0.997938,0.010711,0.000000,-0.063289 RLEG_JOINT4:0.992335,0.114390,0.000000,0.046759 WAIST:0.998742,-0.000000,0.049920,0.004780 WAIST_JOINT0:0.994649,-0.000000,0.097175,0.035092 WAIST_JOINT1:0.997698,0.067470,-0.000000,0.006763 END:
KINECT_DATA_Sensor  AnkleLeft:-0.049982,-0.651847,0.089571,0.751382 AnkleRight:0.077129,0.744252,0.098497,0.656078 ElbowLeft:0.001149,0.825422,-0.186679,-0.532755 ElbowRight:-0.091451,0.784180,0.139701,0.597647 FootLeft:0.000000,0.000000,0.000000,0.000000 FootRight:0.000000,0.000000,0.000000,0.000000 HandLeft:0.036336,-0.491719,-0.062296,0.867762 HandRight:0.188406,-0.046776,-0.487356,0.851351 HandTipLeft:0.000000,0.000000,0.000000,0.000000 HandTipRight:0.000000,0.000000,0.000000,0.000000 Head:0.000000,0.000000,0.000000,0.000000 HipLeft:0.080132,-0.682807,0.712481,-0.140445 HipRight:-0.150803,0.675150,0.694410,-0.198054 KneeLeft:0.000961,-0.670873,0.053564,0.739634 KneeRight:-0.036365,0.740328,0.047036,0.669612 Neck:-0.098752,0.012466,0.991654,-0.081941 ShoulderLeft:0.094595,0.760766,-0.641711,-0.022209 ShoulderRight:-0.031484,0.792906,0.594591,-0.129499 SpineBase:-0.049721,0.010640,0.997716,-0.044463 SpineMid:-0.073963,0.011718,0.996212,-0.044191 SpineShoulder:-0.098826,0.011133,0.993077,-0.062507 ThumbLeft:0.000000,0.000000,0.000000,0.000000 ThumbRight:0.000000,0.000000,0.000000,0.000000 WristLeft:0.102015,-0.484185,-0.070223,0.866156 WristRight:0.122465,-0.087045,-0.518018,0.842070 END:
KINECT_DATA POSITION:11.593387,-1.873725,-6.077635 HEAD_JOINT1:0.984035,0.175537,-0.000000,0.029366 LARM_JOINT2:0.801879,0.000000,0.033327,-0.596556 LARM_JOINT3:0.972195,0.000000,-0.194044,-0.131091 LLEG_JOINT2:0.999071,0.034942,0.000000,0.025206 LLEG_JOINT4:0.998284,0.058539,0.000000,-0.001639 RARM_JOINT2:0.828054,0.000000,0.052292,0.558204 RARM_JOINT3:0.819636,0.000000,0.565531,0.091493 RLEG_JOINT2:0.997062,0.013202,0.000000,-0.075458 RLEG_JOINT4:0.992351,0.111572,0.000000,0.052836 WAIST:0.997859,-0.000000,0.064727,0.009421 WAIST_JOINT0:0.991912,-0.000000,0.120677,0.039340 WAIST_JOINT1:0.997819,0.065294,-0.000000,0.009731 END:
KINECT_DATA_Sensor  AnkleLeft:-0.046082,-0.638140,0.086939,0.763607 AnkleRight:0.077838,0.777570,0.097152,0.616350 ElbowLeft:0.004349,0.806997,-0.186765,-0.560229 ElbowRight:-0.107147,0.785777,0.133484,0.594354 FootLeft:0.000000,0.000000,0.000000,0.000000 FootRight:0.000000,0.000000,0.000000,0.000000 HandLeft:0.046910,-0.521965,-0.061397,0.849460 HandRight:0.226726,-0.021698,-0.451206,0.862866 HandTipLeft:0.000000,0.000000,0.000000,0.000000 HandTipRight:0.000000,0.000000,0.000000,0.000000 Head:0.000000,0.000000,0.000000,0.000000 HipLeft:0.072864,-0.680730,0.716494,-0.133918 HipRight:-0.162446,0.675937,0.688793,-0.205633 KneeLeft:-0.003018,-0.659592,0.048647,0.750041 KneeRight:-0.041321,0.750017,0.053084,0.657988 Neck:-0.121828,0.020949,0.989150,-0.079376 ShoulderLeft:0.109519,0.757345,-0.642292,-0.043520 ShoulderRight:-0.046363,0.793097,0.589804,-0.144843 SpineBase:-0.064643,0.016400,0.996831,-0.043369 SpineMid:-0.092923,0.017625,0.994593,-0.042886 SpineShoulder:-0.121950,0.017862,0.990551,-0.060140 ThumbLeft:0.000000,0.000000,0.000000,0.000000 ThumbRight:0.000000,0.000000,0.000000,0.000000 WristLeft:0.111796,-0.513735,-0.063528,0.848258 WristRight:0.129058,-0.080530,-0.534178,0.831573 END:
KINECT_DATA POSITION:12.167404,-1.874815,-6.052804 HEAD_JOINT1:0.984620,0.174657,-0.000000,0.004392 LARM_JOINT2:0.795339,0.000000,0.038318,-0.604952 LARM_JOINT3:0.971331,0.000000,-0.199324,-0.129560 LLEG_JOINT2:0.999235,0.035370,0.000000,0.016696 LLEG_JOINT4:0.998249,0.058956,0.000000,0.004882 RARM_JOINT2:0.836709,0.000000,0.056432,0.544732 RARM_JOINT3:0.818735,0.000000,0.558704,0.132372 RLEG_JOINT2:0.996080,0.019859,0.000000,-0.086198 RLEG_JOINT4:0.992250,0.108448,0.000000,0.060653 WAIST:0.996807,-0.000000,0.078570,0.014210 WAIST_JOINT0:0.989942,-0.000000,0.135340,0.041217 WAIST_JOINT1:0.998143,0.059355,-0.000000,0.013665 END:
KINECT_DATA_Sensor  AnkleLeft:-0.045904,-0.629338,0.088479,0.770713 AnkleRight:0.079644,0.784191,0.099229,0.607334 ElbowLeft:0.004817,0.795807,-0.183717,-0.576988 ElbowRight:-0.116859,0.812573,0.133225,0.555266 FootLeft:0.000000,0.000000,0.000000,0.000000 FootRight:0.000000,0.000000,0.000000,0.000000 HandLeft:0.061417,-0.475535,-0.073220,0.874491 HandRight:0.278561,-0.010428,-0.422614,0.862376 HandTipLeft:0.000000,0.000000,0.000000,0.000000 HandTipRight:0.000000,0.000000,0.000000,0.000000 Head:0.000000,0.000000,0.000000,0.000000 HipLeft:0.067923,-0.678746,0.720185,-0.126588 HipRight:-0.176525,0.677608,0.682169,-0.210552 KneeLeft:-0.006046,-0.648787,0.045698,0.759572 KneeRight:-0.042567,0.759293,0.061113,0.646473 Neck:-0.136100,0.030262,0.987540,-0.072975 ShoulderLeft:0.112752,0.753696,-0.644924,-0.057464 ShoulderRight:-0.062079,0.792958,0.586400,-0.153295 SpineBase:-0.078535,0.024271,0.995848,-0.039106 SpineMid:-0.106943,0.025378,0.993199,-0.038397 SpineShoulder:-0.136216,0.025365,0.988867,-0.054250 ThumbLeft:0.000000,0.000000,0.000000,0.000000 ThumbRight:0.000000,0.000000,0.000000,0.000000 WristLeft:0.112933,-0.468600,-0.070969,0.873283 WristRight:0.172190,-0.076750,-0.518293,0.834166 END:
KINECT_DATA POSITION:12.317127,-1.881469,-6.031048 HEAD_JOINT1:0.985356,0.170482,0.000000,-0.002936 LARM_JOINT2:0.793584,0.000000,0.038627,-0.607233 LARM_JOINT3:0.970281,0.000000,-0.204251,-0.129757 LLEG_JOINT2:0.999219,0.036382,0.000000,0.015409 LLEG_JOINT4:0.998452,0.055356,0.000000,0.005415 RARM_JOINT2:0.840775,0.000000,0.068520,0.537031 RARM_JOINT3:0.817383,0.000000,0.557402,0.145561 RLEG_JOINT2:0.995890,0.021553,0.000000,-0.087973 RLEG_JOINT4:0.992279,0.107713,0.000000,0.061482 WAIST:0.996440,-0.000000,0.082975,0.014924 WAIST_JOINT0:0.989182,-0.000000,0.140402,0.042494 WAIST_JOINT1:0.998256,0.056938,-0.000000,0.015579 END:
KINECT_DATA_Sensor  AnkleLeft:-0.044318,-0.626378,0.086446,0.773443 AnkleRight:0.079566,0.786563,0.100363,0.604082 ElbowLeft:0.003712,0.793230,-0.182419,-0.580945 ElbowRight:-0.126168,0.831882,0.131190,0.524254 FootLeft:0.000000,0.000000,0.000000,0.000000 FootRight:0.000000,0.000000,0.000000,0.000000 HandLeft:0.075126,-0.475012,-0.094185,0.871693 HandRight:0.276227,0.021622,-0.436300,0.856080 HandTipLeft:0.000000,0.000000,0.000000,0.000000 HandTipRight:0.000000,0.000000,0.000000,0.000000 Head:0.000000,0.000000,0.000000,0.000000 HipLeft:0.067272,-0.678591,0.720912,-0.123588 HipRight:-0.181257,0.677631,0.680613,-0.211490 KneeLeft:-0.007297,-0.645294,0.045802,0.762526 KneeRight:-0.042620,0.762252,0.062829,0.642812 Neck:-0.141168,0.032299,0.986904,-0.071055 ShoulderLeft:0.111980,0.752749,-0.645806,-0.061353 ShoulderRight:-0.069428,0.793670,0.583598,-0.157105 SpineBase:-0.082934,0.025828,0.995540,-0.036814 SpineMid:-0.111640,0.026880,0.992731,-0.036053 SpineShoulder:-0.141183,0.027959,0.988236,-0.051731 ThumbLeft:0.000000,0.000000,0.000000,0.000000 ThumbRight:0.000000,0.000000,0.000000,0.000000 WristLeft:0.114482,-0.467691,-0.070402,0.873614 WristRight:0.186033,-0.038953,-0.515039,0.835829 END:
KINECT_DATA POSITION:12.376859,-1.884960,-5.980182 HEAD_JOINT1:0.985278,0.170886,0.000000,-0.004910 LARM_JOINT2:0.793289,0.000000,0.038800,-0.607607 LARM_JOINT3:0.968874,0.000000,-0.209060,-0.132579 LLEG_JOINT2:0.999225,0.036427,0.000000,0.014935 LLEG_JOINT4:0.998409,0.056032,0.000000,0.006307 RARM_JOINT2:0.842403,0.000000,0.072571,0.533938 RARM_JOINT3:0.818723,0.000000,0.556385,0.141874 RLEG_JOINT2:0.995860,0.022993,0.000000,-0.087950 RLEG_JOINT4:0.992394,0.106755,0.000000,0.061302 WAIST:0.996322,-0.000000,0.084323,0.015215 WAIST_JOINT0:0.989061,-0.000000,0.141205,0.042654 WAIST_JOINT1:0.998292,0.056144,-0.000000,0.016139 END:
KINECT_DATA_Sensor  AnkleLeft:-0.044553,-0.625949,0.087321,0.773678 AnkleRight:0.079730,0.786872,0.100769,0.603590 ElbowLeft:0.003547,0.793551,-0.182414,-0.580507 ElbowRight:-0.131067,0.832570,0.129694,0.522330 FootLeft:0.000000,0.000000,0.000000,0.000000 FootRight:0.000000,0.000000,0.000000,0.000000 HandLeft:0.087814,-0.520590,-0.108961,0.842260 HandRight:0.268304,0.024965,-0.440244,0.856490 HandTipLeft:0.000000,0.000000,0.000000,0.000000 HandTipRight:0.000000,0.000000,0.000000,0.000000 Head:0.000000,0.000000,0.000000,0.000000 HipLeft:0.067148,-0.678543,0.721189,-0.122295 HipRight:-0.182755,0.677872,0.680070,-0.211173 KneeLeft:-0.007476,-0.644217,0.045650,0.763443 KneeRight:-0.041555,0.763255,0.063644,0.641611 Neck:-0.141968,0.032920,0.986813,-0.070438 ShoulderLeft:0.110716,0.752870,-0.645855,-0.061640 ShoulderRight:-0.071745,0.794019,0.582596,-0.158013 SpineBase:-0.084276,0.026611,0.995448,-0.035671 SpineMid:-0.112686,0.027619,0.992634,-0.034896 SpineShoulder:-0.141948,0.028765,0.988145,-0.050926 ThumbLeft:0.000000,0.000000,0.000000,0.000000 ThumbRight:0.000000,0.000000,0.000000,0.000000 WristLeft:0.118063,-0.513146,-0.064652,0.847680 WristRight:0.184570,-0.032800,-0.518470,0.834294 END:
KINECT_DATA POSITION:12.401917,-1.897348,-5.926383 HEAD_JOINT1:0.985175,0.171508,0.000000,-0.004016 LARM_JOINT2:0.795341,0.000000,0.032915,-0.605267 LARM_JOINT3:0.967819,0.000000,-0.212383,-0.134984 LLEG_JOINT2:0.999232,0.036266,0.000000,0.014824 LLEG_JOINT4:0.998376,0.056622,0.000000,0.006224 RARM_JOINT2:0.878930,0.000000,0.174443,0.443904 RARM_JOINT3:0.844021,0.000000,0.494225,0.208254 RLEG_JOINT2:0.995843,0.023111,0.000000,-0.088110 RLEG_JOINT4:0.992222,0.107892,0.000000,0.062092 WAIST:0.996407,-0.000000,0.083287,0.015385 WAIST_JOINT0:0.989465,-0.000000,0.138325,0.042726 WAIST_JOINT1:0.998330,0.055405,-0.000000,0.016337 END:
KINECT_DATA_Sensor  AnkleLeft:-0.044920,-0.627741,0.087571,0.772176 AnkleRight:0.081137,0.785214,0.101152,0.605495 ElbowLeft:-0.001364,0.799607,-0.183300,-0.571863 ElbowRight:-0.231214,0.891441,0.160172,0.355272 FootLeft:0.000000,0.000000,0.000000,0.000000 FootRight:0.000000,0.000000,0.000000,0.000000 HandLeft:0.091867,-0.472144,-0.138979,0.865636 HandRight:-0.450855,0.847914,-0.248826,-0.125923 HandTipLeft:0.000000,0.000000,0.000000,0.000000 HandTipRight:0.000000,0.000000,0.000000,0.000000 Head:0.000000,0.000000,0.000000,0.000000 HipLeft:0.068496,-0.678342,0.721255,-0.122279 HipRight:-0.182762,0.678323,0.680039,-0.209816 KneeLeft:-0.007268,-0.644985,0.045600,0.762799 KneeRight:-0.041402,0.762623,0.063774,0.642359 Neck:-0.139107,0.032946,0.987260,-0.069860 ShoulderLeft:0.105355,0.753770,-0.646082,-0.057529 ShoulderRight:-0.073588,0.794596,0.581744,-0.157403 SpineBase:-0.083253,0.026836,0.995566,-0.034609 SpineMid:-0.110728,0.027781,0.992885,-0.033854 SpineShoulder:-0.139038,0.029207,0.988583,-0.050182 ThumbLeft:0.000000,0.000000,0.000000,0.000000 ThumbRight:0.000000,0.000000,0.000000,0.000000 WristLeft:0.115227,-0.464299,-0.071268,0.875254 WristRight:-0.466028,0.859146,-0.190039,-0.092585 END:
KINECT_DATA POSITION:12.374202,-1.925895,-5.739903 HEAD_JOINT1:0.985231,0.171228,0.000000,-0.001217 LARM_JOINT2:0.796667,0.000000,0.029631,-0.603692 LARM_JOINT3:0.968390,0.000000,-0.207355,-0.138650 LLEG_JOINT2:0.999160,0.038132,0.000000,0.014986 LLEG_JOINT4:0.998393,0.056373,0.000000,0.005869 RARM_JOINT2:0.882258,0.000000,0.148536,0.446718 RARM_JOINT3:0.828389,0.000000,0.513444,0.223935 RLEG_JOINT2:0.995851,0.024502,0.000000,-0.087637 RLEG_JOINT4:0.992347,0.108310,0.000000,0.059302 WAIST:0.996604,-0.000000,0.080884,0.015453 WAIST_JOINT0:0.989995,-0.000000,0.134772,0.041791 WAIST_JOINT1:0.998380,0.054642,-0.000000,0.015874 END:
KINECT_DATA_Sensor  AnkleLeft:-0.046058,-0.629794,0.088651,0.770311 AnkleRight:0.080990,0.783454,0.103849,0.607335 ElbowLeft:-0.004758,0.803536,-0.183426,-0.566271 ElbowRight:-0.218517,0.882493,0.172615,0.379025 FootLeft:0.000000,0.000000,0.000000,0.000000 FootRight:0.000000,0.000000,0.000000,0.000000 HandLeft:0.068545,-0.434520,-0.136844,0.887563 HandRight:-0.429085,0.861217,-0.249977,-0.108178 HandTipLeft:0.000000,0.000000,0.000000,0.000000 HandTipRight:0.000000,0.000000,0.000000,0.000000 Head:0.000000,0.000000,0.000000,0.000000 HipLeft:0.071660,-0.678284,0.721027,-0.122130 HipRight:-0.182454,0.679069,0.680131,-0.207359 KneeLeft:-0.008450,-0.646699,0.047023,0.761248 KneeRight:-0.039895,0.761243,0.064611,0.644005 Neck:-0.135547,0.032310,0.987821,-0.069226 ShoulderLeft:0.099532,0.755281,-0.645623,-0.053063 ShoulderRight:-0.074963,0.794917,0.581469,-0.156143 SpineBase:-0.080893,0.026102,0.995853,-0.032417 SpineMid:-0.107756,0.026968,0.993306,-0.031701 SpineShoulder:-0.135436,0.029008,0.989131,-0.049359 ThumbLeft:0.000000,0.000000,0.000000,0.000000 ThumbRight:0.000000,0.000000,0.000000,0.000000 WristLeft:0.112538,-0.423237,-0.079059,0.895520 WristRight:-0.481075,0.848301,-0.208550,-0.073887 END:
KINECT_DATA POSITION:12.380518,-1.958378,-5.483603 HEAD_JOINT1:0.984898,0.173132,-0.000000,0.000602 LARM_JOINT2:0.797265,0.000000,0.032697,-0.602744 LARM_JOINT3:0.968088,0.000000,-0.205971,-0.142766 LLEG_JOINT2:0.999079,0.040180,0.000000,0.015067 LLEG_JOINT4:0.998321,0.057574,0.000000,0.006399 RARM_JOINT2:0.878297,0.000000,0.157092,0.451572 RARM_JOINT3:0.835321,0.000000,0.504110,0.219345 RLEG_JOINT2:0.995882,0.026035,0.000000,-0.086838 RLEG_JOINT4:0.992635,0.106234,0.000000,0.058227 WAIST:0.996629,-0.000000,0.080528,0.015648 WAIST_JOINT0:0.990597,-0.000000,0.130596,0.040761 WAIST_JOINT1:0.998364,0.054934,-0.000000,0.015862 END:
KINECT_DATA_Sensor  AnkleLeft:-0.048205,-0.632193,0.091249,0.767907 AnkleRight:0.074095,0.744828,0.108229,0.654238 ElbowLeft:-0.002526,0.804419,-0.185686,-0.564291 ElbowRight:-0.218623,0.886100,0.163800,0.374434 FootLeft:0.000000,0.000000,0.000000,0.000000 FootRight:0.000000,0.000000,0.000000,0.000000 HandLeft:0.076856,-0.550196,-0.126178,0.821862 HandRight:-0.427330,0.862741,-0.246268,-0.111442 HandTipLeft:0.000000,0.000000,0.000000,0.000000 HandTipRight:0.000000,0.000000,0.000000,0.000000 Head:0.000000,0.000000,0.000000,0.000000 HipLeft:0.071820,-0.678135,0.721195,-0.121870 HipRight:-0.182053,0.679315,0.680161,-0.206808 KneeLeft:-0.009808,-0.646868,0.048555,0.760991 KneeRight:-0.038117,0.761166,0.065144,0.644150 Neck:-0.131453,0.031818,0.988323,-0.070184 ShoulderLeft:0.096520,0.756282,-0.645188,-0.049531 ShoulderRight:-0.072661,0.795217,0.582112,-0.153281 SpineBase:-0.080555,0.026011,0.995891,-0.032174 SpineMid:-0.105534,0.026811,0.993555,-0.031511 SpineShoulder:-0.131279,0.029147,0.989676,-0.049567 ThumbLeft:0.000000,0.000000,0.000000,0.000000 ThumbRight:0.000000,0.000000,0.000000,0.000000 WristLeft:0.120485,-0.538917,-0.061708,0.831411 WristRight:-0.477561,0.850287,-0.206760,-0.078719 END:
KINECT_DATA POSITION:12.391413,-1.968557,-5.325484 HEAD_JOINT1:0.984512,0.175306,-0.000000,0.002099 LARM_JOINT2:0.797248,0.000000,0.033318,-0.602731 LARM_JOINT3:0.968355,0.000000,-0.204383,-0.143233 LLEG_JOINT2:0.999002,0.042007,0.000000,0.015207 LLEG_JOINT4:0.998394,0.056349,0.000000,0.005877 RARM_JOINT2:0.877901,0.000000,0.157428,0.452224 RARM_JOINT3:0.833814,0.000000,0.506361,0.219891 RLEG_JOINT2:0.995883,0.027072,0.000000,-0.086509 RLEG_JOINT4:0.992568,0.107126,0.000000,0.057731 WAIST:0.996651,-0.000000,0.080244,0.015707 WAIST_JOINT0:0.990822,-0.000000,0.128743,0.041205 WAIST_JOINT1:0.998358,0.055066,-0.000000,0.015751 END:
KINECT_DATA_Sensor  AnkleLeft:-0.048943,-0.633213,0.091361,0.767006 AnkleRight:0.081397,0.780428,0.105287,0.610918 ElbowLeft:-0.001858,0.804917,-0.185892,-0.563515 ElbowRight:-0.218066,0.886554,0.163410,0.373854 FootLeft:0.000000,0.000000,0.000000,0.000000 FootRight:0.000000,0.000000,0.000000,0.000000 HandLeft:0.056760,-0.438433,-0.130133,0.887479 HandRight:-0.427194,0.861133,-0.256816,-0.100005 HandTipLeft:0.000000,0.000000,0.000000,0.000000 HandTipRight:0.000000,0.000000,0.000000,0.000000 Head:0.000000,0.000000,0.000000,0.000000 HipLeft:0.071810,-0.678071,0.721240,-0.121964 HipRight:-0.181650,0.679406,0.680234,-0.206621 KneeLeft:-0.011057,-0.647003,0.049891,0.760773 KneeRight:-0.037124,0.761065,0.065696,0.644272 Neck:-0.129693,0.031451,0.988548,-0.070451 ShoulderLeft:0.095943,0.756133,-0.645538,-0.048364 ShoulderRight:-0.070883,0.795810,0.581949,-0.151650 SpineBase:-0.080277,0.025958,0.995911,-0.032286 SpineMid:-0.104512,0.026737,0.993660,-0.031645 SpineShoulder:-0.129493,0.029100,0.989906,-0.049701 ThumbLeft:0.000000,0.000000,0.000000,0.000000 ThumbRight:0.000000,0.000000,0.000000,0.000000 WristLeft:0.110667,-0.425763,-0.076599,0.894769 WristRight:-0.474310,0.851070,-0.215036,-0.066857 END:
KINECT_DATA POSITION:12.347408,-1.972812,-5.251312 HEAD_JOINT1:0.984068,0.177778,-0.000000,0.002323 LARM_JOINT2:0.797222,0.000000,0.033173,-0.602774 LARM_JOINT3:0.969099,0.000000,-0.201365,-0.142472 LLEG_JOINT2:0.998968,0.042306,0.000000,0.016516 LLEG_JOINT4:0.998421,0.056133,0.000000,0.002323 RARM_JOINT2:0.880878,0.000000,0.135306,0.453593 RARM_JOINT3:0.815388,0.000000,0.526031,0.241731 RLEG_JOINT2:0.995986,0.027288,0.000000,-0.085247 RLEG_JOINT4:0.992675,0.106772,0.000000,0.056526 WAIST:0.996657,-0.000000,0.080236,0.015428 WAIST_JOINT0:0.990987,-0.000000,0.127535,0.040987 WAIST_JOINT1:0.998353,0.055245,-0.000000,0.015496 END:
KINECT_DATA_Sensor  AnkleLeft:-0.050721,-0.633512,0.089506,0.766863 AnkleRight:0.071541,0.723559,0.112116,0.677329 ElbowLeft:-0.001463,0.805250,-0.185417,-0.563197 ElbowRight:-0.203551,0.887880,0.179554,0.371480 FootLeft:0.000000,0.000000,0.000000,0.000000 FootRight:0.000000,0.000000,0.000000,0.000000 HandLeft:0.057242,-0.473585,-0.119011,0.870791 HandRight:-0.437472,0.848103,-0.281417,-0.100724 HandTipLeft:0.000000,0.000000,0.000000,0.000000 HandTipRight:0.000000,0.000000,0.000000,0.000000 Head:0.000000,0.000000,0.000000,0.000000 HipLeft:0.072128,-0.678295,0.721029,-0.121784 HipRight:-0.181628,0.679201,0.680424,-0.206690 KneeLeft:-0.010637,-0.647028,0.050884,0.760692 KneeRight:-0.036219,0.761104,0.065237,0.644323 Neck:-0.128563,0.030661,0.988693,-0.070843 ShoulderLeft:0.095659,0.755889,-0.645932,-0.047459 ShoulderRight:-0.069729,0.795529,0.582725,-0.150673 SpineBase:-0.080273,0.025298,0.995934,-0.032114 SpineMid:-0.103954,0.026055,0.993742,-0.031503 SpineShoulder:-0.128351,0.028561,0.990063,-0.049863 ThumbLeft:0.000000,0.000000,0.000000,0.000000 ThumbRight:0.000000,0.000000,0.000000,0.000000 WristLeft:0.112925,-0.461284,-0.071915,0.877093 WristRight:-0.467940,0.850982,-0.229114,-0.066094 END:
KINECT_DATA POSITION:12.252982,-1.996718,-5.242538 HEAD_JOINT1:0.984259,0.176721,-0.000000,0.001917 LARM_JOINT2:0.797476,0.000000,0.032140,-0.602494 LARM_JOINT3:0.969682,0.000000,-0.199676,-0.140879 LLEG_JOINT2:0.998950,0.041515,0.000000,0.019363 LLEG_JOINT4:0.998498,0.054633,0.000000,0.004065 RARM_JOINT2:0.879298,0.000000,0.132213,0.457552 RARM_JOINT3:0.810292,0.000000,0.529313,0.251505 RLEG_JOINT2:0.996139,0.027809,0.000000,-0.083275 RLEG_JOINT4:0.992829,0.106526,0.000000,0.054239 WAIST:0.996635,-0.000000,0.080633,0.014723 WAIST_JOINT0:0.990996,-0.000000,0.127471,0.040972 WAIST_JOINT1:0.998320,0.055875,-0.000000,0.015352 END:
KINECT_DATA_Sensor  AnkleLeft:-0.046647,-0.634375,0.090879,0.766246 AnkleRight:0.073506,0.739438,0.111361,0.659869 ElbowLeft:-0.001287,0.805365,-0.184969,-0.563181 ElbowRight:-0.198768,0.889165,0.179525,0.371009 FootLeft:0.000000,0.000000,0.000000,0.000000 FootRight:0.000000,0.000000,0.000000,0.000000 HandLeft:0.058701,-0.488804,-0.109802,0.863463 HandRight:0.294574,0.085505,-0.428080,0.850096 HandTipLeft:0.000000,0.000000,0.000000,0.000000 HandTipRight:0.000000,0.000000,0.000000,0.000000 Head:0.000000,0.000000,0.000000,0.000000 HipLeft:0.072348,-0.678799,0.720500,-0.121973 HipRight:-0.181700,0.678485,0.680820,-0.207671 KneeLeft:-0.008712,-0.646838,0.052034,0.760800 KneeRight:-0.034906,0.761411,0.064830,0.644075 Neck:-0.128648,0.029414,0.988653,-0.071762 ShoulderLeft:0.096472,0.755235,-0.646606,-0.047060 ShoulderRight:-0.069054,0.795007,0.583439,-0.150975 SpineBase:-0.080665,0.024026,0.995923,-0.032449 SpineMid:-0.104211,0.024788,0.993735,-0.031871 SpineShoulder:-0.128419,0.027766,0.990046,-0.050458 ThumbLeft:0.000000,0.000000,0.000000,0.000000 ThumbRight:0.000000,0.000000,0.000000,0.000000 WristLeft:0.113865,-0.477343,-0.070218,0.868475 WristRight:0.246397,0.051280,-0.463833,0.849422 END:
KINECT_DATA POSITION:12.186627,-2.020392,-5.241108 HEAD_JOINT1:0.984221,0.176937,-0.000000,0.001460 LARM_JOINT2:0.797784,0.000000,0.032602,-0.602061 LARM_JOINT3:0.969830,0.000000,-0.198834,-0.141048 LLEG_JOINT2:0.998909,0.041320,0.000000,0.021744 LLEG_JOINT4:0.998351,0.057395,0.000000,0.001204 RARM_JOINT2:0.877676,0.000000,0.131566,0.460842 RARM_JOINT3:0.810259,0.000000,0.527467,0.255457 RLEG_JOINT2:0.996281,0.027413,0.000000,-0.081686 RLEG_JOINT4:0.992899,0.105849,0.000000,0.054285 WAIST:0.996721,-0.000000,0.079701,0.013935 WAIST_JOINT0:0.991015,-0.000000,0.127372,0.040806 WAIST_JOINT1:0.998312,0.056059,-0.000000,0.015163 END:
KINECT_DATA_Sensor  AnkleLeft:0.061048,0.730262,-0.084375,-0.675183 AnkleRight:0.074018,0.741287,0.109737,0.658006 ElbowLeft:-0.000832,0.805553,-0.184837,-0.562955 ElbowRight:-0.194762,0.892465,0.179931,0.364965 FootLeft:0.000000,0.000000,0.000000,0.000000 FootRight:0.000000,0.000000,0.000000,0.000000 HandLeft:0.062180,-0.547182,-0.101640,0.828490 HandRight:0.264238,0.132127,-0.445635,0.845062 HandTipLeft:0.000000,0.000000,0.000000,0.000000 HandTipRight:0.000000,0.000000,0.000000,0.000000 Head:0.000000,0.000000,0.000000,0.000000 HipLeft:0.073258,-0.679211,0.719872,-0.122841 HipRight:-0.181083,0.677965,0.681488,-0.207718 KneeLeft:-0.007544,-0.647627,0.053182,0.760062 KneeRight:-0.034444,0.760784,0.064091,0.644914 Neck:-0.128677,0.028279,0.988669,-0.071947 ShoulderLeft:0.096365,0.754683,-0.647312,-0.046414 ShoulderRight:-0.069299,0.794401,0.584126,-0.151403 SpineBase:-0.079717,0.023011,0.996015,-0.032701 SpineMid:-0.103759,0.023794,0.993798,-0.032136 SpineShoulder:-0.128439,0.026979,0.990057,-0.050632 ThumbLeft:0.000000,0.000000,0.000000,0.000000 ThumbRight:0.000000,0.000000,0.000000,0.000000 WristLeft:0.117991,-0.535728,-0.062947,0.833733 WristRight:0.225002,0.104439,-0.472786,0.845541 END:
KINECT_DATA POSITION:12.164270,-2.026342,-5.261052 HEAD_JOINT1:0.984105,0.177584,-0.000000,0.001367 LARM_JOINT2:0.797828,0.000000,0.032598,-0.602003 LARM_JOINT3:0.969644,0.000000,-0.200440,-0.140047 LLEG_JOINT2:0.998882,0.041583,0.000000,0.022475 LLEG_JOINT4:0.998421,0.056171,0.000000,-0.000115 RARM_JOINT2:0.875506,0.000000,0.135627,0.463782 RARM_JOINT3:0.814799,0.000000,0.521541,0.253173 RLEG_JOINT2:0.996298,0.027865,0.000000,-0.081330 RLEG_JOINT4:0.992989,0.104989,0.000000,0.054316 WAIST:0.996808,-0.000000,0.078634,0.013786 WAIST_JOINT0:0.991068,-0.000000,0.127070,0.040468 WAIST_JOINT1:0.998303,0.056357,-0.000000,0.014676 END:
KINECT_DATA_Sensor  AnkleLeft:-0.048894,-0.634233,0.090671,0.766248 AnkleRight:0.074930,0.745839,0.108628,0.652924 ElbowLeft:-0.000680,0.805696,-0.184478,-0.562869 ElbowRight:-0.193768,0.895519,0.176978,0.359414 FootLeft:0.000000,0.000000,0.000000,0.000000 FootRight:0.000000,0.000000,0.000000,0.000000 HandLeft:0.056596,-0.466829,-0.111384,0.875478 HandRight:0.274394,0.103794,-0.442120,0.847623 HandTipLeft:0.000000,0.000000,0.000000,0.000000 HandTipRight:0.000000,0.000000,0.000000,0.000000 Head:0.000000,0.000000,0.000000,0.000000 HipLeft:0.073803,-0.679162,0.719725,-0.123645 HipRight:-0.180239,0.677907,0.681829,-0.207520 KneeLeft:-0.007332,-0.648453,0.053821,0.759314 KneeRight:-0.033903,0.760118,0.064355,0.645701 Neck:-0.128446,0.027668,0.988700,-0.072167 ShoulderLeft:0.096229,0.754449,-0.647653,-0.045729 ShoulderRight:-0.069225,0.793893,0.584776,-0.151588 SpineBase:-0.078656,0.022596,0.996097,-0.033054 SpineMid:-0.103114,0.023402,0.993863,-0.032489 SpineShoulder:-0.128212,0.026466,0.990086,-0.050896 ThumbLeft:0.000000,0.000000,0.000000,0.000000 ThumbRight:0.000000,0.000000,0.000000,0.000000 WristLeft:0.111231,-0.455647,-0.073407,0.880128 WristRight:0.237141,0.080336,-0.458900,0.852480 END:
KINECT_DATA POSITION:12.161617,-2.025028,-5.270457 HEAD_JOINT1:0.983889,0.178767,-0.000000,0.002081 LARM_JOINT2:0.797991,0.000000,0.032712,-0.601781 LARM_JOINT3:0.969934,0.000000,-0.199119,-0.139927 LLEG_JOINT2:0.998902,0.040874,0.000000,0.022876 LLEG_JOINT4:0.998409,0.056363,0.000000,-0.001388 RARM_JOINT2:0.873537,0.000000,0.140348,0.466086 RARM_JOINT3:0.818086,0.000000,0.515781,0.254373 RLEG_JOINT2:0.996315,0.027462,0.000000,-0.081259 RLEG_JOINT4:0.992800,0.107188,0.000000,0.053465 WAIST:0.996864,-0.000000,0.077917,0.013817 WAIST_JOINT0:0.991190,-0.000000,0.126204,0.040185 WAIST_JOINT1:0.998307,0.056320,-0.000000,0.014520 END:
KINECT_DATA_Sensor  AnkleLeft:-0.048995,-0.634740,0.089741,0.765931 AnkleRight:0.075346,0.743545,0.110601,0.655158 ElbowLeft:-0.000665,0.806542,-0.184636,-0.561605 ElbowRight:-0.194015,0.897965,0.173116,0.355033 FootLeft:0.000000,0.000000,0.000000,0.000000 FootRight:0.000000,0.000000,0.000000,0.000000 HandLeft:0.057695,-0.488061,-0.105512,0.864485 HandRight:0.267647,0.118805,-0.442217,0.847758 HandTipLeft:0.000000,0.000000,0.000000,0.000000 HandTipRight:0.000000,0.000000,0.000000,0.000000 Head:0.000000,0.000000,0.000000,0.000000 HipLeft:0.074239,-0.679054,0.719702,-0.124115 HipRight:-0.179838,0.678004,0.681925,-0.207235 KneeLeft:-0.006480,-0.649029,0.053700,0.758839 KneeRight:-0.034039,0.759634,0.064012,0.646297 Neck:-0.127622,0.027657,0.988819,-0.072011 ShoulderLeft:0.094867,0.754395,-0.648016,-0.044319 ShoulderRight:-0.069678,0.793566,0.585168,-0.151577 SpineBase:-0.077943,0.022557,0.996152,-0.033113 SpineMid:-0.102350,0.023362,0.993941,-0.032550 SpineShoulder:-0.127398,0.026351,0.990195,-0.050881 ThumbLeft:0.000000,0.000000,0.000000,0.000000 ThumbRight:0.000000,0.000000,0.000000,0.000000 WristLeft:0.112606,-0.477177,-0.070782,0.868684 WristRight:0.231303,0.095791,-0.459514,0.852156 END:
KINECT_DATA POSITION:12.138626,-2.026159,-5.281246 HEAD_JOINT1:0.983823,0.179127,-0.000000,0.002429 LARM_JOINT2:0.798486,0.000000,0.032616,-0.601130 LARM_JOINT3:0.969619,0.000000,-0.199926,-0.140954 LLEG_JOINT2:0.998912,0.040645,0.000000,0.022863 LLEG_JOINT4:0.998412,0.056289,0.000000,-0.002218 RARM_JOINT2:0.872620,0.000000,0.143780,0.466757 RARM_JOINT3:0.819047,0.000000,0.515330,0.252185 RLEG_JOINT2:0.996349,0.027051,0.000000,-0.080971 RLEG_JOINT4:0.992883,0.106950,0.000000,0.052391 WAIST:0.996902,-0.000000,0.077436,0.013795 WAIST_JOINT0:0.991305,-0.000000,0.125295,0.040193 WAIST_JOINT1:0.998297,0.056490,-0.000000,0.014529 END:
KINECT_DATA_Sensor  AnkleLeft:-0.049302,-0.635145,0.088922,0.765671 AnkleRight:0.080456,0.778919,0.106260,0.612797 ElbowLeft:-0.000441,0.808441,-0.185400,-0.558614 ElbowRight:-0.195318,0.898237,0.170462,0.354913 FootLeft:0.000000,0.000000,0.000000,0.000000 FootRight:0.000000,0.000000,0.000000,0.000000 HandLeft:0.059307,-0.479463,-0.108826,0.868766 HandRight:0.259667,0.134519,-0.447328,0.845207 HandTipLeft:0.000000,0.000000,0.000000,0.000000 HandTipRight:0.000000,0.000000,0.000000,0.000000 Head:0.000000,0.000000,0.000000,0.000000 HipLeft:0.074395,-0.678967,0.719687,-0.124577 HipRight:-0.179464,0.677991,0.682061,-0.207155 KneeLeft:-0.006309,-0.649407,0.053533,0.758528 KneeRight:-0.034073,0.759304,0.063546,0.646729 Neck:-0.126748,0.027797,0.988916,-0.072163 ShoulderLeft:0.094250,0.754367,-0.648206,-0.043322 ShoulderRight:-0.069217,0.793651,0.585211,-0.151180 SpineBase:-0.077462,0.022550,0.996182,-0.033358 SpineMid:-0.101682,0.023355,0.994002,-0.032800 SpineShoulder:-0.126540,0.026289,0.990297,-0.051063 ThumbLeft:0.000000,0.000000,0.000000,0.000000 ThumbRight:0.000000,0.000000,0.000000,0.000000 WristLeft:0.111042,-0.468986,-0.071977,0.873236 WristRight:0.223851,0.111563,-0.464914,0.849293 END:
KINECT_DATA POSITION:12.092675,-2.029780,-5.272555 HEAD_JOINT1:0.983739,0.179590,-0.000000,0.002290 LARM_JOINT2:0.799118,0.000000,0.031629,-0.600342 LARM_JOINT3:0.969845,0.000000,-0.199251,-0.140352 LLEG_JOINT2:0.998902,0.040508,0.000000,0.023528 LLEG_JOINT4:0.998272,0.058769,0.000000,0.000005 RARM_JOINT2:0.872092,0.000000,0.145510,0.467207 RARM_JOINT3:0.818968,0.000000,0.514456,0.254219 RLEG_JOINT2:0.996396,0.026929,0.000000,-0.080439 RLEG_JOINT4:0.992763,0.108240,0.000000,0.052022 WAIST:0.996964,-0.000000,0.076646,0.013728 WAIST_JOINT0:0.991382,-0.000000,0.124814,0.039803 WAIST_JOINT1:0.998290,0.056661,-0.000000,0.014350 END:
KINECT_DATA_Sensor  AnkleLeft:-0.049166,-0.635723,0.092611,0.764763 AnkleRight:0.081468,0.778520,0.106952,0.613051 ElbowLeft:-0.000872,0.810662,-0.185851,-0.555236 ElbowRight:-0.195716,0.898433,0.169516,0.354651 FootLeft:0.000000,0.000000,0.000000,0.000000 FootRight:0.000000,0.000000,0.000000,0.000000 HandLeft:0.065657,-0.499122,-0.106001,0.857514 HandRight:0.256710,0.148502,-0.447327,0.843769 HandTipLeft:0.000000,0.000000,0.000000,0.000000 HandTipRight:0.000000,0.000000,0.000000,0.000000 Head:0.000000,0.000000,0.000000,0.000000 HipLeft:0.074992,-0.678868,0.719586,-0.125342 HipRight:-0.179074,0.677958,0.682225,-0.207063 KneeLeft:-0.005787,-0.650025,0.053915,0.757975 KneeRight:-0.033739,0.758796,0.063188,0.647377 Neck:-0.126302,0.027717,0.988966,-0.072285 ShoulderLeft:0.093875,0.754324,-0.648355,-0.042637 ShoulderRight:-0.069100,0.793313,0.585699,-0.151119 SpineBase:-0.076673,0.022396,0.996240,-0.033554 SpineMid:-0.101071,0.023212,0.994061,-0.032995 SpineShoulder:-0.126108,0.026070,0.990350,-0.051221 ThumbLeft:0.000000,0.000000,0.000000,0.000000 ThumbRight:0.000000,0.000000,0.000000,0.000000 WristLeft:0.111986,-0.489633,-0.068843,0.861962 WristRight:0.218511,0.123355,-0.468495,0.847083 END:
KINECT_DATA POSITION:12.014265,-2.033462,-5.283904 HEAD_JOINT1:0.983815,0.179174,-0.000000,0.002163 LARM_JOINT2:0.800743,0.000000,0.038708,-0.597756 LARM_JOINT3:0.968330,0.000000,-0.204030,-0.143907 LLEG_JOINT2:0.998908,0.040182,0.000000,0.023851 LLEG_JOINT4:0.998344,0.057519,0.000000,-0.000968 RARM_JOINT2:0.873190,0.000000,0.141119,0.466503 RARM_JOINT3:0.815102,0.000000,0.520314,0.254721 RLEG_JOINT2:0.996395,0.025347,0.000000,-0.080963 RLEG_JOINT4:0.992612,0.109291,0.000000,0.052691 WAIST:0.997025,-0.000000,0.075777,0.014094 WAIST_JOINT0:0.992051,-0.000000,0.119507,0.039409 WAIST_JOINT1:0.998283,0.056986,-0.000000,0.013540 END:
KINECT_DATA_Sensor  AnkleLeft:-0.048383,-0.639012,0.091232,0.762234 AnkleRight:0.073778,0.732186,0.111687,0.667822 ElbowLeft:0.002838,0.808682,-0.190535,-0.556527 ElbowRight:-0.193777,0.897003,0.173370,0.357462 FootLeft:0.000000,0.000000,0.000000,0.000000 FootRight:0.000000,0.000000,0.000000,0.000000 HandLeft:0.065776,-0.480730,-0.108005,0.867702 HandRight:0.254798,0.143476,-0.452219,0.842609 HandTipLeft:0.000000,0.000000,0.000000,0.000000 HandTipRight:0.000000,0.000000,0.000000,0.000000 Head:0.000000,0.000000,0.000000,0.000000 HipLeft:0.075253,-0.678528,0.719814,-0.125716 HipRight:-0.178041,0.678234,0.682280,-0.206866 KneeLeft:-0.005034,-0.650694,0.054219,0.757385 KneeRight:-0.034857,0.758150,0.062106,0.648179 Neck:-0.121070,0.027100,0.989610,-0.072663 ShoulderLeft:0.086907,0.755249,-0.648708,-0.034996 ShoulderRight:-0.069710,0.793250,0.585951,-0.150189 SpineBase:-0.075846,0.021929,0.996302,-0.033883 SpineMid:-0.098066,0.022680,0.994361,-0.033385 SpineShoulder:-0.120886,0.025403,0.990998,-0.051612 ThumbLeft:0.000000,0.000000,0.000000,0.000000 ThumbRight:0.000000,0.000000,0.000000,0.000000 WristLeft:0.110588,-0.471490,-0.070748,0.872045 WristRight:0.220876,0.121084,-0.470388,0.845747 END:
KINECT_DATA POSITION:11.971437,-2.031773,-5.293143 HEAD_JOINT1:0.983887,0.178777,-0.000000,0.002225 LARM_JOINT2:0.800731,0.000000,0.036517,-0.597910 LARM_JOINT3:0.968638,0.000000,-0.200921,-0.146189 LLEG_JOINT2:0.998907,0.040067,0.000000,0.024083 LLEG_JOINT4:0.998412,0.056239,0.000000,-0.003348 RARM_JOINT2:0.873400,0.000000,0.141024,0.466138 RARM_JOINT3:0.813177,0.000000,0.522403,0.256590 RLEG_JOINT2:0.996407,0.025218,0.000000,-0.080853 RLEG_JOINT4:0.992585,0.109179,0.000000,0.053427 WAIST:0.997062,-0.000000,0.075270,0.014199 WAIST_JOINT0:0.991961,-0.000000,0.120189,0.039599 WAIST_JOINT1:0.998277,0.057166,-0.000000,0.013234 END:
KINECT_DATA_Sensor  AnkleLeft:-0.048507,-0.638423,0.088874,0.762997 AnkleRight:0.081890,0.776259,0.105461,0.616113 ElbowLeft:0.001669,0.809903,-0.189630,-0.555063 ElbowRight:-0.193882,0.896626,0.174039,0.358026 FootLeft:0.000000,0.000000,0.000000,0.000000 FootRight:0.000000,0.000000,0.000000,0.000000 HandLeft:0.058311,-0.528983,-0.105930,0.839974 HandRight:0.267771,0.127344,-0.447869,0.843502 HandTipLeft:0.000000,0.000000,0.000000,0.000000 HandTipRight:0.000000,0.000000,0.000000,0.000000 Head:0.000000,0.000000,0.000000,0.000000 HipLeft:0.075521,-0.678374,0.719858,-0.126137 HipRight:-0.177619,0.678296,0.682332,-0.206854 KneeLeft:-0.004700,-0.651084,0.054402,0.757039 KneeRight:-0.034748,0.757824,0.061883,0.648588 Neck:-0.121791,0.027072,0.989514,-0.072772 ShoulderLeft:0.088335,0.754784,-0.648997,-0.036065 ShoulderRight:-0.069172,0.793194,0.586072,-0.150258 SpineBase:-0.075354,0.021742,0.996337,-0.034096 SpineMid:-0.098185,0.022518,0.994346,-0.033589 SpineShoulder:-0.121620,0.025271,0.990905,-0.051747 ThumbLeft:0.000000,0.000000,0.000000,0.000000 ThumbRight:0.000000,0.000000,0.000000,0.000000 WristLeft:0.114122,-0.517491,-0.064964,0.845553 WristRight:0.231272,0.103465,-0.466703,0.847347 END:
KINECT_DATA POSITION:11.902949,-2.037803,-5.301094 HEAD_JOINT1:0.983885,0.178789,-0.000000,0.002302 LARM_JOINT2:0.800597,0.000000,0.034892,-0.598187 LARM_JOINT3:0.968624,0.000000,-0.200403,-0.146992 LLEG_JOINT2:0.998871,0.040036,0.000000,0.025554 LLEG_JOINT4:0.998211,0.059736,0.000000,-0.002481 RARM_JOINT2:0.874464,0.000000,0.132290,0.466704 RARM_JOINT3:0.805888,0.000000,0.527139,0.269571 RLEG_JOINT2:0.996507,0.024810,0.000000,-0.079736 RLEG_JOINT4:0.992676,0.108785,0.000000,0.052531 WAIST:0.997044,-0.000000,0.075597,0.013750 WAIST_JOINT0:0.991897,-0.000000,0.120738,0.039523 WAIST_JOINT1:0.998260,0.057414,-0.000000,0.013437 END:
KINECT_DATA_Sensor  AnkleLeft:-0.049943,-0.638040,0.092550,0.762788 AnkleRight:0.081171,0.776653,0.105087,0.615775 ElbowLeft:0.001175,0.810428,-0.188749,-0.554598 ElbowRight:-0.187982,0.896928,0.179933,0.357501 FootLeft:0.000000,0.000000,0.000000,0.000000 FootRight:0.000000,0.000000,0.000000,0.000000 HandLeft:0.053425,-0.519389,-0.110685,0.845653 HandRight:0.284158,0.130982,-0.443555,0.839855 HandTipLeft:0.000000,0.000000,0.000000,0.000000 HandTipRight:0.000000,0.000000,0.000000,0.000000 Head:0.000000,0.000000,0.000000,0.000000 HipLeft:0.075269,-0.678690,0.719571,-0.126221 HipRight:-0.177701,0.677867,0.682584,-0.207358 KneeLeft:-0.004055,-0.650872,0.055175,0.757169 KneeRight:-0.034513,0.758017,0.061145,0.648445 Neck:-0.122404,0.026896,0.989423,-0.073051 ShoulderLeft:0.089610,0.754455,-0.649162,-0.036825 ShoulderRight:-0.068660,0.793049,0.586277,-0.150463 SpineBase:-0.075661,0.021403,0.996310,-0.034408 SpineMid:-0.098657,0.022192,0.994296,-0.033904 SpineShoulder:-0.122248,0.024993,0.990821,-0.052014 ThumbLeft:0.000000,0.000000,0.000000,0.000000 ThumbRight:0.000000,0.000000,0.000000,0.000000 WristLeft:0.113045,-0.506900,-0.066490,0.851970 WristRight:0.236732,0.101428,-0.463824,0.847666 END:
