EastLYD/RoboCupatHomeSim/InteractiveCleanUp/JapanOpen2016/Motion_Data/File19.dat
KINECT_DATA POSITION:-1.282387,-0.987559,-9.711588 HEAD_JOINT1:0.985768,0.129895,-0.000000,0.106721 LARM_JOINT2:0.834785,0.000000,-0.024750,-0.550020 LARM_JOINT3:0.972613,0.000000,-0.181367,-0.145363 LLEG_JOINT2:0.998514,0.008921,0.000000,0.053753 LLEG_JOINT4:0.994631,0.097088,0.000000,-0.035833 RARM_JOINT2:0.811335,0.000000,-0.073459,0.579948 RARM_JOINT3:0.966759,0.000000,0.216372,0.136235 RLEG_JOINT2:0.999366,0.022972,0.000000,-0.027198 RLEG_JOINT4:0.995706,0.084559,0.000000,0.037664 WAIST:0.999947,0.000000,0.010022,-0.002379 WAIST_JOINT0:0.999809,0.000000,-0.019242,0.003324 WAIST_JOINT1:0.997223,0.072235,0.000000,-0.018149 END:
KINECT_DATA_Sensor  AnkleLeft:0.066201,0.703317,-0.084007,-0.702784 AnkleRight:0.084230,0.739222,0.067128,0.664793 ElbowLeft:-0.039042,0.869214,-0.182948,-0.457683 ElbowRight:0.014162,0.838035,0.222816,0.497846 FootLeft:0.000000,0.000000,0.000000,0.000000 FootRight:0.000000,0.000000,0.000000,0.000000 HandLeft:-0.099087,0.858756,-0.007889,0.502650 HandRight:-0.011607,-0.373676,-0.116881,0.920092 HandTipLeft:0.000000,0.000000,0.000000,0.000000 HandTipRight:0.000000,0.000000,0.000000,0.000000 Head:0.000000,0.000000,0.000000,0.000000 HipLeft:0.108306,-0.682375,0.705460,-0.157987 HipRight:-0.123688,0.670379,0.706579,-0.189840 KneeLeft:0.029608,-0.698507,0.042931,0.713701 KneeRight:-0.004972,0.714606,0.037131,0.698523 Neck:0.017612,-0.025319,0.995693,-0.087434 ShoulderLeft:0.031294,0.782812,-0.618454,0.061161 ShoulderRight:0.055362,0.781824,0.620229,-0.031665 SpineBase:-0.010650,-0.018626,0.998625,-0.047838 SpineMid:0.003195,-0.019287,0.998676,-0.047575 SpineShoulder:0.017421,-0.022525,0.997395,-0.066275 ThumbLeft:0.000000,0.000000,0.000000,0.000000 ThumbRight:0.000000,0.000000,0.000000,0.000000 WristLeft:-0.094956,0.862201,-0.106449,0.486067 WristRight:-0.016477,-0.374480,-0.111608,0.920346 END:
KINECT_DATA POSITION:-1.262434,-0.987772,-9.741795 HEAD_JOINT1:0.985665,0.130805,-0.000000,0.106556 LARM_JOINT2:0.834339,0.000000,-0.023545,-0.550749 LARM_JOINT3:0.972443,0.000000,-0.182919,-0.144555 LLEG_JOINT2:0.998547,0.008257,0.000000,0.053248 LLEG_JOINT4:0.994721,0.096531,0.000000,-0.034811 RARM_JOINT2:0.811232,0.000000,-0.073530,0.580082 RARM_JOINT3:0.965765,0.000000,0.220414,0.136804 RLEG_JOINT2:0.999337,0.023725,0.000000,-0.027601 RLEG_JOINT4:0.995915,0.081450,0.000000,0.038975 WAIST:0.999954,0.000000,0.009323,-0.002146 WAIST_JOINT0:0.999808,0.000000,-0.019295,0.003409 WAIST_JOINT1:0.997215,0.072311,0.000000,-0.018275 END:
KINECT_DATA_Sensor  AnkleLeft:0.065560,0.710813,-0.083118,-0.695369 AnkleRight:0.079958,0.704508,0.068747,0.701819 ElbowLeft:-0.037981,0.869246,-0.182796,-0.457771 ElbowRight:0.014481,0.837537,0.222642,0.498752 FootLeft:0.000000,0.000000,0.000000,0.000000 FootRight:0.000000,0.000000,0.000000,0.000000 HandLeft:-0.100091,0.879620,-0.007064,0.464973 HandRight:-0.005260,-0.346858,-0.131573,0.928628 HandTipLeft:0.000000,0.000000,0.000000,0.000000 HandTipRight:0.000000,0.000000,0.000000,0.000000 Head:0.000000,0.000000,0.000000,0.000000 HipLeft:0.108721,-0.682176,0.705507,-0.158356 HipRight:-0.123266,0.670689,0.706468,-0.189431 KneeLeft:0.029926,-0.698965,0.042244,0.713280 KneeRight:-0.004542,0.714113,0.037788,0.698995 Neck:0.017650,-0.025065,0.995685,-0.087590 ShoulderLeft:0.031580,0.782799,-0.618466,0.061061 ShoulderRight:0.055683,0.781928,0.620077,-0.031513 SpineBase:-0.009970,-0.018518,0.998635,-0.047815 SpineMid:0.003553,-0.019164,0.998678,-0.047560 SpineShoulder:0.017455,-0.022343,0.997392,-0.066366 ThumbLeft:0.000000,0.000000,0.000000,0.000000 ThumbRight:0.000000,0.000000,0.000000,0.000000 WristLeft:-0.099926,0.881659,-0.101320,0.449919 WristRight:-0.019721,-0.349777,-0.110880,0.930039 END:
KINECT_DATA POSITION:-1.261206,-0.990071,-9.744406 HEAD_JOINT1:0.985509,0.132324,-0.000000,0.106123 LARM_JOINT2:0.834221,0.000000,-0.022623,-0.550965 LARM_JOINT3:0.972317,0.000000,-0.183885,-0.144175 LLEG_JOINT2:0.998581,0.007357,0.000000,0.052738 LLEG_JOINT4:0.994639,0.096699,0.000000,-0.036650 RARM_JOINT2:0.810913,0.000000,-0.073763,0.580499 RARM_JOINT3:0.965396,0.000000,0.221722,0.137293 RLEG_JOINT2:0.999365,0.022405,0.000000,-0.027714 RLEG_JOINT4:0.995380,0.087701,0.000000,0.039073 WAIST:0.999956,0.000000,0.009125,-0.002012 WAIST_JOINT0:0.999805,0.000000,-0.019430,0.003512 WAIST_JOINT1:0.997233,0.072069,0.000000,-0.018218 END:
KINECT_DATA_Sensor  AnkleLeft:0.066305,0.709180,-0.081194,-0.697191 AnkleRight:0.086484,0.732969,0.068564,0.671250 ElbowLeft:-0.037453,0.869448,-0.183038,-0.457334 ElbowRight:0.014678,0.837142,0.222006,0.499692 FootLeft:0.000000,0.000000,0.000000,0.000000 FootRight:0.000000,0.000000,0.000000,0.000000 HandLeft:-0.101729,0.868150,-0.013835,0.485567 HandRight:0.000054,-0.341308,-0.135844,0.930084 HandTipLeft:0.000000,0.000000,0.000000,0.000000 HandTipRight:0.000000,0.000000,0.000000,0.000000 Head:0.000000,0.000000,0.000000,0.000000 HipLeft:0.108879,-0.682118,0.705542,-0.158342 HipRight:-0.123193,0.670876,0.706366,-0.189197 KneeLeft:0.030317,-0.699063,0.041336,0.713221 KneeRight:-0.005446,0.714007,0.036833,0.699148 Neck:0.017809,-0.024779,0.995711,-0.087344 ShoulderLeft:0.030986,0.782445,-0.618920,0.061298 ShoulderRight:0.055287,0.781799,0.620274,-0.031525 SpineBase:-0.009782,-0.018446,0.998645,-0.047673 SpineMid:0.003723,-0.019089,0.998686,-0.047419 SpineShoulder:0.017610,-0.022150,0.997409,-0.066140 ThumbLeft:0.000000,0.000000,0.000000,0.000000 ThumbRight:0.000000,0.000000,0.000000,0.000000 WristLeft:-0.097304,0.870756,-0.103193,0.470816 WristRight:-0.020241,-0.345249,-0.110608,0.931750 END:
KINECT_DATA POSITION:-1.216951,-0.990725,-9.680784 HEAD_JOINT1:0.985388,0.134383,-0.000000,0.104650 LARM_JOINT2:0.833675,0.000000,-0.020612,-0.551871 LARM_JOINT3:0.972802,0.000000,-0.182830,-0.142228 LLEG_JOINT2:0.998632,0.007261,0.000000,0.051777 LLEG_JOINT4:0.994726,0.097102,0.000000,-0.033049 RARM_JOINT2:0.812176,0.000000,-0.059694,0.580350 RARM_JOINT3:0.960296,0.000000,0.241931,0.138925 RLEG_JOINT2:0.999370,0.020847,0.000000,-0.028720 RLEG_JOINT4:0.995257,0.089390,0.000000,0.038388 WAIST:0.999945,0.000000,0.010333,-0.001537 WAIST_JOINT0:0.999855,0.000000,-0.016439,0.004472 WAIST_JOINT1:0.997332,0.070707,0.000000,-0.018127 END:
KINECT_DATA_Sensor  AnkleLeft:0.065080,0.713175,-0.083147,-0.692988 AnkleRight:0.086670,0.743439,0.068386,0.659628 ElbowLeft:-0.037626,0.866405,-0.182722,-0.463183 ElbowRight:0.004244,0.842319,0.216369,0.493624 FootLeft:0.000000,0.000000,0.000000,0.000000 FootRight:0.000000,0.000000,0.000000,0.000000 HandLeft:-0.089306,0.851498,-0.018199,0.516376 HandRight:0.041320,-0.318749,-0.211998,0.922902 HandTipLeft:0.000000,0.000000,0.000000,0.000000 HandTipRight:0.000000,0.000000,0.000000,0.000000 Head:0.000000,0.000000,0.000000,0.000000 HipLeft:0.109021,-0.682054,0.705820,-0.157276 HipRight:-0.125053,0.671186,0.705708,-0.189336 KneeLeft:0.029996,-0.698245,0.040957,0.714057 KneeRight:-0.006964,0.714859,0.036085,0.698303 Neck:0.014824,-0.023835,0.995949,-0.085431 ShoulderLeft:0.032202,0.782556,-0.619021,0.058159 ShoulderRight:0.052637,0.782924,0.619003,-0.033068 SpineBase:-0.010984,-0.017772,0.998698,-0.046541 SpineMid:0.001638,-0.018359,0.998757,-0.046312 SpineShoulder:0.014608,-0.021593,0.997545,-0.064998 ThumbLeft:0.000000,0.000000,0.000000,0.000000 ThumbRight:0.000000,0.000000,0.000000,0.000000 WristLeft:-0.095011,0.852532,-0.108559,0.502371 WristRight:-0.012344,-0.335094,-0.122175,0.934148 END:
KINECT_DATA POSITION:-1.045902,-0.980463,-9.538102 HEAD_JOINT1:0.987447,0.127420,-0.000000,0.093336 LARM_JOINT2:0.831775,0.000000,-0.013832,-0.554941 LARM_JOINT3:0.972739,0.000000,-0.184043,-0.141092 LLEG_JOINT2:0.998788,0.008209,0.000000,0.048526 LLEG_JOINT4:0.994766,0.097668,0.000000,-0.030016 RARM_JOINT2:0.823596,0.000000,0.003171,0.567168 RARM_JOINT3:0.947396,0.000000,0.288314,0.138981 RLEG_JOINT2:0.999224,0.022944,0.000000,-0.032009 RLEG_JOINT4:0.995304,0.087142,0.000000,0.042149 WAIST:0.999896,0.000000,0.014397,-0.000651 WAIST_JOINT0:0.999972,0.000000,-0.000511,0.007486 WAIST_JOINT1:0.997737,0.065276,0.000000,-0.016116 END:
KINECT_DATA_Sensor  AnkleLeft:0.067627,0.723092,-0.083165,-0.682384 AnkleRight:0.086985,0.743971,0.067881,0.659040 ElbowLeft:-0.037313,0.861138,-0.182477,-0.473024 ElbowRight:-0.051527,0.852318,0.200245,0.480417 FootLeft:0.000000,0.000000,0.000000,0.000000 FootRight:0.000000,0.000000,0.000000,0.000000 HandLeft:-0.091595,0.870601,-0.022191,0.482879 HandRight:0.089933,-0.275945,-0.299069,0.909024 HandTipLeft:0.000000,0.000000,0.000000,0.000000 HandTipRight:0.000000,0.000000,0.000000,0.000000 Head:0.000000,0.000000,0.000000,0.000000 HipLeft:0.108727,-0.682190,0.706466,-0.153948 HipRight:-0.130696,0.671764,0.704080,-0.189533 KneeLeft:0.027491,-0.695613,0.040048,0.716772 KneeRight:-0.007378,0.717541,0.039231,0.695372 Neck:-0.000619,-0.019257,0.996656,-0.079409 ShoulderLeft:0.035097,0.783708,-0.618453,0.045677 ShoulderRight:0.035502,0.787106,0.614144,-0.045064 SpineBase:-0.014958,-0.015233,0.998835,-0.043279 SpineMid:-0.008039,-0.015532,0.998915,-0.043172 SpineShoulder:-0.000900,-0.018363,0.998025,-0.060075 ThumbLeft:0.000000,0.000000,0.000000,0.000000 ThumbRight:0.000000,0.000000,0.000000,0.000000 WristLeft:-0.098669,0.870495,-0.108096,0.469912 WristRight:0.027305,-0.299772,-0.196852,0.933081 END:
KINECT_DATA POSITION:-0.933203,-0.964332,-9.470510 HEAD_JOINT1:0.988788,0.123530,-0.000000,0.083891 LARM_JOINT2:0.831043,0.000000,-0.008943,-0.556137 LARM_JOINT3:0.972708,0.000000,-0.186750,-0.137708 LLEG_JOINT2:0.998860,0.008227,0.000000,0.047017 LLEG_JOINT4:0.994841,0.097237,0.000000,-0.028934 RARM_JOINT2:0.834242,0.000000,0.050253,0.549103 RARM_JOINT3:0.934625,0.000000,0.322535,0.149823 RLEG_JOINT2:0.999159,0.022415,0.000000,-0.034343 RLEG_JOINT4:0.995138,0.088437,0.000000,0.043348 WAIST:0.999833,0.000000,0.018300,-0.000229 WAIST_JOINT0:0.999899,-0.000000,0.011263,0.008674 WAIST_JOINT1:0.997994,0.061719,0.000000,-0.014111 END:
KINECT_DATA_Sensor  AnkleLeft:0.067144,0.716424,-0.083032,-0.689444 AnkleRight:0.086648,0.745022,0.069423,0.657734 ElbowLeft:-0.038931,0.852410,-0.183442,-0.488088 ElbowRight:-0.095231,0.860644,0.192272,0.461795 FootLeft:0.000000,0.000000,0.000000,0.000000 FootRight:0.000000,0.000000,0.000000,0.000000 HandLeft:-0.088432,0.848176,-0.033421,0.521211 HandRight:0.156531,-0.263971,-0.327992,0.893442 HandTipLeft:0.000000,0.000000,0.000000,0.000000 HandTipRight:0.000000,0.000000,0.000000,0.000000 Head:0.000000,0.000000,0.000000,0.000000 HipLeft:0.108098,-0.682535,0.706902,-0.150831 HipRight:-0.135539,0.671835,0.702912,-0.190213 KneeLeft:0.026565,-0.692948,0.039385,0.719421 KneeRight:-0.009280,0.720172,0.040146,0.692571 Neck:-0.012063,-0.016288,0.996880,-0.076285 ShoulderLeft:0.036617,0.783381,-0.619353,0.037083 ShoulderRight:0.022244,0.788731,0.611906,-0.054588 SpineBase:-0.018790,-0.013622,0.998901,-0.040724 SpineMid:-0.015654,-0.013750,0.998955,-0.040681 SpineShoulder:-0.012344,-0.015686,0.998201,-0.056542 ThumbLeft:0.000000,0.000000,0.000000,0.000000 ThumbRight:0.000000,0.000000,0.000000,0.000000 WristLeft:-0.093313,0.848208,-0.119645,0.507464 WristRight:0.069058,-0.295501,-0.251042,0.919178 END:
KINECT_DATA POSITION:-0.753981,-0.913053,-9.419727 HEAD_JOINT1:0.990415,0.116589,-0.000000,0.074066 LARM_JOINT2:0.830508,0.000000,-0.007175,-0.556960 LARM_JOINT3:0.972158,0.000000,-0.189581,-0.137724 LLEG_JOINT2:0.998927,0.008383,0.000000,0.045553 LLEG_JOINT4:0.995092,0.095305,0.000000,-0.026630 RARM_JOINT2:0.841766,0.000000,0.139555,0.521493 RARM_JOINT3:0.927169,0.000000,0.340117,0.157096 RLEG_JOINT2:0.999098,0.022166,0.000000,-0.036224 RLEG_JOINT4:0.994759,0.091275,0.000000,0.046078 WAIST:0.999752,0.000000,0.022268,-0.000507 WAIST_JOINT0:0.999705,-0.000000,0.022619,0.008829 WAIST_JOINT1:0.998160,0.059604,0.000000,-0.011155 END:
KINECT_DATA_Sensor  AnkleLeft:0.067345,0.727244,-0.080754,-0.678277 AnkleRight:0.088327,0.744205,0.071515,0.658212 ElbowLeft:-0.039885,0.849001,-0.184760,-0.493428 ElbowRight:-0.160985,0.886134,0.170950,0.399533 FootLeft:0.000000,0.000000,0.000000,0.000000 FootRight:0.000000,0.000000,0.000000,0.000000 HandLeft:-0.100038,0.872576,-0.035421,0.476812 HandRight:0.223535,-0.243773,-0.349820,0.876489 HandTipLeft:0.000000,0.000000,0.000000,0.000000 HandTipRight:0.000000,0.000000,0.000000,0.000000 Head:0.000000,0.000000,0.000000,0.000000 HipLeft:0.106578,-0.683338,0.707006,-0.147760 HipRight:-0.140007,0.671664,0.702215,-0.190157 KneeLeft:0.025078,-0.690311,0.038352,0.722060 KneeRight:-0.011169,0.722781,0.041427,0.689744 Neck:-0.023029,-0.013163,0.996876,-0.074397 ShoulderLeft:0.039183,0.782643,-0.620528,0.029657 ShoulderRight:0.010575,0.787961,0.612237,-0.064589 SpineBase:-0.022607,-0.011161,0.998944,-0.038404 SpineMid:-0.023000,-0.011146,0.998935,-0.038408 SpineShoulder:-0.023297,-0.012846,0.998159,-0.054504 ThumbLeft:0.000000,0.000000,0.000000,0.000000 ThumbRight:0.000000,0.000000,0.000000,0.000000 WristLeft:-0.097813,0.873024,-0.118235,0.462907 WristRight:0.132355,-0.277302,-0.295709,0.904512 END:
KINECT_DATA POSITION:-0.652044,-0.914031,-9.381032 HEAD_JOINT1:0.991554,0.112292,-0.000000,0.064900 LARM_JOINT2:0.829166,0.000000,-0.005234,-0.558978 LARM_JOINT3:0.972151,0.000000,-0.191459,-0.135154 LLEG_JOINT2:0.998966,0.008261,0.000000,0.044707 LLEG_JOINT4:0.995187,0.095124,0.000000,-0.023541 RARM_JOINT2:0.839635,0.000000,0.231108,0.491529 RARM_JOINT3:0.936101,0.000000,0.322944,0.139361 RLEG_JOINT2:0.999051,0.021989,0.000000,-0.037602 RLEG_JOINT4:0.994515,0.093241,0.000000,0.047392 WAIST:0.999592,0.000000,0.028548,-0.000516 WAIST_JOINT0:0.999094,-0.000000,0.040822,0.012073 WAIST_JOINT1:0.998362,0.056606,0.000000,-0.008284 END:
KINECT_DATA_Sensor  AnkleLeft:0.066020,0.721610,-0.081997,-0.684249 AnkleRight:0.087910,0.737304,0.074792,0.665628 ElbowLeft:-0.041479,0.841675,-0.184531,-0.505778 ElbowRight:-0.228861,0.900039,0.138893,0.343890 FootLeft:0.000000,0.000000,0.000000,0.000000 FootRight:0.000000,0.000000,0.000000,0.000000 HandLeft:-0.089324,0.854780,-0.044976,0.509264 HandRight:0.286515,-0.271970,-0.339574,0.853599 HandTipLeft:0.000000,0.000000,0.000000,0.000000 HandTipRight:0.000000,0.000000,0.000000,0.000000 Head:0.000000,0.000000,0.000000,0.000000 HipLeft:0.104260,-0.684269,0.707353,-0.143379 HipRight:-0.146331,0.671110,0.700874,-0.192289 KneeLeft:0.024329,-0.685888,0.037809,0.726317 KneeRight:-0.012558,0.727015,0.042183,0.685210 Neck:-0.041094,-0.009652,0.996541,-0.071589 ShoulderLeft:0.044133,0.781859,-0.621651,0.017319 ShoulderRight:-0.007637,0.790697,0.606838,-0.080540 SpineBase:-0.028795,-0.009478,0.998892,-0.035996 SpineMid:-0.035090,-0.009251,0.998691,-0.036055 SpineShoulder:-0.041356,-0.009698,0.997764,-0.051604 ThumbLeft:0.000000,0.000000,0.000000,0.000000 ThumbRight:0.000000,0.000000,0.000000,0.000000 WristLeft:-0.096552,0.853412,-0.127621,0.496062 WristRight:0.176472,-0.313474,-0.315144,0.878223 END:
KINECT_DATA POSITION:-0.329462,-0.913235,-9.288931 HEAD_JOINT1:0.991922,0.117542,-0.000000,0.047689 LARM_JOINT2:0.823392,0.000000,0.009800,-0.567389 LARM_JOINT3:0.971881,0.000000,-0.193378,-0.134360 LLEG_JOINT2:0.999228,0.008951,0.000000,0.038266 LLEG_JOINT4:0.995287,0.094084,0.000000,-0.023507 RARM_JOINT2:0.822882,0.000000,0.379867,0.422572 RARM_JOINT3:0.956089,0.000000,0.252194,0.149306 RLEG_JOINT2:0.998650,0.027809,0.000000,-0.043879 RLEG_JOINT4:0.994770,0.087817,0.000000,0.052169 WAIST:0.999234,-0.000000,0.039036,0.002632 WAIST_JOINT0:0.997332,-0.000000,0.070144,0.020237 WAIST_JOINT1:0.998717,0.050408,0.000000,-0.004815 END:
KINECT_DATA_Sensor  AnkleLeft:0.067769,0.707497,-0.079202,-0.698987 AnkleRight:0.087643,0.736871,0.075690,0.666042 ElbowLeft:-0.036414,0.823388,-0.184106,-0.535547 ElbowRight:-0.332116,0.923669,0.114447,0.153093 FootLeft:0.000000,0.000000,0.000000,0.000000 FootRight:0.000000,0.000000,0.000000,0.000000 HandLeft:-0.081453,0.706843,-0.060324,0.700071 HandRight:-0.440686,0.771501,0.008329,-0.458817 HandTipLeft:0.000000,0.000000,0.000000,0.000000 HandTipRight:0.000000,0.000000,0.000000,0.000000 Head:0.000000,0.000000,0.000000,0.000000 HipLeft:0.101106,-0.683740,0.709691,-0.136443 HipRight:-0.157474,0.672721,0.696099,-0.195179 KneeLeft:0.021266,-0.678418,0.036032,0.733484 KneeRight:-0.011414,0.734167,0.048364,0.677148 Neck:-0.069923,-0.001427,0.995429,-0.065037 ShoulderLeft:0.049653,0.779527,-0.624394,-0.002297 ShoulderRight:-0.039280,0.795172,0.595756,-0.105987 SpineBase:-0.039274,-0.004163,0.998729,-0.031300 SpineMid:-0.054631,-0.003681,0.998007,-0.031360 SpineShoulder:-0.070181,-0.002962,0.996490,-0.045536 ThumbLeft:0.000000,0.000000,0.000000,0.000000 ThumbRight:0.000000,0.000000,0.000000,0.000000 WristLeft:-0.055210,0.715141,-0.151518,0.680124 WristRight:-0.374453,0.816513,0.079762,-0.432121 END:
KINECT_DATA POSITION:-0.035547,-0.992483,-9.182894 HEAD_JOINT1:0.991816,0.123264,-0.000000,0.033267 LARM_JOINT2:0.819778,0.000000,0.017504,-0.572415 LARM_JOINT3:0.971542,0.000000,-0.193487,-0.136637 LLEG_JOINT2:0.999526,0.009650,0.000000,0.029246 LLEG_JOINT4:0.995772,0.090122,0.000000,-0.017777 RARM_JOINT2:0.809421,0.000000,0.437232,0.392002 RARM_JOINT3:0.955620,0.000000,0.240639,0.169952 RLEG_JOINT2:0.997854,0.036000,0.000000,-0.054695 RLEG_JOINT4:0.994911,0.082016,0.000000,0.058532 WAIST:0.998467,-0.000000,0.054614,0.008955 WAIST_JOINT0:0.994069,-0.000000,0.104866,0.028799 WAIST_JOINT1:0.998885,0.046976,0.000000,-0.004616 END:
KINECT_DATA_Sensor  AnkleLeft:-0.064483,-0.699019,0.078020,0.707904 AnkleRight:0.088281,0.739625,0.078192,0.662607 ElbowLeft:-0.031906,0.812084,-0.186004,-0.552181 ElbowRight:-0.373800,0.919934,0.100759,0.061986 FootLeft:0.000000,0.000000,0.000000,0.000000 FootRight:0.000000,0.000000,0.000000,0.000000 HandLeft:-0.085905,0.755691,-0.056854,0.646776 HandRight:-0.432659,0.750641,-0.011897,-0.499203 HandTipLeft:0.000000,0.000000,0.000000,0.000000 HandTipRight:0.000000,0.000000,0.000000,0.000000 Head:0.000000,0.000000,0.000000,0.000000 HipLeft:0.096798,-0.681406,0.714004,-0.128507 HipRight:-0.173057,0.674850,0.687745,-0.204047 KneeLeft:0.018661,-0.666886,0.034550,0.744124 KneeRight:-0.010277,0.744861,0.057012,0.664700 Neck:-0.104288,0.005752,0.992626,-0.061521 ShoulderLeft:0.055845,0.777088,-0.626548,-0.021278 ShoulderRight:-0.077557,0.799180,0.579353,-0.140166 SpineBase:-0.055010,0.001167,0.998116,-0.027147 SpineMid:-0.079503,0.001833,0.996464,-0.027110 SpineShoulder:-0.104502,0.003549,0.993645,-0.041669 ThumbLeft:0.000000,0.000000,0.000000,0.000000 ThumbRight:0.000000,0.000000,0.000000,0.000000 WristLeft:-0.058975,0.762501,-0.149480,0.626714 WristRight:-0.401220,0.781135,0.052618,-0.475480 END:
KINECT_DATA POSITION:0.140411,-1.084957,-9.139895 HEAD_JOINT1:0.991945,0.125023,-0.000000,0.020345 LARM_JOINT2:0.816358,0.000000,0.026862,-0.576921 LARM_JOINT3:0.971372,0.000000,-0.200036,-0.128146 LLEG_JOINT2:0.999630,0.011337,0.000000,0.024738 LLEG_JOINT4:0.996404,0.082940,0.000000,-0.017316 RARM_JOINT2:0.803625,0.000000,0.453128,0.385826 RARM_JOINT3:0.950018,0.000000,0.249958,0.187050 RLEG_JOINT2:0.997256,0.042405,0.000000,-0.060675 RLEG_JOINT4:0.995371,0.076966,0.000000,0.057558 WAIST:0.997849,-0.000000,0.064172,0.013392 WAIST_JOINT0:0.991470,-0.000000,0.126137,0.032804 WAIST_JOINT1:0.998910,0.046569,0.000000,-0.003238 END:
KINECT_DATA_Sensor  AnkleLeft:0.062560,0.713658,-0.072245,-0.693944 AnkleRight:0.085547,0.740341,0.082203,0.661680 ElbowLeft:-0.027165,0.796183,-0.189014,-0.574133 ElbowRight:-0.383337,0.918666,0.090289,0.030871 FootLeft:0.000000,0.000000,0.000000,0.000000 FootRight:0.000000,0.000000,0.000000,0.000000 HandLeft:-0.090788,0.840761,-0.071726,0.528898 HandRight:0.417130,-0.329138,-0.179603,0.827897 HandTipLeft:0.000000,0.000000,0.000000,0.000000 HandTipRight:0.000000,0.000000,0.000000,0.000000 Head:0.000000,0.000000,0.000000,0.000000 HipLeft:0.093538,-0.679182,0.717256,-0.124522 HipRight:-0.182284,0.676121,0.682371,-0.209769 KneeLeft:0.017281,-0.659696,0.035529,0.750493 KneeRight:-0.007977,0.751441,0.062479,0.656787 Neck:-0.126039,0.011685,0.990071,-0.061133 ShoulderLeft:0.060598,0.772265,-0.631639,-0.031086 ShoulderRight:-0.101919,0.797477,0.571919,-0.162947 SpineBase:-0.064659,0.005394,0.997567,-0.025482 SpineMid:-0.095063,0.006169,0.995130,-0.025306 SpineShoulder:-0.126173,0.009457,0.991125,-0.040765 ThumbLeft:0.000000,0.000000,0.000000,0.000000 ThumbRight:0.000000,0.000000,0.000000,0.000000 WristLeft:-0.069091,0.842502,-0.145071,0.514170 WristRight:0.329830,-0.371077,-0.248352,0.831766 END:
KINECT_DATA POSITION:0.147007,-1.092641,-9.133566 HEAD_JOINT1:0.991911,0.126223,-0.000000,0.013454 LARM_JOINT2:0.815167,0.000000,0.026760,-0.578607 LARM_JOINT3:0.970537,0.000000,-0.204363,-0.127648 LLEG_JOINT2:0.999634,0.009928,0.000000,0.025170 LLEG_JOINT4:0.996070,0.087483,0.000000,-0.013806 RARM_JOINT2:0.797354,0.000000,0.464247,0.385618 RARM_JOINT3:0.951318,0.000000,0.249347,0.181163 RLEG_JOINT2:0.997301,0.043210,0.000000,-0.059354 RLEG_JOINT4:0.995396,0.077846,0.000000,0.055926 WAIST:0.997294,-0.000000,0.072282,0.013450 WAIST_JOINT0:0.990524,-0.000000,0.133243,0.033301 WAIST_JOINT1:0.998897,0.046944,0.000000,-0.000491 END:
KINECT_DATA_Sensor  AnkleLeft:0.063734,0.712152,-0.076314,-0.694948 AnkleRight:0.084512,0.736376,0.085450,0.665813 ElbowLeft:-0.026343,0.789762,-0.189866,-0.582694 ElbowRight:-0.387543,0.918404,0.079003,0.010189 FootLeft:0.000000,0.000000,0.000000,0.000000 FootRight:0.000000,0.000000,0.000000,0.000000 HandLeft:-0.096690,0.836175,-0.080148,0.533890 HandRight:-0.457161,0.761001,-0.112614,-0.446318 HandTipLeft:0.000000,0.000000,0.000000,0.000000 HandTipRight:0.000000,0.000000,0.000000,0.000000 Head:0.000000,0.000000,0.000000,0.000000 HipLeft:0.088867,-0.679775,0.717972,-0.120521 HipRight:-0.187765,0.675065,0.680829,-0.213315 KneeLeft:0.018457,-0.653600,0.035039,0.755803 KneeRight:-0.006992,0.756821,0.062035,0.650634 Neck:-0.133842,0.013672,0.988984,-0.061723 ShoulderLeft:0.064057,0.769593,-0.634356,-0.034880 ShoulderRight:-0.109047,0.795778,0.570739,-0.170597 SpineBase:-0.072705,0.007420,0.997011,-0.025059 SpineMid:-0.102950,0.008178,0.994343,-0.024822 SpineShoulder:-0.133906,0.011999,0.990070,-0.041072 ThumbLeft:0.000000,0.000000,0.000000,0.000000 ThumbRight:0.000000,0.000000,0.000000,0.000000 WristLeft:-0.066601,0.839207,-0.148501,0.518887 WristRight:-0.414655,0.807059,-0.031252,-0.419215 END:
KINECT_DATA POSITION:0.133200,-1.120850,-9.041047 HEAD_JOINT1:0.992083,0.125400,-0.000000,0.006852 LARM_JOINT2:0.814889,0.000000,0.022597,-0.579177 LARM_JOINT3:0.970589,0.000000,-0.203892,-0.128006 LLEG_JOINT2:0.999570,0.007088,0.000000,0.028458 LLEG_JOINT4:0.996259,0.085446,0.000000,-0.012950 RARM_JOINT2:0.786029,0.000000,0.483405,0.385329 RARM_JOINT3:0.949261,0.000000,0.253601,0.185986 RLEG_JOINT2:0.997298,0.047131,0.000000,-0.056349 RLEG_JOINT4:0.995433,0.075966,0.000000,0.057808 WAIST:0.996184,-0.000000,0.086453,0.012004 WAIST_JOINT0:0.989803,-0.000000,0.138576,0.032974 WAIST_JOINT1:0.998877,0.047285,-0.000000,0.002851 END:
KINECT_DATA_Sensor  AnkleLeft:0.061409,0.722993,-0.072999,-0.684237 AnkleRight:0.087416,0.747311,0.085762,0.653093 ElbowLeft:-0.025584,0.786121,-0.190169,-0.587533 ElbowRight:-0.395893,0.916403,0.056848,-0.015559 FootLeft:0.000000,0.000000,0.000000,0.000000 FootRight:0.000000,0.000000,0.000000,0.000000 HandLeft:-0.092444,0.832650,-0.089093,0.538711 HandRight:-0.443838,0.781724,-0.178900,-0.399888 HandTipLeft:0.000000,0.000000,0.000000,0.000000 HandTipRight:0.000000,0.000000,0.000000,0.000000 Head:0.000000,0.000000,0.000000,0.000000 HipLeft:0.082706,-0.681164,0.718228,-0.115427 HipRight:-0.198646,0.671104,0.678988,-0.221661 KneeLeft:0.021358,-0.642836,0.034834,0.764913 KneeRight:-0.004185,0.766044,0.063875,0.639593 Neck:-0.139749,0.014222,0.988119,-0.062362 ShoulderLeft:0.068905,0.767700,-0.635897,-0.039027 ShoulderRight:-0.112006,0.794139,0.571009,-0.175346 SpineBase:-0.086742,0.009223,0.995878,-0.024861 SpineMid:-0.112941,0.009875,0.993248,-0.024609 SpineShoulder:-0.139783,0.012933,0.989221,-0.041666 ThumbLeft:0.000000,0.000000,0.000000,0.000000 ThumbRight:0.000000,0.000000,0.000000,0.000000 WristLeft:-0.063952,0.835069,-0.150289,0.525341 WristRight:-0.418133,0.822818,-0.097357,-0.372366 END:
KINECT_DATA POSITION:0.118808,-1.115137,-8.998561 HEAD_JOINT1:0.992316,0.123728,0.000000,-0.000622 LARM_JOINT2:0.814111,0.000000,0.020671,-0.580341 LARM_JOINT3:0.970955,0.000000,-0.200084,-0.131201 LLEG_JOINT2:0.999513,0.000299,0.000000,0.031196 LLEG_JOINT4:0.995580,0.093581,0.000000,-0.007895 RARM_JOINT2:0.779451,0.000000,0.500089,0.377315 RARM_JOINT3:0.943174,0.000000,0.256944,0.210721 RLEG_JOINT2:0.997355,0.049356,0.000000,-0.053353 RLEG_JOINT4:0.995141,0.076817,0.000000,0.061595 WAIST:0.994575,-0.000000,0.103621,0.009140 WAIST_JOINT0:0.988735,-0.000000,0.146396,0.031157 WAIST_JOINT1:0.998860,0.047180,-0.000000,0.007299 END:
KINECT_DATA_Sensor  AnkleLeft:0.062618,0.722958,-0.075760,-0.683865 AnkleRight:0.088575,0.740403,0.089685,0.660238 ElbowLeft:-0.022540,0.780155,-0.190236,-0.595534 ElbowRight:-0.406209,0.909712,0.052863,-0.067993 FootLeft:0.000000,0.000000,0.000000,0.000000 FootRight:0.000000,0.000000,0.000000,0.000000 HandLeft:-0.073214,0.830020,-0.079025,0.547231 HandRight:-0.378910,0.833010,-0.287706,-0.282396 HandTipLeft:0.000000,0.000000,0.000000,0.000000 HandTipRight:0.000000,0.000000,0.000000,0.000000 Head:0.000000,0.000000,0.000000,0.000000 HipLeft:0.073254,-0.682878,0.718983,-0.106654 HipRight:-0.209989,0.665028,0.678757,-0.230069 KneeLeft:0.025876,-0.629624,0.030877,0.775855 KneeRight:-0.003705,0.776919,0.065504,0.626172 Neck:-0.147614,0.014580,0.986935,-0.062908 ShoulderLeft:0.076723,0.767199,-0.635067,-0.047005 ShoulderRight:-0.114103,0.791725,0.572469,-0.180084 SpineBase:-0.103730,0.009961,0.994249,-0.024696 SpineMid:-0.125431,0.010498,0.991745,-0.024472 SpineShoulder:-0.147656,0.013274,0.988056,-0.042041 ThumbLeft:0.000000,0.000000,0.000000,0.000000 ThumbRight:0.000000,0.000000,0.000000,0.000000 WristLeft:-0.064029,0.829119,-0.152322,0.534098 WristRight:-0.381420,0.867254,-0.199534,-0.250151 END:
KINECT_DATA POSITION:0.163651,-1.076162,-9.060181 HEAD_JOINT1:0.992401,0.122781,0.000000,-0.008126 LARM_JOINT2:0.814436,0.000000,0.023328,-0.579784 LARM_JOINT3:0.970779,0.000000,-0.200751,-0.131481 LLEG_JOINT2:0.999421,-0.004453,0.000000,0.033737 LLEG_JOINT4:0.995402,0.095454,0.000000,-0.007909 RARM_JOINT2:0.778685,0.000000,0.479872,0.404194 RARM_JOINT3:0.947685,0.000000,0.250686,0.197612 RLEG_JOINT2:0.997251,0.050031,0.000000,-0.054648 RLEG_JOINT4:0.994402,0.078428,0.000000,0.070807 WAIST:0.992606,-0.000000,0.121183,0.006889 WAIST_JOINT0:0.985026,-0.000000,0.170163,0.027716 WAIST_JOINT1:0.998822,0.047162,-0.000000,0.011393 END:
KINECT_DATA_Sensor  AnkleLeft:-0.050394,-0.604913,0.081459,0.790509 AnkleRight:0.091613,0.741273,0.091187,0.658640 ElbowLeft:-0.016411,0.774400,-0.193860,-0.602041 ElbowRight:-0.384233,0.921863,0.027124,-0.042394 FootLeft:0.000000,0.000000,0.000000,0.000000 FootRight:0.000000,0.000000,0.000000,0.000000 HandLeft:-0.052086,0.843840,-0.089376,0.526530 HandRight:-0.423406,0.733711,-0.200527,-0.492123 HandTipLeft:0.000000,0.000000,0.000000,0.000000 HandTipRight:0.000000,0.000000,0.000000,0.000000 Head:0.000000,0.000000,0.000000,0.000000 HipLeft:0.059589,-0.685189,0.719660,-0.095150 HipRight:-0.218606,0.660447,0.678058,-0.237190 KneeLeft:0.029155,-0.615911,0.028702,0.786753 KneeRight:-0.007139,0.787827,0.068241,0.612063 Neck:-0.171519,0.016240,0.983006,-0.063371 ShoulderLeft:0.083274,0.765822,-0.635023,-0.057690 ShoulderRight:-0.140296,0.781821,0.571714,-0.205467 SpineBase:-0.121128,0.011135,0.992250,-0.025364 SpineMid:-0.146039,0.011769,0.988891,-0.025076 SpineShoulder:-0.171607,0.014477,0.984147,-0.042383 ThumbLeft:0.000000,0.000000,0.000000,0.000000 ThumbRight:0.000000,0.000000,0.000000,0.000000 WristLeft:-0.065569,0.838717,-0.151022,0.519083 WristRight:-0.416291,0.782741,-0.095113,-0.452737 END:
KINECT_DATA POSITION:0.233185,-1.043798,-9.162104 HEAD_JOINT1:0.994020,0.108335,0.000000,-0.013730 LARM_JOINT2:0.814488,0.000000,0.018209,-0.579895 LARM_JOINT3:0.970097,0.000000,-0.205360,-0.129383 LLEG_JOINT2:0.999392,-0.005167,0.000000,0.034470 LLEG_JOINT4:0.995541,0.094272,0.000000,-0.003339 RARM_JOINT2:0.777793,0.000000,0.478986,0.406952 RARM_JOINT3:0.951244,0.000000,0.245079,0.187276 RLEG_JOINT2:0.997127,0.053260,0.000000,-0.053863 RLEG_JOINT4:0.994974,0.072230,0.000000,0.069358 WAIST:0.991537,-0.000000,0.129719,0.005201 WAIST_JOINT0:0.983126,-0.000000,0.180772,0.028011 WAIST_JOINT1:0.998446,0.053500,-0.000000,0.015608 END:
KINECT_DATA_Sensor  AnkleLeft:0.059827,0.714910,-0.074404,-0.692668 AnkleRight:0.095179,0.803328,0.082703,0.582035 ElbowLeft:-0.013853,0.769182,-0.197168,-0.607694 ElbowRight:-0.376263,0.925508,0.017181,-0.039582 FootLeft:0.000000,0.000000,0.000000,0.000000 FootRight:0.000000,0.000000,0.000000,0.000000 HandLeft:-0.042046,0.804938,-0.101971,0.583017 HandRight:-0.406275,0.762887,-0.213421,-0.455407 HandTipLeft:0.000000,0.000000,0.000000,0.000000 HandTipRight:0.000000,0.000000,0.000000,0.000000 Head:0.000000,0.000000,0.000000,0.000000 HipLeft:0.052038,-0.686898,0.719004,-0.092173 HipRight:-0.222510,0.657662,0.677610,-0.242519 KneeLeft:0.028764,-0.609339,0.027871,0.791898 KneeRight:-0.006335,0.793057,0.071406,0.604914 Neck:-0.182154,0.018427,0.980485,-0.071616 ShoulderLeft:0.097513,0.766363,-0.631582,-0.065451 ShoulderRight:-0.138966,0.781775,0.568429,-0.215419 SpineBase:-0.129502,0.012444,0.991106,-0.027990 SpineMid:-0.155555,0.013176,0.987352,-0.027653 SpineShoulder:-0.182322,0.016063,0.981902,-0.048667 ThumbLeft:0.000000,0.000000,0.000000,0.000000 ThumbRight:0.000000,0.000000,0.000000,0.000000 WristLeft:-0.051714,0.800542,-0.156800,0.576083 WristRight:-0.408477,0.802935,-0.115834,-0.418358 END:
KINECT_DATA POSITION:0.345720,-1.010610,-9.364975 HEAD_JOINT1:0.993319,0.113688,0.000000,-0.019824 LARM_JOINT2:0.815143,0.000000,0.020596,-0.578893 LARM_JOINT3:0.967733,0.000000,-0.210918,-0.137863 LLEG_JOINT2:0.999330,-0.007718,0.000000,0.035784 LLEG_JOINT4:0.995326,0.096565,0.000000,-0.000764 RARM_JOINT2:0.780132,0.000000,0.473010,0.409458 RARM_JOINT3:0.953991,0.000000,0.241300,0.177975 RLEG_JOINT2:0.997069,0.054620,0.000000,-0.053566 RLEG_JOINT4:0.994954,0.068956,0.000000,0.072875 WAIST:0.990361,-0.000000,0.138455,0.003808 WAIST_JOINT0:0.982202,-0.000000,0.185511,0.029419 WAIST_JOINT1:0.998456,0.052562,-0.000000,0.017980 END:
KINECT_DATA_Sensor  AnkleLeft:0.059910,0.715157,-0.075461,-0.692291 AnkleRight:0.088516,0.760265,0.087923,0.637520 ElbowLeft:-0.010832,0.766537,-0.199730,-0.610255 ElbowRight:-0.373281,0.926768,0.014342,-0.039445 FootLeft:0.000000,0.000000,0.000000,0.000000 FootRight:0.000000,0.000000,0.000000,0.000000 HandLeft:-0.066204,0.817759,-0.102880,0.562409 HandRight:-0.368007,0.839290,-0.270322,-0.295110 HandTipLeft:0.000000,0.000000,0.000000,0.000000 HandTipRight:0.000000,0.000000,0.000000,0.000000 Head:0.000000,0.000000,0.000000,0.000000 HipLeft:0.046403,-0.688499,0.718161,-0.089783 HipRight:-0.227316,0.655267,0.676437,-0.247759 KneeLeft:0.030387,-0.602508,0.026627,0.797089 KneeRight:-0.006901,0.798348,0.073206,0.597691 Neck:-0.187100,0.018562,0.979646,-0.070306 ShoulderLeft:0.099118,0.763978,-0.634037,-0.067161 ShoulderRight:-0.144515,0.779757,0.567911,-0.220389 SpineBase:-0.138079,0.013793,0.989881,-0.029663 SpineMid:-0.162304,0.014516,0.986198,-0.029316 SpineShoulder:-0.187234,0.016513,0.980981,-0.048442 ThumbLeft:0.000000,0.000000,0.000000,0.000000 ThumbRight:0.000000,0.000000,0.000000,0.000000 WristLeft:-0.055064,0.816738,-0.155298,0.552982 WristRight:-0.378398,0.866866,-0.188671,-0.264125 END:
KINECT_DATA POSITION:0.398280,-1.009551,-9.408951 HEAD_JOINT1:0.992974,0.116401,0.000000,-0.021316 LARM_JOINT2:0.814794,0.000000,0.020528,-0.579387 LARM_JOINT3:0.966224,0.000000,-0.216425,-0.139895 LLEG_JOINT2:0.999252,-0.008497,0.000000,0.037723 LLEG_JOINT4:0.995229,0.097461,0.000000,-0.004450 RARM_JOINT2:0.777998,0.000000,0.478425,0.407220 RARM_JOINT3:0.956907,0.000000,0.233880,0.172128 RLEG_JOINT2:0.997004,0.055577,0.000000,-0.053791 RLEG_JOINT4:0.994903,0.067931,0.000000,0.074525 WAIST:0.990426,-0.000000,0.138001,0.003428 WAIST_JOINT0:0.982964,-0.000000,0.181360,0.029834 WAIST_JOINT1:0.998479,0.052053,-0.000000,0.018196 END:
KINECT_DATA_Sensor  AnkleLeft:0.060781,0.713141,-0.073885,-0.694461 AnkleRight:0.095412,0.803506,0.080655,0.582039 ElbowLeft:-0.010938,0.767409,-0.198850,-0.609444 ElbowRight:-0.376983,0.924992,0.013150,-0.045840 FootLeft:0.000000,0.000000,0.000000,0.000000 FootRight:0.000000,0.000000,0.000000,0.000000 HandLeft:-0.093330,0.844655,-0.109040,0.515710 HandRight:-0.423660,0.751299,-0.158341,-0.480615 HandTipLeft:0.000000,0.000000,0.000000,0.000000 HandTipRight:0.000000,0.000000,0.000000,0.000000 Head:0.000000,0.000000,0.000000,0.000000 HipLeft:0.047464,-0.688652,0.717787,-0.091035 HipRight:-0.227663,0.654965,0.676511,-0.248040 KneeLeft:0.031919,-0.602841,0.027425,0.796751 KneeRight:-0.006724,0.798063,0.074378,0.597928 Neck:-0.182954,0.018088,0.980491,-0.069551 ShoulderLeft:0.099185,0.763219,-0.635046,-0.066145 ShoulderRight:-0.138784,0.780699,0.570095,-0.215033 SpineBase:-0.137599,0.013828,0.989944,-0.029776 SpineMid:-0.160012,0.014500,0.986569,-0.029455 SpineShoulder:-0.183063,0.016277,0.981787,-0.048141 ThumbLeft:0.000000,0.000000,0.000000,0.000000 ThumbRight:0.000000,0.000000,0.000000,0.000000 WristLeft:-0.064324,0.846813,-0.151227,0.505866 WristRight:-0.412526,0.780827,-0.093127,-0.459847 END:
KINECT_DATA POSITION:0.408907,-1.014666,-9.414458 HEAD_JOINT1:0.993223,0.114294,0.000000,-0.021080 LARM_JOINT2:0.814084,0.000000,0.016391,-0.580516 LARM_JOINT3:0.966437,0.000000,-0.214422,-0.141504 LLEG_JOINT2:0.999311,-0.008590,0.000000,0.036099 LLEG_JOINT4:0.995385,0.095855,0.000000,-0.004440 RARM_JOINT2:0.782134,0.000000,0.484102,0.392316 RARM_JOINT3:0.954216,0.000000,0.237892,0.181325 RLEG_JOINT2:0.997097,0.054341,0.000000,-0.053326 RLEG_JOINT4:0.994758,0.071116,0.000000,0.073474 WAIST:0.990566,-0.000000,0.136989,0.003593 WAIST_JOINT0:0.984540,-0.000000,0.172596,0.029869 WAIST_JOINT1:0.998430,0.053083,-0.000000,0.017857 END:
KINECT_DATA_Sensor  AnkleLeft:0.058956,0.705253,-0.072628,-0.702757 AnkleRight:0.095910,0.799407,0.082866,0.587267 ElbowLeft:-0.011860,0.771428,-0.196672,-0.605044 ElbowRight:-0.387003,0.919186,0.028749,-0.067075 FootLeft:0.000000,0.000000,0.000000,0.000000 FootRight:0.000000,0.000000,0.000000,0.000000 HandLeft:-0.101801,0.841185,-0.103457,0.520904 HandRight:-0.427472,0.759057,-0.150798,-0.467290 HandTipLeft:0.000000,0.000000,0.000000,0.000000 HandTipRight:0.000000,0.000000,0.000000,0.000000 Head:0.000000,0.000000,0.000000,0.000000 HipLeft:0.047661,-0.688540,0.717753,-0.092042 HipRight:-0.226589,0.655170,0.676662,-0.248068 KneeLeft:0.031156,-0.603700,0.026160,0.796173 KneeRight:-0.006921,0.797435,0.073004,0.598932 Neck:-0.174040,0.017222,0.982092,-0.070056 ShoulderLeft:0.101520,0.764224,-0.633607,-0.064788 ShoulderRight:-0.123486,0.784622,0.572369,-0.203747 SpineBase:-0.136592,0.013617,0.990065,-0.030470 SpineMid:-0.155101,0.014185,0.987335,-0.030210 SpineShoulder:-0.174127,0.015694,0.983356,-0.049439 ThumbLeft:0.000000,0.000000,0.000000,0.000000 ThumbRight:0.000000,0.000000,0.000000,0.000000 WristLeft:-0.064336,0.845001,-0.149038,0.509531 WristRight:-0.409128,0.783074,-0.104654,-0.456571 END:
KINECT_DATA POSITION:0.393490,-1.030148,-9.381639 HEAD_JOINT1:0.993574,0.110974,0.000000,-0.022281 LARM_JOINT2:0.813138,0.000000,0.013241,-0.581920 LARM_JOINT3:0.967437,0.000000,-0.211500,-0.139042 LLEG_JOINT2:0.999370,-0.008303,0.000000,0.034506 LLEG_JOINT4:0.995609,0.093600,0.000000,0.001013 RARM_JOINT2:0.779492,0.000000,0.486704,0.394350 RARM_JOINT3:0.956329,0.000000,0.235602,0.172992 RLEG_JOINT2:0.997070,0.053911,0.000000,-0.054271 RLEG_JOINT4:0.994769,0.070132,0.000000,0.074269 WAIST:0.990781,-0.000000,0.135422,0.003604 WAIST_JOINT0:0.984784,-0.000000,0.171209,0.029787 WAIST_JOINT1:0.998358,0.054329,-0.000000,0.018166 END:
KINECT_DATA_Sensor  AnkleLeft:0.057817,0.730408,-0.073205,-0.676611 AnkleRight:0.095102,0.798922,0.081648,0.588229 ElbowLeft:-0.012578,0.773813,-0.194950,-0.602535 ElbowRight:-0.385658,0.920431,0.022271,-0.059827 FootLeft:0.000000,0.000000,0.000000,0.000000 FootRight:0.000000,0.000000,0.000000,0.000000 HandLeft:-0.090451,0.800793,-0.109380,0.581881 HandRight:-0.438998,0.737877,-0.141655,-0.492699 HandTipLeft:0.000000,0.000000,0.000000,0.000000 HandTipRight:0.000000,0.000000,0.000000,0.000000 Head:0.000000,0.000000,0.000000,0.000000 HipLeft:0.047770,-0.688396,0.717652,-0.093833 HipRight:-0.224729,0.655360,0.677189,-0.247819 KneeLeft:0.030008,-0.605046,0.025028,0.795231 KneeRight:-0.007806,0.796458,0.073244,0.600190 Neck:-0.172698,0.017427,0.982239,-0.071267 ShoulderLeft:0.103762,0.764922,-0.632353,-0.065249 ShoulderRight:-0.118915,0.786262,0.571787,-0.201768 SpineBase:-0.135003,0.013626,0.990243,-0.031745 SpineMid:-0.153637,0.014222,0.987523,-0.031483 SpineShoulder:-0.172773,0.016017,0.983526,-0.050694 ThumbLeft:0.000000,0.000000,0.000000,0.000000 ThumbRight:0.000000,0.000000,0.000000,0.000000 WristLeft:-0.052603,0.804896,-0.151658,0.571293 WristRight:-0.414184,0.769848,-0.083361,-0.478369 END:
KINECT_DATA POSITION:0.372173,-1.031465,-9.386301 HEAD_JOINT1:0.992783,0.117909,0.000000,-0.021882 LARM_JOINT2:0.813021,0.000000,0.013770,-0.582072 LARM_JOINT3:0.967690,0.000000,-0.209966,-0.139606 LLEG_JOINT2:0.999336,-0.008431,0.000000,0.035436 LLEG_JOINT4:0.995385,0.095966,0.000000,-0.000381 RARM_JOINT2:0.786399,0.000000,0.486142,0.381108 RARM_JOINT3:0.950358,0.000000,0.244443,0.192530 RLEG_JOINT2:0.997113,0.052871,0.000000,-0.054496 RLEG_JOINT4:0.994605,0.071211,0.000000,0.075426 WAIST:0.991009,-0.000000,0.133747,0.003538 WAIST_JOINT0:0.985375,-0.000000,0.167725,0.030063 WAIST_JOINT1:0.998450,0.052774,-0.000000,0.017659 END:
KINECT_DATA_Sensor  AnkleLeft:0.060208,0.733745,-0.073633,-0.672734 AnkleRight:0.095859,0.797151,0.081094,0.590580 ElbowLeft:-0.013195,0.776145,-0.193849,-0.599873 ElbowRight:-0.394305,0.914773,0.042426,-0.076904 FootLeft:0.000000,0.000000,0.000000,0.000000 FootRight:0.000000,0.000000,0.000000,0.000000 HandLeft:-0.089398,0.791203,-0.110606,0.594787 HandRight:-0.368056,0.861333,-0.266725,-0.226930 HandTipLeft:0.000000,0.000000,0.000000,0.000000 HandTipRight:0.000000,0.000000,0.000000,0.000000 Head:0.000000,0.000000,0.000000,0.000000 HipLeft:0.048979,-0.688485,0.717454,-0.094069 HipRight:-0.223662,0.655973,0.677525,-0.246243 KneeLeft:0.030665,-0.606331,0.025596,0.794208 KneeRight:-0.008542,0.795429,0.072620,0.601619 Neck:-0.169226,0.016874,0.982971,-0.069614 ShoulderLeft:0.100259,0.764207,-0.634022,-0.062867 ShoulderRight:-0.118237,0.786086,0.573380,-0.198304 SpineBase:-0.133345,0.013437,0.990491,-0.031083 SpineMid:-0.151078,0.013992,0.987942,-0.030837 SpineShoulder:-0.169283,0.015630,0.984218,-0.049130 ThumbLeft:0.000000,0.000000,0.000000,0.000000 ThumbRight:0.000000,0.000000,0.000000,0.000000 WristLeft:-0.050955,0.795507,-0.151392,0.584510 WristRight:-0.359608,0.880284,-0.222628,-0.214988 END:
KINECT_DATA POSITION:0.352457,-1.041640,-9.387743 HEAD_JOINT1:0.993013,0.115867,0.000000,-0.022382 LARM_JOINT2:0.812738,0.000000,0.012095,-0.582504 LARM_JOINT3:0.968557,0.000000,-0.207624,-0.137071 LLEG_JOINT2:0.999355,-0.007556,0.000000,0.035100 LLEG_JOINT4:0.995322,0.096612,0.000000,-0.000792 RARM_JOINT2:0.797052,0.000000,0.473815,0.374443 RARM_JOINT3:0.941562,0.000000,0.266115,0.206505 RLEG_JOINT2:0.997110,0.053138,0.000000,-0.054296 RLEG_JOINT4:0.994681,0.072281,0.000000,0.073389 WAIST:0.991231,-0.000000,0.132087,0.003650 WAIST_JOINT0:0.984433,-0.000000,0.173381,0.028829 WAIST_JOINT1:0.998383,0.053988,-0.000000,0.017805 END:
KINECT_DATA_Sensor  AnkleLeft:0.060325,0.722087,-0.074995,-0.685074 AnkleRight:0.090168,0.758060,0.088782,0.639791 ElbowLeft:-0.013351,0.778080,-0.193554,-0.597453 ElbowRight:-0.392119,0.915154,0.060353,-0.071371 FootLeft:0.000000,0.000000,0.000000,0.000000 FootRight:0.000000,0.000000,0.000000,0.000000 HandLeft:-0.082913,0.797558,-0.109484,0.587400 HandRight:-0.439660,0.764749,-0.163338,-0.441791 HandTipLeft:0.000000,0.000000,0.000000,0.000000 HandTipRight:0.000000,0.000000,0.000000,0.000000 Head:0.000000,0.000000,0.000000,0.000000 HipLeft:0.049803,-0.688328,0.717347,-0.095594 HipRight:-0.222435,0.656358,0.677755,-0.245693 KneeLeft:0.029883,-0.607689,0.025893,0.793190 KneeRight:-0.008016,0.794425,0.072648,0.602948 Neck:-0.175105,0.017625,0.981834,-0.070914 ShoulderLeft:0.100349,0.764713,-0.633334,-0.063506 ShoulderRight:-0.126339,0.783733,0.571979,-0.206496 SpineBase:-0.131682,0.013556,0.990696,-0.031593 SpineMid:-0.153141,0.014238,0.987606,-0.031291 SpineShoulder:-0.175176,0.016253,0.983126,-0.050124 ThumbLeft:0.000000,0.000000,0.000000,0.000000 ThumbRight:0.000000,0.000000,0.000000,0.000000 WristLeft:-0.051705,0.800505,-0.149689,0.578025 WristRight:-0.402365,0.790572,-0.130140,-0.442902 END:
KINECT_DATA POSITION:0.328183,-1.049505,-9.415043 HEAD_JOINT1:0.992475,0.120613,0.000000,-0.021132 LARM_JOINT2:0.813486,0.000000,0.011665,-0.581467 LARM_JOINT3:0.967344,0.000000,-0.211895,-0.139093 LLEG_JOINT2:0.999382,-0.007106,0.000000,0.034436 LLEG_JOINT4:0.995242,0.097429,0.000000,-0.001298 RARM_JOINT2:0.792423,0.000000,0.476746,0.380499 RARM_JOINT3:0.947341,0.000000,0.257364,0.190549 RLEG_JOINT2:0.997129,0.052955,0.000000,-0.054126 RLEG_JOINT4:0.994780,0.071414,0.000000,0.072895 WAIST:0.991551,-0.000000,0.129649,0.004093 WAIST_JOINT0:0.985590,-0.000000,0.166609,0.029213 WAIST_JOINT1:0.998482,0.052552,-0.000000,0.016499 END:
KINECT_DATA_Sensor  AnkleLeft:0.059846,0.708081,-0.076447,-0.699425 AnkleRight:0.095348,0.796732,0.081594,0.591160 ElbowLeft:-0.014768,0.782211,-0.193271,-0.592094 ElbowRight:-0.391909,0.917095,0.047784,-0.055331 FootLeft:0.000000,0.000000,0.000000,0.000000 FootRight:0.000000,0.000000,0.000000,0.000000 HandLeft:-0.115298,0.848284,-0.112580,0.504428 HandRight:0.467219,-0.592211,0.019110,0.656222 HandTipLeft:0.000000,0.000000,0.000000,0.000000 HandTipRight:0.000000,0.000000,0.000000,0.000000 Head:0.000000,0.000000,0.000000,0.000000 HipLeft:0.051323,-0.688110,0.717425,-0.095774 HipRight:-0.220680,0.657518,0.677971,-0.243568 KneeLeft:0.029495,-0.609577,0.025884,0.791755 KneeRight:-0.007500,0.792958,0.072112,0.604947 Neck:-0.168296,0.016632,0.983157,-0.069298 ShoulderLeft:0.096310,0.764303,-0.634814,-0.059797 ShoulderRight:-0.121575,0.784754,0.574128,-0.199395 SpineBase:-0.129301,0.013227,0.991040,-0.030753 SpineMid:-0.148566,0.013823,0.988336,-0.030490 SpineShoulder:-0.168348,0.015460,0.984406,-0.048634 ThumbLeft:0.000000,0.000000,0.000000,0.000000 ThumbRight:0.000000,0.000000,0.000000,0.000000 WristLeft:-0.066315,0.854419,-0.142443,0.495257 WristRight:0.425542,-0.617585,-0.020895,0.661110 END:
KINECT_DATA POSITION:0.307347,-1.067726,-9.428954 HEAD_JOINT1:0.992250,0.122564,0.000000,-0.020449 LARM_JOINT2:0.813903,0.000000,0.010719,-0.580902 LARM_JOINT3:0.968548,0.000000,-0.208556,-0.135719 LLEG_JOINT2:0.999418,-0.008061,0.000000,0.033139 LLEG_JOINT4:0.995257,0.097277,0.000000,-0.000893 RARM_JOINT2:0.798406,0.000000,0.478375,0.365657 RARM_JOINT3:0.941959,0.000000,0.261438,0.210624 RLEG_JOINT2:0.997182,0.051727,0.000000,-0.054342 RLEG_JOINT4:0.994804,0.071246,0.000000,0.072731 WAIST:0.991833,-0.000000,0.127464,0.004454 WAIST_JOINT0:0.986423,-0.000000,0.161525,0.029642 WAIST_JOINT1:0.998512,0.052235,-0.000000,0.015658 END:
KINECT_DATA_Sensor  AnkleLeft:-0.057125,-0.692860,0.076948,0.714675 AnkleRight:0.087983,0.746357,0.087512,0.653875 ElbowLeft:-0.016369,0.783379,-0.193011,-0.590589 ElbowRight:-0.400490,0.910912,0.067407,-0.072820 FootLeft:0.000000,0.000000,0.000000,0.000000 FootRight:0.000000,0.000000,0.000000,0.000000 HandLeft:-0.101242,0.844281,-0.113989,0.513757 HandRight:-0.364960,0.870796,-0.262569,-0.198940 HandTipLeft:0.000000,0.000000,0.000000,0.000000 HandTipRight:0.000000,0.000000,0.000000,0.000000 Head:0.000000,0.000000,0.000000,0.000000 HipLeft:0.052714,-0.687833,0.717510,-0.096372 HipRight:-0.219354,0.658267,0.678157,-0.242221 KneeLeft:0.029765,-0.611288,0.024468,0.790470 KneeRight:-0.008014,0.791619,0.071040,0.606818 Neck:-0.163198,0.016066,0.984051,-0.068939 ShoulderLeft:0.093802,0.764424,-0.635319,-0.056809 ShoulderRight:-0.117348,0.786092,0.574870,-0.194456 SpineBase:-0.127159,0.012887,0.991335,-0.030333 SpineMid:-0.144963,0.013430,0.988888,-0.030096 SpineShoulder:-0.163242,0.014994,0.985292,-0.048240 ThumbLeft:0.000000,0.000000,0.000000,0.000000 ThumbRight:0.000000,0.000000,0.000000,0.000000 WristLeft:-0.064844,0.848146,-0.143800,0.505732 WristRight:-0.352637,0.883492,-0.238733,-0.195182 END:
KINECT_DATA POSITION:0.270183,-1.101401,-9.419096 HEAD_JOINT1:0.993108,0.115709,0.000000,-0.018675 LARM_JOINT2:0.813973,0.000000,0.008679,-0.580838 LARM_JOINT3:0.969323,0.000000,-0.204098,-0.136957 LLEG_JOINT2:0.999404,-0.006885,0.000000,0.033817 LLEG_JOINT4:0.995355,0.096239,0.000000,-0.002383 RARM_JOINT2:0.799981,0.000000,0.474978,0.366641 RARM_JOINT3:0.940378,0.000000,0.263848,0.214650 RLEG_JOINT2:0.997159,0.052378,0.000000,-0.054126 RLEG_JOINT4:0.994716,0.072724,0.000000,0.072463 WAIST:0.992083,-0.000000,0.125484,0.005076 WAIST_JOINT0:0.985691,-0.000000,0.166176,0.028257 WAIST_JOINT1:0.998350,0.055408,-0.000000,0.015070 END:
KINECT_DATA_Sensor  AnkleLeft:0.059480,0.716008,-0.075117,-0.691486 AnkleRight:0.087940,0.731171,0.090537,0.670417 ElbowLeft:-0.015965,0.783422,-0.193591,-0.590354 ElbowRight:-0.395722,0.913131,0.070184,-0.068339 FootLeft:0.000000,0.000000,0.000000,0.000000 FootRight:0.000000,0.000000,0.000000,0.000000 HandLeft:-0.092854,0.850944,-0.093740,0.508415 HandRight:-0.395578,0.826740,-0.201360,-0.345649 HandTipLeft:0.000000,0.000000,0.000000,0.000000 HandTipRight:0.000000,0.000000,0.000000,0.000000 Head:0.000000,0.000000,0.000000,0.000000 HipLeft:0.052980,-0.687100,0.717876,-0.098696 HipRight:-0.217216,0.658533,0.678463,-0.242569 KneeLeft:0.029733,-0.612832,0.026111,0.789222 KneeRight:-0.006860,0.790413,0.071003,0.608407 Neck:-0.167876,0.016318,0.983028,-0.072155 ShoulderLeft:0.097674,0.765859,-0.632857,-0.058417 ShoulderRight:-0.119379,0.785067,0.573761,-0.200543 SpineBase:-0.125203,0.012612,0.991532,-0.032079 SpineMid:-0.146295,0.013292,0.988640,-0.031803 SpineShoulder:-0.167940,0.015226,0.984353,-0.051115 ThumbLeft:0.000000,0.000000,0.000000,0.000000 ThumbRight:0.000000,0.000000,0.000000,0.000000 WristLeft:-0.065627,0.852856,-0.143019,0.497871 WristRight:-0.385144,0.839454,-0.175778,-0.340711 END:
KINECT_DATA POSITION:0.250970,-1.110238,-9.405923 HEAD_JOINT1:0.992503,0.120899,0.000000,-0.017908 LARM_JOINT2:0.814345,0.000000,0.010161,-0.580292 LARM_JOINT3:0.969124,0.000000,-0.203738,-0.138887 LLEG_JOINT2:0.999400,-0.007270,0.000000,0.033854 LLEG_JOINT4:0.995576,0.093956,0.000000,-0.000982 RARM_JOINT2:0.798850,0.000000,0.478494,0.364529 RARM_JOINT3:0.938158,0.000000,0.270982,0.215472 RLEG_JOINT2:0.997166,0.051765,0.000000,-0.054594 RLEG_JOINT4:0.994906,0.071295,0.000000,0.071272 WAIST:0.992176,-0.000000,0.124740,0.005111 WAIST_JOINT0:0.986161,-0.000000,0.163233,0.028995 WAIST_JOINT1:0.998424,0.054255,-0.000000,0.014382 END:
KINECT_DATA_Sensor  AnkleLeft:0.056673,0.719461,-0.074916,-0.688151 AnkleRight:0.088497,0.753109,0.086756,0.646118 ElbowLeft:-0.015513,0.785343,-0.193653,-0.587788 ElbowRight:-0.398983,0.910958,0.072220,-0.075847 FootLeft:0.000000,0.000000,0.000000,0.000000 FootRight:0.000000,0.000000,0.000000,0.000000 HandLeft:-0.094634,0.843854,-0.094316,0.519673 HandRight:-0.438702,0.765694,-0.170843,-0.438253 HandTipLeft:0.000000,0.000000,0.000000,0.000000 HandTipRight:0.000000,0.000000,0.000000,0.000000 Head:0.000000,0.000000,0.000000,0.000000 HipLeft:0.053854,-0.687116,0.717784,-0.098778 HipRight:-0.216991,0.658782,0.678477,-0.242055 KneeLeft:0.030102,-0.613384,0.025908,0.788786 KneeRight:-0.007529,0.789945,0.070791,0.609032 Neck:-0.164877,0.015510,0.983660,-0.070628 ShoulderLeft:0.095542,0.765280,-0.634032,-0.056749 ShoulderRight:-0.117693,0.785513,0.574628,-0.197280 SpineBase:-0.124480,0.012296,0.991642,-0.031604 SpineMid:-0.144442,0.012930,0.988932,-0.031350 SpineShoulder:-0.164925,0.014638,0.984927,-0.050050 ThumbLeft:0.000000,0.000000,0.000000,0.000000 ThumbRight:0.000000,0.000000,0.000000,0.000000 WristLeft:-0.063997,0.846474,-0.142508,0.508997 WristRight:-0.401693,0.794087,-0.131593,-0.436751 END:
KINECT_DATA POSITION:0.242130,-1.006934,-9.362232 HEAD_JOINT1:0.992111,0.124071,0.000000,-0.017921 LARM_JOINT2:0.813405,0.000000,0.013243,-0.581547 LARM_JOINT3:0.969866,0.000000,-0.202910,-0.134862 LLEG_JOINT2:0.999215,-0.007473,0.000000,0.038910 LLEG_JOINT4:0.995263,0.097087,0.000000,-0.005077 RARM_JOINT2:0.793398,0.000000,0.470562,0.386124 RARM_JOINT3:0.925912,0.000000,0.325799,0.191159 RLEG_JOINT2:0.997418,0.048094,0.000000,-0.053333 RLEG_JOINT4:0.994368,0.074877,0.000000,0.075007 WAIST:0.991754,-0.000000,0.128150,0.001534 WAIST_JOINT0:0.984437,-0.000000,0.173504,0.027947 WAIST_JOINT1:0.998493,0.051815,-0.000000,0.018097 END:
KINECT_DATA_Sensor  AnkleLeft:-0.049128,-0.603132,0.082525,0.791838 AnkleRight:0.090071,0.758390,0.085980,0.639796 ElbowLeft:-0.015450,0.778292,-0.192499,-0.597467 ElbowRight:-0.388657,0.920883,0.030142,-0.003409 FootLeft:0.000000,0.000000,0.000000,0.000000 FootRight:0.000000,0.000000,0.000000,0.000000 HandLeft:-0.077899,0.849118,-0.093106,0.514063 HandRight:-0.466893,0.752859,-0.295632,-0.357514 HandTipLeft:0.000000,0.000000,0.000000,0.000000 HandTipRight:0.000000,0.000000,0.000000,0.000000 Head:0.000000,0.000000,0.000000,0.000000 HipLeft:0.052986,-0.689361,0.715946,-0.096924 HipRight:-0.220927,0.655701,0.679850,-0.243005 KneeLeft:0.030742,-0.610775,0.027358,0.790734 KneeRight:-0.011566,0.791855,0.069608,0.606619 Neck:-0.175240,0.016341,0.982029,-0.068141 ShoulderLeft:0.093263,0.764832,-0.634655,-0.059558 ShoulderRight:-0.134741,0.780996,0.572680,-0.209588 SpineBase:-0.127683,0.012260,0.991269,-0.030528 SpineMid:-0.151186,0.012982,0.987958,-0.030229 SpineShoulder:-0.175311,0.015090,0.983218,-0.048167 ThumbLeft:0.000000,0.000000,0.000000,0.000000 ThumbRight:0.000000,0.000000,0.000000,0.000000 WristLeft:-0.066255,0.848298,-0.145864,0.504702 WristRight:-0.420498,0.818346,-0.202906,-0.335141 END:
KINECT_DATA POSITION:0.242339,-0.649364,-9.327579 HEAD_JOINT1:0.991971,0.124868,0.000000,-0.020012 LARM_JOINT2:0.811317,0.000000,0.028985,-0.583887 LARM_JOINT3:0.970163,0.000000,-0.207906,-0.124734 LLEG_JOINT2:0.999337,-0.006038,0.000000,0.035904 LLEG_JOINT4:0.995632,0.093362,0.000000,-0.000421 RARM_JOINT2:0.795810,0.000000,0.473212,0.377832 RARM_JOINT3:0.897998,0.000000,0.395174,0.193488 RLEG_JOINT2:0.997415,0.047745,0.000000,-0.053703 RLEG_JOINT4:0.994023,0.078695,0.000000,0.075669 WAIST:0.990808,-0.000000,0.135215,0.003957 WAIST_JOINT0:0.981961,-0.000000,0.186742,0.029668 WAIST_JOINT1:0.998621,0.049345,-0.000000,0.017897 END:
KINECT_DATA_Sensor  AnkleLeft:0.058098,0.718333,-0.075416,-0.689155 AnkleRight:0.099398,0.805389,0.080827,0.578737 ElbowLeft:-0.012457,0.746828,-0.194996,-0.635664 ElbowRight:-0.398097,0.916377,0.006219,0.041634 FootLeft:0.000000,0.000000,0.000000,0.000000 FootRight:0.000000,0.000000,0.000000,0.000000 HandLeft:-0.039154,0.820459,-0.085590,0.563904 HandRight:0.516114,-0.642676,0.238728,0.513423 HandTipLeft:0.000000,0.000000,0.000000,0.000000 HandTipRight:0.000000,0.000000,0.000000,0.000000 Head:0.000000,0.000000,0.000000,0.000000 HipLeft:0.048842,-0.688415,0.717950,-0.090810 HipRight:-0.225440,0.656507,0.676852,-0.245045 KneeLeft:0.029306,-0.605075,0.027752,0.795145 KneeRight:-0.010871,0.796328,0.067749,0.600961 Neck:-0.187113,0.019399,0.979968,-0.065385 ShoulderLeft:0.100507,0.763644,-0.633679,-0.072082 ShoulderRight:-0.142721,0.779032,0.571003,-0.216092 SpineBase:-0.134870,0.013772,0.990353,-0.028650 SpineMid:-0.160697,0.014516,0.986492,-0.028280 SpineShoulder:-0.187217,0.017148,0.981108,-0.045644 ThumbLeft:0.000000,0.000000,0.000000,0.000000 ThumbRight:0.000000,0.000000,0.000000,0.000000 WristLeft:-0.051337,0.814876,-0.164608,0.553395 WristRight:0.510045,-0.684536,0.171854,0.491661 END:
KINECT_DATA POSITION:0.330216,-0.198846,-9.341013 HEAD_JOINT1:0.991718,0.123917,0.000000,-0.033754 LARM_JOINT2:0.813128,0.000000,0.009766,-0.582003 LARM_JOINT3:0.974715,0.000000,-0.183121,-0.128052 LLEG_JOINT2:0.999504,-0.006145,0.000000,0.030889 LLEG_JOINT4:0.995171,0.098152,0.000000,0.000681 RARM_JOINT2:0.787429,0.000000,0.490152,0.373773 RARM_JOINT3:0.880750,0.000000,0.422265,0.214411 RLEG_JOINT2:0.997341,0.044380,0.000000,-0.057810 RLEG_JOINT4:0.993114,0.088525,0.000000,0.076734 WAIST:0.988710,-0.000000,0.149637,0.007840 WAIST_JOINT0:0.976848,-0.000000,0.210885,0.035979 WAIST_JOINT1:0.998682,0.046060,-0.000000,0.022647 END:
KINECT_DATA_Sensor  AnkleLeft:-0.060849,-0.689635,0.077924,0.717377 AnkleRight:0.102877,0.815735,0.085821,0.562696 ElbowLeft:-0.019185,0.777327,-0.199169,-0.596428 ElbowRight:-0.406618,0.913464,-0.013881,0.007194 FootLeft:0.000000,0.000000,0.000000,0.000000 FootRight:0.000000,0.000000,0.000000,0.000000 HandLeft:-0.038426,0.837151,-0.111465,0.534114 HandRight:-0.474604,0.655683,-0.408125,-0.422214 HandTipLeft:0.000000,0.000000,0.000000,0.000000 HandTipRight:0.000000,0.000000,0.000000,0.000000 Head:0.000000,0.000000,0.000000,0.000000 HipLeft:0.040983,-0.686161,0.721587,-0.082564 HipRight:-0.236593,0.656502,0.670933,-0.250755 KneeLeft:0.028793,-0.593526,0.026782,0.803854 KneeRight:-0.014468,0.805233,0.064540,0.589258 Neck:-0.211030,0.029369,0.975028,-0.062649 ShoulderLeft:0.118792,0.753317,-0.639783,-0.095285 ShoulderRight:-0.156357,0.774960,0.567928,-0.229013 SpineBase:-0.149353,0.019483,0.988233,-0.026645 SpineMid:-0.179849,0.020298,0.983140,-0.026030 SpineShoulder:-0.211116,0.025360,0.976208,-0.042472 ThumbLeft:0.000000,0.000000,0.000000,0.000000 ThumbRight:0.000000,0.000000,0.000000,0.000000 WristLeft:-0.040427,0.834012,-0.149327,0.529615 WristRight:-0.465789,0.739224,-0.298744,-0.383849 END:
KINECT_DATA POSITION:0.511913,0.204939,-9.487593 HEAD_JOINT1:0.992348,0.114019,0.000000,-0.047380 LARM_JOINT2:0.805913,0.000000,-0.002716,-0.592028 LARM_JOINT3:0.980910,0.000000,-0.162094,-0.107427 LLEG_JOINT2:0.999538,-0.012495,0.000000,0.027717 LLEG_JOINT4:0.995120,0.098667,0.000000,0.000872 RARM_JOINT2:0.788586,0.000000,0.471791,0.394393 RARM_JOINT3:0.867388,0.000000,0.445940,0.220851 RLEG_JOINT2:0.997039,0.048549,0.000000,-0.059640 RLEG_JOINT4:0.992794,0.086845,0.000000,0.082569 WAIST:0.984288,-0.000000,0.176283,0.010119 WAIST_JOINT0:0.967601,-0.000000,0.249326,0.039814 WAIST_JOINT1:0.998555,0.044562,-0.000000,0.030036 END:
KINECT_DATA_Sensor  AnkleLeft:-0.046207,-0.554380,0.080354,0.827086 AnkleRight:0.106868,0.831974,0.085934,0.537600 ElbowLeft:-0.025724,0.757425,-0.192976,-0.623223 ElbowRight:-0.384809,0.922023,-0.039338,0.015753 FootLeft:0.000000,0.000000,0.000000,0.000000 FootRight:0.000000,0.000000,0.000000,0.000000 HandLeft:-0.014650,0.836547,-0.116391,0.535190 HandRight:0.527611,-0.561737,0.352273,0.531020 HandTipLeft:0.000000,0.000000,0.000000,0.000000 HandTipRight:0.000000,0.000000,0.000000,0.000000 Head:0.000000,0.000000,0.000000,0.000000 HipLeft:0.023423,-0.684250,0.725657,-0.068370 HipRight:-0.254076,0.651968,0.664324,-0.262789 KneeLeft:0.033214,-0.571988,0.022800,0.819272 KneeRight:-0.013810,0.821213,0.066837,0.566526 Neck:-0.249689,0.039776,0.965488,-0.062500 ShoulderLeft:0.135225,0.738176,-0.651034,-0.113864 ShoulderRight:-0.197089,0.755651,0.566224,-0.263701 SpineBase:-0.175872,0.026574,0.983688,-0.026843 SpineMid:-0.212334,0.027554,0.976467,-0.025836 SpineShoulder:-0.249793,0.034011,0.966810,-0.041530 ThumbLeft:0.000000,0.000000,0.000000,0.000000 ThumbRight:0.000000,0.000000,0.000000,0.000000 WristLeft:-0.011792,0.833419,-0.152690,0.530999 WristRight:0.520431,-0.636165,0.256332,0.508664 END:
KINECT_DATA POSITION:0.915293,0.453477,-9.604454 HEAD_JOINT1:0.992909,0.106900,0.000000,-0.051992 LARM_JOINT2:0.801776,0.000000,-0.004184,-0.597610 LARM_JOINT3:0.982845,0.000000,-0.157493,-0.095974 LLEG_JOINT2:0.999592,-0.015407,0.000000,0.024040 LLEG_JOINT4:0.995202,0.097689,0.000000,0.005457 RARM_JOINT2:0.780877,0.000000,0.488512,0.389342 RARM_JOINT3:0.873463,0.000000,0.439828,0.208837 RLEG_JOINT2:0.996652,0.052633,0.000000,-0.062574 RLEG_JOINT4:0.992753,0.082774,0.000000,0.087117 WAIST:0.980445,-0.000000,0.196551,0.009820 WAIST_JOINT0:0.964796,-0.000000,0.259118,0.045016 WAIST_JOINT1:0.998402,0.043900,-0.000000,0.035596 END:
KINECT_DATA_Sensor  AnkleLeft:-0.058424,-0.690141,0.067554,0.718142 AnkleRight:0.104959,0.836387,0.088466,0.530673 ElbowLeft:-0.024875,0.738332,-0.191034,-0.646338 ElbowRight:-0.389803,0.918454,-0.066980,-0.003004 FootLeft:0.000000,0.000000,0.000000,0.000000 FootRight:0.000000,0.000000,0.000000,0.000000 HandLeft:-0.007887,0.839689,-0.132634,0.526563 HandRight:0.509117,-0.567018,0.375298,0.527677 HandTipLeft:0.000000,0.000000,0.000000,0.000000 HandTipRight:0.000000,0.000000,0.000000,0.000000 Head:0.000000,0.000000,0.000000,0.000000 HipLeft:0.010232,-0.686489,0.724667,-0.059042 HipRight:-0.268108,0.649372,0.657697,-0.271789 KneeLeft:0.033053,-0.555639,0.018473,0.830561 KneeRight:-0.015625,0.833022,0.071647,0.548358 Neck:-0.260580,0.044446,0.962300,-0.064040 ShoulderLeft:0.145984,0.729306,-0.657398,-0.120952 ShoulderRight:-0.202497,0.752853,0.564606,-0.270975 SpineBase:-0.195848,0.034049,0.979669,-0.027056 SpineMid:-0.227737,0.034914,0.972751,-0.025929 SpineShoulder:-0.260719,0.037634,0.963755,-0.042254 ThumbLeft:0.000000,0.000000,0.000000,0.000000 ThumbRight:0.000000,0.000000,0.000000,0.000000 WristLeft:0.005150,0.838612,-0.152010,0.523065 WristRight:0.516502,-0.634880,0.285646,0.498557 END:
KINECT_DATA POSITION:1.271826,0.485916,-9.699213 HEAD_JOINT1:0.993517,0.098955,0.000000,-0.055956 LARM_JOINT2:0.793159,0.000000,-0.012756,-0.608881 LARM_JOINT3:0.986320,0.000000,-0.146863,-0.074857 LLEG_JOINT2:0.999686,-0.015405,0.000000,0.019759 LLEG_JOINT4:0.995581,0.093159,0.000000,0.011821 RARM_JOINT2:0.772151,0.000000,0.513092,0.374860 RARM_JOINT3:0.887988,0.000000,0.420999,0.185030 RLEG_JOINT2:0.996520,0.050694,0.000000,-0.066165 RLEG_JOINT4:0.992123,0.086736,0.000000,0.090378 WAIST:0.978987,-0.000000,0.203630,0.010873 WAIST_JOINT0:0.964110,-0.000000,0.260968,0.048870 WAIST_JOINT1:0.998257,0.045477,-0.000000,0.037620 END:
KINECT_DATA_Sensor  AnkleLeft:-0.040432,-0.547282,0.076460,0.832467 AnkleRight:0.105423,0.837046,0.090759,0.529153 ElbowLeft:-0.034078,0.701623,-0.177537,-0.689235 ElbowRight:-0.402583,0.911071,-0.086331,-0.020599 FootLeft:0.000000,0.000000,0.000000,0.000000 FootRight:0.000000,0.000000,0.000000,0.000000 HandLeft:-0.021766,0.834864,-0.134293,0.533379 HandRight:-0.499425,0.603487,-0.376520,-0.494582 HandTipLeft:0.000000,0.000000,0.000000,0.000000 HandTipRight:0.000000,0.000000,0.000000,0.000000 Head:0.000000,0.000000,0.000000,0.000000 HipLeft:0.003830,-0.687202,0.724304,-0.055868 HipRight:-0.270577,0.650017,0.654872,-0.274606 KneeLeft:0.031366,-0.549977,0.015836,0.834440 KneeRight:-0.019517,0.836960,0.071105,0.542275 Neck:-0.263362,0.045547,0.961306,-0.066762 ShoulderLeft:0.157932,0.721418,-0.662188,-0.126964 ShoulderRight:-0.194154,0.752570,0.569191,-0.268261 SpineBase:-0.202819,0.037363,0.978091,-0.028399 SpineMid:-0.232572,0.038212,0.971446,-0.027245 SpineShoulder:-0.263361,0.040268,0.962841,-0.044241 ThumbLeft:0.000000,0.000000,0.000000,0.000000 ThumbRight:0.000000,0.000000,0.000000,0.000000 WristLeft:0.029867,0.837026,-0.152185,0.524724 WristRight:-0.504174,0.654807,-0.309753,-0.470202 END:
KINECT_DATA POSITION:1.347306,0.493028,-9.713114 HEAD_JOINT1:0.993627,0.097462,0.000000,-0.056619 LARM_JOINT2:0.792302,0.000000,-0.014089,-0.609966 LARM_JOINT3:0.984039,0.000000,-0.160050,-0.077788 LLEG_JOINT2:0.999671,-0.015577,0.000000,0.020399 LLEG_JOINT4:0.995612,0.093048,0.000000,0.009979 RARM_JOINT2:0.765884,0.000000,0.530747,0.362945 RARM_JOINT3:0.914742,0.000000,0.379310,0.139183 RLEG_JOINT2:0.996566,0.050249,0.000000,-0.065809 RLEG_JOINT4:0.992132,0.087661,0.000000,0.089383 WAIST:0.978929,-0.000000,0.203938,0.010393 WAIST_JOINT0:0.964646,-0.000000,0.259272,0.047283 WAIST_JOINT1:0.998213,0.046119,-0.000000,0.037998 END:
KINECT_DATA_Sensor  AnkleLeft:-0.055307,-0.701943,0.065236,0.707080 AnkleRight:0.091093,0.755949,0.105509,0.639618 ElbowLeft:-0.034802,0.697654,-0.175858,-0.693643 ElbowRight:-0.412490,0.905130,-0.101223,-0.018596 FootLeft:0.000000,0.000000,0.000000,0.000000 FootRight:0.000000,0.000000,0.000000,0.000000 HandLeft:-0.063706,0.829956,-0.157985,0.531184 HandRight:0.548142,-0.607001,0.258732,0.513953 HandTipLeft:0.000000,0.000000,0.000000,0.000000 HandTipRight:0.000000,0.000000,0.000000,0.000000 Head:0.000000,0.000000,0.000000,0.000000 HipLeft:0.003404,-0.687906,0.723643,-0.055809 HipRight:-0.269959,0.649851,0.655111,-0.275038 KneeLeft:0.031516,-0.549720,0.015945,0.834602 KneeRight:-0.019835,0.837064,0.070867,0.542133 Neck:-0.261697,0.044501,0.961767,-0.067363 ShoulderLeft:0.159544,0.721346,-0.661824,-0.127255 ShoulderRight:-0.190116,0.751636,0.573026,-0.265596 SpineBase:-0.203110,0.036622,0.978045,-0.028849 SpineMid:-0.231899,0.037458,0.971622,-0.027755 SpineShoulder:-0.261631,0.040184,0.963275,-0.045120 ThumbLeft:0.000000,0.000000,0.000000,0.000000 ThumbRight:0.000000,0.000000,0.000000,0.000000 WristLeft:0.029412,0.839330,-0.152851,0.520862 WristRight:0.534144,-0.626867,0.235753,0.515896 END:
KINECT_DATA POSITION:1.329225,0.485100,-9.724129 HEAD_JOINT1:0.993746,0.098980,0.000000,-0.051692 LARM_JOINT2:0.791494,0.000000,-0.011474,-0.611069 LARM_JOINT3:0.983038,0.000000,-0.164352,-0.081391 LLEG_JOINT2:0.999669,-0.016004,0.000000,0.020144 LLEG_JOINT4:0.995482,0.094524,0.000000,0.009034 RARM_JOINT2:0.770359,0.000000,0.543445,0.333490 RARM_JOINT3:0.932225,0.000000,0.349283,0.094643 RLEG_JOINT2:0.996551,0.050640,0.000000,-0.065741 RLEG_JOINT4:0.992380,0.086641,0.000000,0.087603 WAIST:0.979583,-0.000000,0.200764,0.010537 WAIST_JOINT0:0.965188,-0.000000,0.257518,0.045784 WAIST_JOINT1:0.998228,0.046313,-0.000000,0.037357 END:
KINECT_DATA_Sensor  AnkleLeft:-0.055730,-0.696178,0.065460,0.712703 AnkleRight:0.103507,0.835869,0.091906,0.531191 ElbowLeft:-0.034320,0.693005,-0.174602,-0.698628 ElbowRight:-0.433944,0.894726,-0.105625,0.001203 FootLeft:0.000000,0.000000,0.000000,0.000000 FootRight:0.000000,0.000000,0.000000,0.000000 HandLeft:-0.066066,0.834088,-0.142316,0.528846 HandRight:-0.408688,0.772068,-0.464829,-0.144286 HandTipLeft:0.000000,0.000000,0.000000,0.000000 HandTipRight:0.000000,0.000000,0.000000,0.000000 Head:0.000000,0.000000,0.000000,0.000000 HipLeft:0.004884,-0.688044,0.723394,-0.057213 HipRight:-0.267408,0.650956,0.655795,-0.273278 KneeLeft:0.031864,-0.552412,0.015522,0.832817 KneeRight:-0.019207,0.835307,0.071140,0.544824 Neck:-0.259944,0.044024,0.962285,-0.067071 ShoulderLeft:0.158280,0.722266,-0.661326,-0.126207 ShoulderRight:-0.189051,0.751154,0.574703,-0.264089 SpineBase:-0.199961,0.036230,0.978706,-0.028923 SpineMid:-0.229438,0.037088,0.972219,-0.027816 SpineShoulder:-0.259860,0.039965,0.963763,-0.045128 ThumbLeft:0.000000,0.000000,0.000000,0.000000 ThumbRight:0.000000,0.000000,0.000000,0.000000 WristLeft:0.020265,0.841583,-0.157799,0.516165 WristRight:-0.398578,0.806498,-0.416684,-0.130659 END:
KINECT_DATA POSITION:1.203296,0.538854,-9.772432 HEAD_JOINT1:0.993973,0.102299,0.000000,-0.039398 LARM_JOINT2:0.791001,0.000000,-0.006599,-0.611779 LARM_JOINT3:0.981601,0.000000,-0.171748,-0.083442 LLEG_JOINT2:0.999642,-0.016702,0.000000,0.020892 LLEG_JOINT4:0.995272,0.096935,0.000000,0.006162 RARM_JOINT2:0.777006,0.000000,0.551560,0.303386 RARM_JOINT3:0.941281,0.000000,0.326681,0.085267 RLEG_JOINT2:0.996663,0.049505,0.000000,-0.064895 RLEG_JOINT4:0.992225,0.089453,0.000000,0.086533 WAIST:0.980095,-0.000000,0.198244,0.010663 WAIST_JOINT0:0.965442,-0.000000,0.256887,0.043943 WAIST_JOINT1:0.998227,0.046784,-0.000000,0.036798 END:
KINECT_DATA_Sensor  AnkleLeft:-0.057403,-0.692271,0.064862,0.716421 AnkleRight:0.093246,0.767519,0.104476,0.625544 ElbowLeft:-0.032344,0.686400,-0.174682,-0.705192 ElbowRight:-0.456592,0.884125,-0.099066,0.005637 FootLeft:0.000000,0.000000,0.000000,0.000000 FootRight:0.000000,0.000000,0.000000,0.000000 HandLeft:-0.064173,0.823761,-0.136796,0.546431 HandRight:-0.050887,0.696706,-0.588370,0.407225 HandTipLeft:0.000000,0.000000,0.000000,0.000000 HandTipRight:0.000000,0.000000,0.000000,0.000000 Head:0.000000,0.000000,0.000000,0.000000 HipLeft:0.006314,-0.687998,0.723306,-0.058714 HipRight:-0.265456,0.651516,0.656395,-0.272407 KneeLeft:0.032968,-0.554507,0.015785,0.831376 KneeRight:-0.018863,0.833850,0.069699,0.547248 Neck:-0.259388,0.043674,0.962450,-0.067090 ShoulderLeft:0.157250,0.723107,-0.660860,-0.125110 ShoulderRight:-0.189676,0.749683,0.576357,-0.264219 SpineBase:-0.197472,0.035457,0.979231,-0.029213 SpineMid:-0.227920,0.036351,0.972595,-0.028093 SpineShoulder:-0.259303,0.039731,0.963909,-0.045412 ThumbLeft:0.000000,0.000000,0.000000,0.000000 ThumbRight:0.000000,0.000000,0.000000,0.000000 WristLeft:0.016662,0.830390,-0.162258,0.532773 WristRight:-0.066544,0.696779,-0.577140,0.420691 END:
KINECT_DATA POSITION:0.982933,0.624311,-9.773005 HEAD_JOINT1:0.994059,0.104864,0.000000,-0.029144 LARM_JOINT2:0.788866,0.000000,-0.003275,-0.614557 LARM_JOINT3:0.981964,0.000000,-0.171821,-0.078891 LLEG_JOINT2:0.999604,-0.016820,0.000000,0.022567 LLEG_JOINT4:0.995357,0.096026,0.000000,0.006622 RARM_JOINT2:0.780101,0.000000,0.555215,0.288408 RARM_JOINT3:0.950107,0.000000,0.298581,0.090261 RLEG_JOINT2:0.996814,0.048493,0.000000,-0.063327 RLEG_JOINT4:0.992467,0.089244,0.000000,0.083936 WAIST:0.980317,-0.000000,0.197141,0.010639 WAIST_JOINT0:0.965684,-0.000000,0.256249,0.042325 WAIST_JOINT1:0.998130,0.048006,-0.000000,0.037844 END:
KINECT_DATA_Sensor  AnkleLeft:-0.056169,-0.699406,0.065965,0.709454 AnkleRight:0.103429,0.835382,0.092342,0.531896 ElbowLeft:0.031026,-0.674888,0.173444,0.716576 ElbowRight:-0.468191,0.879222,-0.087699,-0.008666 FootLeft:0.000000,0.000000,0.000000,0.000000 FootRight:0.000000,0.000000,0.000000,0.000000 HandLeft:-0.051985,0.859406,-0.119167,0.494488 HandRight:-0.440203,0.788134,-0.374006,-0.212570 HandTipLeft:0.000000,0.000000,0.000000,0.000000 HandTipRight:0.000000,0.000000,0.000000,0.000000 Head:0.000000,0.000000,0.000000,0.000000 HipLeft:0.006476,-0.688092,0.723093,-0.060202 HipRight:-0.264387,0.651606,0.656686,-0.272530 KneeLeft:0.033981,-0.555452,0.017073,0.830678 KneeRight:-0.018072,0.833196,0.068026,0.548481 Neck:-0.259494,0.044608,0.962281,-0.068463 ShoulderLeft:0.157847,0.722456,-0.661652,-0.123931 ShoulderRight:-0.189950,0.747810,0.578330,-0.265016 SpineBase:-0.196339,0.035454,0.979430,-0.030178 SpineMid:-0.227420,0.036396,0.972683,-0.029034 SpineShoulder:-0.259398,0.040711,0.963784,-0.046645 ThumbLeft:0.000000,0.000000,0.000000,0.000000 ThumbRight:0.000000,0.000000,0.000000,0.000000 WristLeft:0.003407,0.861044,-0.167282,0.480218 WristRight:-0.460880,0.810859,-0.313802,-0.177836 END:
KINECT_DATA POSITION:0.903131,0.694194,-9.728945 HEAD_JOINT1:0.993734,0.107041,0.000000,-0.032166 LARM_JOINT2:0.785664,0.000000,-0.014034,-0.618495 LARM_JOINT3:0.986165,0.000000,-0.152195,-0.065694 LLEG_JOINT2:0.999614,-0.016296,0.000000,0.022485 LLEG_JOINT4:0.995192,0.097722,0.000000,0.006620 RARM_JOINT2:0.787234,0.000000,0.547216,0.284285 RARM_JOINT3:0.945397,0.000000,0.307375,0.108375 RLEG_JOINT2:0.996784,0.049162,0.000000,-0.063283 RLEG_JOINT4:0.992460,0.089520,0.000000,0.083718 WAIST:0.980385,-0.000000,0.196761,0.011410 WAIST_JOINT0:0.965630,-0.000000,0.255988,0.045039 WAIST_JOINT1:0.998026,0.049461,-0.000000,0.038691 END:
KINECT_DATA_Sensor  AnkleLeft:-0.055761,-0.677933,0.069093,0.729743 AnkleRight:0.104398,0.835141,0.092613,0.532037 ElbowLeft:0.038861,-0.664291,0.166664,0.727619 ElbowRight:-0.470054,0.879672,-0.069899,-0.018465 FootLeft:0.000000,0.000000,0.000000,0.000000 FootRight:0.000000,0.000000,0.000000,0.000000 HandLeft:-0.039984,0.837272,-0.115842,0.532876 HandRight:-0.408808,0.794173,-0.400884,-0.203612 HandTipLeft:0.000000,0.000000,0.000000,0.000000 HandTipRight:0.000000,0.000000,0.000000,0.000000 Head:0.000000,0.000000,0.000000,0.000000 HipLeft:0.006134,-0.687446,0.723590,-0.061626 HipRight:-0.264061,0.651912,0.656325,-0.272984 KneeLeft:0.034045,-0.555833,0.017833,0.830405 KneeRight:-0.017091,0.833038,0.068021,0.548753 Neck:-0.259641,0.046038,0.962063,-0.070015 ShoulderLeft:0.160251,0.719877,-0.664016,-0.123209 ShoulderRight:-0.188051,0.748717,0.577614,-0.265371 SpineBase:-0.195938,0.036433,0.979442,-0.031214 SpineMid:-0.227287,0.037417,0.972645,-0.030028 SpineShoulder:-0.259526,0.042178,0.963615,-0.048091 ThumbLeft:0.000000,0.000000,0.000000,0.000000 ThumbRight:0.000000,0.000000,0.000000,0.000000 WristLeft:0.028326,0.839806,-0.160961,0.517702 WristRight:-0.445495,0.821605,-0.319870,-0.155510 END:
KINECT_DATA POSITION:0.854973,0.686758,-9.709573 HEAD_JOINT1:0.994889,0.099123,0.000000,-0.019233 LARM_JOINT2:0.796165,0.000000,-0.020962,-0.604716 LARM_JOINT3:0.979858,0.000000,-0.177902,-0.090710 LLEG_JOINT2:0.999594,-0.016777,0.000000,0.023043 LLEG_JOINT4:0.995194,0.097661,0.000000,0.007174 RARM_JOINT2:0.788590,0.000000,0.546466,0.281960 RARM_JOINT3:0.932724,0.000000,0.344505,0.106502 RLEG_JOINT2:0.996861,0.048727,0.000000,-0.062399 RLEG_JOINT4:0.992466,0.088103,0.000000,0.085138 WAIST:0.980971,-0.000000,0.193836,0.011150 WAIST_JOINT0:0.966504,-0.000000,0.252925,0.043576 WAIST_JOINT1:0.997784,0.056312,-0.000000,0.035442 END:
KINECT_DATA_Sensor  AnkleLeft:-0.042658,-0.552313,0.077852,0.828897 AnkleRight:0.105340,0.833806,0.089666,0.534445 ElbowLeft:-0.028121,0.727600,-0.182308,-0.660735 ElbowRight:-0.466812,0.881894,-0.064740,-0.012555 FootLeft:0.000000,0.000000,0.000000,0.000000 FootRight:0.000000,0.000000,0.000000,0.000000 HandLeft:-0.081982,0.846137,-0.162917,0.500789 HandRight:0.593471,-0.509345,0.145156,0.606044 HandTipLeft:0.000000,0.000000,0.000000,0.000000 HandTipRight:0.000000,0.000000,0.000000,0.000000 Head:0.000000,0.000000,0.000000,0.000000 HipLeft:0.006368,-0.687342,0.723398,-0.064925 HipRight:-0.260249,0.651521,0.658020,-0.273498 KneeLeft:0.034600,-0.558380,0.017771,0.828673 KneeRight:-0.016579,0.831256,0.067418,0.551537 Neck:-0.255803,0.040456,0.962771,-0.077463 ShoulderLeft:0.168310,0.726003,-0.654831,-0.125645 ShoulderRight:-0.170490,0.755145,0.576482,-0.261452 SpineBase:-0.192981,0.034704,0.979999,-0.034009 SpineMid:-0.223810,0.035760,0.973421,-0.032897 SpineShoulder:-0.255664,0.038323,0.964493,-0.054039 ThumbLeft:0.000000,0.000000,0.000000,0.000000 ThumbRight:0.000000,0.000000,0.000000,0.000000 WristLeft:0.000154,0.856277,-0.153194,0.493276 WristRight:0.553620,-0.583610,0.029999,0.593299 END:
KINECT_DATA POSITION:0.846063,0.642332,-9.642685 HEAD_JOINT1:0.993890,0.108577,0.000000,-0.019824 LARM_JOINT2:0.801854,0.000000,-0.021457,-0.597134 LARM_JOINT3:0.980004,0.000000,-0.172940,-0.098403 LLEG_JOINT2:0.999554,-0.016049,0.000000,0.025179 LLEG_JOINT4:0.995061,0.099178,0.000000,0.004167 RARM_JOINT2:0.785099,0.000000,0.547165,0.290225 RARM_JOINT3:0.930340,0.000000,0.349793,0.110061 RLEG_JOINT2:0.996977,0.048004,0.000000,-0.061092 RLEG_JOINT4:0.992524,0.089664,0.000000,0.082808 WAIST:0.982260,-0.000000,0.187237,0.010340 WAIST_JOINT0:0.967806,-0.000000,0.248193,0.041852 WAIST_JOINT1:0.998071,0.052112,-0.000000,0.033743 END:
KINECT_DATA_Sensor  AnkleLeft:-0.057853,-0.691068,0.069240,0.717135 AnkleRight:0.096446,0.777857,0.100019,0.612889 ElbowLeft:-0.030490,0.750291,-0.187925,-0.633102 ElbowRight:-0.465801,0.882534,-0.063327,-0.012409 FootLeft:0.000000,0.000000,0.000000,0.000000 FootRight:0.000000,0.000000,0.000000,0.000000 HandLeft:-0.057110,0.843767,-0.156694,0.510140 HandRight:0.593154,-0.531132,0.153402,0.585265 HandTipLeft:0.000000,0.000000,0.000000,0.000000 HandTipRight:0.000000,0.000000,0.000000,0.000000 Head:0.000000,0.000000,0.000000,0.000000 HipLeft:0.013025,-0.687895,0.722338,-0.069699 HipRight:-0.258228,0.652413,0.659044,-0.270808 KneeLeft:0.034690,-0.563752,0.019188,0.824992 KneeRight:-0.015979,0.827490,0.066817,0.557262 Neck:-0.251142,0.039139,0.964592,-0.070418 ShoulderLeft:0.157877,0.727978,-0.656335,-0.119776 ShoulderRight:-0.175812,0.754326,0.576963,-0.259222 SpineBase:-0.186420,0.033618,0.981345,-0.032855 SpineMid:-0.218208,0.034667,0.974770,-0.031746 SpineShoulder:-0.251021,0.036827,0.965974,-0.050264 ThumbLeft:0.000000,0.000000,0.000000,0.000000 ThumbRight:0.000000,0.000000,0.000000,0.000000 WristLeft:-0.010144,0.849084,-0.154203,0.505149 WristRight:0.554841,-0.595878,0.055638,0.577915 END:
KINECT_DATA POSITION:0.865224,0.630830,-9.622169 HEAD_JOINT1:0.993677,0.109402,0.000000,-0.025246 LARM_JOINT2:0.803561,0.000000,-0.019636,-0.594899 LARM_JOINT3:0.979650,0.000000,-0.171003,-0.105085 LLEG_JOINT2:0.999550,-0.015349,0.000000,0.025776 LLEG_JOINT4:0.995455,0.095210,0.000000,0.002161 RARM_JOINT2:0.784709,0.000000,0.546805,0.291951 RARM_JOINT3:0.930075,0.000000,0.349659,0.112695 RLEG_JOINT2:0.997001,0.048182,0.000000,-0.060565 RLEG_JOINT4:0.992661,0.089233,0.000000,0.081618 WAIST:0.982651,-0.000000,0.185190,0.010078 WAIST_JOINT0:0.968193,-0.000000,0.246884,0.040638 WAIST_JOINT1:0.998137,0.051230,-0.000000,0.033144 END:
KINECT_DATA_Sensor  AnkleLeft:-0.055752,-0.695904,0.066299,0.712891 AnkleRight:0.094153,0.766708,0.101658,0.626865 ElbowLeft:-0.029018,0.757681,-0.190229,-0.623611 ElbowRight:-0.465601,0.882729,-0.062330,-0.010922 FootLeft:0.000000,0.000000,0.000000,0.000000 FootRight:0.000000,0.000000,0.000000,0.000000 HandLeft:-0.050510,0.829918,-0.145865,0.536105 HandRight:0.594430,-0.509346,0.125748,0.609432 HandTipLeft:0.000000,0.000000,0.000000,0.000000 HandTipRight:0.000000,0.000000,0.000000,0.000000 Head:0.000000,0.000000,0.000000,0.000000 HipLeft:0.014777,-0.688047,0.722084,-0.070482 HipRight:-0.257319,0.652708,0.659550,-0.269727 KneeLeft:0.034290,-0.565373,0.019829,0.823884 KneeRight:-0.015472,0.826327,0.066898,0.558990 Neck:-0.249709,0.038783,0.965044,-0.069515 ShoulderLeft:0.154775,0.729435,-0.655696,-0.118453 ShoulderRight:-0.177087,0.754182,0.577097,-0.258474 SpineBase:-0.184401,0.032957,0.981766,-0.032335 SpineMid:-0.216496,0.034000,0.975191,-0.031237 SpineShoulder:-0.249614,0.036151,0.966418,-0.049220 ThumbLeft:0.000000,0.000000,0.000000,0.000000 ThumbRight:0.000000,0.000000,0.000000,0.000000 WristLeft:-0.009451,0.833647,-0.152923,0.530619 WristRight:0.556924,-0.572109,0.033168,0.601188 END:
KINECT_DATA POSITION:0.931212,0.618342,-9.636641 HEAD_JOINT1:0.993286,0.112738,0.000000,-0.025931 LARM_JOINT2:0.803297,0.000000,-0.015686,-0.595372 LARM_JOINT3:0.980970,0.000000,-0.164643,-0.102911 LLEG_JOINT2:0.999536,-0.014793,0.000000,0.026642 LLEG_JOINT4:0.994646,0.103217,0.000000,0.005062 RARM_JOINT2:0.781459,0.000000,0.548861,0.296771 RARM_JOINT3:0.928233,0.000000,0.353112,0.117025 RLEG_JOINT2:0.996977,0.049440,0.000000,-0.059934 RLEG_JOINT4:0.992860,0.086896,0.000000,0.081715 WAIST:0.983011,-0.000000,0.183314,0.009270 WAIST_JOINT0:0.968488,-0.000000,0.245989,0.038998 WAIST_JOINT1:0.998246,0.049854,-0.000000,0.031943 END:
KINECT_DATA_Sensor  AnkleLeft:-0.061776,-0.690523,0.073190,0.716941 AnkleRight:0.091972,0.753993,0.102417,0.642297 ElbowLeft:-0.028832,0.751934,-0.188241,-0.631133 ElbowRight:-0.464319,0.883267,-0.063799,-0.013299 FootLeft:0.000000,0.000000,0.000000,0.000000 FootRight:0.000000,0.000000,0.000000,0.000000 HandLeft:-0.034185,0.845278,-0.123902,0.518637 HandRight:-0.429942,0.754831,-0.430175,-0.245620 HandTipLeft:0.000000,0.000000,0.000000,0.000000 HandTipRight:0.000000,0.000000,0.000000,0.000000 Head:0.000000,0.000000,0.000000,0.000000 HipLeft:0.016791,-0.688664,0.721495,-0.070037 HipRight:-0.256218,0.652684,0.660504,-0.268498 KneeLeft:0.033777,-0.566753,0.020225,0.822946 KneeRight:-0.014657,0.825249,0.068190,0.560445 Neck:-0.248228,0.037346,0.965564,-0.068365 ShoulderLeft:0.151608,0.730436,-0.655541,-0.117233 ShoulderRight:-0.178789,0.752185,0.579771,-0.257134 SpineBase:-0.182591,0.030835,0.982211,-0.031149 SpineMid:-0.214902,0.031846,0.975652,-0.030115 SpineShoulder:-0.248176,0.034359,0.966935,-0.047580 ThumbLeft:0.000000,0.000000,0.000000,0.000000 ThumbRight:0.000000,0.000000,0.000000,0.000000 WristLeft:-0.012935,0.844666,-0.153818,0.512555 WristRight:-0.446173,0.801802,-0.342367,-0.202058 END:
KINECT_DATA POSITION:0.947821,0.583757,-9.665024 HEAD_JOINT1:0.993088,0.114466,0.000000,-0.025944 LARM_JOINT2:0.801413,0.000000,-0.012826,-0.597974 LARM_JOINT3:0.981006,0.000000,-0.167933,-0.097087 LLEG_JOINT2:0.999521,-0.015049,0.000000,0.027052 LLEG_JOINT4:0.995009,0.099767,0.000000,0.002162 RARM_JOINT2:0.778837,0.000000,0.551155,0.299400 RARM_JOINT3:0.928810,0.000000,0.352032,0.115700 RLEG_JOINT2:0.996982,0.049516,0.000000,-0.059788 RLEG_JOINT4:0.992965,0.086216,0.000000,0.081161 WAIST:0.983235,-0.000000,0.182114,0.009171 WAIST_JOINT0:0.968492,-0.000000,0.246026,0.038671 WAIST_JOINT1:0.998280,0.049556,-0.000000,0.031335 END:
KINECT_DATA_Sensor  AnkleLeft:-0.059732,-0.694970,0.069123,0.713212 AnkleRight:0.103935,0.830943,0.089231,0.539231 ElbowLeft:-0.029789,0.739313,-0.184728,-0.646843 ElbowRight:-0.463210,0.883620,-0.066935,-0.013100 FootLeft:0.000000,0.000000,0.000000,0.000000 FootRight:0.000000,0.000000,0.000000,0.000000 HandLeft:-0.037408,0.833681,-0.128520,0.535779 HandRight:-0.424697,0.758773,-0.436003,-0.231943 HandTipLeft:0.000000,0.000000,0.000000,0.000000 HandTipRight:0.000000,0.000000,0.000000,0.000000 Head:0.000000,0.000000,0.000000,0.000000 HipLeft:0.017765,-0.688703,0.721417,-0.070212 HipRight:-0.255436,0.652881,0.660891,-0.267809 KneeLeft:0.034168,-0.567686,0.020313,0.822285 KneeRight:-0.014472,0.824554,0.068266,0.561463 Neck:-0.248046,0.036838,0.965654,-0.068039 ShoulderLeft:0.150507,0.730900,-0.655356,-0.116797 ShoulderRight:-0.179772,0.751694,0.580065,-0.257221 SpineBase:-0.181424,0.030112,0.982462,-0.030790 SpineMid:-0.214233,0.031127,0.975833,-0.029764 SpineShoulder:-0.248005,0.033797,0.967022,-0.047120 ThumbLeft:0.000000,0.000000,0.000000,0.000000 ThumbRight:0.000000,0.000000,0.000000,0.000000 WristLeft:-0.006856,0.834258,-0.156792,0.528566 WristRight:-0.440179,0.803096,-0.353210,-0.191106 END:
KINECT_DATA POSITION:0.969358,0.565116,-9.679461 HEAD_JOINT1:0.992941,0.115635,0.000000,-0.026378 LARM_JOINT2:0.800250,0.000000,-0.013836,-0.599507 LARM_JOINT3:0.981734,0.000000,-0.165443,-0.093953 LLEG_JOINT2:0.999524,-0.014383,0.000000,0.027294 LLEG_JOINT4:0.995132,0.098537,0.000000,0.001820 RARM_JOINT2:0.776970,0.000000,0.552873,0.301079 RARM_JOINT3:0.929527,0.000000,0.350149,0.115650 RLEG_JOINT2:0.996982,0.049479,0.000000,-0.059826 RLEG_JOINT4:0.993109,0.086093,0.000000,0.079509 WAIST:0.983426,-0.000000,0.181088,0.008975 WAIST_JOINT0:0.968520,-0.000000,0.245996,0.038140 WAIST_JOINT1:0.998296,0.049399,-0.000000,0.031064 END:
KINECT_DATA_Sensor  AnkleLeft:-0.059769,-0.700586,0.068304,0.707772 AnkleRight:0.102560,0.831133,0.090028,0.539069 ElbowLeft:-0.031056,0.736497,-0.181993,-0.650758 ElbowRight:-0.462471,0.883837,-0.069259,-0.012495 FootLeft:0.000000,0.000000,0.000000,0.000000 FootRight:0.000000,0.000000,0.000000,0.000000 HandLeft:-0.038783,0.829239,-0.127642,0.542740 HandRight:-0.420671,0.761844,-0.436004,-0.229196 HandTipLeft:0.000000,0.000000,0.000000,0.000000 HandTipRight:0.000000,0.000000,0.000000,0.000000 Head:0.000000,0.000000,0.000000,0.000000 HipLeft:0.018749,-0.688815,0.721243,-0.070647 HipRight:-0.254910,0.652960,0.661211,-0.267327 KneeLeft:0.033634,-0.568489,0.020720,0.821742 KneeRight:-0.014585,0.823948,0.068417,0.562331 Neck:-0.247860,0.036502,0.965725,-0.067879 ShoulderLeft:0.149992,0.731187,-0.655178,-0.116659 ShoulderRight:-0.180145,0.751081,0.580824,-0.257037 SpineBase:-0.180413,0.029573,0.982672,-0.030544 SpineMid:-0.213641,0.030592,0.975987,-0.029523 SpineShoulder:-0.247824,0.033448,0.967093,-0.046868 ThumbLeft:0.000000,0.000000,0.000000,0.000000 ThumbRight:0.000000,0.000000,0.000000,0.000000 WristLeft:-0.002818,0.830408,-0.156191,0.534808 WristRight:-0.439035,0.803359,-0.355743,-0.187910 END:
KINECT_DATA POSITION:0.992577,0.563236,-9.675026 HEAD_JOINT1:0.992857,0.116362,0.000000,-0.026371 LARM_JOINT2:0.799866,0.000000,-0.016268,-0.599959 LARM_JOINT3:0.982786,0.000000,-0.160988,-0.090636 LLEG_JOINT2:0.999524,-0.014342,0.000000,0.027313 LLEG_JOINT4:0.995304,0.096793,0.000000,-0.000994 RARM_JOINT2:0.775827,0.000000,0.554206,0.301577 RARM_JOINT3:0.930305,0.000000,0.348104,0.115572 RLEG_JOINT2:0.997003,0.049257,0.000000,-0.059655 RLEG_JOINT4:0.993189,0.086455,0.000000,0.078110 WAIST:0.983492,-0.000000,0.180732,0.008949 WAIST_JOINT0:0.968543,-0.000000,0.245936,0.037953 WAIST_JOINT1:0.998294,0.049537,-0.000000,0.030891 END:
KINECT_DATA_Sensor  AnkleLeft:-0.046129,-0.556294,0.075022,0.826306 AnkleRight:0.101714,0.831196,0.090823,0.538999 ElbowLeft:-0.031962,0.738928,-0.180665,-0.648324 ElbowRight:-0.462306,0.883832,-0.070182,-0.013733 FootLeft:0.000000,0.000000,0.000000,0.000000 FootRight:0.000000,0.000000,0.000000,0.000000 HandLeft:-0.035490,0.836928,-0.129167,0.530668 HandRight:0.452238,0.192477,-0.399830,0.773673 HandTipLeft:0.000000,0.000000,0.000000,0.000000 HandTipRight:0.000000,0.000000,0.000000,0.000000 Head:0.000000,0.000000,0.000000,0.000000 HipLeft:0.018985,-0.688804,0.721242,-0.070702 HipRight:-0.254571,0.652988,0.661381,-0.267162 KneeLeft:0.033598,-0.568764,0.020730,0.821553 KneeRight:-0.014566,0.823732,0.068162,0.562679 Neck:-0.247718,0.036306,0.965755,-0.068075 ShoulderLeft:0.150317,0.731278,-0.654962,-0.116887 ShoulderRight:-0.179559,0.750979,0.581295,-0.256681 SpineBase:-0.180068,0.029263,0.982745,-0.030513 SpineMid:-0.213404,0.030284,0.976049,-0.029500 SpineShoulder:-0.247685,0.033269,0.967131,-0.046940 ThumbLeft:0.000000,0.000000,0.000000,0.000000 ThumbRight:0.000000,0.000000,0.000000,0.000000 WristLeft:-0.002227,0.837876,-0.154056,0.523666 WristRight:0.374365,0.151260,-0.422225,0.811602 END:
KINECT_DATA POSITION:1.083875,0.578779,-9.682560 HEAD_JOINT1:0.994083,0.105851,0.000000,-0.024380 LARM_JOINT2:0.801793,0.000000,-0.003954,-0.597589 LARM_JOINT3:0.978185,0.000000,-0.183408,-0.097544 LLEG_JOINT2:0.999555,-0.013887,0.000000,0.026399 LLEG_JOINT4:0.995334,0.096494,0.000000,-0.000022 RARM_JOINT2:0.792476,0.000000,0.533526,0.295520 RARM_JOINT3:0.898805,0.000000,0.418804,0.129432 RLEG_JOINT2:0.996950,0.049801,0.000000,-0.060090 RLEG_JOINT4:0.993342,0.086230,0.000000,0.076398 WAIST:0.983538,-0.000000,0.180461,0.009315 WAIST_JOINT0:0.969080,-0.000000,0.243774,0.038188 WAIST_JOINT1:0.998007,0.054789,-0.000000,0.031303 END:
KINECT_DATA_Sensor  AnkleLeft:-0.057889,-0.686637,0.066705,0.721615 AnkleRight:0.100353,0.830500,0.092186,0.540094 ElbowLeft:-0.022012,0.729125,-0.189333,-0.657302 ElbowRight:-0.458746,0.887253,-0.048137,0.004164 FootLeft:0.000000,0.000000,0.000000,0.000000 FootRight:0.000000,0.000000,0.000000,0.000000 HandLeft:-0.020944,0.826330,-0.131601,0.547194 HandRight:0.519156,0.219911,-0.397479,0.723966 HandTipLeft:0.000000,0.000000,0.000000,0.000000 HandTipRight:0.000000,0.000000,0.000000,0.000000 Head:0.000000,0.000000,0.000000,0.000000 HipLeft:0.017915,-0.688381,0.721599,-0.071458 HipRight:-0.253258,0.652913,0.661728,-0.267733 KneeLeft:0.032966,-0.569052,0.020488,0.821385 KneeRight:-0.014335,0.823563,0.068605,0.562879 Neck:-0.245345,0.036438,0.965846,-0.074965 ShoulderLeft:0.157868,0.732975,-0.650918,-0.118875 ShoulderRight:-0.166729,0.754886,0.581483,-0.253429 SpineBase:-0.179786,0.029111,0.982755,-0.031959 SpineMid:-0.212101,0.030149,0.976291,-0.030981 SpineShoulder:-0.245352,0.033318,0.967480,-0.051720 ThumbLeft:0.000000,0.000000,0.000000,0.000000 ThumbRight:0.000000,0.000000,0.000000,0.000000 WristLeft:-0.013218,0.824105,-0.161688,0.542709 WristRight:0.407027,0.166950,-0.415143,0.796312 END:
KINECT_DATA POSITION:1.257770,0.489825,-9.653497 HEAD_JOINT1:0.992386,0.116866,0.000000,-0.038881 LARM_JOINT2:0.807026,0.000000,0.032004,-0.589648 LARM_JOINT3:0.964761,0.000000,-0.226980,-0.133100 LLEG_JOINT2:0.999645,-0.010281,0.000000,0.024560 LLEG_JOINT4:0.995395,0.095854,0.000000,-0.000854 RARM_JOINT2:0.879455,0.000000,0.349616,0.322997 RARM_JOINT3:0.802501,0.000000,0.541020,0.251572 RLEG_JOINT2:0.997056,0.046937,0.000000,-0.060625 RLEG_JOINT4:0.993242,0.088928,0.000000,0.074573 WAIST:0.985377,-0.000000,0.170158,0.008879 WAIST_JOINT0:0.975030,-0.000000,0.218886,0.037478 WAIST_JOINT1:0.998182,0.052238,-0.000000,0.030062 END:
KINECT_DATA_Sensor  AnkleLeft:-0.060027,-0.679892,0.067126,0.727762 AnkleRight:0.089122,0.764418,0.102455,0.630258 ElbowLeft:-0.000717,0.736495,-0.205806,-0.644375 ElbowRight:-0.391843,0.907261,0.111392,0.104542 FootLeft:0.000000,0.000000,0.000000,0.000000 FootRight:0.000000,0.000000,0.000000,0.000000 HandLeft:-0.079378,0.824454,-0.154754,0.538541 HandRight:0.501434,0.132882,-0.336439,0.785948 HandTipLeft:0.000000,0.000000,0.000000,0.000000 HandTipRight:0.000000,0.000000,0.000000,0.000000 Head:0.000000,0.000000,0.000000,0.000000 HipLeft:0.023530,-0.688707,0.720571,-0.076857 HipRight:-0.247964,0.654904,0.663655,-0.263017 KneeLeft:0.028798,-0.577599,0.020468,0.815556 KneeRight:-0.015969,0.817493,0.067098,0.571793 Neck:-0.220627,0.034649,0.972191,-0.070482 ShoulderLeft:0.139790,0.739816,-0.650211,-0.101767 ShoulderRight:-0.150610,0.764912,0.580862,-0.234149 SpineBase:-0.169489,0.028719,0.984596,-0.031928 SpineMid:-0.194648,0.029528,0.979933,-0.031182 SpineShoulder:-0.220586,0.031760,0.973567,-0.050006 ThumbLeft:0.000000,0.000000,0.000000,0.000000 ThumbRight:0.000000,0.000000,0.000000,0.000000 WristLeft:-0.038292,0.829630,-0.159490,0.533677 WristRight:0.453448,0.104729,-0.358905,0.809076 END:
KINECT_DATA POSITION:1.321156,-0.054612,-9.495390 HEAD_JOINT1:0.991299,0.129419,0.000000,-0.024031 LARM_JOINT2:0.807705,0.000000,0.040077,-0.588223 LARM_JOINT3:0.963629,0.000000,-0.238402,-0.120761 LLEG_JOINT2:0.999488,0.001699,0.000000,0.031936 LLEG_JOINT4:0.996121,0.087613,0.000000,-0.008232 RARM_JOINT2:0.910752,0.000000,0.148276,0.385416 RARM_JOINT3:0.784889,0.000000,0.525379,0.328522 RLEG_JOINT2:0.997911,0.036323,0.000000,-0.053423 RLEG_JOINT4:0.992665,0.097934,0.000000,0.070889 WAIST:0.991674,-0.000000,0.128770,0.001285 WAIST_JOINT0:0.983967,-0.000000,0.175579,0.031309 WAIST_JOINT1:0.998361,0.052151,-0.000000,0.023586 END:
KINECT_DATA_Sensor  AnkleLeft:-0.054998,-0.600716,0.074366,0.794094 AnkleRight:0.089150,0.731849,0.101340,0.667966 ElbowLeft:-0.003991,0.742714,-0.197366,-0.639849 ElbowRight:-0.250269,0.910093,0.241466,0.225368 FootLeft:0.000000,0.000000,0.000000,0.000000 FootRight:0.000000,0.000000,0.000000,0.000000 HandLeft:-0.101872,0.835762,-0.155562,0.516648 HandRight:0.312316,0.319629,-0.501651,0.740704 HandTipLeft:0.000000,0.000000,0.000000,0.000000 HandTipRight:0.000000,0.000000,0.000000,0.000000 Head:0.000000,0.000000,0.000000,0.000000 HipLeft:0.050563,-0.694996,0.710246,-0.099876 HipRight:-0.223945,0.661013,0.673711,-0.242947 KneeLeft:0.019011,-0.610894,0.027272,0.791014 KneeRight:-0.019117,0.792098,0.060512,0.607087 Neck:-0.177117,0.020453,0.981540,-0.069212 ShoulderLeft:0.116381,0.755122,-0.640604,-0.076629 ShoulderRight:-0.112793,0.780702,0.582566,-0.195959 SpineBase:-0.128000,0.021135,0.991080,-0.030498 SpineMid:-0.152070,0.021870,0.987673,-0.029975 SpineShoulder:-0.176982,0.020674,0.982785,-0.048831 ThumbLeft:0.000000,0.000000,0.000000,0.000000 ThumbRight:0.000000,0.000000,0.000000,0.000000 WristLeft:-0.055255,0.842623,-0.157419,0.512009 WristRight:0.178136,0.273024,-0.424523,0.844693 END:
KINECT_DATA POSITION:1.321697,-0.331983,-9.384346 HEAD_JOINT1:0.990140,0.139515,-0.000000,0.012614 LARM_JOINT2:0.821453,0.000000,0.018051,-0.569990 LARM_JOINT3:0.967083,0.000000,-0.223566,-0.121527 LLEG_JOINT2:0.999389,0.010407,0.000000,0.033378 LLEG_JOINT4:0.996239,0.084741,0.000000,-0.018074 RARM_JOINT2:0.890122,0.000000,-0.056624,0.452190 RARM_JOINT3:0.763390,0.000000,0.494110,0.416042 RLEG_JOINT2:0.998323,0.029272,0.000000,-0.049943 RLEG_JOINT4:0.993705,0.098363,0.000000,0.053628 WAIST:0.996776,-0.000000,0.080212,0.001938 WAIST_JOINT0:0.994561,-0.000000,0.102057,0.020811 WAIST_JOINT1:0.998152,0.060138,-0.000000,0.008715 END:
KINECT_DATA_Sensor  AnkleLeft:-0.066295,-0.694779,0.070023,0.712730 AnkleRight:0.085261,0.740281,0.094499,0.660140 ElbowLeft:-0.021087,0.791134,-0.200754,-0.577373 ElbowRight:-0.064570,0.881231,0.310055,0.350896 FootLeft:0.000000,0.000000,0.000000,0.000000 FootRight:0.000000,0.000000,0.000000,0.000000 HandLeft:-0.109131,0.779286,-0.148730,0.598902 HandRight:0.119133,0.398250,-0.482402,0.771034 HandTipLeft:0.000000,0.000000,0.000000,0.000000 HandTipRight:0.000000,0.000000,0.000000,0.000000 Head:0.000000,0.000000,0.000000,0.000000 HipLeft:0.075575,-0.690193,0.708736,-0.124963 HipRight:-0.186470,0.669062,0.685147,-0.219449 KneeLeft:0.015046,-0.648345,0.033547,0.760459 KneeRight:-0.017622,0.761249,0.053316,0.646024 Neck:-0.102918,0.006619,0.991706,-0.076707 ShoulderLeft:0.091628,0.761562,-0.640901,-0.029548 ShoulderRight:-0.040949,0.780955,0.609855,-0.128490 SpineBase:-0.079819,0.010833,0.996141,-0.034843 SpineMid:-0.091098,0.011227,0.995173,-0.034718 SpineShoulder:-0.102900,0.007364,0.993128,-0.055256 ThumbLeft:0.000000,0.000000,0.000000,0.000000 ThumbRight:0.000000,0.000000,0.000000,0.000000 WristLeft:-0.043852,0.789104,-0.151458,0.593676 WristRight:0.059195,0.390804,-0.401773,0.826043 END:
KINECT_DATA POSITION:1.295665,-0.237577,-9.372091 HEAD_JOINT1:0.988564,0.144283,-0.000000,0.043865 LARM_JOINT2:0.827560,0.000000,0.011505,-0.561260 LARM_JOINT3:0.967716,0.000000,-0.219141,-0.124514 LLEG_JOINT2:0.999233,0.014651,0.000000,0.036322 LLEG_JOINT4:0.996589,0.079872,0.000000,-0.020780 RARM_JOINT2:0.881867,0.000000,-0.146539,0.448147 RARM_JOINT3:0.787888,0.000000,0.374508,0.488852 RLEG_JOINT2:0.998725,0.025436,0.000000,-0.043615 RLEG_JOINT4:0.994217,0.098646,0.000000,0.042444 WAIST:0.998437,0.000000,0.055886,-0.000396 WAIST_JOINT0:0.998288,-0.000000,0.057849,0.008586 WAIST_JOINT1:0.997706,0.067538,-0.000000,0.004559 END:
KINECT_DATA_Sensor  AnkleLeft:0.065822,0.715529,-0.069366,-0.692007 AnkleRight:0.083259,0.748589,0.091671,0.651367 ElbowLeft:-0.025142,0.808586,-0.204858,-0.550990 ElbowRight:0.028761,0.865716,0.350289,0.356379 FootLeft:0.000000,0.000000,0.000000,0.000000 FootRight:0.000000,0.000000,0.000000,0.000000 HandLeft:-0.112237,0.804569,-0.120089,0.570658 HandRight:-0.109631,0.930346,-0.279491,0.210527 HandTipLeft:0.000000,0.000000,0.000000,0.000000 HandTipRight:0.000000,0.000000,0.000000,0.000000 Head:0.000000,0.000000,0.000000,0.000000 HipLeft:0.084567,-0.684583,0.710958,-0.136871 HipRight:-0.164277,0.666872,0.697199,-0.205448 KneeLeft:0.012971,-0.666684,0.036575,0.744330 KneeRight:-0.015801,0.745136,0.048327,0.664972 Neck:-0.058153,-0.000498,0.994732,-0.084414 ShoulderLeft:0.077061,0.764681,-0.639782,0.001902 ShoulderRight:0.001940,0.771937,0.629167,-0.090881 SpineBase:-0.055506,0.005279,0.997635,-0.040187 SpineMid:-0.056653,0.005325,0.997571,-0.040181 SpineShoulder:-0.058142,0.000883,0.996363,-0.062285 ThumbLeft:0.000000,0.000000,0.000000,0.000000 ThumbRight:0.000000,0.000000,0.000000,0.000000 WristLeft:-0.054018,0.812567,-0.145691,0.561775 WristRight:-0.213931,0.915382,-0.244483,0.237774 END:
KINECT_DATA POSITION:1.201072,-0.173047,-9.424030 HEAD_JOINT1:0.987718,0.146614,-0.000000,0.054012 LARM_JOINT2:0.829893,0.000000,0.009077,-0.557849 LARM_JOINT3:0.969055,0.000000,-0.208516,-0.132112 LLEG_JOINT2:0.999194,0.012431,0.000000,0.038170 LLEG_JOINT4:0.996204,0.083537,0.000000,-0.024486 RARM_JOINT2:0.861034,0.000000,-0.166003,0.480691 RARM_JOINT3:0.841656,0.000000,0.402014,0.360554 RLEG_JOINT2:0.998905,0.022827,0.000000,-0.040846 RLEG_JOINT4:0.994441,0.097780,0.000000,0.039067 WAIST:0.998900,0.000000,0.046868,-0.001479 WAIST_JOINT0:0.999081,-0.000000,0.042628,0.004525 WAIST_JOINT1:0.997563,0.069733,-0.000000,0.002499 END:
KINECT_DATA_Sensor  AnkleLeft:0.066750,0.707194,-0.069946,-0.700377 AnkleRight:0.080787,0.745203,0.089371,0.655865 ElbowLeft:-0.024863,0.820344,-0.205844,-0.532960 ElbowRight:0.042380,0.841436,0.328271,0.427116 FootLeft:0.000000,0.000000,0.000000,0.000000 FootRight:0.000000,0.000000,0.000000,0.000000 HandLeft:-0.100973,0.779346,-0.092694,0.611419 HandRight:0.160928,-0.408992,-0.206380,0.874205 HandTipLeft:0.000000,0.000000,0.000000,0.000000 HandTipRight:0.000000,0.000000,0.000000,0.000000 Head:0.000000,0.000000,0.000000,0.000000 HipLeft:0.086383,-0.684980,0.709723,-0.140123 HipRight:-0.154011,0.668147,0.700034,-0.199534 KneeLeft:0.015428,-0.673321,0.035562,0.738334 KneeRight:-0.015850,0.739062,0.045432,0.671917 Neck:-0.042778,-0.004002,0.995305,-0.086723 ShoulderLeft:0.071916,0.766578,-0.637995,0.012195 ShoulderRight:0.016757,0.769584,0.633598,-0.077551 SpineBase:-0.046503,0.002736,0.998029,-0.042060 SpineMid:-0.044486,0.002651,0.998120,-0.042065 SpineShoulder:-0.042750,-0.002042,0.997013,-0.064290 ThumbLeft:0.000000,0.000000,0.000000,0.000000 ThumbRight:0.000000,0.000000,0.000000,0.000000 WristLeft:-0.047073,0.786869,-0.141511,0.598828 WristRight:0.187756,-0.400245,-0.193296,0.875893 END:
KINECT_DATA POSITION:0.916192,-0.176852,-9.587086 HEAD_JOINT1:0.985402,0.156064,-0.000000,0.068015 LARM_JOINT2:0.831777,0.000000,0.008606,-0.555044 LARM_JOINT3:0.967998,0.000000,-0.208482,-0.139697 LLEG_JOINT2:0.999183,0.011149,0.000000,0.038859 LLEG_JOINT4:0.995973,0.085023,0.000000,-0.028430 RARM_JOINT2:0.841766,0.000000,-0.158219,0.516137 RARM_JOINT3:0.896773,0.000000,0.341268,0.281663 RLEG_JOINT2:0.998934,0.023065,0.000000,-0.039983 RLEG_JOINT4:0.995113,0.091853,0.000000,0.036249 WAIST:0.999367,0.000000,0.035560,-0.000424 WAIST_JOINT0:0.999598,-0.000000,0.028253,0.002260 WAIST_JOINT1:0.997433,0.071592,0.000000,-0.001391 END:
KINECT_DATA_Sensor  AnkleLeft:0.067095,0.711006,-0.069469,-0.696522 AnkleRight:0.078517,0.749337,0.083737,0.652163 ElbowLeft:-0.024104,0.831805,-0.206909,-0.514497 ElbowRight:0.047061,0.829693,0.295902,0.470996 FootLeft:0.000000,0.000000,0.000000,0.000000 FootRight:0.000000,0.000000,0.000000,0.000000 HandLeft:-0.103560,0.796968,-0.073975,0.590462 HandRight:0.084602,-0.466167,-0.115933,0.872978 HandTipLeft:0.000000,0.000000,0.000000,0.000000 HandTipRight:0.000000,0.000000,0.000000,0.000000 Head:0.000000,0.000000,0.000000,0.000000 HipLeft:0.090407,-0.683958,0.709085,-0.145691 HipRight:-0.142724,0.670560,0.701105,-0.196040 KneeLeft:0.018009,-0.681292,0.035743,0.730917 KneeRight:-0.013799,0.731634,0.044442,0.680107 Neck:-0.028448,-0.006732,0.995635,-0.088642 ShoulderLeft:0.064609,0.768131,-0.636589,0.023563 ShoulderRight:0.028121,0.768420,0.635826,-0.066816 SpineBase:-0.035503,-0.001996,0.998346,-0.045164 SpineMid:-0.031940,-0.002157,0.998467,-0.045157 SpineShoulder:-0.028391,-0.004261,0.997412,-0.065921 ThumbLeft:0.000000,0.000000,0.000000,0.000000 ThumbRight:0.000000,0.000000,0.000000,0.000000 WristLeft:-0.059828,0.803598,-0.134299,0.576728 WristRight:0.118338,-0.462522,-0.169516,0.862168 END:
KINECT_DATA POSITION:0.709985,-0.230990,-9.641945 HEAD_JOINT1:0.984307,0.158027,-0.000000,0.078536 LARM_JOINT2:0.832314,0.000000,0.005727,-0.554275 LARM_JOINT3:0.968228,0.000000,-0.207797,-0.139120 LLEG_JOINT2:0.999165,0.010263,0.000000,0.039540 LLEG_JOINT4:0.995707,0.087275,0.000000,-0.030844 RARM_JOINT2:0.825628,0.000000,-0.137005,0.547329 RARM_JOINT3:0.926580,0.000000,0.305734,0.219037 RLEG_JOINT2:0.998963,0.022716,0.000000,-0.039447 RLEG_JOINT4:0.995142,0.091909,0.000000,0.035290 WAIST:0.999517,-0.000000,0.031072,0.000695 WAIST_JOINT0:0.999779,-0.000000,0.020508,0.004650 WAIST_JOINT1:0.997414,0.071759,0.000000,-0.004091 END:
KINECT_DATA_Sensor  AnkleLeft:-0.065913,-0.691257,0.072299,0.715955 AnkleRight:0.079688,0.750859,0.082148,0.650471 ElbowLeft:-0.025941,0.836397,-0.205261,-0.507577 ElbowRight:0.043330,0.828867,0.261364,0.492738 FootLeft:0.000000,0.000000,0.000000,0.000000 FootRight:0.000000,0.000000,0.000000,0.000000 HandLeft:-0.103019,0.784529,-0.079441,0.606292 HandRight:0.059868,-0.596701,-0.102594,0.793623 HandTipLeft:0.000000,0.000000,0.000000,0.000000 HandTipRight:0.000000,0.000000,0.000000,0.000000 Head:0.000000,0.000000,0.000000,0.000000 HipLeft:0.093461,-0.682852,0.709178,-0.148476 HipRight:-0.139389,0.671634,0.700876,-0.195578 KneeLeft:0.020083,-0.684315,0.036337,0.728004 KneeRight:-0.012654,0.728736,0.043089,0.683321 Neck:-0.021154,-0.007910,0.995817,-0.088537 ShoulderLeft:0.061866,0.768279,-0.636517,0.027690 ShoulderRight:0.035143,0.771294,0.632719,-0.059477 SpineBase:-0.031228,-0.004159,0.998442,-0.046059 SpineMid:-0.026231,-0.004390,0.998586,-0.046038 SpineShoulder:-0.021149,-0.005826,0.997575,-0.066052 ThumbLeft:0.000000,0.000000,0.000000,0.000000 ThumbRight:0.000000,0.000000,0.000000,0.000000 WristLeft:-0.059403,0.791094,-0.133990,0.593875 WristRight:0.101966,-0.590405,-0.138201,0.788623 END:
KINECT_DATA POSITION:0.456849,-0.450490,-9.450758 HEAD_JOINT1:0.983526,0.160022,-0.000000,0.084081 LARM_JOINT2:0.830462,0.000000,-0.000472,-0.557076 LARM_JOINT3:0.969916,0.000000,-0.199262,-0.139852 LLEG_JOINT2:0.999100,0.012349,0.000000,0.040574 LLEG_JOINT4:0.995887,0.084460,0.000000,-0.032792 RARM_JOINT2:0.810404,0.000000,-0.099353,0.577385 RARM_JOINT3:0.955509,0.000000,0.250179,0.156248 RLEG_JOINT2:0.998970,0.022866,0.000000,-0.039196 RLEG_JOINT4:0.995209,0.091063,0.000000,0.035591 WAIST:0.999645,-0.000000,0.026600,0.001585 WAIST_JOINT0:0.999835,-0.000000,0.015558,0.009351 WAIST_JOINT1:0.997523,0.069981,0.000000,-0.007144 END:
KINECT_DATA_Sensor  AnkleLeft:-0.065639,-0.700311,0.071516,0.707207 AnkleRight:0.080954,0.751505,0.079845,0.649855 ElbowLeft:-0.029289,0.842394,-0.197255,-0.500605 ElbowRight:0.028626,0.832159,0.221007,0.507787 FootLeft:0.000000,0.000000,0.000000,0.000000 FootRight:0.000000,0.000000,0.000000,0.000000 HandLeft:-0.083962,0.696980,-0.070766,0.708633 HandRight:0.029962,-0.523409,-0.097181,0.845991 HandTipLeft:0.000000,0.000000,0.000000,0.000000 HandTipRight:0.000000,0.000000,0.000000,0.000000 Head:0.000000,0.000000,0.000000,0.000000 HipLeft:0.099438,-0.682035,0.708938,-0.149490 HipRight:-0.138661,0.672729,0.700511,-0.193630 KneeLeft:0.020073,-0.687402,0.039059,0.724948 KneeRight:-0.011540,0.725812,0.042456,0.686485 Neck:-0.016793,-0.009157,0.996054,-0.086665 ShoulderLeft:0.055164,0.770464,-0.634301,0.031689 ShoulderRight:0.034549,0.778877,0.623680,-0.056395 SpineBase:-0.026959,-0.006809,0.998661,-0.043628 SpineMid:-0.022016,-0.007024,0.998782,-0.043593 SpineShoulder:-0.016884,-0.007768,0.997763,-0.064219 ThumbLeft:0.000000,0.000000,0.000000,0.000000 ThumbRight:0.000000,0.000000,0.000000,0.000000 WristLeft:-0.051346,0.712658,-0.138316,0.685822 WristRight:0.043894,-0.521310,-0.124148,0.843147 END:
KINECT_DATA POSITION:0.320730,-0.635904,-9.262562 HEAD_JOINT1:0.983443,0.161747,-0.000000,0.081716 LARM_JOINT2:0.828534,0.000000,0.000058,-0.559939 LARM_JOINT3:0.971728,0.000000,-0.193702,-0.134996 LLEG_JOINT2:0.999113,0.011945,0.000000,0.040375 LLEG_JOINT4:0.995695,0.087684,0.000000,-0.030038 RARM_JOINT2:0.806372,0.000000,-0.082263,0.585660 RARM_JOINT3:0.965833,0.000000,0.224633,0.129252 RLEG_JOINT2:0.998959,0.024061,0.000000,-0.038755 RLEG_JOINT4:0.995054,0.092320,0.000000,0.036666 WAIST:0.999610,-0.000000,0.027865,0.001992 WAIST_JOINT0:0.999768,-0.000000,0.017377,0.012765 WAIST_JOINT1:0.997635,0.068204,0.000000,-0.008514 END:
KINECT_DATA_Sensor  AnkleLeft:-0.065210,-0.693172,0.076048,0.713776 AnkleRight:0.080860,0.727159,0.083339,0.676577 ElbowLeft:-0.028721,0.840597,-0.192812,-0.505367 ElbowRight:0.020142,0.839061,0.206726,0.502827 FootLeft:0.000000,0.000000,0.000000,0.000000 FootRight:0.000000,0.000000,0.000000,0.000000 HandLeft:-0.077682,0.774848,-0.056454,0.624812 HandRight:-0.001894,-0.435031,-0.116413,0.892856 HandTipLeft:0.000000,0.000000,0.000000,0.000000 HandTipRight:0.000000,0.000000,0.000000,0.000000 Head:0.000000,0.000000,0.000000,0.000000 HipLeft:0.100545,-0.682107,0.709194,-0.147188 HipRight:-0.140711,0.672804,0.699991,-0.193770 KneeLeft:0.020473,-0.686412,0.038947,0.725881 KneeRight:-0.010164,0.726722,0.042716,0.685527 Neck:-0.018884,-0.009828,0.996157,-0.084955 ShoulderLeft:0.052292,0.772596,-0.631982,0.030976 ShoulderRight:0.029255,0.784947,0.616081,-0.058699 SpineBase:-0.028291,-0.008015,0.998704,-0.041546 SpineMid:-0.023776,-0.008202,0.998821,-0.041510 SpineShoulder:-0.019034,-0.008777,0.997834,-0.062359 ThumbLeft:0.000000,0.000000,0.000000,0.000000 ThumbRight:0.000000,0.000000,0.000000,0.000000 WristLeft:-0.064527,0.777688,-0.131528,0.611341 WristRight:0.012692,-0.433490,-0.113182,0.893932 END:
