EastLYD/RoboCupatHomeSim/InteractiveCleanUp/JapanOpen2016/Motion_Data/File26.dat
KINECT_DATA POSITION:0.560759,-1.085456,-5.872929 HEAD_JOINT1:0.980100,0.164844,-0.000000,0.110591 LARM_JOINT2:0.829127,0.000000,-0.036372,-0.557876 LARM_JOINT3:0.956237,0.000000,-0.191214,-0.221467 LLEG_JOINT2:0.998119,0.003390,0.000000,0.061216 LLEG_JOINT4:0.994499,0.101099,0.000000,-0.027401 RARM_JOINT2:0.791716,0.000000,-0.063227,0.607609 RARM_JOINT3:0.949303,0.000000,0.284127,0.134522 RLEG_JOINT2:0.999468,0.014453,0.000000,-0.029237 RLEG_JOINT4:0.994659,0.097376,0.000000,0.034223 WAIST:0.999959,0.000000,0.008470,-0.003202 WAIST_JOINT0:0.999763,0.000000,-0.021585,0.002981 WAIST_JOINT1:0.996854,0.077464,0.000000,-0.016782 END:
KINECT_DATA_Sensor  AnkleLeft:0.056422,0.717380,-0.092853,-0.688157 AnkleRight:0.079413,0.703364,0.078599,0.701993 ElbowLeft:-0.022108,0.911437,-0.175373,-0.371535 ElbowRight:0.016270,0.808219,0.193985,0.555777 FootLeft:0.000000,0.000000,0.000000,0.000000 FootRight:0.000000,0.000000,0.000000,0.000000 HandLeft:-0.185398,0.632565,0.059954,0.749596 HandRight:-0.194689,0.979889,-0.027466,0.034043 HandTipLeft:0.000000,0.000000,0.000000,0.000000 HandTipRight:0.000000,0.000000,0.000000,0.000000 Head:0.000000,0.000000,0.000000,0.000000 HipLeft:0.107332,-0.681594,0.705395,-0.162257 HipRight:-0.120154,0.669226,0.708017,-0.190820 KneeLeft:0.038294,-0.699045,0.043722,0.712712 KneeRight:-0.012927,0.713651,0.033086,0.699601 Neck:0.019423,-0.024765,0.995155,-0.093149 ShoulderLeft:0.040699,0.777010,-0.625223,0.060791 ShoulderRight:0.067364,0.775945,0.626545,-0.028499 SpineBase:-0.009048,-0.018227,0.998448,-0.051837 SpineMid:0.004912,-0.018950,0.998477,-0.051577 SpineShoulder:0.019239,-0.022101,0.997016,-0.071417 ThumbLeft:0.000000,0.000000,0.000000,0.000000 ThumbRight:0.000000,0.000000,0.000000,0.000000 WristLeft:-0.119533,0.645100,-0.088093,0.749532 WristRight:-0.164306,0.985089,0.023993,0.045025 END:
KINECT_DATA POSITION:0.597988,-1.097821,-5.819094 HEAD_JOINT1:0.979953,0.167327,-0.000000,0.108136 LARM_JOINT2:0.828659,0.000000,-0.036068,-0.558590 LARM_JOINT3:0.956750,0.000000,-0.192630,-0.217999 LLEG_JOINT2:0.998122,0.003382,0.000000,0.061158 LLEG_JOINT4:0.993970,0.104483,0.000000,-0.033276 RARM_JOINT2:0.791475,0.000000,-0.063669,0.607876 RARM_JOINT3:0.949525,0.000000,0.284475,0.132200 RLEG_JOINT2:0.999453,0.015819,0.000000,-0.029045 RLEG_JOINT4:0.995041,0.093159,0.000000,0.034848 WAIST:0.999951,0.000000,0.009330,-0.003231 WAIST_JOINT0:0.999768,0.000000,-0.021374,0.002695 WAIST_JOINT1:0.996861,0.077426,0.000000,-0.016540 END:
KINECT_DATA_Sensor  AnkleLeft:0.067707,0.751715,-0.087227,-0.650178 AnkleRight:0.077841,0.703605,0.076160,0.702197 ElbowLeft:-0.021617,0.910909,-0.174903,-0.373076 ElbowRight:0.016478,0.808085,0.193713,0.556060 FootLeft:0.000000,0.000000,0.000000,0.000000 FootRight:0.000000,0.000000,0.000000,0.000000 HandLeft:-0.184455,0.532326,0.023979,0.825851 HandRight:-0.193556,0.979757,-0.018799,0.047529 HandTipLeft:0.000000,0.000000,0.000000,0.000000 HandTipRight:0.000000,0.000000,0.000000,0.000000 Head:0.000000,0.000000,0.000000,0.000000 HipLeft:0.106716,-0.681703,0.705492,-0.161785 HipRight:-0.120628,0.669085,0.707966,-0.191203 KneeLeft:0.038198,-0.698449,0.043689,0.713303 KneeRight:-0.011880,0.714226,0.033936,0.698991 Neck:0.019254,-0.024651,0.995167,-0.093077 ShoulderLeft:0.040930,0.776823,-0.625468,0.060501 ShoulderRight:0.067364,0.775592,0.626982,-0.028510 SpineBase:-0.009895,-0.018093,0.998442,-0.051856 SpineMid:0.004404,-0.018834,0.998481,-0.051592 SpineShoulder:0.019069,-0.022013,0.997026,-0.071356 ThumbLeft:0.000000,0.000000,0.000000,0.000000 ThumbRight:0.000000,0.000000,0.000000,0.000000 WristLeft:-0.107464,0.542187,-0.102996,0.826968 WristRight:-0.164766,0.984482,0.021823,0.056316 END:
KINECT_DATA POSITION:0.616780,-1.102851,-5.775881 HEAD_JOINT1:0.979923,0.167603,-0.000000,0.107984 LARM_JOINT2:0.828535,0.000000,-0.035721,-0.558797 LARM_JOINT3:0.956228,0.000000,-0.193674,-0.219360 LLEG_JOINT2:0.998125,0.003412,0.000000,0.061106 LLEG_JOINT4:0.994337,0.101571,0.000000,-0.031267 RARM_JOINT2:0.791511,0.000000,-0.063567,0.607840 RARM_JOINT3:0.947766,0.000000,0.288436,0.136180 RLEG_JOINT2:0.999444,0.015921,0.000000,-0.029291 RLEG_JOINT4:0.994773,0.095757,0.000000,0.035469 WAIST:0.999951,0.000000,0.009411,-0.003141 WAIST_JOINT0:0.999777,0.000000,-0.020946,0.002602 WAIST_JOINT1:0.996870,0.077293,0.000000,-0.016624 END:
KINECT_DATA_Sensor  AnkleLeft:0.059487,0.716505,-0.090264,-0.689154 AnkleRight:0.082833,0.728493,0.074796,0.675901 ElbowLeft:-0.021518,0.910558,-0.174754,-0.374008 ElbowRight:0.016332,0.808350,0.193627,0.555708 FootLeft:0.000000,0.000000,0.000000,0.000000 FootRight:0.000000,0.000000,0.000000,0.000000 HandLeft:-0.185172,0.638681,0.049080,0.745244 HandRight:-0.208938,0.976986,-0.032551,0.027991 HandTipLeft:0.000000,0.000000,0.000000,0.000000 HandTipRight:0.000000,0.000000,0.000000,0.000000 Head:0.000000,0.000000,0.000000,0.000000 HipLeft:0.106722,-0.681678,0.705557,-0.161601 HipRight:-0.120693,0.669162,0.707902,-0.191129 KneeLeft:0.038200,-0.698388,0.043740,0.713359 KneeRight:-0.011923,0.714282,0.034116,0.698924 Neck:0.018863,-0.024606,0.995187,-0.092957 ShoulderLeft:0.040992,0.776636,-0.625725,0.060204 ShoulderRight:0.066916,0.775333,0.627335,-0.028848 SpineBase:-0.009983,-0.018103,0.998448,-0.051722 SpineMid:0.004164,-0.018834,0.998489,-0.051461 SpineShoulder:0.018675,-0.021989,0.997043,-0.071227 ThumbLeft:0.000000,0.000000,0.000000,0.000000 ThumbRight:0.000000,0.000000,0.000000,0.000000 WristLeft:-0.120814,0.650557,-0.087525,0.744660 WristRight:-0.165731,0.985033,0.023539,0.041106 END:
KINECT_DATA POSITION:0.693798,-1.111812,-5.631912 HEAD_JOINT1:0.980766,0.163912,-0.000000,0.105977 LARM_JOINT2:0.828055,0.000000,-0.035721,-0.559508 LARM_JOINT3:0.956516,0.000000,-0.192989,-0.218706 LLEG_JOINT2:0.998193,0.004359,0.000000,0.059929 LLEG_JOINT4:0.994097,0.104109,0.000000,-0.030553 RARM_JOINT2:0.797338,0.000000,-0.049650,0.601487 RARM_JOINT3:0.929404,0.000000,0.331926,0.161349 RLEG_JOINT2:0.999407,0.016553,0.000000,-0.030208 RLEG_JOINT4:0.994632,0.097143,0.000000,0.035649 WAIST:0.999921,0.000000,0.012201,-0.002910 WAIST_JOINT0:0.999869,0.000000,-0.015570,0.004416 WAIST_JOINT1:0.996968,0.076189,0.000000,-0.015805 END:
KINECT_DATA_Sensor  AnkleLeft:0.066732,0.745833,-0.089236,-0.656747 AnkleRight:0.081029,0.706420,0.079628,0.698616 ElbowLeft:-0.022597,0.908291,-0.174550,-0.379512 ElbowRight:0.006567,0.825477,0.193288,0.530268 FootLeft:0.000000,0.000000,0.000000,0.000000 FootRight:0.000000,0.000000,0.000000,0.000000 HandLeft:-0.187945,0.425168,0.007305,0.885356 HandRight:-0.278802,0.957354,-0.012991,-0.074661 HandTipLeft:0.000000,0.000000,0.000000,0.000000 HandTipRight:0.000000,0.000000,0.000000,0.000000 Head:0.000000,0.000000,0.000000,0.000000 HipLeft:0.106152,-0.682034,0.705814,-0.159337 HipRight:-0.123968,0.669261,0.707166,-0.191410 KneeLeft:0.036724,-0.696599,0.043845,0.715177 KneeRight:-0.012065,0.716132,0.035017,0.696981 Neck:0.013519,-0.022985,0.995482,-0.091130 ShoulderLeft:0.043054,0.776789,-0.625768,0.056221 ShoulderRight:0.062052,0.777327,0.625148,-0.033188 SpineBase:-0.012707,-0.016913,0.998530,-0.049909 SpineMid:0.000131,-0.017554,0.998611,-0.049688 SpineShoulder:0.013286,-0.021092,0.997207,-0.070409 ThumbLeft:0.000000,0.000000,0.000000,0.000000 ThumbRight:0.000000,0.000000,0.000000,0.000000 WristLeft:-0.094074,0.433976,-0.119376,0.888011 WristRight:-0.211861,0.974873,0.011937,-0.067786 END:
KINECT_DATA POSITION:1.033622,-1.164523,-5.242789 HEAD_JOINT1:0.983474,0.156481,-0.000000,0.091059 LARM_JOINT2:0.824447,0.000000,-0.023496,-0.565452 LARM_JOINT3:0.958884,0.000000,-0.193464,-0.207637 LLEG_JOINT2:0.998575,0.008627,0.000000,0.052664 LLEG_JOINT4:0.994795,0.099088,0.000000,-0.023761 RARM_JOINT2:0.815463,0.000000,-0.007065,0.578766 RARM_JOINT3:0.903528,0.000000,0.387420,0.183146 RLEG_JOINT2:0.999155,0.018945,0.000000,-0.036470 RLEG_JOINT4:0.994151,0.100154,0.000000,0.040415 WAIST:0.999810,0.000000,0.019500,-0.000534 WAIST_JOINT0:0.999898,-0.000000,0.007898,0.011930 WAIST_JOINT1:0.997493,0.069883,0.000000,-0.011152 END:
KINECT_DATA_Sensor  AnkleLeft:-0.060078,-0.700637,0.093528,0.704805 AnkleRight:0.085733,0.718476,0.082478,0.685303 ElbowLeft:-0.021789,0.895088,-0.176440,-0.408916 ElbowRight:-0.035486,0.846356,0.190181,0.496240 FootLeft:0.000000,0.000000,0.000000,0.000000 FootRight:0.000000,0.000000,0.000000,0.000000 HandLeft:-0.140533,0.578221,0.028075,0.803195 HandRight:-0.352630,0.889201,0.045972,-0.287854 HandTipLeft:0.000000,0.000000,0.000000,0.000000 HandTipRight:0.000000,0.000000,0.000000,0.000000 Head:0.000000,0.000000,0.000000,0.000000 HipLeft:0.104888,-0.681952,0.707508,-0.152880 HipRight:-0.133756,0.671208,0.703695,-0.190795 KneeLeft:0.029921,-0.692044,0.043554,0.719919 KneeRight:-0.013485,0.720951,0.039328,0.691737 Neck:-0.009638,-0.012221,0.996496,-0.082185 ShoulderLeft:0.052909,0.776146,-0.627276,0.036381 ShoulderRight:0.041815,0.785360,0.615610,-0.049859 SpineBase:-0.019888,-0.011224,0.998777,-0.043851 SpineMid:-0.015050,-0.011436,0.998862,-0.043796 SpineShoulder:-0.010048,-0.014185,0.997705,-0.065439 ThumbLeft:0.000000,0.000000,0.000000,0.000000 ThumbRight:0.000000,0.000000,0.000000,0.000000 WristLeft:-0.110920,0.588221,-0.112701,0.793089 WristRight:-0.292614,0.909359,0.043377,-0.292509 END:
KINECT_DATA POSITION:1.757386,-1.197083,-4.788566 HEAD_JOINT1:0.985774,0.154565,-0.000000,0.066022 LARM_JOINT2:0.814085,0.000000,0.001225,-0.580744 LARM_JOINT3:0.960766,0.000000,-0.203675,-0.188268 LLEG_JOINT2:0.999250,0.014614,0.000000,0.035865 LLEG_JOINT4:0.995727,0.091181,0.000000,-0.014641 RARM_JOINT2:0.838771,0.000000,0.082223,0.538240 RARM_JOINT3:0.882999,0.000000,0.411342,0.226076 RLEG_JOINT2:0.998302,0.022126,0.000000,-0.053887 RLEG_JOINT4:0.993559,0.102618,0.000000,0.048061 WAIST:0.999419,-0.000000,0.033329,0.007187 WAIST_JOINT0:0.998579,-0.000000,0.049665,0.019332 WAIST_JOINT1:0.998264,0.058836,0.000000,-0.002794 END:
KINECT_DATA_Sensor  AnkleLeft:-0.057887,-0.677502,0.092489,0.727383 AnkleRight:0.088560,0.740053,0.087141,0.660973 ElbowLeft:-0.018750,0.864646,-0.178001,-0.469415 ElbowRight:-0.113041,0.885464,0.170361,0.417317 FootLeft:0.000000,0.000000,0.000000,0.000000 FootRight:0.000000,0.000000,0.000000,0.000000 HandLeft:-0.120516,0.707389,0.019485,0.696202 HandRight:-0.397837,0.891970,-0.141457,-0.161573 HandTipLeft:0.000000,0.000000,0.000000,0.000000 HandTipRight:0.000000,0.000000,0.000000,0.000000 Head:0.000000,0.000000,0.000000,0.000000 HipLeft:0.100403,-0.678930,0.713017,-0.143458 HipRight:-0.150666,0.676224,0.694925,-0.192611 KneeLeft:0.018894,-0.682593,0.041258,0.729388 KneeRight:-0.019100,0.730317,0.047922,0.681157 Neck:-0.050252,0.006135,0.996151,-0.071563 ShoulderLeft:0.066480,0.773924,-0.629779,0.001090 ShoulderRight:0.002701,0.791466,0.606066,-0.079107 SpineBase:-0.033738,0.001250,0.998777,-0.036105 SpineMid:-0.042097,0.001553,0.998460,-0.036094 SpineShoulder:-0.050534,0.002530,0.997231,-0.054509 ThumbLeft:0.000000,0.000000,0.000000,0.000000 ThumbRight:0.000000,0.000000,0.000000,0.000000 WristLeft:-0.117572,0.727107,-0.114577,0.666607 WristRight:-0.374546,0.913483,-0.078278,-0.138335 END:
KINECT_DATA POSITION:2.186556,-1.239231,-4.674494 HEAD_JOINT1:0.986532,0.157314,-0.000000,0.044791 LARM_JOINT2:0.806314,0.000000,0.019243,-0.591175 LARM_JOINT3:0.960306,0.000000,-0.210566,-0.182957 LLEG_JOINT2:0.999568,0.016401,0.000000,0.024410 LLEG_JOINT4:0.995759,0.091110,0.000000,-0.012727 RARM_JOINT2:0.846799,0.000000,0.126496,0.516652 RARM_JOINT3:0.879871,0.000000,0.415354,0.230887 RLEG_JOINT2:0.997544,0.024460,0.000000,-0.065625 RLEG_JOINT4:0.993510,0.101488,0.000000,0.051357 WAIST:0.999013,-0.000000,0.042237,0.013731 WAIST_JOINT0:0.996548,-0.000000,0.078866,0.025936 WAIST_JOINT1:0.998463,0.055377,-0.000000,0.002204 END:
KINECT_DATA_Sensor  AnkleLeft:0.068090,0.721951,-0.086036,-0.683190 AnkleRight:0.088274,0.754932,0.088589,0.643768 ElbowLeft:-0.011242,0.846058,-0.181056,-0.501276 ElbowRight:-0.149516,0.899952,0.156094,0.378636 FootLeft:0.000000,0.000000,0.000000,0.000000 FootRight:0.000000,0.000000,0.000000,0.000000 HandLeft:-0.140584,0.705948,0.002823,0.694166 HandRight:-0.425239,0.768704,-0.000304,-0.477772 HandTipLeft:0.000000,0.000000,0.000000,0.000000 HandTipRight:0.000000,0.000000,0.000000,0.000000 Head:0.000000,0.000000,0.000000,0.000000 HipLeft:0.096424,-0.675486,0.717684,-0.139107 HipRight:-0.160214,0.679889,0.688321,-0.195696 KneeLeft:0.014132,-0.676077,0.038778,0.735674 KneeRight:-0.021996,0.736469,0.052759,0.674052 Neck:-0.079171,0.017752,0.994285,-0.069388 ShoulderLeft:0.078538,0.768708,-0.634385,-0.021807 ShoulderRight:-0.022478,0.793463,0.599683,-0.101445 SpineBase:-0.042770,0.009485,0.998479,-0.033474 SpineMid:-0.060894,0.010091,0.997538,-0.033296 SpineShoulder:-0.079211,0.014881,0.995481,-0.050217 ThumbLeft:0.000000,0.000000,0.000000,0.000000 ThumbRight:0.000000,0.000000,0.000000,0.000000 WristLeft:-0.102010,0.731245,-0.121687,0.663376 WristRight:-0.417737,0.781016,0.037404,-0.462722 END:
KINECT_DATA POSITION:2.617376,-1.182483,-4.617393 HEAD_JOINT1:0.987404,0.156946,-0.000000,0.020024 LARM_JOINT2:0.798602,0.000000,0.028292,-0.601194 LARM_JOINT3:0.960462,0.000000,-0.214203,-0.177850 LLEG_JOINT2:0.999728,0.019915,0.000000,0.012173 LLEG_JOINT4:0.996869,0.078991,0.000000,-0.003684 RARM_JOINT2:0.856396,0.000000,0.181120,0.483509 RARM_JOINT3:0.873593,0.000000,0.430135,0.227637 RLEG_JOINT2:0.996497,0.029583,0.000000,-0.078222 RLEG_JOINT4:0.993220,0.100492,0.000000,0.058434 WAIST:0.998117,-0.000000,0.057690,0.020857 WAIST_JOINT0:0.993644,-0.000000,0.107929,0.031973 WAIST_JOINT1:0.998566,0.052976,-0.000000,0.007692 END:
KINECT_DATA_Sensor  AnkleLeft:-0.051724,-0.644334,0.087735,0.757932 AnkleRight:0.091101,0.768860,0.090634,0.626371 ElbowLeft:-0.007500,0.828348,-0.182658,-0.529546 ElbowRight:-0.198275,0.913049,0.142065,0.326873 FootLeft:0.000000,0.000000,0.000000,0.000000 FootRight:0.000000,0.000000,0.000000,0.000000 HandLeft:-0.132026,0.698978,-0.016187,0.702664 HandRight:-0.481564,0.729577,-0.012243,-0.485451 HandTipLeft:0.000000,0.000000,0.000000,0.000000 HandTipRight:0.000000,0.000000,0.000000,0.000000 Head:0.000000,0.000000,0.000000,0.000000 HipLeft:0.087520,-0.671656,0.723865,-0.131294 HipRight:-0.174229,0.682422,0.680605,-0.201796 KneeLeft:0.007961,-0.664519,0.037077,0.746308 KneeRight:-0.023891,0.747093,0.059462,0.661623 Neck:-0.108106,0.029684,0.991404,-0.067450 ShoulderLeft:0.093128,0.762476,-0.638644,-0.045734 ShoulderRight:-0.045082,0.794692,0.592783,-0.122640 SpineBase:-0.058294,0.019662,0.997617,-0.031228 SpineMid:-0.082898,0.020427,0.995875,-0.030733 SpineShoulder:-0.107876,0.027528,0.992670,-0.047021 ThumbLeft:0.000000,0.000000,0.000000,0.000000 ThumbRight:0.000000,0.000000,0.000000,0.000000 WristLeft:-0.092131,0.721189,-0.132423,0.673693 WristRight:-0.450016,0.752842,0.016392,-0.480048 END:
KINECT_DATA POSITION:2.729978,-1.134144,-4.643250 HEAD_JOINT1:0.986960,0.160693,-0.000000,0.009329 LARM_JOINT2:0.795476,0.000000,0.027964,-0.605339 LARM_JOINT3:0.961176,0.000000,-0.211603,-0.177103 LLEG_JOINT2:0.999825,0.017163,0.000000,0.007493 LLEG_JOINT4:0.996682,0.081369,0.000000,-0.001888 RARM_JOINT2:0.866082,0.000000,0.323417,0.381187 RARM_JOINT3:0.879926,0.000000,0.390435,0.270722 RLEG_JOINT2:0.996000,0.033673,0.000000,-0.082770 RLEG_JOINT4:0.993226,0.099220,0.000000,0.060484 WAIST:0.997307,-0.000000,0.069325,0.023916 WAIST_JOINT0:0.993420,-0.000000,0.110047,0.031717 WAIST_JOINT1:0.998674,0.050697,-0.000000,0.008937 END:
KINECT_DATA_Sensor  AnkleLeft:-0.052860,-0.642825,0.086193,0.759311 AnkleRight:0.091131,0.769850,0.093888,0.624669 ElbowLeft:-0.008304,0.820250,-0.180619,-0.542677 ElbowRight:-0.316375,0.927318,0.168166,0.108208 FootLeft:0.000000,0.000000,0.000000,0.000000 FootRight:0.000000,0.000000,0.000000,0.000000 HandLeft:-0.136803,0.744969,-0.009114,0.652857 HandRight:0.525270,-0.649829,0.018206,0.549074 HandTipLeft:0.000000,0.000000,0.000000,0.000000 HandTipRight:0.000000,0.000000,0.000000,0.000000 Head:0.000000,0.000000,0.000000,0.000000 HipLeft:0.081000,-0.670042,0.727419,-0.123871 HipRight:-0.183673,0.682670,0.676840,-0.205216 KneeLeft:0.008874,-0.655804,0.033822,0.754121 KneeRight:-0.023308,0.755043,0.062933,0.652232 Neck:-0.110199,0.032193,0.991209,-0.065767 ShoulderLeft:0.099373,0.759834,-0.640191,-0.054155 ShoulderRight:-0.041269,0.794754,0.593991,-0.117635 SpineBase:-0.069890,0.025086,0.996823,-0.028819 SpineMid:-0.089629,0.025652,0.995242,-0.028317 SpineShoulder:-0.109821,0.030999,0.992453,-0.044895 ThumbLeft:0.000000,0.000000,0.000000,0.000000 ThumbRight:0.000000,0.000000,0.000000,0.000000 WristLeft:-0.096292,0.765187,-0.130767,0.622990 WristRight:0.427924,-0.681215,0.009430,0.593918 END:
KINECT_DATA POSITION:2.693188,-1.128787,-4.708350 HEAD_JOINT1:0.986978,0.160828,-0.000000,0.002791 LARM_JOINT2:0.794420,0.000000,0.025676,-0.606826 LARM_JOINT3:0.961541,0.000000,-0.211249,-0.175536 LLEG_JOINT2:0.999880,0.013584,0.000000,0.007388 LLEG_JOINT4:0.996387,0.084910,0.000000,0.001905 RARM_JOINT2:0.860793,0.000000,0.348803,0.370638 RARM_JOINT3:0.885409,0.000000,0.386485,0.258224 RLEG_JOINT2:0.995673,0.035515,0.000000,-0.085877 RLEG_JOINT4:0.992940,0.098107,0.000000,0.066672 WAIST:0.996335,-0.000000,0.081694,0.025359 WAIST_JOINT0:0.990086,-0.000000,0.135757,0.036050 WAIST_JOINT1:0.998765,0.048735,-0.000000,0.009686 END:
KINECT_DATA_Sensor  AnkleLeft:-0.049645,-0.627905,0.089432,0.771539 AnkleRight:0.094140,0.781858,0.091483,0.609480 ElbowLeft:-0.009581,0.814861,-0.179342,-0.551131 ElbowRight:-0.341773,0.922817,0.146785,0.100269 FootLeft:0.000000,0.000000,0.000000,0.000000 FootRight:0.000000,0.000000,0.000000,0.000000 HandLeft:-0.137108,0.776012,-0.010112,0.615553 HandRight:0.530895,-0.593083,-0.006046,0.605282 HandTipLeft:0.000000,0.000000,0.000000,0.000000 HandTipRight:0.000000,0.000000,0.000000,0.000000 Head:0.000000,0.000000,0.000000,0.000000 HipLeft:0.074615,-0.670333,0.729177,-0.115705 HipRight:-0.191654,0.682874,0.673538,-0.208080 KneeLeft:0.012345,-0.646474,0.032348,0.762150 KneeRight:-0.024431,0.763223,0.064838,0.642410 Neck:-0.136213,0.034545,0.988045,-0.063401 ShoulderLeft:0.097676,0.758453,-0.641349,-0.062278 ShoulderRight:-0.076889,0.795389,0.582420,-0.149105 SpineBase:-0.082177,0.028639,0.995865,-0.026077 SpineMid:-0.108615,0.029322,0.993329,-0.025307 SpineShoulder:-0.135830,0.033283,0.989259,-0.042537 ThumbLeft:0.000000,0.000000,0.000000,0.000000 ThumbRight:0.000000,0.000000,0.000000,0.000000 WristLeft:-0.101226,0.793023,-0.130328,0.586414 WristRight:0.449656,-0.623986,-0.021277,0.638747 END:
KINECT_DATA POSITION:2.258579,-1.140433,-4.853952 HEAD_JOINT1:0.987409,0.158138,0.000000,-0.004036 LARM_JOINT2:0.795641,0.000000,0.022763,-0.605341 LARM_JOINT3:0.962272,0.000000,-0.204528,-0.179448 LLEG_JOINT2:0.999850,0.006851,0.000000,0.015926 LLEG_JOINT4:0.996001,0.089288,0.000000,-0.003018 RARM_JOINT2:0.842395,0.000000,0.413897,0.345051 RARM_JOINT3:0.909598,0.000000,0.346291,0.229595 RLEG_JOINT2:0.996021,0.038785,0.000000,-0.080240 RLEG_JOINT4:0.992913,0.096859,0.000000,0.068860 WAIST:0.994817,-0.000000,0.098865,0.023775 WAIST_JOINT0:0.988728,-0.000000,0.145320,0.036036 WAIST_JOINT1:0.998756,0.048534,-0.000000,0.011407 END:
KINECT_DATA_Sensor  AnkleLeft:-0.048785,-0.621971,0.087880,0.776562 AnkleRight:0.097383,0.786000,0.091227,0.603654 ElbowLeft:-0.007936,0.811267,-0.180354,-0.556107 ElbowRight:-0.387177,0.913710,0.120739,0.025513 FootLeft:0.000000,0.000000,0.000000,0.000000 FootRight:0.000000,0.000000,0.000000,0.000000 HandLeft:-0.136012,0.764461,-0.004792,0.630140 HandRight:0.521697,-0.398949,-0.166351,0.735526 HandTipLeft:0.000000,0.000000,0.000000,0.000000 HandTipRight:0.000000,0.000000,0.000000,0.000000 Head:0.000000,0.000000,0.000000,0.000000 HipLeft:0.067220,-0.672386,0.729055,-0.108887 HipRight:-0.204969,0.678452,0.670705,-0.218737 KneeLeft:0.021587,-0.633379,0.033474,0.772816 KneeRight:-0.020520,0.774409,0.064154,0.629090 Neck:-0.146128,0.033483,0.986643,-0.063730 ShoulderLeft:0.103641,0.755639,-0.643109,-0.068408 ShoulderRight:-0.083975,0.793317,0.581948,-0.157901 SpineBase:-0.099209,0.029619,0.994296,-0.025616 SpineMid:-0.122092,0.030202,0.991746,-0.024926 SpineShoulder:-0.145781,0.032253,0.987861,-0.042869 ThumbLeft:0.000000,0.000000,0.000000,0.000000 ThumbRight:0.000000,0.000000,0.000000,0.000000 WristLeft:-0.093352,0.784608,-0.132194,0.598498 WristRight:0.425538,-0.424143,-0.136548,0.787638 END:
KINECT_DATA POSITION:2.065863,-1.106743,-4.895484 HEAD_JOINT1:0.987333,0.158611,0.000000,-0.004054 LARM_JOINT2:0.796099,0.000000,0.021395,-0.604788 LARM_JOINT3:0.961685,0.000000,-0.209375,-0.176984 LLEG_JOINT2:0.999836,0.004666,0.000000,0.017476 LLEG_JOINT4:0.995980,0.089566,0.000000,0.000967 RARM_JOINT2:0.840360,0.000000,0.428072,0.332489 RARM_JOINT3:0.916245,0.000000,0.332767,0.223074 RLEG_JOINT2:0.996110,0.039339,0.000000,-0.078848 RLEG_JOINT4:0.992779,0.096471,0.000000,0.071302 WAIST:0.994113,-0.000000,0.105788,0.023427 WAIST_JOINT0:0.988622,-0.000000,0.145975,0.036317 WAIST_JOINT1:0.998725,0.048888,-0.000000,0.012596 END:
KINECT_DATA_Sensor  AnkleLeft:0.057147,0.723046,-0.082850,-0.683429 AnkleRight:0.093622,0.751443,0.095649,0.646081 ElbowLeft:-0.006639,0.811701,-0.181561,-0.555097 ElbowRight:-0.401883,0.908469,0.113668,0.015932 FootLeft:0.000000,0.000000,0.000000,0.000000 FootRight:0.000000,0.000000,0.000000,0.000000 HandLeft:-0.139894,0.749216,-0.041352,0.646061 HandRight:0.493981,-0.416554,-0.154912,0.747307 HandTipLeft:0.000000,0.000000,0.000000,0.000000 HandTipRight:0.000000,0.000000,0.000000,0.000000 Head:0.000000,0.000000,0.000000,0.000000 HipLeft:0.062996,-0.673009,0.729335,-0.105647 HipRight:-0.209392,0.676822,0.669627,-0.222858 KneeLeft:0.023896,-0.628042,0.033098,0.777108 KneeRight:-0.019895,0.778810,0.063691,0.623700 Neck:-0.147018,0.033643,0.986456,-0.064493 ShoulderLeft:0.105878,0.753997,-0.644587,-0.069183 ShoulderRight:-0.082969,0.793094,0.582293,-0.158282 SpineBase:-0.106094,0.030105,0.993560,-0.026018 SpineMid:-0.126005,0.030621,0.991231,-0.025409 SpineShoulder:-0.146669,0.032443,0.987694,-0.043549 ThumbLeft:0.000000,0.000000,0.000000,0.000000 ThumbRight:0.000000,0.000000,0.000000,0.000000 WristLeft:-0.087217,0.765582,-0.133736,0.623212 WristRight:0.431972,-0.433484,-0.137077,0.778911 END:
KINECT_DATA POSITION:2.049780,-1.135250,-4.830182 HEAD_JOINT1:0.987099,0.160098,0.000000,-0.002197 LARM_JOINT2:0.796257,0.000000,0.019500,-0.604645 LARM_JOINT3:0.961668,0.000000,-0.210836,-0.175337 LLEG_JOINT2:0.999899,0.004275,0.000000,0.013531 LLEG_JOINT4:0.995983,0.089396,0.000000,0.005037 RARM_JOINT2:0.840959,0.000000,0.419082,0.342285 RARM_JOINT3:0.924015,0.000000,0.296841,0.241002 RLEG_JOINT2:0.995714,0.041292,0.000000,-0.082751 RLEG_JOINT4:0.992989,0.093073,0.000000,0.072875 WAIST:0.993591,-0.000000,0.109934,0.026301 WAIST_JOINT0:0.986605,-0.000000,0.157858,0.041135 WAIST_JOINT1:0.998653,0.050263,-0.000000,0.012916 END:
KINECT_DATA_Sensor  AnkleLeft:-0.042545,-0.615347,0.091648,0.781753 AnkleRight:0.098015,0.791907,0.088501,0.596191 ElbowLeft:-0.006746,0.811645,-0.184526,-0.554200 ElbowRight:-0.387927,0.913824,0.119946,-0.007129 FootLeft:0.000000,0.000000,0.000000,0.000000 FootRight:0.000000,0.000000,0.000000,0.000000 HandLeft:-0.135554,0.744264,-0.061384,0.651098 HandRight:0.434885,-0.551440,-0.066557,0.708773 HandTipLeft:0.000000,0.000000,0.000000,0.000000 HandTipRight:0.000000,0.000000,0.000000,0.000000 Head:0.000000,0.000000,0.000000,0.000000 HipLeft:0.060982,-0.671528,0.730913,-0.105347 HipRight:-0.213092,0.677633,0.666202,-0.227113 KneeLeft:0.023701,-0.624791,0.031836,0.779782 KneeRight:-0.020009,0.781594,0.065484,0.620018 Neck:-0.159291,0.037511,0.984332,-0.065653 ShoulderLeft:0.107285,0.750801,-0.647831,-0.071438 ShoulderRight:-0.098334,0.792232,0.576568,-0.173978 SpineBase:-0.110344,0.032068,0.993015,-0.026777 SpineMid:-0.134224,0.032703,0.990070,-0.025997 SpineShoulder:-0.158955,0.035541,0.985641,-0.044529 ThumbLeft:0.000000,0.000000,0.000000,0.000000 ThumbRight:0.000000,0.000000,0.000000,0.000000 WristLeft:-0.082025,0.757795,-0.135245,0.633030 WristRight:0.422995,-0.554680,-0.064048,0.713655 END:
KINECT_DATA POSITION:2.087620,-1.169997,-4.698122 HEAD_JOINT1:0.986422,0.164053,-0.000000,0.007693 LARM_JOINT2:0.796647,0.000000,0.020480,-0.604098 LARM_JOINT3:0.960547,0.000000,-0.214976,-0.176452 LLEG_JOINT2:0.999959,0.005410,0.000000,0.007209 LLEG_JOINT4:0.996064,0.087895,0.000000,0.011424 RARM_JOINT2:0.835514,0.000000,0.418822,0.355673 RARM_JOINT3:0.929735,0.000000,0.287704,0.229823 RLEG_JOINT2:0.995282,0.042538,0.000000,-0.087205 RLEG_JOINT4:0.993160,0.091334,0.000000,0.072745 WAIST:0.993381,-0.000000,0.110825,0.030206 WAIST_JOINT0:0.986583,-0.000000,0.156379,0.046892 WAIST_JOINT1:0.998618,0.051147,-0.000000,0.012069 END:
KINECT_DATA_Sensor  AnkleLeft:0.055063,0.739684,-0.086010,-0.665160 AnkleRight:0.096567,0.791381,0.088568,0.597115 ElbowLeft:-0.006522,0.811172,-0.188350,-0.553609 ElbowRight:-0.379359,0.919072,0.106527,-0.006789 FootLeft:0.000000,0.000000,0.000000,0.000000 FootRight:0.000000,0.000000,0.000000,0.000000 HandLeft:-0.133581,0.726667,-0.077051,0.669458 HandRight:0.439708,-0.521643,-0.087657,0.725852 HandTipLeft:0.000000,0.000000,0.000000,0.000000 HandTipRight:0.000000,0.000000,0.000000,0.000000 Head:0.000000,0.000000,0.000000,0.000000 HipLeft:0.060455,-0.668740,0.733373,-0.106282 HipRight:-0.214155,0.679600,0.663276,-0.228792 KneeLeft:0.021622,-0.624043,0.030371,0.780500 KneeRight:-0.020020,0.782361,0.066457,0.618946 Neck:-0.158366,0.040374,0.984322,-0.066331 ShoulderLeft:0.107502,0.746526,-0.652949,-0.069286 ShoulderRight:-0.097182,0.794977,0.573024,-0.173811 SpineBase:-0.111394,0.034408,0.992801,-0.027458 SpineMid:-0.134265,0.035032,0.989967,-0.026657 SpineShoulder:-0.157978,0.038375,0.985658,-0.045266 ThumbLeft:0.000000,0.000000,0.000000,0.000000 ThumbRight:0.000000,0.000000,0.000000,0.000000 WristLeft:-0.077790,0.739475,-0.139073,0.654052 WristRight:0.414941,-0.528158,-0.081877,0.736322 END:
KINECT_DATA POSITION:2.298120,-1.267240,-4.472387 HEAD_JOINT1:0.986866,0.160476,-0.000000,0.018517 LARM_JOINT2:0.795648,0.000000,0.019308,-0.605452 LARM_JOINT3:0.959625,0.000000,-0.214827,-0.181576 LLEG_JOINT2:0.999948,0.007717,0.000000,-0.006652 LLEG_JOINT4:0.996343,0.084038,0.000000,0.015442 RARM_JOINT2:0.822749,0.000000,0.432033,0.369366 RARM_JOINT3:0.947852,0.000000,0.245260,0.203531 RLEG_JOINT2:0.993863,0.046901,0.000000,-0.100182 RLEG_JOINT4:0.992813,0.095869,0.000000,0.071632 WAIST:0.992464,-0.000000,0.115846,0.039946 WAIST_JOINT0:0.986153,-0.000000,0.157142,0.052991 WAIST_JOINT1:0.998502,0.053642,-0.000000,0.010777 END:
KINECT_DATA_Sensor  AnkleLeft:-0.038502,-0.616527,0.091828,0.781012 AnkleRight:0.097265,0.791582,0.098047,0.595251 ElbowLeft:-0.006201,0.811237,-0.194661,-0.551328 ElbowRight:-0.374403,0.923365,0.080334,-0.027677 FootLeft:0.000000,0.000000,0.000000,0.000000 FootRight:0.000000,0.000000,0.000000,0.000000 HandLeft:-0.134381,0.743275,-0.072845,0.651289 HandRight:0.420243,-0.556359,-0.093529,0.710713 HandTipLeft:0.000000,0.000000,0.000000,0.000000 HandTipRight:0.000000,0.000000,0.000000,0.000000 Head:0.000000,0.000000,0.000000,0.000000 HipLeft:0.055849,-0.662158,0.739917,-0.104643 HipRight:-0.216773,0.684654,0.655996,-0.232224 KneeLeft:0.018070,-0.619886,0.027817,0.783991 KneeRight:-0.021017,0.786083,0.070887,0.613683 Neck:-0.160104,0.048896,0.983503,-0.068544 ShoulderLeft:0.110946,0.740497,-0.659216,-0.069209 ShoulderRight:-0.096380,0.798370,0.567803,-0.175833 SpineBase:-0.116817,0.040487,0.991919,-0.028491 SpineMid:-0.137803,0.041081,0.989222,-0.027627 SpineShoulder:-0.159650,0.045912,0.984965,-0.047402 ThumbLeft:0.000000,0.000000,0.000000,0.000000 ThumbRight:0.000000,0.000000,0.000000,0.000000 WristLeft:-0.078553,0.756049,-0.138483,0.634856 WristRight:0.402424,-0.557499,-0.076228,0.722107 END:
KINECT_DATA POSITION:2.549777,-1.278107,-4.328811 HEAD_JOINT1:0.986530,0.161658,-0.000000,0.025023 LARM_JOINT2:0.797922,0.000000,0.019382,-0.602449 LARM_JOINT3:0.960145,0.000000,-0.204774,-0.190237 LLEG_JOINT2:0.999712,0.011389,0.000000,-0.021114 LLEG_JOINT4:0.996175,0.084596,0.000000,0.021895 RARM_JOINT2:0.814396,0.000000,0.438583,0.380005 RARM_JOINT3:0.958668,0.000000,0.212329,0.189400 RLEG_JOINT2:0.992461,0.051777,0.000000,-0.111086 RLEG_JOINT4:0.992873,0.091098,0.000000,0.076843 WAIST:0.991859,-0.000000,0.117668,0.048678 WAIST_JOINT0:0.985055,-0.000000,0.160876,0.061525 WAIST_JOINT1:0.998427,0.055539,-0.000000,0.007647 END:
KINECT_DATA_Sensor  AnkleLeft:-0.040572,-0.613900,0.094276,0.782683 AnkleRight:0.098661,0.793141,0.095580,0.593345 ElbowLeft:-0.004821,0.817631,-0.203612,-0.538515 ElbowRight:-0.368829,0.926012,0.066216,-0.045633 FootLeft:0.000000,0.000000,0.000000,0.000000 FootRight:0.000000,0.000000,0.000000,0.000000 HandLeft:-0.111117,0.734017,-0.049562,0.668144 HandRight:0.390448,-0.556233,-0.115340,0.724467 HandTipLeft:0.000000,0.000000,0.000000,0.000000 HandTipRight:0.000000,0.000000,0.000000,0.000000 Head:0.000000,0.000000,0.000000,0.000000 HipLeft:0.050834,-0.655373,0.746609,-0.102361 HipRight:-0.216365,0.689436,0.651109,-0.232211 KneeLeft:0.012429,-0.618149,0.024883,0.785569 KneeRight:-0.020538,0.787896,0.075252,0.610848 Neck:-0.164530,0.054239,0.982407,-0.069744 ShoulderLeft:0.117670,0.732486,-0.666566,-0.072857 ShoulderRight:-0.095529,0.801224,0.563215,-0.178051 SpineBase:-0.119023,0.046360,0.991369,-0.029531 SpineMid:-0.140988,0.047003,0.988484,-0.028495 SpineShoulder:-0.163969,0.051398,0.983928,-0.048560 ThumbLeft:0.000000,0.000000,0.000000,0.000000 ThumbRight:0.000000,0.000000,0.000000,0.000000 WristLeft:-0.073577,0.745303,-0.136963,0.648345 WristRight:0.388590,-0.548700,-0.084907,0.735335 END:
KINECT_DATA POSITION:2.560468,-1.293737,-4.278529 HEAD_JOINT1:0.986407,0.162362,-0.000000,0.025308 LARM_JOINT2:0.794977,0.000000,0.024136,-0.606159 LARM_JOINT3:0.957859,0.000000,-0.210297,-0.195654 LLEG_JOINT2:0.999669,0.012048,0.000000,-0.022723 LLEG_JOINT4:0.996124,0.084350,0.000000,0.024933 RARM_JOINT2:0.814886,0.000000,0.437611,0.380075 RARM_JOINT3:0.953286,0.000000,0.237477,0.186685 RLEG_JOINT2:0.992355,0.052837,0.000000,-0.111531 RLEG_JOINT4:0.993656,0.085833,0.000000,0.072668 WAIST:0.991832,-0.000000,0.117550,0.049515 WAIST_JOINT0:0.985456,-0.000000,0.159103,0.059695 WAIST_JOINT1:0.998448,0.055274,-0.000000,0.006763 END:
KINECT_DATA_Sensor  AnkleLeft:0.056533,0.748037,-0.087308,-0.655455 AnkleRight:0.092875,0.793150,0.094900,0.594375 ElbowLeft:-0.001068,0.815091,-0.200238,-0.543627 ElbowRight:-0.368557,0.925988,0.067520,-0.046399 FootLeft:0.000000,0.000000,0.000000,0.000000 FootRight:0.000000,0.000000,0.000000,0.000000 HandLeft:-0.141790,0.668566,-0.062082,0.727365 HandRight:0.456792,-0.536512,-0.106776,0.701495 HandTipLeft:0.000000,0.000000,0.000000,0.000000 HandTipRight:0.000000,0.000000,0.000000,0.000000 Head:0.000000,0.000000,0.000000,0.000000 HipLeft:0.050560,-0.654772,0.747133,-0.102519 HipRight:-0.215850,0.690140,0.650661,-0.231854 KneeLeft:0.011507,-0.618195,0.024621,0.785555 KneeRight:-0.019620,0.787947,0.075774,0.610747 Neck:-0.162950,0.053989,0.982701,-0.069509 ShoulderLeft:0.115380,0.734125,-0.665318,-0.071413 ShoulderRight:-0.095628,0.801917,0.562468,-0.177241 SpineBase:-0.118942,0.047060,0.991340,-0.029703 SpineMid:-0.140133,0.047685,0.988568,-0.028689 SpineShoulder:-0.162367,0.051345,0.984211,-0.048255 ThumbLeft:0.000000,0.000000,0.000000,0.000000 ThumbRight:0.000000,0.000000,0.000000,0.000000 WristLeft:-0.059296,0.671260,-0.141789,0.725113 WristRight:0.389751,-0.551185,-0.080471,0.733357 END:
KINECT_DATA POSITION:1.772624,-1.438917,-4.367185 HEAD_JOINT1:0.985839,0.166457,-0.000000,0.020352 LARM_JOINT2:0.796422,0.000000,0.024241,-0.604255 LARM_JOINT3:0.958151,0.000000,-0.212956,-0.191304 LLEG_JOINT2:0.999963,0.007639,0.000000,0.003891 LLEG_JOINT4:0.996078,0.087778,0.000000,0.011078 RARM_JOINT2:0.827239,0.000000,0.398127,0.396448 RARM_JOINT3:0.928271,0.000000,0.329821,0.171844 RLEG_JOINT2:0.994688,0.046000,0.000000,-0.092090 RLEG_JOINT4:0.992800,0.094931,0.000000,0.073044 WAIST:0.992832,-0.000000,0.113514,0.037393 WAIST_JOINT0:0.984262,-0.000000,0.166132,0.060229 WAIST_JOINT1:0.998424,0.054659,-0.000000,0.012701 END:
KINECT_DATA_Sensor  AnkleLeft:0.055638,0.744483,-0.088857,-0.659359 AnkleRight:0.102623,0.795120,0.091418,0.590674 ElbowLeft:-0.001231,0.814124,-0.197196,-0.546182 ElbowRight:-0.349137,0.930471,0.045374,0.101332 FootLeft:0.000000,0.000000,0.000000,0.000000 FootRight:0.000000,0.000000,0.000000,0.000000 HandLeft:-0.147773,0.741382,-0.048988,0.652776 HandRight:0.489961,-0.491538,-0.125211,0.708979 HandTipLeft:0.000000,0.000000,0.000000,0.000000 HandTipRight:0.000000,0.000000,0.000000,0.000000 Head:0.000000,0.000000,0.000000,0.000000 HipLeft:0.058052,-0.662350,0.738904,-0.109290 HipRight:-0.215411,0.681734,0.659007,-0.233552 KneeLeft:0.022874,-0.621630,0.034239,0.782228 KneeRight:-0.016843,0.784551,0.067021,0.616201 Neck:-0.170055,0.048973,0.981859,-0.068093 ShoulderLeft:0.112837,0.736008,-0.663870,-0.069544 ShoulderRight:-0.108310,0.799695,0.559469,-0.189081 SpineBase:-0.114471,0.038313,0.992202,-0.031041 SpineMid:-0.141646,0.039150,0.988689,-0.029978 SpineShoulder:-0.169658,0.046019,0.983236,-0.048433 ThumbLeft:0.000000,0.000000,0.000000,0.000000 ThumbRight:0.000000,0.000000,0.000000,0.000000 WristLeft:-0.079169,0.759974,-0.132944,0.631267 WristRight:0.455974,-0.500359,-0.111555,0.727519 END:
KINECT_DATA POSITION:1.522754,-1.396529,-4.488575 HEAD_JOINT1:0.985323,0.169673,-0.000000,0.018711 LARM_JOINT2:0.797430,0.000000,0.023362,-0.602959 LARM_JOINT3:0.958110,0.000000,-0.213094,-0.191352 LLEG_JOINT2:0.999914,0.004682,0.000000,0.012265 LLEG_JOINT4:0.995766,0.091506,0.000000,0.008763 RARM_JOINT2:0.836484,0.000000,0.409834,0.363772 RARM_JOINT3:0.911605,0.000000,0.349026,0.217155 RLEG_JOINT2:0.995555,0.043216,0.000000,-0.083684 RLEG_JOINT4:0.992893,0.096103,0.000000,0.070197 WAIST:0.992987,-0.000000,0.113769,0.032144 WAIST_JOINT0:0.985414,-0.000000,0.160640,0.056161 WAIST_JOINT1:0.998414,0.054382,-0.000000,0.014547 END:
KINECT_DATA_Sensor  AnkleLeft:0.056504,0.744253,-0.090183,-0.659364 AnkleRight:0.098215,0.769065,0.094793,0.624426 ElbowLeft:-0.001458,0.813184,-0.195495,-0.548189 ElbowRight:-0.372210,0.923331,0.082997,0.045077 FootLeft:0.000000,0.000000,0.000000,0.000000 FootRight:0.000000,0.000000,0.000000,0.000000 HandLeft:-0.151462,0.732087,-0.045143,0.662624 HandRight:0.506171,-0.379371,-0.141132,0.761545 HandTipLeft:0.000000,0.000000,0.000000,0.000000 HandTipRight:0.000000,0.000000,0.000000,0.000000 Head:0.000000,0.000000,0.000000,0.000000 HipLeft:0.056916,-0.665793,0.735947,-0.108917 HipRight:-0.214802,0.678124,0.662892,-0.233627 KneeLeft:0.026673,-0.621612,0.035250,0.782077 KneeRight:-0.015752,0.784376,0.063280,0.616849 Neck:-0.164551,0.043962,0.983022,-0.068257 ShoulderLeft:0.113025,0.736661,-0.663307,-0.067670 ShoulderRight:-0.100716,0.797289,0.566443,-0.182561 SpineBase:-0.114490,0.035684,0.992267,-0.032012 SpineMid:-0.138938,0.036463,0.989140,-0.031121 SpineShoulder:-0.164083,0.042759,0.984307,-0.048878 ThumbLeft:0.000000,0.000000,0.000000,0.000000 ThumbRight:0.000000,0.000000,0.000000,0.000000 WristLeft:-0.078690,0.752977,-0.134230,0.639387 WristRight:0.441069,-0.400734,-0.137698,0.791144 END:
KINECT_DATA POSITION:1.578729,-1.478962,-4.451728 HEAD_JOINT1:0.985859,0.167093,-0.000000,0.012727 LARM_JOINT2:0.801399,0.000000,0.021265,-0.597752 LARM_JOINT3:0.960882,0.000000,-0.197840,-0.193819 LLEG_JOINT2:0.999962,0.001817,0.000000,0.008556 LLEG_JOINT4:0.995674,0.092032,0.000000,0.012818 RARM_JOINT2:0.798455,0.000000,0.462644,0.385266 RARM_JOINT3:0.964473,0.000000,0.207849,0.163065 RLEG_JOINT2:0.994813,0.052687,0.000000,-0.087016 RLEG_JOINT4:0.993673,0.086925,0.000000,0.071121 WAIST:0.990475,-0.000000,0.132966,0.035767 WAIST_JOINT0:0.980107,-0.000000,0.187148,0.066077 WAIST_JOINT1:0.998359,0.055920,-0.000000,0.012309 END:
KINECT_DATA_Sensor  AnkleLeft:-0.036173,-0.598082,0.099090,0.794462 AnkleRight:0.100450,0.805337,0.091429,0.577047 ElbowLeft:0.002651,0.812513,-0.202332,-0.546696 ElbowRight:-0.378700,0.923254,0.035348,-0.054215 FootLeft:0.000000,0.000000,0.000000,0.000000 FootRight:0.000000,0.000000,0.000000,0.000000 HandLeft:-0.096116,0.784010,-0.012357,0.613137 HandRight:0.392241,-0.519467,-0.152633,0.743642 HandTipLeft:0.000000,0.000000,0.000000,0.000000 HandTipRight:0.000000,0.000000,0.000000,0.000000 Head:0.000000,0.000000,0.000000,0.000000 HipLeft:0.045845,-0.664805,0.738940,-0.099497 HipRight:-0.227156,0.676595,0.656192,-0.245012 KneeLeft:0.029020,-0.606411,0.033201,0.793928 KneeRight:-0.011674,0.796791,0.069516,0.600130 Neck:-0.191762,0.045777,0.977813,-0.070805 ShoulderLeft:0.120102,0.732240,-0.666011,-0.076347 ShoulderRight:-0.130691,0.796748,0.550066,-0.213400 SpineBase:-0.133799,0.038470,0.989741,-0.032107 SpineMid:-0.162070,0.039373,0.985506,-0.030993 SpineShoulder:-0.191422,0.043009,0.979321,-0.049382 ThumbLeft:0.000000,0.000000,0.000000,0.000000 ThumbRight:0.000000,0.000000,0.000000,0.000000 WristLeft:-0.083160,0.792779,-0.127895,0.590110 WristRight:0.402333,-0.500085,-0.099404,0.760370 END:
KINECT_DATA POSITION:2.113211,-1.474731,-4.495192 HEAD_JOINT1:0.985473,0.169571,-0.000000,0.009421 LARM_JOINT2:0.800435,0.000000,0.028356,-0.598749 LARM_JOINT3:0.959144,0.000000,-0.203114,-0.196947 LLEG_JOINT2:0.999958,0.002941,0.000000,-0.008652 LLEG_JOINT4:0.995607,0.091105,0.000000,0.021582 RARM_JOINT2:0.793937,0.000000,0.454984,0.403302 RARM_JOINT3:0.972051,0.000000,0.197990,0.126162 RLEG_JOINT2:0.993193,0.054909,0.000000,-0.102725 RLEG_JOINT4:0.992795,0.089113,0.000000,0.080110 WAIST:0.989401,-0.000000,0.138274,0.044329 WAIST_JOINT0:0.978590,-0.000000,0.193997,0.068745 WAIST_JOINT1:0.998327,0.057320,-0.000000,0.007625 END:
KINECT_DATA_Sensor  AnkleLeft:-0.035661,-0.593722,0.098282,0.797849 AnkleRight:0.093634,0.748352,0.102755,0.648570 ElbowLeft:0.008856,0.809134,-0.206133,-0.550213 ElbowRight:-0.364626,0.930919,0.007646,-0.019457 FootLeft:0.000000,0.000000,0.000000,0.000000 FootRight:0.000000,0.000000,0.000000,0.000000 HandLeft:-0.104857,0.768884,-0.036470,0.629677 HandRight:0.391990,-0.491954,-0.196955,0.752020 HandTipLeft:0.000000,0.000000,0.000000,0.000000 HandTipRight:0.000000,0.000000,0.000000,0.000000 Head:0.000000,0.000000,0.000000,0.000000 HipLeft:0.039110,-0.658417,0.745517,-0.095723 HipRight:-0.229244,0.680902,0.650491,-0.246336 KneeLeft:0.023784,-0.602233,0.026222,0.797535 KneeRight:-0.017285,0.800495,0.074580,0.594430 Neck:-0.198626,0.049241,0.976183,-0.072035 ShoulderLeft:0.121981,0.730727,-0.667007,-0.079124 ShoulderRight:-0.138313,0.796339,0.545955,-0.220559 SpineBase:-0.139453,0.045271,0.988650,-0.032771 SpineMid:-0.168120,0.046204,0.984181,-0.031441 SpineShoulder:-0.198210,0.046526,0.977795,-0.049641 ThumbLeft:0.000000,0.000000,0.000000,0.000000 ThumbRight:0.000000,0.000000,0.000000,0.000000 WristLeft:-0.075735,0.777889,-0.127816,0.610586 WristRight:0.391619,-0.475409,-0.134238,0.776274 END:
KINECT_DATA POSITION:2.114168,-1.438272,-4.519749 HEAD_JOINT1:0.984854,0.173104,-0.000000,0.009859 LARM_JOINT2:0.795772,0.000000,0.030909,-0.604807 LARM_JOINT3:0.955605,0.000000,-0.219874,-0.196150 LLEG_JOINT2:0.999978,0.003217,0.000000,-0.005748 LLEG_JOINT4:0.995978,0.086927,0.000000,0.021716 RARM_JOINT2:0.832309,0.000000,0.427585,0.352750 RARM_JOINT3:0.939588,0.000000,0.290842,0.180513 RLEG_JOINT2:0.993649,0.051658,0.000000,-0.099966 RLEG_JOINT4:0.992749,0.090318,0.000000,0.079327 WAIST:0.990384,-0.000000,0.132091,0.041119 WAIST_JOINT0:0.983979,-0.000000,0.168540,0.058139 WAIST_JOINT1:0.998347,0.056705,-0.000000,0.009401 END:
KINECT_DATA_Sensor  AnkleLeft:-0.033909,-0.610046,0.096010,0.785797 AnkleRight:0.100813,0.796608,0.093543,0.588644 ElbowLeft:0.009367,0.805474,-0.198540,-0.558306 ElbowRight:-0.384244,0.919824,0.078643,-0.009811 FootLeft:0.000000,0.000000,0.000000,0.000000 FootRight:0.000000,0.000000,0.000000,0.000000 HandLeft:-0.156044,0.658876,-0.091964,0.730120 HandRight:0.495489,-0.545431,-0.113954,0.666341 HandTipLeft:0.000000,0.000000,0.000000,0.000000 HandTipRight:0.000000,0.000000,0.000000,0.000000 Head:0.000000,0.000000,0.000000,0.000000 HipLeft:0.041423,-0.659588,0.744089,-0.097774 HipRight:-0.224540,0.680137,0.654889,-0.241071 KneeLeft:0.023019,-0.607306,0.026473,0.793693 KneeRight:-0.018696,0.796435,0.072886,0.600024 Neck:-0.173132,0.046247,0.981160,-0.072197 ShoulderLeft:0.121022,0.731750,-0.666731,-0.073247 ShoulderRight:-0.104313,0.795488,0.566074,-0.189414 SpineBase:-0.133093,0.044341,0.989564,-0.032900 SpineMid:-0.152312,0.044972,0.986789,-0.032032 SpineShoulder:-0.172619,0.044706,0.982684,-0.050366 ThumbLeft:0.000000,0.000000,0.000000,0.000000 ThumbRight:0.000000,0.000000,0.000000,0.000000 WristLeft:-0.055756,0.664332,-0.138880,0.732302 WristRight:0.425161,-0.557653,-0.068306,0.709645 END:
KINECT_DATA POSITION:2.008815,-1.382366,-4.588521 HEAD_JOINT1:0.984004,0.177853,-0.000000,0.010178 LARM_JOINT2:0.795467,0.000000,0.023339,-0.605547 LARM_JOINT3:0.956575,0.000000,-0.214222,-0.197668 LLEG_JOINT2:0.999995,0.003059,0.000000,0.001244 LLEG_JOINT4:0.996033,0.087260,0.000000,0.017446 RARM_JOINT2:0.842308,0.000000,0.419721,0.338158 RARM_JOINT3:0.933068,0.000000,0.302797,0.194162 RLEG_JOINT2:0.994772,0.045358,0.000000,-0.091499 RLEG_JOINT4:0.992467,0.095174,0.000000,0.077149 WAIST:0.992242,-0.000000,0.119368,0.034730 WAIST_JOINT0:0.985889,-0.000000,0.158126,0.054936 WAIST_JOINT1:0.998381,0.055621,-0.000000,0.011867 END:
KINECT_DATA_Sensor  AnkleLeft:0.052401,0.749884,-0.086491,-0.653795 AnkleRight:0.100163,0.776934,0.094062,0.614404 ElbowLeft:0.002926,0.814506,-0.192620,-0.547237 ElbowRight:-0.389655,0.915206,0.102234,0.010704 FootLeft:0.000000,0.000000,0.000000,0.000000 FootRight:0.000000,0.000000,0.000000,0.000000 HandLeft:-0.153748,0.527494,-0.094671,0.830150 HandRight:-0.100169,0.639404,-0.479072,0.592974 HandTipLeft:0.000000,0.000000,0.000000,0.000000 HandTipRight:0.000000,0.000000,0.000000,0.000000 Head:0.000000,0.000000,0.000000,0.000000 HipLeft:0.046745,-0.662752,0.740358,-0.102201 HipRight:-0.214005,0.679211,0.663084,-0.230638 KneeLeft:0.022905,-0.617610,0.027436,0.785672 KneeRight:-0.019189,0.788047,0.067785,0.611571 Neck:-0.162467,0.042611,0.983229,-0.071054 ShoulderLeft:0.114007,0.734833,-0.665315,-0.066176 ShoulderRight:-0.097258,0.795555,0.570206,-0.180273 SpineBase:-0.120055,0.041568,0.991347,-0.033029 SpineMid:-0.140474,0.042240,0.988660,-0.032164 SpineShoulder:-0.161928,0.041963,0.984656,-0.049708 ThumbLeft:0.000000,0.000000,0.000000,0.000000 ThumbRight:0.000000,0.000000,0.000000,0.000000 WristLeft:-0.037999,0.533799,-0.146162,0.832016 WristRight:-0.053388,0.672835,-0.434003,0.596728 END:
KINECT_DATA POSITION:2.015717,-1.380698,-4.597557 HEAD_JOINT1:0.983957,0.178102,-0.000000,0.010398 LARM_JOINT2:0.797837,0.000000,0.018573,-0.602587 LARM_JOINT3:0.960120,0.000000,-0.204924,-0.190199 LLEG_JOINT2:0.999984,0.005452,0.000000,-0.001165 LLEG_JOINT4:0.995841,0.089470,0.000000,0.017178 RARM_JOINT2:0.826652,0.000000,0.444701,0.344801 RARM_JOINT3:0.956942,0.000000,0.230097,0.176966 RLEG_JOINT2:0.994530,0.046840,0.000000,-0.093358 RLEG_JOINT4:0.992815,0.091551,0.000000,0.077052 WAIST:0.992855,-0.000000,0.113868,0.035693 WAIST_JOINT0:0.985963,-0.000000,0.156953,0.056952 WAIST_JOINT1:0.998356,0.056326,-0.000000,0.010621 END:
KINECT_DATA_Sensor  AnkleLeft:0.055673,0.744433,-0.088186,-0.659502 AnkleRight:0.101204,0.791138,0.089691,0.596502 ElbowLeft:-0.000251,0.822782,-0.194934,-0.533882 ElbowRight:-0.392865,0.914730,0.090983,-0.025462 FootLeft:0.000000,0.000000,0.000000,0.000000 FootRight:0.000000,0.000000,0.000000,0.000000 HandLeft:-0.125969,0.763574,-0.040549,0.632014 HandRight:-0.192601,0.718185,-0.371418,0.556025 HandTipLeft:0.000000,0.000000,0.000000,0.000000 HandTipRight:0.000000,0.000000,0.000000,0.000000 Head:0.000000,0.000000,0.000000,0.000000 HipLeft:0.050363,-0.662228,0.740093,-0.105735 HipRight:-0.211623,0.680696,0.662783,-0.229318 KneeLeft:0.020234,-0.621817,0.027725,0.782410 KneeRight:-0.018517,0.784748,0.069669,0.615608 Neck:-0.161221,0.043155,0.983372,-0.071586 ShoulderLeft:0.113362,0.733983,-0.666517,-0.064604 ShoulderRight:-0.096412,0.796173,0.569671,-0.179687 SpineBase:-0.114648,0.041266,0.991993,-0.033217 SpineMid:-0.137144,0.042009,0.989134,-0.032272 SpineShoulder:-0.160708,0.042067,0.984837,-0.049999 ThumbLeft:0.000000,0.000000,0.000000,0.000000 ThumbRight:0.000000,0.000000,0.000000,0.000000 WristLeft:-0.085619,0.775213,-0.123999,0.613465 WristRight:-0.114388,0.743436,-0.402682,0.521599 END:
KINECT_DATA POSITION:2.152972,-1.375373,-4.622340 HEAD_JOINT1:0.983844,0.178676,-0.000000,0.011226 LARM_JOINT2:0.798025,0.000000,0.021370,-0.602245 LARM_JOINT3:0.959491,0.000000,-0.204116,-0.194200 LLEG_JOINT2:0.999921,0.008123,0.000000,-0.009573 LLEG_JOINT4:0.996233,0.084944,0.000000,0.017447 RARM_JOINT2:0.820340,0.000000,0.451291,0.351252 RARM_JOINT3:0.958803,0.000000,0.228046,0.169386 RLEG_JOINT2:0.993965,0.045468,0.000000,-0.099827 RLEG_JOINT4:0.992851,0.091708,0.000000,0.076400 WAIST:0.993076,-0.000000,0.110223,0.040622 WAIST_JOINT0:0.983534,-0.000000,0.168027,0.066541 WAIST_JOINT1:0.998226,0.058951,-0.000000,0.008350 END:
KINECT_DATA_Sensor  AnkleLeft:-0.037913,-0.609671,0.093350,0.786224 AnkleRight:0.095906,0.769896,0.092624,0.624086 ElbowLeft:0.001967,0.823186,-0.199182,-0.531683 ElbowRight:-0.387590,0.916502,0.088120,-0.045100 FootLeft:0.000000,0.000000,0.000000,0.000000 FootRight:0.000000,0.000000,0.000000,0.000000 HandLeft:-0.129473,0.749856,-0.029952,0.648117 HandRight:0.427770,-0.584403,-0.160727,0.670561 HandTipLeft:0.000000,0.000000,0.000000,0.000000 HandTipRight:0.000000,0.000000,0.000000,0.000000 Head:0.000000,0.000000,0.000000,0.000000 HipLeft:0.051207,-0.659078,0.742533,-0.107883 HipRight:-0.209254,0.684404,0.659812,-0.229026 KneeLeft:0.016400,-0.624455,0.026329,0.780444 KneeRight:-0.020613,0.782585,0.069340,0.618327 Neck:-0.172417,0.047999,0.981089,-0.073711 ShoulderLeft:0.115245,0.731823,-0.668415,-0.066142 ShoulderRight:-0.109648,0.799945,0.557016,-0.194417 SpineBase:-0.111312,0.043087,0.992265,-0.034102 SpineMid:-0.140996,0.044089,0.988484,-0.032795 SpineShoulder:-0.171991,0.045169,0.982722,-0.051347 ThumbLeft:0.000000,0.000000,0.000000,0.000000 ThumbRight:0.000000,0.000000,0.000000,0.000000 WristLeft:-0.079716,0.765397,-0.124071,0.626433 WristRight:0.393935,-0.580712,-0.088176,0.706975 END:
KINECT_DATA POSITION:2.140613,-1.403431,-4.594648 HEAD_JOINT1:0.983364,0.181129,-0.000000,0.013684 LARM_JOINT2:0.798292,0.000000,0.018333,-0.601991 LARM_JOINT3:0.956335,0.000000,-0.214195,-0.198855 LLEG_JOINT2:0.999941,0.008863,0.000000,-0.006360 LLEG_JOINT4:0.996223,0.084963,0.000000,0.017924 RARM_JOINT2:0.831972,0.000000,0.434236,0.345343 RARM_JOINT3:0.945368,0.000000,0.272537,0.178894 RLEG_JOINT2:0.994119,0.044541,0.000000,-0.098712 RLEG_JOINT4:0.992475,0.095723,0.000000,0.076361 WAIST:0.993597,-0.000000,0.106207,0.038543 WAIST_JOINT0:0.983740,-0.000000,0.166968,0.066155 WAIST_JOINT1:0.998294,0.057760,-0.000000,0.008525 END:
KINECT_DATA_Sensor  AnkleLeft:0.053142,0.737603,-0.087688,-0.667404 AnkleRight:0.102144,0.795710,0.090748,0.590066 ElbowLeft:-0.000803,0.827443,-0.196742,-0.525956 ElbowRight:-0.386362,0.917016,0.098814,-0.006435 FootLeft:0.000000,0.000000,0.000000,0.000000 FootRight:0.000000,0.000000,0.000000,0.000000 HandLeft:-0.158964,0.607569,-0.083555,0.773698 HandRight:0.465122,-0.571684,-0.149347,0.659193 HandTipLeft:0.000000,0.000000,0.000000,0.000000 HandTipRight:0.000000,0.000000,0.000000,0.000000 Head:0.000000,0.000000,0.000000,0.000000 HipLeft:0.055852,-0.660896,0.739955,-0.112091 HipRight:-0.208255,0.684306,0.660647,-0.227815 KneeLeft:0.016362,-0.627612,0.027872,0.777856 KneeRight:-0.021400,0.779913,0.069585,0.621639 Neck:-0.171022,0.045580,0.981599,-0.071669 ShoulderLeft:0.112431,0.733556,-0.667113,-0.064924 ShoulderRight:-0.110490,0.800195,0.556804,-0.193520 SpineBase:-0.107179,0.042256,0.992767,-0.033785 SpineMid:-0.138185,0.043293,0.988928,-0.032446 SpineShoulder:-0.170534,0.044034,0.983075,-0.050423 ThumbLeft:0.000000,0.000000,0.000000,0.000000 ThumbRight:0.000000,0.000000,0.000000,0.000000 WristLeft:-0.055888,0.613213,-0.138516,0.775667 WristRight:0.410833,-0.576785,-0.085218,0.700909 END:
KINECT_DATA POSITION:2.012767,-1.432376,-4.518080 HEAD_JOINT1:0.982942,0.183136,-0.000000,0.016901 LARM_JOINT2:0.799816,0.000000,0.017776,-0.599982 LARM_JOINT3:0.957790,0.000000,-0.209272,-0.197088 LLEG_JOINT2:0.999955,0.009373,0.000000,-0.001197 LLEG_JOINT4:0.996101,0.086848,0.000000,0.015509 RARM_JOINT2:0.838160,0.000000,0.423671,0.343497 RARM_JOINT3:0.931294,0.000000,0.307391,0.195454 RLEG_JOINT2:0.994632,0.042008,0.000000,-0.094567 RLEG_JOINT4:0.992266,0.095946,0.000000,0.078762 WAIST:0.994323,-0.000000,0.100334,0.035429 WAIST_JOINT0:0.985212,-0.000000,0.159574,0.062397 WAIST_JOINT1:0.998489,0.054463,-0.000000,0.007335 END:
KINECT_DATA_Sensor  AnkleLeft:-0.039026,-0.615016,0.097412,0.781501 AnkleRight:0.104047,0.791861,0.086566,0.595514 ElbowLeft:-0.003536,0.833249,-0.194055,-0.517713 ElbowRight:-0.386461,0.915628,0.109784,0.014850 FootLeft:0.000000,0.000000,0.000000,0.000000 FootRight:0.000000,0.000000,0.000000,0.000000 HandLeft:-0.161982,0.753863,-0.044396,0.635202 HandRight:0.493667,-0.533986,-0.131058,0.673777 HandTipLeft:0.000000,0.000000,0.000000,0.000000 HandTipRight:0.000000,0.000000,0.000000,0.000000 Head:0.000000,0.000000,0.000000,0.000000 HipLeft:0.061585,-0.662953,0.737216,-0.114950 HipRight:-0.205535,0.683731,0.663286,-0.224321 KneeLeft:0.017031,-0.632163,0.030054,0.774065 KneeRight:-0.021442,0.775947,0.067469,0.626813 Neck:-0.163200,0.040589,0.983427,-0.067740 ShoulderLeft:0.105347,0.737096,-0.664702,-0.061336 ShoulderRight:-0.107020,0.800232,0.560148,-0.185498 SpineBase:-0.101168,0.039540,0.993558,-0.032325 SpineMid:-0.131292,0.040503,0.990027,-0.031109 SpineShoulder:-0.162673,0.040471,0.984700,-0.047594 ThumbLeft:0.000000,0.000000,0.000000,0.000000 ThumbRight:0.000000,0.000000,0.000000,0.000000 WristLeft:-0.089600,0.772870,-0.120021,0.616635 WristRight:0.419270,-0.551650,-0.095237,0.714720 END:
KINECT_DATA POSITION:1.728624,-1.339832,-4.622626 HEAD_JOINT1:0.983191,0.181748,-0.000000,0.017415 LARM_JOINT2:0.799140,0.000000,0.019242,-0.600837 LARM_JOINT3:0.960470,0.000000,-0.200773,-0.192839 LLEG_JOINT2:0.999934,0.007409,0.000000,0.008793 LLEG_JOINT4:0.995987,0.088768,0.000000,0.011405 RARM_JOINT2:0.844213,0.000000,0.387210,0.370638 RARM_JOINT3:0.894218,0.000000,0.397640,0.205563 RLEG_JOINT2:0.995711,0.037099,0.000000,-0.084749 RLEG_JOINT4:0.992389,0.099367,0.000000,0.072741 WAIST:0.994932,-0.000000,0.096278,0.028997 WAIST_JOINT0:0.986808,-0.000000,0.151887,0.056045 WAIST_JOINT1:0.998587,0.052072,-0.000000,0.010584 END:
KINECT_DATA_Sensor  AnkleLeft:-0.039730,-0.619726,0.097547,0.777718 AnkleRight:0.101896,0.788515,0.087528,0.600167 ElbowLeft:-0.004823,0.831961,-0.189943,-0.521287 ElbowRight:-0.362006,0.922025,0.098401,0.095598 FootLeft:0.000000,0.000000,0.000000,0.000000 FootRight:0.000000,0.000000,0.000000,0.000000 HandLeft:-0.142043,0.754416,-0.017966,0.640591 HandRight:0.604593,-0.449890,-0.053626,0.655127 HandTipLeft:0.000000,0.000000,0.000000,0.000000 HandTipRight:0.000000,0.000000,0.000000,0.000000 Head:0.000000,0.000000,0.000000,0.000000 HipLeft:0.065335,-0.667344,0.732928,-0.114890 HipRight:-0.203822,0.680798,0.668166,-0.220282 KneeLeft:0.020358,-0.635454,0.032006,0.771207 KneeRight:-0.021195,0.772904,0.062134,0.631118 Neck:-0.155374,0.037918,0.984891,-0.066420 ShoulderLeft:0.100541,0.739398,-0.663162,-0.058296 ShoulderRight:-0.101714,0.797551,0.567677,-0.176947 SpineBase:-0.096793,0.035732,0.994206,-0.030160 SpineMid:-0.125313,0.036584,0.991015,-0.029121 SpineShoulder:-0.154910,0.037331,0.986165,-0.045691 ThumbLeft:0.000000,0.000000,0.000000,0.000000 ThumbRight:0.000000,0.000000,0.000000,0.000000 WristLeft:-0.089846,0.773003,-0.120574,0.616325 WristRight:0.446004,-0.514058,-0.115541,0.723516 END:
KINECT_DATA POSITION:1.345806,-0.876766,-5.125630 HEAD_JOINT1:0.983927,0.178206,-0.000000,0.011445 LARM_JOINT2:0.801903,0.000000,0.022508,-0.597030 LARM_JOINT3:0.958552,0.000000,-0.204605,-0.198281 LLEG_JOINT2:0.999868,-0.000163,0.000000,0.016230 LLEG_JOINT4:0.995713,0.092043,0.000000,0.009199 RARM_JOINT2:0.874647,0.000000,0.341405,0.344143 RARM_JOINT3:0.795920,0.000000,0.544202,0.265247 RLEG_JOINT2:0.996589,0.030043,0.000000,-0.076858 RLEG_JOINT4:0.991845,0.105283,0.000000,0.071830 WAIST:0.993637,-0.000000,0.109710,0.025484 WAIST_JOINT0:0.986270,-0.000000,0.156742,0.051991 WAIST_JOINT1:0.998473,0.052996,-0.000000,0.015581 END:
KINECT_DATA_Sensor  AnkleLeft:-0.037626,-0.616984,0.095209,0.780288 AnkleRight:0.101777,0.790910,0.086771,0.597138 ElbowLeft:-0.003782,0.816342,-0.196797,-0.542993 ElbowRight:-0.364010,0.910253,0.132244,0.146450 FootLeft:0.000000,0.000000,0.000000,0.000000 FootRight:0.000000,0.000000,0.000000,0.000000 HandLeft:-0.132814,0.759174,0.003728,0.637183 HandRight:0.633983,-0.314814,-0.069462,0.702946 HandTipLeft:0.000000,0.000000,0.000000,0.000000 HandTipRight:0.000000,0.000000,0.000000,0.000000 Head:0.000000,0.000000,0.000000,0.000000 HipLeft:0.054034,-0.671649,0.731348,-0.105348 HipRight:-0.209500,0.677205,0.668204,-0.225847 KneeLeft:0.028264,-0.625283,0.030601,0.779285 KneeRight:-0.023102,0.780904,0.053574,0.621920 Neck:-0.159762,0.038594,0.984031,-0.068331 ShoulderLeft:0.105016,0.742132,-0.659051,-0.062156 ShoulderRight:-0.102710,0.794736,0.570216,-0.180830 SpineBase:-0.110000,0.035312,0.992824,-0.030881 SpineMid:-0.134199,0.036055,0.989843,-0.030010 SpineShoulder:-0.159349,0.037461,0.985367,-0.047500 ThumbLeft:0.000000,0.000000,0.000000,0.000000 ThumbRight:0.000000,0.000000,0.000000,0.000000 WristLeft:-0.091093,0.781067,-0.131821,0.603539 WristRight:0.555356,-0.359127,-0.102889,0.742981 END:
KINECT_DATA POSITION:1.064864,-0.250483,-5.826628 HEAD_JOINT1:0.985633,0.168826,0.000000,-0.004945 LARM_JOINT2:0.801229,0.000000,0.008187,-0.598302 LARM_JOINT3:0.959935,0.000000,-0.191868,-0.204234 LLEG_JOINT2:0.999890,-0.007753,0.000000,0.012671 LLEG_JOINT4:0.995295,0.096665,0.000000,0.006578 RARM_JOINT2:0.817549,0.000000,0.417876,0.396224 RARM_JOINT3:0.834744,0.000000,0.514640,0.195828 RLEG_JOINT2:0.995818,0.032398,0.000000,-0.085422 RLEG_JOINT4:0.991502,0.103981,0.000000,0.078178 WAIST:0.989848,-0.000000,0.137961,0.034173 WAIST_JOINT0:0.978234,-0.000000,0.196604,0.066373 WAIST_JOINT1:0.998259,0.055812,-0.000000,0.019087 END:
KINECT_DATA_Sensor  AnkleLeft:-0.034792,-0.592113,0.093090,0.799704 AnkleRight:0.103809,0.809170,0.084731,0.572091 ElbowLeft:-0.003656,0.821222,-0.203603,-0.533036 ElbowRight:-0.356405,0.925330,-0.005077,0.129286 FootLeft:0.000000,0.000000,0.000000,0.000000 FootRight:0.000000,0.000000,0.000000,0.000000 HandLeft:-0.128387,0.819970,0.001295,0.557821 HandRight:0.688738,-0.348044,0.076035,0.631446 HandTipLeft:0.000000,0.000000,0.000000,0.000000 HandTipRight:0.000000,0.000000,0.000000,0.000000 Head:0.000000,0.000000,0.000000,0.000000 HipLeft:0.035567,-0.667322,0.737831,-0.094982 HipRight:-0.225779,0.676947,0.656712,-0.243918 KneeLeft:0.037946,-0.602998,0.029634,0.796288 KneeRight:-0.024396,0.798657,0.053298,0.598925 Neck:-0.199687,0.051431,0.975903,-0.071372 ShoulderLeft:0.131879,0.726273,-0.668941,-0.087477 ShoulderRight:-0.130120,0.788953,0.560923,-0.214446 SpineBase:-0.138542,0.042768,0.988827,-0.034619 SpineMid:-0.168424,0.043796,0.984178,-0.033308 SpineShoulder:-0.199324,0.047873,0.977498,-0.049748 ThumbLeft:0.000000,0.000000,0.000000,0.000000 ThumbRight:0.000000,0.000000,0.000000,0.000000 WristLeft:-0.090329,0.834381,-0.120829,0.530141 WristRight:0.606405,-0.421607,-0.007144,0.674143 END:
KINECT_DATA POSITION:0.632688,0.044849,-6.276250 HEAD_JOINT1:0.986792,0.159982,0.000000,-0.025441 LARM_JOINT2:0.797562,0.000000,-0.023454,-0.602781 LARM_JOINT3:0.964853,0.000000,-0.172696,-0.198075 LLEG_JOINT2:0.999813,-0.012291,0.000000,0.014916 LLEG_JOINT4:0.995594,0.093582,0.000000,0.005928 RARM_JOINT2:0.812860,0.000000,0.422225,0.401229 RARM_JOINT3:0.830160,0.000000,0.521975,0.195899 RLEG_JOINT2:0.995619,0.034943,0.000000,-0.086734 RLEG_JOINT4:0.991738,0.100945,0.000000,0.079158 WAIST:0.985990,-0.000000,0.162489,0.037686 WAIST_JOINT0:0.971651,-0.000000,0.224842,0.073072 WAIST_JOINT1:0.997982,0.057741,-0.000000,0.026433 END:
KINECT_DATA_Sensor  AnkleLeft:0.042984,0.710905,-0.084471,-0.696873 AnkleRight:0.102657,0.822122,0.084220,0.553610 ElbowLeft:-0.012135,0.838918,-0.202199,-0.505159 ElbowRight:-0.348742,0.929823,-0.031982,0.113070 FootLeft:0.000000,0.000000,0.000000,0.000000 FootRight:0.000000,0.000000,0.000000,0.000000 HandLeft:-0.107774,0.770258,-0.014083,0.628402 HandRight:0.696630,-0.260703,0.026013,0.667880 HandTipLeft:0.000000,0.000000,0.000000,0.000000 HandTipRight:0.000000,0.000000,0.000000,0.000000 Head:0.000000,0.000000,0.000000,0.000000 HipLeft:0.020114,-0.666201,0.740531,-0.085935 HipRight:-0.242521,0.674295,0.648177,-0.257636 KneeLeft:0.045259,-0.583425,0.031672,0.810286 KneeRight:-0.023397,0.813564,0.052423,0.578635 Neck:-0.228848,0.060962,0.968696,-0.074430 ShoulderLeft:0.149121,0.714580,-0.675703,-0.102782 ShoulderRight:-0.154087,0.781110,0.555169,-0.240648 SpineBase:-0.162961,0.050613,0.984657,-0.036511 SpineMid:-0.195097,0.051781,0.978796,-0.034835 SpineShoulder:-0.228370,0.057295,0.970490,-0.052087 ThumbLeft:0.000000,0.000000,0.000000,0.000000 ThumbRight:0.000000,0.000000,0.000000,0.000000 WristLeft:-0.074807,0.782829,-0.122602,0.605435 WristRight:0.622522,-0.326512,-0.042266,0.709979 END:
KINECT_DATA POSITION:0.343907,0.135401,-6.571400 HEAD_JOINT1:0.987815,0.151129,0.000000,-0.037154 LARM_JOINT2:0.779135,0.000000,-0.026286,-0.626305 LARM_JOINT3:0.974262,0.000000,-0.171732,-0.146021 LLEG_JOINT2:0.999728,-0.013840,0.000000,0.018784 LLEG_JOINT4:0.995753,0.091628,0.000000,0.008991 RARM_JOINT2:0.813735,0.000000,0.429137,0.392016 RARM_JOINT3:0.829710,0.000000,0.524222,0.191763 RLEG_JOINT2:0.995746,0.035871,0.000000,-0.084865 RLEG_JOINT4:0.991790,0.096759,0.000000,0.083611 WAIST:0.983835,-0.000000,0.175349,0.036338 WAIST_JOINT0:0.968010,-0.000000,0.238975,0.076464 WAIST_JOINT1:0.997691,0.059138,-0.000000,0.033388 END:
KINECT_DATA_Sensor  AnkleLeft:-0.022400,-0.566366,0.092725,0.818615 AnkleRight:0.093109,0.758849,0.091567,0.638040 ElbowLeft:-0.020854,0.785976,-0.177673,-0.591810 ElbowRight:-0.353966,0.929277,-0.039936,0.097767 FootLeft:0.000000,0.000000,0.000000,0.000000 FootRight:0.000000,0.000000,0.000000,0.000000 HandLeft:-0.129477,0.780711,0.005073,0.611310 HandRight:0.704433,-0.239110,0.026274,0.667765 HandTipLeft:0.000000,0.000000,0.000000,0.000000 HandTipRight:0.000000,0.000000,0.000000,0.000000 Head:0.000000,0.000000,0.000000,0.000000 HipLeft:0.010129,-0.667393,0.740179,-0.081354 HipRight:-0.250968,0.670770,0.646055,-0.263999 KneeLeft:0.047694,-0.573293,0.033283,0.817284 KneeRight:-0.023309,0.821014,0.052404,0.568020 Neck:-0.243968,0.065765,0.964492,-0.076878 ShoulderLeft:0.164703,0.705440,-0.679782,-0.114558 ShoulderRight:-0.159505,0.776674,0.555434,-0.250655 SpineBase:-0.175477,0.054979,0.982180,-0.038827 SpineMid:-0.208873,0.056271,0.975624,-0.036929 SpineShoulder:-0.243447,0.062058,0.966397,-0.054396 ThumbLeft:0.000000,0.000000,0.000000,0.000000 ThumbRight:0.000000,0.000000,0.000000,0.000000 WristLeft:-0.047712,0.807379,-0.141696,0.570776 WristRight:0.624224,-0.305775,-0.042846,0.717642 END:
KINECT_DATA POSITION:0.250879,0.246426,-6.678188 HEAD_JOINT1:0.988644,0.144549,0.000000,-0.041102 LARM_JOINT2:0.775727,0.000000,-0.022225,-0.630677 LARM_JOINT3:0.973584,0.000000,-0.185456,-0.133190 LLEG_JOINT2:0.999665,-0.014442,0.000000,0.021463 LLEG_JOINT4:0.996122,0.087869,0.000000,0.004472 RARM_JOINT2:0.805883,0.000000,0.437445,0.398992 RARM_JOINT3:0.833629,0.000000,0.519557,0.187411 RLEG_JOINT2:0.995766,0.035852,0.000000,-0.084643 RLEG_JOINT4:0.991648,0.095786,0.000000,0.086366 WAIST:0.982315,-0.000000,0.183800,0.035695 WAIST_JOINT0:0.964412,-0.000000,0.253269,0.075917 WAIST_JOINT1:0.997630,0.057583,-0.000000,0.037657 END:
KINECT_DATA_Sensor  AnkleLeft:-0.020543,-0.556781,0.087955,0.825734 AnkleRight:0.094320,0.768388,0.089585,0.626624 ElbowLeft:-0.019898,0.771944,-0.176293,-0.610432 ElbowRight:-0.350328,0.930749,-0.058632,0.086823 FootLeft:0.000000,0.000000,0.000000,0.000000 FootRight:0.000000,0.000000,0.000000,0.000000 HandLeft:-0.139068,0.797648,-0.086787,0.580419 HandRight:0.711639,-0.253045,0.059777,0.652659 HandTipLeft:0.000000,0.000000,0.000000,0.000000 HandTipRight:0.000000,0.000000,0.000000,0.000000 Head:0.000000,0.000000,0.000000,0.000000 HipLeft:0.004633,-0.667718,0.740427,-0.076806 HipRight:-0.257348,0.668898,0.644442,-0.266537 KneeLeft:0.049167,-0.566453,0.034906,0.821885 KneeRight:-0.024257,0.825845,0.052296,0.560942 Neck:-0.258084,0.069453,0.960664,-0.075450 ShoulderLeft:0.167039,0.702353,-0.681533,-0.119629 ShoulderRight:-0.178989,0.768479,0.554492,-0.264465 SpineBase:-0.183694,0.058173,0.980508,-0.038418 SpineMid:-0.219961,0.059559,0.973014,-0.036233 SpineShoulder:-0.257535,0.065632,0.962563,-0.053295 ThumbLeft:0.000000,0.000000,0.000000,0.000000 ThumbRight:0.000000,0.000000,0.000000,0.000000 WristLeft:-0.044013,0.813564,-0.145333,0.561298 WristRight:0.630294,-0.320963,-0.011191,0.706815 END:
KINECT_DATA POSITION:0.234093,0.305501,-6.737804 HEAD_JOINT1:0.989344,0.139342,0.000000,-0.042213 LARM_JOINT2:0.774251,0.000000,-0.012245,-0.632760 LARM_JOINT3:0.970058,0.000000,-0.193350,-0.146980 LLEG_JOINT2:0.999607,-0.015798,0.000000,0.023146 LLEG_JOINT4:0.996203,0.086964,0.000000,0.004155 RARM_JOINT2:0.803030,0.000000,0.447288,0.393797 RARM_JOINT3:0.848950,0.000000,0.501540,0.166558 RLEG_JOINT2:0.995886,0.034241,0.000000,-0.083898 RLEG_JOINT4:0.991285,0.099350,0.000000,0.086504 WAIST:0.981339,-0.000000,0.189140,0.034642 WAIST_JOINT0:0.964035,-0.000000,0.255153,0.074385 WAIST_JOINT1:0.997630,0.055487,-0.000000,0.040684 END:
KINECT_DATA_Sensor  AnkleLeft:0.035587,0.703660,-0.081439,-0.704956 AnkleRight:0.104188,0.835199,0.080915,0.533892 ElbowLeft:-0.014145,0.765368,-0.177656,-0.618426 ElbowRight:-0.357211,0.928068,-0.069027,0.079536 FootLeft:0.000000,0.000000,0.000000,0.000000 FootRight:0.000000,0.000000,0.000000,0.000000 HandLeft:-0.198997,0.802562,-0.062285,0.558941 HandRight:0.697418,-0.268298,0.004064,0.664536 HandTipLeft:0.000000,0.000000,0.000000,0.000000 HandTipRight:0.000000,0.000000,0.000000,0.000000 Head:0.000000,0.000000,0.000000,0.000000 HipLeft:0.001490,-0.668787,0.739817,-0.073435 HipRight:-0.261981,0.667704,0.643276,-0.267831 KneeLeft:0.050426,-0.562175,0.034941,0.824740 KneeRight:-0.025716,0.828751,0.051016,0.556694 Neck:-0.260382,0.071089,0.960042,-0.073941 ShoulderLeft:0.161183,0.704174,-0.681570,-0.116709 ShoulderRight:-0.189432,0.766745,0.550904,-0.269671 SpineBase:-0.188842,0.060230,0.979441,-0.037498 SpineMid:-0.223643,0.061529,0.972085,-0.035326 SpineShoulder:-0.259797,0.067350,0.961902,-0.052088 ThumbLeft:0.000000,0.000000,0.000000,0.000000 ThumbRight:0.000000,0.000000,0.000000,0.000000 WristLeft:-0.051226,0.834871,-0.143440,0.528954 WristRight:0.631819,-0.304596,-0.022597,0.712401 END:
KINECT_DATA POSITION:0.223167,0.330132,-6.778872 HEAD_JOINT1:0.989883,0.136830,0.000000,-0.037528 LARM_JOINT2:0.777349,0.000000,-0.022414,-0.628671 LARM_JOINT3:0.969837,0.000000,-0.188233,-0.154866 LLEG_JOINT2:0.999556,-0.017052,0.000000,0.024453 LLEG_JOINT4:0.996435,0.084268,0.000000,0.003985 RARM_JOINT2:0.804304,0.000000,0.485123,0.343149 RARM_JOINT3:0.884840,0.000000,0.448699,0.125409 RLEG_JOINT2:0.996101,0.034636,0.000000,-0.081142 RLEG_JOINT4:0.991332,0.098669,0.000000,0.086753 WAIST:0.981335,-0.000000,0.189454,0.032993 WAIST_JOINT0:0.967163,-0.000000,0.243886,0.071522 WAIST_JOINT1:0.997647,0.054153,-0.000000,0.042039 END:
KINECT_DATA_Sensor  AnkleLeft:-0.017392,-0.563435,0.084153,0.821679 AnkleRight:0.096070,0.773205,0.090996,0.620198 ElbowLeft:-0.018599,0.783770,-0.180012,-0.594099 ElbowRight:-0.405198,0.909392,-0.072438,0.059774 FootLeft:0.000000,0.000000,0.000000,0.000000 FootRight:0.000000,0.000000,0.000000,0.000000 HandLeft:-0.227089,0.845786,-0.046453,0.480540 HandRight:0.659319,-0.289278,-0.073138,0.690121 HandTipLeft:0.000000,0.000000,0.000000,0.000000 HandTipRight:0.000000,0.000000,0.000000,0.000000 Head:0.000000,0.000000,0.000000,0.000000 HipLeft:0.001389,-0.669833,0.738953,-0.072600 HipRight:-0.262861,0.666972,0.644148,-0.266694 KneeLeft:0.051024,-0.562066,0.034173,0.824809 KneeRight:-0.024394,0.828967,0.050942,0.556438 Neck:-0.250326,0.069949,0.962831,-0.073485 ShoulderLeft:0.165272,0.703567,-0.680582,-0.120358 ShoulderRight:-0.168444,0.773149,0.556264,-0.253845 SpineBase:-0.189012,0.060686,0.979408,-0.036761 SpineMid:-0.218753,0.061777,0.973197,-0.034896 SpineShoulder:-0.249685,0.066713,0.964635,-0.051827 ThumbLeft:0.000000,0.000000,0.000000,0.000000 ThumbRight:0.000000,0.000000,0.000000,0.000000 WristLeft:-0.066366,0.882067,-0.133488,0.446916 WristRight:0.609356,-0.307866,-0.073503,0.726981 END:
KINECT_DATA POSITION:0.153351,0.390329,-6.766975 HEAD_JOINT1:0.990150,0.139065,0.000000,-0.016221 LARM_JOINT2:0.774844,0.000000,-0.036638,-0.631089 LARM_JOINT3:0.971276,0.000000,-0.179323,-0.156415 LLEG_JOINT2:0.999482,-0.018334,0.000000,0.026467 LLEG_JOINT4:0.995825,0.091175,0.000000,0.004342 RARM_JOINT2:0.763037,0.000000,0.564880,0.314142 RARM_JOINT3:0.936289,0.000000,0.337832,0.096088 RLEG_JOINT2:0.996441,0.032583,0.000000,-0.077745 RLEG_JOINT4:0.991762,0.101195,0.000000,0.078533 WAIST:0.982327,-0.000000,0.184661,0.030559 WAIST_JOINT0:0.968995,-0.000000,0.236832,0.070424 WAIST_JOINT1:0.997668,0.053786,-0.000000,0.042030 END:
KINECT_DATA_Sensor  AnkleLeft:0.037845,0.707141,-0.082146,-0.701264 AnkleRight:0.099737,0.827850,0.085708,0.545318 ElbowLeft:-0.024841,0.799433,-0.171514,-0.575215 ElbowRight:-0.442678,0.888330,-0.122080,0.001550 FootLeft:0.000000,0.000000,0.000000,0.000000 FootRight:0.000000,0.000000,0.000000,0.000000 HandLeft:-0.239496,0.759982,-0.086432,0.597996 HandRight:0.626119,-0.241708,-0.113602,0.732562 HandTipLeft:0.000000,0.000000,0.000000,0.000000 HandTipRight:0.000000,0.000000,0.000000,0.000000 Head:0.000000,0.000000,0.000000,0.000000 HipLeft:0.004231,-0.671176,0.737526,-0.074562 HipRight:-0.259769,0.666684,0.647116,-0.263236 KneeLeft:0.051550,-0.566183,0.033261,0.821994 KneeRight:-0.024121,0.826038,0.049267,0.560939 Neck:-0.244238,0.067183,0.964622,-0.073060 ShoulderLeft:0.161207,0.702166,-0.684121,-0.113815 ShoulderRight:-0.165600,0.771867,0.560833,-0.249527 SpineBase:-0.184108,0.059502,0.980427,-0.036434 SpineMid:-0.213240,0.060561,0.974505,-0.034644 SpineShoulder:-0.243555,0.064736,0.966349,-0.051569 ThumbLeft:0.000000,0.000000,0.000000,0.000000 ThumbRight:0.000000,0.000000,0.000000,0.000000 WristLeft:-0.040578,0.802640,-0.134148,0.579764 WristRight:0.560333,-0.287752,-0.154866,0.761080 END:
KINECT_DATA POSITION:0.042841,0.318399,-6.550181 HEAD_JOINT1:0.990573,0.136840,0.000000,-0.006248 LARM_JOINT2:0.767915,0.000000,-0.054120,-0.638261 LARM_JOINT3:0.976818,0.000000,-0.153895,-0.148807 LLEG_JOINT2:0.999507,-0.017980,0.000000,0.025752 LLEG_JOINT4:0.995756,0.091758,0.000000,0.007170 RARM_JOINT2:0.715175,0.000000,0.620550,0.321625 RARM_JOINT3:0.952694,0.000000,0.282399,0.112362 RLEG_JOINT2:0.996366,0.030325,0.000000,-0.079599 RLEG_JOINT4:0.990603,0.104617,0.000000,0.088093 WAIST:0.982928,-0.000000,0.181522,0.030043 WAIST_JOINT0:0.968035,-0.000000,0.242450,0.064234 WAIST_JOINT1:0.997433,0.056931,-0.000000,0.043426 END:
KINECT_DATA_Sensor  AnkleLeft:0.037318,0.703772,-0.084496,-0.704395 AnkleRight:0.100586,0.784451,0.089563,0.605391 ElbowLeft:-0.030285,0.810520,-0.159825,-0.562668 ElbowRight:-0.447302,0.876572,-0.162858,-0.070847 FootLeft:0.000000,0.000000,0.000000,0.000000 FootRight:0.000000,0.000000,0.000000,0.000000 HandLeft:-0.223691,0.778317,-0.017773,0.586404 HandRight:0.597437,-0.364712,0.028133,0.713626 HandTipLeft:0.000000,0.000000,0.000000,0.000000 HandTipRight:0.000000,0.000000,0.000000,0.000000 Head:0.000000,0.000000,0.000000,0.000000 HipLeft:0.004331,-0.671823,0.736593,-0.077891 HipRight:-0.257591,0.666914,0.647852,-0.262982 KneeLeft:0.050518,-0.569090,0.032424,0.820081 KneeRight:-0.027089,0.823892,0.048966,0.563978 Neck:-0.249357,0.068687,0.962968,-0.076124 ShoulderLeft:0.165275,0.700993,-0.684142,-0.115077 ShoulderRight:-0.171307,0.760421,0.572455,-0.254379 SpineBase:-0.180864,0.060153,0.980908,-0.038580 SpineMid:-0.214144,0.061431,0.974185,-0.036511 SpineShoulder:-0.248705,0.065803,0.964827,-0.054080 ThumbLeft:0.000000,0.000000,0.000000,0.000000 ThumbRight:0.000000,0.000000,0.000000,0.000000 WristLeft:-0.042134,0.825009,-0.125564,0.549380 WristRight:0.572936,-0.403709,-0.024500,0.712856 END:
KINECT_DATA POSITION:0.067581,0.294771,-6.391478 HEAD_JOINT1:0.990749,0.135415,0.000000,-0.008954 LARM_JOINT2:0.760053,0.000000,-0.054833,-0.647544 LARM_JOINT3:0.978632,0.000000,-0.152302,-0.138140 LLEG_JOINT2:0.999577,-0.018400,0.000000,0.022538 LLEG_JOINT4:0.995635,0.092571,0.000000,0.011932 RARM_JOINT2:0.715792,0.000000,0.624585,0.312305 RARM_JOINT3:0.949662,0.000000,0.286908,0.125802 RLEG_JOINT2:0.996162,0.032549,0.000000,-0.081246 RLEG_JOINT4:0.990735,0.103609,0.000000,0.087800 WAIST:0.982053,-0.000000,0.186000,0.031230 WAIST_JOINT0:0.967056,-0.000000,0.246458,0.063727 WAIST_JOINT1:0.997119,0.060183,-0.000000,0.046164 END:
KINECT_DATA_Sensor  AnkleLeft:0.038052,0.711665,-0.086215,-0.696170 AnkleRight:0.106669,0.831252,0.083174,0.539188 ElbowLeft:-0.030453,0.787078,-0.151656,-0.597144 ElbowRight:-0.454719,0.871590,-0.153307,-0.100291 FootLeft:0.000000,0.000000,0.000000,0.000000 FootRight:0.000000,0.000000,0.000000,0.000000 HandLeft:-0.220298,0.797553,0.011856,0.561461 HandRight:0.587095,-0.282138,-0.051098,0.757038 HandTipLeft:0.000000,0.000000,0.000000,0.000000 HandTipRight:0.000000,0.000000,0.000000,0.000000 Head:0.000000,0.000000,0.000000,0.000000 HipLeft:-0.001176,-0.671058,0.737333,-0.077583 HipRight:-0.259227,0.666259,0.646374,-0.266647 KneeLeft:0.049836,-0.565849,0.030531,0.822435 KneeRight:-0.026673,0.826518,0.050677,0.559989 Neck:-0.253320,0.072193,0.961368,-0.079927 ShoulderLeft:0.174088,0.698106,-0.684122,-0.119657 ShoulderRight:-0.168117,0.757938,0.575921,-0.256089 SpineBase:-0.185238,0.062424,0.979819,-0.041781 SpineMid:-0.218336,0.063804,0.972978,-0.039641 SpineShoulder:-0.252679,0.068886,0.963368,-0.057712 ThumbLeft:0.000000,0.000000,0.000000,0.000000 ThumbRight:0.000000,0.000000,0.000000,0.000000 WristLeft:-0.042336,0.848646,-0.128522,0.511361 WristRight:0.571754,-0.295917,-0.065784,0.762367 END:
KINECT_DATA POSITION:0.118163,0.267746,-6.142557 HEAD_JOINT1:0.990966,0.133803,0.000000,-0.009115 LARM_JOINT2:0.761440,0.000000,-0.057745,-0.645658 LARM_JOINT3:0.981166,0.000000,-0.153436,-0.117351 LLEG_JOINT2:0.999654,-0.016925,0.000000,0.020132 LLEG_JOINT4:0.995532,0.093276,0.000000,0.014707 RARM_JOINT2:0.712185,0.000000,0.632326,0.304887 RARM_JOINT3:0.952513,0.000000,0.277115,0.126199 RLEG_JOINT2:0.995844,0.038371,0.000000,-0.082598 RLEG_JOINT4:0.990709,0.099532,0.000000,0.092676 WAIST:0.980702,-0.000000,0.192678,0.033157 WAIST_JOINT0:0.964269,-0.000000,0.253448,0.077137 WAIST_JOINT1:0.996944,0.061905,-0.000000,0.047644 END:
KINECT_DATA_Sensor  AnkleLeft:0.040704,0.717875,-0.087964,-0.689392 AnkleRight:0.103449,0.784240,0.091192,0.604939 ElbowLeft:-0.033614,0.776215,-0.156410,-0.609833 ElbowRight:-0.460303,0.865380,-0.156127,-0.121915 FootLeft:0.000000,0.000000,0.000000,0.000000 FootRight:0.000000,0.000000,0.000000,0.000000 HandLeft:-0.164346,0.840072,-0.052771,0.514281 HandRight:0.586798,-0.325767,-0.019193,0.741064 HandTipLeft:0.000000,0.000000,0.000000,0.000000 HandTipRight:0.000000,0.000000,0.000000,0.000000 Head:0.000000,0.000000,0.000000,0.000000 HipLeft:-0.007383,-0.669831,0.738616,-0.075624 HipRight:-0.262728,0.665580,0.643755,-0.271213 KneeLeft:0.048566,-0.560488,0.030918,0.826159 KneeRight:-0.023638,0.830767,0.054585,0.553432 Neck:-0.260396,0.075025,0.959095,-0.081861 ShoulderLeft:-0.188866,-0.682048,0.694348,0.130467 ShoulderRight:-0.160977,0.759745,0.575630,-0.255977 SpineBase:-0.191865,0.064983,0.978269,-0.044207 SpineMid:-0.225209,0.066457,0.971135,-0.041958 SpineShoulder:-0.259747,0.071599,0.961165,-0.059723 ThumbLeft:0.000000,0.000000,0.000000,0.000000 ThumbRight:0.000000,0.000000,0.000000,0.000000 WristLeft:-0.034556,0.862655,-0.134216,0.486434 WristRight:0.572605,-0.333896,-0.025418,0.748325 END:
KINECT_DATA POSITION:0.078557,0.263906,-5.969918 HEAD_JOINT1:0.991926,0.126430,0.000000,-0.009958 LARM_JOINT2:0.757301,0.000000,-0.056224,-0.650642 LARM_JOINT3:0.981345,0.000000,-0.158896,-0.108228 LLEG_JOINT2:0.999696,-0.015625,0.000000,0.019082 LLEG_JOINT4:0.995661,0.091652,0.000000,0.016091 RARM_JOINT2:0.704622,0.000000,0.640481,0.305438 RARM_JOINT3:0.957146,0.000000,0.261203,0.125080 RLEG_JOINT2:0.995808,0.039416,0.000000,-0.082543 RLEG_JOINT4:0.991070,0.098908,0.000000,0.089424 WAIST:0.980709,-0.000000,0.192459,0.034186 WAIST_JOINT0:0.965536,-0.000000,0.249684,0.073469 WAIST_JOINT1:0.996833,0.063742,-0.000000,0.047559 END:
KINECT_DATA_Sensor  AnkleLeft:-0.020367,-0.559359,0.095343,0.823172 AnkleRight:0.104533,0.802869,0.089268,0.580092 ElbowLeft:-0.032940,0.761350,-0.151336,-0.629570 ElbowRight:-0.461398,0.861721,-0.159827,-0.137853 FootLeft:0.000000,0.000000,0.000000,0.000000 FootRight:0.000000,0.000000,0.000000,0.000000 HandLeft:-0.170886,0.835263,-0.063409,0.518760 HandRight:0.565853,-0.266278,-0.094679,0.774559 HandTipLeft:0.000000,0.000000,0.000000,0.000000 HandTipRight:0.000000,0.000000,0.000000,0.000000 Head:0.000000,0.000000,0.000000,0.000000 HipLeft:-0.009139,-0.668863,0.739372,-0.076603 HipRight:-0.261560,0.665914,0.643657,-0.271756 KneeLeft:0.047625,-0.560762,0.031495,0.826006 KneeRight:-0.022267,0.830711,0.054702,0.553562 Neck:-0.256720,0.075346,0.959884,-0.083907 ShoulderLeft:-0.187445,-0.686628,0.690503,0.128885 ShoulderRight:-0.156066,0.761885,0.575015,-0.254034 SpineBase:-0.191644,0.065947,0.978163,-0.046039 SpineMid:-0.223243,0.067405,0.971439,-0.043878 SpineShoulder:-0.256048,0.072114,0.961993,-0.061710 ThumbLeft:0.000000,0.000000,0.000000,0.000000 ThumbRight:0.000000,0.000000,0.000000,0.000000 WristLeft:-0.033792,0.859152,-0.136889,0.491912 WristRight:0.567182,-0.251982,-0.072491,0.780740 END:
KINECT_DATA POSITION:0.058760,0.268909,-5.884898 HEAD_JOINT1:0.990497,0.137283,0.000000,-0.008286 LARM_JOINT2:0.768742,0.000000,-0.037279,-0.638472 LARM_JOINT3:0.974061,0.000000,-0.173642,-0.145098 LLEG_JOINT2:0.999642,-0.015143,0.000000,0.022044 LLEG_JOINT4:0.995697,0.091833,0.000000,0.012444 RARM_JOINT2:0.734662,0.000000,0.592917,0.329729 RARM_JOINT3:0.930165,0.000000,0.352015,0.104297 RLEG_JOINT2:0.996104,0.035932,0.000000,-0.080531 RLEG_JOINT4:0.990343,0.104782,0.000000,0.090787 WAIST:0.981550,-0.000000,0.188442,0.032400 WAIST_JOINT0:0.966676,-0.000000,0.248284,0.062396 WAIST_JOINT1:0.997182,0.060662,-0.000000,0.044144 END:
KINECT_DATA_Sensor  AnkleLeft:-0.021965,-0.560204,0.094104,0.822699 AnkleRight:0.112726,0.831156,0.084202,0.537943 ElbowLeft:-0.019331,0.788805,-0.167428,-0.591084 ElbowRight:-0.430477,0.888622,-0.153327,-0.039124 FootLeft:0.000000,0.000000,0.000000,0.000000 FootRight:0.000000,0.000000,0.000000,0.000000 HandLeft:-0.166342,0.831382,-0.044154,0.528379 HandRight:0.654053,-0.262038,-0.057083,0.707314 HandTipLeft:0.000000,0.000000,0.000000,0.000000 HandTipRight:0.000000,0.000000,0.000000,0.000000 Head:0.000000,0.000000,0.000000,0.000000 HipLeft:-0.005181,-0.670324,0.737880,-0.078564 HipRight:-0.259757,0.666082,0.645228,-0.269337 KneeLeft:0.047653,-0.563940,0.032848,0.823785 KneeRight:-0.023523,0.828137,0.052126,0.557601 Neck:-0.255135,0.069892,0.961115,-0.079239 ShoulderLeft:0.180328,0.692814,-0.687354,-0.122619 ShoulderRight:-0.165902,0.751961,0.585236,-0.254026 SpineBase:-0.187586,0.064533,0.979099,-0.044862 SpineMid:-0.220345,0.066002,0.972251,-0.042670 SpineShoulder:-0.254408,0.068162,0.962927,-0.058330 ThumbLeft:0.000000,0.000000,0.000000,0.000000 ThumbRight:0.000000,0.000000,0.000000,0.000000 WristLeft:-0.058149,0.852981,-0.129416,0.502288 WristRight:0.594358,-0.286033,-0.065719,0.748735 END:
KINECT_DATA POSITION:0.050046,0.160825,-5.924225 HEAD_JOINT1:0.988864,0.148683,0.000000,-0.006427 LARM_JOINT2:0.783904,0.000000,-0.008966,-0.620817 LARM_JOINT3:0.960034,0.000000,-0.209264,-0.185858 LLEG_JOINT2:0.999585,-0.013824,0.000000,0.025279 LLEG_JOINT4:0.995985,0.088897,0.000000,0.010562 RARM_JOINT2:0.778558,0.000000,0.550550,0.301234 RARM_JOINT3:0.891152,0.000000,0.440076,0.110370 RLEG_JOINT2:0.996443,0.035838,0.000000,-0.076265 RLEG_JOINT4:0.991062,0.100725,0.000000,0.087462 WAIST:0.983699,-0.000000,0.177207,0.030575 WAIST_JOINT0:0.968147,-0.000000,0.243493,0.058330 WAIST_JOINT1:0.997450,0.059059,-0.000000,0.040080 END:
KINECT_DATA_Sensor  AnkleLeft:0.038337,0.719250,-0.087677,-0.688130 AnkleRight:0.104496,0.781394,0.088879,0.608773 ElbowLeft:-0.005418,0.795089,-0.190129,-0.575895 ElbowRight:-0.446088,0.889282,-0.098059,0.023840 FootLeft:0.000000,0.000000,0.000000,0.000000 FootRight:0.000000,0.000000,0.000000,0.000000 HandLeft:-0.156002,0.818240,-0.050501,0.550995 HandRight:0.684142,-0.284920,-0.029783,0.670733 HandTipLeft:0.000000,0.000000,0.000000,0.000000 HandTipRight:0.000000,0.000000,0.000000,0.000000 Head:0.000000,0.000000,0.000000,0.000000 HipLeft:0.003458,-0.672352,0.735716,-0.081565 HipRight:-0.252432,0.668356,0.648434,-0.262892 KneeLeft:0.047252,-0.572687,0.034645,0.817677 KneeRight:-0.020495,0.821822,0.051421,0.567049 Neck:-0.249981,0.065803,0.962945,-0.076922 ShoulderLeft:0.171942,0.693109,-0.690505,-0.115060 ShoulderRight:-0.170314,0.744525,0.594648,-0.251138 SpineBase:-0.176539,0.060124,0.981558,-0.041992 SpineMid:-0.212281,0.061618,0.974453,-0.039768 SpineShoulder:-0.249350,0.063482,0.964738,-0.055452 ThumbLeft:0.000000,0.000000,0.000000,0.000000 ThumbRight:0.000000,0.000000,0.000000,0.000000 WristLeft:-0.092692,0.833143,-0.134669,0.528341 WristRight:0.629547,-0.311562,-0.043832,0.710407 END:
KINECT_DATA POSITION:0.051016,0.100312,-5.954123 HEAD_JOINT1:0.989258,0.146012,0.000000,-0.007009 LARM_JOINT2:0.783077,0.000000,-0.006517,-0.621891 LARM_JOINT3:0.960416,0.000000,-0.207814,-0.185509 LLEG_JOINT2:0.999554,-0.014051,0.000000,0.026351 LLEG_JOINT4:0.995748,0.091698,0.000000,0.008792 RARM_JOINT2:0.745261,0.000000,0.591647,0.307475 RARM_JOINT3:0.923535,0.000000,0.371422,0.095542 RLEG_JOINT2:0.996551,0.034727,0.000000,-0.075361 RLEG_JOINT4:0.991090,0.101783,0.000000,0.085906 WAIST:0.984114,-0.000000,0.175037,0.029707 WAIST_JOINT0:0.968875,-0.000000,0.241756,0.053253 WAIST_JOINT1:0.997374,0.059038,-0.000000,0.041941 END:
KINECT_DATA_Sensor  AnkleLeft:0.039084,0.702918,-0.088455,-0.704666 AnkleRight:0.103066,0.776960,0.090113,0.614484 ElbowLeft:-0.006125,0.788886,-0.190340,-0.584288 ElbowRight:-0.445935,0.883468,-0.143613,0.001312 FootLeft:0.000000,0.000000,0.000000,0.000000 FootRight:0.000000,0.000000,0.000000,0.000000 HandLeft:-0.141113,0.826705,-0.023859,0.544130 HandRight:0.642875,-0.295068,-0.051140,0.705005 HandTipLeft:0.000000,0.000000,0.000000,0.000000 HandTipRight:0.000000,0.000000,0.000000,0.000000 Head:0.000000,0.000000,0.000000,0.000000 HipLeft:0.004558,-0.672726,0.735270,-0.082444 HipRight:-0.251403,0.668292,0.649528,-0.261335 KneeLeft:0.047464,-0.574528,0.034727,0.816369 KneeRight:-0.020850,0.820457,0.050693,0.569074 Neck:-0.247724,0.067540,0.963377,-0.077306 ShoulderLeft:0.170678,0.693651,-0.690432,-0.114108 ShoulderRight:-0.170159,0.738919,0.602859,-0.248202 SpineBase:-0.174307,0.060090,0.981965,-0.041836 SpineMid:-0.210093,0.061579,0.974936,-0.039611 SpineShoulder:-0.247135,0.064410,0.965241,-0.055539 ThumbLeft:0.000000,0.000000,0.000000,0.000000 ThumbRight:0.000000,0.000000,0.000000,0.000000 WristLeft:-0.095816,0.840418,-0.138155,0.515198 WristRight:0.617761,-0.313835,-0.065355,0.718059 END:
KINECT_DATA POSITION:0.027287,0.066795,-5.966425 HEAD_JOINT1:0.990406,0.137769,0.000000,-0.010786 LARM_JOINT2:0.774652,0.000000,-0.021593,-0.632019 LARM_JOINT3:0.967753,0.000000,-0.192298,-0.162714 LLEG_JOINT2:0.999584,-0.015864,0.000000,0.024106 LLEG_JOINT4:0.995432,0.094828,0.000000,0.011084 RARM_JOINT2:0.720680,0.000000,0.632808,0.283151 RARM_JOINT3:0.947919,0.000000,0.301500,0.102703 RLEG_JOINT2:0.996429,0.035561,0.000000,-0.076583 RLEG_JOINT4:0.991431,0.099530,0.000000,0.084602 WAIST:0.983710,-0.000000,0.177137,0.030602 WAIST_JOINT0:0.966927,-0.000000,0.247474,0.061709 WAIST_JOINT1:0.997179,0.060502,-0.000000,0.044421 END:
KINECT_DATA_Sensor  AnkleLeft:0.040454,0.705589,-0.089413,-0.701793 AnkleRight:0.108385,0.831365,0.080245,0.539116 ElbowLeft:-0.016694,0.776556,-0.177622,-0.604262 ElbowRight:-0.473066,0.864774,-0.151323,-0.073997 FootLeft:0.000000,0.000000,0.000000,0.000000 FootRight:0.000000,0.000000,0.000000,0.000000 HandLeft:-0.140155,0.833754,0.007298,0.534002 HandRight:0.588839,-0.334928,-0.092105,0.729800 HandTipLeft:0.000000,0.000000,0.000000,0.000000 HandTipRight:0.000000,0.000000,0.000000,0.000000 Head:0.000000,0.000000,0.000000,0.000000 HipLeft:0.002286,-0.672055,0.736027,-0.081245 HipRight:-0.252282,0.668410,0.648728,-0.262171 KneeLeft:0.048275,-0.573031,0.032552,0.817463 KneeRight:-0.020893,0.821739,0.051358,0.567161 Neck:-0.253655,0.071237,0.961410,-0.079214 ShoulderLeft:-0.178802,-0.685880,0.694609,0.122947 ShoulderRight:-0.167290,0.743283,0.597529,-0.250007 SpineBase:-0.176403,0.061291,0.981495,-0.042348 SpineMid:-0.214122,0.062878,0.973962,-0.039953 SpineShoulder:-0.253057,0.067590,0.963412,-0.056847 ThumbLeft:0.000000,0.000000,0.000000,0.000000 ThumbRight:0.000000,0.000000,0.000000,0.000000 WristLeft:-0.082776,0.853772,-0.142956,0.493746 WristRight:0.600745,-0.305189,-0.054272,0.736899 END:
KINECT_DATA POSITION:0.030442,0.040712,-5.982149 HEAD_JOINT1:0.991026,0.133072,0.000000,-0.012660 LARM_JOINT2:0.769047,0.000000,-0.022047,-0.638811 LARM_JOINT3:0.968651,0.000000,-0.191787,-0.157901 LLEG_JOINT2:0.999611,-0.016369,0.000000,0.022587 LLEG_JOINT4:0.995393,0.095264,0.000000,0.010829 RARM_JOINT2:0.716787,0.000000,0.637386,0.282764 RARM_JOINT3:0.963323,0.000000,0.257510,0.075478 RLEG_JOINT2:0.996232,0.036011,0.000000,-0.078897 RLEG_JOINT4:0.991231,0.099443,0.000000,0.087013 WAIST:0.983143,-0.000000,0.180146,0.031259 WAIST_JOINT0:0.965653,-0.000000,0.251956,0.063500 WAIST_JOINT1:0.997015,0.062336,-0.000000,0.045566 END:
KINECT_DATA_Sensor  AnkleLeft:-0.039445,-0.691576,0.088818,0.715736 AnkleRight:0.101416,0.782985,0.089410,0.607169 ElbowLeft:-0.015134,0.766577,-0.171299,-0.618698 ElbowRight:-0.471087,0.864077,-0.159828,-0.076829 FootLeft:0.000000,0.000000,0.000000,0.000000 FootRight:0.000000,0.000000,0.000000,0.000000 HandLeft:-0.158123,0.816878,0.017075,0.554451 HandRight:0.572592,-0.311862,-0.169389,0.739045 HandTipLeft:0.000000,0.000000,0.000000,0.000000 HandTipRight:0.000000,0.000000,0.000000,0.000000 Head:0.000000,0.000000,0.000000,0.000000 HipLeft:-0.000717,-0.671317,0.736893,-0.079510 HipRight:-0.253605,0.667794,0.648168,-0.263845 KneeLeft:0.048261,-0.570679,0.031570,0.819146 KneeRight:-0.022296,0.823457,0.052456,0.564508 Neck:-0.258301,0.072827,0.959877,-0.081316 ShoulderLeft:-0.180472,-0.687651,0.692085,0.124837 ShoulderRight:-0.170593,0.745774,0.590694,-0.256514 SpineBase:-0.179405,0.061919,0.980874,-0.043191 SpineMid:-0.217920,0.063573,0.973042,-0.040718 SpineShoulder:-0.257705,0.069072,0.961964,-0.058664 ThumbLeft:0.000000,0.000000,0.000000,0.000000 ThumbRight:0.000000,0.000000,0.000000,0.000000 WristLeft:-0.076011,0.846755,-0.144517,0.506302 WristRight:0.573910,-0.282353,-0.120614,0.759181 END:
KINECT_DATA POSITION:0.015740,0.059800,-6.042802 HEAD_JOINT1:0.991269,0.131085,0.000000,-0.014258 LARM_JOINT2:0.771744,0.000000,-0.019074,-0.635647 LARM_JOINT3:0.967109,0.000000,-0.199550,-0.157734 LLEG_JOINT2:0.999578,-0.016310,0.000000,0.024059 LLEG_JOINT4:0.995205,0.097255,0.000000,0.010407 RARM_JOINT2:0.720454,0.000000,0.621143,0.308429 RARM_JOINT3:0.971863,0.000000,0.235543,0.001320 RLEG_JOINT2:0.996326,0.035393,0.000000,-0.077990 RLEG_JOINT4:0.990708,0.101953,0.000000,0.090014 WAIST:0.983374,-0.000000,0.179099,0.029987 WAIST_JOINT0:0.965373,-0.000000,0.252739,0.064642 WAIST_JOINT1:0.996831,0.063933,-0.000000,0.047333 END:
KINECT_DATA_Sensor  AnkleLeft:-0.042405,-0.699077,0.089239,0.708188 AnkleRight:0.112529,0.833127,0.079945,0.535579 ElbowLeft:-0.011361,0.772117,-0.177098,-0.610198 ElbowRight:-0.416068,0.874936,-0.232152,0.086490 FootLeft:0.000000,0.000000,0.000000,0.000000 FootRight:0.000000,0.000000,0.000000,0.000000 HandLeft:-0.155235,0.832179,-0.024594,0.531766 HandRight:-0.078432,0.644638,-0.614287,0.448266 HandTipLeft:0.000000,0.000000,0.000000,0.000000 HandTipRight:0.000000,0.000000,0.000000,0.000000 Head:0.000000,0.000000,0.000000,0.000000 HipLeft:-0.000852,-0.671642,0.736353,-0.081733 HipRight:-0.253087,0.666673,0.649492,-0.263919 KneeLeft:0.048149,-0.571773,0.031900,0.818376 KneeRight:-0.022733,0.822673,0.052373,0.565641 Neck:-0.259157,0.073193,0.959462,-0.083143 ShoulderLeft:-0.186136,-0.685713,0.691992,0.127669 ShoulderRight:-0.165576,0.747032,0.591069,-0.255274 SpineBase:-0.178190,0.062209,0.981006,-0.044786 SpineMid:-0.217732,0.063970,0.972994,-0.042233 SpineShoulder:-0.258539,0.069657,0.961597,-0.060306 ThumbLeft:0.000000,0.000000,0.000000,0.000000 ThumbRight:0.000000,0.000000,0.000000,0.000000 WristLeft:-0.076949,0.851887,-0.140452,0.498639 WristRight:-0.093182,0.650790,-0.590979,0.467477 END:
KINECT_DATA POSITION:-0.001238,0.094302,-6.109059 HEAD_JOINT1:0.989941,0.141122,0.000000,-0.010097 LARM_JOINT2:0.775445,0.000000,-0.027043,-0.630835 LARM_JOINT3:0.969619,0.000000,-0.188694,-0.155672 LLEG_JOINT2:0.999542,-0.016855,0.000000,0.025131 LLEG_JOINT4:0.995417,0.095006,0.000000,0.010883 RARM_JOINT2:0.730420,0.000000,0.606497,0.314082 RARM_JOINT3:0.970693,0.000000,0.239857,0.014931 RLEG_JOINT2:0.996426,0.034679,0.000000,-0.077027 RLEG_JOINT4:0.990864,0.103844,0.000000,0.086058 WAIST:0.983725,-0.000000,0.177259,0.029415 WAIST_JOINT0:0.965040,-0.000000,0.254475,0.062779 WAIST_JOINT1:0.997078,0.061645,-0.000000,0.045119 END:
KINECT_DATA_Sensor  AnkleLeft:-0.022063,-0.556043,0.094930,0.825420 AnkleRight:0.105541,0.798788,0.089366,0.585502 ElbowLeft:-0.016082,0.788911,-0.177835,-0.587993 ElbowRight:-0.416009,0.877963,-0.216600,0.095928 FootLeft:0.000000,0.000000,0.000000,0.000000 FootRight:0.000000,0.000000,0.000000,0.000000 HandLeft:-0.165352,0.826688,-0.042458,0.536137 HandRight:-0.112177,0.691481,-0.586883,0.406002 HandTipLeft:0.000000,0.000000,0.000000,0.000000 HandTipRight:0.000000,0.000000,0.000000,0.000000 Head:0.000000,0.000000,0.000000,0.000000 HipLeft:0.001224,-0.671696,0.736197,-0.082684 HipRight:-0.252602,0.666451,0.650289,-0.262982 KneeLeft:0.048827,-0.573220,0.032013,0.817319 KneeRight:-0.022620,0.821573,0.051720,0.567302 Neck:-0.260935,0.070653,0.959448,-0.079881 ShoulderLeft:-0.183159,-0.684096,0.694626,0.126330 ShoulderRight:-0.173260,0.740976,0.595792,-0.256842 SpineBase:-0.176368,0.061372,0.981415,-0.044181 SpineMid:-0.217688,0.063184,0.973084,-0.041548 SpineShoulder:-0.260312,0.067601,0.961426,-0.057695 ThumbLeft:0.000000,0.000000,0.000000,0.000000 ThumbRight:0.000000,0.000000,0.000000,0.000000 WristLeft:-0.067261,0.847850,-0.134211,0.508540 WristRight:-0.142967,0.682795,-0.574837,0.427684 END:
KINECT_DATA POSITION:0.010380,0.176608,-6.170046 HEAD_JOINT1:0.991226,0.131527,0.000000,-0.013134 LARM_JOINT2:0.765823,0.000000,-0.064891,-0.639768 LARM_JOINT3:0.982188,0.000000,-0.141879,-0.123196 LLEG_JOINT2:0.999514,-0.016513,0.000000,0.026454 LLEG_JOINT4:0.995333,0.096204,0.000000,0.007610 RARM_JOINT2:0.739878,0.000000,0.595520,0.312948 RARM_JOINT3:0.970568,0.000000,0.236744,0.044167 RLEG_JOINT2:0.996451,0.036600,0.000000,-0.075797 RLEG_JOINT4:0.991412,0.099713,0.000000,0.084617 WAIST:0.983414,-0.000000,0.178999,0.029257 WAIST_JOINT0:0.965410,-0.000000,0.253531,0.060872 WAIST_JOINT1:0.996767,0.064513,-0.000000,0.047897 END:
KINECT_DATA_Sensor  AnkleLeft:0.042453,0.704228,-0.087456,-0.703287 AnkleRight:0.102504,0.791545,0.089444,0.595776 ElbowLeft:-0.030059,0.816285,-0.160281,-0.554152 ElbowRight:-0.419581,0.883346,-0.194098,0.077308 FootLeft:0.000000,0.000000,0.000000,0.000000 FootRight:0.000000,0.000000,0.000000,0.000000 HandLeft:-0.172338,0.810555,-0.057852,0.556735 HandRight:0.537888,-0.375113,-0.122863,0.744897 HandTipLeft:0.000000,0.000000,0.000000,0.000000 HandTipRight:0.000000,0.000000,0.000000,0.000000 Head:0.000000,0.000000,0.000000,0.000000 HipLeft:-0.000230,-0.671565,0.736194,-0.083783 HipRight:-0.253957,0.665543,0.649972,-0.264756 KneeLeft:0.049152,-0.571924,0.033244,0.818158 KneeRight:-0.020747,0.822672,0.052631,0.565694 Neck:-0.260438,0.073274,0.959029,-0.084058 ShoulderLeft:-0.183991,-0.687328,0.691302,0.125813 ShoulderRight:-0.170684,0.742828,0.593493,-0.258532 SpineBase:-0.177988,0.062366,0.980990,-0.045698 SpineMid:-0.218262,0.064197,0.972823,-0.043089 SpineShoulder:-0.259846,0.069476,0.961228,-0.060786 ThumbLeft:0.000000,0.000000,0.000000,0.000000 ThumbRight:0.000000,0.000000,0.000000,0.000000 WristLeft:-0.026351,0.835314,-0.119709,0.535935 WristRight:0.557942,-0.389350,-0.167242,0.713538 END:
KINECT_DATA POSITION:0.015877,0.404407,-6.193602 HEAD_JOINT1:0.992042,0.124958,0.000000,-0.015411 LARM_JOINT2:0.762884,0.000000,-0.071494,-0.642570 LARM_JOINT3:0.984191,0.000000,-0.146466,-0.099583 LLEG_JOINT2:0.999437,-0.019199,0.000000,0.027507 LLEG_JOINT4:0.995353,0.095773,0.000000,0.009955 RARM_JOINT2:0.753643,0.000000,0.579479,0.310202 RARM_JOINT3:0.966498,0.000000,0.249203,0.061478 RLEG_JOINT2:0.996459,0.039803,0.000000,-0.074064 RLEG_JOINT4:0.991747,0.094196,0.000000,0.086976 WAIST:0.981332,-0.000000,0.190213,0.028382 WAIST_JOINT0:0.963224,-0.000000,0.261430,0.062088 WAIST_JOINT1:0.996634,0.064003,-0.000000,0.051235 END:
KINECT_DATA_Sensor  AnkleLeft:-0.022348,-0.551140,0.093762,0.828827 AnkleRight:0.108620,0.837443,0.079458,0.529695 ElbowLeft:-0.038450,0.790660,-0.156089,-0.590774 ElbowRight:-0.425010,0.887828,-0.169159,0.050120 FootLeft:0.000000,0.000000,0.000000,0.000000 FootRight:0.000000,0.000000,0.000000,0.000000 HandLeft:-0.154478,0.825147,-0.120706,0.529811 HandRight:0.534987,-0.349376,-0.118921,0.759989 HandTipLeft:0.000000,0.000000,0.000000,0.000000 HandTipRight:0.000000,0.000000,0.000000,0.000000 Head:0.000000,0.000000,0.000000,0.000000 HipLeft:-0.007367,-0.671370,0.736910,-0.078562 HipRight:-0.261483,0.661817,0.648660,-0.269937 KneeLeft:0.051192,-0.562998,0.032358,0.824237 KneeRight:-0.018943,0.829266,0.054458,0.555871 Neck:-0.269532,0.075007,0.956348,-0.084406 ShoulderLeft:-0.183549,-0.688591,0.689783,0.127874 ShoulderRight:-0.183060,0.742662,0.584548,-0.270640 SpineBase:-0.188948,0.063955,0.978794,-0.046584 SpineMid:-0.228282,0.065782,0.970375,-0.043966 SpineShoulder:-0.268967,0.071021,0.958564,-0.061374 ThumbLeft:0.000000,0.000000,0.000000,0.000000 ThumbRight:0.000000,0.000000,0.000000,0.000000 WristLeft:-0.018647,0.844474,-0.131189,0.518946 WristRight:0.546168,-0.370520,-0.168480,0.732141 END:
KINECT_DATA POSITION:0.011268,0.495409,-6.160772 HEAD_JOINT1:0.991315,0.130976,0.000000,-0.011862 LARM_JOINT2:0.778165,0.000000,-0.071631,-0.623962 LARM_JOINT3:0.978663,0.000000,-0.153303,-0.136810 LLEG_JOINT2:0.999354,-0.022383,0.000000,0.028112 LLEG_JOINT4:0.994904,0.100419,0.000000,0.009014 RARM_JOINT2:0.778245,0.000000,0.535889,0.327349 RARM_JOINT3:0.940854,0.000000,0.335833,0.044830 RLEG_JOINT2:0.996461,0.041749,0.000000,-0.072955 RLEG_JOINT4:0.991983,0.091356,0.000000,0.087320 WAIST:0.980918,-0.000000,0.192370,0.028156 WAIST_JOINT0:0.963665,-0.000000,0.259146,0.064756 WAIST_JOINT1:0.997050,0.060496,-0.000000,0.047232 END:
KINECT_DATA_Sensor  AnkleLeft:0.043607,0.713639,-0.086729,-0.693755 AnkleRight:0.108539,0.836436,0.078722,0.531410 ElbowLeft:-0.034625,0.829875,-0.176824,-0.528054 ElbowRight:-0.409804,0.895937,-0.142573,0.095029 FootLeft:0.000000,0.000000,0.000000,0.000000 FootRight:0.000000,0.000000,0.000000,0.000000 HandLeft:-0.158391,0.772977,-0.125906,0.601305 HandRight:0.637037,-0.392355,-0.042790,0.662126 HandTipLeft:0.000000,0.000000,0.000000,0.000000 HandTipRight:0.000000,0.000000,0.000000,0.000000 Head:0.000000,0.000000,0.000000,0.000000 HipLeft:-0.006349,-0.671914,0.736489,-0.077938 HipRight:-0.263612,0.661263,0.647683,-0.271563 KneeLeft:0.053990,-0.561164,0.031004,0.825360 KneeRight:-0.017238,0.830691,0.055530,0.553689 Neck:-0.267408,0.069599,0.957781,-0.079405 ShoulderLeft:-0.179392,-0.689390,0.690346,0.126426 ShoulderRight:-0.182853,0.746829,0.580052,-0.268983 SpineBase:-0.191170,0.062866,0.978483,-0.045540 SpineMid:-0.228295,0.064554,0.970492,-0.043113 SpineShoulder:-0.266792,0.067177,0.959638,-0.058339 ThumbLeft:0.000000,0.000000,0.000000,0.000000 ThumbRight:0.000000,0.000000,0.000000,0.000000 WristLeft:-0.025828,0.793090,-0.128979,0.594732 WristRight:0.575647,-0.447509,-0.101481,0.676807 END:
KINECT_DATA POSITION:0.752933,0.240193,-5.853570 HEAD_JOINT1:0.989968,0.136832,0.000000,-0.035227 LARM_JOINT2:0.798214,0.000000,-0.018963,-0.602075 LARM_JOINT3:0.959032,0.000000,-0.212585,-0.187256 LLEG_JOINT2:0.999507,-0.017999,0.000000,0.025742 LLEG_JOINT4:0.994745,0.101866,0.000000,0.010275 RARM_JOINT2:0.861499,0.000000,0.362888,0.355150 RARM_JOINT3:0.756325,0.000000,0.636126,0.152699 RLEG_JOINT2:0.996802,0.039358,0.000000,-0.069549 RLEG_JOINT4:0.992258,0.095879,0.000000,0.078936 WAIST:0.985202,-0.000000,0.169696,0.024101 WAIST_JOINT0:0.975014,-0.000000,0.216316,0.050540 WAIST_JOINT1:0.997911,0.051940,-0.000000,0.038410 END:
KINECT_DATA_Sensor  AnkleLeft:-0.046556,-0.701104,0.087938,0.706083 AnkleRight:0.104462,0.817954,0.085395,0.559238 ElbowLeft:-0.020851,0.809000,-0.201110,-0.551941 ElbowRight:-0.370767,0.907328,0.023342,0.196833 FootLeft:0.000000,0.000000,0.000000,0.000000 FootRight:0.000000,0.000000,0.000000,0.000000 HandLeft:-0.157738,0.744320,-0.120948,0.637556 HandRight:0.710996,-0.426012,0.267569,0.491331 HandTipLeft:0.000000,0.000000,0.000000,0.000000 HandTipRight:0.000000,0.000000,0.000000,0.000000 Head:0.000000,0.000000,0.000000,0.000000 HipLeft:0.013337,-0.676141,0.732253,-0.080379 HipRight:-0.252350,0.666312,0.653572,-0.255326 KneeLeft:0.046486,-0.578869,0.027826,0.813619 KneeRight:-0.016930,0.817783,0.055316,0.572613 Neck:-0.222361,0.057051,0.970746,-0.070371 ShoulderLeft:0.144808,0.711721,-0.680226,-0.098878 ShoulderRight:-0.155132,0.758548,0.589255,-0.230906 SpineBase:-0.168924,0.055370,0.983450,-0.034994 SpineMid:-0.194707,0.056271,0.978672,-0.033527 SpineShoulder:-0.221732,0.055700,0.972240,-0.049816 ThumbLeft:0.000000,0.000000,0.000000,0.000000 ThumbRight:0.000000,0.000000,0.000000,0.000000 WristLeft:-0.070537,0.761102,-0.151382,0.626762 WristRight:0.662637,-0.523650,0.186765,0.501819 END:
KINECT_DATA POSITION:1.483516,-0.379589,-5.496931 HEAD_JOINT1:0.986369,0.162850,-0.000000,0.023596 LARM_JOINT2:0.806860,0.000000,0.000291,-0.590743 LARM_JOINT3:0.957540,0.000000,-0.218992,-0.187511 LLEG_JOINT2:0.999351,0.001675,0.000000,0.035989 LLEG_JOINT4:0.996299,0.085929,0.000000,0.002219 RARM_JOINT2:0.897453,0.000000,0.161727,0.410392 RARM_JOINT3:0.645063,0.000000,0.711209,0.279419 RLEG_JOINT2:0.997893,0.027784,0.000000,-0.058634 RLEG_JOINT4:0.992470,0.105103,0.000000,0.062909 WAIST:0.993688,-0.000000,0.111692,0.010429 WAIST_JOINT0:0.990543,-0.000000,0.134977,0.024591 WAIST_JOINT1:0.998571,0.049081,-0.000000,0.021149 END:
KINECT_DATA_Sensor  AnkleLeft:-0.038806,-0.630115,0.091053,0.770168 AnkleRight:0.095631,0.784498,0.091299,0.605873 ElbowLeft:-0.018627,0.827036,-0.188861,-0.529147 ElbowRight:-0.262133,0.881506,0.179709,0.349197 FootLeft:0.000000,0.000000,0.000000,0.000000 FootRight:0.000000,0.000000,0.000000,0.000000 HandLeft:-0.151853,0.568937,-0.123673,0.798722 HandRight:-0.425873,0.677271,-0.564551,-0.203024 HandTipLeft:0.000000,0.000000,0.000000,0.000000 HandTipRight:0.000000,0.000000,0.000000,0.000000 Head:0.000000,0.000000,0.000000,0.000000 HipLeft:0.056340,-0.684751,0.718576,-0.107659 HipRight:-0.216726,0.668637,0.673045,-0.230142 KneeLeft:0.028454,-0.624071,0.036584,0.779992 KneeRight:-0.021061,0.781614,0.050960,0.621321 Neck:-0.136331,0.027017,0.988101,-0.065876 ShoulderLeft:0.096765,0.750736,-0.651245,-0.053959 ShoulderRight:-0.081548,0.774830,0.607643,-0.154137 SpineBase:-0.111160,0.032086,0.992839,-0.029736 SpineMid:-0.123141,0.032443,0.991425,-0.029346 SpineShoulder:-0.135984,0.027231,0.989290,-0.045525 ThumbLeft:0.000000,0.000000,0.000000,0.000000 ThumbRight:0.000000,0.000000,0.000000,0.000000 WristLeft:-0.055005,0.577811,-0.156220,0.799190 WristRight:-0.521505,0.713412,-0.459575,-0.088701 END:
KINECT_DATA POSITION:1.629408,-0.387520,-5.450618 HEAD_JOINT1:0.983451,0.173553,-0.000000,0.051990 LARM_JOINT2:0.817922,0.000000,-0.004871,-0.575309 LARM_JOINT3:0.959875,0.000000,-0.208199,-0.187866 LLEG_JOINT2:0.999211,0.008868,0.000000,0.038710 LLEG_JOINT4:0.995818,0.091175,0.000000,-0.005800 RARM_JOINT2:0.905118,0.000000,-0.050600,0.422138 RARM_JOINT3:0.536278,0.000000,0.588801,0.604747 RLEG_JOINT2:0.998193,0.022905,0.000000,-0.055554 RLEG_JOINT4:0.993108,0.102914,0.000000,0.056084 WAIST:0.997119,-0.000000,0.075175,0.010133 WAIST_JOINT0:0.998388,-0.000000,0.056319,0.007006 WAIST_JOINT1:0.998329,0.057039,-0.000000,0.009242 END:
KINECT_DATA_Sensor  AnkleLeft:-0.051189,-0.674952,0.095073,0.729918 AnkleRight:0.090644,0.756500,0.086442,0.641887 ElbowLeft:-0.018426,0.860780,-0.196265,-0.469253 ElbowRight:-0.104008,0.848997,0.320325,0.407159 FootLeft:0.000000,0.000000,0.000000,0.000000 FootRight:0.000000,0.000000,0.000000,0.000000 HandLeft:-0.132789,0.691528,-0.090732,0.704219 HandRight:0.106837,-0.562428,0.715021,0.401255 HandTipLeft:0.000000,0.000000,0.000000,0.000000 HandTipRight:0.000000,0.000000,0.000000,0.000000 Head:0.000000,0.000000,0.000000,0.000000 HipLeft:0.073972,-0.680158,0.719017,-0.122178 HipRight:-0.185426,0.672017,0.685075,-0.211383 KneeLeft:0.025633,-0.651735,0.042314,0.756831 KneeRight:-0.019989,0.758106,0.046452,0.650168 Neck:-0.056117,0.012674,0.995571,-0.074348 ShoulderLeft:0.071525,0.761575,-0.644090,-0.005975 ShoulderRight:-0.001735,0.769698,0.633345,-0.080226 SpineBase:-0.075074,0.019308,0.996448,-0.032893 SpineMid:-0.065200,0.018982,0.997143,-0.033083 SpineShoulder:-0.055791,0.014292,0.996957,-0.052541 ThumbLeft:0.000000,0.000000,0.000000,0.000000 ThumbRight:0.000000,0.000000,0.000000,0.000000 WristLeft:-0.087347,0.702306,-0.123419,0.695632 WristRight:-0.539586,0.765133,-0.330604,-0.118825 END:
KINECT_DATA POSITION:1.524115,-0.184622,-5.462837 HEAD_JOINT1:0.977985,0.191556,-0.000000,0.082768 LARM_JOINT2:0.828882,0.000000,-0.003998,-0.559409 LARM_JOINT3:0.959063,0.000000,-0.207402,-0.192830 LLEG_JOINT2:0.998958,0.014301,0.000000,0.043341 LLEG_JOINT4:0.995896,0.088534,0.000000,-0.018782 RARM_JOINT2:0.887977,0.000000,-0.172948,0.426130 RARM_JOINT3:0.608399,0.000000,0.489565,0.624641 RLEG_JOINT2:0.998630,0.015886,0.000000,-0.049857 RLEG_JOINT4:0.993471,0.106408,0.000000,0.041136 WAIST:0.999196,-0.000000,0.039239,0.008225 WAIST_JOINT0:0.999894,0.000000,0.012224,-0.007885 WAIST_JOINT1:0.998066,0.062170,-0.000000,0.000209 END:
KINECT_DATA_Sensor  AnkleLeft:0.062073,0.741013,-0.087627,-0.662848 AnkleRight:0.085829,0.750981,0.086379,0.648999 ElbowLeft:-0.021208,0.880356,-0.205481,-0.426967 ElbowRight:0.007798,0.807885,0.372275,0.456807 FootLeft:0.000000,0.000000,0.000000,0.000000 FootRight:0.000000,0.000000,0.000000,0.000000 HandLeft:-0.136198,0.832175,-0.050544,0.535144 HandRight:0.016802,0.800799,-0.596076,-0.055958 HandTipLeft:0.000000,0.000000,0.000000,0.000000 HandTipRight:0.000000,0.000000,0.000000,0.000000 Head:0.000000,0.000000,0.000000,0.000000 HipLeft:0.093805,-0.675593,0.717470,-0.141460 HipRight:-0.156463,0.674357,0.695859,-0.191161 KneeLeft:0.024689,-0.678370,0.047363,0.732777 KneeRight:-0.019994,0.734059,0.039711,0.677628 Neck:-0.011260,0.001757,0.996807,-0.079035 ShoulderLeft:0.053876,0.765415,-0.640791,0.024971 ShoulderRight:0.038463,0.754271,0.654042,-0.042714 SpineBase:-0.039324,0.011944,0.998499,-0.036196 SpineMid:-0.024896,0.011420,0.998963,-0.036364 SpineShoulder:-0.010919,0.004975,0.998309,-0.056878 ThumbLeft:0.000000,0.000000,0.000000,0.000000 ThumbRight:0.000000,0.000000,0.000000,0.000000 WristLeft:-0.115035,0.836571,-0.089839,0.528058 WristRight:-0.445306,0.848107,-0.280584,0.060735 END:
