EastLYD/RoboCupatHomeSim/InteractiveCleanUp/JapanOpen2016/Motion_Data/File22.dat
KINECT_DATA POSITION:2.472472,1.006322,-14.601028 HEAD_JOINT1:0.984570,0.117776,-0.000000,0.129426 LARM_JOINT2:0.833636,0.000000,-0.029679,-0.551516 LARM_JOINT3:0.962074,0.000000,-0.194671,-0.191096 LLEG_JOINT2:0.998750,0.016788,0.000000,0.047082 LLEG_JOINT4:0.994452,0.096114,0.000000,-0.042751 RARM_JOINT2:0.802466,0.000000,-0.059226,0.593751 RARM_JOINT3:0.965712,0.000000,0.218946,0.139508 RLEG_JOINT2:0.999356,0.021754,0.000000,-0.028545 RLEG_JOINT4:0.995100,0.088617,0.000000,0.043861 WAIST:0.999941,0.000000,-0.010457,0.002974 WAIST_JOINT0:0.999146,0.000000,-0.040393,0.008704 WAIST_JOINT1:0.997603,0.066159,0.000000,-0.020260 END:
KINECT_DATA_Sensor  AnkleLeft:0.076879,0.731107,-0.082715,-0.672852 AnkleRight:0.093199,0.710576,0.061699,0.694686 ElbowLeft:-0.039587,0.906491,-0.181613,-0.379108 ElbowRight:0.010802,0.827078,0.197784,0.526030 FootLeft:0.000000,0.000000,0.000000,0.000000 FootRight:0.000000,0.000000,0.000000,0.000000 HandLeft:-0.146704,0.811036,0.019641,0.565962 HandRight:0.085366,-0.287145,-0.146600,0.942745 HandTipLeft:0.000000,0.000000,0.000000,0.000000 HandTipRight:0.000000,0.000000,0.000000,0.000000 Head:0.000000,0.000000,0.000000,0.000000 HipLeft:0.128696,-0.675959,0.705283,-0.170567 HipRight:-0.118055,0.677728,0.703952,-0.176630 KneeLeft:-0.023997,0.713358,-0.047034,-0.698808 KneeRight:-0.002283,0.700282,0.033516,0.713075 Neck:0.037730,-0.020364,0.995728,-0.081780 ShoulderLeft:0.015936,0.781843,-0.619154,0.071529 ShoulderRight:0.065632,0.791702,0.607295,-0.009680 SpineBase:0.009577,-0.014187,0.998960,-0.042268 SpineMid:0.023446,-0.014772,0.998730,-0.042067 SpineShoulder:0.037645,-0.017790,0.997284,-0.060754 ThumbLeft:0.000000,0.000000,0.000000,0.000000 ThumbRight:0.000000,0.000000,0.000000,0.000000 WristLeft:-0.130443,0.823129,-0.076236,0.547387 WristRight:-0.021080,-0.301785,-0.113601,0.946349 END:
KINECT_DATA POSITION:2.504082,1.016454,-14.679718 HEAD_JOINT1:0.984654,0.118027,-0.000000,0.128553 LARM_JOINT2:0.832756,0.000000,-0.027451,-0.552959 LARM_JOINT3:0.961396,0.000000,-0.197491,-0.191613 LLEG_JOINT2:0.998766,0.015799,0.000000,0.047083 LLEG_JOINT4:0.994406,0.096734,0.000000,-0.042424 RARM_JOINT2:0.803533,0.000000,-0.059814,0.592248 RARM_JOINT3:0.965318,0.000000,0.220690,0.139487 RLEG_JOINT2:0.999348,0.021531,0.000000,-0.028994 RLEG_JOINT4:0.995201,0.088113,0.000000,0.042552 WAIST:0.999947,0.000000,-0.009815,0.002968 WAIST_JOINT0:0.999171,0.000000,-0.039860,0.008289 WAIST_JOINT1:0.997621,0.065929,0.000000,-0.020121 END:
KINECT_DATA_Sensor  AnkleLeft:0.078603,0.748242,-0.080598,-0.653804 AnkleRight:0.092583,0.724035,0.060824,0.680810 ElbowLeft:-0.037695,0.905563,-0.180964,-0.381820 ElbowRight:0.010623,0.828651,0.199317,0.522970 FootLeft:0.000000,0.000000,0.000000,0.000000 FootRight:0.000000,0.000000,0.000000,0.000000 HandLeft:-0.153132,0.787657,0.010775,0.596683 HandRight:0.080665,-0.283478,-0.157823,0.942457 HandTipLeft:0.000000,0.000000,0.000000,0.000000 HandTipRight:0.000000,0.000000,0.000000,0.000000 Head:0.000000,0.000000,0.000000,0.000000 HipLeft:0.128392,-0.676086,0.705309,-0.170183 HipRight:-0.118487,0.677686,0.703847,-0.176925 KneeLeft:-0.024661,0.712868,-0.046336,-0.699331 KneeRight:-0.002784,0.700740,0.033683,0.712615 Neck:0.037237,-0.020238,0.995773,-0.081482 ShoulderLeft:0.016264,0.781992,-0.619033,0.070869 ShoulderRight:0.065312,0.791901,0.607068,-0.009804 SpineBase:0.008938,-0.014172,0.998970,-0.042168 SpineMid:0.022876,-0.014759,0.998748,-0.041966 SpineShoulder:0.037148,-0.017719,0.997318,-0.060528 ThumbLeft:0.000000,0.000000,0.000000,0.000000 ThumbRight:0.000000,0.000000,0.000000,0.000000 WristLeft:-0.128503,0.801385,-0.080124,0.578662 WristRight:-0.021412,-0.299583,-0.113288,0.947078 END:
KINECT_DATA POSITION:2.483572,1.012241,-14.707958 HEAD_JOINT1:0.984587,0.118861,-0.000000,0.128302 LARM_JOINT2:0.831808,0.000000,-0.025871,-0.554460 LARM_JOINT3:0.960504,0.000000,-0.202434,-0.190926 LLEG_JOINT2:0.998779,0.015186,0.000000,0.047008 LLEG_JOINT4:0.994782,0.095210,0.000000,-0.036652 RARM_JOINT2:0.801531,0.000000,-0.062303,0.594699 RARM_JOINT3:0.964897,0.000000,0.224363,0.136513 RLEG_JOINT2:0.999358,0.021638,0.000000,-0.028546 RLEG_JOINT4:0.995257,0.087530,0.000000,0.042454 WAIST:0.999951,0.000000,-0.009527,0.002809 WAIST_JOINT0:0.999239,0.000000,-0.038124,0.008213 WAIST_JOINT1:0.997623,0.065977,0.000000,-0.019891 END:
KINECT_DATA_Sensor  AnkleLeft:0.074562,0.757944,-0.082187,-0.642811 AnkleRight:0.092190,0.722634,0.060616,0.682369 ElbowLeft:-0.036724,0.903363,-0.179893,-0.387588 ElbowRight:0.012586,0.825203,0.197573,0.529006 FootLeft:0.000000,0.000000,0.000000,0.000000 FootRight:0.000000,0.000000,0.000000,0.000000 HandLeft:-0.160719,0.614108,-0.034690,0.771905 HandRight:0.078596,-0.281890,-0.168276,0.941299 HandTipLeft:0.000000,0.000000,0.000000,0.000000 HandTipRight:0.000000,0.000000,0.000000,0.000000 Head:0.000000,0.000000,0.000000,0.000000 HipLeft:0.128275,-0.676207,0.705241,-0.170072 HipRight:-0.118639,0.677527,0.703931,-0.177096 KneeLeft:-0.024913,0.712653,-0.045738,-0.699580 KneeRight:-0.002517,0.700935,0.033549,0.712431 Neck:0.035621,-0.020028,0.995829,-0.081571 ShoulderLeft:0.016563,0.782056,-0.619009,0.070300 ShoulderRight:0.063511,0.791208,0.608125,-0.011891 SpineBase:0.008663,-0.014268,0.998971,-0.042181 SpineMid:0.021927,-0.014826,0.998767,-0.041988 SpineShoulder:0.035524,-0.017601,0.997375,-0.060588 ThumbLeft:0.000000,0.000000,0.000000,0.000000 ThumbRight:0.000000,0.000000,0.000000,0.000000 WristLeft:-0.103900,0.621007,-0.112223,0.768740 WristRight:-0.020852,-0.299424,-0.113348,0.947134 END:
KINECT_DATA POSITION:2.455632,0.998792,-14.672338 HEAD_JOINT1:0.984474,0.120691,-0.000000,0.127451 LARM_JOINT2:0.831161,0.000000,-0.025543,-0.555444 LARM_JOINT3:0.960573,0.000000,-0.206291,-0.186399 LLEG_JOINT2:0.998804,0.014899,0.000000,0.046574 LLEG_JOINT4:0.994534,0.096256,0.000000,-0.040460 RARM_JOINT2:0.799771,0.000000,-0.062707,0.597021 RARM_JOINT3:0.955107,0.000000,0.254679,0.151359 RLEG_JOINT2:0.999392,0.020410,0.000000,-0.028280 RLEG_JOINT4:0.995085,0.090111,0.000000,0.041062 WAIST:0.999955,0.000000,-0.008899,0.003234 WAIST_JOINT0:0.999344,0.000000,-0.034755,0.010137 WAIST_JOINT1:0.997657,0.065579,0.000000,-0.019473 END:
KINECT_DATA_Sensor  AnkleLeft:0.073183,0.720833,-0.083915,-0.684107 AnkleRight:0.092123,0.716783,0.062945,0.688312 ElbowLeft:-0.037130,0.901839,-0.179485,-0.391271 ElbowRight:0.012637,0.821413,0.194451,0.536012 FootLeft:0.000000,0.000000,0.000000,0.000000 FootRight:0.000000,0.000000,0.000000,0.000000 HandLeft:-0.166865,0.768406,-0.015861,0.617622 HandRight:0.179947,-0.323825,-0.232508,0.899276 HandTipLeft:0.000000,0.000000,0.000000,0.000000 HandTipRight:0.000000,0.000000,0.000000,0.000000 Head:0.000000,0.000000,0.000000,0.000000 HipLeft:0.128168,-0.676062,0.705515,-0.169596 HipRight:-0.119455,0.677805,0.703490,-0.177238 KneeLeft:-0.025079,0.712204,-0.045545,-0.700045 KneeRight:-0.002931,0.701408,0.032196,0.712027 Neck:0.032249,-0.018836,0.996000,-0.081174 ShoulderLeft:0.017202,0.781606,-0.619761,0.068500 ShoulderRight:0.059837,0.792339,0.606945,-0.015356 SpineBase:0.008027,-0.013824,0.999000,-0.041766 SpineMid:0.019921,-0.014320,0.998833,-0.041599 SpineShoulder:0.032142,-0.016680,0.997526,-0.060260 ThumbLeft:0.000000,0.000000,0.000000,0.000000 ThumbRight:0.000000,0.000000,0.000000,0.000000 WristLeft:-0.127969,0.782253,-0.086634,0.603489 WristRight:-0.003370,-0.364864,-0.124040,0.922755 END:
KINECT_DATA POSITION:2.499943,0.984800,-14.535522 HEAD_JOINT1:0.984776,0.119627,-0.000000,0.126122 LARM_JOINT2:0.830259,0.000000,-0.022961,-0.556904 LARM_JOINT3:0.962565,0.000000,-0.201650,-0.181125 LLEG_JOINT2:0.998904,0.016644,0.000000,0.043752 LLEG_JOINT4:0.994263,0.097697,0.000000,-0.043548 RARM_JOINT2:0.798125,0.000000,-0.034214,0.601519 RARM_JOINT3:0.934333,0.000000,0.318105,0.160722 RLEG_JOINT2:0.999391,0.019160,0.000000,-0.029179 RLEG_JOINT4:0.994796,0.094580,0.000000,0.037878 WAIST:0.999944,0.000000,-0.009206,0.005274 WAIST_JOINT0:0.999443,0.000000,-0.029557,0.015469 WAIST_JOINT1:0.997880,0.062801,0.000000,-0.017084 END:
KINECT_DATA_Sensor  AnkleLeft:0.080239,0.737792,-0.081372,-0.665284 AnkleRight:0.093688,0.722039,0.065851,0.682309 ElbowLeft:-0.039729,0.899208,-0.181598,-0.396066 ElbowRight:-0.005729,0.822597,0.174524,0.541150 FootLeft:0.000000,0.000000,0.000000,0.000000 FootRight:0.000000,0.000000,0.000000,0.000000 HandLeft:-0.144120,0.791660,-0.016727,0.593485 HandRight:0.209590,-0.235270,-0.343758,0.884619 HandTipLeft:0.000000,0.000000,0.000000,0.000000 HandTipRight:0.000000,0.000000,0.000000,0.000000 Head:0.000000,0.000000,0.000000,0.000000 HipLeft:0.129105,-0.674893,0.706668,-0.168734 HipRight:-0.120841,0.679616,0.701945,-0.175479 KneeLeft:-0.023289,0.712519,-0.046251,-0.699739 KneeRight:-0.003003,0.701216,0.030522,0.712289 Neck:0.027053,-0.012982,0.996531,-0.077629 ShoulderLeft:0.016849,0.780645,-0.621402,0.064569 ShoulderRight:0.052628,0.796629,0.601855,-0.019568 SpineBase:0.008301,-0.011628,0.999104,-0.039833 SpineMid:0.017431,-0.011991,0.998987,-0.039725 SpineShoulder:0.026924,-0.012189,0.997883,-0.057937 ThumbLeft:0.000000,0.000000,0.000000,0.000000 ThumbRight:0.000000,0.000000,0.000000,0.000000 WristLeft:-0.128080,0.799807,-0.088327,0.579744 WristRight:0.032217,-0.302328,-0.176056,0.936250 END:
KINECT_DATA POSITION:2.776836,0.995266,-14.214361 HEAD_JOINT1:0.984725,0.117513,-0.000000,0.128483 LARM_JOINT2:0.830232,0.000000,-0.020489,-0.557042 LARM_JOINT3:0.960953,0.000000,-0.207951,-0.182554 LLEG_JOINT2:0.999088,0.020561,0.000000,0.037430 LLEG_JOINT4:0.994890,0.093637,0.000000,-0.037763 RARM_JOINT2:0.795086,0.000000,0.014084,0.606333 RARM_JOINT3:0.923285,0.000000,0.357153,0.141375 RLEG_JOINT2:0.999332,0.018046,0.000000,-0.031792 RLEG_JOINT4:0.994325,0.100818,0.000000,0.033962 WAIST:0.999935,0.000000,-0.008429,0.007685 WAIST_JOINT0:0.999501,0.000000,-0.023348,0.021260 WAIST_JOINT1:0.998162,0.059133,0.000000,-0.013265 END:
KINECT_DATA_Sensor  AnkleLeft:0.076097,0.714788,-0.085231,-0.689944 AnkleRight:0.094886,0.724082,0.072148,0.679336 ElbowLeft:-0.043748,0.897195,-0.186463,-0.397942 ElbowRight:-0.035800,0.825219,0.142076,0.545478 FootLeft:0.000000,0.000000,0.000000,0.000000 FootRight:0.000000,0.000000,0.000000,0.000000 HandLeft:-0.154677,0.758227,-0.040643,0.632072 HandRight:0.223920,-0.220705,-0.404452,0.858818 HandTipLeft:0.000000,0.000000,0.000000,0.000000 HandTipRight:0.000000,0.000000,0.000000,0.000000 Head:0.000000,0.000000,0.000000,0.000000 HipLeft:0.130265,-0.673953,0.707955,-0.166190 HipRight:-0.125119,0.682348,0.699544,-0.171420 KneeLeft:-0.017685,0.712306,-0.046338,-0.700115 KneeRight:-0.003960,0.701657,0.029893,0.711876 Neck:0.021034,-0.005502,0.997091,-0.073059 ShoulderLeft:0.015201,0.780787,-0.621699,0.060258 ShoulderRight:0.042926,0.802181,0.595024,-0.024697 SpineBase:0.007653,-0.006305,0.999335,-0.035090 SpineMid:0.014153,-0.006533,0.999264,-0.035048 SpineShoulder:0.020924,-0.005982,0.998266,-0.054692 ThumbLeft:0.000000,0.000000,0.000000,0.000000 ThumbRight:0.000000,0.000000,0.000000,0.000000 WristLeft:-0.124646,0.768138,-0.100798,0.619893 WristRight:0.073892,-0.288377,-0.232960,0.925802 END:
KINECT_DATA POSITION:2.918703,1.029243,-14.088667 HEAD_JOINT1:0.985323,0.116701,-0.000000,0.124575 LARM_JOINT2:0.829639,0.000000,-0.018425,-0.557996 LARM_JOINT3:0.962595,0.000000,-0.201212,-0.181453 LLEG_JOINT2:0.999204,0.021805,0.000000,0.033414 LLEG_JOINT4:0.995276,0.089702,0.000000,-0.037141 RARM_JOINT2:0.797044,0.000000,0.041990,0.602460 RARM_JOINT3:0.918691,0.000000,0.371776,0.133376 RLEG_JOINT2:0.999237,0.018238,0.000000,-0.034545 RLEG_JOINT4:0.994223,0.101600,0.000000,0.034624 WAIST:0.999931,0.000000,-0.006978,0.009445 WAIST_JOINT0:0.999555,0.000000,-0.016657,0.024753 WAIST_JOINT1:0.998345,0.056509,0.000000,-0.010700 END:
KINECT_DATA_Sensor  AnkleLeft:0.078556,0.740340,-0.079121,-0.662922 AnkleRight:0.095410,0.726116,0.073012,0.676995 ElbowLeft:-0.047111,0.892577,-0.188724,-0.406779 ElbowRight:-0.054548,0.835118,0.128324,0.532105 FootLeft:0.000000,0.000000,0.000000,0.000000 FootRight:0.000000,0.000000,0.000000,0.000000 HandLeft:-0.127256,0.782101,-0.022258,0.609613 HandRight:0.223234,-0.222091,-0.432238,0.844993 HandTipLeft:0.000000,0.000000,0.000000,0.000000 HandTipRight:0.000000,0.000000,0.000000,0.000000 Head:0.000000,0.000000,0.000000,0.000000 HipLeft:0.129814,-0.673091,0.709187,-0.164773 HipRight:-0.127817,0.683829,0.697903,-0.170210 KneeLeft:-0.015134,0.711369,-0.045666,-0.701170 KneeRight:-0.004565,0.702655,0.030732,0.710852 Neck:0.014424,-0.001374,0.997395,-0.070660 ShoulderLeft:0.016182,0.780384,-0.622712,0.054481 ShoulderRight:0.035392,0.805507,0.590804,-0.029252 SpineBase:0.006245,-0.002882,0.999426,-0.033185 SpineMid:0.010228,-0.003015,0.999393,-0.033173 SpineShoulder:0.014426,-0.001314,0.998540,-0.052033 ThumbLeft:0.000000,0.000000,0.000000,0.000000 ThumbRight:0.000000,0.000000,0.000000,0.000000 WristLeft:-0.126879,0.787728,-0.104288,0.593725 WristRight:0.102741,-0.279064,-0.260927,0.918414 END:
KINECT_DATA POSITION:2.998129,1.050846,-14.023077 HEAD_JOINT1:0.986388,0.114810,-0.000000,0.117720 LARM_JOINT2:0.828168,0.000000,-0.016484,-0.560238 LARM_JOINT3:0.960701,0.000000,-0.206400,-0.185615 LLEG_JOINT2:0.999272,0.022374,0.000000,0.030908 LLEG_JOINT4:0.995681,0.086560,0.000000,-0.033558 RARM_JOINT2:0.804187,0.000000,0.062510,0.591081 RARM_JOINT3:0.916741,0.000000,0.375105,0.137413 RLEG_JOINT2:0.999196,0.018615,0.000000,-0.035503 RLEG_JOINT4:0.994293,0.101363,0.000000,0.033267 WAIST:0.999942,0.000000,-0.004571,0.009797 WAIST_JOINT0:0.999628,0.000000,-0.007320,0.026268 WAIST_JOINT1:0.998442,0.055224,0.000000,-0.008019 END:
KINECT_DATA_Sensor  AnkleLeft:0.073932,0.722772,-0.080098,-0.682436 AnkleRight:0.095545,0.741682,0.072792,0.659909 ElbowLeft:-0.047986,0.888028,-0.189005,-0.416390 ElbowRight:-0.072132,0.848510,0.127636,0.508465 FootLeft:0.000000,0.000000,0.000000,0.000000 FootRight:0.000000,0.000000,0.000000,0.000000 HandLeft:-0.139208,0.800270,-0.008156,0.583201 HandRight:0.229799,-0.239922,-0.428918,0.840035 HandTipLeft:0.000000,0.000000,0.000000,0.000000 HandTipRight:0.000000,0.000000,0.000000,0.000000 Head:0.000000,0.000000,0.000000,0.000000 HipLeft:0.128440,-0.673158,0.709639,-0.163628 HipRight:-0.130734,0.684088,0.697077,-0.170341 KneeLeft:-0.013107,0.709760,-0.044574,-0.702910 KneeRight:-0.004815,0.704305,0.031402,0.709186 Neck:0.005220,0.001389,0.997537,-0.069934 ShoulderLeft:0.020714,0.779372,-0.624477,0.046676 ShoulderRight:0.028235,0.806268,0.589777,-0.036030 SpineBase:0.003930,-0.000103,0.999474,-0.032188 SpineMid:0.004563,-0.000123,0.999471,-0.032188 SpineShoulder:0.005320,0.002125,0.998706,-0.050534 ThumbLeft:0.000000,0.000000,0.000000,0.000000 ThumbRight:0.000000,0.000000,0.000000,0.000000 WristLeft:-0.134741,0.808479,-0.103726,0.563425 WristRight:0.127390,-0.287049,-0.273348,0.909206 END:
KINECT_DATA POSITION:3.064196,1.058940,-13.970936 HEAD_JOINT1:0.986969,0.116091,-0.000000,0.111419 LARM_JOINT2:0.825871,0.000000,-0.011072,-0.563750 LARM_JOINT3:0.960229,0.000000,-0.209749,-0.184300 LLEG_JOINT2:0.999313,0.024275,0.000000,0.028013 LLEG_JOINT4:0.996062,0.083461,0.000000,-0.029919 RARM_JOINT2:0.807469,0.000000,0.075850,0.585014 RARM_JOINT3:0.911890,0.000000,0.382305,0.149330 RLEG_JOINT2:0.999078,0.020896,0.000000,-0.037511 RLEG_JOINT4:0.994421,0.099674,0.000000,0.034516 WAIST:0.999941,0.000000,-0.001414,0.010779 WAIST_JOINT0:0.999608,-0.000000,0.002486,0.027899 WAIST_JOINT1:0.998556,0.053377,0.000000,-0.005999 END:
KINECT_DATA_Sensor  AnkleLeft:-0.069922,-0.702260,0.082194,0.703694 AnkleRight:0.095884,0.743758,0.073272,0.657466 ElbowLeft:-0.047007,0.880699,-0.188811,-0.431868 ElbowRight:-0.080775,0.866907,0.125791,0.475525 FootLeft:0.000000,0.000000,0.000000,0.000000 FootRight:0.000000,0.000000,0.000000,0.000000 HandLeft:-0.136560,0.800721,-0.008596,0.583201 HandRight:0.229159,-0.197425,-0.467825,0.830452 HandTipLeft:0.000000,0.000000,0.000000,0.000000 HandTipRight:0.000000,0.000000,0.000000,0.000000 Head:0.000000,0.000000,0.000000,0.000000 HipLeft:0.127124,-0.672987,0.710435,-0.161897 HipRight:-0.134197,0.684625,0.695664,-0.171265 KneeLeft:-0.010287,0.707578,-0.044590,-0.705152 KneeRight:-0.004042,0.706539,0.033703,0.706859 Neck:-0.004290,0.004674,0.997659,-0.068089 ShoulderLeft:0.022721,0.778340,-0.626144,0.040184 ShoulderRight:0.018012,0.807046,0.588530,-0.044561 SpineBase:0.000809,0.002128,0.999516,-0.031018 SpineMid:-0.001704,0.002206,0.999515,-0.031012 SpineShoulder:-0.004157,0.005250,0.998795,-0.048614 ThumbLeft:0.000000,0.000000,0.000000,0.000000 ThumbRight:0.000000,0.000000,0.000000,0.000000 WristLeft:-0.136292,0.808389,-0.109171,0.562151 WristRight:0.139059,-0.239365,-0.277475,0.919986 END:
KINECT_DATA POSITION:3.277849,1.081590,-13.799583 HEAD_JOINT1:0.988569,0.119367,-0.000000,0.092099 LARM_JOINT2:0.819441,0.000000,0.000479,-0.573164 LARM_JOINT3:0.961994,0.000000,-0.208982,-0.175766 LLEG_JOINT2:0.999484,0.025949,0.000000,0.018949 LLEG_JOINT4:0.996271,0.083164,0.000000,-0.022981 RARM_JOINT2:0.809767,0.000000,0.086707,0.580309 RARM_JOINT3:0.907003,0.000000,0.373603,0.194334 RLEG_JOINT2:0.998645,0.025857,0.000000,-0.045165 RLEG_JOINT4:0.994853,0.094606,0.000000,0.036293 WAIST:0.999848,-0.000000,0.007917,0.015517 WAIST_JOINT0:0.999171,-0.000000,0.025240,0.031936 WAIST_JOINT1:0.998716,0.050629,0.000000,-0.001900 END:
KINECT_DATA_Sensor  AnkleLeft:0.072918,0.722446,-0.081546,-0.682719 AnkleRight:0.093655,0.744875,0.075558,0.656263 ElbowLeft:-0.041102,0.868602,-0.189516,-0.455988 ElbowRight:-0.089308,0.874794,0.115576,0.461954 FootLeft:0.000000,0.000000,0.000000,0.000000 FootRight:0.000000,0.000000,0.000000,0.000000 HandLeft:-0.126942,0.826303,-0.017759,0.548446 HandRight:0.294782,-0.122534,-0.359779,0.876726 HandTipLeft:0.000000,0.000000,0.000000,0.000000 HandTipRight:0.000000,0.000000,0.000000,0.000000 Head:0.000000,0.000000,0.000000,0.000000 HipLeft:0.122725,-0.671278,0.713941,-0.156882 HipRight:-0.143509,0.687384,0.690273,-0.174447 KneeLeft:0.005747,-0.700876,0.042672,0.711983 KneeRight:-0.003044,0.713253,0.039150,0.699805 Neck:-0.026822,0.014266,0.997410,-0.065187 ShoulderLeft:0.034244,0.774900,-0.630795,0.021324 ShoulderRight:0.000735,0.809242,0.584258,-0.061392 SpineBase:-0.008534,0.008891,0.999524,-0.028288 SpineMid:-0.017520,0.009145,0.999407,-0.028207 SpineShoulder:-0.026605,0.014052,0.998507,-0.045588 ThumbLeft:0.000000,0.000000,0.000000,0.000000 ThumbRight:0.000000,0.000000,0.000000,0.000000 WristLeft:-0.129978,0.830487,-0.111039,0.530158 WristRight:0.154856,-0.173855,-0.304563,0.923599 END:
KINECT_DATA POSITION:3.443795,1.072326,-13.724602 HEAD_JOINT1:0.989118,0.120673,-0.000000,0.084165 LARM_JOINT2:0.816029,0.000000,0.006500,-0.577974 LARM_JOINT3:0.961276,0.000000,-0.212576,-0.175388 LLEG_JOINT2:0.999577,0.026237,0.000000,0.012563 LLEG_JOINT4:0.996412,0.082396,0.000000,-0.019344 RARM_JOINT2:0.809439,0.000000,0.087946,0.580580 RARM_JOINT3:0.893224,0.000000,0.394705,0.215311 RLEG_JOINT2:0.998243,0.028206,0.000000,-0.052115 RLEG_JOINT4:0.994306,0.097714,0.000000,0.042512 WAIST:0.999692,-0.000000,0.015408,0.019474 WAIST_JOINT0:0.998872,-0.000000,0.033449,0.033697 WAIST_JOINT1:0.998713,0.050670,0.000000,-0.002077 END:
KINECT_DATA_Sensor  AnkleLeft:0.072423,0.719048,-0.081301,-0.686378 AnkleRight:0.096661,0.728241,0.080485,0.673679 ElbowLeft:-0.035961,0.861010,-0.189855,-0.470450 ElbowRight:-0.088381,0.881451,0.111154,0.450420 FootLeft:0.000000,0.000000,0.000000,0.000000 FootRight:0.000000,0.000000,0.000000,0.000000 HandLeft:-0.131597,0.824270,-0.021230,0.550282 HandRight:0.346509,-0.048451,-0.384840,0.854097 HandTipLeft:0.000000,0.000000,0.000000,0.000000 HandTipRight:0.000000,0.000000,0.000000,0.000000 Head:0.000000,0.000000,0.000000,0.000000 HipLeft:0.118935,-0.669539,0.716940,-0.153524 HipRight:-0.150191,0.689174,0.686014,-0.178512 KneeLeft:0.003663,-0.695390,0.041044,0.717450 KneeRight:-0.003967,0.718648,0.042777,0.694046 Neck:-0.035073,0.017795,0.997083,-0.065404 ShoulderLeft:0.039169,0.773430,-0.632492,0.014999 ShoulderRight:-0.004832,0.810376,0.581925,-0.068043 SpineBase:-0.016106,0.012936,0.999410,-0.027455 SpineMid:-0.025353,0.013189,0.999218,-0.027334 SpineShoulder:-0.034807,0.017439,0.998208,-0.045444 ThumbLeft:0.000000,0.000000,0.000000,0.000000 ThumbRight:0.000000,0.000000,0.000000,0.000000 WristLeft:-0.126682,0.829817,-0.113644,0.531451 WristRight:0.171160,-0.117795,-0.326186,0.922188 END:
KINECT_DATA POSITION:3.609283,1.037235,-13.558674 HEAD_JOINT1:0.989118,0.124436,-0.000000,0.078492 LARM_JOINT2:0.813829,0.000000,0.005151,-0.581081 LARM_JOINT3:0.960466,0.000000,-0.215669,-0.176044 LLEG_JOINT2:0.999619,0.026857,0.000000,0.006294 LLEG_JOINT4:0.996695,0.079946,0.000000,-0.014408 RARM_JOINT2:0.806436,0.000000,0.079344,0.585974 RARM_JOINT3:0.874903,0.000000,0.432675,0.217572 RLEG_JOINT2:0.997664,0.032897,0.000000,-0.059868 RLEG_JOINT4:0.994807,0.090359,0.000000,0.046833 WAIST:0.999384,-0.000000,0.025635,0.023983 WAIST_JOINT0:0.998400,-0.000000,0.044126,0.035371 WAIST_JOINT1:0.998715,0.050517,0.000000,-0.003952 END:
KINECT_DATA_Sensor  AnkleLeft:-0.065868,-0.680759,0.084548,0.724624 AnkleRight:0.095501,0.744292,0.077333,0.656452 ElbowLeft:-0.034080,0.858180,-0.188648,-0.476212 ElbowRight:-0.081265,0.880068,0.105746,0.455735 FootLeft:0.000000,0.000000,0.000000,0.000000 FootRight:0.000000,0.000000,0.000000,0.000000 HandLeft:-0.146412,0.824191,-0.032256,0.546106 HandRight:0.364585,-0.029001,-0.441443,0.819369 HandTipLeft:0.000000,0.000000,0.000000,0.000000 HandTipRight:0.000000,0.000000,0.000000,0.000000 Head:0.000000,0.000000,0.000000,0.000000 HipLeft:0.113954,-0.667641,0.720563,-0.148520 HipRight:-0.157925,0.690887,0.681142,-0.183792 KneeLeft:0.001813,-0.687846,0.040006,0.724751 KneeRight:-0.003730,0.725981,0.048153,0.686017 Neck:-0.045729,0.019826,0.996615,-0.065379 ShoulderLeft:0.043087,0.771853,-0.634280,0.008632 ShoulderRight:-0.014570,0.810701,0.580028,-0.078228 SpineBase:-0.026434,0.016797,0.999161,-0.026386 SpineMid:-0.035748,0.017042,0.998871,-0.026229 SpineShoulder:-0.045424,0.019590,0.997758,-0.045081 ThumbLeft:0.000000,0.000000,0.000000,0.000000 ThumbRight:0.000000,0.000000,0.000000,0.000000 WristLeft:-0.125808,0.831911,-0.113680,0.528369 WristRight:0.193588,-0.103722,-0.346938,0.911811 END:
KINECT_DATA POSITION:3.603501,0.983597,-13.399267 HEAD_JOINT1:0.988786,0.128519,-0.000000,0.076067 LARM_JOINT2:0.813746,0.000000,0.003851,-0.581208 LARM_JOINT3:0.958645,0.000000,-0.222603,-0.177334 LLEG_JOINT2:0.999603,0.027715,0.000000,0.005080 LLEG_JOINT4:0.996681,0.079838,0.000000,-0.015878 RARM_JOINT2:0.803257,0.000000,0.081843,0.589983 RARM_JOINT3:0.865256,0.000000,0.455416,0.209590 RLEG_JOINT2:0.997459,0.033381,0.000000,-0.062944 RLEG_JOINT4:0.994121,0.094920,0.000000,0.052084 WAIST:0.999238,-0.000000,0.029535,0.025532 WAIST_JOINT0:0.998253,-0.000000,0.047254,0.035475 WAIST_JOINT1:0.998716,0.050388,0.000000,-0.005316 END:
KINECT_DATA_Sensor  AnkleLeft:0.072095,0.718165,-0.079893,-0.687501 AnkleRight:0.098222,0.720550,0.082257,0.681465 ElbowLeft:-0.033482,0.859021,-0.188420,-0.474826 ElbowRight:-0.080907,0.880662,0.099422,0.456075 FootLeft:0.000000,0.000000,0.000000,0.000000 FootRight:0.000000,0.000000,0.000000,0.000000 HandLeft:-0.172214,0.828956,-0.046759,0.530082 HandRight:0.328298,-0.011061,-0.486993,0.809281 HandTipLeft:0.000000,0.000000,0.000000,0.000000 HandTipRight:0.000000,0.000000,0.000000,0.000000 Head:0.000000,0.000000,0.000000,0.000000 HipLeft:0.110963,-0.666706,0.722404,-0.146024 HipRight:-0.159810,0.691120,0.680039,-0.185368 KneeLeft:0.001362,-0.684932,0.040745,0.727466 KneeRight:-0.004792,0.728726,0.049444,0.683001 Neck:-0.048928,0.019546,0.996467,-0.065402 ShoulderLeft:0.045475,0.770966,-0.635225,0.005707 ShoulderRight:-0.016204,0.810397,0.580128,-0.080283 SpineBase:-0.030384,0.018032,0.999024,-0.026512 SpineMid:-0.039284,0.018267,0.998714,-0.026350 SpineShoulder:-0.048604,0.019611,0.997618,-0.044839 ThumbLeft:0.000000,0.000000,0.000000,0.000000 ThumbRight:0.000000,0.000000,0.000000,0.000000 WristLeft:-0.127882,0.840406,-0.110394,0.514953 WristRight:0.204395,-0.062513,-0.375469,0.901852 END:
KINECT_DATA POSITION:3.475039,0.939178,-13.126623 HEAD_JOINT1:0.988367,0.133267,-0.000000,0.073283 LARM_JOINT2:0.814398,0.000000,0.002526,-0.580302 LARM_JOINT3:0.958490,0.000000,-0.222097,-0.178802 LLEG_JOINT2:0.999554,0.028836,0.000000,0.007749 LLEG_JOINT4:0.996792,0.078320,0.000000,-0.016504 RARM_JOINT2:0.800848,0.000000,0.089679,0.592114 RARM_JOINT3:0.855174,0.000000,0.483085,0.187900 RLEG_JOINT2:0.997522,0.036503,0.000000,-0.060137 RLEG_JOINT4:0.994463,0.091173,0.000000,0.052262 WAIST:0.999141,-0.000000,0.033177,0.024815 WAIST_JOINT0:0.998398,-0.000000,0.044396,0.035088 WAIST_JOINT1:0.998692,0.050783,0.000000,-0.005898 END:
KINECT_DATA_Sensor  AnkleLeft:0.072941,0.730723,-0.078739,-0.674183 AnkleRight:0.098308,0.716746,0.081509,0.685542 ElbowLeft:-0.032471,0.859828,-0.188208,-0.473518 ElbowRight:-0.088791,0.862141,0.090109,0.490621 FootLeft:0.000000,0.000000,0.000000,0.000000 FootRight:0.000000,0.000000,0.000000,0.000000 HandLeft:-0.175886,0.833291,-0.045397,0.522140 HandRight:-0.502297,0.815162,-0.280587,-0.066933 HandTipLeft:0.000000,0.000000,0.000000,0.000000 HandTipRight:0.000000,0.000000,0.000000,0.000000 Head:0.000000,0.000000,0.000000,0.000000 HipLeft:0.108211,-0.667235,0.722836,-0.143513 HipRight:-0.161226,0.689786,0.680617,-0.186979 KneeLeft:0.001772,-0.682275,0.042893,0.729834 KneeRight:-0.001356,0.731266,0.050221,0.680240 Neck:-0.046301,0.017424,0.996583,-0.066144 ShoulderLeft:0.046265,0.770507,-0.635717,0.006468 ShoulderRight:-0.011870,0.810567,0.580459,-0.076861 SpineBase:-0.034006,0.017515,0.998909,-0.026779 SpineMid:-0.039792,0.017670,0.998695,-0.026678 SpineShoulder:-0.045975,0.017913,0.997757,-0.045247 ThumbLeft:0.000000,0.000000,0.000000,0.000000 ThumbRight:0.000000,0.000000,0.000000,0.000000 WristLeft:-0.128461,0.845316,-0.107724,0.507281 WristRight:-0.425869,0.891210,-0.155791,-0.010440 END:
KINECT_DATA POSITION:3.402290,0.934904,-13.029718 HEAD_JOINT1:0.988236,0.133867,-0.000000,0.073954 LARM_JOINT2:0.814598,0.000000,0.000294,-0.580027 LARM_JOINT3:0.959016,0.000000,-0.220216,-0.178306 LLEG_JOINT2:0.999528,0.029200,0.000000,0.009543 LLEG_JOINT4:0.996893,0.077219,0.000000,-0.015541 RARM_JOINT2:0.799941,0.000000,0.088704,0.593487 RARM_JOINT3:0.849463,0.000000,0.490967,0.193296 RLEG_JOINT2:0.997591,0.037542,0.000000,-0.058333 RLEG_JOINT4:0.994443,0.091513,0.000000,0.052048 WAIST:0.999119,-0.000000,0.034445,0.023975 WAIST_JOINT0:0.998333,-0.000000,0.045825,0.035103 WAIST_JOINT1:0.998666,0.051301,0.000000,-0.005854 END:
KINECT_DATA_Sensor  AnkleLeft:0.071184,0.729195,-0.079759,-0.675904 AnkleRight:0.100295,0.722620,0.081383,0.679072 ElbowLeft:-0.032326,0.861771,-0.187433,-0.470292 ElbowRight:-0.086234,0.868680,0.091224,0.479204 FootLeft:0.000000,0.000000,0.000000,0.000000 FootRight:0.000000,0.000000,0.000000,0.000000 HandLeft:-0.169668,0.805293,-0.056698,0.565245 HandRight:-0.476302,0.794324,-0.370760,0.068724 HandTipLeft:0.000000,0.000000,0.000000,0.000000 HandTipRight:0.000000,0.000000,0.000000,0.000000 Head:0.000000,0.000000,0.000000,0.000000 HipLeft:0.107324,-0.667806,0.722554,-0.142942 HipRight:-0.161660,0.688885,0.681179,-0.187881 KneeLeft:0.002100,-0.681370,0.043839,0.730622 KneeRight:-0.000007,0.732116,0.050315,0.679319 Neck:-0.047746,0.016465,0.996491,-0.066745 ShoulderLeft:0.046261,0.770137,-0.636163,0.006816 ShoulderRight:-0.013783,0.809848,0.581091,-0.079314 SpineBase:-0.035254,0.016890,0.998867,-0.027126 SpineMid:-0.041143,0.017049,0.998642,-0.027026 SpineShoulder:-0.047430,0.017084,0.997681,-0.045736 ThumbLeft:0.000000,0.000000,0.000000,0.000000 ThumbRight:0.000000,0.000000,0.000000,0.000000 WristLeft:-0.122699,0.816924,-0.112593,0.552180 WristRight:-0.388103,0.881269,-0.234405,0.133398 END:
KINECT_DATA POSITION:3.282881,0.949883,-13.014853 HEAD_JOINT1:0.988512,0.132327,-0.000000,0.073036 LARM_JOINT2:0.815262,0.000000,-0.001710,-0.579089 LARM_JOINT3:0.960097,0.000000,-0.216230,-0.177367 LLEG_JOINT2:0.999512,0.028424,0.000000,0.012955 LLEG_JOINT4:0.996769,0.078571,0.000000,-0.016708 RARM_JOINT2:0.800631,0.000000,0.107762,0.589388 RARM_JOINT3:0.843368,0.000000,0.493860,0.211738 RLEG_JOINT2:0.997759,0.037862,0.000000,-0.055171 RLEG_JOINT4:0.994528,0.091271,0.000000,0.050831 WAIST:0.999117,-0.000000,0.035714,0.022138 WAIST_JOINT0:0.998658,-0.000000,0.039719,0.033239 WAIST_JOINT1:0.998647,0.051797,0.000000,-0.004565 END:
KINECT_DATA_Sensor  AnkleLeft:-0.066170,-0.682979,0.084813,0.722474 AnkleRight:0.099322,0.714987,0.082770,0.687079 ElbowLeft:-0.033237,0.861608,-0.187544,-0.470484 ElbowRight:-0.098467,0.877324,0.086200,0.461710 FootLeft:0.000000,0.000000,0.000000,0.000000 FootRight:0.000000,0.000000,0.000000,0.000000 HandLeft:-0.159328,0.844612,-0.040759,0.509494 HandRight:0.430216,-0.023554,-0.473485,0.768226 HandTipLeft:0.000000,0.000000,0.000000,0.000000 HandTipRight:0.000000,0.000000,0.000000,0.000000 Head:0.000000,0.000000,0.000000,0.000000 HipLeft:0.106337,-0.669032,0.721599,-0.142771 HipRight:-0.162058,0.687352,0.682347,-0.188909 KneeLeft:0.003656,-0.680522,0.044491,0.731366 KneeRight:0.001140,0.732909,0.049668,0.678510 Neck:-0.041717,0.015467,0.996733,-0.067404 ShoulderLeft:0.047756,0.769991,-0.636214,0.008085 ShoulderRight:-0.004406,0.808850,0.583649,-0.071393 SpineBase:-0.036459,0.016077,0.998820,-0.027760 SpineMid:-0.038777,0.016141,0.998733,-0.027722 SpineShoulder:-0.041411,0.016090,0.997935,-0.046394 ThumbLeft:0.000000,0.000000,0.000000,0.000000 ThumbRight:0.000000,0.000000,0.000000,0.000000 WristLeft:-0.130001,0.852454,-0.104918,0.495394 WristRight:0.246798,-0.115966,-0.393577,0.877918 END:
KINECT_DATA POSITION:3.157683,0.965035,-13.088810 HEAD_JOINT1:0.988590,0.132011,-0.000000,0.072546 LARM_JOINT2:0.815728,0.000000,-0.002921,-0.578429 LARM_JOINT3:0.960758,0.000000,-0.210303,-0.180880 LLEG_JOINT2:0.999513,0.026417,0.000000,0.016601 LLEG_JOINT4:0.996426,0.082432,0.000000,-0.018465 RARM_JOINT2:0.800299,0.000000,0.106239,0.590114 RARM_JOINT3:0.842499,0.000000,0.489633,0.224621 RLEG_JOINT2:0.997884,0.038220,0.000000,-0.052602 RLEG_JOINT4:0.994551,0.091794,0.000000,0.049409 WAIST:0.999056,-0.000000,0.038137,0.020794 WAIST_JOINT0:0.998459,-0.000000,0.044742,0.032830 WAIST_JOINT1:0.998624,0.052317,0.000000,-0.003660 END:
KINECT_DATA_Sensor  AnkleLeft:0.074193,0.737627,-0.080506,-0.666274 AnkleRight:0.102177,0.738043,0.080586,0.662086 ElbowLeft:-0.032836,0.861914,-0.187831,-0.469836 ElbowRight:-0.096090,0.883620,0.087905,0.449728 FootLeft:0.000000,0.000000,0.000000,0.000000 FootRight:0.000000,0.000000,0.000000,0.000000 HandLeft:-0.147762,0.835545,-0.024910,0.528593 HandRight:0.453015,-0.027499,-0.453754,0.766896 HandTipLeft:0.000000,0.000000,0.000000,0.000000 HandTipRight:0.000000,0.000000,0.000000,0.000000 Head:0.000000,0.000000,0.000000,0.000000 HipLeft:0.104745,-0.670109,0.720937,-0.142240 HipRight:-0.163155,0.685916,0.682909,-0.191141 KneeLeft:0.006583,-0.678815,0.044824,0.732910 KneeRight:0.002158,0.734500,0.049096,0.676826 Neck:-0.046651,0.015288,0.996490,-0.067811 ShoulderLeft:0.047860,0.769780,-0.636469,0.007445 ShoulderRight:-0.010838,0.807497,0.584548,-0.078330 SpineBase:-0.038849,0.015192,0.998719,-0.028641 SpineMid:-0.042469,0.015295,0.998572,-0.028586 SpineShoulder:-0.046389,0.015559,0.997699,-0.046927 ThumbLeft:0.000000,0.000000,0.000000,0.000000 ThumbRight:0.000000,0.000000,0.000000,0.000000 WristLeft:-0.127274,0.843298,-0.106883,0.511102 WristRight:0.261524,-0.120874,-0.384584,0.876978 END:
KINECT_DATA POSITION:2.970923,0.968025,-13.315725 HEAD_JOINT1:0.988571,0.133841,-0.000000,0.069390 LARM_JOINT2:0.814461,0.000000,-0.001539,-0.580217 LARM_JOINT3:0.960781,0.000000,-0.212016,-0.178743 LLEG_JOINT2:0.999478,0.023781,0.000000,0.021887 LLEG_JOINT4:0.996184,0.085340,0.000000,-0.018265 RARM_JOINT2:0.799683,0.000000,0.113184,0.589657 RARM_JOINT3:0.841823,0.000000,0.470586,0.264354 RLEG_JOINT2:0.998174,0.036569,0.000000,-0.048085 RLEG_JOINT4:0.994538,0.092439,0.000000,0.048473 WAIST:0.998985,-0.000000,0.041332,0.017889 WAIST_JOINT0:0.998193,-0.000000,0.050151,0.033104 WAIST_JOINT1:0.998562,0.053593,0.000000,-0.001517 END:
KINECT_DATA_Sensor  AnkleLeft:0.071441,0.721456,-0.084000,-0.683624 AnkleRight:0.101510,0.738162,0.080083,0.662117 ElbowLeft:-0.030370,0.856855,-0.186056,-0.479855 ElbowRight:-0.096695,0.900767,0.088792,0.413986 FootLeft:0.000000,0.000000,0.000000,0.000000 FootRight:0.000000,0.000000,0.000000,0.000000 HandLeft:-0.149407,0.826435,-0.024808,0.542279 HandRight:0.475390,0.008214,-0.389349,0.788888 HandTipLeft:0.000000,0.000000,0.000000,0.000000 HandTipRight:0.000000,0.000000,0.000000,0.000000 Head:0.000000,0.000000,0.000000,0.000000 HipLeft:0.102520,-0.672146,0.719390,-0.142081 HipRight:-0.165021,0.683181,0.684337,-0.194204 KneeLeft:0.009949,-0.676596,0.044852,0.734920 KneeRight:0.002099,0.736517,0.046832,0.674793 Neck:-0.052141,0.014464,0.996146,-0.069029 ShoulderLeft:0.050844,0.769132,-0.637040,0.005448 ShoulderRight:-0.014896,0.806961,0.584301,-0.084756 SpineBase:-0.041912,0.014587,0.998566,-0.029931 SpineMid:-0.046748,0.014732,0.998352,-0.029860 SpineShoulder:-0.051910,0.014714,0.997376,-0.048276 ThumbLeft:0.000000,0.000000,0.000000,0.000000 ThumbRight:0.000000,0.000000,0.000000,0.000000 WristLeft:-0.124106,0.835706,-0.110370,0.523462 WristRight:0.281094,-0.080556,-0.378177,0.878339 END:
KINECT_DATA POSITION:2.873525,0.983564,-13.519943 HEAD_JOINT1:0.988586,0.135583,-0.000000,0.065692 LARM_JOINT2:0.813519,0.000000,-0.002590,-0.581532 LARM_JOINT3:0.961198,0.000000,-0.214327,-0.173672 LLEG_JOINT2:0.999419,0.021341,0.000000,0.026580 LLEG_JOINT4:0.996043,0.086309,0.000000,-0.021184 RARM_JOINT2:0.798031,0.000000,0.124695,0.589574 RARM_JOINT3:0.845591,0.000000,0.455729,0.278005 RLEG_JOINT2:0.998350,0.035072,0.000000,-0.045457 RLEG_JOINT4:0.994474,0.092313,0.000000,0.049995 WAIST:0.998909,-0.000000,0.044217,0.015005 WAIST_JOINT0:0.997943,-0.000000,0.054682,0.033470 WAIST_JOINT1:0.998514,0.054483,-0.000000,0.001476 END:
KINECT_DATA_Sensor  AnkleLeft:0.073189,0.735443,-0.080364,-0.668811 AnkleRight:0.100306,0.732979,0.079455,0.668107 ElbowLeft:-0.029992,0.853563,-0.184690,-0.486231 ElbowRight:-0.100959,0.910303,0.084214,0.392508 FootLeft:0.000000,0.000000,0.000000,0.000000 FootRight:0.000000,0.000000,0.000000,0.000000 HandLeft:-0.145715,0.805962,-0.041354,0.572260 HandRight:0.491577,-0.042014,-0.327167,0.805946 HandTipLeft:0.000000,0.000000,0.000000,0.000000 HandTipRight:0.000000,0.000000,0.000000,0.000000 Head:0.000000,0.000000,0.000000,0.000000 HipLeft:0.100406,-0.674068,0.717899,-0.142027 HipRight:-0.167105,0.680618,0.685753,-0.196413 KneeLeft:0.012780,-0.674602,0.044624,0.736721 KneeRight:0.000813,0.738324,0.045962,0.672878 Neck:-0.056769,0.014427,0.995824,-0.070023 ShoulderLeft:0.053784,0.768217,-0.637918,0.003261 ShoulderRight:-0.017894,0.806498,0.584123,-0.089674 SpineBase:-0.044627,0.014724,0.998416,-0.030953 SpineMid:-0.050409,0.014903,0.998140,-0.030867 SpineShoulder:-0.056539,0.014765,0.997075,-0.049260 ThumbLeft:0.000000,0.000000,0.000000,0.000000 ThumbRight:0.000000,0.000000,0.000000,0.000000 WristLeft:-0.119595,0.814458,-0.116994,0.555579 WristRight:0.311041,-0.121226,-0.349355,0.875505 END:
KINECT_DATA POSITION:2.810921,1.003501,-13.587785 HEAD_JOINT1:0.988749,0.135449,-0.000000,0.063469 LARM_JOINT2:0.812829,0.000000,-0.003192,-0.582493 LARM_JOINT3:0.960711,0.000000,-0.216572,-0.173582 LLEG_JOINT2:0.999404,0.020035,0.000000,0.028126 LLEG_JOINT4:0.996399,0.082556,0.000000,-0.019319 RARM_JOINT2:0.796638,0.000000,0.134136,0.589385 RARM_JOINT3:0.848732,0.000000,0.449440,0.278673 RLEG_JOINT2:0.998463,0.033431,0.000000,-0.044196 RLEG_JOINT4:0.994063,0.096056,0.000000,0.051104 WAIST:0.998879,-0.000000,0.045186,0.014076 WAIST_JOINT0:0.997831,-0.000000,0.056689,0.033463 WAIST_JOINT1:0.998482,0.055014,-0.000000,0.002552 END:
KINECT_DATA_Sensor  AnkleLeft:0.068074,0.737944,-0.079009,-0.666755 AnkleRight:0.102158,0.728465,0.080867,0.672579 ElbowLeft:-0.029559,0.852666,-0.183779,-0.488172 ElbowRight:-0.105255,0.914269,0.079740,0.382981 FootLeft:0.000000,0.000000,0.000000,0.000000 FootRight:0.000000,0.000000,0.000000,0.000000 HandLeft:-0.155379,0.812901,-0.040946,0.559797 HandRight:0.482502,-0.018817,-0.332400,0.810153 HandTipLeft:0.000000,0.000000,0.000000,0.000000 HandTipRight:0.000000,0.000000,0.000000,0.000000 Head:0.000000,0.000000,0.000000,0.000000 HipLeft:0.099581,-0.674604,0.717488,-0.142141 HipRight:-0.167705,0.679654,0.686280,-0.197396 KneeLeft:0.014097,-0.673933,0.044231,0.737333 KneeRight:-0.000080,0.738907,0.044547,0.672333 Neck:-0.058817,0.014631,0.995657,-0.070667 ShoulderLeft:0.055552,0.767547,-0.638577,0.002082 ShoulderRight:-0.018775,0.805959,0.584532,-0.091656 SpineBase:-0.045542,0.014672,0.998356,-0.031548 SpineMid:-0.051894,0.014873,0.998046,-0.031454 SpineShoulder:-0.058594,0.014882,0.996928,-0.049794 ThumbLeft:0.000000,0.000000,0.000000,0.000000 ThumbRight:0.000000,0.000000,0.000000,0.000000 WristLeft:-0.121079,0.823048,-0.115198,0.542827 WristRight:0.305690,-0.096022,-0.352392,0.879291 END:
KINECT_DATA POSITION:2.761924,1.009744,-13.600742 HEAD_JOINT1:0.988820,0.136136,-0.000000,0.060852 LARM_JOINT2:0.812506,0.000000,-0.004283,-0.582936 LARM_JOINT3:0.960880,0.000000,-0.216618,-0.172588 LLEG_JOINT2:0.999386,0.019181,0.000000,0.029306 LLEG_JOINT4:0.996141,0.085259,0.000000,-0.020834 RARM_JOINT2:0.796748,0.000000,0.136216,0.588760 RARM_JOINT3:0.847485,0.000000,0.443086,0.292309 RLEG_JOINT2:0.998499,0.033377,0.000000,-0.043414 RLEG_JOINT4:0.994198,0.094106,0.000000,0.052106 WAIST:0.998856,-0.000000,0.045966,0.013165 WAIST_JOINT0:0.997780,-0.000000,0.057735,0.033201 WAIST_JOINT1:0.998457,0.055392,-0.000000,0.003882 END:
KINECT_DATA_Sensor  AnkleLeft:0.069919,0.733259,-0.079483,-0.671658 AnkleRight:0.100338,0.719980,0.080271,0.681995 ElbowLeft:-0.029502,0.853189,-0.183520,-0.487358 ElbowRight:-0.105653,0.917985,0.079831,0.373856 FootLeft:0.000000,0.000000,0.000000,0.000000 FootRight:0.000000,0.000000,0.000000,0.000000 HandLeft:-0.154770,0.814779,-0.044816,0.556931 HandRight:0.482041,0.031116,-0.332619,0.809958 HandTipLeft:0.000000,0.000000,0.000000,0.000000 HandTipRight:0.000000,0.000000,0.000000,0.000000 Head:0.000000,0.000000,0.000000,0.000000 HipLeft:0.099038,-0.675140,0.717040,-0.142235 HipRight:-0.168442,0.678842,0.686751,-0.197925 KneeLeft:0.014851,-0.673406,0.043887,0.737820 KneeRight:-0.000224,0.739392,0.044616,0.671795 Neck:-0.059923,0.015016,0.995550,-0.071162 ShoulderLeft:0.055577,0.767272,-0.638904,0.002316 ShoulderRight:-0.020252,0.805576,0.584712,-0.093532 SpineBase:-0.046257,0.014922,0.998312,-0.031795 SpineMid:-0.052800,0.015130,0.997987,-0.031697 SpineShoulder:-0.059694,0.015265,0.996837,-0.050202 ThumbLeft:0.000000,0.000000,0.000000,0.000000 ThumbRight:0.000000,0.000000,0.000000,0.000000 WristLeft:-0.121253,0.824208,-0.114426,0.541189 WristRight:0.294623,-0.051114,-0.361624,0.883070 END:
KINECT_DATA POSITION:2.718379,1.028563,-13.657511 HEAD_JOINT1:0.988884,0.136349,-0.000000,0.059313 LARM_JOINT2:0.812914,0.000000,-0.005590,-0.582358 LARM_JOINT3:0.961258,0.000000,-0.218303,-0.168309 LLEG_JOINT2:0.999363,0.017869,0.000000,0.030904 LLEG_JOINT4:0.995860,0.087968,0.000000,-0.022899 RARM_JOINT2:0.796319,0.000000,0.139402,0.588595 RARM_JOINT3:0.846337,0.000000,0.440915,0.298845 RLEG_JOINT2:0.998603,0.032132,0.000000,-0.041955 RLEG_JOINT4:0.994141,0.094688,0.000000,0.052138 WAIST:0.998802,-0.000000,0.047304,0.012495 WAIST_JOINT0:0.997707,-0.000000,0.058917,0.033300 WAIST_JOINT1:0.998414,0.056096,-0.000000,0.004813 END:
KINECT_DATA_Sensor  AnkleLeft:0.070644,0.721987,-0.080384,-0.683581 AnkleRight:0.100094,0.718142,0.079797,0.684021 ElbowLeft:-0.030002,0.852485,-0.184252,-0.488283 ElbowRight:-0.106090,0.922472,0.079173,0.362661 FootLeft:0.000000,0.000000,0.000000,0.000000 FootRight:0.000000,0.000000,0.000000,0.000000 HandLeft:-0.155175,0.856414,-0.047996,0.490073 HandRight:0.431157,0.139432,-0.400513,0.796399 HandTipLeft:0.000000,0.000000,0.000000,0.000000 HandTipRight:0.000000,0.000000,0.000000,0.000000 Head:0.000000,0.000000,0.000000,0.000000 HipLeft:0.097872,-0.675590,0.716771,-0.142264 HipRight:-0.169019,0.678029,0.687032,-0.199238 KneeLeft:0.016375,-0.672445,0.043722,0.738673 KneeRight:-0.000534,0.740237,0.043174,0.670958 Neck:-0.061176,0.015241,0.995404,-0.072083 ShoulderLeft:0.055404,0.767024,-0.639214,0.003047 ShoulderRight:-0.022133,0.805299,0.584613,-0.096077 SpineBase:-0.047556,0.014886,0.998226,-0.032598 SpineMid:-0.054084,0.015099,0.997893,-0.032500 SpineShoulder:-0.060951,0.015405,0.996723,-0.050894 ThumbLeft:0.000000,0.000000,0.000000,0.000000 ThumbRight:0.000000,0.000000,0.000000,0.000000 WristLeft:-0.128896,0.862639,-0.106190,0.477455 WristRight:0.252401,0.061985,-0.387550,0.884453 END:
KINECT_DATA POSITION:2.708750,1.031958,-13.692558 HEAD_JOINT1:0.988856,0.136808,-0.000000,0.058717 LARM_JOINT2:0.813753,0.000000,-0.007138,-0.581166 LARM_JOINT3:0.961293,0.000000,-0.215542,-0.171632 LLEG_JOINT2:0.999332,0.018090,0.000000,0.031768 LLEG_JOINT4:0.996250,0.084051,0.000000,-0.020542 RARM_JOINT2:0.796738,0.000000,0.158337,0.583214 RARM_JOINT3:0.850963,0.000000,0.434957,0.294406 RLEG_JOINT2:0.998585,0.032953,0.000000,-0.041750 RLEG_JOINT4:0.993992,0.094760,0.000000,0.054776 WAIST:0.998812,-0.000000,0.047226,0.011981 WAIST_JOINT0:0.998162,-0.000000,0.050856,0.032959 WAIST_JOINT1:0.998396,0.056383,-0.000000,0.005135 END:
KINECT_DATA_Sensor  AnkleLeft:-0.060837,-0.677486,0.084338,0.728148 AnkleRight:0.102337,0.716857,0.079083,0.685119 ElbowLeft:-0.030508,0.854882,-0.185103,-0.483718 ElbowRight:-0.119529,0.925230,0.074482,0.352300 FootLeft:0.000000,0.000000,0.000000,0.000000 FootRight:0.000000,0.000000,0.000000,0.000000 HandLeft:-0.148058,0.803662,-0.053527,0.573883 HandRight:0.457876,0.056543,-0.348273,0.816001 HandTipLeft:0.000000,0.000000,0.000000,0.000000 HandTipRight:0.000000,0.000000,0.000000,0.000000 Head:0.000000,0.000000,0.000000,0.000000 HipLeft:0.097613,-0.675845,0.716496,-0.142614 HipRight:-0.168773,0.677602,0.687450,-0.199456 KneeLeft:0.016431,-0.672522,0.044147,0.738577 KneeRight:-0.000187,0.740174,0.044007,0.670974 Neck:-0.053243,0.014301,0.995837,-0.072595 ShoulderLeft:0.056480,0.767026,-0.639108,0.004670 ShoulderRight:-0.010462,0.806647,0.584717,-0.085543 SpineBase:-0.047451,0.014745,0.998218,-0.033049 SpineMid:-0.050081,0.014832,0.998089,-0.033010 SpineShoulder:-0.052986,0.014860,0.997167,-0.051288 ThumbLeft:0.000000,0.000000,0.000000,0.000000 ThumbRight:0.000000,0.000000,0.000000,0.000000 WristLeft:-0.118116,0.811746,-0.117132,0.559819 WristRight:0.286805,-0.016777,-0.362301,0.886679 END:
KINECT_DATA POSITION:2.708051,1.038247,-13.701105 HEAD_JOINT1:0.988832,0.137168,-0.000000,0.058272 LARM_JOINT2:0.814143,0.000000,-0.007567,-0.580615 LARM_JOINT3:0.961468,0.000000,-0.214895,-0.171461 LLEG_JOINT2:0.999324,0.017777,0.000000,0.032170 LLEG_JOINT4:0.996113,0.085427,0.000000,-0.021476 RARM_JOINT2:0.796560,0.000000,0.159608,0.583111 RARM_JOINT3:0.853556,0.000000,0.436488,0.284466 RLEG_JOINT2:0.998634,0.032689,0.000000,-0.040758 RLEG_JOINT4:0.994265,0.093105,0.000000,0.052615 WAIST:0.998841,-0.000000,0.046722,0.011549 WAIST_JOINT0:0.998211,-0.000000,0.050449,0.032102 WAIST_JOINT1:0.998385,0.056598,-0.000000,0.004960 END:
KINECT_DATA_Sensor  AnkleLeft:-0.062222,-0.677500,0.084384,0.728012 AnkleRight:0.099038,0.709052,0.079794,0.693592 ElbowLeft:-0.030614,0.855508,-0.185110,-0.482600 ElbowRight:-0.120229,0.925465,0.074649,0.351407 FootLeft:0.000000,0.000000,0.000000,0.000000 FootRight:0.000000,0.000000,0.000000,0.000000 HandLeft:-0.148494,0.831371,-0.046250,0.533510 HandRight:0.472520,0.013347,-0.338215,0.813730 HandTipLeft:0.000000,0.000000,0.000000,0.000000 HandTipRight:0.000000,0.000000,0.000000,0.000000 Head:0.000000,0.000000,0.000000,0.000000 HipLeft:0.097816,-0.675996,0.716266,-0.142914 HipRight:-0.168453,0.677291,0.687895,-0.199251 KneeLeft:0.016645,-0.672913,0.043925,0.738229 KneeRight:0.000088,0.739811,0.043452,0.671410 Neck:-0.052806,0.013512,0.995853,-0.072833 ShoulderLeft:0.056597,0.767290,-0.638779,0.004928 ShoulderRight:-0.009775,0.805967,0.585725,-0.085138 SpineBase:-0.046927,0.014531,0.998242,-0.033169 SpineMid:-0.049589,0.014620,0.998113,-0.033130 SpineShoulder:-0.052539,0.014344,0.997188,-0.051484 ThumbLeft:0.000000,0.000000,0.000000,0.000000 ThumbRight:0.000000,0.000000,0.000000,0.000000 WristLeft:-0.123665,0.838099,-0.110842,0.519626 WristRight:0.303678,-0.057738,-0.348468,0.884882 END:
KINECT_DATA POSITION:2.757765,1.035382,-13.695240 HEAD_JOINT1:0.988831,0.138531,-0.000000,0.054985 LARM_JOINT2:0.813653,0.000000,-0.008030,-0.581295 LARM_JOINT3:0.962321,0.000000,-0.212031,-0.170238 LLEG_JOINT2:0.999342,0.017204,0.000000,0.031942 LLEG_JOINT4:0.995770,0.089277,0.000000,-0.021737 RARM_JOINT2:0.795821,0.000000,0.153550,0.585740 RARM_JOINT3:0.860679,0.000000,0.431367,0.270471 RLEG_JOINT2:0.998616,0.032626,0.000000,-0.041258 RLEG_JOINT4:0.994191,0.094718,0.000000,0.051116 WAIST:0.998808,-0.000000,0.047368,0.011746 WAIST_JOINT0:0.997741,-0.000000,0.059036,0.032041 WAIST_JOINT1:0.998370,0.056867,-0.000000,0.004932 END:
KINECT_DATA_Sensor  AnkleLeft:-0.064435,-0.672589,0.086628,0.732098 AnkleRight:0.100602,0.726213,0.079738,0.675378 ElbowLeft:-0.030714,0.854281,-0.184412,-0.485029 ElbowRight:-0.115228,0.924035,0.074944,0.356742 FootLeft:0.000000,0.000000,0.000000,0.000000 FootRight:0.000000,0.000000,0.000000,0.000000 HandLeft:-0.139991,0.839702,-0.038261,0.523297 HandRight:0.432434,-0.004799,-0.343388,0.833704 HandTipLeft:0.000000,0.000000,0.000000,0.000000 HandTipRight:0.000000,0.000000,0.000000,0.000000 Head:0.000000,0.000000,0.000000,0.000000 HipLeft:0.097629,-0.675848,0.716425,-0.142941 HipRight:-0.169231,0.677193,0.687589,-0.199978 KneeLeft:0.017033,-0.672435,0.043515,0.738679 KneeRight:-0.000218,0.740252,0.043598,0.670915 Neck:-0.061366,0.014263,0.995343,-0.072966 ShoulderLeft:0.056665,0.766970,-0.639169,0.002967 ShoulderRight:-0.021072,0.804349,0.585925,-0.096286 SpineBase:-0.047576,0.014781,0.998204,-0.033264 SpineMid:-0.054168,0.015001,0.997868,-0.033165 SpineShoulder:-0.061121,0.014859,0.996683,-0.051644 ThumbLeft:0.000000,0.000000,0.000000,0.000000 ThumbRight:0.000000,0.000000,0.000000,0.000000 WristLeft:-0.124592,0.844836,-0.110071,0.508541 WristRight:0.299099,-0.060151,-0.347028,0.886845 END:
KINECT_DATA POSITION:2.878758,1.006250,-13.662994 HEAD_JOINT1:0.989096,0.137736,-0.000000,0.052129 LARM_JOINT2:0.812594,0.000000,-0.001309,-0.582829 LARM_JOINT3:0.963598,0.000000,-0.212606,-0.162101 LLEG_JOINT2:0.999388,0.016836,0.000000,0.030677 LLEG_JOINT4:0.995928,0.087569,0.000000,-0.021414 RARM_JOINT2:0.789766,0.000000,0.193521,0.582082 RARM_JOINT3:0.876032,0.000000,0.421224,0.234814 RLEG_JOINT2:0.998569,0.031571,0.000000,-0.043166 RLEG_JOINT4:0.993846,0.098400,0.000000,0.050876 WAIST:0.998568,-0.000000,0.051942,0.012813 WAIST_JOINT0:0.996527,-0.000000,0.073597,0.038954 WAIST_JOINT1:0.998396,0.056395,-0.000000,0.005081 END:
KINECT_DATA_Sensor  AnkleLeft:-0.062584,-0.664856,0.085377,0.739433 AnkleRight:0.101086,0.728872,0.082808,0.672065 ElbowLeft:-0.028090,0.843719,-0.185636,-0.502881 ElbowRight:-0.138841,0.928863,0.052355,0.339405 FootLeft:0.000000,0.000000,0.000000,0.000000 FootRight:0.000000,0.000000,0.000000,0.000000 HandLeft:-0.111284,0.818948,-0.053712,0.560406 HandRight:0.443560,-0.048935,-0.346784,0.824985 HandTipLeft:0.000000,0.000000,0.000000,0.000000 HandTipRight:0.000000,0.000000,0.000000,0.000000 Head:0.000000,0.000000,0.000000,0.000000 HipLeft:0.096156,-0.675465,0.717312,-0.141296 HipRight:-0.173893,0.677020,0.685715,-0.202977 KneeLeft:0.017054,-0.669030,0.043124,0.741787 KneeRight:-0.001826,0.743344,0.043300,0.667504 Neck:-0.076391,0.016079,0.994329,-0.072219 ShoulderLeft:0.061829,0.763618,-0.642681,-0.005119 ShoulderRight:-0.035214,0.807842,0.577796,-0.110920 SpineBase:-0.052160,0.016289,0.997973,-0.032630 SpineMid:-0.063910,0.016672,0.997289,-0.032436 SpineShoulder:-0.076167,0.016338,0.995653,-0.051048 ThumbLeft:0.000000,0.000000,0.000000,0.000000 ThumbRight:0.000000,0.000000,0.000000,0.000000 WristLeft:-0.116846,0.819162,-0.122188,0.548078 WristRight:0.313338,-0.099402,-0.330342,0.884767 END:
KINECT_DATA POSITION:2.917561,1.001987,-13.652110 HEAD_JOINT1:0.988795,0.140542,-0.000000,0.050323 LARM_JOINT2:0.812373,0.000000,0.001186,-0.583137 LARM_JOINT3:0.960888,0.000000,-0.217651,-0.171236 LLEG_JOINT2:0.999392,0.017915,0.000000,0.029902 LLEG_JOINT4:0.995931,0.087645,0.000000,-0.020952 RARM_JOINT2:0.795980,0.000000,0.163246,0.582895 RARM_JOINT3:0.875213,0.000000,0.415363,0.247945 RLEG_JOINT2:0.998508,0.032623,0.000000,-0.043787 RLEG_JOINT4:0.994266,0.094198,0.000000,0.050614 WAIST:0.998514,-0.000000,0.052861,0.013275 WAIST_JOINT0:0.996406,-0.000000,0.074953,0.039459 WAIST_JOINT1:0.998396,0.056381,-0.000000,0.005113 END:
KINECT_DATA_Sensor  AnkleLeft:0.071133,0.730011,-0.079901,-0.675011 AnkleRight:0.097625,0.721979,0.081958,0.680073 ElbowLeft:-0.026092,0.843252,-0.186629,-0.503404 ElbowRight:-0.122999,0.924412,0.068863,0.354389 FootLeft:0.000000,0.000000,0.000000,0.000000 FootRight:0.000000,0.000000,0.000000,0.000000 HandLeft:-0.147424,0.832007,-0.036995,0.533537 HandRight:0.410374,-0.040727,-0.312636,0.855683 HandTipLeft:0.000000,0.000000,0.000000,0.000000 HandTipRight:0.000000,0.000000,0.000000,0.000000 Head:0.000000,0.000000,0.000000,0.000000 HipLeft:0.095661,-0.675217,0.717714,-0.140773 HipRight:-0.174520,0.677197,0.685283,-0.203307 KneeLeft:0.016028,-0.668332,0.043602,0.742411 KneeRight:-0.001302,0.744001,0.044161,0.666716 Neck:-0.077756,0.016608,0.994215,-0.072210 ShoulderLeft:0.062995,0.762662,-0.643692,-0.006276 ShoulderRight:-0.035861,0.807401,0.578197,-0.111827 SpineBase:-0.053094,0.016701,0.997921,-0.032505 SpineMid:-0.065055,0.017089,0.997212,-0.032303 SpineShoulder:-0.077532,0.016783,0.995542,-0.051013 ThumbLeft:0.000000,0.000000,0.000000,0.000000 ThumbRight:0.000000,0.000000,0.000000,0.000000 WristLeft:-0.119539,0.840306,-0.116620,0.515748 WristRight:0.302911,-0.087421,-0.337293,0.887038 END:
KINECT_DATA POSITION:2.943204,0.956309,-13.576185 HEAD_JOINT1:0.988550,0.142168,-0.000000,0.050561 LARM_JOINT2:0.811578,0.000000,-0.000724,-0.584243 LARM_JOINT3:0.958738,0.000000,-0.224551,-0.174353 LLEG_JOINT2:0.999428,0.019565,0.000000,0.027587 LLEG_JOINT4:0.996317,0.083519,0.000000,-0.019415 RARM_JOINT2:0.800717,0.000000,0.115926,0.587719 RARM_JOINT3:0.866088,0.000000,0.423513,0.265572 RLEG_JOINT2:0.998380,0.035009,0.000000,-0.044862 RLEG_JOINT4:0.994444,0.092609,0.000000,0.050044 WAIST:0.998682,-0.000000,0.049167,0.014708 WAIST_JOINT0:0.996966,-0.000000,0.068774,0.036454 WAIST_JOINT1:0.998404,0.056361,-0.000000,0.003655 END:
KINECT_DATA_Sensor  AnkleLeft:0.068440,0.732829,-0.079213,-0.672311 AnkleRight:0.100607,0.738963,0.079436,0.661439 ElbowLeft:-0.026765,0.847664,-0.184746,-0.496607 ElbowRight:-0.094823,0.913563,0.090316,0.385038 FootLeft:0.000000,0.000000,0.000000,0.000000 FootRight:0.000000,0.000000,0.000000,0.000000 HandLeft:-0.167227,0.753820,-0.064779,0.632134 HandRight:0.422604,-0.039448,-0.306137,0.852132 HandTipLeft:0.000000,0.000000,0.000000,0.000000 HandTipRight:0.000000,0.000000,0.000000,0.000000 Head:0.000000,0.000000,0.000000,0.000000 HipLeft:0.098081,-0.673843,0.718312,-0.142631 HipRight:-0.172337,0.678626,0.684962,-0.201477 KneeLeft:0.014392,-0.671003,0.043981,0.740009 KneeRight:0.000721,0.741642,0.045676,0.669239 Neck:-0.071334,0.016554,0.994703,-0.072133 ShoulderLeft:0.059464,0.764315,-0.642091,-0.002256 ShoulderRight:-0.031232,0.805874,0.581659,-0.106135 SpineBase:-0.049498,0.016748,0.998109,-0.032381 SpineMid:-0.060052,0.017090,0.997529,-0.032202 SpineShoulder:-0.071090,0.016830,0.996025,-0.050962 ThumbLeft:0.000000,0.000000,0.000000,0.000000 ThumbRight:0.000000,0.000000,0.000000,0.000000 WristLeft:-0.109059,0.769197,-0.127720,0.616547 WristRight:0.282293,-0.097645,-0.336677,0.892986 END:
KINECT_DATA POSITION:2.954270,0.947032,-13.537097 HEAD_JOINT1:0.988424,0.142714,-0.000000,0.051492 LARM_JOINT2:0.811705,0.000000,-0.000961,-0.584066 LARM_JOINT3:0.960616,0.000000,-0.220489,-0.169120 LLEG_JOINT2:0.999469,0.020150,0.000000,0.025624 LLEG_JOINT4:0.996403,0.082908,0.000000,-0.017506 RARM_JOINT2:0.800451,0.000000,0.117940,0.587681 RARM_JOINT3:0.863289,0.000000,0.430792,0.262965 RLEG_JOINT2:0.998268,0.035447,0.000000,-0.046948 RLEG_JOINT4:0.994454,0.090954,0.000000,0.052812 WAIST:0.998745,-0.000000,0.047482,0.015941 WAIST_JOINT0:0.997101,-0.000000,0.067075,0.035935 WAIST_JOINT1:0.998410,0.056319,-0.000000,0.002546 END:
KINECT_DATA_Sensor  AnkleLeft:-0.059849,-0.668857,0.086137,0.735955 AnkleRight:0.102167,0.745433,0.075883,0.654319 ElbowLeft:-0.027428,0.848500,-0.184896,-0.495085 ElbowRight:-0.095603,0.914192,0.089499,0.383541 FootLeft:0.000000,0.000000,0.000000,0.000000 FootRight:0.000000,0.000000,0.000000,0.000000 HandLeft:-0.150261,0.823151,-0.053288,0.544981 HandRight:0.441752,-0.072994,-0.321174,0.834490 HandTipLeft:0.000000,0.000000,0.000000,0.000000 HandTipRight:0.000000,0.000000,0.000000,0.000000 Head:0.000000,0.000000,0.000000,0.000000 HipLeft:0.099079,-0.672879,0.718976,-0.143143 HipRight:-0.171237,0.679699,0.684472,-0.200463 KneeLeft:0.013570,-0.672198,0.043784,0.738951 KneeRight:0.000443,0.740575,0.046549,0.670359 Neck:-0.069565,0.016807,0.994831,-0.072039 ShoulderLeft:0.058603,0.764487,-0.641969,-0.001300 ShoulderRight:-0.029857,0.805486,0.582582,-0.104402 SpineBase:-0.047888,0.016916,0.998191,-0.032179 SpineMid:-0.058360,0.017253,0.997633,-0.031999 SpineShoulder:-0.069317,0.017026,0.996152,-0.050860 ThumbLeft:0.000000,0.000000,0.000000,0.000000 ThumbRight:0.000000,0.000000,0.000000,0.000000 WristLeft:-0.122058,0.830402,-0.115338,0.531255 WristRight:0.294849,-0.131060,-0.324799,0.889040 END:
KINECT_DATA POSITION:3.024136,0.927247,-13.464808 HEAD_JOINT1:0.988902,0.140121,-0.000000,0.049380 LARM_JOINT2:0.812331,0.000000,-0.000575,-0.583196 LARM_JOINT3:0.963352,0.000000,-0.213149,-0.162853 LLEG_JOINT2:0.999502,0.020329,0.000000,0.024154 LLEG_JOINT4:0.996485,0.081905,0.000000,-0.017596 RARM_JOINT2:0.795073,0.000000,0.159373,0.585200 RARM_JOINT3:0.879577,0.000000,0.410215,0.240974 RLEG_JOINT2:0.998200,0.035444,0.000000,-0.048372 RLEG_JOINT4:0.994420,0.092655,0.000000,0.050428 WAIST:0.998568,-0.000000,0.050622,0.017290 WAIST_JOINT0:0.996488,-0.000000,0.074226,0.038746 WAIST_JOINT1:0.998400,0.056456,-0.000000,0.003243 END:
KINECT_DATA_Sensor  AnkleLeft:0.067330,0.733273,-0.079163,-0.671946 AnkleRight:0.099088,0.729888,0.081698,0.671394 ElbowLeft:-0.028613,0.844373,-0.187778,-0.500954 ElbowRight:-0.117915,0.925895,0.067909,0.352424 FootLeft:0.000000,0.000000,0.000000,0.000000 FootRight:0.000000,0.000000,0.000000,0.000000 HandLeft:-0.121066,0.802576,-0.060192,0.581027 HandRight:0.410633,-0.023638,-0.358415,0.838070 HandTipLeft:0.000000,0.000000,0.000000,0.000000 HandTipRight:0.000000,0.000000,0.000000,0.000000 Head:0.000000,0.000000,0.000000,0.000000 HipLeft:0.097564,-0.672310,0.719992,-0.141748 HipRight:-0.173711,0.680205,0.682881,-0.202038 KneeLeft:0.013305,-0.669831,0.043774,0.741103 KneeRight:0.000157,0.742744,0.046515,0.667958 Neck:-0.076827,0.019480,0.994244,-0.072087 ShoulderLeft:0.061776,0.762096,-0.644489,-0.005258 ShoulderRight:-0.036246,0.805718,0.580584,-0.111474 SpineBase:-0.051062,0.018293,0.998020,-0.031854 SpineMid:-0.063569,0.018690,0.997301,-0.031622 SpineShoulder:-0.076609,0.018930,0.995580,-0.050916 ThumbLeft:0.000000,0.000000,0.000000,0.000000 ThumbRight:0.000000,0.000000,0.000000,0.000000 WristLeft:-0.109032,0.806130,-0.125394,0.567928 WristRight:0.278413,-0.071558,-0.328390,0.899737 END:
KINECT_DATA POSITION:3.071525,0.913645,-13.384938 HEAD_JOINT1:0.989222,0.138603,-0.000000,0.047213 LARM_JOINT2:0.812559,0.000000,0.000038,-0.582879 LARM_JOINT3:0.961232,0.000000,-0.217162,-0.169922 LLEG_JOINT2:0.999521,0.020194,0.000000,0.023446 LLEG_JOINT4:0.996223,0.084663,0.000000,-0.019294 RARM_JOINT2:0.788319,0.000000,0.181836,0.587783 RARM_JOINT3:0.891674,0.000000,0.395794,0.219691 RLEG_JOINT2:0.998066,0.037947,0.000000,-0.049240 RLEG_JOINT4:0.994740,0.089784,0.000000,0.049308 WAIST:0.998307,-0.000000,0.055213,0.018316 WAIST_JOINT0:0.996006,-0.000000,0.079279,0.041071 WAIST_JOINT1:0.998411,0.056213,-0.000000,0.004020 END:
KINECT_DATA_Sensor  AnkleLeft:0.070364,0.728558,-0.079325,-0.676727 AnkleRight:0.098533,0.740389,0.081353,0.659922 ElbowLeft:-0.028072,0.842897,-0.189983,-0.502637 ElbowRight:-0.127781,0.928726,0.048888,0.344601 FootLeft:0.000000,0.000000,0.000000,0.000000 FootRight:0.000000,0.000000,0.000000,0.000000 HandLeft:-0.148911,0.853437,-0.040565,0.497820 HandRight:0.390455,-0.018342,-0.355861,0.848865 HandTipLeft:0.000000,0.000000,0.000000,0.000000 HandTipRight:0.000000,0.000000,0.000000,0.000000 Head:0.000000,0.000000,0.000000,0.000000 HipLeft:0.095442,-0.672033,0.720930,-0.139723 HipRight:-0.177274,0.680168,0.681251,-0.204553 KneeLeft:0.013513,-0.666386,0.043886,0.744192 KneeRight:0.001643,0.745914,0.048176,0.664296 Neck:-0.081986,0.021219,0.993818,-0.071786 ShoulderLeft:0.064489,0.760636,-0.645907,-0.008855 ShoulderRight:-0.040188,0.806685,0.578138,-0.115765 SpineBase:-0.055667,0.019536,0.997761,-0.031493 SpineMid:-0.068439,0.019937,0.996967,-0.031241 SpineShoulder:-0.081760,0.020455,0.995152,-0.050681 ThumbLeft:0.000000,0.000000,0.000000,0.000000 ThumbRight:0.000000,0.000000,0.000000,0.000000 WristLeft:-0.120364,0.860635,-0.114834,0.481282 WristRight:0.275820,-0.058832,-0.330383,0.900727 END:
KINECT_DATA POSITION:3.056108,0.901528,-13.385296 HEAD_JOINT1:0.988991,0.139442,-0.000000,0.049521 LARM_JOINT2:0.813184,0.000000,-0.001337,-0.582005 LARM_JOINT3:0.959204,0.000000,-0.220688,-0.176703 LLEG_JOINT2:0.999535,0.020717,0.000000,0.022356 LLEG_JOINT4:0.996385,0.083209,0.000000,-0.017147 RARM_JOINT2:0.798042,0.000000,0.137110,0.586796 RARM_JOINT3:0.874229,0.000000,0.419599,0.244255 RLEG_JOINT2:0.998024,0.038084,0.000000,-0.049970 RLEG_JOINT4:0.994439,0.090915,0.000000,0.053146 WAIST:0.998405,-0.000000,0.053194,0.018941 WAIST_JOINT0:0.996380,-0.000000,0.075093,0.039844 WAIST_JOINT1:0.998421,0.056084,-0.000000,0.003112 END:
KINECT_DATA_Sensor  AnkleLeft:0.069810,0.741392,-0.079103,-0.662727 AnkleRight:0.100723,0.725608,0.081570,0.675792 ElbowLeft:-0.028982,0.846336,-0.190243,-0.496672 ElbowRight:-0.105778,0.919780,0.075930,0.370204 FootLeft:0.000000,0.000000,0.000000,0.000000 FootRight:0.000000,0.000000,0.000000,0.000000 HandLeft:-0.168153,0.853688,-0.032204,0.491838 HandRight:0.415132,-0.061176,-0.331433,0.845030 HandTipLeft:0.000000,0.000000,0.000000,0.000000 HandTipRight:0.000000,0.000000,0.000000,0.000000 Head:0.000000,0.000000,0.000000,0.000000 HipLeft:0.096166,-0.671554,0.721156,-0.140364 HipRight:-0.175269,0.681089,0.681282,-0.203110 KneeLeft:0.012902,-0.667857,0.043865,0.742884 KneeRight:0.001757,0.744597,0.048346,0.665759 Neck:-0.077728,0.020744,0.994185,-0.071585 ShoulderLeft:0.062454,0.761743,-0.644829,-0.006523 ShoulderRight:-0.036661,0.806758,0.579080,-0.111642 SpineBase:-0.053696,0.019423,0.997868,-0.031593 SpineMid:-0.065327,0.019790,0.997175,-0.031364 SpineShoulder:-0.077483,0.020218,0.995505,-0.050576 ThumbLeft:0.000000,0.000000,0.000000,0.000000 ThumbRight:0.000000,0.000000,0.000000,0.000000 WristLeft:-0.124778,0.865190,-0.111621,0.472671 WristRight:0.293059,-0.108439,-0.326682,0.891984 END:
KINECT_DATA POSITION:3.037189,0.900790,-13.393164 HEAD_JOINT1:0.988803,0.140049,-0.000000,0.051519 LARM_JOINT2:0.812521,0.000000,-0.003437,-0.582922 LARM_JOINT3:0.959117,0.000000,-0.220157,-0.177835 LLEG_JOINT2:0.999535,0.021468,0.000000,0.021645 LLEG_JOINT4:0.996382,0.083172,0.000000,-0.017469 RARM_JOINT2:0.799812,0.000000,0.121656,0.587794 RARM_JOINT3:0.868738,0.000000,0.428850,0.247752 RLEG_JOINT2:0.998008,0.038209,0.000000,-0.050210 RLEG_JOINT4:0.994628,0.092245,0.000000,0.046962 WAIST:0.998567,-0.000000,0.049871,0.019429 WAIST_JOINT0:0.997077,-0.000000,0.066912,0.036873 WAIST_JOINT1:0.998427,0.056038,-0.000000,0.002010 END:
KINECT_DATA_Sensor  AnkleLeft:0.070384,0.742806,-0.079407,-0.661044 AnkleRight:0.100356,0.745721,0.082970,0.653410 ElbowLeft:-0.028760,0.852717,-0.188130,-0.486470 ElbowRight:-0.097421,0.913223,0.083623,0.386705 FootLeft:0.000000,0.000000,0.000000,0.000000 FootRight:0.000000,0.000000,0.000000,0.000000 HandLeft:-0.169332,0.815297,-0.047066,0.551727 HandRight:0.444773,-0.130684,-0.300137,0.833677 HandTipLeft:0.000000,0.000000,0.000000,0.000000 HandTipRight:0.000000,0.000000,0.000000,0.000000 Head:0.000000,0.000000,0.000000,0.000000 HipLeft:0.097336,-0.671005,0.721337,-0.141251 HipRight:-0.172221,0.682247,0.681760,-0.200206 KneeLeft:0.012315,-0.670288,0.044186,0.740682 KneeRight:0.002213,0.742396,0.048293,0.668214 Neck:-0.069401,0.019736,0.994825,-0.071538 ShoulderLeft:0.060420,0.762897,-0.643684,-0.003000 ShoulderRight:-0.027856,0.805601,0.582850,-0.102557 SpineBase:-0.050421,0.019092,0.998044,-0.031652 SpineMid:-0.059537,0.019380,0.997542,-0.031476 SpineShoulder:-0.069127,0.019605,0.996131,-0.050604 ThumbLeft:0.000000,0.000000,0.000000,0.000000 ThumbRight:0.000000,0.000000,0.000000,0.000000 WristLeft:-0.119504,0.828228,-0.114768,0.535337 WristRight:0.313090,-0.183320,-0.309916,0.878818 END:
KINECT_DATA POSITION:3.040399,0.889583,-13.360798 HEAD_JOINT1:0.988705,0.140083,-0.000000,0.053290 LARM_JOINT2:0.812347,0.000000,-0.002729,-0.583168 LARM_JOINT3:0.962067,0.000000,-0.212202,-0.171456 LLEG_JOINT2:0.999547,0.021944,0.000000,0.020579 LLEG_JOINT4:0.996424,0.082287,0.000000,-0.019192 RARM_JOINT2:0.795980,0.000000,0.141414,0.588573 RARM_JOINT3:0.880238,0.000000,0.415474,0.229264 RLEG_JOINT2:0.997988,0.038626,0.000000,-0.050289 RLEG_JOINT4:0.994699,0.090493,0.000000,0.048828 WAIST:0.998625,-0.000000,0.048453,0.020027 WAIST_JOINT0:0.997031,-0.000000,0.067504,0.037038 WAIST_JOINT1:0.998462,0.055431,-0.000000,0.001399 END:
KINECT_DATA_Sensor  AnkleLeft:0.068979,0.724690,-0.079492,-0.680990 AnkleRight:0.098063,0.718687,0.084137,0.683223 ElbowLeft:-0.029181,0.852695,-0.187770,-0.486623 ElbowRight:-0.107681,0.916885,0.071907,0.377566 FootLeft:0.000000,0.000000,0.000000,0.000000 FootRight:0.000000,0.000000,0.000000,0.000000 HandLeft:-0.133765,0.839495,-0.043000,0.524886 HandRight:0.379920,-0.029020,-0.369895,0.847346 HandTipLeft:0.000000,0.000000,0.000000,0.000000 HandTipRight:0.000000,0.000000,0.000000,0.000000 Head:0.000000,0.000000,0.000000,0.000000 HipLeft:0.098540,-0.670438,0.721625,-0.141633 HipRight:-0.171743,0.682805,0.681590,-0.199290 KneeLeft:0.011713,-0.671309,0.044140,0.739769 KneeRight:0.002945,0.741479,0.048248,0.669232 Neck:-0.069975,0.019965,0.994845,-0.070627 ShoulderLeft:0.058886,0.763470,-0.643147,-0.002760 ShoulderRight:-0.030184,0.806151,0.581776,-0.103666 SpineBase:-0.049034,0.019130,0.998128,-0.031155 SpineMid:-0.059123,0.019444,0.997581,-0.030960 SpineShoulder:-0.069704,0.019788,0.996117,-0.050002 ThumbLeft:0.000000,0.000000,0.000000,0.000000 ThumbRight:0.000000,0.000000,0.000000,0.000000 WristLeft:-0.122739,0.843274,-0.111533,0.511257 WristRight:0.266010,-0.070679,-0.340153,0.899188 END:
KINECT_DATA POSITION:3.087041,0.873638,-13.338911 HEAD_JOINT1:0.988558,0.141007,-0.000000,0.053574 LARM_JOINT2:0.811997,0.000000,0.001532,-0.583660 LARM_JOINT3:0.962686,0.000000,-0.207981,-0.173147 LLEG_JOINT2:0.999586,0.022348,0.000000,0.018105 LLEG_JOINT4:0.996341,0.083869,0.000000,-0.016465 RARM_JOINT2:0.791966,0.000000,0.161382,0.588852 RARM_JOINT3:0.890062,0.000000,0.401047,0.216683 RLEG_JOINT2:0.997887,0.039046,0.000000,-0.051928 RLEG_JOINT4:0.994904,0.089567,0.000000,0.046308 WAIST:0.998530,-0.000000,0.049497,0.022095 WAIST_JOINT0:0.996575,-0.000000,0.072531,0.039726 WAIST_JOINT1:0.998507,0.054624,-0.000000,0.000053 END:
KINECT_DATA_Sensor  AnkleLeft:0.072045,0.747730,-0.079851,-0.655235 AnkleRight:0.099195,0.745471,0.081386,0.654072 ElbowLeft:-0.028243,0.847771,-0.188760,-0.494829 ElbowRight:-0.118495,0.920015,0.058805,0.368882 FootLeft:0.000000,0.000000,0.000000,0.000000 FootRight:0.000000,0.000000,0.000000,0.000000 HandLeft:-0.129716,0.867487,-0.016764,0.479957 HandRight:0.287121,0.179110,-0.450317,0.826254 HandTipLeft:0.000000,0.000000,0.000000,0.000000 HandTipRight:0.000000,0.000000,0.000000,0.000000 Head:0.000000,0.000000,0.000000,0.000000 HipLeft:0.098040,-0.669299,0.722977,-0.140469 HipRight:-0.172580,0.684061,0.679990,-0.199726 KneeLeft:0.011188,-0.670449,0.044035,0.740563 KneeRight:0.003409,0.742279,0.048186,0.668348 Neck:-0.075079,0.021136,0.994535,-0.069399 ShoulderLeft:0.060080,0.762441,-0.644235,-0.005959 ShoulderRight:-0.035580,0.807713,0.578463,-0.108238 SpineBase:-0.050174,0.019874,0.998073,-0.030633 SpineMid:-0.062229,0.020242,0.997394,-0.030391 SpineShoulder:-0.074828,0.020603,0.995773,-0.049112 ThumbLeft:0.000000,0.000000,0.000000,0.000000 ThumbRight:0.000000,0.000000,0.000000,0.000000 WristLeft:-0.124134,0.871322,-0.108159,0.462267 WristRight:0.175941,0.140828,-0.386226,0.894450 END:
KINECT_DATA POSITION:3.089409,0.866682,-13.312244 HEAD_JOINT1:0.988297,0.142195,-0.000000,0.055226 LARM_JOINT2:0.811675,0.000000,0.002353,-0.584105 LARM_JOINT3:0.959990,0.000000,-0.217857,-0.175947 LLEG_JOINT2:0.999586,0.022955,0.000000,0.017343 LLEG_JOINT4:0.996178,0.085162,0.000000,-0.019409 RARM_JOINT2:0.794838,0.000000,0.145399,0.589145 RARM_JOINT3:0.883968,0.000000,0.404436,0.234592 RLEG_JOINT2:0.997819,0.039336,0.000000,-0.053001 RLEG_JOINT4:0.994822,0.089207,0.000000,0.048690 WAIST:0.998556,-0.000000,0.048673,0.022749 WAIST_JOINT0:0.996637,-0.000000,0.071799,0.039500 WAIST_JOINT1:0.998517,0.054436,0.000000,-0.000739 END:
KINECT_DATA_Sensor  AnkleLeft:0.072383,0.723852,-0.081179,-0.681328 AnkleRight:0.100993,0.747843,0.079434,0.651323 ElbowLeft:-0.027477,0.848727,-0.188357,-0.493385 ElbowRight:-0.110153,0.917465,0.067944,0.376176 FootLeft:0.000000,0.000000,0.000000,0.000000 FootRight:0.000000,0.000000,0.000000,0.000000 HandLeft:-0.163364,0.839219,-0.034454,0.517529 HandRight:0.416822,-0.036678,-0.328003,0.846953 HandTipLeft:0.000000,0.000000,0.000000,0.000000 HandTipRight:0.000000,0.000000,0.000000,0.000000 Head:0.000000,0.000000,0.000000,0.000000 HipLeft:0.098705,-0.668816,0.723315,-0.140566 HipRight:-0.172098,0.684653,0.679703,-0.199088 KneeLeft:0.010713,-0.671022,0.044344,0.740032 KneeRight:0.003325,0.741760,0.048670,0.668888 Neck:-0.074294,0.020943,0.994611,-0.069212 ShoulderLeft:0.059959,0.762263,-0.644457,-0.005913 ShoulderRight:-0.034697,0.807231,0.579403,-0.107078 SpineBase:-0.049383,0.019904,0.998121,-0.030312 SpineMid:-0.061434,0.020269,0.997452,-0.030069 SpineShoulder:-0.074032,0.020546,0.995845,-0.048878 ThumbLeft:0.000000,0.000000,0.000000,0.000000 ThumbRight:0.000000,0.000000,0.000000,0.000000 WristLeft:-0.120846,0.850685,-0.111833,0.499225 WristRight:0.271334,-0.093374,-0.331483,0.898765 END:
KINECT_DATA POSITION:3.025136,0.877222,-13.311708 HEAD_JOINT1:0.988054,0.143059,-0.000000,0.057311 LARM_JOINT2:0.811107,0.000000,-0.000150,-0.584898 LARM_JOINT3:0.959491,0.000000,-0.219148,-0.177065 LLEG_JOINT2:0.999609,0.022017,0.000000,0.017236 LLEG_JOINT4:0.996220,0.085351,0.000000,-0.016183 RARM_JOINT2:0.800769,0.000000,0.121163,0.586590 RARM_JOINT3:0.869019,0.000000,0.422584,0.257350 RLEG_JOINT2:0.997874,0.038434,0.000000,-0.052639 RLEG_JOINT4:0.994495,0.091920,0.000000,0.050298 WAIST:0.998649,-0.000000,0.046897,0.022391 WAIST_JOINT0:0.997048,-0.000000,0.066953,0.037590 WAIST_JOINT1:0.998513,0.054509,0.000000,-0.000848 END:
KINECT_DATA_Sensor  AnkleLeft:0.071359,0.736159,-0.081933,-0.668031 AnkleRight:0.101187,0.726674,0.082519,0.674460 ElbowLeft:-0.028148,0.852056,-0.186339,-0.488349 ElbowRight:-0.098583,0.914135,0.085143,0.383914 FootLeft:0.000000,0.000000,0.000000,0.000000 FootRight:0.000000,0.000000,0.000000,0.000000 HandLeft:-0.170896,0.829098,-0.038155,0.530976 HandRight:0.463906,-0.125200,-0.284862,0.829439 HandTipLeft:0.000000,0.000000,0.000000,0.000000 HandTipRight:0.000000,0.000000,0.000000,0.000000 Head:0.000000,0.000000,0.000000,0.000000 HipLeft:0.099235,-0.668923,0.723049,-0.141048 HipRight:-0.170264,0.684806,0.680427,-0.197659 KneeLeft:0.011133,-0.672367,0.043390,0.738861 KneeRight:0.002845,0.740532,0.048035,0.670297 Neck:-0.069294,0.020244,0.994967,-0.069492 ShoulderLeft:0.058984,0.762726,-0.644015,-0.003820 ShoulderRight:-0.029219,0.805774,0.582712,-0.101593 SpineBase:-0.047604,0.019472,0.998213,-0.030430 SpineMid:-0.058060,0.019790,0.997659,-0.030225 SpineShoulder:-0.069018,0.020051,0.996210,-0.048983 ThumbLeft:0.000000,0.000000,0.000000,0.000000 ThumbRight:0.000000,0.000000,0.000000,0.000000 WristLeft:-0.121991,0.842152,-0.111090,0.513378 WristRight:0.309520,-0.186240,-0.305597,0.880978 END:
KINECT_DATA POSITION:2.951539,0.883742,-13.318169 HEAD_JOINT1:0.988048,0.142987,-0.000000,0.057581 LARM_JOINT2:0.811306,0.000000,-0.001070,-0.584621 LARM_JOINT3:0.961753,0.000000,-0.214270,-0.170646 LLEG_JOINT2:0.999571,0.022892,0.000000,0.018284 LLEG_JOINT4:0.996505,0.081791,0.000000,-0.016992 RARM_JOINT2:0.801754,0.000000,0.121987,0.585073 RARM_JOINT3:0.863393,0.000000,0.429303,0.265051 RLEG_JOINT2:0.997878,0.039380,0.000000,-0.051850 RLEG_JOINT4:0.994854,0.088445,0.000000,0.049432 WAIST:0.998679,-0.000000,0.046483,0.021903 WAIST_JOINT0:0.997080,-0.000000,0.066491,0.037562 WAIST_JOINT1:0.998511,0.054553,0.000000,-0.000622 END:
KINECT_DATA_Sensor  AnkleLeft:-0.061303,-0.669028,0.086490,0.735638 AnkleRight:0.098420,0.720800,0.081875,0.681218 ElbowLeft:-0.028957,0.852112,-0.186097,-0.488298 ElbowRight:-0.099769,0.915357,0.086918,0.380280 FootLeft:0.000000,0.000000,0.000000,0.000000 FootRight:0.000000,0.000000,0.000000,0.000000 HandLeft:-0.141325,0.801019,-0.053778,0.579226 HandRight:0.441756,-0.033716,-0.342873,0.828344 HandTipLeft:0.000000,0.000000,0.000000,0.000000 HandTipRight:0.000000,0.000000,0.000000,0.000000 Head:0.000000,0.000000,0.000000,0.000000 HipLeft:0.099275,-0.669243,0.722723,-0.141174 HipRight:-0.169859,0.684587,0.680839,-0.197352 KneeLeft:0.010856,-0.672673,0.044411,0.738526 KneeRight:0.003749,0.740249,0.048552,0.670567 Neck:-0.068890,0.019891,0.994991,-0.069646 ShoulderLeft:0.057991,0.762976,-0.643814,-0.002886 ShoulderRight:-0.029699,0.806038,0.582283,-0.101816 SpineBase:-0.047169,0.019252,0.998235,-0.030509 SpineMid:-0.057637,0.019571,0.997686,-0.030306 SpineShoulder:-0.068604,0.019848,0.996241,-0.049015 ThumbLeft:0.000000,0.000000,0.000000,0.000000 ThumbRight:0.000000,0.000000,0.000000,0.000000 WristLeft:-0.114723,0.808334,-0.119046,0.565033 WristRight:0.281732,-0.097114,-0.334768,0.893939 END:
KINECT_DATA POSITION:2.899486,0.874722,-13.360823 HEAD_JOINT1:0.988407,0.141482,-0.000000,0.055086 LARM_JOINT2:0.812513,0.000000,0.003235,-0.582934 LARM_JOINT3:0.963499,0.000000,-0.210554,-0.165337 LLEG_JOINT2:0.999545,0.021683,0.000000,0.020952 LLEG_JOINT4:0.995966,0.087647,0.000000,-0.019246 RARM_JOINT2:0.799099,0.000000,0.155620,0.580709 RARM_JOINT3:0.870370,0.000000,0.417757,0.260644 RLEG_JOINT2:0.998054,0.037444,0.000000,-0.049871 RLEG_JOINT4:0.994666,0.091338,0.000000,0.047935 WAIST:0.998569,-0.000000,0.049208,0.020956 WAIST_JOINT0:0.996623,-0.000000,0.072507,0.038541 WAIST_JOINT1:0.998490,0.054921,-0.000000,0.001069 END:
KINECT_DATA_Sensor  AnkleLeft:0.070649,0.710120,-0.084847,-0.695370 AnkleRight:0.097980,0.718511,0.083748,0.683468 ElbowLeft:-0.028215,0.844694,-0.189994,-0.499598 ElbowRight:-0.119255,0.926753,0.073556,0.348563 FootLeft:0.000000,0.000000,0.000000,0.000000 FootRight:0.000000,0.000000,0.000000,0.000000 HandLeft:-0.116756,0.830068,-0.047723,0.543210 HandRight:0.420904,0.029965,-0.374878,0.825474 HandTipLeft:0.000000,0.000000,0.000000,0.000000 HandTipRight:0.000000,0.000000,0.000000,0.000000 Head:0.000000,0.000000,0.000000,0.000000 HipLeft:0.097439,-0.670125,0.722316,-0.140345 HipRight:-0.171539,0.683587,0.680949,-0.198976 KneeLeft:0.012791,-0.670701,0.044896,0.740257 KneeRight:0.003064,0.741999,0.046426,0.668784 Neck:-0.074956,0.020766,0.994498,-0.070166 ShoulderLeft:0.060364,0.762558,-0.644071,-0.005914 ShoulderRight:-0.035190,0.806246,0.580549,-0.108130 SpineBase:-0.049829,0.019554,0.998087,-0.030930 SpineMid:-0.061992,0.019929,0.997406,-0.030689 SpineShoulder:-0.074674,0.020586,0.995775,-0.049325 ThumbLeft:0.000000,0.000000,0.000000,0.000000 ThumbRight:0.000000,0.000000,0.000000,0.000000 WristLeft:-0.113681,0.831975,-0.120292,0.529551 WristRight:0.269406,-0.027459,-0.343697,0.899188 END:
KINECT_DATA POSITION:2.849968,0.871436,-13.394451 HEAD_JOINT1:0.988892,0.139772,-0.000000,0.050566 LARM_JOINT2:0.812371,0.000000,0.004391,-0.583124 LARM_JOINT3:0.962364,0.000000,-0.213444,-0.168217 LLEG_JOINT2:0.999493,0.019878,0.000000,0.024860 LLEG_JOINT4:0.995858,0.087268,0.000000,-0.025498 RARM_JOINT2:0.789289,0.000000,0.190003,0.583885 RARM_JOINT3:0.888194,0.000000,0.391707,0.240163 RLEG_JOINT2:0.998156,0.037138,0.000000,-0.048013 RLEG_JOINT4:0.994696,0.090898,0.000000,0.048145 WAIST:0.998244,-0.000000,0.055931,0.019517 WAIST_JOINT0:0.995574,-0.000000,0.083977,0.042204 WAIST_JOINT1:0.998453,0.055452,-0.000000,0.004106 END:
KINECT_DATA_Sensor  AnkleLeft:-0.066449,-0.658559,0.084492,0.744813 AnkleRight:0.099072,0.737026,0.081357,0.663595 ElbowLeft:-0.027597,0.837438,-0.191780,-0.511036 ElbowRight:-0.133971,0.935536,0.048656,0.323199 FootLeft:0.000000,0.000000,0.000000,0.000000 FootRight:0.000000,0.000000,0.000000,0.000000 HandLeft:-0.125109,0.813619,-0.041547,0.566256 HandRight:0.400920,0.042578,-0.360240,0.841235 HandTipLeft:0.000000,0.000000,0.000000,0.000000 HandTipRight:0.000000,0.000000,0.000000,0.000000 Head:0.000000,0.000000,0.000000,0.000000 HipLeft:0.093136,-0.671758,0.721922,-0.137462 HipRight:-0.175601,0.681733,0.680719,-0.202548 KneeLeft:0.015516,-0.665770,0.045579,0.744602 KneeRight:0.002815,0.746424,0.045895,0.663880 Neck:-0.086639,0.022578,0.993459,-0.070881 ShoulderLeft:0.067258,0.760028,-0.646262,-0.013389 ShoulderRight:-0.043318,0.807258,0.576539,-0.118577 SpineBase:-0.056439,0.020157,0.997710,-0.031371 SpineMid:-0.071135,0.020617,0.996769,-0.031071 SpineShoulder:-0.086378,0.021974,0.994773,-0.049819 ThumbLeft:0.000000,0.000000,0.000000,0.000000 ThumbRight:0.000000,0.000000,0.000000,0.000000 WristLeft:-0.108564,0.819554,-0.128133,0.547839 WristRight:0.269502,-0.004648,-0.338102,0.901684 END:
KINECT_DATA POSITION:2.840387,0.846916,-13.409758 HEAD_JOINT1:0.988868,0.140509,-0.000000,0.048954 LARM_JOINT2:0.811797,0.000000,0.004958,-0.583919 LARM_JOINT3:0.960282,0.000000,-0.220472,-0.171027 LLEG_JOINT2:0.999453,0.019522,0.000000,0.026690 LLEG_JOINT4:0.995928,0.086651,0.000000,-0.024862 RARM_JOINT2:0.788527,0.000000,0.191460,0.584439 RARM_JOINT3:0.889381,0.000000,0.389548,0.239276 RLEG_JOINT2:0.998163,0.038169,0.000000,-0.047050 RLEG_JOINT4:0.994621,0.090606,0.000000,0.050190 WAIST:0.998143,-0.000000,0.058112,0.018278 WAIST_JOINT0:0.995317,-0.000000,0.086537,0.043067 WAIST_JOINT1:0.998450,0.055379,-0.000000,0.005606 END:
KINECT_DATA_Sensor  AnkleLeft:0.071346,0.711735,-0.079454,-0.694284 AnkleRight:0.102737,0.754778,0.078386,0.643125 ElbowLeft:-0.026754,0.835726,-0.191343,-0.514038 ElbowRight:-0.134274,0.936970,0.046896,0.319153 FootLeft:0.000000,0.000000,0.000000,0.000000 FootRight:0.000000,0.000000,0.000000,0.000000 HandLeft:-0.152282,0.819992,-0.044122,0.549979 HandRight:0.402986,0.039083,-0.356330,0.842083 HandTipLeft:0.000000,0.000000,0.000000,0.000000 HandTipRight:0.000000,0.000000,0.000000,0.000000 Head:0.000000,0.000000,0.000000,0.000000 HipLeft:0.092110,-0.672804,0.721169,-0.136989 HipRight:-0.177272,0.680509,0.680989,-0.204295 KneeLeft:0.016050,-0.664200,0.045838,0.745976 KneeRight:0.003218,0.747846,0.046876,0.662208 Neck:-0.089294,0.022711,0.993223,-0.070840 ShoulderLeft:0.068114,0.759856,-0.646346,-0.014689 ShoulderRight:-0.045852,0.807957,0.574792,-0.121318 SpineBase:-0.058533,0.020336,0.997582,-0.031469 SpineMid:-0.073503,0.020806,0.996591,-0.031160 SpineShoulder:-0.089030,0.022162,0.994535,-0.049832 ThumbLeft:0.000000,0.000000,0.000000,0.000000 ThumbRight:0.000000,0.000000,0.000000,0.000000 WristLeft:-0.111590,0.831041,-0.126203,0.530086 WristRight:0.272996,-0.006925,-0.334852,0.901831 END:
KINECT_DATA POSITION:2.805738,0.852275,-13.433277 HEAD_JOINT1:0.989427,0.138231,-0.000000,0.043900 LARM_JOINT2:0.811762,0.000000,0.003933,-0.583976 LARM_JOINT3:0.959430,0.000000,-0.223197,-0.172270 LLEG_JOINT2:0.999425,0.018718,0.000000,0.028282 LLEG_JOINT4:0.996275,0.084159,0.000000,-0.018815 RARM_JOINT2:0.791397,0.000000,0.190952,0.580714 RARM_JOINT3:0.878957,0.000000,0.413188,0.238141 RLEG_JOINT2:0.998285,0.037678,0.000000,-0.044796 RLEG_JOINT4:0.994291,0.093685,0.000000,0.051070 WAIST:0.998085,-0.000000,0.059542,0.016759 WAIST_JOINT0:0.995375,-0.000000,0.086353,0.042096 WAIST_JOINT1:0.998477,0.054843,-0.000000,0.005946 END:
KINECT_DATA_Sensor  AnkleLeft:-0.059002,-0.658382,0.086830,0.745327 AnkleRight:0.101262,0.720249,0.084840,0.681021 ElbowLeft:-0.026573,0.836846,-0.189806,-0.512793 ElbowRight:-0.138046,0.933905,0.050415,0.325919 FootLeft:0.000000,0.000000,0.000000,0.000000 FootRight:0.000000,0.000000,0.000000,0.000000 HandLeft:-0.148375,0.675007,-0.085065,0.717715 HandRight:0.435501,0.011371,-0.374321,0.818593 HandTipLeft:0.000000,0.000000,0.000000,0.000000 HandTipRight:0.000000,0.000000,0.000000,0.000000 Head:0.000000,0.000000,0.000000,0.000000 HipLeft:0.091640,-0.673669,0.720521,-0.136460 HipRight:-0.178502,0.678949,0.681923,-0.205298 KneeLeft:0.016585,-0.663198,0.045427,0.746880 KneeRight:0.003416,0.748712,0.046071,0.661283 Neck:-0.089099,0.020757,0.993326,-0.070244 ShoulderLeft:0.067399,0.760472,-0.645699,-0.014543 ShoulderRight:-0.046259,0.807417,0.575559,-0.121120 SpineBase:-0.059886,0.019635,0.997515,-0.031502 SpineMid:-0.074073,0.020081,0.996562,-0.031219 SpineShoulder:-0.088800,0.021040,0.994599,-0.049444 ThumbLeft:0.000000,0.000000,0.000000,0.000000 ThumbRight:0.000000,0.000000,0.000000,0.000000 WristLeft:-0.080368,0.679944,-0.148331,0.713593 WristRight:0.290337,-0.041603,-0.335833,0.895092 END:
KINECT_DATA POSITION:2.838015,0.879760,-13.419617 HEAD_JOINT1:0.990085,0.134285,-0.000000,0.041233 LARM_JOINT2:0.810452,0.000000,0.001212,-0.585804 LARM_JOINT3:0.958520,0.000000,-0.227897,-0.171182 LLEG_JOINT2:0.999438,0.018080,0.000000,0.028237 LLEG_JOINT4:0.996017,0.087207,0.000000,-0.018599 RARM_JOINT2:0.797062,0.000000,0.188302,0.573790 RARM_JOINT3:0.872874,0.000000,0.426974,0.236185 RLEG_JOINT2:0.998354,0.035814,0.000000,-0.044790 RLEG_JOINT4:0.994399,0.092826,0.000000,0.050529 WAIST:0.998109,-0.000000,0.059352,0.015969 WAIST_JOINT0:0.995564,-0.000000,0.085207,0.039911 WAIST_JOINT1:0.998588,0.052948,-0.000000,0.004263 END:
KINECT_DATA_Sensor  AnkleLeft:0.069692,0.729202,-0.081472,-0.675847 AnkleRight:0.099208,0.725624,0.082868,0.675840 ElbowLeft:-0.027758,0.839272,-0.183993,-0.510880 ElbowRight:-0.144721,0.929688,0.059266,0.333503 FootLeft:0.000000,0.000000,0.000000,0.000000 FootRight:0.000000,0.000000,0.000000,0.000000 HandLeft:-0.185033,0.855841,-0.048403,0.480578 HandRight:0.415717,0.006515,-0.382401,0.825171 HandTipLeft:0.000000,0.000000,0.000000,0.000000 HandTipRight:0.000000,0.000000,0.000000,0.000000 Head:0.000000,0.000000,0.000000,0.000000 HipLeft:0.092666,-0.674202,0.720068,-0.135523 HipRight:-0.178889,0.678398,0.682533,-0.204752 KneeLeft:0.016483,-0.663366,0.044410,0.746795 KneeRight:0.001631,0.748516,0.045236,0.661570 Neck:-0.087586,0.018185,0.993659,-0.068120 ShoulderLeft:0.063830,0.763396,-0.642617,-0.013969 ShoulderRight:-0.047819,0.807168,0.576085,-0.119662 SpineBase:-0.059677,0.018414,0.997585,-0.030396 SpineMid:-0.073221,0.018825,0.996682,-0.030143 SpineShoulder:-0.087325,0.018610,0.994867,-0.047616 ThumbLeft:0.000000,0.000000,0.000000,0.000000 ThumbRight:0.000000,0.000000,0.000000,0.000000 WristLeft:-0.128875,0.869176,-0.112501,0.463969 WristRight:0.294054,-0.039403,-0.352014,0.887731 END:
KINECT_DATA POSITION:2.873508,0.874524,-13.337612 HEAD_JOINT1:0.990357,0.132040,-0.000000,0.041929 LARM_JOINT2:0.811353,0.000000,0.001339,-0.584555 LARM_JOINT3:0.958350,0.000000,-0.227953,-0.172054 LLEG_JOINT2:0.999483,0.018309,0.000000,0.026430 LLEG_JOINT4:0.995965,0.088336,0.000000,-0.015825 RARM_JOINT2:0.818560,0.000000,0.237563,0.522995 RARM_JOINT3:0.863100,0.000000,0.449641,0.229960 RLEG_JOINT2:0.998338,0.035939,0.000000,-0.045051 RLEG_JOINT4:0.993913,0.096871,0.000000,0.052465 WAIST:0.998370,-0.000000,0.054991,0.015279 WAIST_JOINT0:0.996155,-0.000000,0.079400,0.037032 WAIST_JOINT1:0.998742,0.050125,-0.000000,0.001293 END:
KINECT_DATA_Sensor  AnkleLeft:0.071803,0.743886,-0.081624,-0.659405 AnkleRight:0.103794,0.727559,0.084155,0.672907 ElbowLeft:-0.029700,0.842726,-0.180956,-0.506148 ElbowRight:-0.205256,0.933383,0.085552,0.281686 FootLeft:0.000000,0.000000,0.000000,0.000000 FootRight:0.000000,0.000000,0.000000,0.000000 HandLeft:-0.184979,0.783662,-0.073012,0.588495 HandRight:0.325597,0.043486,-0.453287,0.828630 HandTipLeft:0.000000,0.000000,0.000000,0.000000 HandTipRight:0.000000,0.000000,0.000000,0.000000 Head:0.000000,0.000000,0.000000,0.000000 HipLeft:0.096778,-0.674644,0.718993,-0.136159 HipRight:-0.177339,0.678800,0.683372,-0.201948 KneeLeft:0.014768,-0.666644,0.042705,0.744006 KneeRight:0.001280,0.745585,0.046033,0.664817 Neck:-0.081508,0.014660,0.994451,-0.064880 ShoulderLeft:0.056279,0.767447,-0.638554,-0.010328 ShoulderRight:-0.047448,0.808131,0.575879,-0.114180 SpineBase:-0.055324,0.016456,0.997927,-0.028462 SpineMid:-0.068024,0.016817,0.997142,-0.028251 SpineShoulder:-0.081297,0.015215,0.995563,-0.044864 ThumbLeft:0.000000,0.000000,0.000000,0.000000 ThumbRight:0.000000,0.000000,0.000000,0.000000 WristLeft:-0.116077,0.800402,-0.126670,0.574315 WristRight:0.300166,0.051877,-0.394829,0.866787 END:
KINECT_DATA POSITION:3.236691,0.902760,-13.143242 HEAD_JOINT1:0.990516,0.128739,-0.000000,0.048004 LARM_JOINT2:0.813185,0.000000,-0.002517,-0.582000 LARM_JOINT3:0.958291,0.000000,-0.225310,-0.175826 LLEG_JOINT2:0.999582,0.024364,0.000000,0.015558 LLEG_JOINT4:0.996354,0.084850,0.000000,-0.008887 RARM_JOINT2:0.836040,0.000000,0.323949,0.442825 RARM_JOINT3:0.909159,0.000000,0.398271,0.121700 RLEG_JOINT2:0.997984,0.037678,0.000000,-0.051076 RLEG_JOINT4:0.993912,0.094078,0.000000,0.057351 WAIST:0.998946,-0.000000,0.042339,0.017707 WAIST_JOINT0:0.996866,-0.000000,0.070543,0.035812 WAIST_JOINT1:0.998930,0.046174,0.000000,-0.002473 END:
KINECT_DATA_Sensor  AnkleLeft:0.071889,0.737617,-0.084538,-0.666038 AnkleRight:0.105157,0.718794,0.081239,0.682406 ElbowLeft:-0.035214,0.859300,-0.179947,-0.477475 ElbowRight:-0.305935,0.902167,0.085205,0.291956 FootLeft:0.000000,0.000000,0.000000,0.000000 FootRight:0.000000,0.000000,0.000000,0.000000 HandLeft:-0.188535,0.791894,-0.078081,0.575554 HandRight:0.230465,0.005033,-0.520117,0.822398 HandTipLeft:0.000000,0.000000,0.000000,0.000000 HandTipRight:0.000000,0.000000,0.000000,0.000000 Head:0.000000,0.000000,0.000000,0.000000 HipLeft:0.104368,-0.672882,0.719472,-0.136736 HipRight:-0.169334,0.683681,0.683901,-0.190226 KneeLeft:0.005085,-0.675920,0.040454,0.735846 KneeRight:0.000469,0.737213,0.049795,0.673823 Neck:-0.071965,0.014268,0.995464,-0.060567 ShoulderLeft:0.043481,0.772362,-0.633682,-0.003684 ShoulderRight:-0.048095,0.810317,0.574262,-0.106285 SpineBase:-0.042776,0.015699,0.998674,-0.023945 SpineMid:-0.056963,0.016038,0.997966,-0.023720 SpineShoulder:-0.071757,0.014682,0.996479,-0.040806 ThumbLeft:0.000000,0.000000,0.000000,0.000000 ThumbRight:0.000000,0.000000,0.000000,0.000000 WristLeft:-0.126800,0.806119,-0.116833,0.566077 WristRight:0.209822,0.011250,-0.441966,0.872075 END:
KINECT_DATA POSITION:3.168340,0.942373,-13.240993 HEAD_JOINT1:0.990785,0.125626,-0.000000,0.050620 LARM_JOINT2:0.815078,0.000000,-0.002443,-0.579346 LARM_JOINT3:0.958969,0.000000,-0.222060,-0.176260 LLEG_JOINT2:0.999507,0.023598,0.000000,0.020729 LLEG_JOINT4:0.996157,0.086541,0.000000,-0.013513 RARM_JOINT2:0.835159,0.000000,0.432332,0.339998 RARM_JOINT3:0.941248,0.000000,0.320143,0.107522 RLEG_JOINT2:0.998515,0.032800,0.000000,-0.043502 RLEG_JOINT4:0.994131,0.094817,0.000000,0.052096 WAIST:0.999357,-0.000000,0.033448,0.012946 WAIST_JOINT0:0.997173,-0.000000,0.066809,0.034383 WAIST_JOINT1:0.998979,0.045180,-0.000000,0.000140 END:
KINECT_DATA_Sensor  AnkleLeft:0.073162,0.731343,-0.083941,-0.672859 AnkleRight:0.103806,0.733084,0.076154,0.667842 ElbowLeft:-0.038859,0.860958,-0.180140,-0.474121 ElbowRight:-0.409867,0.889583,0.108880,0.169694 FootLeft:0.000000,0.000000,0.000000,0.000000 FootRight:0.000000,0.000000,0.000000,0.000000 HandLeft:-0.170558,0.781530,-0.063875,0.596692 HandRight:-0.543556,0.819319,-0.139383,-0.117624 HandTipLeft:0.000000,0.000000,0.000000,0.000000 HandTipRight:0.000000,0.000000,0.000000,0.000000 Head:0.000000,0.000000,0.000000,0.000000 HipLeft:0.107968,-0.675054,0.716533,-0.138660 HipRight:-0.161652,0.682297,0.689544,-0.181296 KneeLeft:0.006055,-0.682614,0.040408,0.729636 KneeRight:-0.000161,0.730914,0.044525,0.681016 Neck:-0.068106,0.012732,0.995794,-0.059955 ShoulderLeft:0.037027,0.773831,-0.632308,0.001094 ShoulderRight:-0.049828,0.809867,0.575006,-0.104884 SpineBase:-0.033701,0.013701,0.999074,-0.022955 SpineMid:-0.050496,0.014085,0.998366,-0.022721 SpineShoulder:-0.067915,0.013208,0.996808,-0.039834 ThumbLeft:0.000000,0.000000,0.000000,0.000000 ThumbRight:0.000000,0.000000,0.000000,0.000000 WristLeft:-0.129614,0.792824,-0.121180,0.583049 WristRight:-0.465806,0.871363,-0.106198,-0.111681 END:
KINECT_DATA POSITION:3.041128,0.981345,-13.409889 HEAD_JOINT1:0.990511,0.125456,-0.000000,0.056113 LARM_JOINT2:0.817251,0.000000,-0.001296,-0.576280 LARM_JOINT3:0.961343,0.000000,-0.212646,-0.174934 LLEG_JOINT2:0.999454,0.021587,0.000000,0.025002 LLEG_JOINT4:0.996050,0.087154,0.000000,-0.016961 RARM_JOINT2:0.830093,0.000000,0.400615,0.387883 RARM_JOINT3:0.939296,0.000000,0.340149,-0.044972 RLEG_JOINT2:0.998682,0.032425,0.000000,-0.039785 RLEG_JOINT4:0.994174,0.094216,0.000000,0.052365 WAIST:0.999453,-0.000000,0.031525,0.009988 WAIST_JOINT0:0.997136,-0.000000,0.068568,0.031896 WAIST_JOINT1:0.998944,0.045911,-0.000000,0.001813 END:
KINECT_DATA_Sensor  AnkleLeft:-0.065469,-0.667428,0.088059,0.736546 AnkleRight:0.103266,0.724379,0.075769,0.677399 ElbowLeft:-0.039190,0.860312,-0.182896,-0.474211 ElbowRight:-0.375615,0.744350,-0.060138,0.548853 FootLeft:0.000000,0.000000,0.000000,0.000000 FootRight:0.000000,0.000000,0.000000,0.000000 HandLeft:-0.137843,0.821748,-0.037302,0.551668 HandRight:-0.489847,0.861338,-0.110596,-0.076909 HandTipLeft:0.000000,0.000000,0.000000,0.000000 HandTipRight:0.000000,0.000000,0.000000,0.000000 Head:0.000000,0.000000,0.000000,0.000000 HipLeft:0.108764,-0.677245,0.714094,-0.139928 HipRight:-0.159821,0.680929,0.691494,-0.180636 KneeLeft:0.008412,-0.684127,0.040064,0.728213 KneeRight:0.000300,0.729476,0.043815,0.682601 Neck:-0.070123,0.011851,0.995617,-0.060747 ShoulderLeft:0.034580,0.774579,-0.631523,0.003346 ShoulderRight:-0.055148,0.808239,0.575837,-0.110092 SpineBase:-0.031690,0.011803,0.999152,-0.023501 SpineMid:-0.050519,0.012244,0.998377,-0.023274 SpineShoulder:-0.069965,0.012161,0.996648,-0.040609 ThumbLeft:0.000000,0.000000,0.000000,0.000000 ThumbRight:0.000000,0.000000,0.000000,0.000000 WristLeft:-0.134305,0.825691,-0.115083,0.535680 WristRight:-0.649026,0.760464,-0.013358,-0.016780 END:
KINECT_DATA POSITION:2.978542,1.023088,-13.515520 HEAD_JOINT1:0.990325,0.126561,-0.000000,0.056903 LARM_JOINT2:0.817397,0.000000,0.001842,-0.576071 LARM_JOINT3:0.961714,0.000000,-0.209431,-0.176760 LLEG_JOINT2:0.999442,0.019408,0.000000,0.027188 LLEG_JOINT4:0.995821,0.089839,0.000000,-0.016419 RARM_JOINT2:0.791688,0.000000,0.555254,0.254799 RARM_JOINT3:0.988427,0.000000,0.151230,-0.011901 RLEG_JOINT2:0.998755,0.032626,0.000000,-0.037744 RLEG_JOINT4:0.994359,0.092694,0.000000,0.051561 WAIST:0.999387,-0.000000,0.033875,0.008831 WAIST_JOINT0:0.996814,-0.000000,0.074408,0.028738 WAIST_JOINT1:0.998919,0.046400,-0.000000,0.002957 END:
KINECT_DATA_Sensor  AnkleLeft:0.074678,0.744874,-0.081461,-0.657989 AnkleRight:0.101681,0.721043,0.075785,0.681186 ElbowLeft:-0.036065,0.859111,-0.184531,-0.476000 ElbowRight:-0.505460,0.848266,0.015367,0.157219 FootLeft:0.000000,0.000000,0.000000,0.000000 FootRight:0.000000,0.000000,0.000000,0.000000 HandLeft:-0.130555,0.804381,-0.032980,0.578653 HandRight:-0.009777,0.040635,-0.665023,0.745652 HandTipLeft:0.000000,0.000000,0.000000,0.000000 HandTipRight:0.000000,0.000000,0.000000,0.000000 Head:0.000000,0.000000,0.000000,0.000000 HipLeft:0.107252,-0.678554,0.713258,-0.139012 HipRight:-0.161191,0.680103,0.691571,-0.182229 KneeLeft:0.010600,-0.682456,0.039361,0.729789 KneeRight:0.000990,0.731041,0.043369,0.680954 Neck:-0.076388,0.012028,0.995119,-0.061307 ShoulderLeft:0.035919,0.774004,-0.632160,0.001330 ShoulderRight:-0.062198,0.804831,0.578371,-0.117753 SpineBase:-0.033991,0.011514,0.999074,-0.023750 SpineMid:-0.054797,0.012006,0.998149,-0.023505 SpineShoulder:-0.076248,0.012194,0.996168,-0.041069 ThumbLeft:0.000000,0.000000,0.000000,0.000000 ThumbRight:0.000000,0.000000,0.000000,0.000000 WristLeft:-0.126623,0.809384,-0.118209,0.561151 WristRight:0.011674,0.069239,-0.533545,0.842852 END:
KINECT_DATA POSITION:2.928998,1.078220,-13.669073 HEAD_JOINT1:0.990154,0.128108,-0.000000,0.056419 LARM_JOINT2:0.815744,0.000000,-0.000511,-0.578414 LARM_JOINT3:0.961718,0.000000,-0.207602,-0.178886 LLEG_JOINT2:0.999475,0.016397,0.000000,0.027954 LLEG_JOINT4:0.995525,0.093351,0.000000,-0.014671 RARM_JOINT2:0.821553,0.000000,0.495793,0.281496 RARM_JOINT3:0.966577,0.000000,0.248374,-0.063556 RLEG_JOINT2:0.998761,0.032068,0.000000,-0.038044 RLEG_JOINT4:0.994262,0.092527,0.000000,0.053686 WAIST:0.999170,-0.000000,0.039784,0.008794 WAIST_JOINT0:0.995849,-0.000000,0.085828,0.030306 WAIST_JOINT1:0.998865,0.047485,-0.000000,0.003699 END:
KINECT_DATA_Sensor  AnkleLeft:0.074429,0.743897,-0.082917,-0.658940 AnkleRight:0.100800,0.713968,0.076248,0.688676 ElbowLeft:-0.033751,0.859665,-0.182640,-0.475898 ElbowRight:-0.475868,0.845030,0.025903,0.242492 FootLeft:0.000000,0.000000,0.000000,0.000000 FootRight:0.000000,0.000000,0.000000,0.000000 HandLeft:-0.146585,0.801348,-0.030587,0.579154 HandRight:-0.036354,0.071650,-0.669530,0.738427 HandTipLeft:0.000000,0.000000,0.000000,0.000000 HandTipRight:0.000000,0.000000,0.000000,0.000000 Head:0.000000,0.000000,0.000000,0.000000 HipLeft:0.102652,-0.679358,0.713678,-0.136374 HipRight:-0.163613,0.679315,0.690707,-0.186240 KneeLeft:0.013113,-0.678140,0.037882,0.733838 KneeRight:0.000071,0.735042,0.043156,0.676647 Neck:-0.087972,0.013110,0.994086,-0.062304 ShoulderLeft:0.042009,0.772059,-0.634143,-0.004812 ShoulderRight:-0.071268,0.803579,0.576587,-0.129341 SpineBase:-0.039897,0.011542,0.998823,-0.025059 SpineMid:-0.063535,0.012132,0.997598,-0.024779 SpineShoulder:-0.087870,0.012775,0.995159,-0.042110 ThumbLeft:0.000000,0.000000,0.000000,0.000000 ThumbRight:0.000000,0.000000,0.000000,0.000000 WristLeft:-0.121624,0.811115,-0.115337,0.560354 WristRight:0.016826,0.134318,-0.551126,0.823369 END:
KINECT_DATA POSITION:2.885595,1.097965,-13.706017 HEAD_JOINT1:0.990299,0.128007,-0.000000,0.054061 LARM_JOINT2:0.814990,0.000000,-0.002425,-0.579469 LARM_JOINT3:0.960015,0.000000,-0.213673,-0.180873 LLEG_JOINT2:0.999489,0.014909,0.000000,0.028283 LLEG_JOINT4:0.995465,0.094242,0.000000,-0.012973 RARM_JOINT2:0.762639,0.000000,0.562266,0.319748 RARM_JOINT3:0.974006,0.000000,0.182035,-0.134819 RLEG_JOINT2:0.998806,0.031601,0.000000,-0.037269 RLEG_JOINT4:0.994496,0.091364,0.000000,0.051285 WAIST:0.999037,-0.000000,0.042944,0.008974 WAIST_JOINT0:0.995430,-0.000000,0.090144,0.031511 WAIST_JOINT1:0.998824,0.048232,-0.000000,0.004990 END:
KINECT_DATA_Sensor  AnkleLeft:0.072435,0.738328,-0.084456,-0.665201 AnkleRight:0.098310,0.715886,0.076378,0.687029 ElbowLeft:-0.033906,0.858517,-0.182555,-0.477989 ElbowRight:-0.400978,0.722730,-0.230916,0.513376 FootLeft:0.000000,0.000000,0.000000,0.000000 FootRight:0.000000,0.000000,0.000000,0.000000 HandLeft:-0.169027,0.819894,-0.032429,0.546034 HandRight:0.050667,0.132264,-0.685032,0.714612 HandTipLeft:0.000000,0.000000,0.000000,0.000000 HandTipRight:0.000000,0.000000,0.000000,0.000000 Head:0.000000,0.000000,0.000000,0.000000 HipLeft:0.100240,-0.679528,0.714172,-0.134726 HipRight:-0.165232,0.679036,0.690193,-0.187729 KneeLeft:0.014459,-0.675819,0.037268,0.735983 KneeRight:0.000295,0.737184,0.042141,0.674377 Neck:-0.092563,0.014695,0.993580,-0.063362 ShoulderLeft:0.043959,0.770896,-0.635408,-0.006612 ShoulderRight:-0.075424,0.803680,0.574757,-0.134404 SpineBase:-0.043043,0.012296,0.998677,-0.025321 SpineMid:-0.067394,0.012910,0.997329,-0.025013 SpineShoulder:-0.092458,0.014106,0.994699,-0.042726 ThumbLeft:0.000000,0.000000,0.000000,0.000000 ThumbRight:0.000000,0.000000,0.000000,0.000000 WristLeft:-0.126437,0.832848,-0.111345,0.527239 WristRight:-0.014940,0.074183,-0.614613,0.785190 END:
KINECT_DATA POSITION:2.855142,1.139308,-13.792408 HEAD_JOINT1:0.990201,0.129610,-0.000000,0.052001 LARM_JOINT2:0.811545,0.000000,-0.002341,-0.584285 LARM_JOINT3:0.964230,0.000000,-0.203306,-0.170079 LLEG_JOINT2:0.999536,0.012532,0.000000,0.027749 LLEG_JOINT4:0.995388,0.095176,0.000000,-0.012027 RARM_JOINT2:0.755831,0.000000,0.562984,0.334317 RARM_JOINT3:0.967274,0.000000,0.192639,-0.165140 RLEG_JOINT2:0.998759,0.032515,0.000000,-0.037725 RLEG_JOINT4:0.994146,0.093561,0.000000,0.054046 WAIST:0.998627,-0.000000,0.051503,0.009548 WAIST_JOINT0:0.994179,-0.000000,0.102215,0.034057 WAIST_JOINT1:0.998801,0.048633,-0.000000,0.005672 END:
KINECT_DATA_Sensor  AnkleLeft:0.070932,0.729460,-0.084052,-0.675124 AnkleRight:0.101770,0.721197,0.077604,0.680804 ElbowLeft:-0.032394,0.848593,-0.178416,-0.497000 ElbowRight:-0.373490,0.706851,-0.256959,0.542991 FootLeft:0.000000,0.000000,0.000000,0.000000 FootRight:0.000000,0.000000,0.000000,0.000000 HandLeft:-0.124917,0.818413,-0.024959,0.560332 HandRight:0.046064,0.135248,-0.690997,0.708597 HandTipLeft:0.000000,0.000000,0.000000,0.000000 HandTipRight:0.000000,0.000000,0.000000,0.000000 Head:0.000000,0.000000,0.000000,0.000000 HipLeft:0.093821,-0.679962,0.715633,-0.129303 HipRight:-0.169128,0.678175,0.688977,-0.191795 KneeLeft:0.016010,-0.669486,0.035754,0.741791 KneeRight:0.000562,0.742973,0.042665,0.667960 Neck:-0.104764,0.015900,0.992320,-0.063823 ShoulderLeft:0.053733,0.768409,-0.637483,-0.016574 ShoulderRight:-0.081279,0.803538,0.571987,-0.143361 SpineBase:-0.051608,0.012928,0.998251,-0.025783 SpineMid:-0.077764,0.013600,0.996554,-0.025435 SpineShoulder:-0.104675,0.015064,0.993460,-0.043057 ThumbLeft:0.000000,0.000000,0.000000,0.000000 ThumbRight:0.000000,0.000000,0.000000,0.000000 WristLeft:-0.121443,0.823432,-0.118775,0.541390 WristRight:-0.013792,0.082511,-0.634852,0.768092 END:
KINECT_DATA POSITION:2.867150,1.139715,-13.913631 HEAD_JOINT1:0.990491,0.128736,-0.000000,0.048528 LARM_JOINT2:0.810743,0.000000,-0.001489,-0.585400 LARM_JOINT3:0.962936,0.000000,-0.212190,-0.166521 LLEG_JOINT2:0.999559,0.009371,0.000000,0.028180 LLEG_JOINT4:0.995148,0.097780,0.000000,-0.010939 RARM_JOINT2:0.757511,0.000000,0.559934,0.335634 RARM_JOINT3:0.959579,0.000000,0.215710,-0.180767 RLEG_JOINT2:0.998751,0.033859,0.000000,-0.036737 RLEG_JOINT4:0.994265,0.090034,0.000000,0.057713 WAIST:0.998140,-0.000000,0.060356,0.008627 WAIST_JOINT0:0.992529,-0.000000,0.116422,0.036508 WAIST_JOINT1:0.998745,0.049564,-0.000000,0.007156 END:
KINECT_DATA_Sensor  AnkleLeft:0.072539,0.737129,-0.082112,-0.666810 AnkleRight:0.100892,0.712967,0.076529,0.689668 ElbowLeft:-0.030082,0.841265,-0.178447,-0.509435 ElbowRight:-0.308270,0.583244,-0.328945,0.675716 FootLeft:0.000000,0.000000,0.000000,0.000000 FootRight:0.000000,0.000000,0.000000,0.000000 HandLeft:-0.140183,0.833103,-0.042908,0.533336 HandRight:0.152430,0.203686,-0.581756,0.772553 HandTipLeft:0.000000,0.000000,0.000000,0.000000 HandTipRight:0.000000,0.000000,0.000000,0.000000 Head:0.000000,0.000000,0.000000,0.000000 HipLeft:0.086784,-0.681857,0.715564,-0.124528 HipRight:-0.173058,0.676696,0.688117,-0.196542 KneeLeft:0.017754,-0.662957,0.033412,0.747701 KneeRight:0.001107,0.748853,0.043609,0.661299 Neck:-0.121642,0.016512,0.990321,-0.064775 ShoulderLeft:0.058468,0.767655,-0.637763,-0.023351 ShoulderRight:-0.098376,0.808883,0.556607,-0.161924 SpineBase:-0.060390,0.013452,0.997722,-0.026901 SpineMid:-0.090493,0.014258,0.995443,-0.026482 SpineShoulder:-0.121581,0.015566,0.991486,-0.043953 ThumbLeft:0.000000,0.000000,0.000000,0.000000 ThumbRight:0.000000,0.000000,0.000000,0.000000 WristLeft:-0.123606,0.838574,-0.118862,0.517095 WristRight:0.099743,-0.018887,0.723148,-0.683192 END:
KINECT_DATA POSITION:2.958627,0.980690,-14.163184 HEAD_JOINT1:0.990986,0.128339,-0.000000,0.038421 LARM_JOINT2:0.810852,0.000000,-0.005514,-0.585225 LARM_JOINT3:0.963678,0.000000,-0.208586,-0.166783 LLEG_JOINT2:0.999524,0.005582,0.000000,0.030358 LLEG_JOINT4:0.995129,0.098322,0.000000,-0.007204 RARM_JOINT2:0.816567,0.000000,0.566387,0.111462 RARM_JOINT3:0.960474,0.000000,0.275663,0.038723 RLEG_JOINT2:0.998734,0.036828,0.000000,-0.034271 RLEG_JOINT4:0.994469,0.086797,0.000000,0.059141 WAIST:0.997254,-0.000000,0.073870,0.005195 WAIST_JOINT0:0.990643,-0.000000,0.129243,0.043849 WAIST_JOINT1:0.998666,0.049913,-0.000000,0.013217 END:
KINECT_DATA_Sensor  AnkleLeft:0.070753,0.737158,-0.080530,-0.667163 AnkleRight:0.106027,0.774448,0.069166,0.619843 ElbowLeft:-0.030816,0.835806,-0.180318,-0.517652 ElbowRight:-0.593219,0.799482,0.075547,0.056678 FootLeft:0.000000,0.000000,0.000000,0.000000 FootRight:0.000000,0.000000,0.000000,0.000000 HandLeft:-0.128242,0.831697,-0.041970,0.538583 HandRight:0.154880,0.221689,-0.648733,0.711345 HandTipLeft:0.000000,0.000000,0.000000,0.000000 HandTipRight:0.000000,0.000000,0.000000,0.000000 Head:0.000000,0.000000,0.000000,0.000000 HipLeft:0.076789,-0.684937,0.714857,-0.118084 HipRight:-0.180863,0.672271,0.688549,-0.203079 KneeLeft:0.019244,-0.653035,0.030323,0.756476 KneeRight:0.001828,0.757674,0.046599,0.650966 Neck:-0.136278,0.018819,0.988355,-0.065024 ShoulderLeft:0.061571,0.766363,-0.638827,-0.028217 ShoulderRight:-0.114401,0.815897,0.537929,-0.178487 SpineBase:-0.073628,0.015563,0.996766,-0.028193 SpineMid:-0.104337,0.016425,0.994020,-0.027700 SpineShoulder:-0.136232,0.017512,0.989508,-0.044807 ThumbLeft:0.000000,0.000000,0.000000,0.000000 ThumbRight:0.000000,0.000000,0.000000,0.000000 WristLeft:-0.120295,0.835434,-0.124744,0.521554 WristRight:0.081097,0.173752,-0.597511,0.778597 END:
KINECT_DATA POSITION:2.987864,0.954299,-14.285267 HEAD_JOINT1:0.991093,0.128243,-0.000000,0.035887 LARM_JOINT2:0.812272,0.000000,0.007723,-0.583227 LARM_JOINT3:0.958934,0.000000,-0.223788,-0.174255 LLEG_JOINT2:0.999541,0.004337,0.000000,0.029990 LLEG_JOINT4:0.995076,0.098904,0.000000,-0.006436 RARM_JOINT2:0.814457,0.000000,0.566515,0.125384 RARM_JOINT3:0.960735,0.000000,0.276117,0.027339 RLEG_JOINT2:0.998645,0.039318,0.000000,-0.034104 RLEG_JOINT4:0.994765,0.083844,0.000000,0.058415 WAIST:0.996973,-0.000000,0.077594,0.004808 WAIST_JOINT0:0.991774,-0.000000,0.122041,0.038615 WAIST_JOINT1:0.998624,0.050368,-0.000000,0.014577 END:
KINECT_DATA_Sensor  AnkleLeft:0.069356,0.725103,-0.080926,-0.680343 AnkleRight:0.099363,0.729585,0.077350,0.672197 ElbowLeft:-0.022571,0.828797,-0.187841,-0.526594 ElbowRight:-0.586081,0.804858,0.050906,0.078240 FootLeft:0.000000,0.000000,0.000000,0.000000 FootRight:0.000000,0.000000,0.000000,0.000000 HandLeft:-0.149465,0.797389,-0.065357,0.580998 HandRight:0.163544,0.224745,-0.650633,0.706697 HandTipLeft:0.000000,0.000000,0.000000,0.000000 HandTipRight:0.000000,0.000000,0.000000,0.000000 Head:0.000000,0.000000,0.000000,0.000000 HipLeft:0.074806,-0.685306,0.714891,-0.117007 HipRight:-0.183727,0.671190,0.688076,-0.205671 KneeLeft:0.019577,-0.650273,0.029021,0.758893 KneeRight:0.003123,0.760125,0.048645,0.647946 Neck:-0.129206,0.018918,0.989251,-0.065804 ShoulderLeft:0.050132,0.767933,-0.638341,-0.016902 ShoulderRight:-0.118209,0.809699,0.546580,-0.177944 SpineBase:-0.077302,0.016186,0.996467,-0.028574 SpineMid:-0.102716,0.016910,0.994168,-0.028151 SpineShoulder:-0.129134,0.017787,0.990421,-0.045542 ThumbLeft:0.000000,0.000000,0.000000,0.000000 ThumbRight:0.000000,0.000000,0.000000,0.000000 WristLeft:-0.111840,0.806817,-0.131902,0.564925 WristRight:0.086437,0.173477,-0.601521,0.774988 END:
