EastLYD/RoboCupatHomeSim/InteractiveCleanUp/JapanOpen2016/Motion_Data/File56.dat
KINECT_DATA POSITION:31.873993,-2.939274,-14.700186 HEAD_JOINT1:0.976512,0.190938,-0.000000,0.099831 LARM_JOINT2:0.813283,0.000000,-0.023126,-0.581409 LARM_JOINT3:0.978859,0.000000,-0.154239,-0.134336 LLEG_JOINT2:0.998656,0.014764,0.000000,0.049676 LLEG_JOINT4:0.994198,0.097053,0.000000,-0.046372 RARM_JOINT2:0.808807,0.000000,-0.041570,0.586603 RARM_JOINT3:0.969186,0.000000,0.207690,0.132452 RLEG_JOINT2:0.998926,0.014685,0.000000,-0.043938 RLEG_JOINT4:0.994500,0.098111,0.000000,0.036653 WAIST:0.999711,0.000000,-0.024019,0.001387 WAIST_JOINT0:0.999489,0.000000,-0.031855,-0.002665 WAIST_JOINT1:0.997072,0.075124,0.000000,-0.014288 END:
KINECT_DATA_Sensor  AnkleLeft:0.075714,0.731250,-0.082144,-0.672899 AnkleRight:0.078701,0.691751,0.080800,0.713273 ElbowLeft:-0.020519,0.901497,-0.158927,-0.402026 ElbowRight:0.008550,0.827847,0.200002,0.524019 FootLeft:0.000000,0.000000,0.000000,0.000000 FootRight:0.000000,0.000000,0.000000,0.000000 HandLeft:-0.075942,0.835624,0.004439,0.544008 HandRight:-0.109953,0.975426,-0.016287,0.190234 HandTipLeft:0.000000,0.000000,0.000000,0.000000 HandTipRight:0.000000,0.000000,0.000000,0.000000 Head:0.000000,0.000000,0.000000,0.000000 HipLeft:0.132454,-0.675618,0.700462,-0.188013 HipRight:-0.099632,0.682274,0.704320,-0.168849 KneeLeft:-0.026763,0.722706,-0.045934,-0.689108 KneeRight:-0.018639,0.690385,0.040988,0.722040 Neck:0.032229,-0.012435,0.995166,-0.091930 ShoulderLeft:0.001333,0.778656,-0.620518,0.093003 ShoulderRight:0.043683,0.775031,0.628971,-0.042599 SpineBase:0.023251,-0.010412,0.998374,-0.050990 SpineMid:0.027604,-0.010635,0.998263,-0.050944 SpineShoulder:0.032139,-0.011496,0.996964,-0.069987 ThumbLeft:0.000000,0.000000,0.000000,0.000000 ThumbRight:0.000000,0.000000,0.000000,0.000000 WristLeft:-0.077714,0.838391,-0.068932,0.535078 WristRight:-0.111048,0.973785,0.036102,0.195213 END:
KINECT_DATA POSITION:31.870132,-2.958709,-14.616573 HEAD_JOINT1:0.976339,0.191640,-0.000000,0.100184 LARM_JOINT2:0.813176,0.000000,-0.023283,-0.581552 LARM_JOINT3:0.978594,0.000000,-0.157273,-0.132739 LLEG_JOINT2:0.998626,0.015370,0.000000,0.050100 LLEG_JOINT4:0.993979,0.098327,0.000000,-0.048342 RARM_JOINT2:0.809272,0.000000,-0.040231,0.586055 RARM_JOINT3:0.968900,0.000000,0.207911,0.134186 RLEG_JOINT2:0.998999,0.012838,0.000000,-0.042855 RLEG_JOINT4:0.994217,0.101484,0.000000,0.035128 WAIST:0.999673,0.000000,-0.025551,0.000897 WAIST_JOINT0:0.999493,0.000000,-0.031718,-0.002925 WAIST_JOINT1:0.996987,0.076235,0.000000,-0.014300 END:
KINECT_DATA_Sensor  AnkleLeft:0.077447,0.724675,-0.082989,-0.679677 AnkleRight:0.079466,0.691791,0.082246,0.712983 ElbowLeft:-0.019939,0.901364,-0.158684,-0.402448 ElbowRight:0.009136,0.829299,0.201036,0.521310 FootLeft:0.000000,0.000000,0.000000,0.000000 FootRight:0.000000,0.000000,0.000000,0.000000 HandLeft:-0.082567,0.763194,-0.011535,0.640768 HandRight:-0.112528,0.967835,-0.022358,0.223903 HandTipLeft:0.000000,0.000000,0.000000,0.000000 HandTipRight:0.000000,0.000000,0.000000,0.000000 Head:0.000000,0.000000,0.000000,0.000000 HipLeft:0.132989,-0.675568,0.700034,-0.189406 HipRight:-0.098353,0.682021,0.704820,-0.168529 KneeLeft:-0.026374,0.723794,-0.046281,-0.687957 KneeRight:-0.019517,0.689274,0.039306,0.723171 Neck:0.032127,-0.012706,0.995047,-0.093207 ShoulderLeft:0.001516,0.778467,-0.620578,0.094178 ShoulderRight:0.043785,0.774609,0.629390,-0.043963 SpineBase:0.024805,-0.010613,0.998297,-0.051719 SpineMid:0.028337,-0.010796,0.998203,-0.051681 SpineShoulder:0.032036,-0.011722,0.996886,-0.071092 ThumbLeft:0.000000,0.000000,0.000000,0.000000 ThumbRight:0.000000,0.000000,0.000000,0.000000 WristLeft:-0.068812,0.768258,-0.077261,0.631724 WristRight:-0.110911,0.966492,0.032181,0.229250 END:
KINECT_DATA POSITION:31.870928,-2.993636,-14.439905 HEAD_JOINT1:0.976355,0.191338,-0.000000,0.100600 LARM_JOINT2:0.813526,0.000000,-0.023368,-0.581058 LARM_JOINT3:0.978717,0.000000,-0.158688,-0.130123 LLEG_JOINT2:0.998616,0.015947,0.000000,0.050109 LLEG_JOINT4:0.994070,0.098094,0.000000,-0.046924 RARM_JOINT2:0.809036,0.000000,-0.039000,0.586464 RARM_JOINT3:0.968573,0.000000,0.209463,0.134131 RLEG_JOINT2:0.998960,0.014224,0.000000,-0.043315 RLEG_JOINT4:0.993651,0.106138,0.000000,0.037308 WAIST:0.999702,0.000000,-0.024377,0.001036 WAIST_JOINT0:0.999472,0.000000,-0.032388,-0.002636 WAIST_JOINT1:0.996917,0.077122,0.000000,-0.014455 END:
KINECT_DATA_Sensor  AnkleLeft:0.076828,0.725195,-0.084085,-0.679058 AnkleRight:0.086594,0.704708,0.083487,0.699227 ElbowLeft:-0.019310,0.900854,-0.159578,-0.403267 ElbowRight:0.008806,0.829606,0.200644,0.520978 FootLeft:0.000000,0.000000,0.000000,0.000000 FootRight:0.000000,0.000000,0.000000,0.000000 HandLeft:-0.082812,0.866574,-0.008770,0.492052 HandRight:-0.120892,0.958791,-0.034806,0.254742 HandTipLeft:0.000000,0.000000,0.000000,0.000000 HandTipRight:0.000000,0.000000,0.000000,0.000000 Head:0.000000,0.000000,0.000000,0.000000 HipLeft:0.131739,-0.675435,0.700443,-0.189239 HipRight:-0.098473,0.681733,0.704792,-0.169740 KneeLeft:-0.026027,0.722981,-0.046834,-0.688787 KneeRight:-0.018776,0.690147,0.040474,0.722292 Neck:0.032819,-0.012972,0.994944,-0.094030 ShoulderLeft:0.000831,0.777697,-0.621269,0.095974 ShoulderRight:0.044083,0.774193,0.629831,-0.044661 SpineBase:0.023606,-0.010620,0.998281,-0.052592 SpineMid:0.028083,-0.010856,0.998165,-0.052543 SpineShoulder:0.032730,-0.011949,0.996799,-0.071952 ThumbLeft:0.000000,0.000000,0.000000,0.000000 ThumbRight:0.000000,0.000000,0.000000,0.000000 WristLeft:-0.080584,0.868144,-0.064082,0.485516 WristRight:-0.110679,0.958289,0.029560,0.261836 END:
KINECT_DATA POSITION:31.886345,-3.022721,-14.253771 HEAD_JOINT1:0.976568,0.190395,-0.000000,0.100325 LARM_JOINT2:0.813791,0.000000,-0.022132,-0.580736 LARM_JOINT3:0.978089,0.000000,-0.161293,-0.131630 LLEG_JOINT2:0.998639,0.017770,0.000000,0.049036 LLEG_JOINT4:0.994149,0.097760,0.000000,-0.045950 RARM_JOINT2:0.809459,0.000000,-0.037628,0.585970 RARM_JOINT3:0.969038,0.000000,0.207160,0.134350 RLEG_JOINT2:0.998952,0.014036,0.000000,-0.043570 RLEG_JOINT4:0.993959,0.104249,0.000000,0.034329 WAIST:0.999632,0.000000,-0.027105,0.001368 WAIST_JOINT0:0.999464,0.000000,-0.032642,-0.002600 WAIST_JOINT1:0.996842,0.077951,0.000000,-0.015174 END:
KINECT_DATA_Sensor  AnkleLeft:0.077268,0.725333,-0.085712,-0.678657 AnkleRight:0.081906,0.691017,0.085474,0.713078 ElbowLeft:-0.018532,0.900928,-0.160382,-0.402818 ElbowRight:0.008900,0.829021,0.201396,0.521618 FootLeft:0.000000,0.000000,0.000000,0.000000 FootRight:0.000000,0.000000,0.000000,0.000000 HandLeft:-0.092775,0.850587,-0.006884,0.517539 HandRight:-0.114547,0.975735,-0.023782,0.185081 HandTipLeft:0.000000,0.000000,0.000000,0.000000 HandTipRight:0.000000,0.000000,0.000000,0.000000 Head:0.000000,0.000000,0.000000,0.000000 HipLeft:0.132619,-0.674652,0.700565,-0.190960 HipRight:-0.095996,0.682140,0.705015,-0.168593 KneeLeft:-0.024352,0.724895,-0.047586,-0.686782 KneeRight:-0.018738,0.688232,0.040350,0.724125 Neck:0.033080,-0.012926,0.994849,-0.094941 ShoulderLeft:0.000790,0.777215,-0.621680,0.097211 ShoulderRight:0.044424,0.773870,0.630144,-0.045501 SpineBase:0.026266,-0.010729,0.998166,-0.053475 SpineMid:0.029552,-0.010905,0.998074,-0.053440 SpineShoulder:0.032993,-0.011926,0.996725,-0.072864 ThumbLeft:0.000000,0.000000,0.000000,0.000000 ThumbRight:0.000000,0.000000,0.000000,0.000000 WristLeft:-0.077736,0.854292,-0.066032,0.509688 WristRight:-0.107901,0.974748,0.038492,0.191683 END:
KINECT_DATA POSITION:31.858820,-3.049367,-14.064037 HEAD_JOINT1:0.976513,0.190791,-0.000000,0.100104 LARM_JOINT2:0.814205,0.000000,-0.022181,-0.580153 LARM_JOINT3:0.978080,0.000000,-0.160107,-0.133139 LLEG_JOINT2:0.998509,0.019637,0.000000,0.050927 LLEG_JOINT4:0.994000,0.098469,0.000000,-0.047627 RARM_JOINT2:0.809234,0.000000,-0.039160,0.586179 RARM_JOINT3:0.969598,0.000000,0.204669,0.134130 RLEG_JOINT2:0.998996,0.015610,0.000000,-0.041993 RLEG_JOINT4:0.993993,0.103179,0.000000,0.036509 WAIST:0.999633,0.000000,-0.027095,-0.000149 WAIST_JOINT0:0.999422,0.000000,-0.033869,-0.002746 WAIST_JOINT1:0.996840,0.078172,0.000000,-0.014133 END:
KINECT_DATA_Sensor  AnkleLeft:0.079272,0.719630,-0.087237,-0.684279 AnkleRight:0.086207,0.711773,0.081613,0.692306 ElbowLeft:-0.018095,0.902112,-0.160686,-0.400057 ElbowRight:0.009782,0.827967,0.202204,0.522962 FootLeft:0.000000,0.000000,0.000000,0.000000 FootRight:0.000000,0.000000,0.000000,0.000000 HandLeft:-0.092438,0.826080,-0.006920,0.555878 HandRight:-0.100516,0.954831,-0.030402,0.277973 HandTipLeft:0.000000,0.000000,0.000000,0.000000 HandTipRight:0.000000,0.000000,0.000000,0.000000 Head:0.000000,0.000000,0.000000,0.000000 HipLeft:0.132441,-0.675592,0.699633,-0.191177 HipRight:-0.095853,0.681105,0.706040,-0.168569 KneeLeft:-0.023356,0.725038,-0.049176,-0.686554 KneeRight:-0.017585,0.688154,0.041356,0.724171 Neck:0.034309,-0.013507,0.994783,-0.095121 ShoulderLeft:-0.000493,0.777408,-0.621206,0.098687 ShoulderRight:0.044772,0.774013,0.629977,-0.045038 SpineBase:0.026392,-0.011174,0.998148,-0.053662 SpineMid:0.030221,-0.011380,0.998039,-0.053619 SpineShoulder:0.034215,-0.012474,0.996664,-0.073038 ThumbLeft:0.000000,0.000000,0.000000,0.000000 ThumbRight:0.000000,0.000000,0.000000,0.000000 WristLeft:-0.073856,0.830735,-0.068530,0.547475 WristRight:-0.110225,0.952563,0.029253,0.282168 END:
KINECT_DATA POSITION:31.855700,-3.087559,-13.864684 HEAD_JOINT1:0.976950,0.188253,-0.000000,0.100650 LARM_JOINT2:0.814389,0.000000,-0.024808,-0.579788 LARM_JOINT3:0.978355,0.000000,-0.157794,-0.133879 LLEG_JOINT2:0.998494,0.019114,0.000000,0.051415 LLEG_JOINT4:0.993910,0.099902,0.000000,-0.046504 RARM_JOINT2:0.809083,0.000000,-0.040598,0.586291 RARM_JOINT3:0.969194,0.000000,0.207408,0.132837 RLEG_JOINT2:0.998999,0.016503,0.000000,-0.041568 RLEG_JOINT4:0.993760,0.105419,0.000000,0.036441 WAIST:0.999651,0.000000,-0.026423,-0.000434 WAIST_JOINT0:0.999378,0.000000,-0.035116,-0.003171 WAIST_JOINT1:0.996889,0.077560,0.000000,-0.013990 END:
KINECT_DATA_Sensor  AnkleLeft:0.079938,0.726297,-0.087904,-0.677034 AnkleRight:0.088285,0.709608,0.083936,0.693986 ElbowLeft:-0.019748,0.903919,-0.159669,-0.396291 ElbowRight:0.009314,0.825939,0.202444,0.526075 FootLeft:0.000000,0.000000,0.000000,0.000000 FootRight:0.000000,0.000000,0.000000,0.000000 HandLeft:-0.089739,0.871869,0.003095,0.481438 HandRight:-0.112008,0.975777,-0.021502,0.186685 HandTipLeft:0.000000,0.000000,0.000000,0.000000 HandTipRight:0.000000,0.000000,0.000000,0.000000 Head:0.000000,0.000000,0.000000,0.000000 HipLeft:0.132573,-0.675924,0.699499,-0.190402 HipRight:-0.096733,0.680823,0.706178,-0.168627 KneeLeft:-0.023837,0.724572,-0.048948,-0.687045 KneeRight:-0.016873,0.688622,0.041850,0.723715 Neck:0.035534,-0.013863,0.994795,-0.094487 ShoulderLeft:-0.001222,0.777913,-0.620564,0.098742 ShoulderRight:0.045601,0.774142,0.629887,-0.043196 SpineBase:0.025749,-0.011438,0.998197,-0.053004 SpineMid:0.030499,-0.011690,0.998063,-0.052949 SpineShoulder:0.035435,-0.012823,0.996665,-0.072385 ThumbLeft:0.000000,0.000000,0.000000,0.000000 ThumbRight:0.000000,0.000000,0.000000,0.000000 WristLeft:-0.080789,0.875040,-0.061515,0.473279 WristRight:-0.107711,0.974420,0.040822,0.192968 END:
KINECT_DATA POSITION:31.853638,-3.127476,-13.617182 HEAD_JOINT1:0.977251,0.185923,-0.000000,0.102045 LARM_JOINT2:0.814430,0.000000,-0.028328,-0.579570 LARM_JOINT3:0.978774,0.000000,-0.155562,-0.133427 LLEG_JOINT2:0.998426,0.021345,0.000000,0.051865 LLEG_JOINT4:0.993911,0.099902,0.000000,-0.046474 RARM_JOINT2:0.808784,0.000000,-0.042190,0.586591 RARM_JOINT3:0.968996,0.000000,0.206915,0.135028 RLEG_JOINT2:0.999046,0.016587,0.000000,-0.040396 RLEG_JOINT4:0.993746,0.106131,0.000000,0.034724 WAIST:0.999643,0.000000,-0.026694,-0.000764 WAIST_JOINT0:0.999333,0.000000,-0.036346,-0.003677 WAIST_JOINT1:0.996992,0.076193,0.000000,-0.014223 END:
KINECT_DATA_Sensor  AnkleLeft:0.081342,0.726191,-0.089611,-0.676757 AnkleRight:0.087828,0.705313,0.085607,0.698206 ElbowLeft:-0.022659,0.905984,-0.157393,-0.392309 ElbowRight:0.009137,0.825257,0.202482,0.527133 FootLeft:0.000000,0.000000,0.000000,0.000000 FootRight:0.000000,0.000000,0.000000,0.000000 HandLeft:-0.089629,0.851009,-0.000614,0.517445 HandRight:-0.109331,0.973942,-0.029903,0.196442 HandTipLeft:0.000000,0.000000,0.000000,0.000000 HandTipRight:0.000000,0.000000,0.000000,0.000000 Head:0.000000,0.000000,0.000000,0.000000 HipLeft:0.134012,-0.676466,0.699018,-0.189233 HipRight:-0.097516,0.680895,0.706294,-0.167396 KneeLeft:-0.022398,0.724868,-0.050641,-0.686659 KneeRight:-0.016229,0.688417,0.041293,0.723957 Neck:0.036776,-0.014600,0.994855,-0.093262 ShoulderLeft:-0.002812,0.779053,-0.619171,0.098469 ShoulderRight:0.045573,0.774657,0.629404,-0.040980 SpineBase:0.026042,-0.012151,0.998276,-0.051187 SpineMid:0.031247,-0.012418,0.998126,-0.051123 SpineShoulder:0.036675,-0.013428,0.996714,-0.070960 ThumbLeft:0.000000,0.000000,0.000000,0.000000 ThumbRight:0.000000,0.000000,0.000000,0.000000 WristLeft:-0.080189,0.854493,-0.064933,0.509112 WristRight:-0.108475,0.972335,0.040115,0.202950 END:
KINECT_DATA POSITION:31.849272,-3.161780,-13.439787 HEAD_JOINT1:0.977315,0.184610,-0.000000,0.103803 LARM_JOINT2:0.814628,0.000000,-0.029053,-0.579256 LARM_JOINT3:0.978669,0.000000,-0.155053,-0.134777 LLEG_JOINT2:0.998422,0.020474,0.000000,0.052294 LLEG_JOINT4:0.993760,0.101859,0.000000,-0.045446 RARM_JOINT2:0.807757,0.000000,-0.042694,0.587968 RARM_JOINT3:0.966505,0.000000,0.215452,0.139460 RLEG_JOINT2:0.999036,0.019185,0.000000,-0.039493 RLEG_JOINT4:0.994097,0.103763,0.000000,0.031676 WAIST:0.999629,0.000000,-0.027233,-0.001000 WAIST_JOINT0:0.999288,0.000000,-0.037501,-0.004104 WAIST_JOINT1:0.997060,0.075194,0.000000,-0.014764 END:
KINECT_DATA_Sensor  AnkleLeft:0.081322,0.727463,-0.091148,-0.675186 AnkleRight:0.088175,0.718752,0.085763,0.684299 ElbowLeft:-0.023311,0.907942,-0.156377,-0.388130 ElbowRight:0.008886,0.824188,0.201374,0.529229 FootLeft:0.000000,0.000000,0.000000,0.000000 FootRight:0.000000,0.000000,0.000000,0.000000 HandLeft:-0.092998,0.854794,0.001517,0.510565 HandRight:-0.129683,0.976896,-0.041064,0.164832 HandTipLeft:0.000000,0.000000,0.000000,0.000000 HandTipRight:0.000000,0.000000,0.000000,0.000000 Head:0.000000,0.000000,0.000000,0.000000 HipLeft:0.135147,-0.676684,0.698700,-0.188822 HipRight:-0.097655,0.680848,0.706488,-0.166686 KneeLeft:-0.023172,0.725203,-0.050124,-0.686318 KneeRight:-0.013863,0.688029,0.042596,0.724300 Neck:0.037925,-0.015465,0.994896,-0.092215 ShoulderLeft:-0.003980,0.779946,-0.618049,0.098408 ShoulderRight:0.045871,0.775027,0.629047,-0.039099 SpineBase:0.026580,-0.012874,0.998299,-0.050271 SpineMid:0.032078,-0.013151,0.998137,-0.050199 SpineShoulder:0.037817,-0.014202,0.996730,-0.069984 ThumbLeft:0.000000,0.000000,0.000000,0.000000 ThumbRight:0.000000,0.000000,0.000000,0.000000 WristLeft:-0.081821,0.858619,-0.062960,0.502110 WristRight:-0.112488,0.977300,0.039581,0.175115 END:
KINECT_DATA POSITION:31.853113,-3.203503,-13.320351 HEAD_JOINT1:0.977677,0.182816,-0.000000,0.103569 LARM_JOINT2:0.814462,0.000000,-0.028085,-0.579537 LARM_JOINT3:0.978564,0.000000,-0.155990,-0.134458 LLEG_JOINT2:0.998384,0.021850,0.000000,0.052468 LLEG_JOINT4:0.993681,0.101859,0.000000,-0.047148 RARM_JOINT2:0.806653,0.000000,-0.041587,0.589560 RARM_JOINT3:0.960742,0.000000,0.238976,0.140948 RLEG_JOINT2:0.999042,0.019858,0.000000,-0.039008 RLEG_JOINT4:0.994158,0.103433,0.000000,0.030844 WAIST:0.999636,0.000000,-0.026939,-0.001086 WAIST_JOINT0:0.999216,0.000000,-0.039365,-0.004194 WAIST_JOINT1:0.997084,0.074808,0.000000,-0.015101 END:
KINECT_DATA_Sensor  AnkleLeft:0.083473,0.727207,-0.090950,-0.675226 AnkleRight:0.084097,0.687009,0.090271,0.716099 ElbowLeft:-0.022963,0.906892,-0.155896,-0.390789 ElbowRight:0.007033,0.820901,0.199537,0.535030 FootLeft:0.000000,0.000000,0.000000,0.000000 FootRight:0.000000,0.000000,0.000000,0.000000 HandLeft:-0.091186,0.856572,0.000989,0.507906 HandRight:-0.181437,0.957947,-0.058675,0.214417 HandTipLeft:0.000000,0.000000,0.000000,0.000000 HandTipRight:0.000000,0.000000,0.000000,0.000000 Head:0.000000,0.000000,0.000000,0.000000 HipLeft:0.135181,-0.676831,0.698688,-0.188310 HipRight:-0.097798,0.680735,0.706576,-0.166691 KneeLeft:-0.022271,0.725048,-0.051189,-0.686432 KneeRight:-0.013114,0.688250,0.042762,0.724093 Neck:0.039732,-0.016070,0.994859,-0.091751 ShoulderLeft:-0.005554,0.780382,-0.617303,0.099549 ShoulderRight:0.046632,0.775552,0.628450,-0.037351 SpineBase:0.026277,-0.013315,0.998314,-0.050011 SpineMid:0.032817,-0.013642,0.998121,-0.049923 SpineShoulder:0.039614,-0.014812,0.996679,-0.069583 ThumbLeft:0.000000,0.000000,0.000000,0.000000 ThumbRight:0.000000,0.000000,0.000000,0.000000 WristLeft:-0.083595,0.859860,-0.062562,0.499738 WristRight:-0.128997,0.964040,0.024093,0.231099 END:
KINECT_DATA POSITION:31.943071,-3.258077,-13.042712 HEAD_JOINT1:0.978391,0.178748,-0.000000,0.103928 LARM_JOINT2:0.815201,0.000000,-0.028433,-0.578480 LARM_JOINT3:0.978160,0.000000,-0.158976,-0.133901 LLEG_JOINT2:0.998405,0.023238,0.000000,0.051452 LLEG_JOINT4:0.993550,0.102904,0.000000,-0.047629 RARM_JOINT2:0.805669,0.000000,-0.036397,0.591247 RARM_JOINT3:0.952173,0.000000,0.275206,0.132774 RLEG_JOINT2:0.998935,0.021851,0.000000,-0.040642 RLEG_JOINT4:0.994152,0.102857,0.000000,0.032897 WAIST:0.999631,0.000000,-0.027146,-0.001055 WAIST_JOINT0:0.999172,0.000000,-0.040540,-0.003443 WAIST_JOINT1:0.997237,0.072503,0.000000,-0.016150 END:
KINECT_DATA_Sensor  AnkleLeft:0.084920,0.717705,-0.092857,-0.684883 AnkleRight:0.085395,0.686149,0.090918,0.716688 ElbowLeft:-0.024869,0.908360,-0.155047,-0.387587 ElbowRight:-0.003176,0.807376,0.195658,0.556643 FootLeft:0.000000,0.000000,0.000000,0.000000 FootRight:0.000000,0.000000,0.000000,0.000000 HandLeft:-0.098806,0.827040,-0.018122,0.553094 HandRight:-0.222588,0.911528,-0.067176,0.339204 HandTipLeft:0.000000,0.000000,0.000000,0.000000 HandTipRight:0.000000,0.000000,0.000000,0.000000 Head:0.000000,0.000000,0.000000,0.000000 HipLeft:0.137165,-0.677197,0.698399,-0.186624 HipRight:-0.099354,0.681125,0.706419,-0.164833 KneeLeft:-0.020604,0.725309,-0.051519,-0.686184 KneeRight:-0.012756,0.688022,0.045299,0.724162 Neck:0.040782,-0.017718,0.995044,-0.088944 ShoulderLeft:-0.007357,0.781793,-0.615665,0.098496 ShoulderRight:0.046188,0.777390,0.626380,-0.034331 SpineBase:0.026510,-0.013568,0.998439,-0.047251 SpineMid:0.033492,-0.013898,0.998229,-0.047155 SpineShoulder:0.040712,-0.015735,0.996768,-0.067446 ThumbLeft:0.000000,0.000000,0.000000,0.000000 ThumbRight:0.000000,0.000000,0.000000,0.000000 WristLeft:-0.083566,0.830584,-0.066795,0.546521 WristRight:-0.168946,0.919792,-0.011131,0.353999 END:
KINECT_DATA POSITION:32.056419,-3.324163,-12.762976 HEAD_JOINT1:0.979593,0.171788,-0.000000,0.104337 LARM_JOINT2:0.815905,0.000000,-0.029446,-0.577436 LARM_JOINT3:0.979317,0.000000,-0.153054,-0.132338 LLEG_JOINT2:0.998369,0.025351,0.000000,0.051144 LLEG_JOINT4:0.993520,0.103403,0.000000,-0.047170 RARM_JOINT2:0.806223,0.000000,-0.035519,0.590544 RARM_JOINT3:0.949587,0.000000,0.286066,0.128259 RLEG_JOINT2:0.998905,0.023678,0.000000,-0.040342 RLEG_JOINT4:0.994165,0.102411,0.000000,0.033868 WAIST:0.999668,0.000000,-0.025740,-0.001172 WAIST_JOINT0:0.999134,0.000000,-0.041506,-0.002891 WAIST_JOINT1:0.997466,0.069056,0.000000,-0.017139 END:
KINECT_DATA_Sensor  AnkleLeft:0.088475,0.728482,-0.093086,-0.672920 AnkleRight:0.089856,0.709033,0.088360,0.693823 ElbowLeft:-0.028030,0.909059,-0.153379,-0.386394 ElbowRight:-0.010702,0.800188,0.195074,0.567037 FootLeft:0.000000,0.000000,0.000000,0.000000 FootRight:0.000000,0.000000,0.000000,0.000000 HandLeft:-0.088128,0.854002,-0.013399,0.512576 HandRight:-0.240712,0.894905,-0.080675,0.367007 HandTipLeft:0.000000,0.000000,0.000000,0.000000 HandTipRight:0.000000,0.000000,0.000000,0.000000 Head:0.000000,0.000000,0.000000,0.000000 HipLeft:0.138617,-0.678000,0.698100,-0.183731 HipRight:-0.102031,0.681247,0.706164,-0.163785 KneeLeft:-0.018757,0.724483,-0.052791,-0.687012 KneeRight:-0.011370,0.688976,0.046402,0.723208 Neck:0.041734,-0.019279,0.995323,-0.084966 ShoulderLeft:-0.010834,0.783098,-0.614158,0.097208 ShoulderRight:0.043899,0.778907,0.624814,-0.031376 SpineBase:0.025133,-0.014320,0.998609,-0.044089 SpineMid:0.033269,-0.014679,0.998371,-0.043970 SpineShoulder:0.041650,-0.017098,0.996927,-0.064104 ThumbLeft:0.000000,0.000000,0.000000,0.000000 ThumbRight:0.000000,0.000000,0.000000,0.000000 WristLeft:-0.086974,0.855535,-0.064599,0.506283 WristRight:-0.182230,0.904512,-0.016192,0.385211 END:
KINECT_DATA POSITION:32.268330,-3.331338,-12.569010 HEAD_JOINT1:0.980898,0.164532,-0.000000,0.103771 LARM_JOINT2:0.817174,0.000000,-0.029943,-0.575612 LARM_JOINT3:0.978882,0.000000,-0.155216,-0.133037 LLEG_JOINT2:0.998349,0.027374,0.000000,0.050488 LLEG_JOINT4:0.994001,0.099728,0.000000,-0.044907 RARM_JOINT2:0.809514,0.000000,-0.034900,0.586062 RARM_JOINT3:0.906057,0.000000,0.410321,0.103425 RLEG_JOINT2:0.998891,0.023958,0.000000,-0.040519 RLEG_JOINT4:0.994075,0.103483,0.000000,0.033274 WAIST:0.999617,0.000000,-0.027560,-0.002367 WAIST_JOINT0:0.999066,0.000000,-0.043164,-0.002128 WAIST_JOINT1:0.997742,0.064978,0.000000,-0.016989 END:
KINECT_DATA_Sensor  AnkleLeft:0.086748,0.729661,-0.092425,-0.671958 AnkleRight:0.086718,0.684422,0.093405,0.717859 ElbowLeft:-0.032821,0.909801,-0.152358,-0.384672 ElbowRight:-0.034256,0.747732,0.195993,0.633490 FootLeft:0.000000,0.000000,0.000000,0.000000 FootRight:0.000000,0.000000,0.000000,0.000000 HandLeft:-0.099400,0.864291,-0.014018,0.492873 HandRight:-0.380619,0.845452,-0.112890,0.357206 HandTipLeft:0.000000,0.000000,0.000000,0.000000 HandTipRight:0.000000,0.000000,0.000000,0.000000 Head:0.000000,0.000000,0.000000,0.000000 HipLeft:0.141514,-0.679015,0.696764,-0.182844 HipRight:-0.102448,0.681094,0.706917,-0.160882 KneeLeft:-0.016131,0.725943,-0.052930,-0.685525 KneeRight:-0.012052,0.687533,0.047587,0.724492 Neck:0.043518,-0.019881,0.995588,-0.080715 ShoulderLeft:-0.016234,0.784940,-0.611758,0.096740 ShoulderRight:0.040612,0.781116,0.622433,-0.028030 SpineBase:0.027051,-0.015251,0.998664,-0.041297 SpineMid:0.035085,-0.015583,0.998414,-0.041173 SpineShoulder:0.043370,-0.018166,0.997084,-0.060102 ThumbLeft:0.000000,0.000000,0.000000,0.000000 ThumbRight:0.000000,0.000000,0.000000,0.000000 WristLeft:-0.092879,0.866522,-0.064810,0.486119 WristRight:-0.303665,0.868866,-0.054346,0.387177 END:
KINECT_DATA POSITION:32.449837,-3.304136,-12.468266 HEAD_JOINT1:0.983450,0.153722,-0.000000,0.095895 LARM_JOINT2:0.817049,0.000000,-0.030834,-0.575743 LARM_JOINT3:0.979666,0.000000,-0.148308,-0.135128 LLEG_JOINT2:0.998355,0.029866,0.000000,0.048949 LLEG_JOINT4:0.994424,0.096334,0.000000,-0.042901 RARM_JOINT2:0.831255,0.000000,0.041606,0.554332 RARM_JOINT3:0.892315,0.000000,0.451030,0.018608 RLEG_JOINT2:0.998842,0.022509,0.000000,-0.042515 RLEG_JOINT4:0.993761,0.105665,0.000000,0.035688 WAIST:0.999556,0.000000,-0.029596,-0.003466 WAIST_JOINT0:0.999127,0.000000,-0.041721,-0.001925 WAIST_JOINT1:0.998158,0.058482,0.000000,-0.016173 END:
KINECT_DATA_Sensor  AnkleLeft:0.086385,0.731755,-0.091473,-0.669855 AnkleRight:0.087305,0.685142,0.093856,0.717042 ElbowLeft:-0.037004,0.916400,-0.149276,-0.369538 ElbowRight:-0.120824,0.716553,0.177664,0.663618 FootLeft:0.000000,0.000000,0.000000,0.000000 FootRight:0.000000,0.000000,0.000000,0.000000 HandLeft:-0.095317,0.837905,-0.019024,0.537093 HandRight:-0.493311,0.847236,-0.008975,0.196862 HandTipLeft:0.000000,0.000000,0.000000,0.000000 HandTipRight:0.000000,0.000000,0.000000,0.000000 Head:0.000000,0.000000,0.000000,0.000000 HipLeft:0.145427,-0.680091,0.695279,-0.181421 HipRight:-0.103850,0.681201,0.707479,-0.157018 KneeLeft:-0.012623,0.727592,-0.052876,-0.683853 KneeRight:-0.015161,0.685891,0.048846,0.725905 Neck:0.042363,-0.019306,0.996187,-0.073787 ShoulderLeft:-0.023818,0.786800,-0.609489,0.094344 ShoulderRight:0.031314,0.783037,0.620572,-0.027609 SpineBase:0.029202,-0.015798,0.998758,-0.037138 SpineMid:0.035555,-0.016034,0.998553,-0.037036 SpineShoulder:0.042139,-0.018409,0.997490,-0.053838 ThumbLeft:0.000000,0.000000,0.000000,0.000000 ThumbRight:0.000000,0.000000,0.000000,0.000000 WristLeft:-0.091996,0.839810,-0.067116,0.530802 WristRight:-0.419371,0.879932,0.018561,0.222492 END:
KINECT_DATA POSITION:32.539494,-3.303134,-12.495459 HEAD_JOINT1:0.984481,0.151829,-0.000000,0.088002 LARM_JOINT2:0.815250,0.000000,-0.027666,-0.578448 LARM_JOINT3:0.980348,0.000000,-0.142744,-0.136168 LLEG_JOINT2:0.998364,0.029344,0.000000,0.049066 LLEG_JOINT4:0.994321,0.097982,0.000000,-0.041533 RARM_JOINT2:0.835652,0.000000,0.067534,0.545091 RARM_JOINT3:0.893736,0.000000,0.448311,-0.015883 RLEG_JOINT2:0.998821,0.022463,0.000000,-0.043024 RLEG_JOINT4:0.993681,0.105521,0.000000,0.038247 WAIST:0.999572,0.000000,-0.028848,-0.004865 WAIST_JOINT0:0.999377,0.000000,-0.035268,-0.001308 WAIST_JOINT1:0.998311,0.056490,0.000000,-0.013604 END:
KINECT_DATA_Sensor  AnkleLeft:0.086791,0.728602,-0.092595,-0.673077 AnkleRight:0.087922,0.688680,0.092880,0.713696 ElbowLeft:-0.037189,0.911734,-0.147458,-0.381594 ElbowRight:-0.147857,0.701302,0.163710,0.677874 FootLeft:0.000000,0.000000,0.000000,0.000000 FootRight:0.000000,0.000000,0.000000,0.000000 HandLeft:-0.063617,0.848449,0.004958,0.525416 HandRight:-0.521073,0.832249,-0.001080,0.189325 HandTipLeft:0.000000,0.000000,0.000000,0.000000 HandTipRight:0.000000,0.000000,0.000000,0.000000 Head:0.000000,0.000000,0.000000,0.000000 HipLeft:0.145841,-0.681513,0.694238,-0.179733 HipRight:-0.105589,0.680640,0.708083,-0.155559 KneeLeft:-0.012036,0.727187,-0.051599,-0.684392 KneeRight:-0.016570,0.686285,0.050163,0.725412 Neck:0.035852,-0.017614,0.996594,-0.072149 ShoulderLeft:-0.022072,0.787365,-0.609678,0.088669 ShoulderRight:0.024560,0.784403,0.618932,-0.032136 SpineBase:0.028588,-0.015563,0.998857,-0.034990 SpineMid:0.031984,-0.015682,0.998754,-0.034937 SpineShoulder:0.035609,-0.017067,0.997878,-0.051774 ThumbLeft:0.000000,0.000000,0.000000,0.000000 ThumbRight:0.000000,0.000000,0.000000,0.000000 WristLeft:-0.097641,0.847090,-0.067536,0.518019 WristRight:-0.447422,0.866012,0.031867,0.220955 END:
KINECT_DATA POSITION:32.547974,-3.284188,-12.516117 HEAD_JOINT1:0.984367,0.153623,-0.000000,0.086152 LARM_JOINT2:0.814047,0.000000,-0.027038,-0.580170 LARM_JOINT3:0.979209,0.000000,-0.149631,-0.136968 LLEG_JOINT2:0.998390,0.029754,0.000000,0.048283 LLEG_JOINT4:0.994008,0.100666,0.000000,-0.042599 RARM_JOINT2:0.836728,0.000000,0.146125,0.527763 RARM_JOINT3:0.900694,0.000000,0.427684,-0.076405 RLEG_JOINT2:0.998754,0.023525,0.000000,-0.044022 RLEG_JOINT4:0.993529,0.107093,0.000000,0.037822 WAIST:0.999591,0.000000,-0.028167,-0.004903 WAIST_JOINT0:0.999570,0.000000,-0.029338,0.000149 WAIST_JOINT1:0.998458,0.054325,0.000000,-0.011435 END:
KINECT_DATA_Sensor  AnkleLeft:0.087817,0.709402,-0.095818,-0.692716 AnkleRight:0.089238,0.691913,0.095378,0.710068 ElbowLeft:-0.038954,0.910189,-0.146741,-0.385363 ElbowRight:-0.203922,0.687077,0.113810,0.688033 FootLeft:0.000000,0.000000,0.000000,0.000000 FootRight:0.000000,0.000000,0.000000,0.000000 HandLeft:-0.093930,0.845394,-0.001183,0.525819 HandRight:-0.544873,0.818606,0.002173,0.181638 HandTipLeft:0.000000,0.000000,0.000000,0.000000 HandTipRight:0.000000,0.000000,0.000000,0.000000 Head:0.000000,0.000000,0.000000,0.000000 HipLeft:0.146275,-0.681937,0.694141,-0.178139 HipRight:-0.107448,0.680944,0.707842,-0.154045 KneeLeft:-0.011118,0.726784,-0.051343,-0.684854 KneeRight:-0.016541,0.686703,0.051635,0.724913 Neck:0.029849,-0.015136,0.996970,-0.070221 ShoulderLeft:-0.021103,0.787005,-0.610887,0.083630 ShoulderRight:0.017704,0.785811,0.617138,-0.036440 SpineBase:0.027967,-0.014453,0.998965,-0.032839 SpineMid:0.028686,-0.014477,0.998944,-0.032828 SpineShoulder:0.029624,-0.014778,0.998222,-0.049568 ThumbLeft:0.000000,0.000000,0.000000,0.000000 ThumbRight:0.000000,0.000000,0.000000,0.000000 WristLeft:-0.098621,0.847695,-0.069685,0.516557 WristRight:-0.508593,0.835400,0.031015,0.206100 END:
KINECT_DATA POSITION:32.522781,-3.282794,-12.472081 HEAD_JOINT1:0.984298,0.154936,-0.000000,0.084572 LARM_JOINT2:0.813347,0.000000,-0.025311,-0.581229 LARM_JOINT3:0.979734,0.000000,-0.145706,-0.137447 LLEG_JOINT2:0.998470,0.027867,0.000000,0.047770 LLEG_JOINT4:0.994126,0.100310,0.000000,-0.040638 RARM_JOINT2:0.837963,0.000000,0.166751,0.519627 RARM_JOINT3:0.903843,0.000000,0.418493,-0.089061 RLEG_JOINT2:0.998738,0.022222,0.000000,-0.045032 RLEG_JOINT4:0.993495,0.104886,0.000000,0.044349 WAIST:0.999612,0.000000,-0.027489,-0.004594 WAIST_JOINT0:0.999670,0.000000,-0.025668,0.000578 WAIST_JOINT1:0.998503,0.053646,0.000000,-0.010657 END:
KINECT_DATA_Sensor  AnkleLeft:0.086317,0.718144,-0.094222,-0.684062 AnkleRight:0.089804,0.687166,0.089486,0.715353 ElbowLeft:-0.038974,0.907513,-0.146791,-0.391604 ElbowRight:-0.219730,0.683664,0.101066,0.688555 FootLeft:0.000000,0.000000,0.000000,0.000000 FootRight:0.000000,0.000000,0.000000,0.000000 HandLeft:-0.077441,0.845707,0.011653,0.527871 HandRight:-0.552149,0.816886,0.005093,0.166740 HandTipLeft:0.000000,0.000000,0.000000,0.000000 HandTipRight:0.000000,0.000000,0.000000,0.000000 Head:0.000000,0.000000,0.000000,0.000000 HipLeft:0.146331,-0.681996,0.694295,-0.177267 HipRight:-0.108524,0.681286,0.707433,-0.153657 KneeLeft:-0.012232,0.726268,-0.049848,-0.685492 KneeRight:-0.018000,0.687176,0.051247,0.724457 Neck:0.026291,-0.013931,0.997133,-0.069578 ShoulderLeft:-0.020685,0.786525,-0.611803,0.081541 ShoulderRight:0.013546,0.785589,0.617306,-0.039993 SpineBase:0.027296,-0.013876,0.999023,-0.031878 SpineMid:0.026582,-0.013853,0.999042,-0.031888 SpineShoulder:0.026081,-0.013600,0.998371,-0.048894 ThumbLeft:0.000000,0.000000,0.000000,0.000000 ThumbRight:0.000000,0.000000,0.000000,0.000000 WristLeft:-0.098607,0.846877,-0.071765,0.517615 WristRight:-0.520832,0.830552,0.038294,0.193524 END:
KINECT_DATA POSITION:32.483154,-3.290293,-12.357283 HEAD_JOINT1:0.984401,0.156184,-0.000000,0.081006 LARM_JOINT2:0.812089,0.000000,-0.024055,-0.583037 LARM_JOINT3:0.979783,0.000000,-0.148243,-0.134348 LLEG_JOINT2:0.998514,0.029027,0.000000,0.046125 LLEG_JOINT4:0.993886,0.103851,0.000000,-0.037478 RARM_JOINT2:0.837496,0.000000,0.171661,0.518780 RARM_JOINT3:0.904859,0.000000,0.416641,-0.087409 RLEG_JOINT2:0.998715,0.024293,0.000000,-0.044483 RLEG_JOINT4:0.993281,0.107990,0.000000,0.041608 WAIST:0.999673,0.000000,-0.025185,-0.004402 WAIST_JOINT0:0.999805,0.000000,-0.019714,0.001219 WAIST_JOINT1:0.998546,0.052997,0.000000,-0.009818 END:
KINECT_DATA_Sensor  AnkleLeft:0.089283,0.721234,-0.097934,-0.679896 AnkleRight:0.095156,0.711750,0.091528,0.689913 ElbowLeft:-0.038220,0.905301,-0.145971,-0.397067 ElbowRight:-0.222552,0.683810,0.095597,0.688285 FootLeft:0.000000,0.000000,0.000000,0.000000 FootRight:0.000000,0.000000,0.000000,0.000000 HandLeft:-0.085322,0.836232,-0.001113,0.541696 HandRight:-0.538521,0.826543,-0.006812,0.163632 HandTipLeft:0.000000,0.000000,0.000000,0.000000 HandTipRight:0.000000,0.000000,0.000000,0.000000 Head:0.000000,0.000000,0.000000,0.000000 HipLeft:0.145696,-0.682346,0.694607,-0.175208 HipRight:-0.111023,0.681369,0.706953,-0.153712 KneeLeft:-0.010251,0.724752,-0.049725,-0.687137 KneeRight:-0.016093,0.688831,0.052104,0.722868 Neck:0.020380,-0.012789,0.997325,-0.069017 ShoulderLeft:-0.019176,0.786023,-0.612963,0.077946 ShoulderRight:0.007448,0.785628,0.616967,-0.045664 SpineBase:0.025022,-0.012993,0.999142,-0.030351 SpineMid:0.022507,-0.012917,0.999201,-0.030383 SpineShoulder:0.020174,-0.012538,0.998554,-0.048222 ThumbLeft:0.000000,0.000000,0.000000,0.000000 ThumbRight:0.000000,0.000000,0.000000,0.000000 WristLeft:-0.096132,0.837915,-0.074400,0.532091 WristRight:-0.526699,0.827546,0.034953,0.191139 END:
KINECT_DATA POSITION:32.429718,-3.298383,-12.252272 HEAD_JOINT1:0.984268,0.157545,-0.000000,0.079969 LARM_JOINT2:0.811914,0.000000,-0.022635,-0.583338 LARM_JOINT3:0.979951,0.000000,-0.149153,-0.132096 LLEG_JOINT2:0.998501,0.029069,0.000000,0.046367 LLEG_JOINT4:0.993958,0.102806,0.000000,-0.038447 RARM_JOINT2:0.836943,0.000000,0.173460,0.519075 RARM_JOINT3:0.906347,0.000000,0.413567,-0.086585 RLEG_JOINT2:0.998758,0.023579,0.000000,-0.043888 RLEG_JOINT4:0.993382,0.107373,0.000000,0.040794 WAIST:0.999711,0.000000,-0.023691,-0.004069 WAIST_JOINT0:0.999856,0.000000,-0.016863,0.001872 WAIST_JOINT1:0.998566,0.052597,0.000000,-0.010007 END:
KINECT_DATA_Sensor  AnkleLeft:0.089858,0.726148,-0.096041,-0.674841 AnkleRight:0.092164,0.698308,0.092708,0.703759 ElbowLeft:-0.037953,0.902662,-0.146063,-0.403022 ElbowRight:-0.223221,0.685331,0.093383,0.686858 FootLeft:0.000000,0.000000,0.000000,0.000000 FootRight:0.000000,0.000000,0.000000,0.000000 HandLeft:-0.084326,0.834188,-0.006463,0.544957 HandRight:-0.529967,0.828787,-0.015210,0.178929 HandTipLeft:0.000000,0.000000,0.000000,0.000000 HandTipRight:0.000000,0.000000,0.000000,0.000000 Head:0.000000,0.000000,0.000000,0.000000 HipLeft:0.145237,-0.682565,0.694832,-0.173840 HipRight:-0.112417,0.681631,0.706414,-0.154016 KneeLeft:-0.010551,0.723716,-0.050177,-0.688190 KneeRight:-0.016041,0.689928,0.050925,0.721906 Neck:0.017498,-0.012659,0.997402,-0.068717 ShoulderLeft:-0.018019,0.785674,-0.613718,0.075782 ShoulderRight:0.004897,0.785903,0.616470,-0.047938 SpineBase:0.023522,-0.012765,0.999206,-0.029527 SpineMid:0.020323,-0.012671,0.999276,-0.029568 SpineShoulder:0.017288,-0.012415,0.998630,-0.047800 ThumbLeft:0.000000,0.000000,0.000000,0.000000 ThumbRight:0.000000,0.000000,0.000000,0.000000 WristLeft:-0.094991,0.835472,-0.076621,0.535811 WristRight:-0.528037,0.824307,0.024346,0.202736 END:
KINECT_DATA POSITION:32.422119,-3.311398,-12.198103 HEAD_JOINT1:0.984300,0.157702,-0.000000,0.079263 LARM_JOINT2:0.811661,0.000000,-0.022425,-0.583697 LARM_JOINT3:0.979613,0.000000,-0.150191,-0.133419 LLEG_JOINT2:0.998505,0.030134,0.000000,0.045614 LLEG_JOINT4:0.994367,0.099284,0.000000,-0.037096 RARM_JOINT2:0.836718,0.000000,0.170967,0.520262 RARM_JOINT3:0.904379,0.000000,0.418372,-0.084044 RLEG_JOINT2:0.998795,0.024716,0.000000,-0.042406 RLEG_JOINT4:0.993401,0.108109,0.000000,0.038308 WAIST:0.999732,0.000000,-0.022839,-0.003865 WAIST_JOINT0:0.999870,0.000000,-0.015994,0.002164 WAIST_JOINT1:0.998569,0.052555,0.000000,-0.009916 END:
KINECT_DATA_Sensor  AnkleLeft:0.087877,0.727628,-0.094589,-0.673712 AnkleRight:0.093154,0.700471,0.094430,0.701245 ElbowLeft:-0.037695,0.902144,-0.146026,-0.404216 ElbowRight:-0.220896,0.687866,0.094735,0.684887 FootLeft:0.000000,0.000000,0.000000,0.000000 FootRight:0.000000,0.000000,0.000000,0.000000 HandLeft:-0.090708,0.833731,-0.003265,0.544660 HandRight:-0.537769,0.825067,-0.020075,0.172240 HandTipLeft:0.000000,0.000000,0.000000,0.000000 HandTipRight:0.000000,0.000000,0.000000,0.000000 Head:0.000000,0.000000,0.000000,0.000000 HipLeft:0.144763,-0.682568,0.695076,-0.173246 HipRight:-0.113118,0.681713,0.706175,-0.154237 KneeLeft:-0.009367,0.723157,-0.050581,-0.688765 KneeRight:-0.014093,0.690569,0.050481,0.721365 Neck:0.016557,-0.012428,0.997421,-0.068726 ShoulderLeft:-0.017158,0.785232,-0.614422,0.074847 ShoulderRight:0.004544,0.785894,0.616445,-0.048431 SpineBase:0.022672,-0.012386,0.999237,-0.029288 SpineMid:0.019435,-0.012291,0.999305,-0.029328 SpineShoulder:0.016352,-0.012157,0.998653,-0.047727 ThumbLeft:0.000000,0.000000,0.000000,0.000000 ThumbRight:0.000000,0.000000,0.000000,0.000000 WristLeft:-0.094843,0.836322,-0.076644,0.534506 WristRight:-0.526030,0.826209,0.022953,0.200358 END:
KINECT_DATA POSITION:32.409969,-3.335512,-12.093317 HEAD_JOINT1:0.983961,0.158444,-0.000000,0.081953 LARM_JOINT2:0.811840,0.000000,-0.021762,-0.583474 LARM_JOINT3:0.979471,0.000000,-0.152713,-0.131590 LLEG_JOINT2:0.998439,0.031500,0.000000,0.046121 LLEG_JOINT4:0.994425,0.097817,0.000000,-0.039380 RARM_JOINT2:0.829220,0.000000,0.131752,0.543171 RARM_JOINT3:0.875673,0.000000,0.475412,-0.084739 RLEG_JOINT2:0.998768,0.025633,0.000000,-0.042488 RLEG_JOINT4:0.993489,0.107499,0.000000,0.037728 WAIST:0.999717,0.000000,-0.023433,-0.003996 WAIST_JOINT0:0.999866,0.000000,-0.016117,0.002743 WAIST_JOINT1:0.998547,0.053052,0.000000,-0.009420 END:
KINECT_DATA_Sensor  AnkleLeft:0.089091,0.728011,-0.093217,-0.673331 AnkleRight:0.093876,0.707222,0.094197,0.694371 ElbowLeft:-0.037318,0.901917,-0.147021,-0.404398 ElbowRight:-0.185724,0.679612,0.106116,0.701693 FootLeft:0.000000,0.000000,0.000000,0.000000 FootRight:0.000000,0.000000,0.000000,0.000000 HandLeft:-0.093437,0.824512,-0.015316,0.557867 HandRight:-0.580823,0.794302,-0.049153,0.171210 HandTipLeft:0.000000,0.000000,0.000000,0.000000 HandTipRight:0.000000,0.000000,0.000000,0.000000 Head:0.000000,0.000000,0.000000,0.000000 HipLeft:0.144655,-0.682497,0.695035,-0.173777 HipRight:-0.112621,0.681694,0.706369,-0.153796 KneeLeft:-0.008723,0.723597,-0.051821,-0.688219 KneeRight:-0.013549,0.690131,0.051273,0.721739 Neck:0.016496,-0.012022,0.997385,-0.069329 ShoulderLeft:-0.015016,0.784883,-0.615044,0.073848 ShoulderRight:0.006589,0.786436,0.615814,-0.047403 SpineBase:0.023285,-0.011894,0.999221,-0.029558 SpineMid:0.019725,-0.011789,0.999298,-0.029600 SpineShoulder:0.016303,-0.011697,0.998637,-0.048188 ThumbLeft:0.000000,0.000000,0.000000,0.000000 ThumbRight:0.000000,0.000000,0.000000,0.000000 WristLeft:-0.093036,0.826919,-0.078475,0.548990 WristRight:-0.537108,0.815681,0.003844,0.214861 END:
KINECT_DATA POSITION:32.413231,-3.349113,-12.045109 HEAD_JOINT1:0.983612,0.159120,-0.000000,0.084780 LARM_JOINT2:0.812354,0.000000,-0.021742,-0.582759 LARM_JOINT3:0.978628,0.000000,-0.155802,-0.134209 LLEG_JOINT2:0.998497,0.030601,0.000000,0.045469 LLEG_JOINT4:0.994290,0.099904,0.000000,-0.037512 RARM_JOINT2:0.826625,0.000000,0.112360,0.551422 RARM_JOINT3:0.849538,0.000000,0.520580,-0.085335 RLEG_JOINT2:0.998809,0.024446,0.000000,-0.042231 RLEG_JOINT4:0.993464,0.108106,0.000000,0.036627 WAIST:0.999709,0.000000,-0.023837,-0.003567 WAIST_JOINT0:0.999838,0.000000,-0.017646,0.003667 WAIST_JOINT1:0.998515,0.053688,0.000000,-0.009284 END:
KINECT_DATA_Sensor  AnkleLeft:0.089655,0.734640,-0.094391,-0.665851 AnkleRight:0.091978,0.697922,0.095318,0.703818 ElbowLeft:-0.037177,0.902713,-0.148634,-0.402039 ElbowRight:-0.169551,0.677420,0.113872,0.706674 FootLeft:0.000000,0.000000,0.000000,0.000000 FootRight:0.000000,0.000000,0.000000,0.000000 HandLeft:-0.105260,0.863369,-0.007528,0.493415 HandRight:-0.621381,0.765107,-0.060955,0.157419 HandTipLeft:0.000000,0.000000,0.000000,0.000000 HandTipRight:0.000000,0.000000,0.000000,0.000000 Head:0.000000,0.000000,0.000000,0.000000 HipLeft:0.144418,-0.682082,0.695358,-0.174314 HipRight:-0.112135,0.682010,0.706163,-0.153693 KneeLeft:-0.009202,0.723832,-0.051018,-0.688026 KneeRight:-0.013911,0.689871,0.049969,0.722072 Neck:0.017910,-0.011481,0.997320,-0.070001 ShoulderLeft:-0.015110,0.784137,-0.615839,0.075120 ShoulderRight:0.008305,0.786973,0.615190,-0.046320 SpineBase:0.023677,-0.011317,0.999205,-0.030010 SpineMid:0.020635,-0.011226,0.999272,-0.030045 SpineShoulder:0.017732,-0.011144,0.998590,-0.048790 ThumbLeft:0.000000,0.000000,0.000000,0.000000 ThumbRight:0.000000,0.000000,0.000000,0.000000 WristLeft:-0.098806,0.866441,-0.070910,0.484241 WristRight:-0.551633,0.807042,-0.006955,0.210562 END:
KINECT_DATA POSITION:32.371174,-3.374954,-11.969137 HEAD_JOINT1:0.983865,0.157697,-0.000000,0.084501 LARM_JOINT2:0.812774,0.000000,-0.022402,-0.582148 LARM_JOINT3:0.979028,0.000000,-0.153865,-0.133530 LLEG_JOINT2:0.998487,0.030775,0.000000,0.045580 LLEG_JOINT4:0.994116,0.101673,0.000000,-0.037371 RARM_JOINT2:0.825898,0.000000,0.153559,0.542506 RARM_JOINT3:0.862527,0.000000,0.495039,-0.104801 RLEG_JOINT2:0.998824,0.024320,0.000000,-0.041938 RLEG_JOINT4:0.993173,0.110880,0.000000,0.036226 WAIST:0.999725,0.000000,-0.023229,-0.003314 WAIST_JOINT0:0.999854,0.000000,-0.016533,0.004329 WAIST_JOINT1:0.998545,0.053191,0.000000,-0.008860 END:
KINECT_DATA_Sensor  AnkleLeft:0.089487,0.725225,-0.097225,-0.675713 AnkleRight:0.094011,0.698238,0.097015,0.703003 ElbowLeft:-0.038452,0.902812,-0.149464,-0.401388 ElbowRight:-0.193917,0.681745,0.089327,0.699743 FootLeft:0.000000,0.000000,0.000000,0.000000 FootRight:0.000000,0.000000,0.000000,0.000000 HandLeft:-0.093464,0.841327,-0.014511,0.532187 HandRight:-0.611347,0.770780,-0.060716,0.168721 HandTipLeft:0.000000,0.000000,0.000000,0.000000 HandTipRight:0.000000,0.000000,0.000000,0.000000 Head:0.000000,0.000000,0.000000,0.000000 HipLeft:0.144171,-0.682071,0.695564,-0.173736 HipRight:-0.112921,0.682224,0.705859,-0.153562 KneeLeft:-0.009307,0.723409,-0.051407,-0.688441 KneeRight:-0.013652,0.690317,0.049484,0.721683 Neck:0.016696,-0.010762,0.997389,-0.069438 ShoulderLeft:-0.015064,0.783658,-0.616561,0.074199 ShoulderRight:0.006758,0.787482,0.614489,-0.047217 SpineBase:0.023077,-0.010707,0.999241,-0.029508 SpineMid:0.019738,-0.010609,0.999312,-0.029544 SpineShoulder:0.016523,-0.010504,0.998641,-0.048300 ThumbLeft:0.000000,0.000000,0.000000,0.000000 ThumbRight:0.000000,0.000000,0.000000,0.000000 WristLeft:-0.096620,0.842939,-0.076431,0.523714 WristRight:-0.566753,0.797179,-0.018660,0.207243 END:
KINECT_DATA POSITION:32.324867,-3.375987,-11.907637 HEAD_JOINT1:0.984428,0.157762,-0.000000,0.077544 LARM_JOINT2:0.811570,0.000000,-0.018972,-0.583947 LARM_JOINT3:0.979876,0.000000,-0.148243,-0.133666 LLEG_JOINT2:0.998492,0.030851,0.000000,0.045402 LLEG_JOINT4:0.994210,0.101110,0.000000,-0.036374 RARM_JOINT2:0.830899,0.000000,0.202574,0.518237 RARM_JOINT3:0.902551,0.000000,0.418598,-0.100883 RLEG_JOINT2:0.998795,0.026397,0.000000,-0.041363 RLEG_JOINT4:0.993434,0.108526,0.000000,0.036209 WAIST:0.999814,0.000000,-0.019031,-0.003048 WAIST_JOINT0:0.999962,0.000000,-0.006264,0.005999 WAIST_JOINT1:0.998636,0.051800,0.000000,-0.006610 END:
KINECT_DATA_Sensor  AnkleLeft:0.088357,0.719378,-0.097684,-0.682016 AnkleRight:0.094306,0.703876,0.096289,0.697419 ElbowLeft:-0.038370,0.896266,-0.150291,-0.415510 ElbowRight:-0.231277,0.696553,0.067631,0.675833 FootLeft:0.000000,0.000000,0.000000,0.000000 FootRight:0.000000,0.000000,0.000000,0.000000 HandLeft:-0.068876,0.842028,0.004429,0.535001 HandRight:-0.558945,0.805901,-0.042430,0.190536 HandTipLeft:0.000000,0.000000,0.000000,0.000000 HandTipRight:0.000000,0.000000,0.000000,0.000000 Head:0.000000,0.000000,0.000000,0.000000 HipLeft:0.142234,-0.682441,0.696136,-0.171574 HipRight:-0.116658,0.682023,0.705040,-0.155417 KneeLeft:-0.009087,0.720506,-0.051573,-0.691469 KneeRight:-0.011765,0.693346,0.050272,0.718753 Neck:0.006559,-0.007898,0.997651,-0.067724 ShoulderLeft:-0.011926,0.783295,-0.617873,0.067378 ShoulderRight:-0.003261,0.788287,0.612725,-0.056214 SpineBase:0.018917,-0.009251,0.999367,-0.028671 SpineMid:0.012615,-0.009070,0.999466,-0.028729 SpineShoulder:0.006396,-0.008038,0.998844,-0.046956 ThumbLeft:0.000000,0.000000,0.000000,0.000000 ThumbRight:0.000000,0.000000,0.000000,0.000000 WristLeft:-0.095367,0.841888,-0.081472,0.524874 WristRight:-0.546584,0.810620,-0.016189,0.209475 END:
KINECT_DATA POSITION:32.276829,-3.363916,-11.943161 HEAD_JOINT1:0.984969,0.158358,-0.000000,0.068981 LARM_JOINT2:0.810137,0.000000,-0.012232,-0.586113 LARM_JOINT3:0.979261,0.000000,-0.153675,-0.132032 LLEG_JOINT2:0.998489,0.032208,0.000000,0.044512 LLEG_JOINT4:0.994620,0.097403,0.000000,-0.035269 RARM_JOINT2:0.833806,0.000000,0.213701,0.509017 RARM_JOINT3:0.912630,0.000000,0.398083,-0.092937 RLEG_JOINT2:0.998753,0.024324,0.000000,-0.043593 RLEG_JOINT4:0.992753,0.112476,0.000000,0.042311 WAIST:0.999877,0.000000,-0.015474,-0.002472 WAIST_JOINT0:0.999950,-0.000000,0.005070,0.008627 WAIST_JOINT1:0.998685,0.051098,0.000000,-0.004080 END:
KINECT_DATA_Sensor  AnkleLeft:0.088491,0.731457,-0.094459,-0.669491 AnkleRight:0.096695,0.693541,0.096309,0.707372 ElbowLeft:-0.035704,0.889075,-0.152816,-0.430020 ElbowRight:-0.241260,0.704024,0.063287,0.664935 FootLeft:0.000000,0.000000,0.000000,0.000000 FootRight:0.000000,0.000000,0.000000,0.000000 HandLeft:-0.070601,0.852319,-0.002278,0.518231 HandRight:-0.541036,0.816364,-0.047509,0.196399 HandTipLeft:0.000000,0.000000,0.000000,0.000000 HandTipRight:0.000000,0.000000,0.000000,0.000000 Head:0.000000,0.000000,0.000000,0.000000 HipLeft:0.139509,-0.682467,0.697200,-0.169376 HipRight:-0.119329,0.682215,0.704324,-0.155794 KneeLeft:-0.007716,0.718038,-0.052375,-0.693987 KneeRight:-0.014571,0.695878,0.049991,0.716270 Neck:-0.004904,-0.004514,0.997728,-0.067041 ShoulderLeft:-0.005660,0.782987,-0.619259,0.058461 ShoulderRight:-0.011855,0.790491,0.608900,-0.064996 SpineBase:0.015409,-0.006584,0.999468,-0.027968 SpineMid:0.005200,-0.006298,0.999574,-0.028034 SpineShoulder:-0.005026,-0.004763,0.998909,-0.046174 ThumbLeft:0.000000,0.000000,0.000000,0.000000 ThumbRight:0.000000,0.000000,0.000000,0.000000 WristLeft:-0.095903,0.851469,-0.083080,0.508824 WristRight:-0.538179,0.815010,-0.020213,0.213809 END:
KINECT_DATA POSITION:32.224640,-3.331412,-12.086069 HEAD_JOINT1:0.985170,0.157757,-0.000000,0.067472 LARM_JOINT2:0.809399,0.000000,-0.011789,-0.587141 LARM_JOINT3:0.979358,0.000000,-0.152645,-0.132508 LLEG_JOINT2:0.998589,0.030495,0.000000,0.043470 LLEG_JOINT4:0.994604,0.097713,0.000000,-0.034848 RARM_JOINT2:0.834686,0.000000,0.215853,0.506663 RARM_JOINT3:0.917327,0.000000,0.387186,-0.092722 RLEG_JOINT2:0.998655,0.026995,0.000000,-0.044257 RLEG_JOINT4:0.993469,0.107589,0.000000,0.038009 WAIST:0.999929,0.000000,-0.011874,-0.001353 WAIST_JOINT0:0.999896,-0.000000,0.010436,0.009911 WAIST_JOINT1:0.998707,0.050703,0.000000,-0.003625 END:
KINECT_DATA_Sensor  AnkleLeft:0.087405,0.728469,-0.093639,-0.672998 AnkleRight:0.094379,0.713016,0.095744,0.688138 ElbowLeft:-0.035777,0.885989,-0.153117,-0.436231 ElbowRight:-0.243405,0.707453,0.061314,0.660685 FootLeft:0.000000,0.000000,0.000000,0.000000 FootRight:0.000000,0.000000,0.000000,0.000000 HandLeft:-0.063873,0.851022,0.003026,0.521223 HandRight:-0.534293,0.825513,-0.024853,0.180116 HandTipLeft:0.000000,0.000000,0.000000,0.000000 HandTipRight:0.000000,0.000000,0.000000,0.000000 Head:0.000000,0.000000,0.000000,0.000000 HipLeft:0.137155,-0.682250,0.698431,-0.167086 HipRight:-0.122118,0.682654,0.703126,-0.157112 KneeLeft:-0.008770,0.715458,-0.051245,-0.696718 KneeRight:-0.012500,0.698511,0.051495,0.713634 Neck:-0.010324,-0.003084,0.997716,-0.066682 ShoulderLeft:-0.003372,0.782106,-0.620726,0.054754 ShoulderRight:-0.016598,0.790855,0.607804,-0.069625 SpineBase:0.011801,-0.004839,0.999543,-0.027405 SpineMid:0.000728,-0.004536,0.999612,-0.027457 SpineShoulder:-0.010422,-0.003289,0.998895,-0.045714 ThumbLeft:0.000000,0.000000,0.000000,0.000000 ThumbRight:0.000000,0.000000,0.000000,0.000000 WristLeft:-0.096079,0.849689,-0.085487,0.511360 WristRight:-0.533380,0.823844,-0.006186,0.191700 END:
KINECT_DATA POSITION:32.150181,-3.278931,-12.318873 HEAD_JOINT1:0.985194,0.157693,-0.000000,0.067277 LARM_JOINT2:0.809613,0.000000,-0.010221,-0.586875 LARM_JOINT3:0.978363,0.000000,-0.159307,-0.132016 LLEG_JOINT2:0.998568,0.031040,0.000000,0.043582 LLEG_JOINT4:0.994797,0.094945,0.000000,-0.036927 RARM_JOINT2:0.834297,0.000000,0.212516,0.508709 RARM_JOINT3:0.915388,0.000000,0.392069,-0.091360 RLEG_JOINT2:0.998724,0.024845,0.000000,-0.043957 RLEG_JOINT4:0.993337,0.108306,0.000000,0.039394 WAIST:0.999897,0.000000,-0.014337,-0.001066 WAIST_JOINT0:0.999891,-0.000000,0.011057,0.009820 WAIST_JOINT1:0.998734,0.050124,0.000000,-0.004132 END:
KINECT_DATA_Sensor  AnkleLeft:0.082739,0.700798,-0.094755,-0.702181 AnkleRight:0.093364,0.700215,0.094629,0.701447 ElbowLeft:-0.036245,0.885141,-0.153341,-0.437834 ElbowRight:-0.240780,0.707401,0.063677,0.661478 FootLeft:0.000000,0.000000,0.000000,0.000000 FootRight:0.000000,0.000000,0.000000,0.000000 HandLeft:-0.084588,0.826957,-0.009523,0.555785 HandRight:-0.544700,0.818789,-0.029029,0.179007 HandTipLeft:0.000000,0.000000,0.000000,0.000000 HandTipRight:0.000000,0.000000,0.000000,0.000000 Head:0.000000,0.000000,0.000000,0.000000 HipLeft:0.138665,-0.681942,0.698178,-0.168151 HipRight:-0.121088,0.683380,0.702998,-0.155316 KneeLeft:-0.008799,0.717166,-0.051892,-0.694912 KneeRight:-0.013513,0.696751,0.049607,0.715468 Neck:-0.010982,-0.003139,0.997746,-0.066118 ShoulderLeft:-0.004011,0.781930,-0.620973,0.054420 ShoulderRight:-0.018094,0.790691,0.607897,-0.070299 SpineBase:0.014261,-0.004329,0.999527,-0.026889 SpineMid:0.001664,-0.003990,0.999628,-0.026941 SpineShoulder:-0.011072,-0.003219,0.998913,-0.045165 ThumbLeft:0.000000,0.000000,0.000000,0.000000 ThumbRight:0.000000,0.000000,0.000000,0.000000 WristLeft:-0.093080,0.828785,-0.090173,0.544354 WristRight:-0.530706,0.824767,-0.006558,0.195109 END:
KINECT_DATA POSITION:32.169514,-3.244771,-12.632799 HEAD_JOINT1:0.984763,0.159088,-0.000000,0.070236 LARM_JOINT2:0.809829,0.000000,-0.012441,-0.586534 LARM_JOINT3:0.978111,0.000000,-0.161180,-0.131605 LLEG_JOINT2:0.998651,0.028442,0.000000,0.043437 LLEG_JOINT4:0.994598,0.097956,0.000000,-0.034338 RARM_JOINT2:0.838683,0.000000,0.125608,0.529937 RARM_JOINT3:0.868789,0.000000,0.490355,-0.068970 RLEG_JOINT2:0.998760,0.024433,0.000000,-0.043367 RLEG_JOINT4:0.993856,0.104558,0.000000,0.036306 WAIST:0.999849,0.000000,-0.017349,-0.000826 WAIST_JOINT0:0.999961,0.000000,-0.000065,0.008853 WAIST_JOINT1:0.998659,0.051521,0.000000,-0.005095 END:
KINECT_DATA_Sensor  AnkleLeft:0.083383,0.721390,-0.094944,-0.680903 AnkleRight:0.091994,0.720808,0.090318,0.681040 ElbowLeft:-0.036701,0.887246,-0.152758,-0.433719 ElbowRight:-0.188737,0.699178,0.117842,0.679442 FootLeft:0.000000,0.000000,0.000000,0.000000 FootRight:0.000000,0.000000,0.000000,0.000000 HandLeft:-0.094369,0.864202,-0.006528,0.494173 HandRight:-0.577373,0.794035,-0.047127,0.184195 HandTipLeft:0.000000,0.000000,0.000000,0.000000 HandTipRight:0.000000,0.000000,0.000000,0.000000 Head:0.000000,0.000000,0.000000,0.000000 HipLeft:0.139192,-0.681223,0.698176,-0.170619 HipRight:-0.117882,0.683747,0.703357,-0.154543 KneeLeft:-0.010838,0.719200,-0.050064,-0.692913 KneeRight:-0.013084,0.694619,0.048765,0.717604 Neck:-0.000136,-0.004331,0.997711,-0.067487 ShoulderLeft:-0.003655,0.781712,-0.620828,0.059041 ShoulderRight:-0.003663,0.790462,0.609747,-0.058011 SpineBase:0.017246,-0.004523,0.999432,-0.028593 SpineMid:0.008562,-0.004275,0.999544,-0.028631 SpineShoulder:-0.000201,-0.004048,0.998906,-0.046584 ThumbLeft:0.000000,0.000000,0.000000,0.000000 ThumbRight:0.000000,0.000000,0.000000,0.000000 WristLeft:-0.099383,0.865796,-0.082071,0.483513 WristRight:-0.545546,0.812429,-0.024238,0.204332 END:
KINECT_DATA POSITION:32.175339,-3.253355,-12.737310 HEAD_JOINT1:0.984183,0.159791,-0.000000,0.076495 LARM_JOINT2:0.811071,0.000000,-0.014939,-0.584756 LARM_JOINT3:0.977249,0.000000,-0.164283,-0.134147 LLEG_JOINT2:0.998630,0.028238,0.000000,0.044048 LLEG_JOINT4:0.994606,0.096451,0.000000,-0.038159 RARM_JOINT2:0.838050,0.000000,0.109615,0.534469 RARM_JOINT3:0.859725,0.000000,0.506836,-0.063177 RLEG_JOINT2:0.998734,0.024787,0.000000,-0.043769 RLEG_JOINT4:0.993640,0.106195,0.000000,0.037454 WAIST:0.999778,0.000000,-0.021068,-0.000170 WAIST_JOINT0:0.999943,0.000000,-0.007113,0.007989 WAIST_JOINT1:0.998637,0.051696,0.000000,-0.007157 END:
KINECT_DATA_Sensor  AnkleLeft:0.081884,0.710976,-0.093816,-0.692103 AnkleRight:0.093225,0.706430,0.091798,0.695585 ElbowLeft:-0.037897,0.892706,-0.152674,-0.422293 ElbowRight:-0.178215,0.694556,0.127461,0.685263 FootLeft:0.000000,0.000000,0.000000,0.000000 FootRight:0.000000,0.000000,0.000000,0.000000 HandLeft:-0.117065,0.850835,-0.012845,0.512066 HandRight:-0.582454,0.788916,-0.050820,0.189146 HandTipLeft:0.000000,0.000000,0.000000,0.000000 HandTipRight:0.000000,0.000000,0.000000,0.000000 Head:0.000000,0.000000,0.000000,0.000000 HipLeft:0.141377,-0.680401,0.698075,-0.172507 HipRight:-0.115129,0.684613,0.703325,-0.152919 KneeLeft:-0.012071,0.721725,-0.050762,-0.690210 KneeRight:-0.012462,0.691986,0.048883,0.720146 Neck:0.006894,-0.006003,0.997661,-0.067742 ShoulderLeft:-0.005762,0.782011,-0.620056,0.062902 ShoulderRight:0.003337,0.789990,0.610993,-0.050912 SpineBase:0.020896,-0.005361,0.999349,-0.028917 SpineMid:0.013895,-0.005158,0.999471,-0.028954 SpineShoulder:0.006840,-0.005336,0.998866,-0.046814 ThumbLeft:0.000000,0.000000,0.000000,0.000000 ThumbRight:0.000000,0.000000,0.000000,0.000000 WristLeft:-0.097560,0.856266,-0.081443,0.500657 WristRight:-0.547142,0.809493,-0.026155,0.211362 END:
KINECT_DATA POSITION:32.164730,-3.256856,-12.782931 HEAD_JOINT1:0.983587,0.160111,-0.000000,0.083189 LARM_JOINT2:0.811994,0.000000,-0.016133,-0.583443 LARM_JOINT3:0.978187,0.000000,-0.158176,-0.134648 LLEG_JOINT2:0.998660,0.027375,0.000000,0.043916 LLEG_JOINT4:0.994482,0.097835,0.000000,-0.037867 RARM_JOINT2:0.836812,0.000000,0.120647,0.534032 RARM_JOINT3:0.864960,0.000000,0.496165,-0.075269 RLEG_JOINT2:0.998736,0.023692,0.000000,-0.044337 RLEG_JOINT4:0.993936,0.103068,0.000000,0.038326 WAIST:0.999745,0.000000,-0.022580,-0.000137 WAIST_JOINT0:0.999918,0.000000,-0.010012,0.008035 WAIST_JOINT1:0.998676,0.050801,0.000000,-0.008147 END:
KINECT_DATA_Sensor  AnkleLeft:0.084418,0.729849,-0.092265,-0.672072 AnkleRight:0.089988,0.702253,0.089079,0.700577 ElbowLeft:-0.039305,0.895444,-0.152471,-0.416399 ElbowRight:-0.185025,0.692173,0.119664,0.687272 FootLeft:0.000000,0.000000,0.000000,0.000000 FootRight:0.000000,0.000000,0.000000,0.000000 HandLeft:-0.099034,0.854059,-0.006920,0.510615 HandRight:-0.587500,0.789624,-0.023648,0.175439 HandTipLeft:0.000000,0.000000,0.000000,0.000000 HandTipRight:0.000000,0.000000,0.000000,0.000000 Head:0.000000,0.000000,0.000000,0.000000 HipLeft:0.142728,-0.680351,0.697792,-0.172738 HipRight:-0.114352,0.684911,0.703412,-0.151763 KneeLeft:-0.012675,0.722756,-0.050052,-0.689171 KneeRight:-0.013551,0.690883,0.048533,0.721209 Neck:0.009912,-0.007085,0.997693,-0.066791 ShoulderLeft:-0.008353,0.782382,-0.619376,0.064672 ShoulderRight:0.004638,0.790092,0.611091,-0.047957 SpineBase:0.022391,-0.005972,0.999330,-0.028326 SpineMid:0.016144,-0.005795,0.999451,-0.028363 SpineShoulder:0.009851,-0.006293,0.998874,-0.045984 ThumbLeft:0.000000,0.000000,0.000000,0.000000 ThumbRight:0.000000,0.000000,0.000000,0.000000 WristLeft:-0.098468,0.856741,-0.080494,0.499819 WristRight:-0.548642,0.813640,-0.008207,0.192130 END:
KINECT_DATA POSITION:32.146057,-3.252191,-12.788069 HEAD_JOINT1:0.983792,0.159286,-0.000000,0.082344 LARM_JOINT2:0.811396,0.000000,-0.013701,-0.584336 LARM_JOINT3:0.978956,0.000000,-0.154857,-0.132909 LLEG_JOINT2:0.998699,0.026227,0.000000,0.043732 LLEG_JOINT4:0.994172,0.100202,0.000000,-0.039780 RARM_JOINT2:0.837505,0.000000,0.166599,0.520413 RARM_JOINT3:0.895942,0.000000,0.435682,-0.086419 RLEG_JOINT2:0.998829,0.020323,0.000000,-0.043908 RLEG_JOINT4:0.993563,0.107062,0.000000,0.037013 WAIST:0.999763,0.000000,-0.021772,-0.000178 WAIST_JOINT0:0.999941,0.000000,-0.007451,0.007945 WAIST_JOINT1:0.998730,0.049838,0.000000,-0.007444 END:
KINECT_DATA_Sensor  AnkleLeft:0.084370,0.710726,-0.093843,-0.692058 AnkleRight:0.089906,0.703706,0.090133,0.698993 ElbowLeft:-0.038777,0.893116,-0.152515,-0.421402 ElbowRight:-0.216249,0.694386,0.093706,0.679915 FootLeft:0.000000,0.000000,0.000000,0.000000 FootRight:0.000000,0.000000,0.000000,0.000000 HandLeft:-0.082815,0.858110,-0.003339,0.506733 HandRight:-0.549716,0.815526,-0.009856,0.180645 HandTipLeft:0.000000,0.000000,0.000000,0.000000 HandTipRight:0.000000,0.000000,0.000000,0.000000 Head:0.000000,0.000000,0.000000,0.000000 HipLeft:0.142739,-0.680553,0.697757,-0.172072 HipRight:-0.115446,0.684898,0.703245,-0.151767 KneeLeft:-0.013271,0.722187,-0.049077,-0.689827 KneeRight:-0.015765,0.691436,0.045911,0.720805 Neck:0.007477,-0.006215,0.997789,-0.065743 ShoulderLeft:-0.008647,0.782751,-0.619078,0.062997 ShoulderRight:0.001160,0.790123,0.610889,-0.050183 SpineBase:0.021600,-0.005653,0.999369,-0.027628 SpineMid:0.014531,-0.005458,0.999497,-0.027667 SpineShoulder:0.007407,-0.005688,0.998942,-0.045023 ThumbLeft:0.000000,0.000000,0.000000,0.000000 ThumbRight:0.000000,0.000000,0.000000,0.000000 WristLeft:-0.098152,0.858512,-0.081396,0.496687 WristRight:-0.540354,0.819372,0.004740,0.191376 END:
KINECT_DATA POSITION:32.080662,-3.247453,-12.769723 HEAD_JOINT1:0.984052,0.161084,-0.000000,0.075461 LARM_JOINT2:0.810216,0.000000,-0.011971,-0.586010 LARM_JOINT3:0.979158,0.000000,-0.154519,-0.131808 LLEG_JOINT2:0.998704,0.026885,0.000000,0.043220 LLEG_JOINT4:0.994470,0.098187,0.000000,-0.037274 RARM_JOINT2:0.838668,0.000000,0.223491,0.496676 RARM_JOINT3:0.929804,0.000000,0.356889,-0.089974 RLEG_JOINT2:0.998734,0.018409,0.000000,-0.046805 RLEG_JOINT4:0.992783,0.111088,0.000000,0.045189 WAIST:0.999854,0.000000,-0.017097,-0.000469 WAIST_JOINT0:0.999950,-0.000000,0.003161,0.009471 WAIST_JOINT1:0.998765,0.049436,0.000000,-0.004971 END:
KINECT_DATA_Sensor  AnkleLeft:0.082290,0.705205,-0.093963,-0.697915 AnkleRight:0.093687,0.700625,0.089005,0.701730 ElbowLeft:-0.038174,0.888336,-0.153097,-0.431234 ElbowRight:-0.255431,0.704157,0.063029,0.659504 FootLeft:0.000000,0.000000,0.000000,0.000000 FootRight:0.000000,0.000000,0.000000,0.000000 HandLeft:-0.079061,0.851906,-0.002094,0.517688 HandRight:-0.525388,0.833952,0.011856,0.168379 HandTipLeft:0.000000,0.000000,0.000000,0.000000 HandTipRight:0.000000,0.000000,0.000000,0.000000 Head:0.000000,0.000000,0.000000,0.000000 HipLeft:0.140644,-0.681297,0.697971,-0.169971 HipRight:-0.119227,0.684252,0.702734,-0.154110 KneeLeft:-0.012008,0.718993,-0.049050,-0.693181 KneeRight:-0.019575,0.694691,0.046800,0.717517 Neck:-0.002832,-0.003551,0.997857,-0.065268 ShoulderLeft:-0.007594,0.782094,-0.620343,0.058701 ShoulderRight:-0.011172,0.790252,0.609538,-0.061980 SpineBase:0.016978,-0.004655,0.999479,-0.027048 SpineMid:0.007072,-0.004387,0.999598,-0.027093 SpineShoulder:-0.002915,-0.003618,0.998997,-0.044541 ThumbLeft:0.000000,0.000000,0.000000,0.000000 ThumbRight:0.000000,0.000000,0.000000,0.000000 WristLeft:-0.095337,0.852432,-0.085727,0.506873 WristRight:-0.515997,0.837219,0.027317,0.179070 END:
KINECT_DATA POSITION:32.023457,-3.263230,-12.678123 HEAD_JOINT1:0.984474,0.160705,-0.000000,0.070607 LARM_JOINT2:0.809937,0.000000,-0.012964,-0.586373 LARM_JOINT3:0.978575,0.000000,-0.158429,-0.131498 LLEG_JOINT2:0.998759,0.026545,0.000000,0.042139 LLEG_JOINT4:0.994865,0.094995,0.000000,-0.034917 RARM_JOINT2:0.839213,0.000000,0.234228,0.490773 RARM_JOINT3:0.938114,0.000000,0.334558,-0.089520 RLEG_JOINT2:0.998743,0.020661,0.000000,-0.045678 RLEG_JOINT4:0.993031,0.109212,0.000000,0.044294 WAIST:0.999934,0.000000,-0.011477,0.000293 WAIST_JOINT0:0.999859,-0.000000,0.011988,0.011772 WAIST_JOINT1:0.998756,0.049678,0.000000,-0.004312 END:
KINECT_DATA_Sensor  AnkleLeft:0.080913,0.716931,-0.090650,-0.686473 AnkleRight:0.095249,0.713475,0.087883,0.688591 ElbowLeft:-0.037806,0.887002,-0.153984,-0.433689 ElbowRight:-0.263401,0.704564,0.054177,0.656715 FootLeft:0.000000,0.000000,0.000000,0.000000 FootRight:0.000000,0.000000,0.000000,0.000000 HandLeft:-0.093836,0.849428,-0.014992,0.519079 HandRight:-0.507135,0.850040,0.031447,0.138771 HandTipLeft:0.000000,0.000000,0.000000,0.000000 HandTipRight:0.000000,0.000000,0.000000,0.000000 Head:0.000000,0.000000,0.000000,0.000000 HipLeft:0.137529,-0.681582,0.699025,-0.167020 HipRight:-0.123223,0.684159,0.701438,-0.157248 KneeLeft:-0.011736,0.715056,-0.048657,-0.697273 KneeRight:-0.016896,0.698793,0.046918,0.713584 Neck:-0.011607,-0.002119,0.997777,-0.065588 ShoulderLeft:-0.005944,0.781571,-0.621346,0.055136 ShoulderRight:-0.020914,0.791648,0.606379,-0.071837 SpineBase:0.011352,-0.003602,0.999571,-0.026749 SpineMid:-0.000106,-0.003295,0.999636,-0.026789 SpineShoulder:-0.011690,-0.002354,0.998930,-0.044696 ThumbLeft:0.000000,0.000000,0.000000,0.000000 ThumbRight:0.000000,0.000000,0.000000,0.000000 WristLeft:-0.093840,0.851443,-0.086973,0.508601 WristRight:-0.508087,0.846745,0.050459,0.149410 END:
KINECT_DATA POSITION:32.005531,-3.276570,-12.563109 HEAD_JOINT1:0.984854,0.160013,-0.000000,0.066779 LARM_JOINT2:0.809601,0.000000,-0.013182,-0.586833 LARM_JOINT3:0.979038,0.000000,-0.156478,-0.130382 LLEG_JOINT2:0.998802,0.026179,0.000000,0.041354 LLEG_JOINT4:0.994764,0.096802,0.000000,-0.032773 RARM_JOINT2:0.839504,0.000000,0.235631,0.489603 RARM_JOINT3:0.939984,0.000000,0.329096,-0.090147 RLEG_JOINT2:0.998757,0.021586,0.000000,-0.044928 RLEG_JOINT4:0.993019,0.109534,0.000000,0.043766 WAIST:0.999963,0.000000,-0.008632,0.000411 WAIST_JOINT0:0.999763,-0.000000,0.017505,0.012916 WAIST_JOINT1:0.998742,0.050041,0.000000,-0.003163 END:
KINECT_DATA_Sensor  AnkleLeft:0.081370,0.716412,-0.092298,-0.686742 AnkleRight:0.096266,0.716311,0.088612,0.685405 ElbowLeft:-0.037707,0.885137,-0.154738,-0.437226 ElbowRight:-0.264096,0.704273,0.051439,0.656968 FootLeft:0.000000,0.000000,0.000000,0.000000 FootRight:0.000000,0.000000,0.000000,0.000000 HandLeft:-0.080520,0.827023,-0.017032,0.556110 HandRight:-0.504582,0.848542,0.018806,0.158177 HandTipLeft:0.000000,0.000000,0.000000,0.000000 HandTipRight:0.000000,0.000000,0.000000,0.000000 Head:0.000000,0.000000,0.000000,0.000000 HipLeft:0.135466,-0.681784,0.699578,-0.165560 HipRight:-0.125281,0.683859,0.701056,-0.158624 KneeLeft:-0.011380,0.713068,-0.047960,-0.699360 KneeRight:-0.015762,0.700841,0.046899,0.711600 Neck:-0.017203,-0.000760,0.997672,-0.065987 ShoulderLeft:-0.003096,0.780870,-0.622531,0.051836 ShoulderRight:-0.025339,0.792021,0.605071,-0.077132 SpineBase:0.008534,-0.002510,0.999603,-0.026728 SpineMid:-0.004288,-0.002167,0.999630,-0.026758 SpineShoulder:-0.017276,-0.001108,0.998838,-0.044988 ThumbLeft:0.000000,0.000000,0.000000,0.000000 ThumbRight:0.000000,0.000000,0.000000,0.000000 WristLeft:-0.089700,0.827976,-0.092410,0.545775 WristRight:-0.506460,0.844452,0.039907,0.169722 END:
KINECT_DATA POSITION:31.985140,-3.276578,-12.493265 HEAD_JOINT1:0.984730,0.162116,-0.000000,0.063441 LARM_JOINT2:0.808889,0.000000,-0.010535,-0.587866 LARM_JOINT3:0.978704,0.000000,-0.157657,-0.131465 LLEG_JOINT2:0.998757,0.026806,0.000000,0.042027 LLEG_JOINT4:0.994627,0.098015,0.000000,-0.033314 RARM_JOINT2:0.838666,0.000000,0.215176,0.500338 RARM_JOINT3:0.913476,0.000000,0.398901,-0.080252 RLEG_JOINT2:0.998806,0.020670,0.000000,-0.044262 RLEG_JOINT4:0.992641,0.113442,0.000000,0.042356 WAIST:0.999970,0.000000,-0.007730,0.000424 WAIST_JOINT0:0.999709,-0.000000,0.019813,0.013740 WAIST_JOINT1:0.998732,0.050307,0.000000,-0.002045 END:
KINECT_DATA_Sensor  AnkleLeft:0.083547,0.722026,-0.092813,-0.680503 AnkleRight:0.094096,0.688020,0.095173,0.713243 ElbowLeft:-0.036761,0.880685,-0.155511,-0.445937 ElbowRight:-0.246885,0.712781,0.063877,0.653384 FootLeft:0.000000,0.000000,0.000000,0.000000 FootRight:0.000000,0.000000,0.000000,0.000000 HandLeft:-0.077276,0.873541,0.000728,0.480576 HandRight:-0.566244,0.814649,-0.062122,0.108880 HandTipLeft:0.000000,0.000000,0.000000,0.000000 HandTipRight:0.000000,0.000000,0.000000,0.000000 Head:0.000000,0.000000,0.000000,0.000000 HipLeft:0.134466,-0.681810,0.699802,-0.165322 HipRight:-0.125953,0.683791,0.700944,-0.158882 KneeLeft:-0.011384,0.712437,-0.048900,-0.699938 KneeRight:-0.015984,0.701474,0.045756,0.711046 Neck:-0.019755,0.000458,0.997608,-0.066239 ShoulderLeft:-0.000184,0.780358,-0.623392,0.049241 ShoulderRight:-0.025729,0.792799,0.603869,-0.078424 SpineBase:0.007659,-0.001476,0.999609,-0.026864 SpineMid:-0.005979,-0.001109,0.999620,-0.026882 SpineShoulder:-0.019813,0.000056,0.998781,-0.045206 ThumbLeft:0.000000,0.000000,0.000000,0.000000 ThumbRight:0.000000,0.000000,0.000000,0.000000 WristLeft:-0.098206,0.872999,-0.086230,0.469885 WristRight:-0.525473,0.834809,0.012486,0.163755 END:
KINECT_DATA POSITION:31.916004,-3.316047,-12.497306 HEAD_JOINT1:0.984573,0.167578,-0.000000,0.050325 LARM_JOINT2:0.805712,0.000000,0.004465,-0.592291 LARM_JOINT3:0.978438,0.000000,-0.164244,-0.125230 LLEG_JOINT2:0.998604,0.030236,0.000000,0.043305 LLEG_JOINT4:0.995485,0.089682,0.000000,-0.031103 RARM_JOINT2:0.844382,0.000000,0.154296,0.513041 RARM_JOINT3:0.860942,0.000000,0.508302,-0.020210 RLEG_JOINT2:0.998810,0.021829,0.000000,-0.043619 RLEG_JOINT4:0.992665,0.114320,0.000000,0.039340 WAIST:0.999999,-0.000000,0.000602,0.000825 WAIST_JOINT0:0.999264,-0.000000,0.034679,0.016418 WAIST_JOINT1:0.998691,0.051068,-0.000000,0.002896 END:
KINECT_DATA_Sensor  AnkleLeft:0.078900,0.723123,-0.090867,-0.680155 AnkleRight:0.097745,0.725472,0.094409,0.674703 ElbowLeft:-0.029612,0.859704,-0.160890,-0.483887 ElbowRight:-0.205754,0.746196,0.108909,0.623695 FootLeft:0.000000,0.000000,0.000000,0.000000 FootRight:0.000000,0.000000,0.000000,0.000000 HandLeft:-0.066221,0.836383,-0.009759,0.544044 HandRight:-0.558758,0.813982,-0.120047,0.103976 HandTipLeft:0.000000,0.000000,0.000000,0.000000 HandTipRight:0.000000,0.000000,0.000000,0.000000 Head:0.000000,0.000000,0.000000,0.000000 HipLeft:0.127992,-0.682613,0.701065,-0.161756 HipRight:-0.130812,0.683578,0.699479,-0.162294 KneeLeft:-0.009725,0.706567,-0.052602,-0.705621 KneeRight:-0.014810,0.707396,0.045700,0.705183 Neck:-0.034709,0.006095,0.997137,-0.066897 ShoulderLeft:0.015442,0.779365,-0.625468,0.033787 ShoulderRight:-0.029320,0.794065,0.600935,-0.086474 SpineBase:-0.000589,0.002376,0.999623,-0.027332 SpineMid:-0.017522,0.002839,0.999470,-0.027287 SpineShoulder:-0.034716,0.005214,0.998336,-0.045758 ThumbLeft:0.000000,0.000000,0.000000,0.000000 ThumbRight:0.000000,0.000000,0.000000,0.000000 WristLeft:-0.083253,0.836359,-0.102332,0.532073 WristRight:-0.559136,0.814579,-0.070769,0.137183 END:
KINECT_DATA POSITION:31.674168,-3.319767,-12.769091 HEAD_JOINT1:0.983645,0.173613,-0.000000,0.047958 LARM_JOINT2:0.803549,0.000000,0.012130,-0.595115 LARM_JOINT3:0.977954,0.000000,-0.166637,-0.125853 LLEG_JOINT2:0.998704,0.025885,0.000000,0.043828 LLEG_JOINT4:0.995680,0.088464,0.000000,-0.028217 RARM_JOINT2:0.870495,0.000000,0.204819,0.447535 RARM_JOINT3:0.865603,0.000000,0.491379,0.096323 RLEG_JOINT2:0.998803,0.020363,0.000000,-0.044482 RLEG_JOINT4:0.992158,0.117702,0.000000,0.042058 WAIST:0.999864,-0.000000,0.016364,0.002008 WAIST_JOINT0:0.998132,-0.000000,0.056891,0.022269 WAIST_JOINT1:0.998566,0.052973,-0.000000,0.007696 END:
KINECT_DATA_Sensor  AnkleLeft:0.072444,0.707584,-0.089838,-0.697141 AnkleRight:0.099878,0.736900,0.094857,0.661820 ElbowLeft:-0.023716,0.843319,-0.166909,-0.510286 ElbowRight:-0.252787,0.845911,0.157900,0.442267 FootLeft:0.000000,0.000000,0.000000,0.000000 FootRight:0.000000,0.000000,0.000000,0.000000 HandLeft:-0.055537,0.816840,-0.005188,0.574162 HandRight:-0.616985,0.774430,-0.099700,-0.098222 HandTipLeft:0.000000,0.000000,0.000000,0.000000 HandTipRight:0.000000,0.000000,0.000000,0.000000 Head:0.000000,0.000000,0.000000,0.000000 HipLeft:0.116012,-0.682991,0.704411,-0.154500 HipRight:-0.140401,0.681796,0.697246,-0.171140 KneeLeft:0.013238,-0.695280,0.050930,0.716810 KneeRight:-0.016348,0.718377,0.044162,0.694058 Neck:-0.056746,0.012001,0.995937,-0.068893 ShoulderLeft:0.036005,0.776204,-0.629296,0.014036 ShoulderRight:-0.036995,0.795181,0.596731,-0.101148 SpineBase:-0.016251,0.007182,0.999419,-0.029076 SpineMid:-0.036298,0.007764,0.998892,-0.028926 SpineShoulder:-0.056714,0.010634,0.997205,-0.047465 ThumbLeft:0.000000,0.000000,0.000000,0.000000 ThumbRight:0.000000,0.000000,0.000000,0.000000 WristLeft:-0.072373,0.817725,-0.111618,0.560027 WristRight:-0.496929,0.861738,-0.059875,-0.082972 END:
KINECT_DATA POSITION:31.155247,-3.275778,-13.261604 HEAD_JOINT1:0.982519,0.183438,-0.000000,0.031725 LARM_JOINT2:0.800902,0.000000,0.035600,-0.597736 LARM_JOINT3:0.977061,0.000000,-0.171809,-0.125829 LLEG_JOINT2:0.998953,0.018769,0.000000,0.041711 LLEG_JOINT4:0.996003,0.086950,0.000000,-0.020419 RARM_JOINT2:0.904054,0.000000,0.148020,0.400969 RARM_JOINT3:0.781096,0.000000,0.577070,0.238493 RLEG_JOINT2:0.998639,0.018054,0.000000,-0.048921 RLEG_JOINT4:0.991419,0.119800,0.000000,0.052312 WAIST:0.999272,-0.000000,0.037651,0.006213 WAIST_JOINT0:0.995733,-0.000000,0.086598,0.031876 WAIST_JOINT1:0.998386,0.055231,-0.000000,0.013209 END:
KINECT_DATA_Sensor  AnkleLeft:-0.057261,-0.661565,0.092488,0.741956 AnkleRight:0.104701,0.751455,0.089436,0.645255 ElbowLeft:-0.009078,0.815450,-0.181831,-0.549451 ElbowRight:-0.243063,0.853823,0.232140,0.397515 FootLeft:0.000000,0.000000,0.000000,0.000000 FootRight:0.000000,0.000000,0.000000,0.000000 HandLeft:-0.038670,0.851150,-0.006532,0.523456 HandRight:-0.498841,0.816249,-0.265480,-0.120063 HandTipLeft:0.000000,0.000000,0.000000,0.000000 HandTipRight:0.000000,0.000000,0.000000,0.000000 Head:0.000000,0.000000,0.000000,0.000000 HipLeft:0.100640,-0.681603,0.710025,-0.145440 HipRight:-0.154411,0.680965,0.691895,-0.183643 KneeLeft:0.018940,-0.679748,0.047753,0.731644 KneeRight:-0.019180,0.732935,0.042127,0.678722 Neck:-0.086844,0.021518,0.993446,-0.071127 ShoulderLeft:0.059365,0.767605,-0.638105,-0.009010 ShoulderRight:-0.052611,0.795921,0.590154,-0.124340 SpineBase:-0.037507,0.015144,0.998692,-0.031268 SpineMid:-0.061849,0.015902,0.997481,-0.030889 SpineShoulder:-0.086726,0.019548,0.994810,-0.049495 ThumbLeft:0.000000,0.000000,0.000000,0.000000 ThumbRight:0.000000,0.000000,0.000000,0.000000 WristLeft:-0.058828,0.849425,-0.115293,0.511590 WristRight:-0.514377,0.830806,-0.198155,-0.076888 END:
KINECT_DATA POSITION:30.196795,-3.129092,-14.119780 HEAD_JOINT1:0.980370,0.196555,-0.000000,0.015544 LARM_JOINT2:0.800040,0.000000,0.055100,-0.597411 LARM_JOINT3:0.976370,0.000000,-0.171082,-0.132034 LLEG_JOINT2:0.999099,0.005061,0.000000,0.042136 LLEG_JOINT4:0.996045,0.087838,0.000000,-0.013390 RARM_JOINT2:0.916469,0.000000,0.088510,0.390193 RARM_JOINT3:0.704079,0.000000,0.634114,0.319643 RLEG_JOINT2:0.998765,0.017018,0.000000,-0.046680 RLEG_JOINT4:0.991085,0.119735,0.000000,0.058424 WAIST:0.997833,-0.000000,0.065236,0.008588 WAIST_JOINT0:0.993214,-0.000000,0.110190,0.037212 WAIST_JOINT1:0.997987,0.060179,-0.000000,0.020007 END:
KINECT_DATA_Sensor  AnkleLeft:0.051635,0.709475,-0.084932,-0.697686 AnkleRight:0.101208,0.712005,0.093073,0.688580 ElbowLeft:0.009680,0.795855,-0.198407,-0.571975 ElbowRight:-0.203944,0.868041,0.273660,0.360584 FootLeft:0.000000,0.000000,0.000000,0.000000 FootRight:0.000000,0.000000,0.000000,0.000000 HandLeft:-0.025193,0.862469,-0.003166,0.505473 HandRight:-0.468089,0.781446,-0.412590,-0.001860 HandTipLeft:0.000000,0.000000,0.000000,0.000000 HandTipRight:0.000000,0.000000,0.000000,0.000000 Head:0.000000,0.000000,0.000000,0.000000 HipLeft:0.079203,-0.682219,0.714114,-0.135449 HipRight:-0.169937,0.677588,0.686349,-0.202291 KneeLeft:0.029999,-0.659483,0.041114,0.749994 KneeRight:-0.017796,0.751270,0.037513,0.658687 Neck:-0.111849,0.029314,0.990332,-0.076636 ShoulderLeft:0.085204,0.754629,-0.650021,-0.027364 ShoulderRight:-0.059885,0.791348,0.591246,-0.143561 SpineBase:-0.064904,0.022053,0.996951,-0.037276 SpineMid:-0.088034,0.022912,0.995175,-0.036754 SpineShoulder:-0.111686,0.026816,0.991868,-0.054821 ThumbLeft:0.000000,0.000000,0.000000,0.000000 ThumbRight:0.000000,0.000000,0.000000,0.000000 WristLeft:-0.035257,0.861069,-0.113002,0.494517 WristRight:-0.440999,0.825359,-0.351815,0.022992 END:
KINECT_DATA POSITION:29.289040,-3.029871,-14.876711 HEAD_JOINT1:0.978882,0.204355,-0.000000,0.005462 LARM_JOINT2:0.797677,0.000000,0.057657,-0.600323 LARM_JOINT3:0.975761,0.000000,-0.172757,-0.134331 LLEG_JOINT2:0.999017,-0.004213,0.000000,0.044120 LLEG_JOINT4:0.996215,0.086275,0.000000,-0.010552 RARM_JOINT2:0.906086,0.000000,0.055864,0.419389 RARM_JOINT3:0.654263,0.000000,0.658554,0.371816 RLEG_JOINT2:0.998907,0.013504,0.000000,-0.044745 RLEG_JOINT4:0.990900,0.118679,0.000000,0.063504 WAIST:0.996650,-0.000000,0.081264,0.009201 WAIST_JOINT0:0.990469,-0.000000,0.130971,0.042625 WAIST_JOINT1:0.997550,0.064979,-0.000000,0.025923 END:
KINECT_DATA_Sensor  AnkleLeft:-0.040981,-0.699391,0.082009,0.708835 AnkleRight:0.102477,0.720972,0.086701,0.679839 ElbowLeft:0.017954,0.787091,-0.203416,-0.582054 ElbowRight:-0.166264,0.874242,0.259734,0.374960 FootLeft:0.000000,0.000000,0.000000,0.000000 FootRight:0.000000,0.000000,0.000000,0.000000 HandLeft:-0.026234,0.981834,0.004799,0.187857 HandRight:0.517431,0.011623,-0.396860,0.758045 HandTipLeft:0.000000,0.000000,0.000000,0.000000 HandTipRight:0.000000,0.000000,0.000000,0.000000 Head:0.000000,0.000000,0.000000,0.000000 HipLeft:0.065880,-0.682647,0.715736,-0.131811 HipRight:-0.179093,0.674641,0.683403,-0.213882 KneeLeft:0.038201,-0.647758,0.037471,0.759964 KneeRight:-0.018885,0.761339,0.032744,0.647251 Neck:-0.133008,0.035095,0.987099,-0.081928 ShoulderLeft:0.103065,0.745044,-0.657849,-0.039005 ShoulderRight:-0.070839,0.785428,0.592844,-0.163158 SpineBase:-0.080628,0.027566,0.995459,-0.042426 SpineMid:-0.106406,0.028657,0.993035,-0.041697 SpineShoulder:-0.132798,0.032514,0.988800,-0.059851 ThumbLeft:0.000000,0.000000,0.000000,0.000000 ThumbRight:0.000000,0.000000,0.000000,0.000000 WristLeft:-0.060709,0.976005,-0.096644,0.185442 WristRight:0.423656,-0.053651,-0.432632,0.794020 END:
KINECT_DATA POSITION:28.204737,-2.897600,-15.350712 HEAD_JOINT1:0.979577,0.201065,-0.000000,0.001632 LARM_JOINT2:0.793734,0.000000,0.059731,-0.605325 LARM_JOINT3:0.975402,0.000000,-0.178560,-0.129257 LLEG_JOINT2:0.998945,-0.010944,0.000000,0.044597 LLEG_JOINT4:0.996216,0.086859,0.000000,-0.002876 RARM_JOINT2:0.893517,0.000000,0.090402,0.439835 RARM_JOINT3:0.663119,0.000000,0.621454,0.417215 RLEG_JOINT2:0.999073,0.013835,0.000000,-0.040763 RLEG_JOINT4:0.991432,0.114161,0.000000,0.063484 WAIST:0.995571,-0.000000,0.093257,0.011854 WAIST_JOINT0:0.987831,-0.000000,0.148402,0.046544 WAIST_JOINT1:0.997645,0.063014,-0.000000,0.027099 END:
KINECT_DATA_Sensor  AnkleLeft:0.032338,0.706089,-0.085894,-0.702150 AnkleRight:0.102117,0.714907,0.082695,0.686762 ElbowLeft:0.018031,0.771394,-0.200717,-0.603605 ElbowRight:-0.163323,0.910492,0.226700,0.304855 FootLeft:0.000000,0.000000,0.000000,0.000000 FootRight:0.000000,0.000000,0.000000,0.000000 HandLeft:-0.041518,0.996277,0.002534,-0.075505 HandRight:0.467399,0.160785,-0.454747,0.740872 HandTipLeft:0.000000,0.000000,0.000000,0.000000 HandTipRight:0.000000,0.000000,0.000000,0.000000 Head:0.000000,0.000000,0.000000,0.000000 HipLeft:0.060294,-0.681792,0.718107,-0.125885 HipRight:-0.189368,0.674266,0.678995,-0.220163 KneeLeft:0.045187,-0.638522,0.035812,0.767440 KneeRight:-0.014201,0.769240,0.028276,0.638177 Neck:-0.150524,0.038499,0.984630,-0.079773 ShoulderLeft:0.113981,0.741772,-0.658641,-0.054546 ShoulderRight:-0.082505,0.786035,0.587230,-0.174651 SpineBase:-0.092671,0.031320,0.994359,-0.040995 SpineMid:-0.121088,0.032481,0.991300,-0.040082 SpineShoulder:-0.150266,0.035987,0.986290,-0.057942 ThumbLeft:0.000000,0.000000,0.000000,0.000000 ThumbRight:0.000000,0.000000,0.000000,0.000000 WristLeft:-0.084907,0.990127,-0.083090,-0.074398 WristRight:0.402312,0.125996,-0.459223,0.781910 END:
KINECT_DATA POSITION:27.944576,-2.838696,-15.650856 HEAD_JOINT1:0.980247,0.197182,0.000000,-0.015316 LARM_JOINT2:0.790381,0.000000,0.076073,-0.607874 LARM_JOINT3:0.975392,0.000000,-0.184604,-0.120547 LLEG_JOINT2:0.998897,-0.006545,0.000000,0.046489 LLEG_JOINT4:0.997653,0.068354,0.000000,-0.004040 RARM_JOINT2:0.889526,0.000000,0.105692,0.444491 RARM_JOINT3:0.678091,0.000000,0.590335,0.437832 RLEG_JOINT2:0.998959,0.012412,0.000000,-0.043900 RLEG_JOINT4:0.990704,0.118541,0.000000,0.066732 WAIST:0.993436,-0.000000,0.113462,0.014535 WAIST_JOINT0:0.983274,-0.000000,0.173712,0.054735 WAIST_JOINT1:0.997507,0.061926,-0.000000,0.033847 END:
KINECT_DATA_Sensor  AnkleLeft:-0.020781,-0.700667,0.079957,0.708690 AnkleRight:0.112261,0.793428,0.074050,0.593621 ElbowLeft:0.025187,0.740663,-0.209461,-0.637895 ElbowRight:-0.163617,0.931081,0.207873,0.251211 FootLeft:0.000000,0.000000,0.000000,0.000000 FootRight:0.000000,0.000000,0.000000,0.000000 HandLeft:-0.016735,0.994945,-0.030057,-0.094348 HandRight:0.482147,0.201104,-0.441637,0.729416 HandTipLeft:0.000000,0.000000,0.000000,0.000000 HandTipRight:0.000000,0.000000,0.000000,0.000000 Head:0.000000,0.000000,0.000000,0.000000 HipLeft:0.047010,-0.681395,0.721357,-0.114611 HipRight:-0.201956,0.672846,0.673913,-0.228766 KneeLeft:0.044223,-0.622839,0.042677,0.779933 KneeRight:-0.016396,0.781885,0.026749,0.622633 Neck:-0.175731,0.047924,0.980052,-0.079492 ShoulderLeft:0.131006,0.734923,-0.661067,-0.075598 ShoulderRight:-0.098362,0.786496,0.578527,-0.192497 SpineBase:-0.112790,0.037098,0.992095,-0.040620 SpineMid:-0.143731,0.038349,0.988087,-0.039441 SpineShoulder:-0.175453,0.044167,0.981830,-0.057237 ThumbLeft:0.000000,0.000000,0.000000,0.000000 ThumbRight:0.000000,0.000000,0.000000,0.000000 WristLeft:-0.083576,0.987973,-0.095879,-0.087925 WristRight:0.419710,0.177497,-0.435313,0.776428 END:
KINECT_DATA POSITION:27.983034,-2.853746,-15.665936 HEAD_JOINT1:0.981023,0.192714,0.000000,-0.021344 LARM_JOINT2:0.788371,0.000000,0.084169,-0.609415 LARM_JOINT3:0.973820,0.000000,-0.194854,-0.117073 LLEG_JOINT2:0.998869,-0.005908,0.000000,0.047178 LLEG_JOINT4:0.997914,0.064481,0.000000,-0.003165 RARM_JOINT2:0.876399,0.000000,0.116246,0.467345 RARM_JOINT3:0.689349,0.000000,0.566826,0.451117 RLEG_JOINT2:0.998911,0.011545,0.000000,-0.045206 RLEG_JOINT4:0.990675,0.118737,0.000000,0.066821 WAIST:0.992252,-0.000000,0.123326,0.015059 WAIST_JOINT0:0.980345,-0.000000,0.188218,0.059148 WAIST_JOINT1:0.997438,0.061402,-0.000000,0.036702 END:
KINECT_DATA_Sensor  AnkleLeft:-0.018543,-0.702600,0.079495,0.706888 AnkleRight:0.110573,0.800565,0.074718,0.584198 ElbowLeft:0.030849,0.729244,-0.212031,-0.649842 ElbowRight:-0.155850,0.942100,0.177536,0.237989 FootLeft:0.000000,0.000000,0.000000,0.000000 FootRight:0.000000,0.000000,0.000000,0.000000 HandLeft:-0.033652,0.992757,-0.053810,-0.102011 HandRight:-0.434197,0.706324,-0.475180,-0.294589 HandTipLeft:0.000000,0.000000,0.000000,0.000000 HandTipRight:0.000000,0.000000,0.000000,0.000000 Head:0.000000,0.000000,0.000000,0.000000 HipLeft:0.043082,-0.681980,0.721485,-0.111832 HipRight:-0.212578,0.671347,0.669917,-0.235190 KneeLeft:0.044181,-0.615123,0.044325,0.785943 KneeRight:-0.017959,0.787909,0.026227,0.614971 Neck:-0.190106,0.051215,0.977233,-0.079067 ShoulderLeft:0.141023,0.732309,-0.660364,-0.088063 ShoulderRight:-0.106518,0.787486,0.572218,-0.202699 SpineBase:-0.122571,0.039258,0.990854,-0.040544 SpineMid:-0.155777,0.040597,0.986179,-0.039202 SpineShoulder:-0.189826,0.047156,0.979029,-0.056968 ThumbLeft:0.000000,0.000000,0.000000,0.000000 ThumbRight:0.000000,0.000000,0.000000,0.000000 WristLeft:-0.082345,0.986948,-0.097824,-0.097893 WristRight:-0.464103,0.752004,-0.397969,-0.246411 END:
KINECT_DATA POSITION:28.140402,-2.918922,-15.615845 HEAD_JOINT1:0.981791,0.188250,0.000000,-0.025451 LARM_JOINT2:0.788688,0.000000,0.086939,-0.608616 LARM_JOINT3:0.972372,0.000000,-0.200819,-0.119013 LLEG_JOINT2:0.998918,-0.006046,0.000000,0.046106 LLEG_JOINT4:0.997848,0.065565,0.000000,-0.000207 RARM_JOINT2:0.866576,0.000000,0.139197,0.479239 RARM_JOINT3:0.724849,0.000000,0.530843,0.439090 RLEG_JOINT2:0.998690,0.014183,0.000000,-0.049165 RLEG_JOINT4:0.990303,0.121049,0.000000,0.068172 WAIST:0.991041,-0.000000,0.132421,0.017418 WAIST_JOINT0:0.978231,-0.000000,0.197903,0.062432 WAIST_JOINT1:0.997473,0.060716,-0.000000,0.036898 END:
KINECT_DATA_Sensor  AnkleLeft:0.019669,0.713454,-0.082721,-0.695525 AnkleRight:0.102222,0.730524,0.092228,0.668864 ElbowLeft:0.032975,0.724061,-0.214820,-0.654599 ElbowRight:-0.160599,0.952761,0.151785,0.208364 FootLeft:0.000000,0.000000,0.000000,0.000000 FootRight:0.000000,0.000000,0.000000,0.000000 HandLeft:-0.044883,0.991594,-0.064907,-0.102536 HandRight:-0.266954,0.789606,-0.544498,-0.093702 HandTipLeft:0.000000,0.000000,0.000000,0.000000 HandTipRight:0.000000,0.000000,0.000000,0.000000 Head:0.000000,0.000000,0.000000,0.000000 HipLeft:0.041218,-0.680370,0.723357,-0.110235 HipRight:-0.222447,0.670274,0.665433,-0.241761 KneeLeft:0.044991,-0.607857,0.045366,0.791472 KneeRight:-0.018167,0.793694,0.028803,0.607364 Neck:-0.199835,0.053519,0.975220,-0.078413 ShoulderLeft:0.145688,0.730111,-0.660865,-0.094712 ShoulderRight:-0.114502,0.787852,0.567172,-0.210938 SpineBase:-0.131715,0.042237,0.989588,-0.039780 SpineMid:-0.165142,0.043559,0.984562,-0.038327 SpineShoulder:-0.199565,0.049118,0.977024,-0.056434 ThumbLeft:0.000000,0.000000,0.000000,0.000000 ThumbRight:0.000000,0.000000,0.000000,0.000000 WristLeft:-0.083342,0.986507,-0.099710,-0.099580 WristRight:-0.319403,0.801715,-0.502835,-0.048898 END:
KINECT_DATA POSITION:28.201300,-2.983788,-15.461672 HEAD_JOINT1:0.982785,0.181895,0.000000,-0.032366 LARM_JOINT2:0.788978,0.000000,0.085422,-0.608455 LARM_JOINT3:0.971350,0.000000,-0.202933,-0.123685 LLEG_JOINT2:0.998848,-0.008549,0.000000,0.047227 LLEG_JOINT4:0.997576,0.069576,0.000000,0.001469 RARM_JOINT2:0.866272,0.000000,0.134610,0.481095 RARM_JOINT3:0.725234,0.000000,0.534214,0.434339 RLEG_JOINT2:0.998681,0.014349,0.000000,-0.049297 RLEG_JOINT4:0.990426,0.118142,0.000000,0.071406 WAIST:0.990141,-0.000000,0.139031,0.017072 WAIST_JOINT0:0.976323,-0.000000,0.206245,0.065241 WAIST_JOINT1:0.997350,0.061147,-0.000000,0.039413 END:
KINECT_DATA_Sensor  AnkleLeft:0.021095,0.714642,-0.085212,-0.693960 AnkleRight:0.100368,0.719789,0.091388,0.680792 ElbowLeft:0.033720,0.723079,-0.216341,-0.655146 ElbowRight:-0.156214,0.954903,0.150291,0.202903 FootLeft:0.000000,0.000000,0.000000,0.000000 FootRight:0.000000,0.000000,0.000000,0.000000 HandLeft:-0.056104,0.993487,-0.059936,-0.079022 HandRight:-0.411521,0.733249,-0.464037,-0.278685 HandTipLeft:0.000000,0.000000,0.000000,0.000000 HandTipRight:0.000000,0.000000,0.000000,0.000000 Head:0.000000,0.000000,0.000000,0.000000 HipLeft:0.037578,-0.680418,0.723652,-0.109303 HipRight:-0.227121,0.668432,0.664329,-0.245523 KneeLeft:0.047185,-0.602820,0.044749,0.795223 KneeRight:-0.018697,0.797604,0.029053,0.602192 Neck:-0.208487,0.055171,0.973261,-0.079077 ShoulderLeft:0.152511,0.726334,-0.662588,-0.100784 ShoulderRight:-0.119148,0.786932,0.564922,-0.217725 SpineBase:-0.138151,0.044272,0.988571,-0.040998 SpineMid:-0.172643,0.045679,0.983135,-0.039424 SpineShoulder:-0.208185,0.051029,0.975082,-0.057194 ThumbLeft:0.000000,0.000000,0.000000,0.000000 ThumbRight:0.000000,0.000000,0.000000,0.000000 WristLeft:-0.080077,0.988404,-0.102472,-0.078387 WristRight:-0.428010,0.767127,-0.407609,-0.249355 END:
KINECT_DATA POSITION:28.204027,-3.012192,-15.355468 HEAD_JOINT1:0.982828,0.180698,0.000000,-0.037392 LARM_JOINT2:0.788489,0.000000,0.083038,-0.609418 LARM_JOINT3:0.969560,0.000000,-0.208854,-0.127799 LLEG_JOINT2:0.998791,-0.011259,0.000000,0.047851 LLEG_JOINT4:0.997404,0.071935,0.000000,0.003356 RARM_JOINT2:0.869055,0.000000,0.137683,0.475169 RARM_JOINT3:0.731525,0.000000,0.527663,0.431791 RLEG_JOINT2:0.998722,0.013955,0.000000,-0.048569 RLEG_JOINT4:0.989854,0.121985,0.000000,0.072865 WAIST:0.989590,-0.000000,0.143025,0.015993 WAIST_JOINT0:0.976046,-0.000000,0.207754,0.064600 WAIST_JOINT1:0.997239,0.061679,-0.000000,0.041350 END:
KINECT_DATA_Sensor  AnkleLeft:0.021608,0.720237,-0.086007,-0.688037 AnkleRight:0.102110,0.717283,0.094965,0.682686 ElbowLeft:0.034356,0.723654,-0.215510,-0.654752 ElbowRight:-0.161377,0.954982,0.152871,0.196460 FootLeft:0.000000,0.000000,0.000000,0.000000 FootRight:0.000000,0.000000,0.000000,0.000000 HandLeft:-0.089206,0.985162,-0.048161,-0.138489 HandRight:-0.290743,0.792402,-0.522334,-0.121382 HandTipLeft:0.000000,0.000000,0.000000,0.000000 HandTipRight:0.000000,0.000000,0.000000,0.000000 Head:0.000000,0.000000,0.000000,0.000000 HipLeft:0.034872,-0.681019,0.723342,-0.108509 HipRight:-0.229418,0.666774,0.664425,-0.247627 KneeLeft:0.048826,-0.599885,0.043026,0.797435 KneeRight:-0.019284,0.799875,0.028935,0.599159 Neck:-0.210293,0.055449,0.972772,-0.080109 ShoulderLeft:0.156394,0.724626,-0.663211,-0.102999 ShoulderRight:-0.117665,0.785990,0.566355,-0.218213 SpineBase:-0.141975,0.045001,0.987952,-0.042058 SpineMid:-0.175464,0.046405,0.982557,-0.040504 SpineShoulder:-0.209975,0.051502,0.974614,-0.058186 ThumbLeft:0.000000,0.000000,0.000000,0.000000 ThumbRight:0.000000,0.000000,0.000000,0.000000 WristLeft:-0.086021,0.981400,-0.096004,-0.142262 WristRight:-0.329408,0.804535,-0.486464,-0.086989 END:
KINECT_DATA POSITION:28.135717,-3.078455,-15.186119 HEAD_JOINT1:0.983200,0.178855,0.000000,-0.036448 LARM_JOINT2:0.788128,0.000000,0.080376,-0.610241 LARM_JOINT3:0.969383,0.000000,-0.212295,-0.123398 LLEG_JOINT2:0.998698,-0.011675,0.000000,0.049667 LLEG_JOINT4:0.997064,0.076474,0.000000,0.003811 RARM_JOINT2:0.867053,0.000000,0.136712,0.479092 RARM_JOINT3:0.727363,0.000000,0.528097,0.438243 RLEG_JOINT2:0.998697,0.014301,0.000000,-0.048993 RLEG_JOINT4:0.989246,0.126479,0.000000,0.073460 WAIST:0.989572,-0.000000,0.143249,0.015084 WAIST_JOINT0:0.975558,-0.000000,0.209673,0.065752 WAIST_JOINT1:0.997260,0.061062,-0.000000,0.041756 END:
KINECT_DATA_Sensor  AnkleLeft:0.025989,0.728749,-0.088783,-0.678503 AnkleRight:0.117540,0.809579,0.083174,0.569077 ElbowLeft:0.032222,0.723145,-0.213444,-0.656099 ElbowRight:-0.158718,0.955975,0.150328,0.195757 FootLeft:0.000000,0.000000,0.000000,0.000000 FootRight:0.000000,0.000000,0.000000,0.000000 HandLeft:-0.102077,0.986456,-0.062614,-0.112087 HandRight:-0.277266,0.776668,-0.554163,-0.113194 HandTipLeft:0.000000,0.000000,0.000000,0.000000 HandTipRight:0.000000,0.000000,0.000000,0.000000 Head:0.000000,0.000000,0.000000,0.000000 HipLeft:0.035338,-0.681568,0.722811,-0.108445 HipRight:-0.229759,0.666272,0.664949,-0.247255 KneeLeft:0.049595,-0.599681,0.043601,0.797510 KneeRight:-0.020067,0.799997,0.030100,0.598912 Neck:-0.212134,0.055084,0.972441,-0.079519 ShoulderLeft:0.157244,0.724250,-0.663152,-0.104720 ShoulderRight:-0.119062,0.786290,0.565207,-0.219349 SpineBase:-0.142146,0.044762,0.987956,-0.041649 SpineMid:-0.176460,0.046185,0.982407,-0.040065 SpineShoulder:-0.211822,0.051148,0.974269,-0.057578 ThumbLeft:0.000000,0.000000,0.000000,0.000000 ThumbRight:0.000000,0.000000,0.000000,0.000000 WristLeft:-0.085106,0.984556,-0.098428,-0.117126 WristRight:-0.318096,0.807064,-0.492419,-0.070615 END:
KINECT_DATA POSITION:28.135487,-3.096485,-15.145576 HEAD_JOINT1:0.983203,0.179068,0.000000,-0.035304 LARM_JOINT2:0.787918,0.000000,0.078360,-0.610775 LARM_JOINT3:0.970364,0.000000,-0.209043,-0.121221 LLEG_JOINT2:0.998669,-0.010960,0.000000,0.050398 LLEG_JOINT4:0.997269,0.073814,0.000000,0.002484 RARM_JOINT2:0.866474,0.000000,0.136374,0.480235 RARM_JOINT3:0.731878,0.000000,0.520608,0.439683 RLEG_JOINT2:0.998703,0.014397,0.000000,-0.048836 RLEG_JOINT4:0.989622,0.123199,0.000000,0.073964 WAIST:0.989686,-0.000000,0.142505,0.014609 WAIST_JOINT0:0.975687,-0.000000,0.209024,0.065909 WAIST_JOINT1:0.997257,0.060902,-0.000000,0.042067 END:
KINECT_DATA_Sensor  AnkleLeft:0.024541,0.728160,-0.087085,-0.679409 AnkleRight:0.115803,0.809530,0.080553,0.569879 ElbowLeft:0.030771,0.724002,-0.212278,-0.655600 ElbowRight:-0.157572,0.956321,0.149965,0.195271 FootLeft:0.000000,0.000000,0.000000,0.000000 FootRight:0.000000,0.000000,0.000000,0.000000 HandLeft:-0.089539,0.987977,-0.066394,-0.107128 HandRight:-0.293066,0.784162,-0.525484,-0.151888 HandTipLeft:0.000000,0.000000,0.000000,0.000000 HandTipRight:0.000000,0.000000,0.000000,0.000000 Head:0.000000,0.000000,0.000000,0.000000 HipLeft:0.035827,-0.681904,0.722429,-0.108715 HipRight:-0.229367,0.666269,0.665346,-0.246560 KneeLeft:0.049147,-0.600266,0.044248,0.797062 KneeRight:-0.020190,0.799539,0.030442,0.599503 Neck:-0.211488,0.054960,0.972598,-0.079408 ShoulderLeft:0.156675,0.724428,-0.663161,-0.104282 ShoulderRight:-0.118720,0.786665,0.564963,-0.218815 SpineBase:-0.141373,0.044719,0.988077,-0.041449 SpineMid:-0.175744,0.046137,0.982546,-0.039865 SpineShoulder:-0.211170,0.051062,0.974424,-0.057433 ThumbLeft:0.000000,0.000000,0.000000,0.000000 ThumbRight:0.000000,0.000000,0.000000,0.000000 WristLeft:-0.085790,0.985287,-0.098719,-0.110019 WristRight:-0.340445,0.803180,-0.476514,-0.109236 END:
KINECT_DATA POSITION:28.160786,-3.099236,-15.121651 HEAD_JOINT1:0.983228,0.179021,0.000000,-0.034843 LARM_JOINT2:0.787783,0.000000,0.077162,-0.611101 LARM_JOINT3:0.971094,0.000000,-0.206706,-0.119373 LLEG_JOINT2:0.998593,-0.011185,0.000000,0.051843 LLEG_JOINT4:0.997263,0.073937,0.000000,-0.000773 RARM_JOINT2:0.865443,0.000000,0.134727,0.482552 RARM_JOINT3:0.727181,0.000000,0.520944,0.447019 RLEG_JOINT2:0.998791,0.016773,0.000000,-0.046205 RLEG_JOINT4:0.990014,0.121053,0.000000,0.072231 WAIST:0.989714,-0.000000,0.142357,0.014174 WAIST_JOINT0:0.975909,-0.000000,0.207928,0.066087 WAIST_JOINT1:0.997245,0.060886,-0.000000,0.042367 END:
KINECT_DATA_Sensor  AnkleLeft:0.022819,0.706808,-0.085817,-0.701810 AnkleRight:0.116250,0.808956,0.080601,0.570596 ElbowLeft:0.030078,0.724323,-0.211570,-0.655507 ElbowRight:-0.154940,0.956888,0.149171,0.195208 FootLeft:0.000000,0.000000,0.000000,0.000000 FootRight:0.000000,0.000000,0.000000,0.000000 HandLeft:-0.085891,0.986689,-0.066895,-0.120801 HandRight:-0.281007,0.774962,-0.547449,-0.144113 HandTipLeft:0.000000,0.000000,0.000000,0.000000 HandTipRight:0.000000,0.000000,0.000000,0.000000 Head:0.000000,0.000000,0.000000,0.000000 HipLeft:0.035802,-0.682191,0.722150,-0.108776 HipRight:-0.227740,0.665564,0.666181,-0.247715 KneeLeft:0.049887,-0.600369,0.044960,0.796898 KneeRight:-0.016954,0.799638,0.031087,0.599438 Neck:-0.210492,0.054687,0.972823,-0.079484 ShoulderLeft:0.156268,0.724069,-0.663793,-0.103355 ShoulderRight:-0.117901,0.786736,0.565341,-0.218025 SpineBase:-0.141187,0.044739,0.988102,-0.041467 SpineMid:-0.175151,0.046141,0.982650,-0.039901 SpineShoulder:-0.210164,0.050916,0.974644,-0.057508 ThumbLeft:0.000000,0.000000,0.000000,0.000000 ThumbRight:0.000000,0.000000,0.000000,0.000000 WristLeft:-0.086135,0.983808,-0.097850,-0.122995 WristRight:-0.331674,0.804434,-0.483443,-0.095713 END:
KINECT_DATA POSITION:28.186855,-3.109054,-15.098989 HEAD_JOINT1:0.982968,0.180272,0.000000,-0.035731 LARM_JOINT2:0.787655,0.000000,0.076601,-0.611337 LARM_JOINT3:0.971538,0.000000,-0.204175,-0.120111 LLEG_JOINT2:0.998590,-0.011604,0.000000,0.051804 LLEG_JOINT4:0.997293,0.073531,0.000000,0.000344 RARM_JOINT2:0.864993,0.000000,0.133837,0.483606 RARM_JOINT3:0.728829,0.000000,0.520149,0.445256 RLEG_JOINT2:0.998749,0.017238,0.000000,-0.046937 RLEG_JOINT4:0.990290,0.118860,0.000000,0.072091 WAIST:0.989668,-0.000000,0.142691,0.014019 WAIST_JOINT0:0.976098,-0.000000,0.207070,0.065991 WAIST_JOINT1:0.997244,0.060857,-0.000000,0.042438 END:
KINECT_DATA_Sensor  AnkleLeft:0.022990,0.717002,-0.085911,-0.691375 AnkleRight:0.114279,0.808841,0.080045,0.571235 ElbowLeft:0.030142,0.725090,-0.211057,-0.654822 ElbowRight:-0.153570,0.957454,0.149027,0.193620 FootLeft:0.000000,0.000000,0.000000,0.000000 FootRight:0.000000,0.000000,0.000000,0.000000 HandLeft:-0.085918,0.971054,-0.054495,-0.216106 HandRight:-0.412958,0.718902,-0.448818,-0.333478 HandTipLeft:0.000000,0.000000,0.000000,0.000000 HandTipRight:0.000000,0.000000,0.000000,0.000000 Head:0.000000,0.000000,0.000000,0.000000 HipLeft:0.035584,-0.682281,0.722094,-0.108658 HipRight:-0.227914,0.665391,0.666246,-0.247843 KneeLeft:0.050078,-0.600135,0.044585,0.797084 KneeRight:-0.017384,0.799847,0.031999,0.599099 Neck:-0.209684,0.054458,0.973006,-0.079537 ShoulderLeft:0.155987,0.723912,-0.664130,-0.102714 ShoulderRight:-0.117185,0.786661,0.565866,-0.217318 SpineBase:-0.141503,0.044775,0.988053,-0.041516 SpineMid:-0.174907,0.046156,0.982690,-0.039974 SpineShoulder:-0.209351,0.050757,0.974824,-0.057570 ThumbLeft:0.000000,0.000000,0.000000,0.000000 ThumbRight:0.000000,0.000000,0.000000,0.000000 WristLeft:-0.094486,0.967474,-0.088658,-0.217270 WristRight:-0.441829,0.753659,-0.385942,-0.296368 END:
KINECT_DATA POSITION:28.207186,-3.122969,-15.076197 HEAD_JOINT1:0.982922,0.180498,0.000000,-0.035832 LARM_JOINT2:0.787256,0.000000,0.076789,-0.611826 LARM_JOINT3:0.970531,0.000000,-0.206558,-0.124111 LLEG_JOINT2:0.998607,-0.011131,0.000000,0.051569 LLEG_JOINT4:0.997262,0.073942,0.000000,0.000635 RARM_JOINT2:0.864940,0.000000,0.134198,0.483600 RARM_JOINT3:0.730180,0.000000,0.521306,0.441676 RLEG_JOINT2:0.998749,0.018053,0.000000,-0.046625 RLEG_JOINT4:0.990185,0.118120,0.000000,0.074712 WAIST:0.989707,-0.000000,0.142463,0.013584 WAIST_JOINT0:0.976229,-0.000000,0.206433,0.066049 WAIST_JOINT1:0.997212,0.061024,-0.000000,0.042941 END:
KINECT_DATA_Sensor  AnkleLeft:0.023382,0.712268,-0.086185,-0.696204 AnkleRight:0.116280,0.808175,0.078633,0.571969 ElbowLeft:0.030465,0.724720,-0.210733,-0.655320 ElbowRight:-0.153469,0.957525,0.148948,0.193408 FootLeft:0.000000,0.000000,0.000000,0.000000 FootRight:0.000000,0.000000,0.000000,0.000000 HandLeft:-0.087238,0.992198,-0.053927,-0.070890 HandRight:-0.400510,0.734706,-0.457614,-0.300647 HandTipLeft:0.000000,0.000000,0.000000,0.000000 HandTipRight:0.000000,0.000000,0.000000,0.000000 Head:0.000000,0.000000,0.000000,0.000000 HipLeft:0.035579,-0.682546,0.721779,-0.109087 HipRight:-0.227716,0.665167,0.666564,-0.247771 KneeLeft:0.049258,-0.600392,0.044364,0.796953 KneeRight:-0.016942,0.799731,0.032779,0.599224 Neck:-0.209093,0.054481,0.973115,-0.079746 ShoulderLeft:0.155965,0.723763,-0.664381,-0.102178 ShoulderRight:-0.116466,0.786701,0.566121,-0.216896 SpineBase:-0.141228,0.044837,0.988079,-0.041770 SpineMid:-0.174476,0.046220,0.982753,-0.040234 SpineShoulder:-0.208758,0.050815,0.974933,-0.057825 ThumbLeft:0.000000,0.000000,0.000000,0.000000 ThumbRight:0.000000,0.000000,0.000000,0.000000 WristLeft:-0.081487,0.988697,-0.100918,-0.075183 WristRight:-0.426495,0.764627,-0.402349,-0.267515 END:
KINECT_DATA POSITION:28.215614,-3.130909,-15.046239 HEAD_JOINT1:0.982796,0.181369,0.000000,-0.034900 LARM_JOINT2:0.786907,0.000000,0.077083,-0.612238 LARM_JOINT3:0.971564,0.000000,-0.203069,-0.121767 LLEG_JOINT2:0.998591,-0.011166,0.000000,0.051870 LLEG_JOINT4:0.997092,0.076174,0.000000,0.002209 RARM_JOINT2:0.864637,0.000000,0.135056,0.483903 RARM_JOINT3:0.730484,0.000000,0.519449,0.443359 RLEG_JOINT2:0.998795,0.018261,0.000000,-0.045555 RLEG_JOINT4:0.990250,0.118860,0.000000,0.072642 WAIST:0.989809,-0.000000,0.141773,0.013380 WAIST_JOINT0:0.976311,-0.000000,0.206173,0.065651 WAIST_JOINT1:0.997213,0.060953,-0.000000,0.043023 END:
KINECT_DATA_Sensor  AnkleLeft:0.025228,0.717959,-0.088512,-0.689974 AnkleRight:0.116063,0.808152,0.079999,0.571857 ElbowLeft:0.030715,0.725076,-0.210233,-0.655075 ElbowRight:-0.153629,0.957651,0.148493,0.193009 FootLeft:0.000000,0.000000,0.000000,0.000000 FootRight:0.000000,0.000000,0.000000,0.000000 HandLeft:-0.075388,0.987636,-0.053416,-0.126642 HandRight:-0.413116,0.723277,-0.445345,-0.328440 HandTipLeft:0.000000,0.000000,0.000000,0.000000 HandTipRight:0.000000,0.000000,0.000000,0.000000 Head:0.000000,0.000000,0.000000,0.000000 HipLeft:0.036184,-0.682647,0.721573,-0.109617 HipRight:-0.227446,0.665206,0.666753,-0.247404 KneeLeft:0.049345,-0.600948,0.044412,0.796526 KneeRight:-0.016075,0.799338,0.032467,0.599789 Neck:-0.208771,0.054417,0.973195,-0.079655 ShoulderLeft:0.155728,0.724195,-0.663957,-0.102228 ShoulderRight:-0.116211,0.786728,0.566294,-0.216482 SpineBase:-0.140528,0.044796,0.988184,-0.041696 SpineMid:-0.173961,0.046184,0.982849,-0.040153 SpineShoulder:-0.208434,0.050773,0.975010,-0.057727 ThumbLeft:0.000000,0.000000,0.000000,0.000000 ThumbRight:0.000000,0.000000,0.000000,0.000000 WristLeft:-0.086665,0.983327,-0.095805,-0.127982 WristRight:-0.439884,0.755006,-0.387355,-0.293980 END:
KINECT_DATA POSITION:28.222418,-3.131533,-15.053558 HEAD_JOINT1:0.982671,0.182207,0.000000,-0.034035 LARM_JOINT2:0.786903,0.000000,0.077003,-0.612253 LARM_JOINT3:0.971147,0.000000,-0.204436,-0.122802 LLEG_JOINT2:0.998606,-0.011988,0.000000,0.051404 LLEG_JOINT4:0.996838,0.079403,0.000000,0.003158 RARM_JOINT2:0.864554,0.000000,0.135594,0.483902 RARM_JOINT3:0.732208,0.000000,0.515221,0.445442 RLEG_JOINT2:0.998763,0.017812,0.000000,-0.046429 RLEG_JOINT4:0.990063,0.120078,0.000000,0.073184 WAIST:0.989827,-0.000000,0.141632,0.013544 WAIST_JOINT0:0.976354,-0.000000,0.205940,0.065746 WAIST_JOINT1:0.997214,0.061032,-0.000000,0.042893 END:
KINECT_DATA_Sensor  AnkleLeft:0.028553,0.729235,-0.089702,-0.677757 AnkleRight:0.116425,0.807986,0.080653,0.571926 ElbowLeft:0.031117,0.726560,-0.210191,-0.653424 ElbowRight:-0.153731,0.957846,0.148331,0.192083 FootLeft:0.000000,0.000000,0.000000,0.000000 FootRight:0.000000,0.000000,0.000000,0.000000 HandLeft:-0.077563,0.994219,-0.059151,-0.044869 HandRight:-0.260044,0.792276,-0.540930,-0.109865 HandTipLeft:0.000000,0.000000,0.000000,0.000000 HandTipRight:0.000000,0.000000,0.000000,0.000000 Head:0.000000,0.000000,0.000000,0.000000 HipLeft:0.036146,-0.682512,0.721698,-0.109650 HipRight:-0.227257,0.665329,0.666727,-0.247320 KneeLeft:0.049846,-0.601091,0.043659,0.796429 KneeRight:-0.016924,0.799212,0.032520,0.599930 Neck:-0.208518,0.054454,0.973243,-0.079708 ShoulderLeft:0.155588,0.724291,-0.663919,-0.102012 ShoulderRight:-0.116006,0.786821,0.566265,-0.216331 SpineBase:-0.140396,0.044851,0.988197,-0.041754 SpineMid:-0.173767,0.046239,0.982878,-0.040212 SpineShoulder:-0.208180,0.050800,0.975060,-0.057787 ThumbLeft:0.000000,0.000000,0.000000,0.000000 ThumbRight:0.000000,0.000000,0.000000,0.000000 WristLeft:-0.078471,0.990576,-0.101560,-0.047827 WristRight:-0.310423,0.807877,-0.496483,-0.066905 END:
KINECT_DATA POSITION:28.205067,-3.144268,-15.039551 HEAD_JOINT1:0.982372,0.183990,0.000000,-0.033071 LARM_JOINT2:0.786684,0.000000,0.076520,-0.612596 LARM_JOINT3:0.971062,0.000000,-0.204845,-0.122792 LLEG_JOINT2:0.998624,-0.012162,0.000000,0.051017 LLEG_JOINT4:0.997001,0.077269,0.000000,0.004220 RARM_JOINT2:0.851503,0.000000,0.171198,0.495614 RARM_JOINT3:0.765783,0.000000,0.491035,0.415284 RLEG_JOINT2:0.998711,0.020069,0.000000,-0.046615 RLEG_JOINT4:0.990836,0.114669,0.000000,0.071383 WAIST:0.989849,-0.000000,0.141482,0.013486 WAIST_JOINT0:0.976315,-0.000000,0.205975,0.066202 WAIST_JOINT1:0.997277,0.060205,-0.000000,0.042582 END:
KINECT_DATA_Sensor  AnkleLeft:0.024940,0.719855,-0.089615,-0.687863 AnkleRight:0.112880,0.808561,0.079430,0.571995 ElbowLeft:0.030508,0.727449,-0.209006,-0.652843 ElbowRight:-0.166626,0.963246,0.117039,0.175200 FootLeft:0.000000,0.000000,0.000000,0.000000 FootRight:0.000000,0.000000,0.000000,0.000000 HandLeft:-0.087449,0.990218,-0.054149,-0.094282 HandRight:-0.331397,0.760222,-0.513388,-0.220615 HandTipLeft:0.000000,0.000000,0.000000,0.000000 HandTipRight:0.000000,0.000000,0.000000,0.000000 Head:0.000000,0.000000,0.000000,0.000000 HipLeft:0.036848,-0.682601,0.721603,-0.109484 HipRight:-0.227525,0.665409,0.666655,-0.247053 KneeLeft:0.049722,-0.601180,0.043196,0.796395 KneeRight:-0.015744,0.799301,0.034487,0.599734 Neck:-0.208566,0.054092,0.973346,-0.078560 ShoulderLeft:0.155177,0.724032,-0.664231,-0.102446 ShoulderRight:-0.116412,0.787211,0.565798,-0.215917 SpineBase:-0.140274,0.044595,0.988251,-0.041174 SpineMid:-0.173732,0.045966,0.982921,-0.039636 SpineShoulder:-0.208226,0.050543,0.975108,-0.057021 ThumbLeft:0.000000,0.000000,0.000000,0.000000 ThumbRight:0.000000,0.000000,0.000000,0.000000 WristLeft:-0.083383,0.986947,-0.096893,-0.097954 WristRight:-0.360781,0.809271,-0.427674,-0.178922 END:
KINECT_DATA POSITION:28.171217,-3.159542,-14.962662 HEAD_JOINT1:0.982321,0.184568,0.000000,-0.031311 LARM_JOINT2:0.787045,0.000000,0.074956,-0.612325 LARM_JOINT3:0.970842,0.000000,-0.206634,-0.121526 LLEG_JOINT2:0.998618,-0.011843,0.000000,0.051201 LLEG_JOINT4:0.997202,0.074724,0.000000,0.001946 RARM_JOINT2:0.833967,0.000000,0.206020,0.511914 RARM_JOINT3:0.795699,0.000000,0.469219,0.383009 RLEG_JOINT2:0.998630,0.021569,0.000000,-0.047669 RLEG_JOINT4:0.990787,0.112473,0.000000,0.075444 WAIST:0.989365,-0.000000,0.144804,0.013733 WAIST_JOINT0:0.976590,-0.000000,0.204741,0.065985 WAIST_JOINT1:0.997396,0.058159,-0.000000,0.042636 END:
