EastLYD/RoboCupatHomeSim/InteractiveCleanUp/JapanOpen2016/Motion_Data/File72.dat
KINECT_DATA POSITION:5.010933,-0.640509,-3.798139 HEAD_JOINT1:0.977135,0.180996,-0.000000,0.111573 LARM_JOINT2:0.836530,0.000000,0.007330,-0.547872 LARM_JOINT3:0.966149,0.000000,-0.195315,-0.168546 LLEG_JOINT2:0.998885,0.015802,0.000000,0.044490 LLEG_JOINT4:0.995696,0.088226,0.000000,-0.028387 RARM_JOINT2:0.808203,0.000000,-0.113681,0.577827 RARM_JOINT3:0.960709,0.000000,0.220013,0.169213 RLEG_JOINT2:0.999406,0.019322,0.000000,-0.028527 RLEG_JOINT4:0.995487,0.087498,0.000000,0.036729 WAIST:0.999993,0.000000,-0.003235,0.001967 WAIST_JOINT0:0.999441,0.000000,-0.033328,0.002577 WAIST_JOINT1:0.997928,0.062271,0.000000,-0.016195 END:
KINECT_DATA_Sensor  AnkleLeft:0.069397,0.773578,-0.079316,-0.624877 AnkleRight:0.082430,0.693499,0.068514,0.712440 ElbowLeft:-0.028024,0.877341,-0.199334,-0.435607 ElbowRight:0.041699,0.827783,0.225479,0.512050 FootLeft:0.000000,0.000000,0.000000,0.000000 FootRight:0.000000,0.000000,0.000000,0.000000 HandLeft:-0.136685,0.855593,0.002518,0.499271 HandRight:0.056692,-0.415645,-0.081506,0.904092 HandTipLeft:0.000000,0.000000,0.000000,0.000000 HandTipRight:0.000000,0.000000,0.000000,0.000000 Head:0.000000,0.000000,0.000000,0.000000 HipLeft:0.122504,-0.678841,0.705751,-0.161502 HipRight:-0.119936,0.678303,0.704114,-0.172463 KneeLeft:-0.021810,0.708550,-0.043957,-0.703952 KneeRight:-0.004974,0.705243,0.032470,0.708204 Neck:0.032395,-0.017359,0.996312,-0.077537 ShoulderLeft:0.012127,0.785871,-0.614461,0.068533 ShoulderRight:0.054224,0.783624,0.618640,-0.016677 SpineBase:0.002602,-0.012307,0.999184,-0.038388 SpineMid:0.017282,-0.012870,0.999038,-0.038203 SpineShoulder:0.032294,-0.015362,0.997743,-0.056840 ThumbLeft:0.000000,0.000000,0.000000,0.000000 ThumbRight:0.000000,0.000000,0.000000,0.000000 WristLeft:-0.094809,0.867406,-0.095485,0.479063 WristRight:-0.004044,-0.418602,-0.097625,0.902898 END:
KINECT_DATA POSITION:4.919518,-0.654951,-3.695810 HEAD_JOINT1:0.977270,0.182108,-0.000000,0.108538 LARM_JOINT2:0.836192,0.000000,0.008463,-0.548371 LARM_JOINT3:0.965278,0.000000,-0.209141,-0.156521 LLEG_JOINT2:0.998883,0.015787,0.000000,0.044538 LLEG_JOINT4:0.995506,0.090112,0.000000,-0.029122 RARM_JOINT2:0.808802,0.000000,-0.116179,0.576491 RARM_JOINT3:0.959132,0.000000,0.226504,0.169595 RLEG_JOINT2:0.999434,0.018593,0.000000,-0.028046 RLEG_JOINT4:0.994997,0.092740,0.000000,0.037154 WAIST:0.999998,0.000000,-0.001172,0.001751 WAIST_JOINT0:0.999631,0.000000,-0.027019,0.002977 WAIST_JOINT1:0.997952,0.062034,0.000000,-0.015612 END:
KINECT_DATA_Sensor  AnkleLeft:0.072222,0.777124,-0.079055,-0.620171 AnkleRight:0.089588,0.730961,0.066774,0.673209 ElbowLeft:-0.027721,0.874498,-0.199399,-0.441276 ElbowRight:0.043061,0.829779,0.227037,0.508003 FootLeft:0.000000,0.000000,0.000000,0.000000 FootRight:0.000000,0.000000,0.000000,0.000000 HandLeft:-0.135315,0.590958,-0.120957,0.786020 HandRight:0.080604,-0.559788,-0.101823,0.818396 HandTipLeft:0.000000,0.000000,0.000000,0.000000 HandTipRight:0.000000,0.000000,0.000000,0.000000 Head:0.000000,0.000000,0.000000,0.000000 HipLeft:0.121275,-0.679294,0.705901,-0.159863 HipRight:-0.121338,0.677953,0.704064,-0.173058 KneeLeft:-0.021614,0.707130,-0.043871,-0.705390 KneeRight:-0.005374,0.706683,0.031755,0.706797 Neck:0.026400,-0.016783,0.996508,-0.077419 ShoulderLeft:0.012865,0.785817,-0.614794,0.065989 ShoulderRight:0.047311,0.783768,0.618798,-0.023633 SpineBase:0.000578,-0.012180,0.999207,-0.037901 SpineMid:0.013276,-0.012660,0.999119,-0.037743 SpineShoulder:0.026288,-0.014897,0.997939,-0.056612 ThumbLeft:0.000000,0.000000,0.000000,0.000000 ThumbRight:0.000000,0.000000,0.000000,0.000000 WristLeft:-0.046121,0.599487,-0.127040,0.788891 WristRight:0.012125,-0.565005,-0.094717,0.819543 END:
KINECT_DATA POSITION:4.721064,-0.667229,-3.229535 HEAD_JOINT1:0.978966,0.182195,-0.000000,0.091813 LARM_JOINT2:0.836075,0.000000,0.027080,-0.547947 LARM_JOINT3:0.959992,0.000000,-0.260376,-0.103049 LLEG_JOINT2:0.998797,0.016757,0.000000,0.046081 LLEG_JOINT4:0.995523,0.089556,0.000000,-0.030218 RARM_JOINT2:0.816674,0.000000,-0.105586,0.567359 RARM_JOINT3:0.958814,0.000000,0.221173,0.178209 RLEG_JOINT2:0.999415,0.020394,0.000000,-0.027442 RLEG_JOINT4:0.994755,0.092700,0.000000,0.043226 WAIST:0.999934,-0.000000,0.011287,0.002146 WAIST_JOINT0:0.999959,0.000000,-0.008358,0.003622 WAIST_JOINT1:0.998112,0.060082,0.000000,-0.012758 END:
KINECT_DATA_Sensor  AnkleLeft:0.071703,0.758932,-0.080204,-0.642221 AnkleRight:0.093449,0.724721,0.065897,0.679489 ElbowLeft:-0.029648,0.831451,-0.207134,-0.514690 ElbowRight:0.034693,0.853192,0.229718,0.467001 FootLeft:0.000000,0.000000,0.000000,0.000000 FootRight:0.000000,0.000000,0.000000,0.000000 HandLeft:-0.227259,0.826057,-0.271156,0.438700 HandRight:0.070120,-0.395403,-0.134666,0.905872 HandTipLeft:0.000000,0.000000,0.000000,0.000000 HandTipRight:0.000000,0.000000,0.000000,0.000000 Head:0.000000,0.000000,0.000000,0.000000 HipLeft:0.114805,-0.680938,0.707296,-0.151248 HipRight:-0.130752,0.677053,0.702041,-0.177882 KneeLeft:0.021734,-0.698375,0.046187,0.713910 KneeRight:-0.003819,0.715339,0.032254,0.698023 Neck:0.008276,-0.013321,0.997020,-0.075535 ShoulderLeft:0.021829,0.785581,-0.616215,0.051615 ShoulderRight:0.032933,0.783319,0.619579,-0.038064 SpineBase:-0.011782,-0.010432,0.999257,-0.035177 SpineMid:-0.001976,-0.010777,0.999325,-0.035073 SpineShoulder:0.008123,-0.012188,0.998401,-0.054600 ThumbLeft:0.000000,0.000000,0.000000,0.000000 ThumbRight:0.000000,0.000000,0.000000,0.000000 WristLeft:-0.090784,0.869992,-0.129588,0.466988 WristRight:0.000546,-0.405045,-0.091271,0.909730 END:
KINECT_DATA POSITION:4.601071,-0.679772,-2.960324 HEAD_JOINT1:0.980798,0.182213,-0.000000,0.069517 LARM_JOINT2:0.835625,0.000000,0.031449,-0.548400 LARM_JOINT3:0.950233,0.000000,-0.306365,-0.056550 LLEG_JOINT2:0.998810,0.016512,0.000000,0.045894 LLEG_JOINT4:0.995991,0.087229,0.000000,-0.019818 RARM_JOINT2:0.824324,0.000000,-0.097533,0.557653 RARM_JOINT3:0.957586,0.000000,0.214854,0.192007 RLEG_JOINT2:0.999389,0.022916,0.000000,-0.026406 RLEG_JOINT4:0.994378,0.097222,0.000000,0.041956 WAIST:0.999735,-0.000000,0.022852,0.002624 WAIST_JOINT0:0.999892,-0.000000,0.013516,0.005740 WAIST_JOINT1:0.998266,0.058388,0.000000,-0.007499 END:
KINECT_DATA_Sensor  AnkleLeft:-0.057182,-0.699415,0.090863,0.706607 AnkleRight:0.097127,0.725655,0.072638,0.677285 ElbowLeft:-0.043508,0.783505,-0.210054,-0.583185 ElbowRight:0.027583,0.870084,0.231972,0.434031 FootLeft:0.000000,0.000000,0.000000,0.000000 FootRight:0.000000,0.000000,0.000000,0.000000 HandLeft:0.043138,0.331488,-0.470180,0.816814 HandRight:0.087844,-0.403661,-0.114716,0.903428 HandTipLeft:0.000000,0.000000,0.000000,0.000000 HandTipRight:0.000000,0.000000,0.000000,0.000000 Head:0.000000,0.000000,0.000000,0.000000 HipLeft:0.107773,-0.681934,0.708747,-0.145014 HipRight:-0.139827,0.676058,0.699889,-0.183165 KneeLeft:0.021594,-0.690157,0.046454,0.721844 KneeRight:-0.001383,0.723277,0.032957,0.689770 Neck:-0.013360,-0.007170,0.997167,-0.073682 ShoulderLeft:0.035372,0.783806,-0.619100,0.033360 ShoulderRight:0.018626,0.783822,0.618360,-0.053923 SpineBase:-0.023215,-0.006589,0.999129,-0.034027 SpineMid:-0.018459,-0.006751,0.999229,-0.033995 SpineShoulder:-0.013479,-0.006636,0.998474,-0.053133 ThumbLeft:0.000000,0.000000,0.000000,0.000000 ThumbRight:0.000000,0.000000,0.000000,0.000000 WristLeft:0.038796,0.377322,-0.189170,0.905725 WristRight:0.010905,-0.411647,-0.091142,0.906709 END:
KINECT_DATA POSITION:4.512287,-0.727682,-2.797341 HEAD_JOINT1:0.981798,0.181893,-0.000000,0.054654 LARM_JOINT2:0.836168,0.000000,0.031237,-0.547583 LARM_JOINT3:0.942071,0.000000,-0.333735,-0.033512 LLEG_JOINT2:0.998851,0.017274,0.000000,0.044704 LLEG_JOINT4:0.996205,0.084575,0.000000,-0.020580 RARM_JOINT2:0.826635,0.000000,-0.097138,0.554292 RARM_JOINT3:0.957354,0.000000,0.211380,0.196954 RLEG_JOINT2:0.999332,0.024682,0.000000,-0.026961 RLEG_JOINT4:0.994682,0.093463,0.000000,0.043262 WAIST:0.999567,-0.000000,0.029188,0.003748 WAIST_JOINT0:0.999687,-0.000000,0.023848,0.007618 WAIST_JOINT1:0.998395,0.056438,0.000000,-0.004747 END:
KINECT_DATA_Sensor  AnkleLeft:0.064959,0.759032,-0.082841,-0.642486 AnkleRight:0.096738,0.731701,0.070265,0.671058 ElbowLeft:-0.055703,0.752948,-0.210890,-0.620880 ElbowRight:0.026388,0.877125,0.231109,0.420172 FootLeft:0.000000,0.000000,0.000000,0.000000 FootRight:0.000000,0.000000,0.000000,0.000000 HandLeft:0.066294,0.283316,-0.518104,0.804304 HandRight:0.103235,-0.485973,-0.097291,0.862384 HandTipLeft:0.000000,0.000000,0.000000,0.000000 HandTipRight:0.000000,0.000000,0.000000,0.000000 Head:0.000000,0.000000,0.000000,0.000000 HipLeft:0.104095,-0.681887,0.710102,-0.141242 HipRight:-0.145330,0.676201,0.698044,-0.185381 KneeLeft:0.020729,-0.685631,0.047032,0.726132 KneeRight:-0.000002,0.727616,0.033805,0.685151 Neck:-0.023671,-0.003333,0.997149,-0.071577 ShoulderLeft:0.041295,0.783279,-0.619849,0.023569 ShoulderRight:0.011330,0.785661,0.615603,-0.060350 SpineBase:-0.029498,-0.003422,0.999022,-0.032750 SpineMid:-0.026698,-0.003514,0.999101,-0.032741 SpineShoulder:-0.023734,-0.002850,0.998396,-0.051326 ThumbLeft:0.000000,0.000000,0.000000,0.000000 ThumbRight:0.000000,0.000000,0.000000,0.000000 WristLeft:0.063698,0.342464,-0.209609,0.913633 WristRight:0.024501,-0.492328,-0.087154,0.865689 END:
KINECT_DATA POSITION:4.407007,-0.745226,-2.737105 HEAD_JOINT1:0.982383,0.180383,-0.000000,0.048836 LARM_JOINT2:0.835724,0.000000,0.045442,-0.547266 LARM_JOINT3:0.903743,0.000000,-0.427408,-0.023889 LLEG_JOINT2:0.998872,0.016754,0.000000,0.044438 LLEG_JOINT4:0.996209,0.085119,0.000000,-0.017932 RARM_JOINT2:0.827808,0.000000,-0.096938,0.552573 RARM_JOINT3:0.958504,0.000000,0.206195,0.196858 RLEG_JOINT2:0.999286,0.025376,0.000000,-0.027994 RLEG_JOINT4:0.994451,0.094223,0.000000,0.046794 WAIST:0.999447,-0.000000,0.033009,0.003941 WAIST_JOINT0:0.999512,-0.000000,0.029967,0.008846 WAIST_JOINT1:0.998463,0.055271,0.000000,-0.004117 END:
KINECT_DATA_Sensor  AnkleLeft:0.064739,0.764026,-0.083913,-0.636421 AnkleRight:0.098954,0.729756,0.070400,0.672836 ElbowLeft:-0.056157,0.720129,-0.215355,-0.657178 ElbowRight:0.024631,0.880070,0.231626,0.413787 FootLeft:0.000000,0.000000,0.000000,0.000000 FootRight:0.000000,0.000000,0.000000,0.000000 HandLeft:0.063751,-0.346193,0.619491,-0.701653 HandRight:0.084699,-0.509992,-0.080370,0.852217 HandTipLeft:0.000000,0.000000,0.000000,0.000000 HandTipRight:0.000000,0.000000,0.000000,0.000000 Head:0.000000,0.000000,0.000000,0.000000 HipLeft:0.102181,-0.682227,0.710568,-0.138631 HipRight:-0.148434,0.676072,0.697272,-0.186294 KneeLeft:0.020892,-0.682869,0.046688,0.728748 KneeRight:-0.000284,0.730213,0.034873,0.682329 Neck:-0.029886,-0.002689,0.997060,-0.070503 ShoulderLeft:0.046338,0.782200,-0.621083,0.016525 ShoulderRight:0.008476,0.786048,0.614890,-0.062988 SpineBase:-0.033275,-0.002090,0.998943,-0.031642 SpineMid:-0.031650,-0.002141,0.998996,-0.031639 SpineShoulder:-0.029930,-0.002022,0.998292,-0.050136 ThumbLeft:0.000000,0.000000,0.000000,0.000000 ThumbRight:0.000000,0.000000,0.000000,0.000000 WristLeft:0.006905,0.476763,-0.273341,0.835424 WristRight:0.029174,-0.513754,-0.086706,0.853046 END:
KINECT_DATA POSITION:4.357755,-0.753846,-2.753663 HEAD_JOINT1:0.982656,0.180017,-0.000000,0.044511 LARM_JOINT2:0.835850,0.000000,0.043941,-0.547197 LARM_JOINT3:0.898620,0.000000,-0.438500,-0.014161 LLEG_JOINT2:0.998866,0.015823,0.000000,0.044902 LLEG_JOINT4:0.996001,0.087588,0.000000,-0.017637 RARM_JOINT2:0.828472,0.000000,-0.098946,0.551221 RARM_JOINT3:0.959410,0.000000,0.203128,0.195630 RLEG_JOINT2:0.999278,0.025911,0.000000,-0.027784 RLEG_JOINT4:0.994482,0.093944,0.000000,0.046693 WAIST:0.999381,-0.000000,0.034967,0.003876 WAIST_JOINT0:0.999406,-0.000000,0.033262,0.008980 WAIST_JOINT1:0.998528,0.054104,0.000000,-0.003804 END:
KINECT_DATA_Sensor  AnkleLeft:0.068945,0.786285,-0.082667,-0.608414 AnkleRight:0.097777,0.719294,0.072450,0.683964 ElbowLeft:-0.060931,0.709401,-0.213461,-0.668933 ElbowRight:0.024318,0.880687,0.232820,0.411817 FootLeft:0.000000,0.000000,0.000000,0.000000 FootRight:0.000000,0.000000,0.000000,0.000000 HandLeft:-0.031178,0.339188,-0.618186,0.708396 HandRight:0.073596,-0.560922,-0.070221,0.821596 HandTipLeft:0.000000,0.000000,0.000000,0.000000 HandTipRight:0.000000,0.000000,0.000000,0.000000 Head:0.000000,0.000000,0.000000,0.000000 HipLeft:0.101316,-0.682585,0.710678,-0.136929 HipRight:-0.150056,0.675997,0.696963,-0.186422 KneeLeft:0.021759,-0.681429,0.046382,0.730089 KneeRight:0.000115,0.731534,0.035159,0.680898 Neck:-0.033141,-0.002514,0.997041,-0.069312 ShoulderLeft:0.047532,0.782054,-0.621254,0.013273 ShoulderRight:0.005518,0.786142,0.614610,-0.064841 SpineBase:-0.035204,-0.001560,0.998906,-0.030731 SpineMid:-0.034222,-0.001591,0.998940,-0.030730 SpineShoulder:-0.033177,-0.001740,0.998247,-0.048981 ThumbLeft:0.000000,0.000000,0.000000,0.000000 ThumbRight:0.000000,0.000000,0.000000,0.000000 WristLeft:0.008057,0.446199,-0.297630,0.843954 WristRight:0.034042,-0.563308,-0.084841,0.821174 END:
KINECT_DATA POSITION:4.239063,-0.781563,-2.778637 HEAD_JOINT1:0.982862,0.179578,-0.000000,0.041641 LARM_JOINT2:0.835828,0.000000,0.042093,-0.547375 LARM_JOINT3:0.879936,0.000000,-0.473822,-0.034717 LLEG_JOINT2:0.998917,0.014541,0.000000,0.044206 LLEG_JOINT4:0.996349,0.083278,0.000000,-0.018798 RARM_JOINT2:0.828254,0.000000,-0.100421,0.551281 RARM_JOINT3:0.958570,0.000000,0.199722,0.203114 RLEG_JOINT2:0.999255,0.026489,0.000000,-0.028068 RLEG_JOINT4:0.994604,0.093347,0.000000,0.045270 WAIST:0.999331,-0.000000,0.036132,0.005601 WAIST_JOINT0:0.999392,-0.000000,0.033624,0.009215 WAIST_JOINT1:0.998582,0.052963,0.000000,-0.005429 END:
KINECT_DATA_Sensor  AnkleLeft:-0.052118,-0.688690,0.087927,0.717816 AnkleRight:0.098450,0.727908,0.071394,0.674804 ElbowLeft:-0.063765,0.705556,-0.211534,-0.673334 ElbowRight:0.024342,0.881261,0.232482,0.410778 FootLeft:0.000000,0.000000,0.000000,0.000000 FootRight:0.000000,0.000000,0.000000,0.000000 HandLeft:-0.105717,0.316370,-0.621903,0.708499 HandRight:0.089783,-0.524900,-0.046573,0.845133 HandTipLeft:0.000000,0.000000,0.000000,0.000000 HandTipRight:0.000000,0.000000,0.000000,0.000000 Head:0.000000,0.000000,0.000000,0.000000 HipLeft:0.101324,-0.681767,0.711824,-0.135035 HipRight:-0.151339,0.677161,0.695580,-0.186327 KneeLeft:0.023395,-0.680459,0.046238,0.730951 KneeRight:0.001475,0.732384,0.034553,0.680013 Neck:-0.033516,-0.002510,0.997107,-0.068170 ShoulderLeft:0.046779,0.782022,-0.621371,0.012262 ShoulderRight:0.004306,0.786591,0.614091,-0.064401 SpineBase:-0.036451,-0.001250,0.998902,-0.029387 SpineMid:-0.035026,-0.001292,0.998953,-0.029385 SpineShoulder:-0.033550,-0.001698,0.998294,-0.047753 ThumbLeft:0.000000,0.000000,0.000000,0.000000 ThumbRight:0.000000,0.000000,0.000000,0.000000 WristLeft:-0.016954,0.446905,-0.329122,0.831665 WristRight:0.031102,-0.526937,-0.085911,0.844979 END:
KINECT_DATA POSITION:4.164829,-0.784735,-2.758777 HEAD_JOINT1:0.982915,0.179322,-0.000000,0.041489 LARM_JOINT2:0.835348,0.000000,0.041410,-0.548159 LARM_JOINT3:0.861863,0.000000,-0.505693,-0.038303 LLEG_JOINT2:0.998918,0.013590,0.000000,0.044467 LLEG_JOINT4:0.995945,0.088234,0.000000,-0.017584 RARM_JOINT2:0.827120,0.000000,-0.102557,0.552588 RARM_JOINT3:0.960550,0.000000,0.193054,0.200183 RLEG_JOINT2:0.999254,0.027054,0.000000,-0.027573 RLEG_JOINT4:0.994702,0.092389,0.000000,0.045083 WAIST:0.999287,-0.000000,0.037277,0.005975 WAIST_JOINT0:0.999435,-0.000000,0.032422,0.008817 WAIST_JOINT1:0.998593,0.052705,0.000000,-0.005893 END:
KINECT_DATA_Sensor  AnkleLeft:0.067205,0.787811,-0.082687,-0.606630 AnkleRight:0.099961,0.741978,0.068780,0.659353 ElbowLeft:-0.063832,0.704085,-0.210248,-0.675268 ElbowRight:0.025358,0.880281,0.231684,0.413261 FootLeft:0.000000,0.000000,0.000000,0.000000 FootRight:0.000000,0.000000,0.000000,0.000000 HandLeft:0.126957,-0.288078,0.651177,-0.690552 HandRight:0.069352,-0.571544,-0.019920,0.817393 HandTipLeft:0.000000,0.000000,0.000000,0.000000 HandTipRight:0.000000,0.000000,0.000000,0.000000 Head:0.000000,0.000000,0.000000,0.000000 HipLeft:0.100919,-0.681673,0.712183,-0.133912 HipRight:-0.152196,0.677238,0.695199,-0.186773 KneeLeft:0.024489,-0.679564,0.046068,0.731759 KneeRight:0.002441,0.733170,0.034362,0.679173 Neck:-0.032319,-0.002774,0.997163,-0.067924 ShoulderLeft:0.046496,0.781959,-0.621468,0.012478 ShoulderRight:0.005528,0.786043,0.614953,-0.062757 SpineBase:-0.037617,-0.001409,0.998872,-0.028933 SpineMid:-0.035022,-0.001484,0.998967,-0.028930 SpineShoulder:-0.032357,-0.001962,0.998347,-0.047452 ThumbLeft:0.000000,0.000000,0.000000,0.000000 ThumbRight:0.000000,0.000000,0.000000,0.000000 WristLeft:-0.030232,0.428785,-0.351449,0.831693 WristRight:0.034677,-0.572366,-0.083521,0.814996 END:
KINECT_DATA POSITION:4.136614,-0.792101,-2.739298 HEAD_JOINT1:0.982593,0.180923,-0.000000,0.042159 LARM_JOINT2:0.834838,0.000000,0.036279,-0.549299 LARM_JOINT3:0.857035,0.000000,-0.514211,-0.032825 LLEG_JOINT2:0.998909,0.013952,0.000000,0.044570 LLEG_JOINT4:0.996124,0.086335,0.000000,-0.016847 RARM_JOINT2:0.825779,0.000000,-0.105033,0.554128 RARM_JOINT3:0.959438,0.000000,0.196411,0.202241 RLEG_JOINT2:0.999247,0.027263,0.000000,-0.027597 RLEG_JOINT4:0.994747,0.091880,0.000000,0.045131 WAIST:0.999296,-0.000000,0.036990,0.006298 WAIST_JOINT0:0.999473,-0.000000,0.031162,0.009044 WAIST_JOINT1:0.998587,0.052792,0.000000,-0.006107 END:
KINECT_DATA_Sensor  AnkleLeft:-0.052329,-0.690155,0.091552,0.715937 AnkleRight:0.098423,0.726566,0.070558,0.676340 ElbowLeft:-0.068379,0.698940,-0.206249,-0.681373 ElbowRight:0.026955,0.877726,0.230756,0.419072 FootLeft:0.000000,0.000000,0.000000,0.000000 FootRight:0.000000,0.000000,0.000000,0.000000 HandLeft:0.135837,-0.305010,0.638785,-0.693160 HandRight:0.084813,-0.470711,-0.030725,0.877664 HandTipLeft:0.000000,0.000000,0.000000,0.000000 HandTipRight:0.000000,0.000000,0.000000,0.000000 Head:0.000000,0.000000,0.000000,0.000000 HipLeft:0.101050,-0.681439,0.712372,-0.134000 HipRight:-0.152045,0.677502,0.695024,-0.186589 KneeLeft:0.024533,-0.679763,0.046612,0.731538 KneeRight:0.002806,0.732985,0.034303,0.679373 Neck:-0.031106,-0.002725,0.997191,-0.068079 ShoulderLeft:0.045866,0.781341,-0.622271,0.013450 ShoulderRight:0.006434,0.785750,0.615418,-0.061771 SpineBase:-0.037345,-0.001255,0.998884,-0.028896 SpineMid:-0.034277,-0.001344,0.998994,-0.028892 SpineShoulder:-0.031139,-0.001884,0.998384,-0.047507 ThumbLeft:0.000000,0.000000,0.000000,0.000000 ThumbRight:0.000000,0.000000,0.000000,0.000000 WristLeft:-0.044646,0.430583,-0.373521,0.820419 WristRight:0.023712,-0.471770,-0.087080,0.877090 END:
KINECT_DATA POSITION:4.127378,-0.805399,-2.726257 HEAD_JOINT1:0.981664,0.184937,-0.000000,0.046188 LARM_JOINT2:0.834680,0.000000,0.026677,-0.550089 LARM_JOINT3:0.859712,0.000000,-0.510277,-0.022628 LLEG_JOINT2:0.998933,0.014280,0.000000,0.043917 LLEG_JOINT4:0.995851,0.089285,0.000000,-0.017596 RARM_JOINT2:0.824163,0.000000,-0.107242,0.556107 RARM_JOINT3:0.959060,0.000000,0.197003,0.203453 RLEG_JOINT2:0.999229,0.027688,0.000000,-0.027828 RLEG_JOINT4:0.994553,0.093489,0.000000,0.046093 WAIST:0.999332,-0.000000,0.035868,0.007026 WAIST_JOINT0:0.999544,-0.000000,0.028617,0.009620 WAIST_JOINT1:0.998580,0.052865,0.000000,-0.006640 END:
KINECT_DATA_Sensor  AnkleLeft:-0.055191,-0.691197,0.093207,0.714502 AnkleRight:0.100854,0.724817,0.071036,0.677807 ElbowLeft:-0.077729,0.689664,-0.199613,-0.691720 ElbowRight:0.028703,0.874743,0.229213,0.425985 FootLeft:0.000000,0.000000,0.000000,0.000000 FootRight:0.000000,0.000000,0.000000,0.000000 HandLeft:-0.121214,0.298693,-0.612275,0.721948 HandRight:0.093174,-0.375036,-0.030307,0.921818 HandTipLeft:0.000000,0.000000,0.000000,0.000000 HandTipRight:0.000000,0.000000,0.000000,0.000000 Head:0.000000,0.000000,0.000000,0.000000 HipLeft:0.101783,-0.680909,0.712643,-0.134695 HipRight:-0.151396,0.678209,0.694606,-0.186105 KneeLeft:0.024410,-0.680564,0.046849,0.730782 KneeRight:0.003484,0.732246,0.034259,0.680169 Neck:-0.028628,-0.002573,0.997260,-0.068167 ShoulderLeft:0.044099,0.780702,-0.623149,0.015656 ShoulderRight:0.007830,0.785735,0.615595,-0.060019 SpineBase:-0.036260,-0.001033,0.998924,-0.028910 SpineMid:-0.032492,-0.001142,0.999053,-0.028906 SpineShoulder:-0.028650,-0.001701,0.998456,-0.047560 ThumbLeft:0.000000,0.000000,0.000000,0.000000 ThumbRight:0.000000,0.000000,0.000000,0.000000 WristLeft:-0.034907,0.406504,-0.393876,0.823649 WristRight:0.014280,-0.375946,-0.089448,0.922204 END:
KINECT_DATA POSITION:4.113078,-0.809012,-2.707493 HEAD_JOINT1:0.980965,0.187696,-0.000000,0.049775 LARM_JOINT2:0.836908,0.000000,0.018716,-0.547023 LARM_JOINT3:0.870574,0.000000,-0.491831,-0.014253 LLEG_JOINT2:0.998958,0.014348,0.000000,0.043336 LLEG_JOINT4:0.995677,0.090591,0.000000,-0.020529 RARM_JOINT2:0.822265,0.000000,-0.109119,0.558546 RARM_JOINT3:0.960752,0.000000,0.194630,0.197674 RLEG_JOINT2:0.999222,0.027572,0.000000,-0.028196 RLEG_JOINT4:0.994797,0.091363,0.000000,0.045075 WAIST:0.999396,-0.000000,0.033900,0.007661 WAIST_JOINT0:0.999679,-0.000000,0.023281,0.010005 WAIST_JOINT1:0.998572,0.052916,0.000000,-0.007344 END:
KINECT_DATA_Sensor  AnkleLeft:-0.058100,-0.693709,0.091964,0.711994 AnkleRight:0.098754,0.722233,0.069943,0.680981 ElbowLeft:-0.084272,0.695916,-0.198509,-0.684977 ElbowRight:0.031021,0.872388,0.227231,0.431675 FootLeft:0.000000,0.000000,0.000000,0.000000 FootRight:0.000000,0.000000,0.000000,0.000000 HandLeft:-0.147890,0.369938,-0.599625,0.694063 HandRight:0.073872,-0.477857,-0.013312,0.875225 HandTipLeft:0.000000,0.000000,0.000000,0.000000 HandTipRight:0.000000,0.000000,0.000000,0.000000 Head:0.000000,0.000000,0.000000,0.000000 HipLeft:0.103210,-0.680216,0.712864,-0.135937 HipRight:-0.150420,0.678828,0.694445,-0.185238 KneeLeft:0.024496,-0.681977,0.046880,0.729459 KneeRight:0.003663,0.730930,0.033979,0.681596 Neck:-0.023361,-0.002803,0.997392,-0.068228 ShoulderLeft:0.040331,0.780421,-0.623627,0.020143 ShoulderRight:0.010802,0.785713,0.615940,-0.056188 SpineBase:-0.034327,-0.000909,0.998993,-0.028894 SpineMid:-0.028892,-0.001067,0.999164,-0.028888 SpineShoulder:-0.023370,-0.001817,0.998592,-0.047589 ThumbLeft:0.000000,0.000000,0.000000,0.000000 ThumbRight:0.000000,0.000000,0.000000,0.000000 WristLeft:-0.062367,0.476200,-0.380178,0.790448 WristRight:0.024716,-0.478262,-0.086555,0.873592 END:
KINECT_DATA POSITION:4.102719,-0.823759,-2.690804 HEAD_JOINT1:0.980827,0.188341,-0.000000,0.050063 LARM_JOINT2:0.837217,0.000000,0.006661,-0.546830 LARM_JOINT3:0.882078,0.000000,-0.470911,-0.013485 LLEG_JOINT2:0.998953,0.014836,0.000000,0.043268 LLEG_JOINT4:0.995682,0.090372,0.000000,-0.021224 RARM_JOINT2:0.821984,0.000000,-0.109646,0.558856 RARM_JOINT3:0.958867,0.000000,0.205355,0.195969 RLEG_JOINT2:0.999218,0.028275,0.000000,-0.027627 RLEG_JOINT4:0.995110,0.089450,0.000000,0.041897 WAIST:0.999429,-0.000000,0.032859,0.007905 WAIST_JOINT0:0.999730,-0.000000,0.021114,0.009714 WAIST_JOINT1:0.998567,0.052958,0.000000,-0.007765 END:
KINECT_DATA_Sensor  AnkleLeft:0.067364,0.761534,-0.085554,-0.638912 AnkleRight:0.096237,0.721500,0.070622,0.682047 ElbowLeft:-0.090838,0.702631,-0.192668,-0.678923 ElbowRight:0.031626,0.871592,0.227189,0.433258 FootLeft:0.000000,0.000000,0.000000,0.000000 FootRight:0.000000,0.000000,0.000000,0.000000 HandLeft:-0.138296,0.380808,-0.574285,0.711376 HandRight:0.093850,-0.523392,-0.053653,0.845206 HandTipLeft:0.000000,0.000000,0.000000,0.000000 HandTipRight:0.000000,0.000000,0.000000,0.000000 Head:0.000000,0.000000,0.000000,0.000000 HipLeft:0.103899,-0.679937,0.712921,-0.136507 HipRight:-0.149813,0.679115,0.694431,-0.184729 KneeLeft:0.024307,-0.682734,0.047316,0.728728 KneeRight:0.004771,0.730221,0.033933,0.682351 Neck:-0.021164,-0.003052,0.997437,-0.068282 ShoulderLeft:0.038148,0.780743,-0.623282,0.022470 ShoulderRight:0.011424,0.785672,0.616081,-0.055076 SpineBase:-0.033302,-0.000944,0.999027,-0.028886 SpineMid:-0.027280,-0.001118,0.999210,-0.028880 SpineShoulder:-0.021167,-0.001984,0.998639,-0.047617 ThumbLeft:0.000000,0.000000,0.000000,0.000000 ThumbRight:0.000000,0.000000,0.000000,0.000000 WristLeft:-0.057711,0.474585,-0.371348,0.795952 WristRight:0.028768,-0.525855,-0.084867,0.845841 END:
KINECT_DATA POSITION:4.094115,-0.860099,-2.661026 HEAD_JOINT1:0.981045,0.187302,-0.000000,0.049693 LARM_JOINT2:0.839727,0.000000,0.004933,-0.542986 LARM_JOINT3:0.893986,0.000000,-0.447658,-0.019782 LLEG_JOINT2:0.998948,0.015311,0.000000,0.043217 LLEG_JOINT4:0.995848,0.088475,0.000000,-0.021414 RARM_JOINT2:0.822196,0.000000,-0.108042,0.558856 RARM_JOINT3:0.958361,0.000000,0.209802,0.193719 RLEG_JOINT2:0.999250,0.027287,0.000000,-0.027467 RLEG_JOINT4:0.995025,0.090976,0.000000,0.040616 WAIST:0.999466,-0.000000,0.031733,0.007844 WAIST_JOINT0:0.999940,-0.000000,0.007369,0.008053 WAIST_JOINT1:0.998546,0.053287,0.000000,-0.008155 END:
KINECT_DATA_Sensor  AnkleLeft:0.058491,0.702466,-0.090144,-0.703558 AnkleRight:0.095163,0.714349,0.072611,0.689476 ElbowLeft:-0.092557,0.710087,-0.195837,-0.669968 ElbowRight:0.030683,0.871223,0.227312,0.434003 FootLeft:0.000000,0.000000,0.000000,0.000000 FootRight:0.000000,0.000000,0.000000,0.000000 HandLeft:-0.075163,0.334498,-0.553552,0.758974 HandRight:0.095204,-0.505138,-0.074994,0.854487 HandTipLeft:0.000000,0.000000,0.000000,0.000000 HandTipRight:0.000000,0.000000,0.000000,0.000000 Head:0.000000,0.000000,0.000000,0.000000 HipLeft:0.104362,-0.679851,0.712830,-0.137059 HipRight:-0.148904,0.679211,0.694697,-0.184111 KneeLeft:0.023928,-0.683567,0.047540,0.727945 KneeRight:0.004212,0.729458,0.033147,0.683209 Neck:-0.006689,-0.004499,0.997611,-0.068616 ShoulderLeft:0.018590,0.783697,-0.619459,0.041754 ShoulderRight:0.010310,0.785474,0.616639,-0.051781 SpineBase:-0.032182,-0.001119,0.999059,-0.029037 SpineMid:-0.019507,-0.001488,0.999387,-0.029020 SpineShoulder:-0.006659,-0.002992,0.998826,-0.047880 ThumbLeft:0.000000,0.000000,0.000000,0.000000 ThumbRight:0.000000,0.000000,0.000000,0.000000 WristLeft:-0.018459,0.408148,-0.358742,0.839273 WristRight:0.027425,-0.509087,-0.086732,0.855895 END:
KINECT_DATA POSITION:4.113780,-0.901277,-2.616572 HEAD_JOINT1:0.981349,0.185399,-0.000000,0.050819 LARM_JOINT2:0.840762,0.000000,-0.010248,-0.541307 LARM_JOINT3:0.902899,0.000000,-0.429740,-0.009808 LLEG_JOINT2:0.998935,0.015222,0.000000,0.043558 LLEG_JOINT4:0.995707,0.090580,0.000000,-0.019067 RARM_JOINT2:0.822121,0.000000,-0.107319,0.559107 RARM_JOINT3:0.958827,0.000000,0.205860,0.195632 RLEG_JOINT2:0.999279,0.026248,0.000000,-0.027442 RLEG_JOINT4:0.994833,0.092962,0.000000,0.040816 WAIST:0.999504,-0.000000,0.030565,0.007615 WAIST_JOINT0:0.999977,0.000000,-0.000897,0.006757 WAIST_JOINT1:0.998502,0.053958,0.000000,-0.009063 END:
KINECT_DATA_Sensor  AnkleLeft:0.067465,0.770618,-0.087001,-0.627716 AnkleRight:0.096260,0.716807,0.072736,0.686755 ElbowLeft:-0.101017,0.717351,-0.189194,-0.662879 ElbowRight:0.030368,0.870293,0.228150,0.435448 FootLeft:0.000000,0.000000,0.000000,0.000000 FootRight:0.000000,0.000000,0.000000,0.000000 HandLeft:-0.065505,0.340259,-0.556988,0.754783 HandRight:0.085877,-0.459471,-0.057860,0.882136 HandTipLeft:0.000000,0.000000,0.000000,0.000000 HandTipRight:0.000000,0.000000,0.000000,0.000000 Head:0.000000,0.000000,0.000000,0.000000 HipLeft:0.104790,-0.679814,0.712667,-0.137761 HipRight:-0.147723,0.679088,0.695163,-0.183752 KneeLeft:0.024114,-0.684405,0.047544,0.727151 KneeRight:0.003402,0.728664,0.032537,0.684089 Neck:0.002085,-0.006331,0.997579,-0.069223 ShoulderLeft:0.008241,0.785030,-0.617151,0.052768 ShoulderRight:0.011226,0.784722,0.617795,-0.049142 SpineBase:-0.031024,-0.001708,0.999083,-0.029473 SpineMid:-0.014555,-0.002193,0.999458,-0.029441 SpineShoulder:0.002130,-0.004410,0.998813,-0.048464 ThumbLeft:0.000000,0.000000,0.000000,0.000000 ThumbRight:0.000000,0.000000,0.000000,0.000000 WristLeft:-0.016202,0.413087,-0.349216,0.840919 WristRight:0.022537,-0.462012,-0.089284,0.882080 END:
KINECT_DATA POSITION:4.126567,-0.917740,-2.574718 HEAD_JOINT1:0.981336,0.185221,-0.000000,0.051693 LARM_JOINT2:0.838787,0.000000,-0.019748,-0.544102 LARM_JOINT3:0.906114,0.000000,-0.423022,-0.003016 LLEG_JOINT2:0.998930,0.015284,0.000000,0.043656 LLEG_JOINT4:0.995512,0.091671,0.000000,-0.023502 RARM_JOINT2:0.822002,0.000000,-0.106684,0.559403 RARM_JOINT3:0.958331,0.000000,0.203126,0.200852 RLEG_JOINT2:0.999299,0.025245,0.000000,-0.027630 RLEG_JOINT4:0.994808,0.093165,0.000000,0.040968 WAIST:0.999543,-0.000000,0.029269,0.007492 WAIST_JOINT0:0.999981,-0.000000,0.000339,0.006074 WAIST_JOINT1:0.998492,0.054089,0.000000,-0.009380 END:
KINECT_DATA_Sensor  AnkleLeft:0.068698,0.754981,-0.085922,-0.646453 AnkleRight:0.096329,0.721903,0.071313,0.681536 ElbowLeft:-0.105172,0.717589,-0.180718,-0.664339 ElbowRight:0.030492,0.870281,0.228048,0.435518 FootLeft:0.000000,0.000000,0.000000,0.000000 FootRight:0.000000,0.000000,0.000000,0.000000 HandLeft:-0.115503,0.395178,-0.553544,0.723935 HandRight:0.096855,-0.386794,-0.047660,0.915827 HandTipLeft:0.000000,0.000000,0.000000,0.000000 HandTipRight:0.000000,0.000000,0.000000,0.000000 Head:0.000000,0.000000,0.000000,0.000000 HipLeft:0.105468,-0.679710,0.712506,-0.138585 HipRight:-0.146736,0.679120,0.695488,-0.183196 KneeLeft:0.024105,-0.685346,0.047548,0.726264 KneeRight:0.002539,0.727783,0.032026,0.685055 Neck:0.000569,-0.006523,0.997572,-0.069328 ShoulderLeft:0.011957,0.784864,-0.617555,0.049718 ShoulderRight:0.013003,0.784376,0.618252,-0.048474 SpineBase:-0.029734,-0.001977,0.999114,-0.029710 SpineMid:-0.014661,-0.002425,0.999449,-0.029677 SpineShoulder:0.000604,-0.004647,0.998807,-0.048613 ThumbLeft:0.000000,0.000000,0.000000,0.000000 ThumbRight:0.000000,0.000000,0.000000,0.000000 WristLeft:-0.044317,0.481267,-0.345518,0.804385 WristRight:0.015298,-0.389006,-0.090712,0.916631 END:
KINECT_DATA POSITION:4.163252,-0.946143,-2.446961 HEAD_JOINT1:0.981313,0.184946,-0.000000,0.053097 LARM_JOINT2:0.836803,0.000000,-0.029393,-0.546715 LARM_JOINT3:0.913045,0.000000,-0.407791,0.007454 LLEG_JOINT2:0.998894,0.017325,0.000000,0.043712 LLEG_JOINT4:0.995392,0.093248,0.000000,-0.022365 RARM_JOINT2:0.821302,0.000000,-0.106889,0.560391 RARM_JOINT3:0.958548,0.000000,0.203508,0.199423 RLEG_JOINT2:0.999288,0.025521,0.000000,-0.027774 RLEG_JOINT4:0.994583,0.094885,0.000000,0.042443 WAIST:0.999643,-0.000000,0.025718,0.007295 WAIST_JOINT0:0.999989,-0.000000,0.000961,0.004554 WAIST_JOINT1:0.998512,0.053656,0.000000,-0.009710 END:
KINECT_DATA_Sensor  AnkleLeft:0.069938,0.751427,-0.089739,-0.649933 AnkleRight:0.097810,0.709770,0.072990,0.693781 ElbowLeft:-0.110854,0.716238,-0.171028,-0.667431 ElbowRight:0.030987,0.868010,0.227244,0.440408 FootLeft:0.000000,0.000000,0.000000,0.000000 FootRight:0.000000,0.000000,0.000000,0.000000 HandLeft:-0.087968,0.381096,-0.543112,0.743005 HandRight:0.099812,-0.504476,-0.036938,0.856841 HandTipLeft:0.000000,0.000000,0.000000,0.000000 HandTipRight:0.000000,0.000000,0.000000,0.000000 Head:0.000000,0.000000,0.000000,0.000000 HipLeft:0.107955,-0.679472,0.712029,-0.140281 HipRight:-0.144812,0.679511,0.696087,-0.180991 KneeLeft:0.022668,-0.687986,0.048790,0.723727 KneeRight:0.002619,0.725334,0.032474,0.687625 Neck:-0.000226,-0.006544,0.997599,-0.068946 ShoulderLeft:0.015063,0.785505,-0.616914,0.046610 ShoulderRight:0.015056,0.783812,0.619054,-0.046733 SpineBase:-0.026182,-0.002340,0.999224,-0.029320 SpineMid:-0.013276,-0.002718,0.999479,-0.029287 SpineShoulder:-0.000201,-0.004745,0.998825,-0.048221 ThumbLeft:0.000000,0.000000,0.000000,0.000000 ThumbRight:0.000000,0.000000,0.000000,0.000000 WristLeft:-0.030674,0.455283,-0.346196,0.819711 WristRight:0.026588,-0.505961,-0.088824,0.857559 END:
KINECT_DATA POSITION:4.192694,-0.975329,-2.389240 HEAD_JOINT1:0.980928,0.186933,-0.000000,0.053264 LARM_JOINT2:0.835438,0.000000,-0.048648,-0.547428 LARM_JOINT3:0.928658,0.000000,-0.370409,0.019791 LLEG_JOINT2:0.998913,0.017033,0.000000,0.043383 LLEG_JOINT4:0.995336,0.094040,0.000000,-0.021499 RARM_JOINT2:0.821141,0.000000,-0.107221,0.560563 RARM_JOINT3:0.958361,0.000000,0.207413,0.196274 RLEG_JOINT2:0.999273,0.026018,0.000000,-0.027878 RLEG_JOINT4:0.994538,0.095423,0.000000,0.042302 WAIST:0.999638,-0.000000,0.025844,0.007433 WAIST_JOINT0:0.999992,0.000000,-0.000947,0.003978 WAIST_JOINT1:0.998512,0.053612,0.000000,-0.010017 END:
KINECT_DATA_Sensor  AnkleLeft:0.070752,0.757149,-0.089926,-0.643142 AnkleRight:0.099316,0.718197,0.072618,0.684877 ElbowLeft:-0.121294,0.718286,-0.158770,-0.666442 ElbowRight:0.030993,0.867651,0.227291,0.441089 FootLeft:0.000000,0.000000,0.000000,0.000000 FootRight:0.000000,0.000000,0.000000,0.000000 HandLeft:-0.013505,0.343372,-0.515332,0.785077 HandRight:0.089322,-0.391452,-0.069166,0.913238 HandTipLeft:0.000000,0.000000,0.000000,0.000000 HandTipRight:0.000000,0.000000,0.000000,0.000000 Head:0.000000,0.000000,0.000000,0.000000 HipLeft:0.107876,-0.679349,0.712214,-0.139997 HipRight:-0.144723,0.679514,0.696100,-0.180999 KneeLeft:0.022747,-0.687882,0.048449,0.723847 KneeRight:0.002978,0.725424,0.032808,0.687513 Neck:0.001858,-0.006830,0.997600,-0.068873 ShoulderLeft:0.013158,0.786182,-0.615946,0.048536 ShoulderRight:0.015798,0.783270,0.619813,-0.045500 SpineBase:-0.026322,-0.002574,0.999221,-0.029284 SpineMid:-0.012317,-0.002984,0.999492,-0.029245 SpineShoulder:0.001880,-0.005038,0.998825,-0.048153 ThumbLeft:0.000000,0.000000,0.000000,0.000000 ThumbRight:0.000000,0.000000,0.000000,0.000000 WristLeft:0.005691,0.389520,-0.337610,0.856891 WristRight:0.014862,-0.395123,-0.091510,0.913938 END:
KINECT_DATA POSITION:4.193117,-1.000465,-2.347469 HEAD_JOINT1:0.980688,0.187921,-0.000000,0.054195 LARM_JOINT2:0.833558,0.000000,-0.061366,-0.549013 LARM_JOINT3:0.935213,0.000000,-0.352729,0.030976 LLEG_JOINT2:0.998896,0.017262,0.000000,0.043698 LLEG_JOINT4:0.995190,0.095107,0.000000,-0.023482 RARM_JOINT2:0.820517,0.000000,-0.107731,0.561378 RARM_JOINT3:0.958222,0.000000,0.205475,0.198974 RLEG_JOINT2:0.999263,0.026527,0.000000,-0.027728 RLEG_JOINT4:0.994816,0.093709,0.000000,0.039484 WAIST:0.999632,-0.000000,0.026152,0.007226 WAIST_JOINT0:0.999995,-0.000000,0.000173,0.003020 WAIST_JOINT1:0.998512,0.053570,0.000000,-0.010160 END:
KINECT_DATA_Sensor  AnkleLeft:0.073171,0.758449,-0.088999,-0.641467 AnkleRight:0.095514,0.710566,0.074883,0.693084 ElbowLeft:-0.127369,0.717320,-0.148886,-0.668627 ElbowRight:0.031246,0.867192,0.226875,0.442187 FootLeft:0.000000,0.000000,0.000000,0.000000 FootRight:0.000000,0.000000,0.000000,0.000000 HandLeft:-0.050253,0.419283,-0.516483,0.744930 HandRight:0.104085,-0.467550,-0.046875,0.876565 HandTipLeft:0.000000,0.000000,0.000000,0.000000 HandTipRight:0.000000,0.000000,0.000000,0.000000 Head:0.000000,0.000000,0.000000,0.000000 HipLeft:0.107735,-0.679514,0.712138,-0.139687 HipRight:-0.144855,0.679300,0.696243,-0.181147 KneeLeft:0.022637,-0.687668,0.048694,0.724037 KneeRight:0.003280,0.725624,0.033219,0.687281 Neck:0.000666,-0.007149,0.997604,-0.068805 ShoulderLeft:0.015819,0.786489,-0.615679,0.046096 ShoulderRight:0.016914,0.782565,0.620710,-0.045000 SpineBase:-0.026625,-0.002862,0.999214,-0.029228 SpineMid:-0.013065,-0.003259,0.999483,-0.029186 SpineShoulder:0.000680,-0.005352,0.998828,-0.048104 ThumbLeft:0.000000,0.000000,0.000000,0.000000 ThumbRight:0.000000,0.000000,0.000000,0.000000 WristLeft:-0.021917,0.474244,-0.331210,0.815422 WristRight:0.022308,-0.469675,-0.089919,0.877965 END:
KINECT_DATA POSITION:4.182776,-1.015598,-2.286541 HEAD_JOINT1:0.980605,0.188595,-0.000000,0.053345 LARM_JOINT2:0.834066,0.000000,-0.054977,-0.548918 LARM_JOINT3:0.935896,0.000000,-0.350023,0.039789 LLEG_JOINT2:0.998917,0.017300,0.000000,0.043181 LLEG_JOINT4:0.995535,0.091945,0.000000,-0.021356 RARM_JOINT2:0.820604,0.000000,-0.108809,0.561044 RARM_JOINT3:0.957905,0.000000,0.212446,0.193095 RLEG_JOINT2:0.999236,0.026849,0.000000,-0.028387 RLEG_JOINT4:0.994747,0.093995,0.000000,0.040529 WAIST:0.999569,-0.000000,0.028382,0.007535 WAIST_JOINT0:0.999993,-0.000000,0.001222,0.003666 WAIST_JOINT1:0.998518,0.053465,0.000000,-0.010188 END:
KINECT_DATA_Sensor  AnkleLeft:0.068771,0.750624,-0.089227,-0.651056 AnkleRight:0.096146,0.711057,0.075181,0.692461 ElbowLeft:-0.124617,0.711805,-0.152738,-0.674148 ElbowRight:0.031173,0.867529,0.227295,0.441314 FootLeft:0.000000,0.000000,0.000000,0.000000 FootRight:0.000000,0.000000,0.000000,0.000000 HandLeft:0.000441,0.409900,-0.527519,0.744114 HandRight:0.100049,-0.533458,-0.075760,0.836465 HandTipLeft:0.000000,0.000000,0.000000,0.000000 HandTipRight:0.000000,0.000000,0.000000,0.000000 Head:0.000000,0.000000,0.000000,0.000000 HipLeft:0.106687,-0.679533,0.712525,-0.138422 HipRight:-0.146375,0.679151,0.695725,-0.182469 KneeLeft:0.022376,-0.686046,0.048602,0.725588 KneeRight:0.003155,0.727164,0.033684,0.685629 Neck:-0.000286,-0.006995,0.997612,-0.068714 ShoulderLeft:0.015922,0.786141,-0.616158,0.045588 ShoulderRight:0.015796,0.782399,0.620877,-0.045982 SpineBase:-0.028867,-0.002842,0.999157,-0.029056 SpineMid:-0.014672,-0.003255,0.999466,-0.029013 SpineShoulder:-0.000278,-0.005271,0.998836,-0.047955 ThumbLeft:0.000000,0.000000,0.000000,0.000000 ThumbRight:0.000000,0.000000,0.000000,0.000000 WristLeft:-0.007083,0.449005,-0.332995,0.829131 WristRight:0.029372,-0.537518,-0.087813,0.838153 END:
KINECT_DATA POSITION:4.079048,-1.001013,-2.172756 HEAD_JOINT1:0.980457,0.190777,-0.000000,0.048044 LARM_JOINT2:0.836584,0.000000,0.019994,-0.547474 LARM_JOINT3:0.896510,0.000000,-0.442918,0.009643 LLEG_JOINT2:0.998873,0.016965,0.000000,0.044337 LLEG_JOINT4:0.995591,0.091049,0.000000,-0.022546 RARM_JOINT2:0.823424,0.000000,-0.106594,0.557325 RARM_JOINT3:0.957582,0.000000,0.212950,0.194136 RLEG_JOINT2:0.999232,0.027674,0.000000,-0.027725 RLEG_JOINT4:0.994472,0.096284,0.000000,0.041879 WAIST:0.999476,-0.000000,0.031614,0.007006 WAIST_JOINT0:0.999883,-0.000000,0.014297,0.005397 WAIST_JOINT1:0.998519,0.053658,0.000000,-0.009022 END:
KINECT_DATA_Sensor  AnkleLeft:0.070633,0.765075,-0.086033,-0.634247 AnkleRight:0.101996,0.739194,0.072858,0.661726 ElbowLeft:-0.082552,0.694106,-0.196926,-0.687476 ElbowRight:0.028177,0.870576,0.230212,0.433943 FootLeft:0.000000,0.000000,0.000000,0.000000 FootRight:0.000000,0.000000,0.000000,0.000000 HandLeft:0.073467,-0.389522,0.607574,-0.688280 HandRight:0.092696,-0.520071,-0.081215,0.845185 HandTipLeft:0.000000,0.000000,0.000000,0.000000 HandTipRight:0.000000,0.000000,0.000000,0.000000 Head:0.000000,0.000000,0.000000,0.000000 HipLeft:0.104406,-0.680172,0.712568,-0.136793 HipRight:-0.148338,0.678287,0.695669,-0.184303 KneeLeft:0.022897,-0.683699,0.048897,0.727764 KneeRight:0.003703,0.729351,0.034197,0.683275 Neck:-0.013749,-0.005727,0.997506,-0.068992 ShoulderLeft:0.029504,0.783089,-0.620392,0.031867 ShoulderRight:0.012131,0.781763,0.621186,-0.053168 SpineBase:-0.032059,-0.002558,0.999054,-0.029274 SpineMid:-0.022979,-0.002824,0.999304,-0.029250 SpineShoulder:-0.013768,-0.004354,0.998733,-0.048206 ThumbLeft:0.000000,0.000000,0.000000,0.000000 ThumbRight:0.000000,0.000000,0.000000,0.000000 WristLeft:-0.024995,0.486712,-0.342844,0.803084 WristRight:0.029232,-0.524212,-0.089878,0.846327 END:
KINECT_DATA POSITION:4.029030,-0.993683,-2.117002 HEAD_JOINT1:0.980723,0.190512,-0.000000,0.043437 LARM_JOINT2:0.836242,0.000000,0.021991,-0.547920 LARM_JOINT3:0.891076,0.000000,-0.453851,0.001510 LLEG_JOINT2:0.998899,0.016443,0.000000,0.043931 LLEG_JOINT4:0.995702,0.091022,0.000000,-0.017118 RARM_JOINT2:0.824712,0.000000,-0.104592,0.555797 RARM_JOINT3:0.956540,0.000000,0.213226,0.198911 RLEG_JOINT2:0.999233,0.027872,0.000000,-0.027491 RLEG_JOINT4:0.994372,0.097667,0.000000,0.041056 WAIST:0.999410,-0.000000,0.033623,0.007079 WAIST_JOINT0:0.999773,-0.000000,0.020328,0.006350 WAIST_JOINT1:0.998516,0.053871,0.000000,-0.007928 END:
KINECT_DATA_Sensor  AnkleLeft:-0.057943,-0.695419,0.096077,0.709792 AnkleRight:0.102577,0.740403,0.074535,0.660096 ElbowLeft:-0.081171,0.692276,-0.198717,-0.688968 ElbowRight:0.026981,0.873368,0.230391,0.428275 FootLeft:0.000000,0.000000,0.000000,0.000000 FootRight:0.000000,0.000000,0.000000,0.000000 HandLeft:-0.085524,0.362814,-0.604388,0.704108 HandRight:0.120816,-0.622944,-0.063329,0.770282 HandTipLeft:0.000000,0.000000,0.000000,0.000000 HandTipRight:0.000000,0.000000,0.000000,0.000000 Head:0.000000,0.000000,0.000000,0.000000 HipLeft:0.102826,-0.680306,0.712841,-0.135898 HipRight:-0.149528,0.678072,0.695338,-0.185375 KneeLeft:0.022965,-0.682235,0.048332,0.729172 KneeRight:0.003982,0.730724,0.034130,0.681808 Neck:-0.019945,-0.004231,0.997391,-0.069256 ShoulderLeft:0.035972,0.781943,-0.621789,0.025491 ShoulderRight:0.010643,0.782116,0.620480,-0.056444 SpineBase:-0.034053,-0.001898,0.998983,-0.029496 SpineMid:-0.027067,-0.002104,0.999197,-0.029482 SpineShoulder:-0.019970,-0.003155,0.998620,-0.048467 ThumbLeft:0.000000,0.000000,0.000000,0.000000 ThumbRight:0.000000,0.000000,0.000000,0.000000 WristLeft:-0.018815,0.471663,-0.345370,0.811110 WristRight:0.040456,-0.626601,-0.084513,0.773687 END:
KINECT_DATA POSITION:3.940637,-1.011264,-2.077246 HEAD_JOINT1:0.980878,0.190136,-0.000000,0.041553 LARM_JOINT2:0.835319,0.000000,0.006025,-0.549732 LARM_JOINT3:0.887530,0.000000,-0.460747,0.001618 LLEG_JOINT2:0.998839,0.016655,0.000000,0.045196 LLEG_JOINT4:0.995987,0.087538,0.000000,-0.018624 RARM_JOINT2:0.826126,0.000000,-0.101797,0.554214 RARM_JOINT3:0.958207,0.000000,0.205155,0.199377 RLEG_JOINT2:0.999243,0.027906,0.000000,-0.027092 RLEG_JOINT4:0.994265,0.097970,0.000000,0.042876 WAIST:0.999411,-0.000000,0.033661,0.006731 WAIST_JOINT0:0.999746,-0.000000,0.021587,0.006406 WAIST_JOINT1:0.998567,0.052995,0.000000,-0.007394 END:
KINECT_DATA_Sensor  AnkleLeft:-0.055788,-0.694965,0.093547,0.710746 AnkleRight:0.102784,0.728077,0.075370,0.673542 ElbowLeft:-0.090449,0.694907,-0.188270,-0.688097 ElbowRight:0.024369,0.875505,0.230669,0.423898 FootLeft:0.000000,0.000000,0.000000,0.000000 FootRight:0.000000,0.000000,0.000000,0.000000 HandLeft:-0.076890,0.314217,-0.601626,0.730344 HandRight:0.078631,-0.359982,-0.068533,0.927110 HandTipLeft:0.000000,0.000000,0.000000,0.000000 HandTipRight:0.000000,0.000000,0.000000,0.000000 Head:0.000000,0.000000,0.000000,0.000000 HipLeft:0.103316,-0.680604,0.712569,-0.135459 HipRight:-0.150186,0.677919,0.695454,-0.184969 KneeLeft:0.023423,-0.682215,0.049156,0.729121 KneeRight:0.004049,0.730727,0.034127,0.681804 Neck:-0.021178,-0.003841,0.997433,-0.068301 ShoulderLeft:0.035464,0.781845,-0.621979,0.024542 ShoulderRight:0.008545,0.782391,0.620076,-0.057422 SpineBase:-0.034062,-0.001905,0.999005,-0.028739 SpineMid:-0.027692,-0.002088,0.999201,-0.028726 SpineShoulder:-0.021208,-0.002896,0.998635,-0.047649 ThumbLeft:0.000000,0.000000,0.000000,0.000000 ThumbRight:0.000000,0.000000,0.000000,0.000000 WristLeft:-0.009833,0.414682,-0.361750,0.834913 WristRight:0.014974,-0.363251,-0.094677,0.926748 END:
KINECT_DATA POSITION:3.885289,-1.027963,-2.069187 HEAD_JOINT1:0.981181,0.188370,-0.000000,0.042423 LARM_JOINT2:0.838130,0.000000,-0.017471,-0.545191 LARM_JOINT3:0.900678,0.000000,-0.434423,0.007480 LLEG_JOINT2:0.998833,0.016353,0.000000,0.045436 LLEG_JOINT4:0.995863,0.089024,0.000000,-0.018206 RARM_JOINT2:0.825785,0.000000,-0.104816,0.554159 RARM_JOINT3:0.958882,0.000000,0.200178,0.201183 RLEG_JOINT2:0.999263,0.027736,0.000000,-0.026556 RLEG_JOINT4:0.993994,0.100235,0.000000,0.043925 WAIST:0.999436,-0.000000,0.032924,0.006572 WAIST_JOINT0:0.999878,-0.000000,0.014623,0.005543 WAIST_JOINT1:0.998581,0.052716,0.000000,-0.007597 END:
KINECT_DATA_Sensor  AnkleLeft:-0.056733,-0.698699,0.094480,0.706876 AnkleRight:0.104179,0.717198,0.077390,0.684678 ElbowLeft:-0.106983,0.703189,-0.179405,-0.679628 ElbowRight:0.025713,0.873284,0.231715,0.427811 FootLeft:0.000000,0.000000,0.000000,0.000000 FootRight:0.000000,0.000000,0.000000,0.000000 HandLeft:-0.115566,0.390852,-0.566651,0.716090 HandRight:0.077457,-0.536345,-0.023920,0.840097 HandTipLeft:0.000000,0.000000,0.000000,0.000000 HandTipRight:0.000000,0.000000,0.000000,0.000000 Head:0.000000,0.000000,0.000000,0.000000 HipLeft:0.104025,-0.680683,0.712359,-0.135628 HipRight:-0.149857,0.677951,0.695633,-0.184446 KneeLeft:0.023729,-0.682746,0.048999,0.728625 KneeRight:0.004239,0.730215,0.033749,0.682370 Neck:-0.013879,-0.004600,0.997581,-0.067956 ShoulderLeft:0.026617,0.783328,-0.620162,0.032976 ShoulderRight:0.009024,0.782057,0.620750,-0.054545 SpineBase:-0.033322,-0.002246,0.999037,-0.028449 SpineMid:-0.023692,-0.002520,0.999312,-0.028426 SpineShoulder:-0.013900,-0.003515,0.998775,-0.047356 ThumbLeft:0.000000,0.000000,0.000000,0.000000 ThumbRight:0.000000,0.000000,0.000000,0.000000 WristLeft:-0.040228,0.483564,-0.358435,0.797541 WristRight:0.033277,-0.537302,-0.090729,0.837835 END:
KINECT_DATA POSITION:3.858478,-1.046351,-2.072597 HEAD_JOINT1:0.981372,0.187080,-0.000000,0.043712 LARM_JOINT2:0.838035,0.000000,-0.054918,-0.542846 LARM_JOINT3:0.926934,0.000000,-0.374192,0.027814 LLEG_JOINT2:0.998812,0.016707,0.000000,0.045780 LLEG_JOINT4:0.995518,0.093004,0.000000,-0.017137 RARM_JOINT2:0.824906,0.000000,-0.107811,0.554894 RARM_JOINT3:0.958932,0.000000,0.201174,0.199946 RLEG_JOINT2:0.999273,0.027683,0.000000,-0.026224 RLEG_JOINT4:0.994350,0.096916,0.000000,0.043306 WAIST:0.999476,-0.000000,0.031755,0.006268 WAIST_JOINT0:0.999923,-0.000000,0.011646,0.004288 WAIST_JOINT1:0.998609,0.052143,0.000000,-0.007808 END:
KINECT_DATA_Sensor  AnkleLeft:0.071091,0.782574,-0.089971,-0.611906 AnkleRight:0.101475,0.715985,0.075337,0.686581 ElbowLeft:-0.129561,0.713128,-0.159224,-0.670306 ElbowRight:0.027084,0.870689,0.231912,0.432879 FootLeft:0.000000,0.000000,0.000000,0.000000 FootRight:0.000000,0.000000,0.000000,0.000000 HandLeft:-0.033858,0.387225,-0.535534,0.749743 HandRight:0.077388,-0.514597,-0.028586,0.853454 HandTipLeft:0.000000,0.000000,0.000000,0.000000 HandTipRight:0.000000,0.000000,0.000000,0.000000 Head:0.000000,0.000000,0.000000,0.000000 HipLeft:0.104755,-0.680859,0.712025,-0.135937 HipRight:-0.149033,0.678052,0.695986,-0.183407 KneeLeft:0.023541,-0.683618,0.049255,0.727795 KneeRight:0.004275,0.729402,0.033698,0.683241 Neck:-0.010969,-0.005318,0.997664,-0.067211 ShoulderLeft:0.025507,0.783904,-0.619426,0.033983 ShoulderRight:0.011649,0.781562,0.621626,-0.051049 SpineBase:-0.032141,-0.002500,0.999083,-0.028186 SpineMid:-0.021643,-0.002796,0.999365,-0.028159 SpineShoulder:-0.010976,-0.003963,0.998835,-0.046823 ThumbLeft:0.000000,0.000000,0.000000,0.000000 ThumbRight:0.000000,0.000000,0.000000,0.000000 WristLeft:-0.012758,0.440421,-0.348513,0.827288 WristRight:0.028816,-0.515486,-0.091696,0.851490 END:
KINECT_DATA POSITION:3.848662,-1.062973,-2.075672 HEAD_JOINT1:0.981545,0.186159,-0.000000,0.043760 LARM_JOINT2:0.838097,0.000000,-0.060226,-0.542187 LARM_JOINT3:0.939058,0.000000,-0.342217,0.032534 LLEG_JOINT2:0.998796,0.017278,0.000000,0.045913 LLEG_JOINT4:0.995630,0.091588,0.000000,-0.018259 RARM_JOINT2:0.824298,0.000000,-0.108939,0.555576 RARM_JOINT3:0.957209,0.000000,0.205960,0.203301 RLEG_JOINT2:0.999274,0.027434,0.000000,-0.026430 RLEG_JOINT4:0.994327,0.096877,0.000000,0.043927 WAIST:0.999504,-0.000000,0.030856,0.006274 WAIST_JOINT0:0.999965,-0.000000,0.007391,0.003825 WAIST_JOINT1:0.998621,0.051855,0.000000,-0.008236 END:
KINECT_DATA_Sensor  AnkleLeft:0.070426,0.780231,-0.089102,-0.615094 AnkleRight:0.105430,0.750328,0.069334,0.648910 ElbowLeft:-0.133465,0.712802,-0.155600,-0.670738 ElbowRight:0.027575,0.869219,0.231721,0.435894 FootLeft:0.000000,0.000000,0.000000,0.000000 FootRight:0.000000,0.000000,0.000000,0.000000 HandLeft:0.011174,0.397571,-0.500398,0.769035 HandRight:0.093883,-0.360780,-0.053607,0.926364 HandTipLeft:0.000000,0.000000,0.000000,0.000000 HandTipRight:0.000000,0.000000,0.000000,0.000000 Head:0.000000,0.000000,0.000000,0.000000 HipLeft:0.105337,-0.680828,0.711929,-0.136140 HipRight:-0.148441,0.678251,0.696105,-0.182697 KneeLeft:0.023260,-0.684284,0.049731,0.727146 KneeRight:0.003992,0.728789,0.033654,0.683899 Neck:-0.006588,-0.005995,0.997721,-0.066885 ShoulderLeft:0.020848,0.784675,-0.618366,0.038383 ShoulderRight:0.012616,0.781566,0.621797,-0.048631 SpineBase:-0.031246,-0.002685,0.999116,-0.027980 SpineMid:-0.019010,-0.003028,0.999424,-0.027945 SpineShoulder:-0.006587,-0.004460,0.998886,-0.046509 ThumbLeft:0.000000,0.000000,0.000000,0.000000 ThumbRight:0.000000,0.000000,0.000000,0.000000 WristLeft:0.004236,0.429015,-0.337801,0.837746 WristRight:0.012513,-0.363357,-0.095796,0.926627 END:
KINECT_DATA POSITION:3.852240,-1.078564,-2.076304 HEAD_JOINT1:0.981560,0.186843,-0.000000,0.040380 LARM_JOINT2:0.834098,0.000000,-0.067389,-0.547484 LARM_JOINT3:0.940733,0.000000,-0.336463,0.042585 LLEG_JOINT2:0.998800,0.016615,0.000000,0.046082 LLEG_JOINT4:0.996015,0.087754,0.000000,-0.015946 RARM_JOINT2:0.825885,0.000000,-0.106488,0.553691 RARM_JOINT3:0.956361,0.000000,0.213457,0.199522 RLEG_JOINT2:0.999306,0.026391,0.000000,-0.026271 RLEG_JOINT4:0.994447,0.096331,0.000000,0.042364 WAIST:0.999479,-0.000000,0.031739,0.005895 WAIST_JOINT0:0.999925,-0.000000,0.011899,0.002775 WAIST_JOINT1:0.998658,0.051183,0.000000,-0.007848 END:
KINECT_DATA_Sensor  AnkleLeft:-0.054530,-0.700507,0.095513,0.705120 AnkleRight:0.099255,0.716493,0.074851,0.686428 ElbowLeft:-0.135375,0.704846,-0.144601,-0.681143 ElbowRight:0.025637,0.872854,0.232607,0.428208 FootLeft:0.000000,0.000000,0.000000,0.000000 FootRight:0.000000,0.000000,0.000000,0.000000 HandLeft:0.036997,0.342893,-0.514410,0.785136 HandRight:0.102378,-0.529382,-0.083748,0.838009 HandTipLeft:0.000000,0.000000,0.000000,0.000000 HandTipRight:0.000000,0.000000,0.000000,0.000000 Head:0.000000,0.000000,0.000000,0.000000 HipLeft:0.104990,-0.681273,0.711685,-0.135456 HipRight:-0.149253,0.678005,0.696117,-0.182904 KneeLeft:0.023552,-0.683648,0.049149,0.727774 KneeRight:0.003092,0.729383,0.033053,0.683299 Neck:-0.011063,-0.005753,0.997730,-0.066183 ShoulderLeft:0.024333,0.785572,-0.617380,0.033559 ShoulderRight:0.010337,0.781343,0.621934,-0.050930 SpineBase:-0.032101,-0.002632,0.999100,-0.027602 SpineMid:-0.021667,-0.002920,0.999381,-0.027573 SpineShoulder:-0.011070,-0.004292,0.998877,-0.045875 ThumbLeft:0.000000,0.000000,0.000000,0.000000 ThumbRight:0.000000,0.000000,0.000000,0.000000 WristLeft:0.030175,0.378532,-0.334102,0.862658 WristRight:0.031370,-0.534110,-0.091003,0.839917 END:
KINECT_DATA POSITION:3.814464,-1.111408,-2.045059 HEAD_JOINT1:0.981580,0.187904,-0.000000,0.034536 LARM_JOINT2:0.833602,0.000000,-0.050517,-0.550051 LARM_JOINT3:0.935634,0.000000,-0.350308,0.043292 LLEG_JOINT2:0.998855,0.016886,0.000000,0.044753 LLEG_JOINT4:0.995729,0.091146,0.000000,-0.014677 RARM_JOINT2:0.829477,0.000000,-0.104377,0.548702 RARM_JOINT3:0.955424,0.000000,0.210386,0.207130 RLEG_JOINT2:0.999278,0.026136,0.000000,-0.027592 RLEG_JOINT4:0.994135,0.097889,0.000000,0.045967 WAIST:0.999342,-0.000000,0.035690,0.006511 WAIST_JOINT0:0.999932,-0.000000,0.010691,0.004634 WAIST_JOINT1:0.998710,0.050258,0.000000,-0.007219 END:
KINECT_DATA_Sensor  AnkleLeft:0.057742,0.700707,-0.097801,-0.704351 AnkleRight:0.102132,0.720668,0.073942,0.681718 ElbowLeft:-0.126056,0.695755,-0.152969,-0.690388 ElbowRight:0.022829,0.878824,0.235664,0.414258 FootLeft:0.000000,0.000000,0.000000,0.000000 FootRight:0.000000,0.000000,0.000000,0.000000 HandLeft:-0.026192,0.450618,-0.527389,0.719804 HandRight:0.103134,-0.526032,-0.073572,0.840976 HandTipLeft:0.000000,0.000000,0.000000,0.000000 HandTipRight:0.000000,0.000000,0.000000,0.000000 Head:0.000000,0.000000,0.000000,0.000000 HipLeft:0.103432,-0.681444,0.712172,-0.133219 HipRight:-0.152450,0.678072,0.694824,-0.184926 KneeLeft:0.022705,-0.680784,0.048872,0.730499 KneeRight:0.002240,0.732096,0.033328,0.680382 Neck:-0.009373,-0.004835,0.997819,-0.065158 ShoulderLeft:0.015478,0.784890,-0.618164,0.039760 ShoulderRight:0.003644,0.782014,0.620870,-0.054422 SpineBase:-0.036054,-0.002000,0.998988,-0.026825 SpineMid:-0.022818,-0.002356,0.999378,-0.026796 SpineShoulder:-0.009373,-0.003515,0.998938,-0.044965 ThumbLeft:0.000000,0.000000,0.000000,0.000000 ThumbRight:0.000000,0.000000,0.000000,0.000000 WristLeft:-0.015141,0.503053,-0.336969,0.795714 WristRight:0.034585,-0.530079,-0.090681,0.842376 END:
KINECT_DATA POSITION:3.627301,-1.152127,-2.033317 HEAD_JOINT1:0.981827,0.188470,-0.000000,0.022258 LARM_JOINT2:0.830319,0.000000,-0.023011,-0.556813 LARM_JOINT3:0.918632,0.000000,-0.389252,0.067816 LLEG_JOINT2:0.998942,0.015424,0.000000,0.043317 LLEG_JOINT4:0.995627,0.092110,0.000000,-0.015574 RARM_JOINT2:0.834947,0.000000,-0.100576,0.541061 RARM_JOINT3:0.954660,0.000000,0.205401,0.215485 RLEG_JOINT2:0.999246,0.026525,0.000000,-0.028366 RLEG_JOINT4:0.993749,0.100308,0.000000,0.049004 WAIST:0.998958,-0.000000,0.044921,0.008095 WAIST_JOINT0:0.999247,-0.000000,0.037931,0.008188 WAIST_JOINT1:0.998711,0.050571,0.000000,-0.004349 END:
KINECT_DATA_Sensor  AnkleLeft:0.067797,0.760411,-0.090077,-0.639582 AnkleRight:0.106864,0.733727,0.073152,0.666988 ElbowLeft:0.111520,-0.663707,0.164550,0.721096 ElbowRight:0.021259,0.891300,0.238800,0.384846 FootLeft:0.000000,0.000000,0.000000,0.000000 FootRight:0.000000,0.000000,0.000000,0.000000 HandLeft:0.009036,-0.441923,0.600283,-0.666545 HandRight:0.098832,-0.524742,-0.070883,0.842528 HandTipLeft:0.000000,0.000000,0.000000,0.000000 HandTipRight:0.000000,0.000000,0.000000,0.000000 Head:0.000000,0.000000,0.000000,0.000000 HipLeft:0.097175,-0.681009,0.714337,-0.128476 HipRight:-0.158342,0.677910,0.692592,-0.188896 KneeLeft:0.023528,-0.673959,0.048110,0.736825 KneeRight:0.002701,0.738401,0.032994,0.673548 Neck:-0.036906,0.000573,0.997144,-0.065883 ShoulderLeft:0.039756,0.782885,-0.620746,0.013574 ShoulderRight:-0.007416,0.783472,0.617277,-0.071317 SpineBase:-0.045267,0.001480,0.998616,-0.026730 SpineMid:-0.041112,0.001369,0.998796,-0.026736 SpineShoulder:-0.036899,0.001199,0.998290,-0.045327 ThumbLeft:0.000000,0.000000,0.000000,0.000000 ThumbRight:0.000000,0.000000,0.000000,0.000000 WristLeft:-0.005104,0.513313,-0.352432,0.782480 WristRight:0.040718,-0.528515,-0.083744,0.843802 END:
KINECT_DATA POSITION:3.383823,-1.157303,-2.074444 HEAD_JOINT1:0.982779,0.184680,-0.000000,0.006200 LARM_JOINT2:0.826897,0.000000,0.010887,-0.562248 LARM_JOINT3:0.895677,0.000000,-0.438508,0.073977 LLEG_JOINT2:0.999097,0.012385,0.000000,0.040652 LLEG_JOINT4:0.995706,0.092188,0.000000,-0.008479 RARM_JOINT2:0.841711,0.000000,-0.094357,0.531620 RARM_JOINT3:0.952089,0.000000,0.210879,0.221486 RLEG_JOINT2:0.999144,0.027489,0.000000,-0.030917 RLEG_JOINT4:0.993656,0.100719,0.000000,0.050031 WAIST:0.998343,-0.000000,0.056410,0.011324 WAIST_JOINT0:0.997830,-0.000000,0.064226,0.014473 WAIST_JOINT1:0.998612,0.052656,-0.000000,0.001299 END:
KINECT_DATA_Sensor  AnkleLeft:-0.050422,-0.671548,0.100458,0.732386 AnkleRight:0.107681,0.738455,0.074522,0.661465 ElbowLeft:0.094646,-0.630665,0.185339,0.747632 ElbowRight:0.017303,0.900706,0.240392,0.361442 FootLeft:0.000000,0.000000,0.000000,0.000000 FootRight:0.000000,0.000000,0.000000,0.000000 HandLeft:-0.001392,-0.395167,0.651926,-0.647173 HandRight:0.123751,-0.650299,-0.066077,0.746612 HandTipLeft:0.000000,0.000000,0.000000,0.000000 HandTipRight:0.000000,0.000000,0.000000,0.000000 Head:0.000000,0.000000,0.000000,0.000000 HipLeft:0.087692,-0.679264,0.718078,-0.123592 HipRight:-0.165368,0.678322,0.689098,-0.194103 KneeLeft:0.025818,-0.665363,0.046581,0.744618 KneeRight:0.003279,0.746220,0.033090,0.664868 Neck:-0.063760,0.010140,0.995560,-0.068497 ShoulderLeft:0.065449,0.775768,-0.627515,-0.011248 ShoulderRight:-0.016196,0.785347,0.612516,-0.088270 SpineBase:-0.056747,0.008273,0.997962,-0.027987 SpineMid:-0.060164,0.008369,0.997762,-0.027958 SpineShoulder:-0.063673,0.009943,0.996793,-0.047449 ThumbLeft:0.000000,0.000000,0.000000,0.000000 ThumbRight:0.000000,0.000000,0.000000,0.000000 WristLeft:0.020016,0.498613,-0.370149,0.783565 WristRight:0.061849,-0.654612,-0.071785,0.750004 END:
KINECT_DATA POSITION:2.698964,-1.091725,-2.327287 HEAD_JOINT1:0.982676,0.185323,0.000000,-0.001817 LARM_JOINT2:0.826630,0.000000,0.076419,-0.557533 LARM_JOINT3:0.818019,0.000000,-0.572829,0.052081 LLEG_JOINT2:0.999405,0.002846,0.000000,0.034377 LLEG_JOINT4:0.995536,0.094314,0.000000,-0.003466 RARM_JOINT2:0.849251,0.000000,-0.078818,0.522074 RARM_JOINT3:0.953646,0.000000,0.201833,0.223209 RLEG_JOINT2:0.998959,0.028308,0.000000,-0.035766 RLEG_JOINT4:0.993254,0.100624,0.000000,0.057624 WAIST:0.996728,-0.000000,0.078526,0.019143 WAIST_JOINT0:0.995218,-0.000000,0.093850,0.027082 WAIST_JOINT1:0.998521,0.054233,-0.000000,0.003910 END:
KINECT_DATA_Sensor  AnkleLeft:0.058993,0.777152,-0.090092,-0.620031 AnkleRight:0.114295,0.756718,0.069283,0.639933 ElbowLeft:0.064001,-0.582317,0.230546,0.776955 ElbowRight:0.004043,0.916047,0.237528,0.323143 FootLeft:0.000000,0.000000,0.000000,0.000000 FootRight:0.000000,0.000000,0.000000,0.000000 HandLeft:-0.121393,-0.253423,0.716313,-0.638698 HandRight:0.109228,-0.573736,-0.056038,0.809787 HandTipLeft:0.000000,0.000000,0.000000,0.000000 HandTipRight:0.000000,0.000000,0.000000,0.000000 Head:0.000000,0.000000,0.000000,0.000000 HipLeft:0.071140,-0.675034,0.725639,-0.112761 HipRight:-0.180183,0.679262,0.680743,-0.206700 KneeLeft:0.033678,-0.648490,0.041519,0.759344 KneeRight:0.004740,0.761052,0.031218,0.647922 Neck:-0.094288,0.019875,0.992877,-0.070065 ShoulderLeft:0.095057,0.761278,-0.640166,-0.040098 ShoulderRight:-0.025608,0.788423,0.605358,-0.106187 SpineBase:-0.079030,0.017772,0.996276,-0.029536 SpineMid:-0.086395,0.017990,0.995664,-0.029404 SpineShoulder:-0.094075,0.019448,0.994172,-0.048932 ThumbLeft:0.000000,0.000000,0.000000,0.000000 ThumbRight:0.000000,0.000000,0.000000,0.000000 WristLeft:0.090328,0.306629,-0.476647,0.818918 WristRight:0.063965,-0.577146,-0.074417,0.810723 END:
KINECT_DATA POSITION:2.098715,-1.063275,-2.482295 HEAD_JOINT1:0.982601,0.184542,0.000000,-0.020979 LARM_JOINT2:0.779070,0.000000,0.283298,-0.559277 LARM_JOINT3:0.641496,0.000000,-0.765521,-0.049601 LLEG_JOINT2:0.999558,-0.001417,0.000000,0.029707 LLEG_JOINT4:0.995574,0.093734,0.000000,0.006829 RARM_JOINT2:0.847741,0.000000,-0.076213,0.524906 RARM_JOINT3:0.953907,0.000000,0.203744,0.220339 RLEG_JOINT2:0.998905,0.025933,0.000000,-0.038949 RLEG_JOINT4:0.992945,0.103258,0.000000,0.058294 WAIST:0.995740,-0.000000,0.089046,0.023929 WAIST_JOINT0:0.991736,-0.000000,0.122993,0.036493 WAIST_JOINT1:0.998458,0.054961,-0.000000,0.007777 END:
KINECT_DATA_Sensor  AnkleLeft:-0.031392,-0.639735,0.103629,0.760930 AnkleRight:0.112102,0.736955,0.073459,0.662521 ElbowLeft:-0.070809,-0.467309,0.304263,0.827063 ElbowRight:0.004425,0.921180,0.226628,0.316303 FootLeft:0.000000,0.000000,0.000000,0.000000 FootRight:0.000000,0.000000,0.000000,0.000000 HandLeft:0.047715,-0.446030,0.607939,-0.655127 HandRight:0.124020,-0.599096,-0.047417,0.789592 HandTipLeft:0.000000,0.000000,0.000000,0.000000 HandTipRight:0.000000,0.000000,0.000000,0.000000 Head:0.000000,0.000000,0.000000,0.000000 HipLeft:0.063630,-0.672117,0.729490,-0.109793 HipRight:-0.189637,0.680442,0.675068,-0.212883 KneeLeft:0.037037,-0.640558,0.038801,0.766034 KneeRight:0.003679,0.767940,0.027958,0.639901 Neck:-0.123714,0.029245,0.989378,-0.070507 ShoulderLeft:0.113460,0.749908,-0.648864,-0.061157 ShoulderRight:-0.045900,0.786107,0.602562,-0.129800 SpineBase:-0.089589,0.025777,0.995176,-0.030547 SpineMid:-0.106219,0.026284,0.993539,-0.030111 SpineShoulder:-0.123401,0.028370,0.990724,-0.049334 ThumbLeft:0.000000,0.000000,0.000000,0.000000 ThumbRight:0.000000,0.000000,0.000000,0.000000 WristLeft:0.031197,-0.456068,0.609539,-0.647681 WristRight:0.075051,-0.602894,-0.065748,0.791558 END:
KINECT_DATA POSITION:1.148669,-1.038426,-2.732241 HEAD_JOINT1:0.984485,0.168793,0.000000,-0.047942 LARM_JOINT2:0.781911,0.000000,0.270102,-0.561837 LARM_JOINT3:0.635307,0.000000,-0.772139,-0.013621 LLEG_JOINT2:0.999598,-0.009029,0.000000,0.026860 LLEG_JOINT4:0.995362,0.095687,0.000000,0.009900 RARM_JOINT2:0.857469,0.000000,-0.052191,0.511881 RARM_JOINT3:0.953139,0.000000,0.195194,0.231140 RLEG_JOINT2:0.998785,0.022574,0.000000,-0.043799 RLEG_JOINT4:0.992115,0.105751,0.000000,0.067262 WAIST:0.993545,-0.000000,0.109172,0.030808 WAIST_JOINT0:0.986159,-0.000000,0.159738,0.044423 WAIST_JOINT1:0.998353,0.055916,-0.000000,0.012810 END:
KINECT_DATA_Sensor  AnkleLeft:-0.023002,-0.618412,0.104368,0.778553 AnkleRight:0.121919,0.787601,0.060332,0.600982 ElbowLeft:-0.053880,-0.436575,0.305996,0.844314 ElbowRight:-0.012541,0.939674,0.221975,0.259966 FootLeft:0.000000,0.000000,0.000000,0.000000 FootRight:0.000000,0.000000,0.000000,0.000000 HandLeft:0.173827,0.215959,-0.598057,0.751980 HandRight:0.135578,-0.577573,-0.035116,0.804235 HandTipLeft:0.000000,0.000000,0.000000,0.000000 HandTipRight:0.000000,0.000000,0.000000,0.000000 Head:0.000000,0.000000,0.000000,0.000000 HipLeft:0.049945,-0.667988,0.735379,-0.102548 HipRight:-0.204930,0.680893,0.666348,-0.224430 KneeLeft:0.045594,-0.625100,0.037097,0.778328 KneeRight:0.001741,0.780752,0.023233,0.624406 Neck:-0.160523,0.041203,0.983608,-0.071067 ShoulderLeft:0.142520,0.736208,-0.654975,-0.093242 ShoulderRight:-0.065078,0.783784,0.598098,-0.154034 SpineBase:-0.109784,0.036475,0.992767,-0.032108 SpineMid:-0.134514,0.037264,0.989719,-0.031188 SpineShoulder:-0.160077,0.039852,0.985040,-0.049839 ThumbLeft:0.000000,0.000000,0.000000,0.000000 ThumbRight:0.000000,0.000000,0.000000,0.000000 WristLeft:0.197340,0.229034,-0.602596,0.738565 WristRight:0.088807,-0.581736,-0.059129,0.806350 END:
KINECT_DATA POSITION:0.520577,-1.143224,-2.884316 HEAD_JOINT1:0.984807,0.164066,0.000000,-0.056907 LARM_JOINT2:0.794994,0.000000,0.120899,-0.594448 LARM_JOINT3:0.774302,0.000000,-0.609180,0.171337 LLEG_JOINT2:0.999556,-0.012166,0.000000,0.027188 LLEG_JOINT4:0.994992,0.098976,0.000000,0.013980 RARM_JOINT2:0.857883,0.000000,-0.051155,0.511293 RARM_JOINT3:0.955628,0.000000,0.183164,0.230707 RLEG_JOINT2:0.998916,0.021473,0.000000,-0.041306 RLEG_JOINT4:0.991955,0.108038,0.000000,0.065985 WAIST:0.992587,-0.000000,0.117226,0.032066 WAIST_JOINT0:0.984605,-0.000000,0.169202,0.043863 WAIST_JOINT1:0.998371,0.055112,-0.000000,0.014775 END:
KINECT_DATA_Sensor  AnkleLeft:-0.020373,-0.612865,0.108394,0.782453 AnkleRight:0.123735,0.791928,0.060518,0.594876 ElbowLeft:0.045980,-0.420239,0.227942,0.877113 ElbowRight:-0.014117,0.943398,0.218878,0.248782 FootLeft:0.000000,0.000000,0.000000,0.000000 FootRight:0.000000,0.000000,0.000000,0.000000 HandLeft:-0.118989,-0.393398,0.647969,-0.641261 HandRight:0.098811,-0.560600,-0.012009,0.822083 HandTipLeft:0.000000,0.000000,0.000000,0.000000 HandTipRight:0.000000,0.000000,0.000000,0.000000 Head:0.000000,0.000000,0.000000,0.000000 HipLeft:0.044560,-0.667831,0.736413,-0.098549 HipRight:-0.211175,0.680411,0.663425,-0.228722 KneeLeft:0.049016,-0.618867,0.036501,0.783114 KneeRight:0.003539,0.785739,0.019766,0.618232 Neck:-0.169698,0.044116,0.982000,-0.070238 ShoulderLeft:0.146385,0.735150,-0.654308,-0.100036 ShoulderRight:-0.073397,0.782240,0.597215,-0.161393 SpineBase:-0.117796,0.039531,0.991733,-0.032047 SpineMid:-0.143057,0.040336,0.988405,-0.031029 SpineShoulder:-0.169216,0.042709,0.983425,-0.049168 ThumbLeft:0.000000,0.000000,0.000000,0.000000 ThumbRight:0.000000,0.000000,0.000000,0.000000 WristLeft:-0.131657,-0.458336,0.559400,-0.677987 WristRight:0.091915,-0.563551,-0.056924,0.818976 END:
KINECT_DATA POSITION:0.276670,-1.291091,-2.925408 HEAD_JOINT1:0.985176,0.164934,0.000000,-0.047169 LARM_JOINT2:0.810346,0.000000,0.150774,-0.566222 LARM_JOINT3:0.778382,0.000000,-0.612787,0.136428 LLEG_JOINT2:0.999556,-0.011687,0.000000,0.027406 LLEG_JOINT4:0.995549,0.093153,0.000000,0.014277 RARM_JOINT2:0.856642,0.000000,-0.054563,0.513017 RARM_JOINT3:0.956129,0.000000,0.176679,0.233670 RLEG_JOINT2:0.998940,0.019911,0.000000,-0.041496 RLEG_JOINT4:0.991796,0.108612,0.000000,0.067408 WAIST:0.992524,-0.000000,0.117397,0.033387 WAIST_JOINT0:0.985563,-0.000000,0.164072,0.041782 WAIST_JOINT1:0.998483,0.052987,-0.000000,0.014996 END:
KINECT_DATA_Sensor  AnkleLeft:0.033496,0.741767,-0.102129,-0.661989 AnkleRight:0.124677,0.789283,0.058640,0.598372 ElbowLeft:0.045221,-0.436012,0.265414,0.858722 ElbowRight:-0.012608,0.942899,0.215872,0.253342 FootLeft:0.000000,0.000000,0.000000,0.000000 FootRight:0.000000,0.000000,0.000000,0.000000 HandLeft:-0.147854,-0.450063,0.630211,-0.615156 HandRight:0.089781,-0.566088,0.018127,0.819240 HandTipLeft:0.000000,0.000000,0.000000,0.000000 HandTipRight:0.000000,0.000000,0.000000,0.000000 Head:0.000000,0.000000,0.000000,0.000000 HipLeft:0.044802,-0.667034,0.737266,-0.097450 HipRight:-0.212426,0.681574,0.662191,-0.227673 KneeLeft:0.049705,-0.618659,0.037906,0.783169 KneeRight:0.003348,0.785818,0.017719,0.618195 Neck:-0.164272,0.045392,0.983017,-0.068055 ShoulderLeft:0.139239,0.739663,-0.651316,-0.096428 ShoulderRight:-0.073086,0.784129,0.595842,-0.157391 SpineBase:-0.117973,0.041222,0.991688,-0.030620 SpineMid:-0.140414,0.041905,0.988760,-0.029678 SpineShoulder:-0.163741,0.044114,0.984379,-0.047338 ThumbLeft:0.000000,0.000000,0.000000,0.000000 ThumbRight:0.000000,0.000000,0.000000,0.000000 WristLeft:-0.107544,-0.476286,0.554622,-0.673781 WristRight:0.094557,-0.570832,-0.055474,0.813715 END:
KINECT_DATA POSITION:0.130393,-1.479455,-2.832782 HEAD_JOINT1:0.983982,0.173872,0.000000,-0.039341 LARM_JOINT2:0.856232,0.000000,-0.074913,-0.511131 LARM_JOINT3:0.930170,0.000000,-0.315911,0.187041 LLEG_JOINT2:0.999510,-0.011900,0.000000,0.028943 LLEG_JOINT4:0.995577,0.093012,0.000000,0.013248 RARM_JOINT2:0.854537,0.000000,-0.063418,0.515504 RARM_JOINT3:0.955690,0.000000,0.177879,0.234553 RLEG_JOINT2:0.999027,0.018207,0.000000,-0.040161 RLEG_JOINT4:0.991635,0.109293,0.000000,0.068672 WAIST:0.992815,-0.000000,0.114876,0.033482 WAIST_JOINT0:0.987856,-0.000000,0.150945,0.036829 WAIST_JOINT1:0.998665,0.049618,-0.000000,0.014347 END:
KINECT_DATA_Sensor  AnkleLeft:0.030855,0.731415,-0.103179,-0.673375 AnkleRight:0.125838,0.782778,0.056938,0.606780 ElbowLeft:0.229327,-0.461916,0.172886,0.839139 ElbowRight:-0.009398,0.938726,0.215136,0.269113 FootLeft:0.000000,0.000000,0.000000,0.000000 FootRight:0.000000,0.000000,0.000000,0.000000 HandLeft:0.259546,0.417524,-0.557615,0.668861 HandRight:0.084243,-0.613925,0.034018,0.784119 HandTipLeft:0.000000,0.000000,0.000000,0.000000 HandTipRight:0.000000,0.000000,0.000000,0.000000 Head:0.000000,0.000000,0.000000,0.000000 HipLeft:0.047770,-0.667246,0.737040,-0.096296 HipRight:-0.211785,0.682815,0.662231,-0.224415 KneeLeft:0.050933,-0.620454,0.038969,0.781616 KneeRight:0.003508,0.784214,0.015538,0.620286 Neck:-0.150644,0.044348,0.985491,-0.064400 ShoulderLeft:0.120507,0.750187,-0.644842,-0.082927 ShoulderRight:-0.073677,0.786716,0.594048,-0.150854 SpineBase:-0.115439,0.040640,0.992094,-0.027786 SpineMid:-0.132364,0.041108,0.989978,-0.027088 SpineShoulder:-0.150085,0.043488,0.986708,-0.044623 ThumbLeft:0.000000,0.000000,0.000000,0.000000 ThumbRight:0.000000,0.000000,0.000000,0.000000 WristLeft:0.210335,0.445547,-0.455888,0.741224 WristRight:0.100024,-0.619581,-0.052299,0.776775 END:
KINECT_DATA POSITION:0.001848,-1.585991,-2.699769 HEAD_JOINT1:0.982439,0.182403,0.000000,-0.039281 LARM_JOINT2:0.862793,0.000000,-0.105800,-0.494362 LARM_JOINT3:0.950665,0.000000,-0.250721,0.182690 LLEG_JOINT2:0.999425,-0.011925,0.000000,0.031725 LLEG_JOINT4:0.995714,0.091391,0.000000,0.014199 RARM_JOINT2:0.853216,0.000000,-0.073830,0.516306 RARM_JOINT3:0.955879,0.000000,0.181648,0.230868 RLEG_JOINT2:0.999139,0.019257,0.000000,-0.036753 RLEG_JOINT4:0.991805,0.109209,0.000000,0.066302 WAIST:0.993017,-0.000000,0.113586,0.031873 WAIST_JOINT0:0.989613,-0.000000,0.139889,0.033131 WAIST_JOINT1:0.998862,0.046330,-0.000000,0.011352 END:
KINECT_DATA_Sensor  AnkleLeft:0.033376,0.763434,-0.102916,-0.636760 AnkleRight:0.125796,0.777638,0.058956,0.613171 ElbowLeft:0.260074,-0.444705,0.148971,0.844042 ElbowRight:-0.006640,0.934904,0.220090,0.278337 FootLeft:0.000000,0.000000,0.000000,0.000000 FootRight:0.000000,0.000000,0.000000,0.000000 HandLeft:0.267924,0.457477,-0.523923,0.666661 HandRight:0.079007,-0.621224,0.013393,0.779525 HandTipLeft:0.000000,0.000000,0.000000,0.000000 HandTipRight:0.000000,0.000000,0.000000,0.000000 Head:0.000000,0.000000,0.000000,0.000000 HipLeft:0.050062,-0.668655,0.735865,-0.094325 HipRight:-0.211392,0.682515,0.663411,-0.222200 KneeLeft:0.051571,-0.621283,0.039949,0.780866 KneeRight:0.005744,0.783451,0.015402,0.621236 Neck:-0.139503,0.038356,0.987608,-0.060818 ShoulderLeft:0.105839,0.754902,-0.643285,-0.071454 ShoulderRight:-0.074047,0.785974,0.596524,-0.144639 SpineBase:-0.114091,0.038242,0.992413,-0.025260 SpineMid:-0.126130,0.038545,0.990954,-0.024794 SpineShoulder:-0.138904,0.039189,0.988651,-0.041703 ThumbLeft:0.000000,0.000000,0.000000,0.000000 ThumbRight:0.000000,0.000000,0.000000,0.000000 WristLeft:0.214976,0.476200,-0.443762,0.728076 WristRight:0.095138,-0.624549,-0.054989,0.773216 END:
KINECT_DATA POSITION:-0.071962,-1.657150,-2.606213 HEAD_JOINT1:0.981229,0.187886,0.000000,-0.043458 LARM_JOINT2:0.866470,0.000000,-0.130446,-0.481885 LARM_JOINT3:0.961649,0.000000,-0.224151,0.158077 LLEG_JOINT2:0.999300,-0.012751,0.000000,0.035176 LLEG_JOINT4:0.995247,0.096367,0.000000,0.014016 RARM_JOINT2:0.852402,0.000000,-0.078988,0.516887 RARM_JOINT3:0.955255,0.000000,0.182193,0.233009 RLEG_JOINT2:0.999260,0.020484,0.000000,-0.032547 RLEG_JOINT4:0.991563,0.109363,0.000000,0.069586 WAIST:0.992939,-0.000000,0.115024,0.029009 WAIST_JOINT0:0.991104,-0.000000,0.130341,0.026926 WAIST_JOINT1:0.998993,0.044043,-0.000000,0.008530 END:
KINECT_DATA_Sensor  AnkleLeft:-0.018100,-0.636931,0.110126,0.762800 AnkleRight:0.127385,0.747274,0.063837,0.649060 ElbowLeft:0.277229,-0.447274,0.133002,0.839881 ElbowRight:-0.007521,0.933100,0.224924,0.280494 FootLeft:0.000000,0.000000,0.000000,0.000000 FootRight:0.000000,0.000000,0.000000,0.000000 HandLeft:-0.202397,-0.480461,0.523119,-0.674195 HandRight:0.085492,-0.565454,0.007164,0.820305 HandTipLeft:0.000000,0.000000,0.000000,0.000000 HandTipRight:0.000000,0.000000,0.000000,0.000000 Head:0.000000,0.000000,0.000000,0.000000 HipLeft:0.050583,-0.670993,0.734095,-0.091182 HipRight:-0.212408,0.680780,0.665034,-0.221699 KneeLeft:0.052317,-0.620029,0.040151,0.781802 KneeRight:0.007724,0.784345,0.015751,0.620077 Neck:-0.129437,0.032142,0.989301,-0.059128 ShoulderLeft:0.091866,0.762048,-0.638096,-0.060634 ShoulderRight:-0.075046,0.784105,0.599938,-0.140076 SpineBase:-0.115432,0.035257,0.992418,-0.023204 SpineMid:-0.121815,0.035406,0.991655,-0.022977 SpineShoulder:-0.128907,0.033223,0.990312,-0.039508 ThumbLeft:0.000000,0.000000,0.000000,0.000000 ThumbRight:0.000000,0.000000,0.000000,0.000000 WristLeft:0.192049,0.519237,-0.439030,0.707646 WristRight:0.086044,-0.569340,-0.064794,0.815015 END:
KINECT_DATA POSITION:-0.144495,-1.721738,-2.584064 HEAD_JOINT1:0.980487,0.191736,0.000000,-0.043384 LARM_JOINT2:0.867750,0.000000,-0.154529,-0.472366 LARM_JOINT3:0.966981,0.000000,-0.204536,0.152029 LLEG_JOINT2:0.999204,-0.013351,0.000000,0.037587 LLEG_JOINT4:0.995360,0.095262,0.000000,0.013533 RARM_JOINT2:0.852527,0.000000,-0.084418,0.515820 RARM_JOINT3:0.955634,0.000000,0.179727,0.233371 RLEG_JOINT2:0.999330,0.021528,0.000000,-0.029597 RLEG_JOINT4:0.991809,0.107329,0.000000,0.069244 WAIST:0.993167,-0.000000,0.113582,0.026817 WAIST_JOINT0:0.992544,-0.000000,0.120041,0.021120 WAIST_JOINT1:0.999071,0.042354,-0.000000,0.007927 END:
KINECT_DATA_Sensor  AnkleLeft:0.035755,0.761496,-0.104476,-0.638694 AnkleRight:0.126157,0.733510,0.065309,0.664667 ElbowLeft:0.291710,-0.460673,0.119237,0.829740 ElbowRight:-0.007237,0.929737,0.229300,0.288025 FootLeft:0.000000,0.000000,0.000000,0.000000 FootRight:0.000000,0.000000,0.000000,0.000000 HandLeft:-0.199082,-0.475319,0.539175,-0.666130 HandRight:0.071776,-0.558462,0.014994,0.826283 HandTipLeft:0.000000,0.000000,0.000000,0.000000 HandTipRight:0.000000,0.000000,0.000000,0.000000 Head:0.000000,0.000000,0.000000,0.000000 HipLeft:0.052353,-0.672846,0.732399,-0.090158 HipRight:-0.211496,0.680105,0.666596,-0.219945 KneeLeft:0.052770,-0.621074,0.040063,0.780946 KneeRight:0.009188,0.783434,0.016301,0.621194 Neck:-0.118723,0.029290,0.990805,-0.057902 ShoulderLeft:0.080392,0.768832,-0.632288,-0.051449 ShoulderRight:-0.072484,0.783881,0.602084,-0.133311 SpineBase:-0.113928,0.032888,0.992708,-0.021680 SpineMid:-0.115776,0.032928,0.992494,-0.021619 SpineShoulder:-0.118236,0.030249,0.991797,-0.038003 ThumbLeft:0.000000,0.000000,0.000000,0.000000 ThumbRight:0.000000,0.000000,0.000000,0.000000 WristLeft:0.181889,0.520659,-0.434581,0.712018 WristRight:0.081878,-0.562516,-0.069585,0.819774 END:
KINECT_DATA POSITION:-0.235593,-1.770971,-2.615929 HEAD_JOINT1:0.979871,0.195283,0.000000,-0.041442 LARM_JOINT2:0.869388,0.000000,-0.166404,-0.465268 LARM_JOINT3:0.968059,0.000000,-0.211220,0.135087 LLEG_JOINT2:0.999129,-0.013383,0.000000,0.039513 LLEG_JOINT4:0.995067,0.098586,0.000000,0.011094 RARM_JOINT2:0.851704,0.000000,-0.090704,0.516113 RARM_JOINT3:0.954019,0.000000,0.180860,0.239036 RLEG_JOINT2:0.999449,0.019937,0.000000,-0.026548 RLEG_JOINT4:0.991531,0.111258,0.000000,0.066990 WAIST:0.993834,-0.000000,0.107901,0.025530 WAIST_JOINT0:0.993863,-0.000000,0.109103,0.018251 WAIST_JOINT1:0.999082,0.042191,-0.000000,0.007452 END:
KINECT_DATA_Sensor  AnkleLeft:-0.021234,-0.648924,0.109746,0.752597 AnkleRight:0.130351,0.757005,0.061607,0.637304 ElbowLeft:0.297904,-0.490291,0.119527,0.810297 ElbowRight:-0.002308,0.926046,0.232422,0.297343 FootLeft:0.000000,0.000000,0.000000,0.000000 FootRight:0.000000,0.000000,0.000000,0.000000 HandLeft:0.281727,0.279828,-0.488751,0.776819 HandRight:0.085687,-0.621479,0.034246,0.777977 HandTipLeft:0.000000,0.000000,0.000000,0.000000 HandTipRight:0.000000,0.000000,0.000000,0.000000 Head:0.000000,0.000000,0.000000,0.000000 HipLeft:0.055543,-0.673644,0.731329,-0.090976 HipRight:-0.206783,0.680741,0.668909,-0.215392 KneeLeft:0.053217,-0.625402,0.040433,0.777435 KneeRight:0.009857,0.779782,0.014115,0.625815 Neck:-0.107756,0.027679,0.992092,-0.058101 ShoulderLeft:0.072550,0.771634,-0.630482,-0.042540 ShoulderRight:-0.066198,0.783868,0.604533,-0.125333 SpineBase:-0.108236,0.030588,0.993440,-0.020648 SpineMid:-0.107497,0.030573,0.993520,-0.020671 SpineShoulder:-0.107290,0.028493,0.993099,-0.037840 ThumbLeft:0.000000,0.000000,0.000000,0.000000 ThumbRight:0.000000,0.000000,0.000000,0.000000 WristLeft:0.267959,0.322470,-0.383841,0.822725 WristRight:0.082340,-0.626920,-0.063418,0.772120 END:
KINECT_DATA POSITION:-0.257906,-1.797448,-2.650368 HEAD_JOINT1:0.979643,0.196903,0.000000,-0.039108 LARM_JOINT2:0.869222,0.000000,-0.177412,-0.461495 LARM_JOINT3:0.972565,0.000000,-0.195742,0.125711 LLEG_JOINT2:0.999110,-0.012652,0.000000,0.040243 LLEG_JOINT4:0.995163,0.097657,0.000000,0.010699 RARM_JOINT2:0.851846,0.000000,-0.090286,0.515952 RARM_JOINT3:0.952960,0.000000,0.185960,0.239343 RLEG_JOINT2:0.999478,0.019711,0.000000,-0.025609 RLEG_JOINT4:0.992026,0.108339,0.000000,0.064394 WAIST:0.994224,-0.000000,0.104266,0.025456 WAIST_JOINT0:0.994552,-0.000000,0.102829,0.017115 WAIST_JOINT1:0.999087,0.042211,-0.000000,0.006617 END:
KINECT_DATA_Sensor  AnkleLeft:0.036545,0.754961,-0.105753,-0.646154 AnkleRight:0.126892,0.750242,0.060757,0.646022 ElbowLeft:0.302924,-0.506041,0.115351,0.799283 ElbowRight:-0.002002,0.925044,0.233287,0.299776 FootLeft:0.000000,0.000000,0.000000,0.000000 FootRight:0.000000,0.000000,0.000000,0.000000 HandLeft:0.227360,0.377191,-0.498051,0.746980 HandRight:0.100586,-0.543683,0.009451,0.833188 HandTipLeft:0.000000,0.000000,0.000000,0.000000 HandTipRight:0.000000,0.000000,0.000000,0.000000 Head:0.000000,0.000000,0.000000,0.000000 HipLeft:0.057745,-0.673631,0.731061,-0.091853 HipRight:-0.204072,0.681513,0.669759,-0.212880 KneeLeft:0.053141,-0.628151,0.041275,0.775176 KneeRight:0.010509,0.777476,0.013430,0.628681 Neck:-0.101487,0.026873,0.992769,-0.058211 ShoulderLeft:0.067597,0.772620,-0.630184,-0.036843 ShoulderRight:-0.063159,0.783728,0.605874,-0.121240 SpineBase:-0.104619,0.029490,0.993872,-0.020075 SpineMid:-0.102576,0.029448,0.994085,-0.020136 SpineShoulder:-0.101032,0.027612,0.993781,-0.037798 ThumbLeft:0.000000,0.000000,0.000000,0.000000 ThumbRight:0.000000,0.000000,0.000000,0.000000 WristLeft:0.213655,0.412158,-0.408712,0.785768 WristRight:0.075461,-0.548082,-0.072111,0.829887 END:
KINECT_DATA POSITION:-0.278108,-1.835048,-2.727747 HEAD_JOINT1:0.979499,0.197870,0.000000,-0.037806 LARM_JOINT2:0.871513,0.000000,-0.174473,-0.458284 LARM_JOINT3:0.977129,0.000000,-0.172735,0.124020 LLEG_JOINT2:0.999096,-0.012296,0.000000,0.040699 LLEG_JOINT4:0.995400,0.095465,0.000000,0.008030 RARM_JOINT2:0.851201,0.000000,-0.088695,0.517291 RARM_JOINT3:0.953602,0.000000,0.184616,0.237824 RLEG_JOINT2:0.999537,0.018506,0.000000,-0.024168 RLEG_JOINT4:0.992280,0.107847,0.000000,0.061239 WAIST:0.994741,-0.000000,0.099206,0.025461 WAIST_JOINT0:0.995333,-0.000000,0.095463,0.014077 WAIST_JOINT1:0.999117,0.041637,-0.000000,0.005624 END:
KINECT_DATA_Sensor  AnkleLeft:0.034132,0.749736,-0.103683,-0.652672 AnkleRight:0.125693,0.755981,0.058238,0.639768 ElbowLeft:0.304556,-0.512138,0.118424,0.794315 ElbowRight:-0.002659,0.923218,0.232079,0.306269 FootLeft:0.000000,0.000000,0.000000,0.000000 FootRight:0.000000,0.000000,0.000000,0.000000 HandLeft:0.306255,0.349320,-0.442952,0.766797 HandRight:0.099704,-0.533147,0.011320,0.840050 HandTipLeft:0.000000,0.000000,0.000000,0.000000 HandTipRight:0.000000,0.000000,0.000000,0.000000 Head:0.000000,0.000000,0.000000,0.000000 HipLeft:0.061289,-0.673297,0.730876,-0.093463 HipRight:-0.201005,0.682420,0.670833,-0.209480 KneeLeft:0.053280,-0.632000,0.041673,0.772011 KneeRight:0.011024,0.774228,0.011619,0.632705 Neck:-0.093958,0.026086,0.993565,-0.057613 ShoulderLeft:0.060491,0.775446,-0.627780,-0.030264 ShoulderRight:-0.060594,0.783097,0.607909,-0.116336 SpineBase:-0.099572,0.028376,0.994442,-0.019114 SpineMid:-0.096312,0.028313,0.994763,-0.019207 SpineShoulder:-0.093509,0.026796,0.994563,-0.037175 ThumbLeft:0.000000,0.000000,0.000000,0.000000 ThumbRight:0.000000,0.000000,0.000000,0.000000 WristLeft:0.244806,0.351679,-0.383022,0.818343 WristRight:0.073370,-0.537607,-0.075778,0.836572 END:
KINECT_DATA POSITION:-0.296751,-1.853149,-2.872813 HEAD_JOINT1:0.980140,0.194333,0.000000,-0.039507 LARM_JOINT2:0.872396,0.000000,-0.173075,-0.457133 LARM_JOINT3:0.973930,0.000000,-0.183706,0.133089 LLEG_JOINT2:0.999055,-0.012302,0.000000,0.041687 LLEG_JOINT4:0.995228,0.097261,0.000000,0.007882 RARM_JOINT2:0.852113,0.000000,-0.086177,0.516213 RARM_JOINT3:0.953981,0.000000,0.185740,0.235416 RLEG_JOINT2:0.999571,0.017181,0.000000,-0.023718 RLEG_JOINT4:0.991900,0.111481,0.000000,0.060875 WAIST:0.995130,-0.000000,0.095446,0.024634 WAIST_JOINT0:0.995647,-0.000000,0.092344,0.012603 WAIST_JOINT1:0.999112,0.041719,-0.000000,0.005902 END:
KINECT_DATA_Sensor  AnkleLeft:0.037562,0.765027,-0.104048,-0.634427 AnkleRight:0.127242,0.757002,0.059431,0.638142 ElbowLeft:0.305632,-0.510738,0.117365,0.794960 ElbowRight:-0.003660,0.922921,0.233046,0.306419 FootLeft:0.000000,0.000000,0.000000,0.000000 FootRight:0.000000,0.000000,0.000000,0.000000 HandLeft:0.232043,0.421144,-0.527870,0.700105 HandRight:0.092756,-0.534110,-0.002209,0.840308 HandTipLeft:0.000000,0.000000,0.000000,0.000000 HandTipRight:0.000000,0.000000,0.000000,0.000000 Head:0.000000,0.000000,0.000000,0.000000 HipLeft:0.064330,-0.673522,0.730091,-0.095905 HipRight:-0.199511,0.682287,0.671915,-0.207869 KneeLeft:0.053418,-0.634894,0.041711,0.769621 KneeRight:0.010055,0.771785,0.010923,0.635711 Neck:-0.090780,0.025744,0.993863,-0.057735 ShoulderLeft:0.057589,0.776468,-0.626934,-0.027102 ShoulderRight:-0.059467,0.782461,0.609163,-0.114626 SpineBase:-0.095794,0.027628,0.994838,-0.018901 SpineMid:-0.092843,0.027572,0.995118,-0.018983 SpineShoulder:-0.090336,0.026413,0.994864,-0.037247 ThumbLeft:0.000000,0.000000,0.000000,0.000000 ThumbRight:0.000000,0.000000,0.000000,0.000000 WristLeft:0.192980,0.457300,-0.411156,0.764582 WristRight:0.073360,-0.537832,-0.076992,0.836318 END:
KINECT_DATA POSITION:-0.338620,-1.868372,-3.004515 HEAD_JOINT1:0.980681,0.192017,0.000000,-0.037331 LARM_JOINT2:0.873077,0.000000,-0.173687,-0.455597 LARM_JOINT3:0.974174,0.000000,-0.184294,0.130463 LLEG_JOINT2:0.998977,-0.012802,0.000000,0.043376 LLEG_JOINT4:0.995168,0.097869,0.000000,0.007838 RARM_JOINT2:0.852090,0.000000,-0.084884,0.516467 RARM_JOINT3:0.952813,0.000000,0.186281,0.239680 RLEG_JOINT2:0.999636,0.015864,0.000000,-0.021805 RLEG_JOINT4:0.991926,0.112492,0.000000,0.058546 WAIST:0.995359,-0.000000,0.093354,0.023352 WAIST_JOINT0:0.995950,-0.000000,0.089237,0.011002 WAIST_JOINT1:0.999138,0.040992,-0.000000,0.006495 END:
KINECT_DATA_Sensor  AnkleLeft:0.036858,0.762923,-0.104779,-0.636877 AnkleRight:0.125393,0.749634,0.061339,0.646964 ElbowLeft:0.307511,-0.510982,0.115811,0.794306 ElbowRight:-0.004747,0.922454,0.232739,0.308039 FootLeft:0.000000,0.000000,0.000000,0.000000 FootRight:0.000000,0.000000,0.000000,0.000000 HandLeft:0.200054,0.455283,-0.529612,0.687173 HandRight:0.109423,-0.519346,0.005000,0.847515 HandTipLeft:0.000000,0.000000,0.000000,0.000000 HandTipRight:0.000000,0.000000,0.000000,0.000000 Head:0.000000,0.000000,0.000000,0.000000 HipLeft:0.066275,-0.674280,0.729093,-0.096835 HipRight:-0.198943,0.681810,0.672975,-0.206545 KneeLeft:0.054027,-0.636478,0.041710,0.768269 KneeRight:0.009841,0.770384,0.009611,0.637432 Neck:-0.087577,0.025145,0.994205,-0.057041 ShoulderLeft:0.054394,0.778053,-0.625352,-0.024692 ShoulderRight:-0.058489,0.782215,0.610021,-0.112218 SpineBase:-0.093659,0.026902,0.995073,-0.018281 SpineMid:-0.090190,0.026838,0.995393,-0.018375 SpineShoulder:-0.087139,0.025849,0.995187,-0.036615 ThumbLeft:0.000000,0.000000,0.000000,0.000000 ThumbRight:0.000000,0.000000,0.000000,0.000000 WristLeft:0.171280,0.491330,-0.424881,0.740766 WristRight:0.072396,-0.523776,-0.079722,0.845022 END:
KINECT_DATA POSITION:-0.420557,-1.909322,-3.162169 HEAD_JOINT1:0.980531,0.193059,0.000000,-0.035876 LARM_JOINT2:0.873940,0.000000,-0.174079,-0.453789 LARM_JOINT3:0.974976,0.000000,-0.182566,0.126849 LLEG_JOINT2:0.998935,-0.014024,0.000000,0.043950 LLEG_JOINT4:0.994959,0.100132,0.000000,0.005431 RARM_JOINT2:0.850981,0.000000,-0.084928,0.518284 RARM_JOINT3:0.953984,0.000000,0.184695,0.236227 RLEG_JOINT2:0.999634,0.017094,0.000000,-0.020970 RLEG_JOINT4:0.992445,0.108020,0.000000,0.058179 WAIST:0.995484,-0.000000,0.092051,0.023196 WAIST_JOINT0:0.996275,-0.000000,0.085618,0.010240 WAIST_JOINT1:0.999184,0.039891,-0.000000,0.006401 END:
KINECT_DATA_Sensor  AnkleLeft:0.036355,0.749595,-0.104426,-0.652596 AnkleRight:0.124019,0.752437,0.057839,0.644292 ElbowLeft:0.309477,-0.514471,0.116392,0.791200 ElbowRight:-0.005244,0.921371,0.230596,0.312847 FootLeft:0.000000,0.000000,0.000000,0.000000 FootRight:0.000000,0.000000,0.000000,0.000000 HandLeft:0.200284,0.453429,-0.524843,0.691975 HandRight:0.100781,-0.498218,0.003526,0.861167 HandTipLeft:0.000000,0.000000,0.000000,0.000000 HandTipRight:0.000000,0.000000,0.000000,0.000000 Head:0.000000,0.000000,0.000000,0.000000 HipLeft:0.067870,-0.674420,0.728798,-0.096972 HipRight:-0.198966,0.682048,0.673056,-0.205471 KneeLeft:0.055258,-0.637420,0.041207,0.767427 KneeRight:0.011194,0.769575,0.010142,0.638378 Neck:-0.083918,0.024949,0.994588,-0.055937 ShoulderLeft:0.049965,0.779247,-0.624349,-0.021579 ShoulderRight:-0.058160,0.782627,0.609984,-0.109691 SpineBase:-0.092341,0.026664,0.995221,-0.017267 SpineMid:-0.087714,0.026584,0.995639,-0.017390 SpineShoulder:-0.083477,0.025675,0.995543,-0.035585 ThumbLeft:0.000000,0.000000,0.000000,0.000000 ThumbRight:0.000000,0.000000,0.000000,0.000000 WristLeft:0.172186,0.487613,-0.424437,0.743262 WristRight:0.070538,-0.502500,-0.083180,0.857671 END:
KINECT_DATA POSITION:-0.505483,-1.930506,-3.279328 HEAD_JOINT1:0.980539,0.192876,0.000000,-0.036636 LARM_JOINT2:0.873980,0.000000,-0.176634,-0.452724 LARM_JOINT3:0.976941,0.000000,-0.173979,0.123765 LLEG_JOINT2:0.998918,-0.015142,0.000000,0.043973 LLEG_JOINT4:0.994925,0.100416,0.000000,0.006366 RARM_JOINT2:0.850476,0.000000,-0.086142,0.518912 RARM_JOINT3:0.953242,0.000000,0.188252,0.236410 RLEG_JOINT2:0.999646,0.016776,0.000000,-0.020647 RLEG_JOINT4:0.992805,0.105110,0.000000,0.057361 WAIST:0.995454,-0.000000,0.092334,0.023381 WAIST_JOINT0:0.996309,-0.000000,0.085229,0.010223 WAIST_JOINT1:0.999231,0.038642,-0.000000,0.006657 END:
KINECT_DATA_Sensor  AnkleLeft:0.036569,0.758628,-0.104459,-0.642055 AnkleRight:0.121593,0.751454,0.055833,0.646077 ElbowLeft:0.311786,-0.517939,0.115870,0.788101 ElbowRight:-0.005272,0.921039,0.229317,0.314758 FootLeft:0.000000,0.000000,0.000000,0.000000 FootRight:0.000000,0.000000,0.000000,0.000000 HandLeft:0.212115,0.463466,-0.513262,0.690484 HandRight:0.113498,-0.450286,-0.011546,0.885566 HandTipLeft:0.000000,0.000000,0.000000,0.000000 HandTipRight:0.000000,0.000000,0.000000,0.000000 Head:0.000000,0.000000,0.000000,0.000000 HipLeft:0.068234,-0.674465,0.728821,-0.096235 HipRight:-0.199773,0.682321,0.672636,-0.205157 KneeLeft:0.056259,-0.637163,0.040649,0.767598 KneeRight:0.011363,0.769754,0.009559,0.638168 Neck:-0.083549,0.025564,0.994676,-0.054644 ShoulderLeft:0.049409,0.779416,-0.624148,-0.022548 ShoulderRight:-0.058176,0.783030,0.609735,-0.108182 SpineBase:-0.092613,0.026883,0.995205,-0.016371 SpineMid:-0.087673,0.026802,0.995652,-0.016504 SpineShoulder:-0.083105,0.026178,0.995602,-0.034420 ThumbLeft:0.000000,0.000000,0.000000,0.000000 ThumbRight:0.000000,0.000000,0.000000,0.000000 WristLeft:0.171639,0.487452,-0.422764,0.744447 WristRight:0.066238,-0.454440,-0.087375,0.884004 END:
KINECT_DATA POSITION:-0.521334,-1.946174,-3.282857 HEAD_JOINT1:0.980413,0.193460,0.000000,-0.036915 LARM_JOINT2:0.874275,0.000000,-0.176862,-0.452065 LARM_JOINT3:0.976608,0.000000,-0.175096,0.124814 LLEG_JOINT2:0.998947,-0.015093,0.000000,0.043324 LLEG_JOINT4:0.995199,0.097643,0.000000,0.006661 RARM_JOINT2:0.850732,0.000000,-0.086348,0.518459 RARM_JOINT3:0.953205,0.000000,0.188518,0.236350 RLEG_JOINT2:0.999632,0.017222,0.000000,-0.020979 RLEG_JOINT4:0.992687,0.105931,0.000000,0.057888 WAIST:0.995448,-0.000000,0.092294,0.023774 WAIST_JOINT0:0.996290,-0.000000,0.085467,0.010041 WAIST_JOINT1:0.999268,0.037686,-0.000000,0.006588 END:
KINECT_DATA_Sensor  AnkleLeft:-0.019530,-0.662809,0.106894,0.740862 AnkleRight:0.122377,0.746270,0.057368,0.651778 ElbowLeft:0.313273,-0.517890,0.115695,0.787569 ElbowRight:-0.005566,0.921606,0.229103,0.313247 FootLeft:0.000000,0.000000,0.000000,0.000000 FootRight:0.000000,0.000000,0.000000,0.000000 HandLeft:0.211345,0.459209,-0.521597,0.687312 HandRight:0.114046,-0.613879,0.004706,0.781104 HandTipLeft:0.000000,0.000000,0.000000,0.000000 HandTipRight:0.000000,0.000000,0.000000,0.000000 Head:0.000000,0.000000,0.000000,0.000000 HipLeft:0.068730,-0.674312,0.728976,-0.095779 HipRight:-0.200178,0.682763,0.672205,-0.204704 KneeLeft:0.056084,-0.637199,0.040457,0.767590 KneeRight:0.011670,0.769750,0.009835,0.638163 Neck:-0.083726,0.026047,0.994704,-0.053622 ShoulderLeft:0.048265,0.779837,-0.623696,-0.022996 ShoulderRight:-0.059515,0.783140,0.609488,-0.108049 SpineBase:-0.092571,0.027102,0.995215,-0.015619 SpineMid:-0.087741,0.027026,0.995652,-0.015751 SpineShoulder:-0.083278,0.026595,0.995609,-0.033479 ThumbLeft:0.000000,0.000000,0.000000,0.000000 ThumbRight:0.000000,0.000000,0.000000,0.000000 WristLeft:0.172122,0.487200,-0.423370,0.744156 WristRight:0.082632,-0.618425,-0.072316,0.778134 END:
KINECT_DATA POSITION:-0.531241,-1.951904,-3.314567 HEAD_JOINT1:0.980310,0.193881,0.000000,-0.037441 LARM_JOINT2:0.874157,0.000000,-0.177955,-0.451865 LARM_JOINT3:0.979221,0.000000,-0.164603,0.118459 LLEG_JOINT2:0.998948,-0.015224,0.000000,0.043251 LLEG_JOINT4:0.994946,0.100220,0.000000,0.006154 RARM_JOINT2:0.850742,0.000000,-0.086554,0.518408 RARM_JOINT3:0.954400,0.000000,0.181972,0.236657 RLEG_JOINT2:0.999647,0.016545,0.000000,-0.020780 RLEG_JOINT4:0.992713,0.106452,0.000000,0.056466 WAIST:0.995407,-0.000000,0.092694,0.023935 WAIST_JOINT0:0.996289,-0.000000,0.085468,0.010147 WAIST_JOINT1:0.999264,0.037808,-0.000000,0.006533 END:
KINECT_DATA_Sensor  AnkleLeft:-0.021792,-0.662468,0.107995,0.740944 AnkleRight:0.121850,0.751615,0.057008,0.645738 ElbowLeft:0.313570,-0.519058,0.115686,0.786683 ElbowRight:-0.005039,0.922201,0.229177,0.311446 FootLeft:0.000000,0.000000,0.000000,0.000000 FootRight:0.000000,0.000000,0.000000,0.000000 HandLeft:0.233396,0.454731,-0.489266,0.706658 HandRight:0.098782,-0.496544,0.006429,0.862348 HandTipLeft:0.000000,0.000000,0.000000,0.000000 HandTipRight:0.000000,0.000000,0.000000,0.000000 Head:0.000000,0.000000,0.000000,0.000000 HipLeft:0.068492,-0.674304,0.729047,-0.095459 HipRight:-0.200471,0.682877,0.671952,-0.204868 KneeLeft:0.056243,-0.636884,0.040446,0.767841 KneeRight:0.011495,0.769991,0.009071,0.637887 Neck:-0.083734,0.026090,0.994692,-0.053808 ShoulderLeft:0.048191,0.779717,-0.623859,-0.022780 ShoulderRight:-0.059615,0.783131,0.609454,-0.108251 SpineBase:-0.092972,0.027238,0.995175,-0.015513 SpineMid:-0.087940,0.027160,0.995632,-0.015650 SpineShoulder:-0.083282,0.026663,0.995603,-0.033590 ThumbLeft:0.000000,0.000000,0.000000,0.000000 ThumbRight:0.000000,0.000000,0.000000,0.000000 WristLeft:0.184272,0.468343,-0.414382,0.758278 WristRight:0.071044,-0.500932,-0.082204,0.858640 END:
KINECT_DATA POSITION:-0.536515,-1.954075,-3.312922 HEAD_JOINT1:0.980145,0.194575,0.000000,-0.038165 LARM_JOINT2:0.873780,0.000000,-0.179720,-0.451896 LARM_JOINT3:0.979000,0.000000,-0.165654,0.118816 LLEG_JOINT2:0.998943,-0.015547,0.000000,0.043255 LLEG_JOINT4:0.995236,0.097272,0.000000,0.006634 RARM_JOINT2:0.850583,0.000000,-0.087290,0.518546 RARM_JOINT3:0.953465,0.000000,0.186314,0.237047 RLEG_JOINT2:0.999654,0.016532,0.000000,-0.020458 RLEG_JOINT4:0.992760,0.106797,0.000000,0.054971 WAIST:0.995382,-0.000000,0.092969,0.023914 WAIST_JOINT0:0.996250,-0.000000,0.085982,0.009674 WAIST_JOINT1:0.999272,0.037621,-0.000000,0.006283 END:
KINECT_DATA_Sensor  AnkleLeft:0.032227,0.750976,-0.103148,-0.651426 AnkleRight:0.121613,0.757523,0.056974,0.638845 ElbowLeft:0.314259,-0.517477,0.113321,0.787793 ElbowRight:-0.004612,0.922350,0.229386,0.310854 FootLeft:0.000000,0.000000,0.000000,0.000000 FootRight:0.000000,0.000000,0.000000,0.000000 HandLeft:0.205138,0.472239,-0.511897,0.687655 HandRight:0.112548,-0.535021,-0.001375,0.837307 HandTipLeft:0.000000,0.000000,0.000000,0.000000 HandTipRight:0.000000,0.000000,0.000000,0.000000 Head:0.000000,0.000000,0.000000,0.000000 HipLeft:0.068575,-0.674345,0.729036,-0.095198 HipRight:-0.200769,0.682812,0.671886,-0.205010 KneeLeft:0.056473,-0.636657,0.040237,0.768023 KneeRight:0.011712,0.770163,0.008869,0.637677 Neck:-0.084254,0.025728,0.994670,-0.053581 ShoulderLeft:0.048581,0.779853,-0.623631,-0.023524 ShoulderRight:-0.059874,0.782783,0.609860,-0.108336 SpineBase:-0.093245,0.027063,0.995158,-0.015307 SpineMid:-0.088335,0.026987,0.995605,-0.015440 SpineShoulder:-0.083799,0.026448,0.995572,-0.033376 ThumbLeft:0.000000,0.000000,0.000000,0.000000 ThumbRight:0.000000,0.000000,0.000000,0.000000 WristLeft:0.168562,0.499559,-0.418233,0.739668 WristRight:0.074104,-0.539332,-0.078341,0.835160 END:
KINECT_DATA POSITION:-0.544702,-1.957056,-3.327858 HEAD_JOINT1:0.979978,0.195268,0.000000,-0.038904 LARM_JOINT2:0.873611,0.000000,-0.181433,-0.451537 LARM_JOINT3:0.979202,0.000000,-0.163663,0.119905 LLEG_JOINT2:0.998895,-0.016116,0.000000,0.044158 LLEG_JOINT4:0.994952,0.099808,0.000000,0.010441 RARM_JOINT2:0.849950,0.000000,-0.087780,0.519499 RARM_JOINT3:0.953171,0.000000,0.185428,0.238916 RLEG_JOINT2:0.999676,0.015698,0.000000,-0.020043 RLEG_JOINT4:0.992688,0.107102,0.000000,0.055680 WAIST:0.995398,-0.000000,0.092908,0.023463 WAIST_JOINT0:0.996270,-0.000000,0.085786,0.009366 WAIST_JOINT1:0.999269,0.037698,-0.000000,0.006271 END:
KINECT_DATA_Sensor  AnkleLeft:-0.018083,-0.662897,0.110961,0.740222 AnkleRight:0.122050,0.759900,0.055707,0.636044 ElbowLeft:0.315583,-0.511783,0.109447,0.791522 ElbowRight:-0.003884,0.922311,0.228999,0.311266 FootLeft:0.000000,0.000000,0.000000,0.000000 FootRight:0.000000,0.000000,0.000000,0.000000 HandLeft:0.209523,0.462011,-0.510116,0.694570 HandRight:0.115060,-0.365125,-0.017422,0.923657 HandTipLeft:0.000000,0.000000,0.000000,0.000000 HandTipRight:0.000000,0.000000,0.000000,0.000000 Head:0.000000,0.000000,0.000000,0.000000 HipLeft:0.068709,-0.674703,0.728700,-0.095143 HipRight:-0.200777,0.682576,0.672149,-0.204925 KneeLeft:0.057171,-0.636665,0.040245,0.767965 KneeRight:0.011182,0.770097,0.008282,0.637775 Neck:-0.084116,0.025154,0.994687,-0.053756 ShoulderLeft:0.048835,0.779761,-0.623725,-0.023560 ShoulderRight:-0.059438,0.782534,0.610272,-0.108056 SpineBase:-0.093173,0.026786,0.995173,-0.015202 SpineMid:-0.088226,0.026710,0.995624,-0.015335 SpineShoulder:-0.083659,0.026010,0.995594,-0.033415 ThumbLeft:0.000000,0.000000,0.000000,0.000000 ThumbRight:0.000000,0.000000,0.000000,0.000000 WristLeft:0.175447,0.490702,-0.416124,0.745165 WristRight:0.057767,-0.369126,-0.090493,0.923158 END:
KINECT_DATA POSITION:-0.493772,-1.949190,-3.363860 HEAD_JOINT1:0.980088,0.195002,0.000000,-0.037451 LARM_JOINT2:0.870432,0.000000,-0.133572,-0.473822 LARM_JOINT3:0.955280,0.000000,-0.267965,0.125041 LLEG_JOINT2:0.998904,-0.016064,0.000000,0.043965 LLEG_JOINT4:0.995213,0.097329,0.000000,0.008847 RARM_JOINT2:0.849267,0.000000,-0.088305,0.520526 RARM_JOINT3:0.952931,0.000000,0.187402,0.238332 RLEG_JOINT2:0.999670,0.016663,0.000000,-0.019572 RLEG_JOINT4:0.993190,0.102672,0.000000,0.055064 WAIST:0.995532,-0.000000,0.091454,0.023482 WAIST_JOINT0:0.996307,-0.000000,0.085326,0.009543 WAIST_JOINT1:0.999244,0.038348,-0.000000,0.006370 END:
KINECT_DATA_Sensor  AnkleLeft:-0.016922,-0.663354,0.108176,0.740252 AnkleRight:0.119220,0.751761,0.054363,0.646287 ElbowLeft:0.273436,-0.541376,0.146749,0.781415 ElbowRight:-0.003209,0.920328,0.228307,0.317588 FootLeft:0.000000,0.000000,0.000000,0.000000 FootRight:0.000000,0.000000,0.000000,0.000000 HandLeft:0.128403,0.392216,-0.585036,0.698149 HandRight:0.117208,-0.556255,0.010735,0.822635 HandTipLeft:0.000000,0.000000,0.000000,0.000000 HandTipRight:0.000000,0.000000,0.000000,0.000000 Head:0.000000,0.000000,0.000000,0.000000 HipLeft:0.069223,-0.674455,0.728697,-0.096533 HipRight:-0.199923,0.682658,0.672455,-0.204483 KneeLeft:0.057054,-0.637821,0.040087,0.767022 KneeRight:0.012211,0.769179,0.008717,0.638857 Neck:-0.083704,0.025313,0.994673,-0.054576 ShoulderLeft:0.049390,0.779282,-0.624297,-0.023079 ShoulderRight:-0.058404,0.782367,0.610625,-0.107836 SpineBase:-0.091723,0.027160,0.995289,-0.015771 SpineMid:-0.087280,0.027089,0.995689,-0.015892 SpineShoulder:-0.083240,0.026153,0.995607,-0.033979 ThumbLeft:0.000000,0.000000,0.000000,0.000000 ThumbRight:0.000000,0.000000,0.000000,0.000000 WristLeft:0.152314,0.475366,-0.433832,0.750079 WristRight:0.076972,-0.561115,-0.077392,0.820509 END:
KINECT_DATA POSITION:-0.394277,-1.903737,-3.369641 HEAD_JOINT1:0.980481,0.194734,0.000000,-0.027138 LARM_JOINT2:0.842977,0.000000,0.024170,-0.537406 LARM_JOINT3:0.854354,0.000000,-0.504018,0.126669 LLEG_JOINT2:0.999032,-0.015030,0.000000,0.041339 LLEG_JOINT4:0.995199,0.097617,0.000000,0.007069 RARM_JOINT2:0.847453,0.000000,-0.089037,0.523350 RARM_JOINT3:0.954860,0.000000,0.181525,0.235140 RLEG_JOINT2:0.999607,0.016342,0.000000,-0.022795 RLEG_JOINT4:0.992589,0.107498,0.000000,0.056670 WAIST:0.995871,-0.000000,0.087159,0.025364 WAIST_JOINT0:0.996309,-0.000000,0.085012,0.011858 WAIST_JOINT1:0.999187,0.040085,-0.000000,0.004411 END:
KINECT_DATA_Sensor  AnkleLeft:-0.018509,-0.663383,0.107107,0.740343 AnkleRight:0.122688,0.751089,0.056629,0.646224 ElbowLeft:0.145029,-0.509577,0.205122,0.822936 ElbowRight:0.000872,0.919032,0.226487,0.322620 FootLeft:0.000000,0.000000,0.000000,0.000000 FootRight:0.000000,0.000000,0.000000,0.000000 HandLeft:0.080124,0.289147,-0.630217,0.716101 HandRight:0.095686,-0.639546,0.034133,0.762011 HandTipLeft:0.000000,0.000000,0.000000,0.000000 HandTipRight:0.000000,0.000000,0.000000,0.000000 Head:0.000000,0.000000,0.000000,0.000000 HipLeft:0.071663,-0.672463,0.729853,-0.099862 HipRight:-0.197271,0.683900,0.672276,-0.203493 KneeLeft:0.056007,-0.641149,0.039896,0.764330 KneeRight:0.010975,0.766457,0.009229,0.642135 Neck:-0.083532,0.025472,0.994591,-0.056231 ShoulderLeft:0.053525,0.776751,-0.627069,-0.024037 ShoulderRight:-0.054134,0.782543,0.611053,-0.106350 SpineBase:-0.087510,0.027254,0.995650,-0.016744 SpineMid:-0.085062,0.027213,0.995862,-0.016810 SpineShoulder:-0.083067,0.026225,0.995572,-0.035348 ThumbLeft:0.000000,0.000000,0.000000,0.000000 ThumbRight:0.000000,0.000000,0.000000,0.000000 WristLeft:0.145515,0.390219,-0.501783,0.758135 WristRight:0.082548,-0.645125,-0.066739,0.756667 END:
KINECT_DATA POSITION:-0.203834,-1.698044,-3.358960 HEAD_JOINT1:0.979565,0.201036,0.000000,-0.006131 LARM_JOINT2:0.862502,0.000000,0.098846,-0.496306 LARM_JOINT3:0.796386,0.000000,-0.594256,-0.112378 LLEG_JOINT2:0.999279,-0.011858,0.000000,0.036077 LLEG_JOINT4:0.995174,0.097863,0.000000,0.007126 RARM_JOINT2:0.841603,0.000000,-0.091839,0.532231 RARM_JOINT3:0.957666,0.000000,0.180187,0.224518 RLEG_JOINT2:0.999488,0.014789,0.000000,-0.028382 RLEG_JOINT4:0.992646,0.107677,0.000000,0.055316 WAIST:0.996759,-0.000000,0.075210,0.028563 WAIST_JOINT0:0.996068,-0.000000,0.085109,0.024600 WAIST_JOINT1:0.999060,0.043335,-0.000000,0.000869 END:
KINECT_DATA_Sensor  AnkleLeft:-0.019900,-0.663497,0.108179,0.740049 AnkleRight:0.120336,0.751082,0.055138,0.646803 ElbowLeft:-0.076187,0.647936,-0.299389,-0.696233 ElbowRight:0.009117,0.910569,0.220017,0.349820 FootLeft:0.000000,0.000000,0.000000,0.000000 FootRight:0.000000,0.000000,0.000000,0.000000 HandLeft:0.142721,-0.185414,0.706967,-0.667421 HandRight:0.092575,-0.346612,0.015685,0.933298 HandTipLeft:0.000000,0.000000,0.000000,0.000000 HandTipRight:0.000000,0.000000,0.000000,0.000000 Head:0.000000,0.000000,0.000000,0.000000 HipLeft:0.078111,-0.668510,0.731559,-0.108693 HipRight:-0.189494,0.686652,0.672941,-0.199378 KneeLeft:0.052696,-0.650373,0.039780,0.756740 KneeRight:0.008314,0.758751,0.009514,0.651258 Neck:-0.084831,0.026001,0.994300,-0.059124 ShoulderLeft:0.065010,0.762010,-0.643716,-0.027292 ShoulderRight:-0.044754,0.784112,0.610334,-0.103235 SpineBase:-0.075734,0.027615,0.996562,-0.019151 SpineMid:-0.079763,0.027692,0.996247,-0.019039 SpineShoulder:-0.084359,0.026651,0.995359,-0.037870 ThumbLeft:0.000000,0.000000,0.000000,0.000000 ThumbRight:0.000000,0.000000,0.000000,0.000000 WristLeft:0.001185,0.369856,-0.453899,0.810667 WristRight:0.050166,-0.349981,-0.090450,0.931029 END:
KINECT_DATA POSITION:-0.042598,-1.349167,-3.516841 HEAD_JOINT1:0.978476,0.205650,-0.000000,0.017129 LARM_JOINT2:0.868748,0.000000,0.140069,-0.475034 LARM_JOINT3:0.780145,0.000000,-0.561434,-0.275980 LLEG_JOINT2:0.999356,-0.013866,0.000000,0.033084 LLEG_JOINT4:0.994714,0.102573,0.000000,0.004726 RARM_JOINT2:0.833816,0.000000,-0.099800,0.542946 RARM_JOINT3:0.961568,0.000000,0.177770,0.209247 RLEG_JOINT2:0.999397,0.017978,0.000000,-0.029694 RLEG_JOINT4:0.993399,0.102926,0.000000,0.050650 WAIST:0.997417,-0.000000,0.065077,0.030414 WAIST_JOINT0:0.996376,-0.000000,0.077974,0.033982 WAIST_JOINT1:0.998790,0.049047,0.000000,-0.003691 END:
KINECT_DATA_Sensor  AnkleLeft:-0.022761,-0.667420,0.107610,0.736514 AnkleRight:0.117103,0.747721,0.055056,0.651283 ElbowLeft:-0.026073,0.698882,-0.337712,-0.629948 ElbowRight:0.023033,0.900911,0.216337,0.375536 FootLeft:0.000000,0.000000,0.000000,0.000000 FootRight:0.000000,0.000000,0.000000,0.000000 HandLeft:-0.186594,0.279186,-0.406021,0.849933 HandRight:0.066897,-0.514468,0.034670,0.854193 HandTipLeft:0.000000,0.000000,0.000000,0.000000 HandTipRight:0.000000,0.000000,0.000000,0.000000 Head:0.000000,0.000000,0.000000,0.000000 HipLeft:0.081503,-0.666714,0.731550,-0.116981 HipRight:-0.179511,0.689283,0.673664,-0.197081 KneeLeft:0.053744,-0.657932,0.037171,0.750237 KneeRight:0.011042,0.752241,0.011584,0.658693 Neck:-0.079073,0.023177,0.994470,-0.065108 ShoulderLeft:0.073986,0.751127,-0.655538,-0.024577 ShoulderRight:-0.028147,0.785965,0.610149,-0.095833 SpineBase:-0.065848,0.026215,0.997204,-0.023694 SpineMid:-0.071910,0.026359,0.996785,-0.023534 SpineShoulder:-0.078593,0.024395,0.995680,-0.043004 ThumbLeft:0.000000,0.000000,0.000000,0.000000 ThumbRight:0.000000,0.000000,0.000000,0.000000 WristLeft:-0.082578,0.321460,-0.434182,0.837455 WristRight:0.053401,-0.518218,-0.073372,0.850420 END:
