EastLYD/RoboCupatHomeSim/InteractiveCleanUp/JapanOpen2016/Motion_Data/File25.dat
KINECT_DATA POSITION:24.555540,-2.768589,-9.864700 HEAD_JOINT1:0.974857,0.192014,-0.000000,0.113065 LARM_JOINT2:0.831071,0.000000,-0.033407,-0.555163 LARM_JOINT3:0.978256,0.000000,-0.127949,-0.163232 LLEG_JOINT2:0.997515,0.021033,0.000000,0.067237 LLEG_JOINT4:0.993215,0.105875,0.000000,-0.048106 RARM_JOINT2:0.795779,0.000000,-0.041770,0.604145 RARM_JOINT3:0.971940,0.000000,0.206021,0.113525 RLEG_JOINT2:0.998344,0.016688,0.000000,-0.055059 RLEG_JOINT4:0.994610,0.095998,0.000000,0.039182 WAIST:0.999895,0.000000,-0.014417,-0.001686 WAIST_JOINT0:0.998947,0.000000,-0.045248,0.007644 WAIST_JOINT1:0.997441,0.069905,0.000000,-0.014984 END:
KINECT_DATA_Sensor  AnkleLeft:-0.074450,-0.696207,0.103684,0.706401 AnkleRight:0.067407,0.678879,0.091601,0.725389 ElbowLeft:-0.028132,0.928406,-0.179942,-0.323869 ElbowRight:0.005704,0.818743,0.182292,0.544423 FootLeft:0.000000,0.000000,0.000000,0.000000 FootRight:0.000000,0.000000,0.000000,0.000000 HandLeft:-0.054855,0.849734,0.026173,0.523696 HandRight:-0.088993,0.665648,-0.087156,0.735797 HandTipLeft:0.000000,0.000000,0.000000,0.000000 HandTipRight:0.000000,0.000000,0.000000,0.000000 Head:0.000000,0.000000,0.000000,0.000000 HipLeft:0.119805,-0.682401,0.700597,-0.170705 HipRight:-0.102262,0.680698,0.705900,-0.167026 KneeLeft:-0.032331,0.716087,-0.060774,-0.694608 KneeRight:-0.027501,0.696804,0.052355,0.714820 Neck:0.044340,-0.018963,0.995210,-0.085039 ShoulderLeft:-0.014244,0.784929,-0.611214,0.100506 ShoulderRight:0.043604,0.792507,0.607637,-0.028429 SpineBase:0.013885,-0.013759,0.998721,-0.046624 SpineMid:0.028865,-0.014457,0.998401,-0.046413 SpineShoulder:0.044215,-0.017345,0.996779,-0.064620 ThumbLeft:0.000000,0.000000,0.000000,0.000000 ThumbRight:0.000000,0.000000,0.000000,0.000000 WristLeft:-0.067954,0.852347,-0.063674,0.514619 WristRight:-0.110900,0.660482,-0.039387,0.741562 END:
KINECT_DATA POSITION:24.589676,-2.760762,-9.764517 HEAD_JOINT1:0.975518,0.189487,-0.000000,0.111622 LARM_JOINT2:0.829001,0.000000,-0.033996,-0.558213 LARM_JOINT3:0.978936,0.000000,-0.125323,-0.161178 LLEG_JOINT2:0.997590,0.020249,0.000000,0.066359 LLEG_JOINT4:0.993255,0.105567,0.000000,-0.047966 RARM_JOINT2:0.795459,0.000000,-0.036976,0.604878 RARM_JOINT3:0.970114,0.000000,0.214064,0.114258 RLEG_JOINT2:0.998348,0.014444,0.000000,-0.055613 RLEG_JOINT4:0.994497,0.097887,0.000000,0.037324 WAIST:0.999896,0.000000,-0.014360,-0.001576 WAIST_JOINT0:0.999055,0.000000,-0.042772,0.007733 WAIST_JOINT1:0.997377,0.070953,0.000000,-0.014299 END:
KINECT_DATA_Sensor  AnkleLeft:0.078864,0.728530,-0.098901,-0.673233 AnkleRight:0.067061,0.690736,0.091893,0.714103 ElbowLeft:-0.028004,0.925924,-0.177280,-0.332344 ElbowRight:0.004125,0.819555,0.179659,0.544092 FootLeft:0.000000,0.000000,0.000000,0.000000 FootRight:0.000000,0.000000,0.000000,0.000000 HandLeft:-0.044772,0.856204,0.038952,0.513219 HandRight:-0.120532,0.774998,-0.094392,0.613140 HandTipLeft:0.000000,0.000000,0.000000,0.000000 HandTipRight:0.000000,0.000000,0.000000,0.000000 Head:0.000000,0.000000,0.000000,0.000000 HipLeft:0.118828,-0.682051,0.700856,-0.171722 HipRight:-0.101608,0.680576,0.705941,-0.167747 KneeLeft:-0.032329,0.716024,-0.059676,-0.694768 KneeRight:-0.029426,0.696814,0.051112,0.714823 Neck:0.041796,-0.018105,0.995258,-0.085949 ShoulderLeft:-0.009256,0.784113,-0.612822,0.097627 ShoulderRight:0.045387,0.791453,0.608822,-0.029638 SpineBase:0.013831,-0.013114,0.998668,-0.047949 SpineMid:0.027597,-0.013773,0.998382,-0.047763 SpineShoulder:0.041701,-0.016367,0.996828,-0.065785 ThumbLeft:0.000000,0.000000,0.000000,0.000000 ThumbRight:0.000000,0.000000,0.000000,0.000000 WristLeft:-0.068589,0.858758,-0.064141,0.503703 WristRight:-0.117785,0.775771,-0.024549,0.619437 END:
KINECT_DATA POSITION:24.558094,-2.773607,-9.637367 HEAD_JOINT1:0.976122,0.187900,-0.000000,0.108997 LARM_JOINT2:0.826574,0.000000,-0.033997,-0.561800 LARM_JOINT3:0.979676,0.000000,-0.125343,-0.156604 LLEG_JOINT2:0.997570,0.020961,0.000000,0.066436 LLEG_JOINT4:0.993202,0.106033,0.000000,-0.048029 RARM_JOINT2:0.795635,0.000000,-0.025951,0.605220 RARM_JOINT3:0.955737,0.000000,0.261155,0.135519 RLEG_JOINT2:0.998336,0.014431,0.000000,-0.055831 RLEG_JOINT4:0.994377,0.098681,0.000000,0.038423 WAIST:0.999938,0.000000,-0.011079,-0.001281 WAIST_JOINT0:0.999274,0.000000,-0.037016,0.008970 WAIST_JOINT1:0.997402,0.070629,0.000000,-0.014181 END:
KINECT_DATA_Sensor  AnkleLeft:0.079701,0.725283,-0.099774,-0.676504 AnkleRight:0.066897,0.683295,0.092727,0.721134 ElbowLeft:-0.027630,0.922376,-0.173521,-0.344019 ElbowRight:-0.001818,0.829105,0.174663,0.531107 FootLeft:0.000000,0.000000,0.000000,0.000000 FootRight:0.000000,0.000000,0.000000,0.000000 HandLeft:-0.042780,0.856598,0.038406,0.512772 HandRight:-0.177633,0.783479,-0.168044,0.571286 HandTipLeft:0.000000,0.000000,0.000000,0.000000 HandTipRight:0.000000,0.000000,0.000000,0.000000 Head:0.000000,0.000000,0.000000,0.000000 HipLeft:0.117193,-0.682350,0.701301,-0.169825 HipRight:-0.103886,0.680349,0.705367,-0.169678 KneeLeft:-0.031891,0.713756,-0.060559,-0.697042 KneeRight:-0.029543,0.699165,0.050956,0.712530 Neck:0.036020,-0.017710,0.995520,-0.085613 ShoulderLeft:-0.005255,0.784282,-0.613432,0.092606 ShoulderRight:0.041989,0.792367,0.607670,-0.033598 SpineBase:0.010538,-0.013092,0.998721,-0.047694 SpineMid:0.023061,-0.013689,0.998510,-0.047526 SpineShoulder:0.035916,-0.016016,0.997080,-0.065464 ThumbLeft:0.000000,0.000000,0.000000,0.000000 ThumbRight:0.000000,0.000000,0.000000,0.000000 WristLeft:-0.068985,0.858814,-0.065431,0.503387 WristRight:-0.137788,0.794031,-0.065917,0.588375 END:
KINECT_DATA POSITION:24.530407,-2.859579,-9.337198 HEAD_JOINT1:0.978879,0.178797,-0.000000,0.099131 LARM_JOINT2:0.823515,0.000000,-0.039587,-0.565912 LARM_JOINT3:0.979466,0.000000,-0.129215,-0.154757 LLEG_JOINT2:0.997564,0.021276,0.000000,0.066435 LLEG_JOINT4:0.993398,0.105120,0.000000,-0.045947 RARM_JOINT2:0.800691,0.000000,0.039359,0.597783 RARM_JOINT3:0.937310,0.000000,0.322833,0.131261 RLEG_JOINT2:0.998272,0.013150,0.000000,-0.057264 RLEG_JOINT4:0.993530,0.105231,0.000000,0.042725 WAIST:0.999989,0.000000,-0.004262,-0.001871 WAIST_JOINT0:0.999613,0.000000,-0.025471,0.011151 WAIST_JOINT1:0.997541,0.068923,0.000000,-0.012670 END:
KINECT_DATA_Sensor  AnkleLeft:0.078677,0.719125,-0.100113,-0.683115 AnkleRight:0.073297,0.700018,0.093982,0.704109 ElbowLeft:-0.030208,0.921323,-0.167397,-0.349613 ElbowRight:-0.050927,0.842053,0.152569,0.514855 FootLeft:0.000000,0.000000,0.000000,0.000000 FootRight:0.000000,0.000000,0.000000,0.000000 HandLeft:-0.066762,0.865188,0.033483,0.495854 HandRight:-0.207672,0.649636,-0.287927,0.672268 HandTipLeft:0.000000,0.000000,0.000000,0.000000 HandTipRight:0.000000,0.000000,0.000000,0.000000 Head:0.000000,0.000000,0.000000,0.000000 HipLeft:0.115485,-0.684087,0.701415,-0.163417 HipRight:-0.110481,0.679480,0.704925,-0.170823 KneeLeft:-0.030821,0.709138,-0.060593,-0.701785 KneeRight:-0.032227,0.703808,0.051290,0.707803 Neck:0.024388,-0.016630,0.996076,-0.083437 ShoulderLeft:0.002327,0.784761,-0.614382,0.081726 ShoulderRight:0.034642,0.794470,0.604935,-0.040870 SpineBase:0.003839,-0.013062,0.998950,-0.043747 SpineMid:0.013868,-0.013501,0.998861,-0.043614 SpineShoulder:0.024250,-0.015287,0.997544,-0.063902 ThumbLeft:0.000000,0.000000,0.000000,0.000000 ThumbRight:0.000000,0.000000,0.000000,0.000000 WristLeft:-0.074248,0.869104,-0.064243,0.484786 WristRight:-0.163419,0.660293,-0.180818,0.710360 END:
KINECT_DATA POSITION:24.613195,-2.905096,-9.022665 HEAD_JOINT1:0.981712,0.171725,-0.000000,0.082176 LARM_JOINT2:0.817477,0.000000,-0.033130,-0.575008 LARM_JOINT3:0.980525,0.000000,-0.129615,-0.147546 LLEG_JOINT2:0.997660,0.024818,0.000000,0.063704 LLEG_JOINT4:0.993890,0.102838,0.000000,-0.040084 RARM_JOINT2:0.819326,0.000000,0.132239,0.557870 RARM_JOINT3:0.939040,0.000000,0.324767,0.112831 RLEG_JOINT2:0.997982,0.014228,0.000000,-0.061876 RLEG_JOINT4:0.992906,0.106931,0.000000,0.052003 WAIST:0.999994,0.000000,0.001869,-0.002852 WAIST_JOINT0:0.999909,0.000000,-0.004567,0.012675 WAIST_JOINT1:0.998138,0.060485,0.000000,-0.007906 END:
KINECT_DATA_Sensor  AnkleLeft:-0.075317,-0.692128,0.104643,0.710166 AnkleRight:0.079122,0.717194,0.092150,0.686207 ElbowLeft:-0.033793,0.908660,-0.159580,-0.384356 ElbowRight:-0.134578,0.866122,0.137332,0.461369 FootLeft:0.000000,0.000000,0.000000,0.000000 FootRight:0.000000,0.000000,0.000000,0.000000 HandLeft:-0.047465,0.874339,0.033650,0.481815 HandRight:-0.088935,0.300725,-0.392949,0.864434 HandTipLeft:0.000000,0.000000,0.000000,0.000000 HandTipRight:0.000000,0.000000,0.000000,0.000000 Head:0.000000,0.000000,0.000000,0.000000 HipLeft:0.114451,-0.686137,0.701032,-0.157070 HipRight:-0.117866,0.678951,0.704413,-0.170106 KneeLeft:-0.025284,0.705275,-0.060668,-0.705880 KneeRight:-0.035733,0.707748,0.055809,0.703350 Neck:0.003833,-0.011240,0.997351,-0.071767 ShoulderLeft:0.007744,0.785768,-0.615242,0.063137 ShoulderRight:0.013424,0.797038,0.601272,-0.054963 SpineBase:-0.002074,-0.011162,0.999193,-0.038523 SpineMid:0.000669,-0.011268,0.999195,-0.038492 SpineShoulder:0.003677,-0.011176,0.998320,-0.056736 ThumbLeft:0.000000,0.000000,0.000000,0.000000 ThumbRight:0.000000,0.000000,0.000000,0.000000 WristLeft:-0.085616,0.874359,-0.069711,0.472554 WristRight:-0.081937,0.307376,-0.301330,0.898892 END:
KINECT_DATA POSITION:24.624304,-2.895839,-8.904171 HEAD_JOINT1:0.982291,0.175172,-0.000000,0.066479 LARM_JOINT2:0.814322,0.000000,-0.021806,-0.580003 LARM_JOINT3:0.980494,0.000000,-0.130326,-0.147127 LLEG_JOINT2:0.997845,0.024254,0.000000,0.060965 LLEG_JOINT4:0.994430,0.100277,0.000000,-0.032458 RARM_JOINT2:0.828013,0.000000,0.199906,0.523862 RARM_JOINT3:0.945668,0.000000,0.314434,0.082723 RLEG_JOINT2:0.997829,0.013883,0.000000,-0.064375 RLEG_JOINT4:0.992429,0.108951,0.000000,0.056696 WAIST:0.999965,0.000000,0.007806,-0.003036 WAIST_JOINT0:0.999666,-0.000000,0.020024,0.016341 WAIST_JOINT1:0.998508,0.054535,0.000000,-0.002824 END:
KINECT_DATA_Sensor  AnkleLeft:-0.071144,-0.693400,0.104912,0.709316 AnkleRight:0.081588,0.723742,0.091948,0.679034 ElbowLeft:-0.031317,0.900761,-0.160341,-0.402417 ElbowRight:-0.199756,0.861453,0.114386,0.452672 FootLeft:0.000000,0.000000,0.000000,0.000000 FootRight:0.000000,0.000000,0.000000,0.000000 HandLeft:-0.042619,0.841708,0.027768,0.537532 HandRight:-0.094008,0.285838,-0.392890,0.868963 HandTipLeft:0.000000,0.000000,0.000000,0.000000 HandTipRight:0.000000,0.000000,0.000000,0.000000 Head:0.000000,0.000000,0.000000,0.000000 HipLeft:0.112314,-0.687378,0.701233,-0.152212 HipRight:-0.124407,0.678807,0.703338,-0.170472 KneeLeft:0.023265,-0.701217,0.058350,0.710175 KneeRight:-0.038212,0.711663,0.057241,0.699141 Neck:-0.020416,-0.006030,0.997486,-0.067591 ShoulderLeft:0.011389,0.784847,-0.617889,0.045809 ShoulderRight:-0.014240,0.799374,0.595876,-0.075701 SpineBase:-0.007867,-0.008222,0.999320,-0.035062 SpineMid:-0.014239,-0.007998,0.999250,-0.035114 SpineShoulder:-0.020495,-0.005432,0.998505,-0.050383 ThumbLeft:0.000000,0.000000,0.000000,0.000000 ThumbRight:0.000000,0.000000,0.000000,0.000000 WristLeft:-0.081060,0.842074,-0.078246,0.527464 WristRight:-0.095781,0.286031,-0.357942,0.883680 END:
KINECT_DATA POSITION:24.630667,-2.873505,-8.930111 HEAD_JOINT1:0.982372,0.178177,-0.000000,0.056557 LARM_JOINT2:0.812637,0.000000,-0.017314,-0.582513 LARM_JOINT3:0.980332,0.000000,-0.133477,-0.145373 LLEG_JOINT2:0.998003,0.024085,0.000000,0.058390 LLEG_JOINT4:0.994454,0.101017,0.000000,-0.029270 RARM_JOINT2:0.827781,0.000000,0.239580,0.507327 RARM_JOINT3:0.955235,0.000000,0.290891,0.053932 RLEG_JOINT2:0.997730,0.014904,0.000000,-0.065678 RLEG_JOINT4:0.992407,0.109249,0.000000,0.056499 WAIST:0.999933,0.000000,0.011485,-0.001478 WAIST_JOINT0:0.999389,-0.000000,0.028915,0.019633 WAIST_JOINT1:0.998541,0.053979,0.000000,-0.001155 END:
KINECT_DATA_Sensor  AnkleLeft:-0.070336,-0.690135,0.106660,0.712313 AnkleRight:0.082545,0.728406,0.092830,0.673791 ElbowLeft:-0.028595,0.897241,-0.161915,-0.409785 ElbowRight:-0.231084,0.857423,0.093212,0.450263 FootLeft:0.000000,0.000000,0.000000,0.000000 FootRight:0.000000,0.000000,0.000000,0.000000 HandLeft:-0.047941,0.847469,0.016889,0.528406 HandRight:-0.113132,0.259173,-0.391505,0.875645 HandTipLeft:0.000000,0.000000,0.000000,0.000000 HandTipRight:0.000000,0.000000,0.000000,0.000000 Head:0.000000,0.000000,0.000000,0.000000 HipLeft:0.109095,-0.686831,0.703098,-0.148373 HipRight:-0.127062,0.679633,0.702170,-0.170030 KneeLeft:0.022465,-0.698591,0.057581,0.712846 KneeRight:-0.037533,0.714252,0.057649,0.696499 Neck:-0.029569,-0.002483,0.997245,-0.067989 ShoulderLeft:0.015474,0.782235,-0.621545,0.039377 ShoulderRight:-0.022038,0.800736,0.592788,-0.083301 SpineBase:-0.011546,-0.005369,0.999352,-0.033653 SpineMid:-0.020606,-0.005064,0.999207,-0.033700 SpineShoulder:-0.029633,-0.002194,0.998332,-0.049493 ThumbLeft:0.000000,0.000000,0.000000,0.000000 ThumbRight:0.000000,0.000000,0.000000,0.000000 WristLeft:-0.078712,0.847431,-0.078409,0.519151 WristRight:-0.101784,0.264376,-0.374626,0.882837 END:
KINECT_DATA POSITION:24.643135,-2.853840,-8.964384 HEAD_JOINT1:0.982220,0.179538,-0.000000,0.054863 LARM_JOINT2:0.812524,0.000000,-0.018129,-0.582646 LARM_JOINT3:0.980446,0.000000,-0.136929,-0.141336 LLEG_JOINT2:0.998115,0.023412,0.000000,0.056737 LLEG_JOINT4:0.994695,0.098684,0.000000,-0.029050 RARM_JOINT2:0.824304,0.000000,0.332915,0.457921 RARM_JOINT3:0.974341,0.000000,0.224662,0.013698 RLEG_JOINT2:0.997524,0.014465,0.000000,-0.068820 RLEG_JOINT4:0.992114,0.109752,0.000000,0.060531 WAIST:0.999891,0.000000,0.014740,-0.000574 WAIST_JOINT0:0.998979,-0.000000,0.039091,0.022649 WAIST_JOINT1:0.998530,0.054189,-0.000000,0.000880 END:
KINECT_DATA_Sensor  AnkleLeft:-0.068353,-0.684555,0.104329,0.718211 AnkleRight:0.082384,0.722075,0.092841,0.680589 ElbowLeft:-0.028356,0.898548,-0.164519,-0.405883 ElbowRight:-0.303617,0.853619,0.052506,0.419993 FootLeft:0.000000,0.000000,0.000000,0.000000 FootRight:0.000000,0.000000,0.000000,0.000000 HandLeft:-0.054240,0.847993,-0.009680,0.527136 HandRight:-0.215734,0.390785,-0.376182,0.811932 HandTipLeft:0.000000,0.000000,0.000000,0.000000 HandTipRight:0.000000,0.000000,0.000000,0.000000 Head:0.000000,0.000000,0.000000,0.000000 HipLeft:0.106020,-0.686763,0.704142,-0.145945 HipRight:-0.129275,0.680192,0.701134,-0.170405 KneeLeft:0.022247,-0.696260,0.056639,0.715205 KneeRight:-0.039641,0.716384,0.058765,0.694096 Neck:-0.039762,0.000919,0.996848,-0.068647 ShoulderLeft:0.016452,0.780649,-0.623720,0.035912 ShoulderRight:-0.034435,0.801795,0.588936,-0.095362 SpineBase:-0.014768,-0.002742,0.999337,-0.033165 SpineMid:-0.027251,-0.002328,0.999075,-0.033196 SpineShoulder:-0.039810,0.000855,0.997979,-0.049518 ThumbLeft:0.000000,0.000000,0.000000,0.000000 ThumbRight:0.000000,0.000000,0.000000,0.000000 WristLeft:-0.075504,0.846871,-0.078897,0.520465 WristRight:-0.196730,0.399302,-0.364119,0.818091 END:
KINECT_DATA POSITION:24.637518,-2.813416,-9.030855 HEAD_JOINT1:0.982155,0.180363,-0.000000,0.053292 LARM_JOINT2:0.813096,0.000000,-0.018287,-0.581842 LARM_JOINT3:0.979917,0.000000,-0.136741,-0.145134 LLEG_JOINT2:0.998198,0.024411,0.000000,0.054822 LLEG_JOINT4:0.995006,0.096142,0.000000,-0.026844 RARM_JOINT2:0.826478,0.000000,0.395323,0.400816 RARM_JOINT3:0.981212,0.000000,0.192790,0.007457 RLEG_JOINT2:0.997391,0.015580,0.000000,-0.070487 RLEG_JOINT4:0.992337,0.106647,0.000000,0.062402 WAIST:0.999825,-0.000000,0.018712,0.000768 WAIST_JOINT0:0.998357,-0.000000,0.051879,0.024343 WAIST_JOINT1:0.998519,0.054383,-0.000000,0.001620 END:
KINECT_DATA_Sensor  AnkleLeft:-0.068450,-0.695355,0.102885,0.707963 AnkleRight:0.081777,0.725950,0.090560,0.676837 ElbowLeft:-0.028974,0.896186,-0.167402,-0.409864 ElbowRight:-0.363003,0.862507,0.050769,0.348902 FootLeft:0.000000,0.000000,0.000000,0.000000 FootRight:0.000000,0.000000,0.000000,0.000000 HandLeft:-0.052949,0.840990,-0.000252,0.538454 HandRight:-0.231735,0.353037,-0.414489,0.806141 HandTipLeft:0.000000,0.000000,0.000000,0.000000 HandTipRight:0.000000,0.000000,0.000000,0.000000 Head:0.000000,0.000000,0.000000,0.000000 HipLeft:0.102967,-0.686477,0.705349,-0.143629 HipRight:-0.132094,0.680913,0.699565,-0.171808 KneeLeft:0.020917,-0.693421,0.056989,0.717971 KneeRight:-0.039348,0.719158,0.059623,0.691164 Neck:-0.052618,0.003405,0.996223,-0.068987 ShoulderLeft:0.016178,0.779496,-0.625344,0.032679 ShoulderRight:-0.051736,0.801433,0.585289,-0.111648 SpineBase:-0.018740,-0.000227,0.999284,-0.032866 SpineMid:-0.035570,0.000327,0.998827,-0.032865 SpineShoulder:-0.052656,0.003157,0.997376,-0.049584 ThumbLeft:0.000000,0.000000,0.000000,0.000000 ThumbRight:0.000000,0.000000,0.000000,0.000000 WristLeft:-0.074447,0.840677,-0.082655,0.529988 WristRight:-0.197363,0.369978,-0.391578,0.819043 END:
KINECT_DATA POSITION:24.636957,-2.801173,-9.068192 HEAD_JOINT1:0.981975,0.181341,-0.000000,0.053300 LARM_JOINT2:0.813318,0.000000,-0.018155,-0.581536 LARM_JOINT3:0.979851,0.000000,-0.136648,-0.145672 LLEG_JOINT2:0.998156,0.024315,0.000000,0.055614 LLEG_JOINT4:0.994712,0.098848,0.000000,-0.027892 RARM_JOINT2:0.826102,0.000000,0.408304,0.388385 RARM_JOINT3:0.983952,0.000000,0.177400,-0.019180 RLEG_JOINT2:0.997382,0.015956,0.000000,-0.070524 RLEG_JOINT4:0.992156,0.107293,0.000000,0.064143 WAIST:0.999769,-0.000000,0.021483,0.000234 WAIST_JOINT0:0.997939,-0.000000,0.059094,0.025022 WAIST_JOINT1:0.998503,0.054652,-0.000000,0.002408 END:
KINECT_DATA_Sensor  AnkleLeft:-0.071831,-0.697414,0.103438,0.705517 AnkleRight:0.081908,0.718877,0.091728,0.684173 ElbowLeft:-0.028581,0.894560,-0.168171,-0.413114 ElbowRight:-0.376402,0.855357,0.040300,0.353640 FootLeft:0.000000,0.000000,0.000000,0.000000 FootRight:0.000000,0.000000,0.000000,0.000000 HandLeft:-0.049418,0.858116,0.002626,0.511066 HandRight:-0.298899,0.349141,-0.426296,0.779122 HandTipLeft:0.000000,0.000000,0.000000,0.000000 HandTipRight:0.000000,0.000000,0.000000,0.000000 Head:0.000000,0.000000,0.000000,0.000000 HipLeft:0.100759,-0.687278,0.705162,-0.142276 HipRight:-0.133596,0.680398,0.699450,-0.173150 KneeLeft:0.020999,-0.691455,0.057175,0.719847 KneeRight:-0.039658,0.721022,0.060187,0.689153 Neck:-0.059935,0.003782,0.995787,-0.069299 ShoulderLeft:0.016774,0.778893,-0.626184,0.030611 ShoulderRight:-0.060847,0.800822,0.583464,-0.120628 SpineBase:-0.021451,0.000372,0.999222,-0.033102 SpineMid:-0.040539,0.001004,0.998629,-0.033089 SpineShoulder:-0.059980,0.003509,0.996949,-0.049838 ThumbLeft:0.000000,0.000000,0.000000,0.000000 ThumbRight:0.000000,0.000000,0.000000,0.000000 WristLeft:-0.077189,0.856860,-0.081130,0.503241 WristRight:-0.221532,0.388364,-0.387906,0.805994 END:
KINECT_DATA POSITION:24.657990,-2.816062,-9.096622 HEAD_JOINT1:0.981688,0.182641,-0.000000,0.054143 LARM_JOINT2:0.813830,0.000000,-0.018168,-0.580819 LARM_JOINT3:0.979640,0.000000,-0.140289,-0.143611 LLEG_JOINT2:0.998146,0.023542,0.000000,0.056134 LLEG_JOINT4:0.994946,0.096489,0.000000,-0.027782 RARM_JOINT2:0.824538,0.000000,0.422308,0.376554 RARM_JOINT3:0.986839,0.000000,0.155663,-0.043799 RLEG_JOINT2:0.997402,0.016932,0.000000,-0.070013 RLEG_JOINT4:0.992418,0.105591,0.000000,0.062912 WAIST:0.999724,-0.000000,0.023490,0.000069 WAIST_JOINT0:0.997700,-0.000000,0.062942,0.025176 WAIST_JOINT1:0.998476,0.055111,-0.000000,0.002791 END:
KINECT_DATA_Sensor  AnkleLeft:-0.068067,-0.686937,0.102454,0.716232 AnkleRight:0.084071,0.746235,0.088824,0.654352 ElbowLeft:-0.028737,0.892456,-0.169307,-0.417171 ElbowRight:-0.389944,0.822274,0.001825,0.414494 FootLeft:0.000000,0.000000,0.000000,0.000000 FootRight:0.000000,0.000000,0.000000,0.000000 HandLeft:-0.064584,0.881447,-0.005491,0.467814 HandRight:-0.301699,0.313026,-0.436203,0.787857 HandTipLeft:0.000000,0.000000,0.000000,0.000000 HandTipRight:0.000000,0.000000,0.000000,0.000000 Head:0.000000,0.000000,0.000000,0.000000 HipLeft:0.099151,-0.687647,0.705153,-0.141670 HipRight:-0.134689,0.680099,0.699200,-0.174484 KneeLeft:0.021688,-0.690001,0.056943,0.721239 KneeRight:-0.038850,0.722432,0.060576,0.687686 Neck:-0.063866,0.004063,0.995494,-0.069973 ShoulderLeft:0.017377,0.778374,-0.626859,0.029661 ShoulderRight:-0.065511,0.800054,0.582965,-0.125596 SpineBase:-0.023424,0.000926,0.999161,-0.033567 SpineMid:-0.043467,0.001599,0.998490,-0.033542 SpineShoulder:-0.063920,0.003715,0.996683,-0.050226 ThumbLeft:0.000000,0.000000,0.000000,0.000000 ThumbRight:0.000000,0.000000,0.000000,0.000000 WristLeft:-0.077691,0.880928,-0.079917,0.459938 WristRight:-0.237597,0.346103,-0.402368,0.813548 END:
KINECT_DATA POSITION:24.727339,-2.824831,-9.085691 HEAD_JOINT1:0.981020,0.185365,-0.000000,0.056911 LARM_JOINT2:0.814264,0.000000,-0.018941,-0.580186 LARM_JOINT3:0.978694,0.000000,-0.145846,-0.144526 LLEG_JOINT2:0.998171,0.024764,0.000000,0.055142 LLEG_JOINT4:0.995086,0.095694,0.000000,-0.025420 RARM_JOINT2:0.824295,0.000000,0.434360,0.363138 RARM_JOINT3:0.988005,0.000000,0.148226,-0.043295 RLEG_JOINT2:0.997352,0.018076,0.000000,-0.070440 RLEG_JOINT4:0.992569,0.103531,0.000000,0.063937 WAIST:0.999711,-0.000000,0.024026,0.000425 WAIST_JOINT0:0.997627,-0.000000,0.064138,0.025024 WAIST_JOINT1:0.998414,0.056228,-0.000000,0.002975 END:
KINECT_DATA_Sensor  AnkleLeft:-0.064929,-0.670561,0.105429,0.731449 AnkleRight:0.084011,0.746823,0.087536,0.653862 ElbowLeft:-0.028932,0.891613,-0.170620,-0.418423 ElbowRight:-0.400745,0.797566,-0.023628,0.450260 FootLeft:0.000000,0.000000,0.000000,0.000000 FootRight:0.000000,0.000000,0.000000,0.000000 HandLeft:-0.084093,0.872262,-0.012601,0.481589 HandRight:-0.276273,0.326672,-0.421990,0.799301 HandTipLeft:0.000000,0.000000,0.000000,0.000000 HandTipRight:0.000000,0.000000,0.000000,0.000000 Head:0.000000,0.000000,0.000000,0.000000 HipLeft:0.098647,-0.687322,0.705433,-0.142206 HipRight:-0.135200,0.680199,0.698836,-0.175153 KneeLeft:0.020336,-0.689651,0.057332,0.721582 KneeRight:-0.038146,0.722835,0.061429,0.687227 Neck:-0.065148,0.004746,0.995319,-0.071232 ShoulderLeft:0.017835,0.777985,-0.627300,0.030279 ShoulderRight:-0.066848,0.799354,0.583226,-0.128108 SpineBase:-0.023948,0.001900,0.999131,-0.034057 SpineMid:-0.044348,0.002595,0.998434,-0.034011 SpineShoulder:-0.065207,0.004247,0.996545,-0.051270 ThumbLeft:0.000000,0.000000,0.000000,0.000000 ThumbRight:0.000000,0.000000,0.000000,0.000000 WristLeft:-0.075508,0.874404,-0.082347,0.472160 WristRight:-0.254040,0.338453,-0.416579,0.804596 END:
KINECT_DATA POSITION:24.764807,-2.840117,-9.050453 HEAD_JOINT1:0.981015,0.185603,-0.000000,0.056216 LARM_JOINT2:0.814248,0.000000,-0.020025,-0.580171 LARM_JOINT3:0.979137,0.000000,-0.142490,-0.144874 LLEG_JOINT2:0.998176,0.023934,0.000000,0.055428 LLEG_JOINT4:0.994789,0.098533,0.000000,-0.026205 RARM_JOINT2:0.824934,0.000000,0.438370,0.356813 RARM_JOINT3:0.989156,0.000000,0.140068,-0.044172 RLEG_JOINT2:0.997352,0.018885,0.000000,-0.070235 RLEG_JOINT4:0.992500,0.104339,0.000000,0.063691 WAIST:0.999695,-0.000000,0.024712,0.000461 WAIST_JOINT0:0.997503,-0.000000,0.065954,0.025275 WAIST_JOINT1:0.998335,0.057585,-0.000000,0.003247 END:
KINECT_DATA_Sensor  AnkleLeft:-0.069610,-0.689236,0.104601,0.713560 AnkleRight:0.081536,0.720613,0.092001,0.682353 ElbowLeft:-0.028535,0.891305,-0.171055,-0.418929 ElbowRight:-0.405254,0.799748,-0.021766,0.442378 FootLeft:0.000000,0.000000,0.000000,0.000000 FootRight:0.000000,0.000000,0.000000,0.000000 HandLeft:-0.072843,0.848197,-0.008511,0.524579 HandRight:-0.291664,0.327094,-0.417212,0.796163 HandTipLeft:0.000000,0.000000,0.000000,0.000000 HandTipRight:0.000000,0.000000,0.000000,0.000000 Head:0.000000,0.000000,0.000000,0.000000 HipLeft:0.097750,-0.687246,0.705514,-0.142786 HipRight:-0.135364,0.680004,0.698707,-0.176294 KneeLeft:0.021123,-0.689142,0.057006,0.722072 KneeRight:-0.037454,0.723335,0.061823,0.686704 Neck:-0.067181,0.005073,0.995088,-0.072536 ShoulderLeft:0.019989,0.777504,-0.627852,0.029827 ShoulderRight:-0.067353,0.799147,0.582879,-0.130689 SpineBase:-0.024617,0.002329,0.999081,-0.035017 SpineMid:-0.045681,0.003067,0.998339,-0.034960 SpineShoulder:-0.067234,0.004631,0.996337,-0.052630 ThumbLeft:0.000000,0.000000,0.000000,0.000000 ThumbRight:0.000000,0.000000,0.000000,0.000000 WristLeft:-0.070386,0.850240,-0.086108,0.514512 WristRight:-0.259035,0.344392,-0.411822,0.802931 END:
KINECT_DATA POSITION:24.812693,-2.873024,-8.995891 HEAD_JOINT1:0.980885,0.186666,-0.000000,0.054958 LARM_JOINT2:0.813831,0.000000,-0.020650,-0.580735 LARM_JOINT3:0.979449,0.000000,-0.140113,-0.145082 LLEG_JOINT2:0.998267,0.023544,0.000000,0.053933 LLEG_JOINT4:0.994988,0.097138,0.000000,-0.023727 RARM_JOINT2:0.828576,0.000000,0.440571,0.345484 RARM_JOINT3:0.988388,0.000000,0.138289,-0.062967 RLEG_JOINT2:0.997435,0.019315,0.000000,-0.068927 RLEG_JOINT4:0.992611,0.105546,0.000000,0.059861 WAIST:0.999638,-0.000000,0.026898,0.000891 WAIST_JOINT0:0.997208,-0.000000,0.070146,0.025612 WAIST_JOINT1:0.998281,0.058507,-0.000000,0.003596 END:
KINECT_DATA_Sensor  AnkleLeft:-0.068617,-0.695164,0.103596,0.708030 AnkleRight:0.084865,0.749938,0.091335,0.649653 ElbowLeft:-0.027949,0.890057,-0.171298,-0.421514 ElbowRight:-0.412620,0.781765,-0.034054,0.466293 FootLeft:0.000000,0.000000,0.000000,0.000000 FootRight:0.000000,0.000000,0.000000,0.000000 HandLeft:-0.066802,0.847587,-0.001396,0.526432 HandRight:-0.316924,0.304170,-0.440055,0.783193 HandTipLeft:0.000000,0.000000,0.000000,0.000000 HandTipRight:0.000000,0.000000,0.000000,0.000000 Head:0.000000,0.000000,0.000000,0.000000 HipLeft:0.096116,-0.687070,0.705979,-0.142447 HipRight:-0.136584,0.679850,0.698128,-0.178231 KneeLeft:0.020560,-0.687568,0.055999,0.723665 KneeRight:-0.036043,0.724918,0.060847,0.685196 Neck:-0.071485,0.005924,0.994719,-0.073407 ShoulderLeft:0.022206,0.777092,-0.628368,0.028100 ShoulderRight:-0.070840,0.798639,0.582058,-0.135523 SpineBase:-0.026805,0.002943,0.998995,-0.035813 SpineMid:-0.048909,0.003735,0.998157,-0.035739 SpineShoulder:-0.071538,0.005399,0.995986,-0.053534 ThumbLeft:0.000000,0.000000,0.000000,0.000000 ThumbRight:0.000000,0.000000,0.000000,0.000000 WristLeft:-0.068769,0.849553,-0.086788,0.515751 WristRight:-0.268961,0.330068,-0.421092,0.800872 END:
KINECT_DATA POSITION:24.847977,-2.905716,-8.938206 HEAD_JOINT1:0.980604,0.188142,-0.000000,0.054946 LARM_JOINT2:0.813342,0.000000,-0.019766,-0.581450 LARM_JOINT3:0.979479,0.000000,-0.139614,-0.145357 LLEG_JOINT2:0.998287,0.025172,0.000000,0.052814 LLEG_JOINT4:0.995183,0.095167,0.000000,-0.023543 RARM_JOINT2:0.835113,0.000000,0.432214,0.340261 RARM_JOINT3:0.986686,0.000000,0.141926,-0.079416 RLEG_JOINT2:0.997247,0.020623,0.000000,-0.071227 RLEG_JOINT4:0.992585,0.103977,0.000000,0.062953 WAIST:0.999555,-0.000000,0.029798,0.001606 WAIST_JOINT0:0.996810,-0.000000,0.075207,0.026717 WAIST_JOINT1:0.998267,0.058713,-0.000000,0.003846 END:
KINECT_DATA_Sensor  AnkleLeft:0.070153,0.702628,-0.102067,-0.700696 AnkleRight:0.081298,0.722057,0.094011,0.680578 ElbowLeft:-0.026966,0.887938,-0.171797,-0.425823 ElbowRight:-0.413819,0.755523,-0.046310,0.505761 FootLeft:0.000000,0.000000,0.000000,0.000000 FootRight:0.000000,0.000000,0.000000,0.000000 HandLeft:-0.063174,0.857694,0.002774,0.510257 HandRight:-0.254506,0.150521,-0.484358,0.823388 HandTipLeft:0.000000,0.000000,0.000000,0.000000 HandTipRight:0.000000,0.000000,0.000000,0.000000 Head:0.000000,0.000000,0.000000,0.000000 HipLeft:0.094171,-0.686802,0.706722,-0.141345 HipRight:-0.138466,0.679851,0.697277,-0.180095 KneeLeft:0.018947,-0.685483,0.056863,0.725617 KneeRight:-0.036483,0.726905,0.062770,0.682890 Neck:-0.076699,0.006930,0.994313,-0.073553 ShoulderLeft:0.023998,0.776432,-0.629222,0.025638 ShoulderRight:-0.075992,0.798684,0.580069,-0.140887 SpineBase:-0.029713,0.003937,0.998896,-0.036159 SpineMid:-0.052936,0.004777,0.997935,-0.036057 SpineShoulder:-0.076750,0.006306,0.995583,-0.053710 ThumbLeft:0.000000,0.000000,0.000000,0.000000 ThumbRight:0.000000,0.000000,0.000000,0.000000 WristLeft:-0.069699,0.859091,-0.086147,0.499683 WristRight:-0.205735,0.178898,-0.477317,0.835367 END:
KINECT_DATA POSITION:24.850407,-2.920828,-8.890379 HEAD_JOINT1:0.980585,0.188537,-0.000000,0.053924 LARM_JOINT2:0.812721,0.000000,-0.018420,-0.582362 LARM_JOINT3:0.979562,0.000000,-0.138573,-0.145793 LLEG_JOINT2:0.998301,0.024664,0.000000,0.052788 LLEG_JOINT4:0.995312,0.093808,0.000000,-0.023553 RARM_JOINT2:0.837584,0.000000,0.441697,0.321491 RARM_JOINT3:0.992131,0.000000,0.108673,-0.062177 RLEG_JOINT2:0.997216,0.021453,0.000000,-0.071420 RLEG_JOINT4:0.992688,0.102520,0.000000,0.063720 WAIST:0.999510,-0.000000,0.031258,0.001522 WAIST_JOINT0:0.996653,-0.000000,0.077030,0.027382 WAIST_JOINT1:0.998255,0.058863,-0.000000,0.004709 END:
KINECT_DATA_Sensor  AnkleLeft:-0.063465,-0.663096,0.104221,0.738522 AnkleRight:0.085259,0.753449,0.089535,0.645778 ElbowLeft:-0.025751,0.886478,-0.172017,-0.428839 ElbowRight:-0.429277,0.752771,-0.048779,0.496666 FootLeft:0.000000,0.000000,0.000000,0.000000 FootRight:0.000000,0.000000,0.000000,0.000000 HandLeft:-0.061603,0.852986,0.007096,0.518237 HandRight:-0.148763,-0.039648,-0.506037,0.848660 HandTipLeft:0.000000,0.000000,0.000000,0.000000 HandTipRight:0.000000,0.000000,0.000000,0.000000 Head:0.000000,0.000000,0.000000,0.000000 HipLeft:0.092942,-0.686876,0.706895,-0.140935 HipRight:-0.139326,0.679508,0.697216,-0.180961 KneeLeft:0.019160,-0.684435,0.056462,0.726632 KneeRight:-0.036204,0.727904,0.063513,0.681771 Neck:-0.078743,0.007690,0.994143,-0.073621 ShoulderLeft:0.025899,0.775881,-0.629892,0.023942 ShoulderRight:-0.076747,0.799069,0.579100,-0.142275 SpineBase:-0.031139,0.004580,0.998837,-0.036522 SpineMid:-0.054660,0.005439,0.997826,-0.036404 SpineShoulder:-0.078787,0.007028,0.995410,-0.053878 ThumbLeft:0.000000,0.000000,0.000000,0.000000 ThumbRight:0.000000,0.000000,0.000000,0.000000 WristLeft:-0.067265,0.854967,-0.086884,0.506909 WristRight:-0.112665,-0.019617,-0.498109,0.859540 END:
KINECT_DATA POSITION:24.835617,-2.920133,-8.902764 HEAD_JOINT1:0.980354,0.189738,-0.000000,0.053896 LARM_JOINT2:0.812416,0.000000,-0.017900,-0.582803 LARM_JOINT3:0.978670,0.000000,-0.142507,-0.147976 LLEG_JOINT2:0.998298,0.024378,0.000000,0.052988 LLEG_JOINT4:0.995172,0.095183,0.000000,-0.023933 RARM_JOINT2:0.843362,0.000000,0.426411,0.326977 RARM_JOINT3:0.990143,0.000000,0.121038,-0.070476 RLEG_JOINT2:0.997208,0.021477,0.000000,-0.071516 RLEG_JOINT4:0.992425,0.104502,0.000000,0.064595 WAIST:0.999511,-0.000000,0.031227,0.001381 WAIST_JOINT0:0.996665,-0.000000,0.076761,0.027675 WAIST_JOINT1:0.998251,0.058872,-0.000000,0.005383 END:
KINECT_DATA_Sensor  AnkleLeft:-0.064487,-0.663089,0.104738,0.738366 AnkleRight:0.079216,0.695936,0.097471,0.707034 ElbowLeft:-0.025497,0.886085,-0.172178,-0.429603 ElbowRight:-0.423536,0.745516,-0.041240,0.512954 FootLeft:0.000000,0.000000,0.000000,0.000000 FootRight:0.000000,0.000000,0.000000,0.000000 HandLeft:-0.074745,0.870735,0.009011,0.485956 HandRight:-0.157216,-0.053717,-0.503062,0.848131 HandTipLeft:0.000000,0.000000,0.000000,0.000000 HandTipRight:0.000000,0.000000,0.000000,0.000000 Head:0.000000,0.000000,0.000000,0.000000 HipLeft:0.092734,-0.686926,0.706837,-0.141117 HipRight:-0.139241,0.679419,0.697332,-0.180911 KneeLeft:0.019408,-0.684466,0.056313,0.726608 KneeRight:-0.036355,0.727861,0.063697,0.681791 Neck:-0.078635,0.008256,0.994152,-0.073555 ShoulderLeft:0.025985,0.775466,-0.630396,0.024024 ShoulderRight:-0.076563,0.799313,0.578829,-0.142106 SpineBase:-0.031087,0.004852,0.998831,-0.036697 SpineMid:-0.054582,0.005714,0.997823,-0.036573 SpineShoulder:-0.078672,0.007547,0.995413,-0.053905 ThumbLeft:0.000000,0.000000,0.000000,0.000000 ThumbRight:0.000000,0.000000,0.000000,0.000000 WristLeft:-0.071493,0.873724,-0.084088,0.473735 WristRight:-0.111999,-0.027096,-0.505098,0.855335 END:
KINECT_DATA POSITION:24.815678,-2.923327,-8.944977 HEAD_JOINT1:0.980182,0.190572,-0.000000,0.054086 LARM_JOINT2:0.812585,0.000000,-0.017132,-0.582591 LARM_JOINT3:0.979124,0.000000,-0.141184,-0.146227 LLEG_JOINT2:0.998296,0.023972,0.000000,0.053211 LLEG_JOINT4:0.995152,0.096129,0.000000,-0.020794 RARM_JOINT2:0.845819,0.000000,0.429939,0.315821 RARM_JOINT3:0.994026,0.000000,0.088330,-0.064117 RLEG_JOINT2:0.997197,0.022474,0.000000,-0.071366 RLEG_JOINT4:0.992594,0.103315,0.000000,0.063905 WAIST:0.999528,-0.000000,0.030693,0.001358 WAIST_JOINT0:0.996809,-0.000000,0.074820,0.027822 WAIST_JOINT1:0.998254,0.058813,-0.000000,0.005488 END:
KINECT_DATA_Sensor  AnkleLeft:-0.062686,-0.664676,0.107427,0.736706 AnkleRight:0.083001,0.726550,0.094048,0.675567 ElbowLeft:-0.025424,0.885697,-0.172690,-0.430200 ElbowRight:-0.431718,0.727808,-0.052421,0.530251 FootLeft:0.000000,0.000000,0.000000,0.000000 FootRight:0.000000,0.000000,0.000000,0.000000 HandLeft:-0.063039,0.885394,0.007471,0.460486 HandRight:-0.258236,0.074117,-0.454669,0.849174 HandTipLeft:0.000000,0.000000,0.000000,0.000000 HandTipRight:0.000000,0.000000,0.000000,0.000000 Head:0.000000,0.000000,0.000000,0.000000 HipLeft:0.092864,-0.686886,0.706790,-0.141465 HipRight:-0.138801,0.679506,0.697423,-0.180572 KneeLeft:0.019870,-0.684848,0.056172,0.726246 KneeRight:-0.035539,0.727538,0.064358,0.682117 Neck:-0.076799,0.008255,0.994302,-0.073466 ShoulderLeft:0.025881,0.775380,-0.630485,0.024575 ShoulderRight:-0.074190,0.799925,0.578846,-0.139831 SpineBase:-0.030547,0.004980,0.998843,-0.036815 SpineMid:-0.053399,0.005821,0.997882,-0.036691 SpineShoulder:-0.076828,0.007595,0.995559,-0.053865 ThumbLeft:0.000000,0.000000,0.000000,0.000000 ThumbRight:0.000000,0.000000,0.000000,0.000000 WristLeft:-0.074298,0.885806,-0.082356,0.450605 WristRight:-0.213355,0.099766,-0.461110,0.855514 END:
KINECT_DATA POSITION:24.806503,-2.905958,-8.989334 HEAD_JOINT1:0.980108,0.190404,-0.000000,0.055994 LARM_JOINT2:0.812698,0.000000,-0.016144,-0.582461 LARM_JOINT3:0.978024,0.000000,-0.145631,-0.149198 LLEG_JOINT2:0.998325,0.023253,0.000000,0.052980 LLEG_JOINT4:0.995106,0.096340,0.000000,-0.021980 RARM_JOINT2:0.850762,0.000000,0.424423,0.309950 RARM_JOINT3:0.994576,0.000000,0.085690,-0.058958 RLEG_JOINT2:0.997238,0.022009,0.000000,-0.070936 RLEG_JOINT4:0.992754,0.102083,0.000000,0.063400 WAIST:0.999582,-0.000000,0.028876,0.001100 WAIST_JOINT0:0.997128,-0.000000,0.070554,0.027527 WAIST_JOINT1:0.998282,0.058303,-0.000000,0.005880 END:
KINECT_DATA_Sensor  AnkleLeft:-0.066948,-0.691261,0.103736,0.711979 AnkleRight:0.082362,0.729953,0.092400,0.672195 ElbowLeft:-0.025665,0.886174,-0.173053,-0.429056 ElbowRight:-0.437110,0.724286,-0.043932,0.531427 FootLeft:0.000000,0.000000,0.000000,0.000000 FootRight:0.000000,0.000000,0.000000,0.000000 HandLeft:-0.081872,0.846177,0.003727,0.526561 HandRight:-0.097988,-0.210075,-0.510236,0.828206 HandTipLeft:0.000000,0.000000,0.000000,0.000000 HandTipRight:0.000000,0.000000,0.000000,0.000000 Head:0.000000,0.000000,0.000000,0.000000 HipLeft:0.093842,-0.686895,0.706488,-0.142281 HipRight:-0.137805,0.679734,0.697799,-0.179020 KneeLeft:0.020156,-0.686184,0.055294,0.725043 KneeRight:-0.035614,0.726268,0.063971,0.683502 Neck:-0.072546,0.008225,0.994663,-0.072903 ShoulderLeft:0.024491,0.775571,-0.630243,0.026151 ShoulderRight:-0.069925,0.800575,0.579637,-0.134947 SpineBase:-0.028703,0.005355,0.998906,-0.036533 SpineMid:-0.050352,0.006146,0.998049,-0.036408 SpineShoulder:-0.072553,0.007723,0.995905,-0.053390 ThumbLeft:0.000000,0.000000,0.000000,0.000000 ThumbRight:0.000000,0.000000,0.000000,0.000000 WristLeft:-0.068795,0.851008,-0.087435,0.513233 WristRight:-0.062794,-0.191439,-0.503375,0.840251 END:
KINECT_DATA POSITION:24.751896,-2.873202,-9.085215 HEAD_JOINT1:0.979662,0.191434,-0.000000,0.060127 LARM_JOINT2:0.813159,0.000000,-0.015161,-0.581844 LARM_JOINT3:0.976886,0.000000,-0.150380,-0.151917 LLEG_JOINT2:0.998341,0.023902,0.000000,0.052380 LLEG_JOINT4:0.994999,0.097432,0.000000,-0.021989 RARM_JOINT2:0.851194,0.000000,0.422436,0.311475 RARM_JOINT3:0.993889,0.000000,0.094478,-0.057085 RLEG_JOINT2:0.997305,0.019217,0.000000,-0.070802 RLEG_JOINT4:0.992500,0.104564,0.000000,0.063330 WAIST:0.999680,-0.000000,0.025248,0.001290 WAIST_JOINT0:0.997518,-0.000000,0.065336,0.026235 WAIST_JOINT1:0.998315,0.057776,-0.000000,0.005468 END:
KINECT_DATA_Sensor  AnkleLeft:0.069191,0.700795,-0.104143,-0.702320 AnkleRight:0.082018,0.722663,0.092294,0.680083 ElbowLeft:-0.026125,0.887940,-0.173605,-0.425138 ElbowRight:-0.436666,0.725033,-0.038764,0.531175 FootLeft:0.000000,0.000000,0.000000,0.000000 FootRight:0.000000,0.000000,0.000000,0.000000 HandLeft:-0.095863,0.857347,0.003475,0.505722 HandRight:-0.100186,-0.178929,-0.508076,0.836544 HandTipLeft:0.000000,0.000000,0.000000,0.000000 HandTipRight:0.000000,0.000000,0.000000,0.000000 Head:0.000000,0.000000,0.000000,0.000000 HipLeft:0.095824,-0.686583,0.706234,-0.143717 HipRight:-0.135435,0.680694,0.698047,-0.176193 KneeLeft:0.019602,-0.688816,0.055369,0.722553 KneeRight:-0.037088,0.723686,0.061847,0.686351 Neck:-0.067262,0.007962,0.995077,-0.072344 ShoulderLeft:0.021065,0.776002,-0.629691,0.029456 ShoulderRight:-0.066496,0.800212,0.581625,-0.130197 SpineBase:-0.025090,0.005598,0.999018,-0.036073 SpineMid:-0.045898,0.006348,0.998279,-0.035949 SpineShoulder:-0.067247,0.007650,0.996306,-0.052858 ThumbLeft:0.000000,0.000000,0.000000,0.000000 ThumbRight:0.000000,0.000000,0.000000,0.000000 WristLeft:-0.073497,0.863430,-0.084701,0.491847 WristRight:-0.078075,-0.167599,-0.502243,0.844729 END:
KINECT_DATA POSITION:24.309799,-2.866932,-9.223580 HEAD_JOINT1:0.978547,0.190637,-0.000000,0.078123 LARM_JOINT2:0.815829,0.000000,-0.022743,-0.577846 LARM_JOINT3:0.974539,0.000000,-0.152432,-0.164430 LLEG_JOINT2:0.998344,0.021315,0.000000,0.053431 LLEG_JOINT4:0.994846,0.099352,0.000000,-0.020284 RARM_JOINT2:0.847629,0.000000,0.422644,0.320775 RARM_JOINT3:0.991015,0.000000,0.118073,-0.062827 RLEG_JOINT2:0.997380,0.022656,0.000000,-0.068707 RLEG_JOINT4:0.993346,0.095778,0.000000,0.063962 WAIST:0.999838,-0.000000,0.017927,0.001695 WAIST_JOINT0:0.998388,-0.000000,0.050975,0.024949 WAIST_JOINT1:0.998276,0.058634,-0.000000,0.002654 END:
KINECT_DATA_Sensor  AnkleLeft:-0.064553,-0.697447,0.107303,0.705611 AnkleRight:0.079763,0.707724,0.087025,0.696557 ElbowLeft:-0.028198,0.902999,-0.174082,-0.391782 ElbowRight:-0.430077,0.727694,-0.034639,0.533194 FootLeft:0.000000,0.000000,0.000000,0.000000 FootRight:0.000000,0.000000,0.000000,0.000000 HandLeft:-0.123826,0.842709,0.011953,0.523800 HandRight:-0.312638,0.245843,-0.418293,0.816608 HandTipLeft:0.000000,0.000000,0.000000,0.000000 HandTipRight:0.000000,0.000000,0.000000,0.000000 Head:0.000000,0.000000,0.000000,0.000000 HipLeft:0.099772,-0.685482,0.705943,-0.147665 HipRight:-0.129747,0.681797,0.698904,-0.172778 KneeLeft:0.022888,-0.693964,0.054477,0.717581 KneeRight:-0.032427,0.718922,0.062862,0.691482 Neck:-0.052445,0.005298,0.995921,-0.073231 ShoulderLeft:0.011869,0.777064,-0.627944,0.041450 ShoulderRight:-0.056426,0.800272,0.584960,-0.119174 SpineBase:-0.017870,0.003956,0.999152,-0.036882 SpineMid:-0.034926,0.004585,0.998701,-0.036809 SpineShoulder:-0.052427,0.005323,0.997162,-0.053764 ThumbLeft:0.000000,0.000000,0.000000,0.000000 ThumbRight:0.000000,0.000000,0.000000,0.000000 WristLeft:-0.078398,0.854350,-0.076932,0.507957 WristRight:-0.299915,0.253111,-0.418671,0.818963 END:
KINECT_DATA POSITION:23.531128,-2.944120,-9.200085 HEAD_JOINT1:0.977269,0.186984,-0.000000,0.099907 LARM_JOINT2:0.817336,0.000000,-0.040020,-0.574770 LARM_JOINT3:0.972373,0.000000,-0.151766,-0.177364 LLEG_JOINT2:0.998119,0.020816,0.000000,0.057660 LLEG_JOINT4:0.994498,0.102572,0.000000,-0.021301 RARM_JOINT2:0.843326,0.000000,0.423456,0.330887 RARM_JOINT3:0.989388,0.000000,0.124482,-0.074941 RLEG_JOINT2:0.997536,0.022391,0.000000,-0.066480 RLEG_JOINT4:0.993110,0.095249,0.000000,0.068268 WAIST:0.999952,-0.000000,0.009679,0.001722 WAIST_JOINT0:0.999327,-0.000000,0.029185,0.022230 WAIST_JOINT1:0.998217,0.059689,-0.000000,0.000571 END:
KINECT_DATA_Sensor  AnkleLeft:0.062858,0.698932,-0.112334,-0.703508 AnkleRight:0.083958,0.696280,0.081930,0.708119 ElbowLeft:-0.033829,0.924436,-0.171172,-0.339078 ElbowRight:-0.421792,0.720430,-0.039041,0.549134 FootLeft:0.000000,0.000000,0.000000,0.000000 FootRight:0.000000,0.000000,0.000000,0.000000 HandLeft:-0.144706,0.847929,0.015052,0.509756 HandRight:-0.301786,0.190187,-0.435729,0.826374 HandTipLeft:0.000000,0.000000,0.000000,0.000000 HandTipRight:0.000000,0.000000,0.000000,0.000000 Head:0.000000,0.000000,0.000000,0.000000 HipLeft:0.105039,-0.684165,0.705252,-0.153314 HipRight:-0.124932,0.682375,0.699897,-0.170002 KneeLeft:0.026659,-0.699708,0.056989,0.711653 KneeRight:-0.030478,0.713286,0.061367,0.697516 Neck:-0.030433,0.002497,0.996764,-0.074353 ShoulderLeft:-0.003608,0.779278,-0.623794,0.059949 ShoulderRight:-0.043328,0.801177,0.587816,-0.103489 SpineBase:-0.009687,0.002724,0.999232,-0.037873 SpineMid:-0.019884,0.003111,0.999081,-0.037843 SpineShoulder:-0.030381,0.003091,0.998026,-0.054883 ThumbLeft:0.000000,0.000000,0.000000,0.000000 ThumbRight:0.000000,0.000000,0.000000,0.000000 WristLeft:-0.093414,0.860583,-0.059242,0.497153 WristRight:-0.274698,0.206322,-0.440457,0.829439 END:
KINECT_DATA POSITION:22.716766,-3.096022,-9.011674 HEAD_JOINT1:0.977171,0.178019,-0.000000,0.115955 LARM_JOINT2:0.821328,0.000000,-0.045261,-0.568658 LARM_JOINT3:0.971667,0.000000,-0.147299,-0.184839 LLEG_JOINT2:0.997789,0.024127,0.000000,0.061924 LLEG_JOINT4:0.994537,0.101477,0.000000,-0.024479 RARM_JOINT2:0.838959,0.000000,0.431668,0.331375 RARM_JOINT3:0.989003,0.000000,0.126433,-0.076735 RLEG_JOINT2:0.997811,0.024510,0.000000,-0.061427 RLEG_JOINT4:0.993497,0.094370,0.000000,0.063705 WAIST:0.999997,0.000000,-0.000002,0.002472 WAIST_JOINT0:0.999654,-0.000000,0.013884,0.022325 WAIST_JOINT1:0.998203,0.059900,0.000000,-0.001780 END:
KINECT_DATA_Sensor  AnkleLeft:0.061853,0.703801,-0.115871,-0.698150 AnkleRight:0.089599,0.716973,0.077762,0.686931 ElbowLeft:-0.037681,0.933934,-0.175142,-0.309311 ElbowRight:-0.422812,0.719479,-0.040302,0.549505 FootLeft:0.000000,0.000000,0.000000,0.000000 FootRight:0.000000,0.000000,0.000000,0.000000 HandLeft:-0.135647,0.856984,0.022556,0.496658 HandRight:-0.283785,0.151625,-0.456069,0.829745 HandTipLeft:0.000000,0.000000,0.000000,0.000000 HandTipRight:0.000000,0.000000,0.000000,0.000000 Head:0.000000,0.000000,0.000000,0.000000 HipLeft:0.111369,-0.682237,0.704902,-0.158943 HipRight:-0.119631,0.683724,0.700552,-0.165639 KneeLeft:-0.028377,0.706443,-0.062633,-0.704421 KneeRight:-0.024270,0.706785,0.059060,0.704541 Neck:-0.015256,0.000856,0.997099,-0.074571 ShoulderLeft:-0.015474,0.781027,-0.620054,0.072743 ShoulderRight:-0.035544,0.804591,0.585536,-0.092287 SpineBase:-0.000112,0.001967,0.999274,-0.038037 SpineMid:-0.007516,0.002249,0.999246,-0.038021 SpineShoulder:-0.015176,0.001828,0.998362,-0.055129 ThumbLeft:0.000000,0.000000,0.000000,0.000000 ThumbRight:0.000000,0.000000,0.000000,0.000000 WristLeft:-0.097288,0.867584,-0.052022,0.484899 WristRight:-0.254552,0.168205,-0.454553,0.836834 END:
KINECT_DATA POSITION:22.362185,-3.172978,-8.735907 HEAD_JOINT1:0.976028,0.174807,-0.000000,0.129659 LARM_JOINT2:0.822363,0.000000,-0.045878,-0.567111 LARM_JOINT3:0.971117,0.000000,-0.149656,-0.185834 LLEG_JOINT2:0.997793,0.025652,0.000000,0.061252 LLEG_JOINT4:0.994311,0.103546,0.000000,-0.024989 RARM_JOINT2:0.837960,0.000000,0.431091,0.334639 RARM_JOINT3:0.988718,0.000000,0.127198,-0.079109 RLEG_JOINT2:0.997756,0.027105,0.000000,-0.061222 RLEG_JOINT4:0.993488,0.094585,0.000000,0.063531 WAIST:0.999965,0.000000,-0.007174,0.004381 WAIST_JOINT0:0.999732,-0.000000,0.003960,0.022812 WAIST_JOINT1:0.998268,0.058698,0.000000,-0.003941 END:
KINECT_DATA_Sensor  AnkleLeft:0.061429,0.698581,-0.120194,-0.702684 AnkleRight:0.092677,0.704194,0.078663,0.699524 ElbowLeft:-0.041238,0.935561,-0.175726,-0.303555 ElbowRight:-0.421205,0.714534,-0.039601,0.557189 FootLeft:0.000000,0.000000,0.000000,0.000000 FootRight:0.000000,0.000000,0.000000,0.000000 HandLeft:-0.128125,0.547481,-0.043279,0.825818 HandRight:-0.311372,0.180471,-0.436258,0.824716 HandTipLeft:0.000000,0.000000,0.000000,0.000000 HandTipRight:0.000000,0.000000,0.000000,0.000000 Head:0.000000,0.000000,0.000000,0.000000 HipLeft:0.116647,-0.680136,0.705352,-0.162130 HipRight:-0.116392,0.685917,0.699975,-0.161265 KneeLeft:-0.028605,0.711385,-0.064403,-0.699261 KneeRight:-0.020483,0.701926,0.059571,0.709458 Neck:-0.005257,0.000671,0.997292,-0.073351 ShoulderLeft:-0.023893,0.782110,-0.617514,0.080056 ShoulderRight:-0.031127,0.807026,0.583711,-0.083794 SpineBase:0.006922,0.002315,0.999295,-0.036828 SpineMid:0.001010,0.002533,0.999318,-0.036814 SpineShoulder:-0.005146,0.001854,0.998527,-0.053972 ThumbLeft:0.000000,0.000000,0.000000,0.000000 ThumbRight:0.000000,0.000000,0.000000,0.000000 WristLeft:-0.068167,0.551753,-0.092295,0.826077 WristRight:-0.276764,0.201446,-0.444067,0.828025 END:
KINECT_DATA POSITION:22.083979,-3.258650,-8.512318 HEAD_JOINT1:0.974619,0.174632,-0.000000,0.140076 LARM_JOINT2:0.823188,0.000000,-0.051190,-0.565457 LARM_JOINT3:0.970980,0.000000,-0.149239,-0.186886 LLEG_JOINT2:0.997850,0.022405,0.000000,0.061584 LLEG_JOINT4:0.993487,0.111254,0.000000,-0.024633 RARM_JOINT2:0.839121,0.000000,0.429490,0.333788 RARM_JOINT3:0.988543,0.000000,0.132555,-0.072189 RLEG_JOINT2:0.997782,0.027077,0.000000,-0.060812 RLEG_JOINT4:0.993570,0.093511,0.000000,0.063824 WAIST:0.999889,0.000000,-0.014026,0.005070 WAIST_JOINT0:0.999716,0.000000,-0.006160,0.023026 WAIST_JOINT1:0.998274,0.058453,0.000000,-0.005760 END:
KINECT_DATA_Sensor  AnkleLeft:0.062118,0.698851,-0.125077,-0.701501 AnkleRight:0.091409,0.681329,0.078667,0.721974 ElbowLeft:-0.045463,0.940214,-0.174584,-0.288880 ElbowRight:-0.423550,0.722663,-0.024542,0.545675 FootLeft:0.000000,0.000000,0.000000,0.000000 FootRight:0.000000,0.000000,0.000000,0.000000 HandLeft:-0.137887,0.872594,0.023005,0.468015 HandRight:-0.302452,0.174279,-0.435500,0.829753 HandTipLeft:0.000000,0.000000,0.000000,0.000000 HandTipRight:0.000000,0.000000,0.000000,0.000000 Head:0.000000,0.000000,0.000000,0.000000 HipLeft:0.121026,-0.678773,0.705107,-0.165664 HipRight:-0.112398,0.687120,0.700283,-0.157596 KneeLeft:-0.032031,0.715996,-0.062612,-0.694553 KneeRight:-0.019300,0.697116,0.058930,0.714272 Neck:0.004673,-0.000455,0.997310,-0.073148 ShoulderLeft:-0.031210,0.782903,-0.615129,0.087775 ShoulderRight:-0.025666,0.809213,0.582055,-0.075680 SpineBase:0.013694,0.001867,0.999232,-0.036667 SpineMid:0.009358,0.002026,0.999282,-0.036659 SpineShoulder:0.004803,0.001002,0.998540,-0.053792 ThumbLeft:0.000000,0.000000,0.000000,0.000000 ThumbRight:0.000000,0.000000,0.000000,0.000000 WristLeft:-0.107561,0.881445,-0.045025,0.457666 WristRight:-0.272754,0.192673,-0.444531,0.831189 END:
KINECT_DATA POSITION:22.013788,-3.284847,-8.413803 HEAD_JOINT1:0.974383,0.173893,-0.000000,0.142614 LARM_JOINT2:0.823418,0.000000,-0.051293,-0.565112 LARM_JOINT3:0.973737,0.000000,-0.137723,-0.181296 LLEG_JOINT2:0.997773,0.024829,0.000000,0.061914 LLEG_JOINT4:0.993469,0.111131,0.000000,-0.025879 RARM_JOINT2:0.838330,0.000000,0.432156,0.332333 RARM_JOINT3:0.988776,0.000000,0.133545,-0.066998 RLEG_JOINT2:0.997778,0.026629,0.000000,-0.061070 RLEG_JOINT4:0.993431,0.094836,0.000000,0.064045 WAIST:0.999823,0.000000,-0.017944,0.005590 WAIST_JOINT0:0.999678,0.000000,-0.009737,0.023419 WAIST_JOINT1:0.998230,0.059143,0.000000,-0.006263 END:
KINECT_DATA_Sensor  AnkleLeft:0.065501,0.712222,-0.125689,-0.687497 AnkleRight:0.094060,0.690933,0.076966,0.712629 ElbowLeft:-0.045745,0.941235,-0.174983,-0.285247 ElbowRight:-0.424522,0.722338,-0.023472,0.545398 FootLeft:0.000000,0.000000,0.000000,0.000000 FootRight:0.000000,0.000000,0.000000,0.000000 HandLeft:-0.086098,0.843829,0.011162,0.529543 HandRight:-0.284815,0.168418,-0.437714,0.836016 HandTipLeft:0.000000,0.000000,0.000000,0.000000 HandTipRight:0.000000,0.000000,0.000000,0.000000 Head:0.000000,0.000000,0.000000,0.000000 HipLeft:0.123037,-0.677743,0.705116,-0.168337 HipRight:-0.109862,0.687814,0.700397,-0.155837 KneeLeft:-0.031169,0.718727,-0.064845,-0.691560 KneeRight:-0.019191,0.694335,0.058527,0.717012 Neck:0.007995,-0.000230,0.997232,-0.073919 ShoulderLeft:-0.032104,0.782076,-0.615758,0.090382 ShoulderRight:-0.022286,0.809553,0.582075,-0.072912 SpineBase:0.017572,0.002207,0.999149,-0.037260 SpineMid:0.012977,0.002378,0.999219,-0.037250 SpineShoulder:0.008145,0.001321,0.998480,-0.054489 ThumbLeft:0.000000,0.000000,0.000000,0.000000 ThumbRight:0.000000,0.000000,0.000000,0.000000 WristLeft:-0.103092,0.845124,-0.052486,0.521903 WristRight:-0.267696,0.179819,-0.446989,0.834389 END:
KINECT_DATA POSITION:22.012106,-3.293739,-8.341730 HEAD_JOINT1:0.974478,0.173498,-0.000000,0.142445 LARM_JOINT2:0.823675,0.000000,-0.049341,-0.564912 LARM_JOINT3:0.974808,0.000000,-0.132479,-0.179439 LLEG_JOINT2:0.997788,0.024177,0.000000,0.061922 LLEG_JOINT4:0.993514,0.110292,0.000000,-0.027674 RARM_JOINT2:0.836785,0.000000,0.432539,0.335710 RARM_JOINT3:0.987922,0.000000,0.138425,-0.069633 RLEG_JOINT2:0.997778,0.026820,0.000000,-0.060992 RLEG_JOINT4:0.993173,0.098028,0.000000,0.063233 WAIST:0.999810,0.000000,-0.018570,0.005939 WAIST_JOINT0:0.999665,0.000000,-0.010540,0.023629 WAIST_JOINT1:0.998212,0.059408,0.000000,-0.006624 END:
KINECT_DATA_Sensor  AnkleLeft:0.065397,0.712734,-0.123682,-0.687340 AnkleRight:0.095460,0.682508,0.080520,0.720130 ElbowLeft:-0.044714,0.940507,-0.175854,-0.287269 ElbowRight:-0.421020,0.712797,-0.032837,0.559986 FootLeft:0.000000,0.000000,0.000000,0.000000 FootRight:0.000000,0.000000,0.000000,0.000000 HandLeft:-0.064292,0.622035,-0.007044,0.780313 HandRight:-0.252888,0.141228,-0.456948,0.841012 HandTipLeft:0.000000,0.000000,0.000000,0.000000 HandTipRight:0.000000,0.000000,0.000000,0.000000 Head:0.000000,0.000000,0.000000,0.000000 HipLeft:0.122921,-0.677482,0.705344,-0.168517 HipRight:-0.108952,0.688182,0.700290,-0.155335 KneeLeft:-0.031916,0.719113,-0.064608,-0.691147 KneeRight:-0.018713,0.693917,0.058372,0.717441 Neck:0.008687,-0.000233,0.997206,-0.074196 ShoulderLeft:-0.031251,0.782060,-0.615831,0.090321 ShoulderRight:-0.020521,0.809953,0.581732,-0.071717 SpineBase:0.018172,0.002299,0.999128,-0.037512 SpineMid:0.013628,0.002470,0.999201,-0.037501 SpineShoulder:0.008843,0.001358,0.998459,-0.054763 ThumbLeft:0.000000,0.000000,0.000000,0.000000 ThumbRight:0.000000,0.000000,0.000000,0.000000 WristLeft:-0.077562,0.623714,-0.083958,0.773250 WristRight:-0.250681,0.142979,-0.459371,0.840056 END:
KINECT_DATA POSITION:22.077602,-3.314861,-8.250546 HEAD_JOINT1:0.974668,0.173233,-0.000000,0.141469 LARM_JOINT2:0.823654,0.000000,-0.048490,-0.565016 LARM_JOINT3:0.974628,0.000000,-0.133197,-0.179885 LLEG_JOINT2:0.997795,0.026206,0.000000,0.060977 LLEG_JOINT4:0.993735,0.108351,0.000000,-0.027404 RARM_JOINT2:0.836266,0.000000,0.421959,0.350156 RARM_JOINT3:0.976792,0.000000,0.187501,-0.103539 RLEG_JOINT2:0.997660,0.029594,0.000000,-0.061632 RLEG_JOINT4:0.993665,0.093224,0.000000,0.062770 WAIST:0.999836,0.000000,-0.016960,0.006418 WAIST_JOINT0:0.999664,0.000000,-0.010303,0.023771 WAIST_JOINT1:0.998221,0.059214,0.000000,-0.007033 END:
KINECT_DATA_Sensor  AnkleLeft:0.063305,0.697805,-0.124797,-0.702486 AnkleRight:0.094363,0.692526,0.078602,0.710862 ElbowLeft:-0.043883,0.940107,-0.176145,-0.288524 ElbowRight:-0.407368,0.698270,-0.041681,0.587140 FootLeft:0.000000,0.000000,0.000000,0.000000 FootRight:0.000000,0.000000,0.000000,0.000000 HandLeft:-0.070487,0.805370,0.009832,0.588484 HandRight:-0.231480,0.150586,-0.542794,0.793168 HandTipLeft:0.000000,0.000000,0.000000,0.000000 HandTipRight:0.000000,0.000000,0.000000,0.000000 Head:0.000000,0.000000,0.000000,0.000000 HipLeft:0.121982,-0.677446,0.705827,-0.167318 HipRight:-0.109851,0.688357,0.699826,-0.156017 KneeLeft:-0.030057,0.718047,-0.065794,-0.692226 KneeRight:-0.016913,0.695153,0.060385,0.716121 Neck:0.008533,-0.000424,0.997222,-0.073990 ShoulderLeft:-0.029959,0.782191,-0.615899,0.089152 ShoulderRight:-0.019389,0.809982,0.581837,-0.070840 SpineBase:0.016536,0.002398,0.999164,-0.037315 SpineMid:0.012728,0.002540,0.999220,-0.037305 SpineShoulder:0.008693,0.001260,0.998471,-0.054572 ThumbLeft:0.000000,0.000000,0.000000,0.000000 ThumbRight:0.000000,0.000000,0.000000,0.000000 WristLeft:-0.095495,0.806409,-0.060714,0.580431 WristRight:-0.242020,0.132272,-0.484114,0.830400 END:
KINECT_DATA POSITION:22.116619,-3.333204,-8.180941 HEAD_JOINT1:0.974503,0.175393,-0.000000,0.139932 LARM_JOINT2:0.824430,0.000000,-0.045741,-0.564112 LARM_JOINT3:0.974324,0.000000,-0.133778,-0.181099 LLEG_JOINT2:0.997788,0.026487,0.000000,0.060974 LLEG_JOINT4:0.993987,0.106029,0.000000,-0.027334 RARM_JOINT2:0.840482,0.000000,0.355080,0.409278 RARM_JOINT3:0.914085,0.000000,0.357619,-0.191201 RLEG_JOINT2:0.997729,0.028339,0.000000,-0.061112 RLEG_JOINT4:0.993813,0.093347,0.000000,0.060180 WAIST:0.999834,0.000000,-0.017138,0.006138 WAIST_JOINT0:0.999637,0.000000,-0.011609,0.024318 WAIST_JOINT1:0.998217,0.059194,0.000000,-0.007642 END:
KINECT_DATA_Sensor  AnkleLeft:0.064715,0.713501,-0.121806,-0.686943 AnkleRight:0.092461,0.697202,0.078925,0.706492 ElbowLeft:-0.042247,0.939608,-0.177247,-0.289715 ElbowRight:-0.351486,0.683271,-0.013110,0.639865 FootLeft:0.000000,0.000000,0.000000,0.000000 FootRight:0.000000,0.000000,0.000000,0.000000 HandLeft:-0.067821,0.609385,-0.009407,0.789913 HandRight:-0.282542,0.218509,-0.636243,0.683827 HandTipLeft:0.000000,0.000000,0.000000,0.000000 HandTipRight:0.000000,0.000000,0.000000,0.000000 Head:0.000000,0.000000,0.000000,0.000000 HipLeft:0.122051,-0.677695,0.705629,-0.167095 HipRight:-0.109416,0.688229,0.700074,-0.155772 KneeLeft:-0.029672,0.718190,-0.065791,-0.692094 KneeRight:-0.017648,0.694995,0.059340,0.716344 Neck:0.009880,-0.001515,0.997210,-0.073972 ShoulderLeft:-0.028331,0.781923,-0.616409,0.088510 ShoulderRight:-0.015931,0.810099,0.582113,-0.068047 SpineBase:0.016712,0.001818,0.999164,-0.037258 SpineMid:0.013484,0.001939,0.999213,-0.037252 SpineShoulder:0.010039,0.000360,0.998459,-0.054575 ThumbLeft:0.000000,0.000000,0.000000,0.000000 ThumbRight:0.000000,0.000000,0.000000,0.000000 WristLeft:-0.075015,0.611266,-0.084150,0.783355 WristRight:-0.280425,0.211111,-0.560589,0.750022 END:
KINECT_DATA POSITION:22.195807,-3.335332,-8.141529 HEAD_JOINT1:0.974126,0.178287,-0.000000,0.138894 LARM_JOINT2:0.824403,0.000000,-0.044075,-0.564285 LARM_JOINT3:0.974453,0.000000,-0.132053,-0.181666 LLEG_JOINT2:0.997777,0.027426,0.000000,0.060742 LLEG_JOINT4:0.993968,0.106400,0.000000,-0.026565 RARM_JOINT2:0.843109,0.000000,0.322506,0.430298 RARM_JOINT3:0.880696,0.000000,0.432648,-0.192846 RLEG_JOINT2:0.997689,0.026310,0.000000,-0.062648 RLEG_JOINT4:0.993405,0.096331,0.000000,0.062179 WAIST:0.999826,0.000000,-0.017505,0.006397 WAIST_JOINT0:0.999607,0.000000,-0.012972,0.024866 WAIST_JOINT1:0.998197,0.059476,0.000000,-0.008073 END:
KINECT_DATA_Sensor  AnkleLeft:0.065136,0.714196,-0.123257,-0.685922 AnkleRight:0.093907,0.698561,0.078750,0.704977 ElbowLeft:-0.040634,0.939743,-0.177587,-0.289302 ElbowRight:-0.328575,0.694232,0.013499,0.640233 FootLeft:0.000000,0.000000,0.000000,0.000000 FootRight:0.000000,0.000000,0.000000,0.000000 HandLeft:-0.067878,0.542985,-0.008237,0.836954 HandRight:-0.662851,0.696578,0.217084,-0.168174 HandTipLeft:0.000000,0.000000,0.000000,0.000000 HandTipRight:0.000000,0.000000,0.000000,0.000000 Head:0.000000,0.000000,0.000000,0.000000 HipLeft:0.121902,-0.677512,0.705813,-0.167171 HipRight:-0.108611,0.688473,0.700014,-0.155531 KneeLeft:-0.029054,0.718451,-0.066480,-0.691783 KneeRight:-0.019972,0.694680,0.058864,0.716628 Neck:0.011304,-0.001708,0.997171,-0.074287 ShoulderLeft:-0.026117,0.781269,-0.617426,0.087872 ShoulderRight:-0.011814,0.809823,0.582919,-0.065211 SpineBase:0.017050,0.001640,0.999148,-0.037546 SpineMid:0.014355,0.001741,0.999191,-0.037541 SpineShoulder:0.011461,0.000148,0.998428,-0.054862 ThumbLeft:0.000000,0.000000,0.000000,0.000000 ThumbRight:0.000000,0.000000,0.000000,0.000000 WristLeft:-0.065610,0.545355,-0.088539,0.830929 WristRight:-0.624720,0.731808,0.215728,-0.166259 END:
KINECT_DATA POSITION:22.246113,-3.330235,-8.157169 HEAD_JOINT1:0.974095,0.179434,-0.000000,0.137629 LARM_JOINT2:0.823906,0.000000,-0.041761,-0.565186 LARM_JOINT3:0.974484,0.000000,-0.131600,-0.181832 LLEG_JOINT2:0.997740,0.029603,0.000000,0.060315 LLEG_JOINT4:0.994240,0.103597,0.000000,-0.027484 RARM_JOINT2:0.840043,0.000000,0.347937,0.416255 RARM_JOINT3:0.910162,0.000000,0.378911,-0.167423 RLEG_JOINT2:0.997666,0.026599,0.000000,-0.062882 RLEG_JOINT4:0.993563,0.095539,0.000000,0.060874 WAIST:0.999847,0.000000,-0.016177,0.006686 WAIST_JOINT0:0.999617,0.000000,-0.010548,0.025587 WAIST_JOINT1:0.998211,0.059248,0.000000,-0.008063 END:
KINECT_DATA_Sensor  AnkleLeft:0.064132,0.705205,-0.122764,-0.695343 AnkleRight:0.091320,0.688475,0.080896,0.714926 ElbowLeft:-0.038946,0.938743,-0.177599,-0.292750 ElbowRight:-0.344555,0.702531,-0.000182,0.622681 FootLeft:0.000000,0.000000,0.000000,0.000000 FootRight:0.000000,0.000000,0.000000,0.000000 HandLeft:-0.062685,0.820267,0.022399,0.568095 HandRight:-0.244593,0.208770,-0.582454,0.746550 HandTipLeft:0.000000,0.000000,0.000000,0.000000 HandTipRight:0.000000,0.000000,0.000000,0.000000 Head:0.000000,0.000000,0.000000,0.000000 HipLeft:0.120785,-0.677617,0.706158,-0.166093 HipRight:-0.109221,0.688628,0.699677,-0.155928 KneeLeft:-0.027342,0.717578,-0.067985,-0.692612 KneeRight:-0.019805,0.695649,0.058997,0.715681 Neck:0.008799,-0.001395,0.997219,-0.073992 ShoulderLeft:-0.022552,0.780666,-0.618805,0.084456 ShoulderRight:-0.011430,0.809857,0.582821,-0.065725 SpineBase:0.015715,0.001941,0.999173,-0.037443 SpineMid:0.012443,0.002064,0.999219,-0.037437 SpineShoulder:0.008953,0.000422,0.998466,-0.054641 ThumbLeft:0.000000,0.000000,0.000000,0.000000 ThumbRight:0.000000,0.000000,0.000000,0.000000 WristLeft:-0.093594,0.821424,-0.056566,0.559734 WristRight:-0.244006,0.210736,-0.598075,0.733729 END:
KINECT_DATA POSITION:22.266590,-3.301616,-8.262861 HEAD_JOINT1:0.974577,0.181061,-0.000000,0.131971 LARM_JOINT2:0.822892,0.000000,-0.040326,-0.566765 LARM_JOINT3:0.975251,0.000000,-0.128176,-0.180154 LLEG_JOINT2:0.997722,0.028463,0.000000,0.061157 LLEG_JOINT4:0.994279,0.103560,0.000000,-0.026175 RARM_JOINT2:0.831797,0.000000,0.399204,0.385680 RARM_JOINT3:0.951303,0.000000,0.277253,-0.134735 RLEG_JOINT2:0.997706,0.026403,0.000000,-0.062334 RLEG_JOINT4:0.993741,0.093291,0.000000,0.061440 WAIST:0.999916,0.000000,-0.011375,0.006261 WAIST_JOINT0:0.999663,0.000000,-0.001918,0.025875 WAIST_JOINT1:0.998295,0.057989,0.000000,-0.006607 END:
KINECT_DATA_Sensor  AnkleLeft:0.063771,0.708354,-0.122216,-0.692266 AnkleRight:0.090170,0.697051,0.078509,0.706983 ElbowLeft:-0.038447,0.936367,-0.176959,-0.300706 ElbowRight:-0.375985,0.702184,-0.040320,0.603280 FootLeft:0.000000,0.000000,0.000000,0.000000 FootRight:0.000000,0.000000,0.000000,0.000000 HandLeft:-0.054920,0.809102,0.025750,0.584529 HandRight:-0.239514,0.241330,-0.524488,0.780580 HandTipLeft:0.000000,0.000000,0.000000,0.000000 HandTipRight:0.000000,0.000000,0.000000,0.000000 Head:0.000000,0.000000,0.000000,0.000000 HipLeft:0.117929,-0.678854,0.706251,-0.162663 HipRight:-0.112327,0.688133,0.699300,-0.157591 KneeLeft:-0.028140,0.714238,-0.067567,-0.696065 KneeRight:-0.020172,0.699038,0.058649,0.712390 Neck:0.000223,-0.000225,0.997365,-0.072552 ShoulderLeft:-0.016676,0.780059,-0.620806,0.076354 ShoulderRight:-0.016585,0.808996,0.583240,-0.071289 SpineBase:0.010980,0.002326,0.999268,-0.036576 SpineMid:0.005789,0.002516,0.999311,-0.036564 SpineShoulder:0.000356,0.001295,0.998574,-0.053364 ThumbLeft:0.000000,0.000000,0.000000,0.000000 ThumbRight:0.000000,0.000000,0.000000,0.000000 WristLeft:-0.090428,0.810444,-0.061055,0.575566 WristRight:-0.264409,0.225991,-0.544408,0.763305 END:
KINECT_DATA POSITION:22.326645,-3.262292,-8.441412 HEAD_JOINT1:0.974330,0.185049,-0.000000,0.128209 LARM_JOINT2:0.822290,0.000000,-0.039957,-0.567664 LARM_JOINT3:0.974797,0.000000,-0.129864,-0.181399 LLEG_JOINT2:0.997791,0.028232,0.000000,0.060133 LLEG_JOINT4:0.994424,0.102446,0.000000,-0.025019 RARM_JOINT2:0.828386,0.000000,0.423839,0.366247 RARM_JOINT3:0.967279,0.000000,0.225993,-0.115322 RLEG_JOINT2:0.997656,0.026430,0.000000,-0.063118 RLEG_JOINT4:0.993705,0.093126,0.000000,0.062275 WAIST:0.999956,0.000000,-0.006699,0.006585 WAIST_JOINT0:0.999656,-0.000000,0.003716,0.025945 WAIST_JOINT1:0.998395,0.056362,0.000000,-0.005516 END:
KINECT_DATA_Sensor  AnkleLeft:0.063055,0.705362,-0.121285,-0.695541 AnkleRight:0.090234,0.702932,0.078210,0.701161 ElbowLeft:-0.038826,0.935022,-0.177084,-0.304743 ElbowRight:-0.393994,0.706614,-0.057958,0.584899 FootLeft:0.000000,0.000000,0.000000,0.000000 FootRight:0.000000,0.000000,0.000000,0.000000 HandLeft:-0.066690,0.806127,0.024884,0.587446 HandRight:-0.254874,0.264274,-0.517365,0.773002 HandTipLeft:0.000000,0.000000,0.000000,0.000000 HandTipRight:0.000000,0.000000,0.000000,0.000000 Head:0.000000,0.000000,0.000000,0.000000 HipLeft:0.115889,-0.679473,0.706783,-0.159199 HipRight:-0.116194,0.688057,0.698395,-0.159124 KneeLeft:-0.027510,0.710991,-0.067021,-0.699459 KneeRight:-0.020769,0.702348,0.058882,0.709090 Neck:-0.005234,0.001109,0.997473,-0.070837 ShoulderLeft:-0.017754,0.780344,-0.620764,0.073487 ShoulderRight:-0.024861,0.808904,0.582345,-0.077007 SpineBase:0.006334,0.003124,0.999359,-0.035092 SpineMid:0.000737,0.003320,0.999379,-0.035074 SpineShoulder:-0.005108,0.002399,0.998647,-0.051700 ThumbLeft:0.000000,0.000000,0.000000,0.000000 ThumbRight:0.000000,0.000000,0.000000,0.000000 WristLeft:-0.090072,0.809159,-0.063026,0.577215 WristRight:-0.277170,0.246489,-0.504388,0.779752 END:
KINECT_DATA POSITION:22.358713,-3.250345,-8.651340 HEAD_JOINT1:0.974786,0.183337,-0.000000,0.127201 LARM_JOINT2:0.822149,0.000000,-0.042535,-0.567681 LARM_JOINT3:0.974721,0.000000,-0.130653,-0.181243 LLEG_JOINT2:0.997906,0.025578,0.000000,0.059403 LLEG_JOINT4:0.994693,0.100473,0.000000,-0.022175 RARM_JOINT2:0.827321,0.000000,0.434345,0.356208 RARM_JOINT3:0.973322,0.000000,0.203929,-0.105151 RLEG_JOINT2:0.997740,0.029282,0.000000,-0.060475 RLEG_JOINT4:0.994015,0.091811,0.000000,0.059194 WAIST:0.999964,0.000000,-0.005491,0.006544 WAIST_JOINT0:0.999640,-0.000000,0.006693,0.025995 WAIST_JOINT1:0.998374,0.056780,0.000000,-0.004997 END:
KINECT_DATA_Sensor  AnkleLeft:0.060420,0.716454,-0.118474,-0.684841 AnkleRight:0.091327,0.707624,0.079244,0.696166 ElbowLeft:-0.039502,0.936108,-0.176966,-0.301370 ElbowRight:-0.402505,0.710653,-0.062093,0.573678 FootLeft:0.000000,0.000000,0.000000,0.000000 FootRight:0.000000,0.000000,0.000000,0.000000 HandLeft:-0.073920,0.791782,0.017922,0.606049 HandRight:-0.264578,0.272873,-0.506839,0.773727 HandTipLeft:0.000000,0.000000,0.000000,0.000000 HandTipRight:0.000000,0.000000,0.000000,0.000000 Head:0.000000,0.000000,0.000000,0.000000 HipLeft:0.115285,-0.679483,0.706885,-0.159142 HipRight:-0.117288,0.687751,0.698264,-0.160215 KneeLeft:-0.028770,0.710112,-0.064617,-0.700526 KneeRight:-0.016983,0.703315,0.059001,0.708222 Neck:-0.008232,0.001642,0.997421,-0.071287 ShoulderLeft:-0.017384,0.779705,-0.621646,0.072900 ShoulderRight:-0.028418,0.808189,0.582629,-0.081039 SpineBase:0.005145,0.003566,0.999356,-0.035335 SpineMid:-0.001340,0.003795,0.999368,-0.035311 SpineShoulder:-0.008102,0.002913,0.998606,-0.052082 ThumbLeft:0.000000,0.000000,0.000000,0.000000 ThumbRight:0.000000,0.000000,0.000000,0.000000 WristLeft:-0.088393,0.795615,-0.064740,0.595813 WristRight:-0.282588,0.257640,-0.487891,0.784683 END:
KINECT_DATA POSITION:22.387632,-3.240254,-8.827723 HEAD_JOINT1:0.975045,0.183634,-0.000000,0.124762 LARM_JOINT2:0.821676,0.000000,-0.041755,-0.568423 LARM_JOINT3:0.974472,0.000000,-0.131658,-0.181851 LLEG_JOINT2:0.997935,0.024443,0.000000,0.059398 LLEG_JOINT4:0.994487,0.102165,0.000000,-0.023635 RARM_JOINT2:0.827278,0.000000,0.443484,0.344866 RARM_JOINT3:0.982245,0.000000,0.166064,-0.087275 RLEG_JOINT2:0.997674,0.027261,0.000000,-0.062476 RLEG_JOINT4:0.993684,0.093173,0.000000,0.062536 WAIST:0.999975,0.000000,-0.002976,0.006443 WAIST_JOINT0:0.999628,-0.000000,0.009914,0.025416 WAIST_JOINT1:0.998351,0.057259,0.000000,-0.004102 END:
KINECT_DATA_Sensor  AnkleLeft:0.059628,0.699558,-0.118883,-0.702089 AnkleRight:0.090019,0.696040,0.079800,0.707853 ElbowLeft:-0.038506,0.934415,-0.177273,-0.306528 ElbowRight:-0.411918,0.716490,-0.063835,0.559367 FootLeft:0.000000,0.000000,0.000000,0.000000 FootRight:0.000000,0.000000,0.000000,0.000000 HandLeft:-0.072760,0.811731,0.022823,0.579032 HandRight:-0.243593,0.205669,-0.479995,0.817293 HandTipLeft:0.000000,0.000000,0.000000,0.000000 HandTipRight:0.000000,0.000000,0.000000,0.000000 Head:0.000000,0.000000,0.000000,0.000000 HipLeft:0.113417,-0.679731,0.707137,-0.158301 HipRight:-0.118824,0.687304,0.698070,-0.161842 KneeLeft:-0.029349,0.708339,-0.063797,-0.702370 KneeRight:-0.020062,0.704994,0.059016,0.706469 Neck:-0.011698,0.002366,0.997352,-0.071742 ShoulderLeft:-0.016366,0.779160,-0.622487,0.071781 ShoulderRight:-0.031932,0.807313,0.583050,-0.085314 SpineBase:0.002663,0.004282,0.999347,-0.035779 SpineMid:-0.004297,0.004531,0.999341,-0.035749 SpineShoulder:-0.011560,0.003622,0.998546,-0.052532 ThumbLeft:0.000000,0.000000,0.000000,0.000000 ThumbRight:0.000000,0.000000,0.000000,0.000000 WristLeft:-0.090865,0.815073,-0.062339,0.568782 WristRight:-0.249262,0.203357,-0.488299,0.811220 END:
KINECT_DATA POSITION:22.407713,-3.244855,-8.907318 HEAD_JOINT1:0.975149,0.183517,-0.000000,0.124124 LARM_JOINT2:0.821638,0.000000,-0.041388,-0.568505 LARM_JOINT3:0.974631,0.000000,-0.133839,-0.179394 LLEG_JOINT2:0.997941,0.025278,0.000000,0.058946 LLEG_JOINT4:0.994898,0.098644,0.000000,-0.021151 RARM_JOINT2:0.828573,0.000000,0.453130,0.328845 RARM_JOINT3:0.987856,0.000000,0.133347,-0.079746 RLEG_JOINT2:0.997657,0.025475,0.000000,-0.063495 RLEG_JOINT4:0.993656,0.093170,0.000000,0.062981 WAIST:0.999975,0.000000,-0.002216,0.006646 WAIST_JOINT0:0.999612,-0.000000,0.011395,0.025421 WAIST_JOINT1:0.998338,0.057489,0.000000,-0.003993 END:
KINECT_DATA_Sensor  AnkleLeft:0.056688,0.702111,-0.118325,-0.699876 AnkleRight:0.089065,0.702378,0.078160,0.701871 ElbowLeft:-0.037870,0.934268,-0.177717,-0.306800 ElbowRight:-0.426793,0.729755,-0.055517,0.531247 FootLeft:0.000000,0.000000,0.000000,0.000000 FootRight:0.000000,0.000000,0.000000,0.000000 HandLeft:-0.075627,0.789558,0.005936,0.608969 HandRight:-0.311315,0.227775,-0.458420,0.800658 HandTipLeft:0.000000,0.000000,0.000000,0.000000 HandTipRight:0.000000,0.000000,0.000000,0.000000 Head:0.000000,0.000000,0.000000,0.000000 HipLeft:0.112717,-0.679567,0.707410,-0.158282 HipRight:-0.119211,0.687240,0.697900,-0.162560 KneeLeft:-0.028535,0.707825,-0.064233,-0.702882 KneeRight:-0.021957,0.705471,0.058317,0.705994 Neck:-0.013296,0.002775,0.997316,-0.071953 ShoulderLeft:-0.016340,0.778888,-0.622849,0.071594 ShoulderRight:-0.034030,0.807150,0.582826,-0.087552 SpineBase:0.001899,0.004665,0.999332,-0.036189 SpineMid:-0.005469,0.004932,0.999319,-0.036154 SpineShoulder:-0.013163,0.003912,0.998513,-0.052756 ThumbLeft:0.000000,0.000000,0.000000,0.000000 ThumbRight:0.000000,0.000000,0.000000,0.000000 WristLeft:-0.087711,0.792309,-0.065664,0.600201 WristRight:-0.276607,0.247919,-0.453049,0.810414 END:
KINECT_DATA POSITION:22.406277,-3.250976,-8.924187 HEAD_JOINT1:0.974862,0.184151,-0.000000,0.125426 LARM_JOINT2:0.821793,0.000000,-0.040703,-0.568330 LARM_JOINT3:0.973814,0.000000,-0.135669,-0.182429 LLEG_JOINT2:0.997942,0.024195,0.000000,0.059376 LLEG_JOINT4:0.994583,0.101397,0.000000,-0.022895 RARM_JOINT2:0.831443,0.000000,0.452812,0.321967 RARM_JOINT3:0.990496,0.000000,0.117471,-0.071540 RLEG_JOINT2:0.997686,0.025400,0.000000,-0.063060 RLEG_JOINT4:0.993631,0.093282,0.000000,0.063210 WAIST:0.999975,0.000000,-0.002224,0.006653 WAIST_JOINT0:0.999607,-0.000000,0.011592,0.025527 WAIST_JOINT1:0.998352,0.057249,0.000000,-0.003946 END:
KINECT_DATA_Sensor  AnkleLeft:0.058576,0.700517,-0.118664,-0.701258 AnkleRight:0.088382,0.691748,0.079047,0.712338 ElbowLeft:-0.037861,0.933864,-0.178083,-0.307816 ElbowRight:-0.432378,0.724535,-0.055023,0.533921 FootLeft:0.000000,0.000000,0.000000,0.000000 FootRight:0.000000,0.000000,0.000000,0.000000 HandLeft:-0.087656,0.811698,0.016207,0.577234 HandRight:-0.154555,-0.053224,-0.515989,0.840854 HandTipLeft:0.000000,0.000000,0.000000,0.000000 HandTipRight:0.000000,0.000000,0.000000,0.000000 Head:0.000000,0.000000,0.000000,0.000000 HipLeft:0.112804,-0.679579,0.707401,-0.158213 HipRight:-0.119289,0.687262,0.697883,-0.162486 KneeLeft:-0.029613,0.707794,-0.063773,-0.702911 KneeRight:-0.021700,0.705473,0.057951,0.706030 Neck:-0.013464,0.002862,0.997333,-0.071672 ShoulderLeft:-0.017337,0.779132,-0.622479,0.071919 ShoulderRight:-0.035283,0.807438,0.582269,-0.088099 SpineBase:0.001907,0.004665,0.999337,-0.036070 SpineMid:-0.005550,0.004934,0.999323,-0.036034 SpineShoulder:-0.013333,0.003964,0.998523,-0.052526 ThumbLeft:0.000000,0.000000,0.000000,0.000000 ThumbRight:0.000000,0.000000,0.000000,0.000000 WristLeft:-0.090172,0.816476,-0.062475,0.566863 WristRight:-0.124913,-0.036151,-0.511676,0.849280 END:
KINECT_DATA POSITION:22.407627,-3.262762,-8.926225 HEAD_JOINT1:0.974595,0.184032,-0.000000,0.127662 LARM_JOINT2:0.821832,0.000000,-0.040436,-0.568294 LARM_JOINT3:0.973848,0.000000,-0.135541,-0.182343 LLEG_JOINT2:0.997987,0.024436,0.000000,0.058521 LLEG_JOINT4:0.994210,0.105347,0.000000,-0.021187 RARM_JOINT2:0.834812,0.000000,0.449760,0.317498 RARM_JOINT3:0.992092,0.000000,0.107349,-0.065035 RLEG_JOINT2:0.997712,0.025522,0.000000,-0.062599 RLEG_JOINT4:0.993725,0.093368,0.000000,0.061582 WAIST:0.999972,0.000000,-0.002408,0.007035 WAIST_JOINT0:0.999592,-0.000000,0.011738,0.026032 WAIST_JOINT1:0.998351,0.057278,0.000000,-0.003907 END:
KINECT_DATA_Sensor  AnkleLeft:0.060857,0.701208,-0.122379,-0.699734 AnkleRight:0.088021,0.691986,0.079705,0.712078 ElbowLeft:-0.037784,0.933875,-0.178617,-0.307484 ElbowRight:-0.435880,0.722761,-0.050166,0.533955 FootLeft:0.000000,0.000000,0.000000,0.000000 FootRight:0.000000,0.000000,0.000000,0.000000 HandLeft:-0.084330,0.814715,0.015032,0.573500 HandRight:-0.174363,-0.038421,-0.501286,0.846660 HandTipLeft:0.000000,0.000000,0.000000,0.000000 HandTipRight:0.000000,0.000000,0.000000,0.000000 Head:0.000000,0.000000,0.000000,0.000000 HipLeft:0.112925,-0.679369,0.707570,-0.158274 HipRight:-0.119230,0.687603,0.697578,-0.162391 KneeLeft:-0.029118,0.707925,-0.063605,-0.702815 KneeRight:-0.021008,0.705382,0.057445,0.706184 Neck:-0.013582,0.003429,0.997324,-0.071750 ShoulderLeft:-0.017733,0.779353,-0.622172,0.072081 ShoulderRight:-0.035877,0.808119,0.581244,-0.088385 SpineBase:0.002070,0.004830,0.999337,-0.036016 SpineMid:-0.005531,0.005104,0.999324,-0.035978 SpineShoulder:-0.013455,0.004373,0.998519,-0.052529 ThumbLeft:0.000000,0.000000,0.000000,0.000000 ThumbRight:0.000000,0.000000,0.000000,0.000000 WristLeft:-0.090668,0.818683,-0.062007,0.563642 WristRight:-0.146036,-0.022145,-0.500139,0.853255 END:
KINECT_DATA POSITION:22.407875,-3.265258,-8.934439 HEAD_JOINT1:0.974483,0.183825,-0.000000,0.128806 LARM_JOINT2:0.821950,0.000000,-0.039571,-0.568183 LARM_JOINT3:0.973301,0.000000,-0.137290,-0.183945 LLEG_JOINT2:0.997991,0.023365,0.000000,0.058898 LLEG_JOINT4:0.994635,0.100297,0.000000,-0.025347 RARM_JOINT2:0.837089,0.000000,0.446014,0.316787 RARM_JOINT3:0.992166,0.000000,0.109993,-0.059223 RLEG_JOINT2:0.997642,0.025950,0.000000,-0.063545 RLEG_JOINT4:0.993581,0.093895,0.000000,0.063097 WAIST:0.999969,0.000000,-0.002734,0.007422 WAIST_JOINT0:0.999595,-0.000000,0.010884,0.026281 WAIST_JOINT1:0.998342,0.057461,0.000000,-0.003303 END:
KINECT_DATA_Sensor  AnkleLeft:0.058831,0.702034,-0.115736,-0.700209 AnkleRight:0.088637,0.684805,0.080513,0.718821 ElbowLeft:-0.037264,0.933950,-0.180030,-0.306494 ElbowRight:-0.435976,0.723857,-0.044766,0.532871 FootLeft:0.000000,0.000000,0.000000,0.000000 FootRight:0.000000,0.000000,0.000000,0.000000 HandLeft:-0.090030,0.816682,0.014869,0.569828 HandRight:-0.311943,0.238691,-0.417789,0.819250 HandTipLeft:0.000000,0.000000,0.000000,0.000000 HandTipRight:0.000000,0.000000,0.000000,0.000000 Head:0.000000,0.000000,0.000000,0.000000 HipLeft:0.112976,-0.679085,0.707777,-0.158529 HipRight:-0.119071,0.687965,0.697308,-0.162137 KneeLeft:-0.030437,0.708097,-0.063376,-0.702607 KneeRight:-0.021075,0.705164,0.058153,0.706341 Neck:-0.012762,0.004521,0.997312,-0.072007 ShoulderLeft:-0.018485,0.779245,-0.622177,0.073012 ShoulderRight:-0.035642,0.808463,0.580838,-0.088002 SpineBase:0.002385,0.005318,0.999333,-0.036048 SpineMid:-0.004969,0.005583,0.999324,-0.036008 SpineShoulder:-0.012625,0.005320,0.998518,-0.052670 ThumbLeft:0.000000,0.000000,0.000000,0.000000 ThumbRight:0.000000,0.000000,0.000000,0.000000 WristLeft:-0.090577,0.821402,-0.061339,0.559760 WristRight:-0.298459,0.247493,-0.424328,0.818301 END:
KINECT_DATA POSITION:22.368214,-3.282690,-8.959997 HEAD_JOINT1:0.974057,0.184035,-0.000000,0.131695 LARM_JOINT2:0.822047,0.000000,-0.039424,-0.568053 LARM_JOINT3:0.973639,0.000000,-0.135533,-0.183461 LLEG_JOINT2:0.997974,0.022547,0.000000,0.059500 LLEG_JOINT4:0.994232,0.104066,0.000000,-0.025944 RARM_JOINT2:0.837493,0.000000,0.444120,0.318374 RARM_JOINT3:0.992135,0.000000,0.111685,-0.056522 RLEG_JOINT2:0.997677,0.025300,0.000000,-0.063253 RLEG_JOINT4:0.993779,0.092272,0.000000,0.062369 WAIST:0.999967,0.000000,-0.003388,0.007395 WAIST_JOINT0:0.999597,-0.000000,0.010134,0.026522 WAIST_JOINT1:0.998332,0.057658,0.000000,-0.002930 END:
KINECT_DATA_Sensor  AnkleLeft:0.060891,0.702118,-0.117803,-0.699604 AnkleRight:0.087487,0.691090,0.078390,0.713159 ElbowLeft:-0.036970,0.934543,-0.180642,-0.304352 ElbowRight:-0.434352,0.724067,-0.043026,0.534055 FootLeft:0.000000,0.000000,0.000000,0.000000 FootRight:0.000000,0.000000,0.000000,0.000000 HandLeft:-0.081900,0.843269,0.017897,0.530914 HandRight:-0.286623,0.205823,-0.425044,0.833560 HandTipLeft:0.000000,0.000000,0.000000,0.000000 HandTipRight:0.000000,0.000000,0.000000,0.000000 Head:0.000000,0.000000,0.000000,0.000000 HipLeft:0.113187,-0.678983,0.707726,-0.159043 HipRight:-0.118737,0.688054,0.697387,-0.161664 KneeLeft:-0.031461,0.708529,-0.063185,-0.702143 KneeRight:-0.021312,0.704681,0.057524,0.706867 Neck:-0.012064,0.004801,0.997304,-0.072218 ShoulderLeft:-0.019279,0.779433,-0.621809,0.073930 ShoulderRight:-0.035553,0.809031,0.580091,-0.087744 SpineBase:0.003056,0.005764,0.999326,-0.036118 SpineMid:-0.004270,0.006028,0.999322,-0.036074 SpineShoulder:-0.011908,0.005736,0.998515,-0.052856 ThumbLeft:0.000000,0.000000,0.000000,0.000000 ThumbRight:0.000000,0.000000,0.000000,0.000000 WristLeft:-0.092568,0.846034,-0.056686,0.521962 WristRight:-0.279696,0.211780,-0.436130,0.828680 END:
KINECT_DATA POSITION:22.361681,-3.291891,-8.982635 HEAD_JOINT1:0.973524,0.185801,-0.000000,0.133149 LARM_JOINT2:0.821766,0.000000,-0.038429,-0.568528 LARM_JOINT3:0.973532,0.000000,-0.134464,-0.184808 LLEG_JOINT2:0.998011,0.022993,0.000000,0.058693 LLEG_JOINT4:0.994187,0.104812,0.000000,-0.024638 RARM_JOINT2:0.838090,0.000000,0.441828,0.319988 RARM_JOINT3:0.991702,0.000000,0.114716,-0.058036 RLEG_JOINT2:0.997668,0.024500,0.000000,-0.063705 RLEG_JOINT4:0.993793,0.091983,0.000000,0.062562 WAIST:0.999963,0.000000,-0.003849,0.007709 WAIST_JOINT0:0.999590,-0.000000,0.009436,0.027043 WAIST_JOINT1:0.998362,0.057176,0.000000,-0.002190 END:
KINECT_DATA_Sensor  AnkleLeft:0.061139,0.702466,-0.119233,-0.698990 AnkleRight:0.087889,0.700902,0.076313,0.703696 ElbowLeft:-0.036702,0.934827,-0.181304,-0.303117 ElbowRight:-0.432820,0.724267,-0.041613,0.535138 FootLeft:0.000000,0.000000,0.000000,0.000000 FootRight:0.000000,0.000000,0.000000,0.000000 HandLeft:-0.081054,0.819486,0.018005,0.567052 HandRight:-0.325412,0.280284,-0.399705,0.809805 HandTipLeft:0.000000,0.000000,0.000000,0.000000 HandTipRight:0.000000,0.000000,0.000000,0.000000 Head:0.000000,0.000000,0.000000,0.000000 HipLeft:0.113543,-0.678735,0.707867,-0.159221 HipRight:-0.118841,0.688421,0.697158,-0.161011 KneeLeft:-0.030822,0.708875,-0.063142,-0.701825 KneeRight:-0.021951,0.704332,0.057072,0.707232 Neck:-0.011532,0.005935,0.997344,-0.071666 ShoulderLeft:-0.020914,0.779289,-0.621849,0.074668 ShoulderRight:-0.036617,0.809887,0.578865,-0.087510 SpineBase:0.003523,0.006496,0.999333,-0.035759 SpineMid:-0.003766,0.006757,0.999332,-0.035711 SpineShoulder:-0.011364,0.006780,0.998540,-0.052374 ThumbLeft:0.000000,0.000000,0.000000,0.000000 ThumbRight:0.000000,0.000000,0.000000,0.000000 WristLeft:-0.089613,0.823236,-0.060292,0.557330 WristRight:-0.317803,0.286339,-0.409244,0.805934 END:
KINECT_DATA POSITION:22.365437,-3.299126,-9.018171 HEAD_JOINT1:0.973434,0.187178,-0.000000,0.131874 LARM_JOINT2:0.821033,0.000000,-0.037895,-0.569622 LARM_JOINT3:0.973414,0.000000,-0.133927,-0.185820 LLEG_JOINT2:0.998081,0.022440,0.000000,0.057720 LLEG_JOINT4:0.994347,0.103498,0.000000,-0.023709 RARM_JOINT2:0.837664,0.000000,0.442343,0.320392 RARM_JOINT3:0.991742,0.000000,0.114620,-0.057528 RLEG_JOINT2:0.997584,0.025190,0.000000,-0.064736 RLEG_JOINT4:0.993662,0.092957,0.000000,0.063204 WAIST:0.999954,0.000000,-0.004515,0.008514 WAIST_JOINT0:0.999590,-0.000000,0.008299,0.027387 WAIST_JOINT1:0.998384,0.056788,0.000000,-0.002051 END:
KINECT_DATA_Sensor  AnkleLeft:0.059254,0.703428,-0.118491,-0.698311 AnkleRight:0.085200,0.661838,0.081755,0.740288 ElbowLeft:-0.036484,0.935217,-0.181028,-0.302104 ElbowRight:-0.432281,0.723620,-0.043128,0.536328 FootLeft:0.000000,0.000000,0.000000,0.000000 FootRight:0.000000,0.000000,0.000000,0.000000 HandLeft:-0.083038,0.828566,0.022997,0.553221 HandRight:-0.312325,0.259420,-0.409775,0.816847 HandTipLeft:0.000000,0.000000,0.000000,0.000000 HandTipRight:0.000000,0.000000,0.000000,0.000000 Head:0.000000,0.000000,0.000000,0.000000 HipLeft:0.113927,-0.678181,0.708277,-0.159486 HipRight:-0.118734,0.689178,0.696590,-0.160305 KneeLeft:-0.031131,0.709312,-0.062614,-0.701418 KneeRight:-0.021573,0.703906,0.057741,0.707613 Neck:-0.010537,0.006868,0.997378,-0.071267 ShoulderLeft:-0.021809,0.779103,-0.621993,0.075151 ShoulderRight:-0.036291,0.810505,0.578192,-0.086364 SpineBase:0.004164,0.007372,0.999335,-0.035468 SpineMid:-0.002935,0.007624,0.999339,-0.035415 SpineShoulder:-0.010348,0.007737,0.998565,-0.051975 ThumbLeft:0.000000,0.000000,0.000000,0.000000 ThumbRight:0.000000,0.000000,0.000000,0.000000 WristLeft:-0.090215,0.832798,-0.058288,0.543056 WristRight:-0.306251,0.264207,-0.417095,0.813902 END:
KINECT_DATA POSITION:22.344810,-3.300256,-9.081054 HEAD_JOINT1:0.973505,0.187753,-0.000000,0.130526 LARM_JOINT2:0.820766,0.000000,-0.037861,-0.570009 LARM_JOINT3:0.973657,0.000000,-0.132226,-0.185764 LLEG_JOINT2:0.998056,0.023712,0.000000,0.057630 LLEG_JOINT4:0.994508,0.101690,0.000000,-0.024739 RARM_JOINT2:0.837826,0.000000,0.441320,0.321378 RARM_JOINT3:0.991516,0.000000,0.116046,-0.058563 RLEG_JOINT2:0.997544,0.025437,0.000000,-0.065254 RLEG_JOINT4:0.993857,0.091253,0.000000,0.062614 WAIST:0.999951,0.000000,-0.004729,0.008700 WAIST_JOINT0:0.999592,-0.000000,0.008029,0.027394 WAIST_JOINT1:0.998394,0.056612,0.000000,-0.001864 END:
KINECT_DATA_Sensor  AnkleLeft:0.059476,0.703537,-0.117485,-0.698352 AnkleRight:0.088420,0.706417,0.075976,0.698129 ElbowLeft:-0.036180,0.935999,-0.180980,-0.299740 ElbowRight:-0.431387,0.723699,-0.042610,0.536982 FootLeft:0.000000,0.000000,0.000000,0.000000 FootRight:0.000000,0.000000,0.000000,0.000000 HandLeft:-0.080575,0.823893,0.023601,0.560492 HandRight:-0.276194,0.186752,-0.437586,0.835080 HandTipLeft:0.000000,0.000000,0.000000,0.000000 HandTipRight:0.000000,0.000000,0.000000,0.000000 Head:0.000000,0.000000,0.000000,0.000000 HipLeft:0.114181,-0.677983,0.708398,-0.159608 HipRight:-0.119038,0.689340,0.696463,-0.159934 KneeLeft:-0.030308,0.709486,-0.063582,-0.701191 KneeRight:-0.021616,0.703756,0.058158,0.707727 Neck:-0.010407,0.007177,0.997390,-0.071084 ShoulderLeft:-0.022078,0.778707,-0.622466,0.075257 ShoulderRight:-0.036420,0.810445,0.578289,-0.086218 SpineBase:0.004389,0.007988,0.999340,-0.035177 SpineMid:-0.002739,0.008239,0.999345,-0.035119 SpineShoulder:-0.010202,0.008146,0.998573,-0.051793 ThumbLeft:0.000000,0.000000,0.000000,0.000000 ThumbRight:0.000000,0.000000,0.000000,0.000000 WristLeft:-0.088735,0.828140,-0.058413,0.550361 WristRight:-0.268325,0.192050,-0.442172,0.834028 END:
KINECT_DATA POSITION:22.315403,-3.310127,-9.126854 HEAD_JOINT1:0.973545,0.187240,-0.000000,0.130964 LARM_JOINT2:0.821011,0.000000,-0.037374,-0.569688 LARM_JOINT3:0.973849,0.000000,-0.134855,-0.182848 LLEG_JOINT2:0.998078,0.023275,0.000000,0.057428 LLEG_JOINT4:0.994497,0.101699,0.000000,-0.025167 RARM_JOINT2:0.838071,0.000000,0.440463,0.321916 RARM_JOINT3:0.991209,0.000000,0.118402,-0.059047 RLEG_JOINT2:0.997527,0.024951,0.000000,-0.065700 RLEG_JOINT4:0.993716,0.092079,0.000000,0.063640 WAIST:0.999942,0.000000,-0.005444,0.009249 WAIST_JOINT0:0.999590,-0.000000,0.007544,0.027629 WAIST_JOINT1:0.998389,0.056692,0.000000,-0.002353 END:
KINECT_DATA_Sensor  AnkleLeft:0.059759,0.707636,-0.116865,-0.694279 AnkleRight:0.087625,0.688415,0.077521,0.715819 ElbowLeft:-0.035861,0.936359,-0.181591,-0.298278 ElbowRight:-0.430937,0.724571,-0.040700,0.536314 FootLeft:0.000000,0.000000,0.000000,0.000000 FootRight:0.000000,0.000000,0.000000,0.000000 HandLeft:-0.082489,0.817655,0.004974,0.569747 HandRight:-0.308592,0.249134,-0.415524,0.818561 HandTipLeft:0.000000,0.000000,0.000000,0.000000 HandTipRight:0.000000,0.000000,0.000000,0.000000 Head:0.000000,0.000000,0.000000,0.000000 HipLeft:0.114573,-0.677560,0.708648,-0.160012 HipRight:-0.118570,0.689842,0.696134,-0.159551 KneeLeft:-0.030903,0.709945,-0.063499,-0.700707 KneeRight:-0.021843,0.703260,0.057766,0.708245 Neck:-0.010024,0.007266,0.997388,-0.071162 ShoulderLeft:-0.022548,0.778946,-0.622095,0.075717 ShoulderRight:-0.036407,0.811122,0.577374,-0.085992 SpineBase:0.005073,0.008215,0.999334,-0.035204 SpineMid:-0.002194,0.008471,0.999344,-0.035143 SpineShoulder:-0.009813,0.008274,0.998571,-0.051873 ThumbLeft:0.000000,0.000000,0.000000,0.000000 ThumbRight:0.000000,0.000000,0.000000,0.000000 WristLeft:-0.087879,0.820320,-0.059074,0.562016 WristRight:-0.300643,0.254795,-0.421892,0.816517 END:
KINECT_DATA POSITION:22.303061,-3.312428,-9.149218 HEAD_JOINT1:0.973545,0.186195,-0.000000,0.132445 LARM_JOINT2:0.821422,0.000000,-0.037311,-0.569099 LARM_JOINT3:0.973507,0.000000,-0.138029,-0.182297 LLEG_JOINT2:0.998082,0.023113,0.000000,0.057423 LLEG_JOINT4:0.994451,0.101826,0.000000,-0.026417 RARM_JOINT2:0.838119,0.000000,0.440229,0.322109 RARM_JOINT3:0.991057,0.000000,0.118739,-0.060881 RLEG_JOINT2:0.997553,0.025136,0.000000,-0.065243 RLEG_JOINT4:0.993688,0.092436,0.000000,0.063556 WAIST:0.999938,0.000000,-0.005625,0.009603 WAIST_JOINT0:0.999594,-0.000000,0.006881,0.027658 WAIST_JOINT1:0.998381,0.056804,0.000000,-0.002778 END:
KINECT_DATA_Sensor  AnkleLeft:0.059746,0.704128,-0.116520,-0.697895 AnkleRight:0.088300,0.686069,0.077653,0.717971 ElbowLeft:-0.035988,0.936269,-0.182229,-0.298158 ElbowRight:-0.430690,0.724053,-0.040769,0.537207 FootLeft:0.000000,0.000000,0.000000,0.000000 FootRight:0.000000,0.000000,0.000000,0.000000 HandLeft:-0.090744,0.824424,-0.003022,0.558643 HandRight:-0.310649,0.245002,-0.419771,0.816862 HandTipLeft:0.000000,0.000000,0.000000,0.000000 HandTipRight:0.000000,0.000000,0.000000,0.000000 Head:0.000000,0.000000,0.000000,0.000000 HipLeft:0.114627,-0.677299,0.708856,-0.160158 HipRight:-0.118376,0.690087,0.695922,-0.159561 KneeLeft:-0.031274,0.710040,-0.063626,-0.700583 KneeRight:-0.021128,0.703174,0.057325,0.708389 Neck:-0.009310,0.007142,0.997388,-0.071274 ShoulderLeft:-0.022905,0.778828,-0.622150,0.076360 ShoulderRight:-0.035840,0.810992,0.577663,-0.085514 SpineBase:0.005228,0.008281,0.999328,-0.035316 SpineMid:-0.001759,0.008528,0.999340,-0.035257 SpineShoulder:-0.009097,0.008194,0.998572,-0.051995 ThumbLeft:0.000000,0.000000,0.000000,0.000000 ThumbRight:0.000000,0.000000,0.000000,0.000000 WristLeft:-0.088821,0.827170,-0.058175,0.551830 WristRight:-0.299526,0.251779,-0.422420,0.817590 END:
KINECT_DATA POSITION:22.268816,-3.321754,-9.184492 HEAD_JOINT1:0.973309,0.185952,-0.000000,0.134501 LARM_JOINT2:0.821904,0.000000,-0.037490,-0.568390 LARM_JOINT3:0.973742,0.000000,-0.135701,-0.182789 LLEG_JOINT2:0.998068,0.022735,0.000000,0.057827 LLEG_JOINT4:0.994253,0.103527,0.000000,-0.027246 RARM_JOINT2:0.839465,0.000000,0.438776,0.320583 RARM_JOINT3:0.991038,0.000000,0.118498,-0.061662 RLEG_JOINT2:0.997592,0.025169,0.000000,-0.064624 RLEG_JOINT4:0.993672,0.092979,0.000000,0.063022 WAIST:0.999938,0.000000,-0.005543,0.009703 WAIST_JOINT0:0.999599,-0.000000,0.006231,0.027607 WAIST_JOINT1:0.998369,0.057002,0.000000,-0.003098 END:
KINECT_DATA_Sensor  AnkleLeft:-0.057553,-0.683628,0.118895,0.717778 AnkleRight:0.089374,0.691122,0.077319,0.713011 ElbowLeft:-0.036165,0.936143,-0.182817,-0.298172 ElbowRight:-0.432330,0.730286,-0.032931,0.527909 FootLeft:0.000000,0.000000,0.000000,0.000000 FootRight:0.000000,0.000000,0.000000,0.000000 HandLeft:-0.080181,0.818257,0.000877,0.569232 HandRight:-0.225900,0.059815,-0.477740,0.846850 HandTipLeft:0.000000,0.000000,0.000000,0.000000 HandTipRight:0.000000,0.000000,0.000000,0.000000 Head:0.000000,0.000000,0.000000,0.000000 HipLeft:0.114412,-0.677174,0.709000,-0.160200 HipRight:-0.118094,0.690026,0.695948,-0.159919 KneeLeft:-0.031894,0.709948,-0.063713,-0.700640 KneeRight:-0.020605,0.703258,0.056834,0.708360 Neck:-0.008540,0.006942,0.997384,-0.071444 ShoulderLeft:-0.023199,0.778882,-0.621987,0.077053 ShoulderRight:-0.035129,0.810814,0.578026,-0.085038 SpineBase:0.005124,0.007953,0.999319,-0.035674 SpineMid:-0.001441,0.008187,0.999331,-0.035621 SpineShoulder:-0.008338,0.007903,0.998570,-0.052217 ThumbLeft:0.000000,0.000000,0.000000,0.000000 ThumbRight:0.000000,0.000000,0.000000,0.000000 WristLeft:-0.088436,0.820149,-0.059501,0.562134 WristRight:-0.202109,0.073087,-0.475653,0.852974 END:
KINECT_DATA POSITION:22.255108,-3.327144,-9.209717 HEAD_JOINT1:0.973301,0.184901,-0.000000,0.136000 LARM_JOINT2:0.822271,0.000000,-0.037614,-0.567852 LARM_JOINT3:0.973317,0.000000,-0.138387,-0.183037 LLEG_JOINT2:0.998071,0.023198,0.000000,0.057581 LLEG_JOINT4:0.994200,0.104629,0.000000,-0.024870 RARM_JOINT2:0.841007,0.000000,0.436989,0.318980 RARM_JOINT3:0.990438,0.000000,0.124103,-0.060260 RLEG_JOINT2:0.997654,0.024252,0.000000,-0.064023 RLEG_JOINT4:0.993870,0.092969,0.000000,0.059832 WAIST:0.999935,0.000000,-0.005908,0.009758 WAIST_JOINT0:0.999598,-0.000000,0.005486,0.027803 WAIST_JOINT1:0.998355,0.057248,0.000000,-0.003263 END:
KINECT_DATA_Sensor  AnkleLeft:0.059713,0.699580,-0.120238,-0.701830 AnkleRight:0.088066,0.701078,0.077209,0.703400 ElbowLeft:-0.036799,0.935344,-0.183233,-0.300340 ElbowRight:-0.433819,0.736652,-0.024085,0.518233 FootLeft:0.000000,0.000000,0.000000,0.000000 FootRight:0.000000,0.000000,0.000000,0.000000 HandLeft:-0.087642,0.813974,-0.001269,0.574250 HandRight:-0.151547,-0.060978,-0.510597,0.844160 HandTipLeft:0.000000,0.000000,0.000000,0.000000 HandTipRight:0.000000,0.000000,0.000000,0.000000 Head:0.000000,0.000000,0.000000,0.000000 HipLeft:0.114354,-0.677034,0.709087,-0.160447 HipRight:-0.117588,0.690047,0.696044,-0.159781 KneeLeft:-0.031452,0.710216,-0.063899,-0.700372 KneeRight:-0.020778,0.702987,0.055732,0.708711 Neck:-0.007744,0.006812,0.997372,-0.071716 ShoulderLeft:-0.023243,0.778846,-0.621960,0.077617 ShoulderRight:-0.034128,0.810921,0.578039,-0.084338 SpineBase:0.005481,0.007937,0.999307,-0.035942 SpineMid:-0.000865,0.008165,0.999322,-0.035891 SpineShoulder:-0.007540,0.007800,0.998564,-0.052463 ThumbLeft:0.000000,0.000000,0.000000,0.000000 ThumbRight:0.000000,0.000000,0.000000,0.000000 WristLeft:-0.088567,0.816833,-0.061264,0.566733 WristRight:-0.129769,-0.049999,-0.500290,0.854617 END:
KINECT_DATA POSITION:22.247421,-3.332100,-9.230232 HEAD_JOINT1:0.973286,0.183388,-0.000000,0.138145 LARM_JOINT2:0.822772,0.000000,-0.037969,-0.567102 LARM_JOINT3:0.973385,0.000000,-0.136690,-0.183949 LLEG_JOINT2:0.998088,0.022926,0.000000,0.057396 LLEG_JOINT4:0.994372,0.103185,0.000000,-0.024011 RARM_JOINT2:0.841038,0.000000,0.437272,0.318510 RARM_JOINT3:0.990829,0.000000,0.122742,-0.056502 RLEG_JOINT2:0.997602,0.023630,0.000000,-0.065046 RLEG_JOINT4:0.993743,0.092741,0.000000,0.062248 WAIST:0.999932,0.000000,-0.005947,0.010007 WAIST_JOINT0:0.999601,-0.000000,0.004780,0.027821 WAIST_JOINT1:0.998343,0.057428,0.000000,-0.003585 END:
KINECT_DATA_Sensor  AnkleLeft:0.058814,0.705478,-0.119210,-0.696155 AnkleRight:0.087246,0.688405,0.077000,0.715931 ElbowLeft:-0.037081,0.935439,-0.183959,-0.299562 ElbowRight:-0.434141,0.737003,-0.023700,0.517480 FootLeft:0.000000,0.000000,0.000000,0.000000 FootRight:0.000000,0.000000,0.000000,0.000000 HandLeft:-0.081653,0.870884,0.012255,0.484504 HandRight:-0.240638,0.102923,-0.463521,0.846551 HandTipLeft:0.000000,0.000000,0.000000,0.000000 HandTipRight:0.000000,0.000000,0.000000,0.000000 Head:0.000000,0.000000,0.000000,0.000000 HipLeft:0.114341,-0.676852,0.709235,-0.160570 HipRight:-0.117501,0.690198,0.695878,-0.159920 KneeLeft:-0.031692,0.710223,-0.063750,-0.700368 KneeRight:-0.021762,0.702935,0.055849,0.708724 Neck:-0.006900,0.006654,0.997366,-0.071902 ShoulderLeft:-0.023667,0.778988,-0.621672,0.078363 ShoulderRight:-0.033448,0.810862,0.578243,-0.083787 SpineBase:0.005501,0.007968,0.999302,-0.036081 SpineMid:-0.000434,0.008182,0.999317,-0.036033 SpineShoulder:-0.006693,0.007699,0.998561,-0.052653 ThumbLeft:0.000000,0.000000,0.000000,0.000000 ThumbRight:0.000000,0.000000,0.000000,0.000000 WristLeft:-0.094333,0.872113,-0.051954,0.477307 WristRight:-0.222714,0.113576,-0.466266,0.848584 END:
KINECT_DATA POSITION:22.236565,-3.334988,-9.246624 HEAD_JOINT1:0.973284,0.183152,-0.000000,0.138467 LARM_JOINT2:0.822952,0.000000,-0.038317,-0.566818 LARM_JOINT3:0.973463,0.000000,-0.135381,-0.184503 LLEG_JOINT2:0.998084,0.022720,0.000000,0.057548 LLEG_JOINT4:0.994158,0.104899,0.000000,-0.025434 RARM_JOINT2:0.840237,0.000000,0.438468,0.318980 RARM_JOINT3:0.990827,0.000000,0.122823,-0.056365 RLEG_JOINT2:0.997601,0.022449,0.000000,-0.065487 RLEG_JOINT4:0.993633,0.094471,0.000000,0.061392 WAIST:0.999931,0.000000,-0.005958,0.010122 WAIST_JOINT0:0.999603,-0.000000,0.004643,0.027799 WAIST_JOINT1:0.998341,0.057471,0.000000,-0.003628 END:
KINECT_DATA_Sensor  AnkleLeft:0.060692,0.705217,-0.119443,-0.696218 AnkleRight:0.088246,0.701518,0.076589,0.703008 ElbowLeft:-0.037207,0.935787,-0.184286,-0.298256 ElbowRight:-0.433558,0.733319,-0.028516,0.522933 FootLeft:0.000000,0.000000,0.000000,0.000000 FootRight:0.000000,0.000000,0.000000,0.000000 HandLeft:-0.078295,0.618469,-0.016567,0.781723 HandRight:-0.316413,0.263207,-0.414444,0.811690 HandTipLeft:0.000000,0.000000,0.000000,0.000000 HandTipRight:0.000000,0.000000,0.000000,0.000000 Head:0.000000,0.000000,0.000000,0.000000 HipLeft:0.114396,-0.676737,0.709318,-0.160651 HipRight:-0.117592,0.690246,0.695806,-0.159961 KneeLeft:-0.032027,0.710215,-0.063791,-0.700357 KneeRight:-0.022834,0.702883,0.055252,0.708789 Neck:-0.006754,0.006695,0.997363,-0.071948 ShoulderLeft:-0.023679,0.778940,-0.621718,0.078480 ShoulderRight:-0.033271,0.810787,0.578372,-0.083682 SpineBase:0.005509,0.008091,0.999301,-0.036082 SpineMid:-0.000354,0.008303,0.999316,-0.036034 SpineShoulder:-0.006543,0.007771,0.998559,-0.052697 ThumbLeft:0.000000,0.000000,0.000000,0.000000 ThumbRight:0.000000,0.000000,0.000000,0.000000 WristLeft:-0.066640,0.620448,-0.084186,0.776863 WristRight:-0.306663,0.269008,-0.415933,0.812768 END:
KINECT_DATA POSITION:22.226070,-3.339159,-9.251034 HEAD_JOINT1:0.973267,0.183969,-0.000000,0.137502 LARM_JOINT2:0.822900,0.000000,-0.037993,-0.566915 LARM_JOINT3:0.973619,0.000000,-0.134548,-0.184290 LLEG_JOINT2:0.998070,0.022969,0.000000,0.057687 LLEG_JOINT4:0.994498,0.101364,0.000000,-0.026436 RARM_JOINT2:0.839514,0.000000,0.438242,0.321186 RARM_JOINT3:0.987669,0.000000,0.143119,-0.063462 RLEG_JOINT2:0.997665,0.022681,0.000000,-0.064420 RLEG_JOINT4:0.993583,0.095495,0.000000,0.060606 WAIST:0.999932,0.000000,-0.005867,0.010050 WAIST_JOINT0:0.999600,-0.000000,0.004883,0.027842 WAIST_JOINT1:0.998354,0.057251,0.000000,-0.003359 END:
KINECT_DATA_Sensor  AnkleLeft:-0.057555,-0.696817,0.117218,0.705261 AnkleRight:0.088502,0.694375,0.078215,0.709854 ElbowLeft:-0.037045,0.935932,-0.184431,-0.297731 ElbowRight:-0.431544,0.729662,-0.032981,0.529411 FootLeft:0.000000,0.000000,0.000000,0.000000 FootRight:0.000000,0.000000,0.000000,0.000000 HandLeft:-0.076335,0.635576,-0.014469,0.768119 HandRight:-0.243360,0.183114,-0.493443,0.814714 HandTipLeft:0.000000,0.000000,0.000000,0.000000 HandTipRight:0.000000,0.000000,0.000000,0.000000 Head:0.000000,0.000000,0.000000,0.000000 HipLeft:0.114448,-0.676804,0.709279,-0.160504 HipRight:-0.117881,0.690210,0.695822,-0.159829 KneeLeft:-0.031893,0.710161,-0.064019,-0.700397 KneeRight:-0.021977,0.702970,0.054702,0.708772 Neck:-0.007013,0.006932,0.997382,-0.071631 ShoulderLeft:-0.023766,0.778841,-0.621866,0.078254 ShoulderRight:-0.033717,0.810788,0.578320,-0.083860 SpineBase:0.005432,0.008265,0.999308,-0.035847 SpineMid:-0.000520,0.008478,0.999323,-0.035797 SpineShoulder:-0.006804,0.007956,0.998566,-0.052501 ThumbLeft:0.000000,0.000000,0.000000,0.000000 ThumbRight:0.000000,0.000000,0.000000,0.000000 WristLeft:-0.068057,0.637434,-0.082486,0.763048 WristRight:-0.253397,0.169638,-0.454107,0.837138 END:
KINECT_DATA POSITION:22.222446,-3.346182,-9.206986 HEAD_JOINT1:0.973830,0.183306,-0.000000,0.134369 LARM_JOINT2:0.822330,0.000000,-0.038665,-0.567696 LARM_JOINT3:0.973681,0.000000,-0.132942,-0.185126 LLEG_JOINT2:0.998086,0.023368,0.000000,0.057261 LLEG_JOINT4:0.994293,0.103148,0.000000,-0.027241 RARM_JOINT2:0.841764,0.000000,0.417597,0.342119 RARM_JOINT3:0.967351,0.000000,0.238538,-0.085630 RLEG_JOINT2:0.997616,0.019671,0.000000,-0.066139 RLEG_JOINT4:0.992973,0.099538,0.000000,0.064012 WAIST:0.999934,0.000000,-0.005728,0.009923 WAIST_JOINT0:0.999573,-0.000000,0.005905,0.028623 WAIST_JOINT1:0.998397,0.056510,0.000000,-0.003094 END:
KINECT_DATA_Sensor  AnkleLeft:-0.058890,-0.689423,0.118397,0.712187 AnkleRight:0.091267,0.702570,0.076726,0.701554 ElbowLeft:-0.037463,0.936793,-0.183335,-0.295642 ElbowRight:-0.413373,0.732730,-0.021410,0.540158 FootLeft:0.000000,0.000000,0.000000,0.000000 FootRight:0.000000,0.000000,0.000000,0.000000 HandLeft:-0.080701,0.796726,0.009127,0.598858 HandRight:-0.578857,0.762322,0.180988,-0.225906 HandTipLeft:0.000000,0.000000,0.000000,0.000000 HandTipRight:0.000000,0.000000,0.000000,0.000000 Head:0.000000,0.000000,0.000000,0.000000 HipLeft:0.114924,-0.676980,0.709136,-0.160054 HipRight:-0.118564,0.690193,0.695807,-0.159465 KneeLeft:-0.031211,0.710098,-0.063917,-0.700500 KneeRight:-0.025434,0.702907,0.053896,0.708781 Neck:-0.008040,0.007051,0.997451,-0.070555 ShoulderLeft:-0.022196,0.778554,-0.622545,0.076149 ShoulderRight:-0.033452,0.811262,0.577747,-0.083326 SpineBase:0.005313,0.008318,0.999335,-0.035090 SpineMid:-0.001089,0.008543,0.999349,-0.035036 SpineShoulder:-0.007829,0.008141,0.998591,-0.051855 ThumbLeft:0.000000,0.000000,0.000000,0.000000 ThumbRight:0.000000,0.000000,0.000000,0.000000 WristLeft:-0.085323,0.800556,-0.063528,0.589741 WristRight:-0.501854,0.814762,0.230337,-0.176779 END:
KINECT_DATA POSITION:22.206671,-3.349936,-9.110451 HEAD_JOINT1:0.974555,0.184650,-0.000000,0.127070 LARM_JOINT2:0.821173,0.000000,-0.037729,-0.569430 LARM_JOINT3:0.973981,0.000000,-0.132477,-0.183877 LLEG_JOINT2:0.998071,0.023188,0.000000,0.057590 LLEG_JOINT4:0.994133,0.104951,0.000000,-0.026157 RARM_JOINT2:0.854081,0.000000,0.370300,0.365271 RARM_JOINT3:0.918250,0.000000,0.387281,-0.082650 RLEG_JOINT2:0.997702,0.018515,0.000000,-0.065168 RLEG_JOINT4:0.992935,0.101190,0.000000,0.061977 WAIST:0.999940,0.000000,-0.004832,0.009821 WAIST_JOINT0:0.999559,-0.000000,0.007109,0.028844 WAIST_JOINT1:0.998437,0.055814,0.000000,-0.002970 END:
KINECT_DATA_Sensor  AnkleLeft:-0.059316,-0.689355,0.120331,0.711893 AnkleRight:0.089393,0.691035,0.079540,0.712848 ElbowLeft:-0.037813,0.934658,-0.181289,-0.303510 ElbowRight:-0.387775,0.761863,0.034861,0.517668 FootLeft:0.000000,0.000000,0.000000,0.000000 FootRight:0.000000,0.000000,0.000000,0.000000 HandLeft:-0.077948,0.801745,0.017827,0.592294 HandRight:-0.655987,0.729751,0.057950,-0.183810 HandTipLeft:0.000000,0.000000,0.000000,0.000000 HandTipRight:0.000000,0.000000,0.000000,0.000000 Head:0.000000,0.000000,0.000000,0.000000 HipLeft:0.115455,-0.677332,0.709000,-0.158778 HipRight:-0.120141,0.690157,0.695622,-0.159245 KneeLeft:-0.031448,0.709466,-0.063971,-0.701125 KneeRight:-0.025706,0.703513,0.052433,0.708279 Neck:-0.009159,0.006986,0.997504,-0.069659 ShoulderLeft:-0.019710,0.778590,-0.622923,0.073323 ShoulderRight:-0.032330,0.811302,0.577890,-0.082388 SpineBase:0.004438,0.008219,0.999388,-0.033699 SpineMid:-0.002087,0.008439,0.999396,-0.033644 SpineShoulder:-0.008949,0.008126,0.998614,-0.051220 ThumbLeft:0.000000,0.000000,0.000000,0.000000 ThumbRight:0.000000,0.000000,0.000000,0.000000 WristLeft:-0.086746,0.806052,-0.064570,0.581882 WristRight:-0.588432,0.789278,0.115027,-0.132502 END:
KINECT_DATA POSITION:22.176334,-3.341499,-8.917702 HEAD_JOINT1:0.974832,0.186970,-0.000000,0.121425 LARM_JOINT2:0.820141,0.000000,-0.029937,-0.571377 LARM_JOINT3:0.971803,0.000000,-0.139466,-0.190124 LLEG_JOINT2:0.998005,0.025577,0.000000,0.057715 LLEG_JOINT4:0.994421,0.102200,0.000000,-0.026102 RARM_JOINT2:0.840623,0.000000,0.246000,0.482531 RARM_JOINT3:0.787478,0.000000,0.608386,-0.098718 RLEG_JOINT2:0.997740,0.016757,0.000000,-0.065069 RLEG_JOINT4:0.992527,0.104744,0.000000,0.062605 WAIST:0.999954,0.000000,-0.000326,0.009580 WAIST_JOINT0:0.999532,-0.000000,0.010715,0.028666 WAIST_JOINT1:0.998505,0.054618,0.000000,-0.002279 END:
KINECT_DATA_Sensor  AnkleLeft:-0.059997,-0.688627,0.119541,0.712674 AnkleRight:0.088960,0.679339,0.082662,0.723707 ElbowLeft:-0.035631,0.926037,-0.181136,-0.329205 ElbowRight:-0.261481,0.742873,0.053774,0.613902 FootLeft:0.000000,0.000000,0.000000,0.000000 FootRight:0.000000,0.000000,0.000000,0.000000 HandLeft:-0.083581,0.829556,0.046489,0.550173 HandRight:0.795429,-0.543175,0.022363,0.267869 HandTipLeft:0.000000,0.000000,0.000000,0.000000 HandTipRight:0.000000,0.000000,0.000000,0.000000 Head:0.000000,0.000000,0.000000,0.000000 HipLeft:0.113765,-0.678277,0.709177,-0.155135 HipRight:-0.124054,0.689683,0.695123,-0.160477 KneeLeft:-0.029407,0.706368,-0.065690,-0.704176 KneeRight:-0.027325,0.706598,0.051140,0.705236 Neck:-0.012371,0.007312,0.997521,-0.068880 ShoulderLeft:-0.014715,0.778317,-0.624076,0.067349 ShoulderRight:-0.031351,0.809956,0.579899,-0.081891 SpineBase:-0.000011,0.008605,0.999454,-0.031899 SpineMid:-0.005928,0.008794,0.999436,-0.031847 SpineShoulder:-0.012180,0.008172,0.998647,-0.049882 ThumbLeft:0.000000,0.000000,0.000000,0.000000 ThumbRight:0.000000,0.000000,0.000000,0.000000 WristLeft:-0.096298,0.836802,-0.063249,0.535247 WristRight:-0.683832,0.711196,0.073084,-0.145714 END:
KINECT_DATA POSITION:21.965965,-3.412242,-8.542776 HEAD_JOINT1:0.976321,0.188920,-0.000000,0.105389 LARM_JOINT2:0.816431,0.000000,-0.018787,-0.577138 LARM_JOINT3:0.966924,0.000000,-0.150729,-0.205764 LLEG_JOINT2:0.997836,0.027079,0.000000,0.059921 LLEG_JOINT4:0.994411,0.102591,0.000000,-0.024923 RARM_JOINT2:0.833921,0.000000,0.367961,0.411314 RARM_JOINT3:0.762746,0.000000,0.640755,-0.087479 RLEG_JOINT2:0.997868,0.021494,0.000000,-0.061631 RLEG_JOINT4:0.992354,0.105559,0.000000,0.063952 WAIST:0.999864,-0.000000,0.014084,0.008588 WAIST_JOINT0:0.999282,-0.000000,0.026992,0.026573 WAIST_JOINT1:0.998654,0.051809,-0.000000,0.002290 END:
KINECT_DATA_Sensor  AnkleLeft:-0.062202,-0.683446,0.121118,0.717191 AnkleRight:0.094218,0.689277,0.085306,0.713263 ElbowLeft:-0.028553,0.916107,-0.180719,-0.356754 ElbowRight:-0.350589,0.796321,0.008639,0.492835 FootLeft:0.000000,0.000000,0.000000,0.000000 FootRight:0.000000,0.000000,0.000000,0.000000 HandLeft:-0.104783,0.850874,0.078505,0.508793 HandRight:0.772766,-0.521094,0.217341,0.289925 HandTipLeft:0.000000,0.000000,0.000000,0.000000 HandTipRight:0.000000,0.000000,0.000000,0.000000 Head:0.000000,0.000000,0.000000,0.000000 HipLeft:0.106073,-0.680529,0.710117,-0.146158 HipRight:-0.135316,0.687188,0.693998,-0.166822 KneeLeft:0.028300,-0.696193,0.067943,0.714072 KneeRight:-0.023078,0.716842,0.052341,0.694885 Neck:-0.029016,0.010542,0.997339,-0.066048 ShoulderLeft:-0.003850,0.776652,-0.627804,0.051571 ShoulderRight:-0.041994,0.806260,0.582738,-0.092727 SpineBase:-0.014250,0.010927,0.999399,-0.029636 SpineMid:-0.021359,0.011138,0.999273,-0.029558 SpineShoulder:-0.028824,0.010990,0.998417,-0.047039 ThumbLeft:0.000000,0.000000,0.000000,0.000000 ThumbRight:0.000000,0.000000,0.000000,0.000000 WristLeft:-0.110832,0.864068,-0.055931,0.487826 WristRight:0.757491,-0.613347,0.123273,0.186593 END:
