EastLYD/RoboCupatHomeSim/InteractiveCleanUp/JapanOpen2016/Motion_Data/File38.dat
KINECT_DATA POSITION:33.308769,1.219016,-19.638836 HEAD_JOINT1:0.976958,0.180097,-0.000000,0.114531 LARM_JOINT2:0.833219,0.000000,-0.024359,-0.552406 LARM_JOINT3:0.967784,0.000000,-0.162419,-0.192389 LLEG_JOINT2:0.999417,0.012604,0.000000,0.031732 LLEG_JOINT4:0.993946,0.095511,0.000000,-0.054295 RARM_JOINT2:0.784456,0.000000,-0.101649,0.611798 RARM_JOINT3:0.953730,0.000000,0.225281,0.199117 RLEG_JOINT2:0.999950,0.008076,0.000000,0.005831 RLEG_JOINT4:0.995210,0.095141,0.000000,0.022497 WAIST:0.999961,0.000000,-0.008797,-0.000938 WAIST_JOINT0:0.998920,0.000000,-0.046376,0.002832 WAIST_JOINT1:0.996818,0.077942,0.000000,-0.016683 END:
KINECT_DATA_Sensor  AnkleLeft:0.093894,0.722027,-0.058332,-0.682978 AnkleRight:0.091756,0.683567,0.054523,0.722042 ElbowLeft:-0.016339,0.921380,-0.188032,-0.339759 ElbowRight:0.066492,0.834595,0.195501,0.510694 FootLeft:0.000000,0.000000,0.000000,0.000000 FootRight:0.000000,0.000000,0.000000,0.000000 HandLeft:-0.037349,-0.564921,-0.081562,0.820254 HandRight:0.049975,0.602150,-0.173321,0.777739 HandTipLeft:0.000000,0.000000,0.000000,0.000000 HandTipRight:0.000000,0.000000,0.000000,0.000000 Head:0.000000,0.000000,0.000000,0.000000 HipLeft:0.114193,-0.680302,0.702915,-0.173376 HipRight:-0.104636,0.677158,0.706030,-0.178967 KneeLeft:-0.013162,0.712345,-0.030556,-0.701040 KneeRight:0.009185,0.701744,0.002152,0.712367 Neck:0.044613,-0.021566,0.994388,-0.093475 ShoulderLeft:0.009057,0.781022,-0.617516,0.092721 ShoulderRight:0.067790,0.783373,0.617499,-0.020657 SpineBase:0.008046,-0.015051,0.998394,-0.054028 SpineMid:0.026102,-0.016026,0.998085,-0.053747 SpineShoulder:0.044540,-0.019121,0.996209,-0.072238 ThumbLeft:0.000000,0.000000,0.000000,0.000000 ThumbRight:0.000000,0.000000,0.000000,0.000000 WristLeft:0.051984,-0.553803,-0.097237,0.825315 WristRight:-0.054212,0.583385,-0.072411,0.807143 END:
KINECT_DATA POSITION:33.330204,1.229093,-19.719578 HEAD_JOINT1:0.976824,0.181438,-0.000000,0.113561 LARM_JOINT2:0.833687,0.000000,-0.022683,-0.551771 LARM_JOINT3:0.967544,0.000000,-0.163699,-0.192512 LLEG_JOINT2:0.999398,0.012582,0.000000,0.032336 LLEG_JOINT4:0.993833,0.096325,0.000000,-0.054931 RARM_JOINT2:0.784135,0.000000,-0.102743,0.612026 RARM_JOINT3:0.953925,0.000000,0.224783,0.198744 RLEG_JOINT2:0.999959,0.006974,0.000000,0.005801 RLEG_JOINT4:0.995094,0.096157,0.000000,0.023291 WAIST:0.999952,0.000000,-0.009676,-0.001228 WAIST_JOINT0:0.998939,0.000000,-0.046008,0.002158 WAIST_JOINT1:0.996925,0.076485,0.000000,-0.017039 END:
KINECT_DATA_Sensor  AnkleLeft:0.094573,0.721814,-0.058827,-0.683067 AnkleRight:0.095098,0.724160,0.048551,0.681316 ElbowLeft:-0.016027,0.922647,-0.188250,-0.336195 ElbowRight:0.066527,0.835250,0.195100,0.509772 FootLeft:0.000000,0.000000,0.000000,0.000000 FootRight:0.000000,0.000000,0.000000,0.000000 HandLeft:-0.016711,-0.663042,-0.088481,0.743147 HandRight:0.046864,0.586423,-0.172388,0.790059 HandTipLeft:0.000000,0.000000,0.000000,0.000000 HandTipRight:0.000000,0.000000,0.000000,0.000000 Head:0.000000,0.000000,0.000000,0.000000 HipLeft:0.115347,-0.680533,0.702557,-0.173160 HipRight:-0.104612,0.677243,0.706250,-0.177790 KneeLeft:-0.013431,0.712979,-0.030747,-0.700382 KneeRight:0.008174,0.701133,0.001600,0.712982 Neck:0.044324,-0.022131,0.994537,-0.091877 ShoulderLeft:0.008270,0.781823,-0.616686,0.091552 ShoulderRight:0.066569,0.783399,0.617621,-0.019992 SpineBase:0.008950,-0.015320,0.998434,-0.053047 SpineMid:0.026422,-0.016246,0.998125,-0.052771 SpineShoulder:0.044253,-0.019532,0.996313,-0.070855 ThumbLeft:0.000000,0.000000,0.000000,0.000000 ThumbRight:0.000000,0.000000,0.000000,0.000000 WristLeft:0.062074,-0.652348,-0.090783,0.749898 WristRight:-0.052240,0.568926,-0.072910,0.817483 END:
KINECT_DATA POSITION:33.373363,1.235173,-19.757414 HEAD_JOINT1:0.975882,0.185318,-0.000000,0.115373 LARM_JOINT2:0.834062,0.000000,-0.020704,-0.551282 LARM_JOINT3:0.967227,0.000000,-0.164491,-0.193428 LLEG_JOINT2:0.999393,0.012301,0.000000,0.032584 LLEG_JOINT4:0.993572,0.099357,0.000000,-0.054247 RARM_JOINT2:0.783646,0.000000,-0.104525,0.612350 RARM_JOINT3:0.953568,0.000000,0.225238,0.199941 RLEG_JOINT2:0.999965,0.005702,0.000000,0.006106 RLEG_JOINT4:0.994947,0.098034,0.000000,0.021693 WAIST:0.999944,0.000000,-0.010483,-0.001355 WAIST_JOINT0:0.998966,0.000000,-0.045383,0.002734 WAIST_JOINT1:0.997025,0.074880,0.000000,-0.018264 END:
KINECT_DATA_Sensor  AnkleLeft:0.095878,0.721497,-0.061477,-0.682986 AnkleRight:0.094354,0.719806,0.050468,0.685878 ElbowLeft:-0.015159,0.924182,-0.187727,-0.332291 ElbowRight:0.066127,0.834421,0.195452,0.511045 FootLeft:0.000000,0.000000,0.000000,0.000000 FootRight:0.000000,0.000000,0.000000,0.000000 HandLeft:-0.005540,0.775670,0.099000,-0.623301 HandRight:0.043779,0.596101,-0.177357,0.781851 HandTipLeft:0.000000,0.000000,0.000000,0.000000 HandTipRight:0.000000,0.000000,0.000000,0.000000 Head:0.000000,0.000000,0.000000,0.000000 HipLeft:0.117030,-0.680768,0.702196,-0.172566 HipRight:-0.104801,0.677414,0.706313,-0.176776 KneeLeft:-0.013742,0.713514,-0.030618,-0.699837 KneeRight:0.007390,0.700623,0.000575,0.713493 Neck:0.043789,-0.023329,0.994683,-0.090246 ShoulderLeft:0.005582,0.782176,-0.616282,0.091463 ShoulderRight:0.063226,0.783945,0.617257,-0.020681 SpineBase:0.009735,-0.016310,0.998483,-0.051690 SpineMid:0.026539,-0.017178,0.998177,-0.051408 SpineShoulder:0.043695,-0.020665,0.996426,-0.069273 ThumbLeft:0.000000,0.000000,0.000000,0.000000 ThumbRight:0.000000,0.000000,0.000000,0.000000 WristLeft:-0.074476,0.771696,0.078368,-0.626735 WristRight:-0.054138,0.578658,-0.072206,0.810562 END:
KINECT_DATA POSITION:33.409039,1.219586,-19.758057 HEAD_JOINT1:0.975753,0.185283,-0.000000,0.116520 LARM_JOINT2:0.834482,0.000000,-0.021689,-0.550608 LARM_JOINT3:0.966302,0.000000,-0.170768,-0.192612 LLEG_JOINT2:0.999387,0.011593,0.000000,0.033045 LLEG_JOINT4:0.993815,0.097847,0.000000,-0.052515 RARM_JOINT2:0.783508,0.000000,-0.104466,0.612537 RARM_JOINT3:0.953450,0.000000,0.226121,0.199505 RLEG_JOINT2:0.999966,0.004434,0.000000,0.006927 RLEG_JOINT4:0.995003,0.098208,0.000000,0.017989 WAIST:0.999943,0.000000,-0.010579,-0.001665 WAIST_JOINT0:0.998928,0.000000,-0.046199,0.002850 WAIST_JOINT1:0.996974,0.075410,0.000000,-0.018882 END:
KINECT_DATA_Sensor  AnkleLeft:0.093020,0.722411,-0.061209,-0.682440 AnkleRight:0.093692,0.750666,0.047832,0.652254 ElbowLeft:-0.015251,0.924641,-0.187454,-0.331160 ElbowRight:0.066310,0.834516,0.196232,0.510568 FootLeft:0.000000,0.000000,0.000000,0.000000 FootRight:0.000000,0.000000,0.000000,0.000000 HandLeft:-0.041089,0.848149,0.115141,-0.515458 HandRight:0.034767,0.618358,-0.177302,0.764845 HandTipLeft:0.000000,0.000000,0.000000,0.000000 HandTipRight:0.000000,0.000000,0.000000,0.000000 Head:0.000000,0.000000,0.000000,0.000000 HipLeft:0.117172,-0.680991,0.701956,-0.172570 HipRight:-0.104503,0.677163,0.706545,-0.176986 KneeLeft:-0.014353,0.713530,-0.030212,-0.699826 KneeRight:0.006837,0.700621,-0.000681,0.713500 Neck:0.044532,-0.024367,0.994567,-0.090884 ShoulderLeft:0.005057,0.782414,-0.615824,0.092542 ShoulderRight:0.063718,0.784305,0.616755,-0.020459 SpineBase:0.009822,-0.017053,0.998462,-0.051825 SpineMid:0.026942,-0.017939,0.998147,-0.051525 SpineShoulder:0.044426,-0.021624,0.996342,-0.069720 ThumbLeft:0.000000,0.000000,0.000000,0.000000 ThumbRight:0.000000,0.000000,0.000000,0.000000 WristLeft:-0.083723,0.847840,0.067133,-0.519279 WristRight:-0.056337,0.602731,-0.070515,0.792824 END:
KINECT_DATA POSITION:33.474712,1.191490,-19.673706 HEAD_JOINT1:0.976003,0.181760,-0.000000,0.119922 LARM_JOINT2:0.835313,0.000000,-0.024397,-0.549232 LARM_JOINT3:0.963955,0.000000,-0.179392,-0.196494 LLEG_JOINT2:0.999354,0.010847,0.000000,0.034268 LLEG_JOINT4:0.993441,0.100997,0.000000,-0.053607 RARM_JOINT2:0.787954,0.000000,-0.111370,0.605579 RARM_JOINT3:0.949896,0.000000,0.232221,0.209216 RLEG_JOINT2:0.999958,0.005231,0.000000,0.007586 RLEG_JOINT4:0.994963,0.098816,0.000000,0.016850 WAIST:0.999914,0.000000,-0.012946,-0.002128 WAIST_JOINT0:0.999003,0.000000,-0.044592,0.002279 WAIST_JOINT1:0.996899,0.076261,0.000000,-0.019399 END:
KINECT_DATA_Sensor  AnkleLeft:0.094616,0.721474,-0.063172,-0.683032 AnkleRight:0.089309,0.685244,0.057743,0.720507 ElbowLeft:-0.017041,0.925979,-0.187348,-0.327373 ElbowRight:0.069995,0.835268,0.206025,0.504957 FootLeft:0.000000,0.000000,0.000000,0.000000 FootRight:0.000000,0.000000,0.000000,0.000000 HandLeft:-0.023119,0.714016,0.158910,-0.681465 HandRight:0.028667,0.588370,-0.178597,0.788100 HandTipLeft:0.000000,0.000000,0.000000,0.000000 HandTipRight:0.000000,0.000000,0.000000,0.000000 Head:0.000000,0.000000,0.000000,0.000000 HipLeft:0.118345,-0.680941,0.701440,-0.174055 HipRight:-0.102418,0.677089,0.707152,-0.176058 KneeLeft:-0.015499,0.715108,-0.030165,-0.698191 KneeRight:0.007535,0.698948,-0.000289,0.715133 Neck:0.042970,-0.024794,0.994528,-0.091939 ShoulderLeft:0.001747,0.782599,-0.615132,0.095644 ShoulderRight:0.058502,0.785336,0.615756,-0.025887 SpineBase:0.012174,-0.017900,0.998391,-0.052403 SpineMid:0.027324,-0.018693,0.998092,-0.052125 SpineShoulder:0.042841,-0.022166,0.996334,-0.070654 ThumbLeft:0.000000,0.000000,0.000000,0.000000 ThumbRight:0.000000,0.000000,0.000000,0.000000 WristLeft:-0.067764,0.719038,0.084939,-0.686424 WristRight:-0.053642,0.574601,-0.072700,0.813431 END:
KINECT_DATA POSITION:33.515911,1.125222,-19.393551 HEAD_JOINT1:0.976639,0.177617,-0.000000,0.120945 LARM_JOINT2:0.837660,0.000000,-0.032996,-0.545194 LARM_JOINT3:0.951692,0.000000,-0.202164,-0.231109 LLEG_JOINT2:0.999297,0.012876,0.000000,0.035203 LLEG_JOINT4:0.993999,0.096663,0.000000,-0.051217 RARM_JOINT2:0.789728,0.000000,-0.115790,0.602431 RARM_JOINT3:0.947165,0.000000,0.237018,0.216102 RLEG_JOINT2:0.999938,0.007084,0.000000,0.008628 RLEG_JOINT4:0.995022,0.097856,0.000000,0.018871 WAIST:0.999877,0.000000,-0.015353,-0.003330 WAIST_JOINT0:0.998936,0.000000,-0.046066,0.002012 WAIST_JOINT1:0.996867,0.076750,0.000000,-0.019120 END:
KINECT_DATA_Sensor  AnkleLeft:0.091244,0.722841,-0.063351,-0.682028 AnkleRight:0.094637,0.725756,0.051187,0.679487 ElbowLeft:-0.022403,0.931512,-0.188116,-0.310477 ElbowRight:0.072937,0.834652,0.210995,0.503506 FootLeft:0.000000,0.000000,0.000000,0.000000 FootRight:0.000000,0.000000,0.000000,0.000000 HandLeft:-0.056683,0.854917,0.229403,-0.461821 HandRight:0.022378,0.584881,-0.185204,0.789375 HandTipLeft:0.000000,0.000000,0.000000,0.000000 HandTipRight:0.000000,0.000000,0.000000,0.000000 Head:0.000000,0.000000,0.000000,0.000000 HipLeft:0.119511,-0.681324,0.700529,-0.175424 HipRight:-0.100381,0.676518,0.708324,-0.174710 KneeLeft:-0.013982,0.716896,-0.031386,-0.696333 KneeRight:0.008740,0.697144,0.001080,0.716877 Neck:0.044427,-0.025446,0.994397,-0.092486 ShoulderLeft:-0.001173,0.782301,-0.615010,0.098826 ShoulderRight:0.057549,0.785355,0.615786,-0.026725 SpineBase:0.014646,-0.018762,0.998323,-0.052773 SpineMid:0.029274,-0.019534,0.998001,-0.052492 SpineShoulder:0.044287,-0.022835,0.996218,-0.071182 ThumbLeft:0.000000,0.000000,0.000000,0.000000 ThumbRight:0.000000,0.000000,0.000000,0.000000 WristLeft:-0.090396,0.871441,0.097903,-0.472053 WristRight:-0.053200,0.572669,-0.074071,0.814699 END:
KINECT_DATA POSITION:33.411266,1.048887,-18.942415 HEAD_JOINT1:0.977233,0.172372,-0.000000,0.123710 LARM_JOINT2:0.839376,0.000000,-0.032397,-0.542585 LARM_JOINT3:0.947323,0.000000,-0.207302,-0.244143 LLEG_JOINT2:0.999146,0.017660,0.000000,0.037362 LLEG_JOINT4:0.993918,0.096210,0.000000,-0.053578 RARM_JOINT2:0.785276,0.000000,-0.111463,0.609030 RARM_JOINT3:0.949387,0.000000,0.234715,0.208741 RLEG_JOINT2:0.999894,0.009687,0.000000,0.010897 RLEG_JOINT4:0.995096,0.097214,0.000000,0.018255 WAIST:0.999842,0.000000,-0.017168,-0.004520 WAIST_JOINT0:0.998426,0.000000,-0.056053,0.001603 WAIST_JOINT1:0.996998,0.074980,0.000000,-0.019329 END:
KINECT_DATA_Sensor  AnkleLeft:0.095526,0.727610,-0.064970,-0.676193 AnkleRight:0.097069,0.732205,0.050819,0.672214 ElbowLeft:-0.023931,0.932998,-0.189289,-0.305143 ElbowRight:0.070504,0.833040,0.203230,0.509678 FootLeft:0.000000,0.000000,0.000000,0.000000 FootRight:0.000000,0.000000,0.000000,0.000000 HandLeft:-0.025040,0.815219,0.236585,-0.528033 HandRight:0.021663,0.583003,-0.183925,0.791081 HandTipLeft:0.000000,0.000000,0.000000,0.000000 HandTipRight:0.000000,0.000000,0.000000,0.000000 Head:0.000000,0.000000,0.000000,0.000000 HipLeft:0.122571,-0.682143,0.699350,-0.174833 HipRight:-0.100645,0.676062,0.709215,-0.172700 KneeLeft:-0.011419,0.718388,-0.035462,-0.694644 KneeRight:0.011345,0.695695,0.002077,0.718245 Neck:0.054451,-0.027329,0.994012,-0.090715 ShoulderLeft:-0.007156,0.783995,-0.612035,0.103504 ShoulderRight:0.064229,0.785661,0.615115,-0.015629 SpineBase:0.016521,-0.020464,0.998377,-0.050513 SpineMid:0.035147,-0.021403,0.997895,-0.050123 SpineShoulder:0.054290,-0.024665,0.995823,-0.069143 ThumbLeft:0.000000,0.000000,0.000000,0.000000 ThumbRight:0.000000,0.000000,0.000000,0.000000 WristLeft:-0.081912,0.829631,0.122086,-0.538608 WristRight:-0.053823,0.570692,-0.076273,0.815841 END:
KINECT_DATA POSITION:33.177979,0.991080,-18.464720 HEAD_JOINT1:0.977365,0.169011,-0.000000,0.127251 LARM_JOINT2:0.839571,0.000000,-0.035142,-0.542112 LARM_JOINT3:0.949382,0.000000,-0.199194,-0.242891 LLEG_JOINT2:0.998930,0.021605,0.000000,0.040898 LLEG_JOINT4:0.994011,0.092354,0.000000,-0.058421 RARM_JOINT2:0.782057,0.000000,-0.111795,0.613098 RARM_JOINT3:0.950284,0.000000,0.234663,0.204680 RLEG_JOINT2:0.999833,0.011437,0.000000,0.014289 RLEG_JOINT4:0.994899,0.099304,0.000000,0.017740 WAIST:0.999798,0.000000,-0.019122,-0.006201 WAIST_JOINT0:0.998000,0.000000,-0.063213,0.000261 WAIST_JOINT1:0.997213,0.071986,0.000000,-0.019592 END:
KINECT_DATA_Sensor  AnkleLeft:0.096633,0.719319,-0.064392,-0.684906 AnkleRight:0.096257,0.673669,0.060183,0.730262 ElbowLeft:-0.027576,0.935824,-0.186098,-0.298060 ElbowRight:0.069333,0.831090,0.198940,0.514689 FootLeft:0.000000,0.000000,0.000000,0.000000 FootRight:0.000000,0.000000,0.000000,0.000000 HandLeft:-0.030562,0.861926,0.208101,-0.461349 HandRight:0.011960,0.584541,-0.186933,0.789446 HandTipLeft:0.000000,0.000000,0.000000,0.000000 HandTipRight:0.000000,0.000000,0.000000,0.000000 Head:0.000000,0.000000,0.000000,0.000000 HipLeft:0.126406,-0.683471,0.697689,-0.173546 HipRight:-0.101323,0.675380,0.710365,-0.170226 KneeLeft:-0.010105,0.719974,-0.039546,-0.692800 KneeRight:0.013767,0.694132,0.002005,0.719713 Neck:0.061753,-0.029290,0.993788,-0.087828 ShoulderLeft:-0.013371,0.786105,-0.608759,0.106172 ShoulderRight:0.067081,0.785656,0.614977,-0.006927 SpineBase:0.018553,-0.022958,0.998443,-0.047326 SpineMid:0.039710,-0.023956,0.997826,-0.046829 SpineShoulder:0.061527,-0.026825,0.995567,-0.065895 ThumbLeft:0.000000,0.000000,0.000000,0.000000 ThumbRight:0.000000,0.000000,0.000000,0.000000 WristLeft:-0.090886,0.868736,0.121002,-0.471589 WristRight:-0.055085,0.574106,-0.076725,0.813315 END:
KINECT_DATA POSITION:33.123352,0.966909,-18.231094 HEAD_JOINT1:0.977769,0.166906,-0.000000,0.126926 LARM_JOINT2:0.839047,0.000000,-0.034110,-0.542988 LARM_JOINT3:0.952597,0.000000,-0.190315,-0.237357 LLEG_JOINT2:0.998966,0.020924,0.000000,0.040375 LLEG_JOINT4:0.993697,0.099187,0.000000,-0.052237 RARM_JOINT2:0.781066,0.000000,-0.111086,0.614488 RARM_JOINT3:0.951041,0.000000,0.233433,0.202559 RLEG_JOINT2:0.999828,0.011760,0.000000,0.014352 RLEG_JOINT4:0.994509,0.102941,0.000000,0.018865 WAIST:0.999801,0.000000,-0.018696,-0.006945 WAIST_JOINT0:0.997924,0.000000,-0.064399,0.000093 WAIST_JOINT1:0.997289,0.071013,0.000000,-0.019265 END:
KINECT_DATA_Sensor  AnkleLeft:0.098843,0.731794,-0.070263,-0.670649 AnkleRight:0.099253,0.672750,0.062823,0.730486 ElbowLeft:-0.026797,0.936303,-0.184873,-0.297390 ElbowRight:0.067993,0.830431,0.197285,0.516566 FootLeft:0.000000,0.000000,0.000000,0.000000 FootRight:0.000000,0.000000,0.000000,0.000000 HandLeft:0.000447,0.806259,0.178445,-0.564006 HandRight:0.010982,0.596573,-0.183354,0.781256 HandTipLeft:0.000000,0.000000,0.000000,0.000000 HandTipRight:0.000000,0.000000,0.000000,0.000000 Head:0.000000,0.000000,0.000000,0.000000 HipLeft:0.126377,-0.684054,0.697244,-0.173060 HipRight:-0.101896,0.674859,0.710802,-0.170127 KneeLeft:-0.009657,0.719715,-0.038173,-0.693152 KneeRight:0.013518,0.694380,0.002718,0.719476 Neck:0.062844,-0.029942,0.993823,-0.086430 ShoulderLeft:-0.012718,0.786988,-0.607855,0.104883 ShoulderRight:0.069022,0.785837,0.614558,-0.003844 SpineBase:0.018195,-0.023136,0.998466,-0.046887 SpineMid:0.040084,-0.024159,0.997827,-0.046369 SpineShoulder:0.062628,-0.027310,0.995546,-0.064962 ThumbLeft:0.000000,0.000000,0.000000,0.000000 ThumbRight:0.000000,0.000000,0.000000,0.000000 WristLeft:-0.074481,0.805865,0.128278,-0.573218 WristRight:-0.057288,0.585802,-0.076539,0.804795 END:
KINECT_DATA POSITION:32.586216,0.959116,-18.006134 HEAD_JOINT1:0.978050,0.166654,-0.000000,0.125077 LARM_JOINT2:0.830592,0.000000,-0.082809,-0.550690 LARM_JOINT3:0.933461,0.000000,-0.277610,-0.227120 LLEG_JOINT2:0.998353,0.024337,0.000000,0.051950 LLEG_JOINT4:0.993254,0.098841,0.000000,-0.060632 RARM_JOINT2:0.781054,0.000000,-0.114268,0.613920 RARM_JOINT3:0.948698,0.000000,0.233410,0.213290 RLEG_JOINT2:0.999527,0.013411,0.000000,0.027661 RLEG_JOINT4:0.994726,0.101996,0.000000,0.010784 WAIST:0.999713,0.000000,-0.020640,-0.012164 WAIST_JOINT0:0.997979,0.000000,-0.063526,-0.001379 WAIST_JOINT1:0.997439,0.069384,0.000000,-0.017360 END:
KINECT_DATA_Sensor  AnkleLeft:0.102056,0.730830,-0.071237,-0.671116 AnkleRight:0.105220,0.737343,0.053438,0.665130 ElbowLeft:-0.067151,0.926346,-0.150302,-0.338796 ElbowRight:0.068499,0.831107,0.200012,0.514359 FootLeft:0.000000,0.000000,0.000000,0.000000 FootRight:0.000000,0.000000,0.000000,0.000000 HandLeft:-0.157708,0.835872,0.311043,-0.423909 HandRight:0.025522,0.583403,-0.198714,0.787085 HandTipLeft:0.000000,0.000000,0.000000,0.000000 HandTipRight:0.000000,0.000000,0.000000,0.000000 Head:0.000000,0.000000,0.000000,0.000000 HipLeft:0.129426,-0.687880,0.693418,-0.171002 HipRight:-0.101001,0.671814,0.714518,-0.167120 KneeLeft:-0.012019,0.721380,-0.044945,-0.690975 KneeRight:0.020228,0.692592,-0.002089,0.721043 Neck:0.062140,-0.031669,0.993934,-0.085030 ShoulderLeft:-0.015544,0.788365,-0.606089,0.104382 ShoulderRight:0.065155,0.786354,0.614313,-0.004596 SpineBase:0.020394,-0.028358,0.998419,-0.044028 SpineMid:0.040612,-0.029244,0.997802,-0.043445 SpineShoulder:0.061706,-0.030594,0.995622,-0.063196 ThumbLeft:0.000000,0.000000,0.000000,0.000000 ThumbRight:0.000000,0.000000,0.000000,0.000000 WristLeft:-0.144534,0.862794,0.183500,-0.448358 WristRight:-0.055895,0.569299,-0.078526,0.816460 END:
KINECT_DATA POSITION:31.590111,0.952293,-17.831253 HEAD_JOINT1:0.978525,0.165199,-0.000000,0.123284 LARM_JOINT2:0.827693,0.000000,-0.189752,-0.528128 LARM_JOINT3:0.941642,0.000000,-0.275003,-0.194121 LLEG_JOINT2:0.996231,0.028209,0.000000,0.082019 LLEG_JOINT4:0.992480,0.097358,0.000000,-0.074192 RARM_JOINT2:0.776739,0.000000,-0.112255,0.619738 RARM_JOINT3:0.952375,0.000000,0.223475,0.207465 RLEG_JOINT2:0.998280,0.016951,0.000000,0.056127 RLEG_JOINT4:0.995154,0.098309,0.000000,-0.001984 WAIST:0.999347,0.000000,-0.023686,-0.027300 WAIST_JOINT0:0.997315,0.000000,-0.073066,-0.004936 WAIST_JOINT1:0.997822,0.065277,0.000000,-0.009538 END:
KINECT_DATA_Sensor  AnkleLeft:0.102663,0.735926,-0.073235,-0.665215 AnkleRight:0.104605,0.727473,0.053663,0.675989 ElbowLeft:-0.147780,0.937602,-0.109695,-0.295011 ElbowRight:0.064335,0.831705,0.196547,0.515264 FootLeft:0.000000,0.000000,0.000000,0.000000 FootRight:0.000000,0.000000,0.000000,0.000000 HandLeft:-0.117699,-0.245596,-0.357700,0.893242 HandRight:0.028888,0.573193,-0.168002,0.801493 HandTipLeft:0.000000,0.000000,0.000000,0.000000 HandTipRight:0.000000,0.000000,0.000000,0.000000 Head:0.000000,0.000000,0.000000,0.000000 HipLeft:-0.135343,0.698080,-0.682414,0.169344 HipRight:-0.101402,0.662078,0.724392,-0.163180 KneeLeft:-0.020519,0.724234,-0.057803,-0.686821 KneeRight:0.031718,0.689142,-0.009623,0.723868 Neck:0.071764,-0.038436,0.993584,-0.078506 ShoulderLeft:-0.027208,0.790450,-0.601913,0.110219 ShoulderRight:0.065809,0.785060,0.615896,0.004631 SpineBase:0.024294,-0.037595,0.998213,-0.039600 SpineMid:0.047106,-0.038491,0.997396,-0.038731 SpineShoulder:0.071183,-0.038128,0.994986,-0.059011 ThumbLeft:0.000000,0.000000,0.000000,0.000000 ThumbRight:0.000000,0.000000,0.000000,0.000000 WristLeft:-0.051414,-0.230219,-0.289626,0.927617 WristRight:-0.056848,0.558150,-0.080661,0.823851 END:
KINECT_DATA POSITION:30.992022,0.960307,-17.834450 HEAD_JOINT1:0.978611,0.164645,-0.000000,0.123337 LARM_JOINT2:0.822534,0.000000,-0.279041,-0.495554 LARM_JOINT3:0.949297,0.000000,-0.268787,-0.163062 LLEG_JOINT2:0.994556,0.031263,0.000000,0.099402 LLEG_JOINT4:0.991726,0.093598,0.000000,-0.087862 RARM_JOINT2:0.773851,0.000000,-0.116223,0.622613 RARM_JOINT3:0.953686,0.000000,0.212649,0.212751 RLEG_JOINT2:0.997342,0.016539,0.000000,0.070956 RLEG_JOINT4:0.994983,0.099551,0.000000,-0.009919 WAIST:0.998871,0.000000,-0.031845,-0.035243 WAIST_JOINT0:0.996118,0.000000,-0.087682,-0.007832 WAIST_JOINT1:0.998129,0.060573,0.000000,-0.008321 END:
KINECT_DATA_Sensor  AnkleLeft:0.104379,0.743105,-0.069852,-0.657283 AnkleRight:0.106725,0.749444,0.049538,0.651528 ElbowLeft:-0.221099,0.936576,-0.073565,-0.261780 ElbowRight:0.064014,0.829551,0.196350,0.518840 FootLeft:0.000000,0.000000,0.000000,0.000000 FootRight:0.000000,0.000000,0.000000,0.000000 HandLeft:-0.136917,-0.212480,-0.384013,0.888054 HandRight:0.052280,0.559912,-0.152811,0.812658 HandTipLeft:0.000000,0.000000,0.000000,0.000000 HandTipRight:0.000000,0.000000,0.000000,0.000000 Head:0.000000,0.000000,0.000000,0.000000 HipLeft:-0.142955,0.702185,-0.675894,0.172242 HipRight:-0.098886,0.657366,0.730217,-0.157718 KneeLeft:-0.026081,0.730217,-0.066052,-0.679515 KneeRight:0.035732,0.682714,-0.015521,0.729647 Neck:0.086281,-0.046362,0.992547,-0.072505 ShoulderLeft:-0.045676,0.791146,-0.597718,0.121384 ShoulderRight:0.066142,0.783976,0.617041,0.016351 SpineBase:0.032794,-0.042542,0.997885,-0.036603 SpineMid:0.058620,-0.043475,0.996702,-0.035490 SpineShoulder:0.085780,-0.044129,0.993870,-0.054003 ThumbLeft:0.000000,0.000000,0.000000,0.000000 ThumbRight:0.000000,0.000000,0.000000,0.000000 WristLeft:-0.069104,-0.191440,-0.342329,0.917271 WristRight:-0.056717,0.540009,-0.081151,0.835816 END:
KINECT_DATA POSITION:30.859921,0.962299,-17.855633 HEAD_JOINT1:0.978631,0.164253,-0.000000,0.123702 LARM_JOINT2:0.817748,0.000000,-0.322447,-0.476777 LARM_JOINT3:0.958964,0.000000,-0.244416,-0.143696 LLEG_JOINT2:0.994148,0.034388,0.000000,0.102404 LLEG_JOINT4:0.991761,0.087882,0.000000,-0.093202 RARM_JOINT2:0.772244,0.000000,-0.118288,0.624217 RARM_JOINT3:0.953332,0.000000,0.213671,0.213315 RLEG_JOINT2:0.997170,0.017074,0.000000,0.073217 RLEG_JOINT4:0.995293,0.096052,0.000000,-0.012849 WAIST:0.998672,0.000000,-0.037003,-0.035840 WAIST_JOINT0:0.995228,0.000000,-0.097157,-0.009043 WAIST_JOINT1:0.998183,0.059423,0.000000,-0.009992 END:
KINECT_DATA_Sensor  AnkleLeft:0.104205,0.747872,-0.066151,-0.652268 AnkleRight:0.103155,0.738996,0.049227,0.663943 ElbowLeft:-0.255425,0.935600,-0.056737,-0.237046 ElbowRight:0.064958,0.825917,0.195892,0.524659 FootLeft:0.000000,0.000000,0.000000,0.000000 FootRight:0.000000,0.000000,0.000000,0.000000 HandLeft:-0.083218,-0.288622,-0.382779,0.873643 HandRight:0.046114,0.557817,-0.161750,0.812743 HandTipLeft:0.000000,0.000000,0.000000,0.000000 HandTipRight:0.000000,0.000000,0.000000,0.000000 Head:0.000000,0.000000,0.000000,0.000000 HipLeft:-0.147227,0.701677,-0.674793,0.175008 HipRight:-0.096837,0.657346,0.731110,-0.154911 KneeLeft:-0.026165,0.733939,-0.069718,-0.675121 KneeRight:0.037036,0.678812,-0.016703,0.733187 Neck:0.095820,-0.048872,0.991613,-0.071652 ShoulderLeft:-0.056881,0.790501,-0.595768,0.130126 ShoulderRight:0.067280,0.783021,0.617941,0.022391 SpineBase:0.037942,-0.043123,0.997707,-0.035801 SpineMid:0.065967,-0.044112,0.996246,-0.034575 SpineShoulder:0.095301,-0.046217,0.992990,-0.052472 ThumbLeft:0.000000,0.000000,0.000000,0.000000 ThumbRight:0.000000,0.000000,0.000000,0.000000 WristLeft:-0.033650,-0.271870,-0.363997,0.890202 WristRight:-0.057892,0.538393,-0.079054,0.836978 END:
KINECT_DATA POSITION:30.850679,0.970291,-17.887329 HEAD_JOINT1:0.978810,0.164387,-0.000000,0.122098 LARM_JOINT2:0.793683,0.000000,-0.400296,-0.458072 LARM_JOINT3:0.972005,0.000000,-0.204631,-0.115469 LLEG_JOINT2:0.993956,0.038356,0.000000,0.102859 LLEG_JOINT4:0.991780,0.084615,0.000000,-0.095986 RARM_JOINT2:0.772150,0.000000,-0.116957,0.624584 RARM_JOINT3:0.952871,0.000000,0.214414,0.214624 RLEG_JOINT2:0.997260,0.015178,0.000000,0.072406 RLEG_JOINT4:0.995123,0.097423,0.000000,-0.015431 WAIST:0.998437,0.000000,-0.043545,-0.035030 WAIST_JOINT0:0.994412,0.000000,-0.104984,-0.011096 WAIST_JOINT1:0.998224,0.058245,0.000000,-0.012497 END:
KINECT_DATA_Sensor  AnkleLeft:0.105144,0.751768,-0.066145,-0.647622 AnkleRight:0.094625,0.649832,0.061899,0.751620 ElbowLeft:-0.302936,0.939683,-0.021417,-0.157373 ElbowRight:0.064876,0.826516,0.195200,0.523984 FootLeft:0.000000,0.000000,0.000000,0.000000 FootRight:0.000000,0.000000,0.000000,0.000000 HandLeft:-0.104713,-0.257852,-0.429249,0.859239 HandRight:0.032699,0.558505,-0.172228,0.810765 HandTipLeft:0.000000,0.000000,0.000000,0.000000 HandTipRight:0.000000,0.000000,0.000000,0.000000 Head:0.000000,0.000000,0.000000,0.000000 HipLeft:-0.150585,0.700585,-0.674565,0.177391 HipRight:-0.092876,0.658766,0.731215,-0.150751 KneeLeft:-0.024966,0.738595,-0.073195,-0.669699 KneeRight:0.035383,0.674249,-0.018372,0.737427 Neck:0.104126,-0.050838,0.990740,-0.070770 ShoulderLeft:-0.068931,0.791161,-0.591484,0.139495 ShoulderRight:0.066033,0.781772,0.619530,0.025603 SpineBase:0.044394,-0.043251,0.997453,-0.035300 SpineMid:0.073380,-0.044259,0.995740,-0.034027 SpineShoulder:0.103637,-0.047437,0.992164,-0.051189 ThumbLeft:0.000000,0.000000,0.000000,0.000000 ThumbRight:0.000000,0.000000,0.000000,0.000000 WristLeft:-0.053252,-0.244118,-0.372800,0.893639 WristRight:-0.057570,0.541918,-0.078307,0.834793 END:
KINECT_DATA POSITION:31.184704,1.096644,-17.966843 HEAD_JOINT1:0.979237,0.162743,-0.000000,0.120872 LARM_JOINT2:0.774606,0.000000,-0.453538,-0.440782 LARM_JOINT3:0.982443,0.000000,-0.168293,-0.080518 LLEG_JOINT2:0.994823,0.042826,0.000000,0.092163 LLEG_JOINT4:0.992625,0.076465,0.000000,-0.094066 RARM_JOINT2:0.774295,0.000000,-0.110422,0.623117 RARM_JOINT3:0.953823,0.000000,0.206160,0.218449 RLEG_JOINT2:0.998171,0.011991,0.000000,0.059254 RLEG_JOINT4:0.994600,0.102944,0.000000,-0.013154 WAIST:0.997843,0.000000,-0.058938,-0.028892 WAIST_JOINT0:0.993764,0.000000,-0.111123,-0.009238 WAIST_JOINT1:0.998144,0.057700,0.000000,-0.019467 END:
KINECT_DATA_Sensor  AnkleLeft:0.102635,0.755215,-0.064324,-0.644188 AnkleRight:0.094623,0.646277,0.064326,0.754477 ElbowLeft:-0.336130,0.930857,0.022462,-0.141481 ElbowRight:0.064091,0.827200,0.194460,0.523275 FootLeft:0.000000,0.000000,0.000000,0.000000 FootRight:0.000000,0.000000,0.000000,0.000000 HandLeft:-0.108498,-0.145654,-0.405530,0.895856 HandRight:0.038920,0.570620,-0.165454,0.803432 HandTipLeft:0.000000,0.000000,0.000000,0.000000 HandTipRight:0.000000,0.000000,0.000000,0.000000 Head:0.000000,0.000000,0.000000,0.000000 HipLeft:-0.159501,0.694172,-0.676717,0.186383 HipRight:-0.085046,0.664231,0.728543,-0.144184 KneeLeft:-0.019805,0.748937,-0.072951,-0.658316 KneeRight:0.027908,0.663611,-0.015923,0.747387 Neck:0.109423,-0.050960,0.990098,-0.071663 ShoulderLeft:-0.075283,0.783574,-0.599275,0.145653 ShoulderRight:0.067502,0.780064,0.621441,0.027467 SpineBase:0.059424,-0.040406,0.996762,-0.036082 SpineMid:0.083766,-0.041276,0.995012,-0.035084 SpineShoulder:0.109016,-0.046621,0.991607,-0.051550 ThumbLeft:0.000000,0.000000,0.000000,0.000000 ThumbRight:0.000000,0.000000,0.000000,0.000000 WristLeft:-0.101466,-0.144999,-0.392538,0.902548 WristRight:-0.058510,0.552660,-0.077668,0.827714 END:
KINECT_DATA POSITION:31.502987,1.240231,-18.176281 HEAD_JOINT1:0.980673,0.139831,-0.000000,0.136848 LARM_JOINT2:0.798645,0.000000,-0.450846,-0.398629 LARM_JOINT3:0.978773,0.000000,-0.184365,-0.089511 LLEG_JOINT2:0.995645,0.045671,0.000000,0.081271 LLEG_JOINT4:0.992534,0.078705,0.000000,-0.093175 RARM_JOINT2:0.773768,0.000000,-0.099294,0.625639 RARM_JOINT3:0.955293,0.000000,0.200488,0.217303 RLEG_JOINT2:0.998934,0.006740,0.000000,0.045669 RLEG_JOINT4:0.993849,0.110342,0.000000,-0.009447 WAIST:0.996872,0.000000,-0.075937,-0.021916 WAIST_JOINT0:0.991054,0.000000,-0.133336,-0.005782 WAIST_JOINT1:0.997503,0.064458,0.000000,-0.028851 END:
KINECT_DATA_Sensor  AnkleLeft:0.107254,0.765826,-0.067695,-0.630416 AnkleRight:0.095412,0.632724,0.066378,0.765605 ElbowLeft:-0.356118,0.921442,0.002997,-0.155290 ElbowRight:0.066837,0.824150,0.193187,0.528193 FootLeft:0.000000,0.000000,0.000000,0.000000 FootRight:0.000000,0.000000,0.000000,0.000000 HandLeft:-0.002548,-0.270963,-0.350157,0.896640 HandRight:0.055191,0.522596,-0.143531,0.838597 HandTipLeft:0.000000,0.000000,0.000000,0.000000 HandTipRight:0.000000,0.000000,0.000000,0.000000 Head:0.000000,0.000000,0.000000,0.000000 HipLeft:-0.168166,0.687066,-0.678513,0.198194 HipRight:-0.071860,0.670864,0.724818,-0.139346 KneeLeft:-0.016191,0.759857,-0.072206,-0.645865 KneeRight:0.019355,0.651976,-0.014797,0.757848 Neck:0.133592,-0.051645,0.986407,-0.080544 ShoulderLeft:-0.092000,0.777780,-0.597623,0.171584 ShoulderRight:0.083090,0.775943,0.624111,0.038665 SpineBase:0.075843,-0.040339,0.995462,-0.040930 SpineMid:0.103990,-0.041481,0.992917,-0.039771 SpineShoulder:0.133065,-0.048685,0.988190,-0.058339 ThumbLeft:0.000000,0.000000,0.000000,0.000000 ThumbRight:0.000000,0.000000,0.000000,0.000000 WristLeft:-0.050428,-0.271793,-0.432744,0.858090 WristRight:-0.053121,0.503610,-0.080173,0.858562 END:
KINECT_DATA POSITION:31.528456,1.299163,-18.264938 HEAD_JOINT1:0.979454,0.149350,-0.000000,0.135514 LARM_JOINT2:0.798751,0.000000,-0.454748,-0.393956 LARM_JOINT3:0.979605,0.000000,-0.177871,-0.093470 LLEG_JOINT2:0.995921,0.047476,0.000000,0.076731 LLEG_JOINT4:0.993085,0.071462,0.000000,-0.093147 RARM_JOINT2:0.775655,0.000000,-0.099232,0.623308 RARM_JOINT3:0.955142,0.000000,0.201109,0.217393 RLEG_JOINT2:0.999078,0.005834,0.000000,0.042531 RLEG_JOINT4:0.993836,0.110428,0.000000,-0.009742 WAIST:0.996742,0.000000,-0.078389,-0.018965 WAIST_JOINT0:0.990950,0.000000,-0.134131,-0.005205 WAIST_JOINT1:0.997536,0.064396,0.000000,-0.027824 END:
KINECT_DATA_Sensor  AnkleLeft:0.104565,0.766438,-0.063298,-0.630581 AnkleRight:0.094893,0.632293,0.065914,0.766066 ElbowLeft:-0.361675,0.920971,-0.001442,-0.144922 ElbowRight:0.068206,0.824071,0.192169,0.528513 FootLeft:0.000000,0.000000,0.000000,0.000000 FootRight:0.000000,0.000000,0.000000,0.000000 HandLeft:-0.060108,-0.149600,-0.335150,0.928268 HandRight:0.042790,0.565910,-0.154637,0.808704 HandTipLeft:0.000000,0.000000,0.000000,0.000000 HandTipRight:0.000000,0.000000,0.000000,0.000000 Head:0.000000,0.000000,0.000000,0.000000 HipLeft:-0.170140,0.684261,-0.680114,0.200711 HipRight:-0.070753,0.672794,0.723168,-0.139177 KneeLeft:-0.013857,0.761387,-0.072621,-0.644069 KneeRight:0.018635,0.650323,-0.015173,0.759277 Neck:0.133896,-0.047550,0.986579,-0.080458 ShoulderLeft:-0.091836,0.775115,-0.600856,0.172439 ShoulderRight:0.083781,0.775935,0.624060,0.038135 SpineBase:0.078099,-0.038824,0.995312,-0.041789 SpineMid:0.105294,-0.039953,0.992804,-0.040712 SpineShoulder:0.133490,-0.044397,0.988315,-0.058682 ThumbLeft:0.000000,0.000000,0.000000,0.000000 ThumbRight:0.000000,0.000000,0.000000,0.000000 WristLeft:-0.103824,-0.148581,-0.420323,0.889086 WristRight:-0.055575,0.548513,-0.075393,0.830880 END:
KINECT_DATA POSITION:31.463177,1.304431,-18.235243 HEAD_JOINT1:0.978236,0.156653,-0.000000,0.136064 LARM_JOINT2:0.800925,0.000000,-0.454272,-0.390071 LARM_JOINT3:0.981814,0.000000,-0.165217,-0.093507 LLEG_JOINT2:0.995888,0.046477,0.000000,0.077759 LLEG_JOINT4:0.992917,0.072555,0.000000,-0.094086 RARM_JOINT2:0.775753,0.000000,-0.100716,0.622948 RARM_JOINT3:0.953568,0.000000,0.207527,0.218265 RLEG_JOINT2:0.999069,0.006203,0.000000,0.042683 RLEG_JOINT4:0.993956,0.109308,0.000000,-0.010209 WAIST:0.996865,0.000000,-0.077024,-0.018086 WAIST_JOINT0:0.990924,0.000000,-0.134336,-0.004872 WAIST_JOINT1:0.997506,0.064656,0.000000,-0.028290 END:
KINECT_DATA_Sensor  AnkleLeft:0.104188,0.766629,-0.063721,-0.630368 AnkleRight:0.094570,0.632181,0.065344,0.766247 ElbowLeft:-0.363929,0.920479,-0.007322,-0.142198 ElbowRight:0.069426,0.824685,0.192654,0.527219 FootLeft:0.000000,0.000000,0.000000,0.000000 FootRight:0.000000,0.000000,0.000000,0.000000 HandLeft:0.005588,-0.198394,-0.303222,0.932022 HandRight:0.025832,0.561513,-0.170920,0.809211 HandTipLeft:0.000000,0.000000,0.000000,0.000000 HandTipRight:0.000000,0.000000,0.000000,0.000000 Head:0.000000,0.000000,0.000000,0.000000 HipLeft:-0.169893,0.683715,-0.680799,0.200456 HipRight:-0.071509,0.673186,0.722527,-0.140218 KneeLeft:-0.015793,0.760365,-0.073196,-0.645165 KneeRight:0.019674,0.651356,-0.015628,0.758357 Neck:0.134454,-0.047732,0.986494,-0.080451 ShoulderLeft:-0.094458,0.774498,-0.600584,0.174726 ShoulderRight:0.082187,0.775715,0.624641,0.036541 SpineBase:0.076672,-0.038596,0.995424,-0.041990 SpineMid:0.104869,-0.039771,0.992849,-0.040879 SpineShoulder:0.134106,-0.044078,0.988230,-0.058936 ThumbLeft:0.000000,0.000000,0.000000,0.000000 ThumbRight:0.000000,0.000000,0.000000,0.000000 WristLeft:-0.074121,-0.200561,-0.425171,0.879495 WristRight:-0.054223,0.547818,-0.075190,0.831445 END:
KINECT_DATA POSITION:31.346333,1.256581,-18.106592 HEAD_JOINT1:0.978376,0.154648,-0.000000,0.137346 LARM_JOINT2:0.796573,0.000000,-0.462956,-0.388772 LARM_JOINT3:0.983275,0.000000,-0.157757,-0.091013 LLEG_JOINT2:0.995822,0.048876,0.000000,0.077134 LLEG_JOINT4:0.993466,0.068565,0.000000,-0.091231 RARM_JOINT2:0.774505,0.000000,-0.102733,0.624170 RARM_JOINT3:0.952497,0.000000,0.212486,0.218172 RLEG_JOINT2:0.998980,0.008162,0.000000,0.044407 RLEG_JOINT4:0.994106,0.107840,0.000000,-0.011085 WAIST:0.997166,0.000000,-0.073045,-0.018026 WAIST_JOINT0:0.991477,0.000000,-0.130222,-0.004021 WAIST_JOINT1:0.997379,0.065443,0.000000,-0.030870 END:
KINECT_DATA_Sensor  AnkleLeft:0.101769,0.764981,-0.063679,-0.632766 AnkleRight:0.095261,0.634597,0.065508,0.764147 ElbowLeft:-0.366245,0.919690,-0.000267,-0.141545 ElbowRight:0.070279,0.825603,0.194436,0.525010 FootLeft:0.000000,0.000000,0.000000,0.000000 FootRight:0.000000,0.000000,0.000000,0.000000 HandLeft:0.029432,-0.212369,-0.263228,0.940608 HandRight:0.015895,0.543512,-0.177790,0.820203 HandTipLeft:0.000000,0.000000,0.000000,0.000000 HandTipRight:0.000000,0.000000,0.000000,0.000000 Head:0.000000,0.000000,0.000000,0.000000 HipLeft:-0.168401,0.684266,-0.681285,0.198173 HipRight:-0.073775,0.672673,0.722282,-0.142749 KneeLeft:-0.013424,0.757946,-0.074755,-0.647880 KneeRight:0.022441,0.654209,-0.015567,0.755820 Neck:0.130429,-0.051086,0.986821,-0.081014 ShoulderLeft:-0.090938,0.775044,-0.601310,0.171650 ShoulderRight:0.080775,0.775873,0.624790,0.033669 SpineBase:0.072656,-0.039643,0.995690,-0.041840 SpineMid:0.100878,-0.040815,0.993228,-0.040698 SpineShoulder:0.130097,-0.046647,0.988602,-0.059715 ThumbLeft:0.000000,0.000000,0.000000,0.000000 ThumbRight:0.000000,0.000000,0.000000,0.000000 WristLeft:-0.067699,-0.209417,-0.427430,0.876849 WristRight:-0.052085,0.532392,-0.075350,0.841528 END:
KINECT_DATA POSITION:31.182858,1.178756,-17.979872 HEAD_JOINT1:0.978344,0.161579,-0.000000,0.129364 LARM_JOINT2:0.799166,0.000000,-0.455904,-0.391772 LARM_JOINT3:0.986740,0.000000,-0.136349,-0.088055 LLEG_JOINT2:0.995728,0.045354,0.000000,0.080430 LLEG_JOINT4:0.992984,0.074475,0.000000,-0.091852 RARM_JOINT2:0.775186,0.000000,-0.104319,0.623061 RARM_JOINT3:0.952560,0.000000,0.211293,0.219055 RLEG_JOINT2:0.998840,0.010787,0.000000,0.046930 RLEG_JOINT4:0.994357,0.105471,0.000000,-0.011431 WAIST:0.997577,0.000000,-0.067231,-0.017883 WAIST_JOINT0:0.991792,0.000000,-0.127785,-0.004377 WAIST_JOINT1:0.997463,0.064290,0.000000,-0.030554 END:
KINECT_DATA_Sensor  AnkleLeft:0.102103,0.763833,-0.066306,-0.633828 AnkleRight:0.106899,0.767732,0.045760,0.630132 ElbowLeft:-0.362850,0.919429,-0.006249,-0.151495 ElbowRight:0.069037,0.828238,0.195577,0.520582 FootLeft:0.000000,0.000000,0.000000,0.000000 FootRight:0.000000,0.000000,0.000000,0.000000 HandLeft:0.070780,-0.251414,-0.207602,0.942700 HandRight:0.015419,0.569736,-0.176358,0.802534 HandTipLeft:0.000000,0.000000,0.000000,0.000000 HandTipRight:0.000000,0.000000,0.000000,0.000000 Head:0.000000,0.000000,0.000000,0.000000 HipLeft:-0.165928,0.685274,-0.682057,0.194076 HipRight:-0.077656,0.672175,0.721800,-0.145447 KneeLeft:-0.017833,0.753921,-0.074540,-0.652479 KneeRight:0.026350,0.658282,-0.015634,0.752148 Neck:0.128101,-0.050987,0.987252,-0.079518 ShoulderLeft:-0.092119,0.776106,-0.600212,0.170059 ShoulderRight:0.076428,0.776652,0.624482,0.031504 SpineBase:0.066831,-0.040362,0.996116,-0.040717 SpineMid:0.096724,-0.041567,0.993659,-0.039486 SpineShoulder:0.127720,-0.046889,0.988989,-0.058231 ThumbLeft:0.000000,0.000000,0.000000,0.000000 ThumbRight:0.000000,0.000000,0.000000,0.000000 WristLeft:-0.024441,-0.244451,-0.420807,0.873251 WristRight:-0.054124,0.558513,-0.073648,0.824445 END:
KINECT_DATA POSITION:31.187752,1.127377,-17.944061 HEAD_JOINT1:0.978246,0.168405,-0.000000,0.121136 LARM_JOINT2:0.802449,0.000000,-0.451578,-0.390068 LARM_JOINT3:0.987370,0.000000,-0.127446,-0.094116 LLEG_JOINT2:0.995691,0.045774,0.000000,0.080648 LLEG_JOINT4:0.993146,0.073719,0.000000,-0.090699 RARM_JOINT2:0.776757,0.000000,-0.104782,0.621022 RARM_JOINT3:0.950665,0.000000,0.216846,0.221841 RLEG_JOINT2:0.998743,0.012562,0.000000,0.048517 RLEG_JOINT4:0.994377,0.105390,0.000000,-0.010367 WAIST:0.997945,0.000000,-0.061067,-0.019412 WAIST_JOINT0:0.992569,0.000000,-0.121577,-0.005151 WAIST_JOINT1:0.997560,0.064062,0.000000,-0.027767 END:
KINECT_DATA_Sensor  AnkleLeft:0.102453,0.760549,-0.065282,-0.637814 AnkleRight:0.107507,0.756176,0.048968,0.643617 ElbowLeft:-0.362999,0.917370,-0.013062,-0.162770 ElbowRight:0.067144,0.830050,0.197415,0.517238 FootLeft:0.000000,0.000000,0.000000,0.000000 FootRight:0.000000,0.000000,0.000000,0.000000 HandLeft:-0.003386,-0.090975,-0.226356,0.969781 HandRight:0.007642,0.584045,-0.197516,0.787287 HandTipLeft:0.000000,0.000000,0.000000,0.000000 HandTipRight:0.000000,0.000000,0.000000,0.000000 Head:0.000000,0.000000,0.000000,0.000000 HipLeft:-0.161701,0.687554,-0.681588,0.191207 HipRight:-0.081599,0.671052,0.721763,-0.148626 KneeLeft:-0.016103,0.749998,-0.074103,-0.657078 KneeRight:0.027831,0.662617,-0.014319,0.748304 Neck:0.121888,-0.049967,0.988146,-0.078828 ShoulderLeft:-0.088864,0.777494,-0.600126,0.165695 ShoulderRight:0.071515,0.777146,0.624701,0.026043 SpineBase:0.060843,-0.039704,0.996531,-0.040593 SpineMid:0.090623,-0.040901,0.994265,-0.039388 SpineShoulder:0.121499,-0.046056,0.989837,-0.057791 ThumbLeft:0.000000,0.000000,0.000000,0.000000 ThumbRight:0.000000,0.000000,0.000000,0.000000 WristLeft:-0.077140,-0.086102,-0.409875,0.904786 WristRight:-0.056592,0.574173,-0.072634,0.813540 END:
KINECT_DATA POSITION:31.170267,1.086970,-17.916834 HEAD_JOINT1:0.978348,0.171165,-0.000000,0.116351 LARM_JOINT2:0.803200,0.000000,-0.448004,-0.392633 LARM_JOINT3:0.986427,0.000000,-0.126872,-0.104235 LLEG_JOINT2:0.995783,0.045160,0.000000,0.079850 LLEG_JOINT4:0.993229,0.077218,0.000000,-0.086799 RARM_JOINT2:0.777013,0.000000,-0.103579,0.620905 RARM_JOINT3:0.951840,0.000000,0.212734,0.220783 RLEG_JOINT2:0.998704,0.012882,0.000000,0.049231 RLEG_JOINT4:0.994572,0.103622,0.000000,-0.009385 WAIST:0.998188,0.000000,-0.056760,-0.019978 WAIST_JOINT0:0.992946,0.000000,-0.118430,-0.005714 WAIST_JOINT1:0.997622,0.063754,0.000000,-0.026177 END:
KINECT_DATA_Sensor  AnkleLeft:0.099608,0.726836,-0.073455,-0.675568 AnkleRight:0.097302,0.641450,0.064866,0.758200 ElbowLeft:-0.360194,0.919624,-0.021767,-0.155173 ElbowRight:0.065058,0.831393,0.196804,0.515578 FootLeft:0.000000,0.000000,0.000000,0.000000 FootRight:0.000000,0.000000,0.000000,0.000000 HandLeft:-0.000653,-0.139540,-0.211950,0.967267 HandRight:0.020104,0.600146,-0.187582,0.777325 HandTipLeft:0.000000,0.000000,0.000000,0.000000 HandTipRight:0.000000,0.000000,0.000000,0.000000 Head:0.000000,0.000000,0.000000,0.000000 HipLeft:-0.158675,0.688773,-0.681744,0.188782 HipRight:-0.083971,0.670506,0.721625,-0.150427 KneeLeft:-0.015151,0.747166,-0.072836,-0.660461 KneeRight:0.028267,0.665744,-0.014056,0.745512 Neck:0.118657,-0.049209,0.988626,-0.078212 ShoulderLeft:-0.086919,0.777962,-0.600541,0.163003 ShoulderRight:0.069213,0.777117,0.625094,0.023566 SpineBase:0.056613,-0.039291,0.996803,-0.040433 SpineMid:0.086887,-0.040501,0.994622,-0.039220 SpineShoulder:0.118266,-0.045392,0.990286,-0.057321 ThumbLeft:0.000000,0.000000,0.000000,0.000000 ThumbRight:0.000000,0.000000,0.000000,0.000000 WristLeft:-0.057893,-0.129880,-0.407801,0.901930 WristRight:-0.058501,0.586806,-0.072740,0.804329 END:
KINECT_DATA POSITION:31.155645,1.048563,-17.933702 HEAD_JOINT1:0.978469,0.172758,-0.000000,0.112929 LARM_JOINT2:0.804736,0.000000,-0.439618,-0.398919 LARM_JOINT3:0.985221,0.000000,-0.133723,-0.107043 LLEG_JOINT2:0.995754,0.044060,0.000000,0.080831 LLEG_JOINT4:0.993347,0.075198,0.000000,-0.087222 RARM_JOINT2:0.777233,0.000000,-0.103859,0.620582 RARM_JOINT3:0.952212,0.000000,0.211372,0.220485 RLEG_JOINT2:0.998631,0.013136,0.000000,0.050632 RLEG_JOINT4:0.994653,0.102877,0.000000,-0.009083 WAIST:0.998385,0.000000,-0.052797,-0.020981 WAIST_JOINT0:0.993422,0.000000,-0.114312,-0.006734 WAIST_JOINT1:0.997692,0.063529,0.000000,-0.023968 END:
KINECT_DATA_Sensor  AnkleLeft:0.101548,0.757020,-0.065550,-0.642115 AnkleRight:0.097143,0.643947,0.064492,0.756132 ElbowLeft:-0.353711,0.918179,-0.021049,-0.177179 ElbowRight:0.064205,0.832279,0.196485,0.514377 FootLeft:0.000000,0.000000,0.000000,0.000000 FootRight:0.000000,0.000000,0.000000,0.000000 HandLeft:-0.010108,-0.205413,-0.211818,0.955425 HandRight:0.040794,0.552812,-0.181183,0.812347 HandTipLeft:0.000000,0.000000,0.000000,0.000000 HandTipRight:0.000000,0.000000,0.000000,0.000000 Head:0.000000,0.000000,0.000000,0.000000 HipLeft:-0.155280,0.690109,-0.681816,0.186452 HipRight:-0.085861,0.669583,0.721987,-0.151729 KneeLeft:-0.015576,0.744515,-0.072083,-0.663520 KneeRight:0.028796,0.668574,-0.014048,0.742955 Neck:0.114395,-0.048179,0.989217,-0.077731 ShoulderLeft:-0.082577,0.779597,-0.600206,0.158629 ShoulderRight:0.067743,0.777314,0.625092,0.021299 SpineBase:0.052770,-0.038681,0.997037,-0.040456 SpineMid:0.082843,-0.039884,0.994990,-0.039270 SpineShoulder:0.114012,-0.044425,0.990847,-0.057002 ThumbLeft:0.000000,0.000000,0.000000,0.000000 ThumbRight:0.000000,0.000000,0.000000,0.000000 WristLeft:-0.024323,-0.189647,-0.410536,0.891573 WristRight:-0.053937,0.535244,-0.077634,0.839391 END:
KINECT_DATA POSITION:31.186020,1.000755,-17.939018 HEAD_JOINT1:0.978671,0.173380,-0.000000,0.110196 LARM_JOINT2:0.804517,0.000000,-0.439389,-0.399611 LARM_JOINT3:0.979378,0.000000,-0.167954,-0.112293 LLEG_JOINT2:0.995732,0.043226,0.000000,0.081545 LLEG_JOINT4:0.992559,0.081562,0.000000,-0.090407 RARM_JOINT2:0.781339,0.000000,-0.110120,0.614315 RARM_JOINT3:0.948864,0.000000,0.217273,0.229017 RLEG_JOINT2:0.998573,0.013770,0.000000,0.051592 RLEG_JOINT4:0.994750,0.102007,0.000000,-0.008177 WAIST:0.998537,0.000000,-0.049468,-0.021827 WAIST_JOINT0:0.994315,0.000000,-0.106303,-0.006110 WAIST_JOINT1:0.997732,0.063598,0.000000,-0.022046 END:
KINECT_DATA_Sensor  AnkleLeft:0.107806,0.751969,-0.067169,-0.646845 AnkleRight:0.097668,0.648585,0.063652,0.752161 ElbowLeft:-0.353088,0.919349,-0.026010,-0.171609 ElbowRight:0.066682,0.834123,0.203812,0.508186 FootLeft:0.000000,0.000000,0.000000,0.000000 FootRight:0.000000,0.000000,0.000000,0.000000 HandLeft:-0.168221,0.046342,-0.252873,0.951635 HandRight:0.025200,0.588731,-0.189123,0.785489 HandTipLeft:0.000000,0.000000,0.000000,0.000000 HandTipRight:0.000000,0.000000,0.000000,0.000000 Head:0.000000,0.000000,0.000000,0.000000 HipLeft:-0.152618,0.690921,-0.682023,0.184877 HipRight:-0.087872,0.668557,0.722448,-0.152906 KneeLeft:-0.015788,0.742285,-0.071448,-0.666077 KneeRight:0.029413,0.670890,-0.013586,0.740849 Neck:0.106078,-0.046858,0.990192,-0.077916 ShoulderLeft:-0.079727,0.779612,-0.601652,0.154479 ShoulderRight:0.059939,0.778952,0.624087,0.012522 SpineBase:0.049566,-0.037612,0.997240,-0.040500 SpineMid:0.077117,-0.038717,0.995489,-0.039445 SpineShoulder:0.105687,-0.043285,0.991810,-0.057185 ThumbLeft:0.000000,0.000000,0.000000,0.000000 ThumbRight:0.000000,0.000000,0.000000,0.000000 WristLeft:-0.144171,0.069934,-0.384756,0.909003 WristRight:-0.056957,0.574446,-0.076754,0.812943 END:
KINECT_DATA POSITION:31.350357,0.956307,-17.941200 HEAD_JOINT1:0.978826,0.174271,-0.000000,0.107372 LARM_JOINT2:0.808120,0.000000,-0.440919,-0.390554 LARM_JOINT3:0.974827,0.000000,-0.189018,-0.118253 LLEG_JOINT2:0.996110,0.043171,0.000000,0.076817 LLEG_JOINT4:0.994011,0.073946,0.000000,-0.080462 RARM_JOINT2:0.783697,0.000000,-0.109036,0.611498 RARM_JOINT3:0.947729,0.000000,0.221981,0.229204 RLEG_JOINT2:0.998814,0.014626,0.000000,0.046441 RLEG_JOINT4:0.994807,0.101601,0.000000,-0.006076 WAIST:0.998806,0.000000,-0.045023,-0.018960 WAIST_JOINT0:0.994932,0.000000,-0.100461,-0.004224 WAIST_JOINT1:0.997702,0.063793,0.000000,-0.022809 END:
KINECT_DATA_Sensor  AnkleLeft:0.097171,0.750721,-0.067052,-0.649985 AnkleRight:0.106870,0.763677,0.048133,0.634870 ElbowLeft:-0.358295,0.921107,-0.046623,-0.144958 ElbowRight:0.065070,0.837005,0.205495,0.502952 FootLeft:0.000000,0.000000,0.000000,0.000000 FootRight:0.000000,0.000000,0.000000,0.000000 HandLeft:-0.079907,-0.157182,-0.320794,0.930591 HandRight:0.009394,0.609946,-0.192611,0.768621 HandTipLeft:0.000000,0.000000,0.000000,0.000000 HandTipRight:0.000000,0.000000,0.000000,0.000000 Head:0.000000,0.000000,0.000000,0.000000 HipLeft:-0.149454,0.689463,-0.684691,0.183036 HipRight:-0.091146,0.669857,0.720240,-0.155689 KneeLeft:-0.013985,0.739162,-0.070366,-0.669696 KneeRight:0.028723,0.674231,-0.011031,0.737879 Neck:0.100328,-0.044193,0.990884,-0.078300 ShoulderLeft:-0.076477,0.779462,-0.603157,0.150972 ShoulderRight:0.055585,0.780515,0.622620,0.007152 SpineBase:0.045016,-0.034832,0.997542,-0.040874 SpineMid:0.072003,-0.035926,0.995958,-0.039916 SpineShoulder:0.099872,-0.041652,0.992466,-0.057459 ThumbLeft:0.000000,0.000000,0.000000,0.000000 ThumbRight:0.000000,0.000000,0.000000,0.000000 WristLeft:-0.074263,-0.142917,-0.408485,0.898443 WristRight:-0.059538,0.599111,-0.077803,0.794649 END:
KINECT_DATA POSITION:31.582832,0.881754,-17.881166 HEAD_JOINT1:0.976491,0.194284,-0.000000,0.093373 LARM_JOINT2:0.807423,0.000000,-0.443451,-0.389127 LARM_JOINT3:0.976797,0.000000,-0.163013,-0.138903 LLEG_JOINT2:0.996251,0.042127,0.000000,0.075562 LLEG_JOINT4:0.993680,0.073928,0.000000,-0.084471 RARM_JOINT2:0.786644,0.000000,-0.080410,0.612148 RARM_JOINT3:0.951148,0.000000,0.213365,0.223143 RLEG_JOINT2:0.998851,0.015172,0.000000,0.045453 RLEG_JOINT4:0.994922,0.100479,0.000000,-0.005915 WAIST:0.999122,0.000000,-0.037178,-0.019296 WAIST_JOINT0:0.996135,0.000000,-0.087757,-0.003822 WAIST_JOINT1:0.997560,0.067100,0.000000,-0.019256 END:
KINECT_DATA_Sensor  AnkleLeft:0.100815,0.743276,-0.062029,-0.658430 AnkleRight:0.096323,0.659899,0.065659,0.742256 ElbowLeft:-0.355473,0.925053,-0.064092,-0.117508 ElbowRight:0.051808,0.858455,0.197351,0.470557 FootLeft:0.000000,0.000000,0.000000,0.000000 FootRight:0.000000,0.000000,0.000000,0.000000 HandLeft:-0.069578,-0.131946,-0.256007,0.955097 HandRight:0.001256,0.631636,-0.202403,0.748376 HandTipLeft:0.000000,0.000000,0.000000,0.000000 HandTipRight:0.000000,0.000000,0.000000,0.000000 Head:0.000000,0.000000,0.000000,0.000000 HipLeft:-0.142523,0.690347,-0.686011,0.180270 HipRight:-0.095061,0.668584,0.719961,-0.160050 KneeLeft:-0.012900,0.733816,-0.068716,-0.675741 KneeRight:0.028405,0.679901,-0.009360,0.732694 Neck:0.088095,-0.041285,0.991837,-0.082431 ShoulderLeft:-0.065888,0.779656,-0.605838,0.144066 ShoulderRight:0.050487,0.779637,0.624171,-0.005294 SpineBase:0.037336,-0.032162,0.997878,-0.042564 SpineMid:0.062101,-0.033208,0.996643,-0.041752 SpineShoulder:0.087668,-0.038673,0.993556,-0.060544 ThumbLeft:0.000000,0.000000,0.000000,0.000000 ThumbRight:0.000000,0.000000,0.000000,0.000000 WristLeft:-0.077513,-0.116850,-0.390996,0.909648 WristRight:-0.055331,0.625243,-0.078264,0.774522 END:
KINECT_DATA POSITION:31.922840,0.709839,-17.572773 HEAD_JOINT1:0.974243,0.216785,-0.000000,0.062080 LARM_JOINT2:0.796134,0.000000,-0.452136,-0.402174 LARM_JOINT3:0.980383,0.000000,-0.157968,-0.117879 LLEG_JOINT2:0.996604,0.041012,0.000000,0.071401 LLEG_JOINT4:0.993895,0.076763,0.000000,-0.079252 RARM_JOINT2:0.793295,0.000000,-0.068746,0.604944 RARM_JOINT3:0.950465,0.000000,0.205659,0.233068 RLEG_JOINT2:0.999031,0.015515,0.000000,0.041176 RLEG_JOINT4:0.994944,0.100426,0.000000,0.000424 WAIST:0.999654,0.000000,-0.018435,-0.018776 WAIST_JOINT0:0.998295,0.000000,-0.058331,-0.002254 WAIST_JOINT1:0.997235,0.073045,0.000000,-0.013688 END:
KINECT_DATA_Sensor  AnkleLeft:-0.099771,-0.703317,0.066786,0.700664 AnkleRight:0.104164,0.750668,0.054800,0.650111 ElbowLeft:-0.347385,0.923651,-0.048897,-0.154275 ElbowRight:0.048751,0.878586,0.200205,0.430846 FootLeft:0.000000,0.000000,0.000000,0.000000 FootRight:0.000000,0.000000,0.000000,0.000000 HandLeft:-0.022116,-0.131339,-0.263470,0.955429 HandRight:0.026069,0.656044,-0.206092,0.725570 HandTipLeft:0.000000,0.000000,0.000000,0.000000 HandTipRight:0.000000,0.000000,0.000000,0.000000 Head:0.000000,0.000000,0.000000,0.000000 HipLeft:-0.129324,0.690941,-0.689225,0.175627 HipRight:-0.105384,0.665264,0.718209,-0.174627 KneeLeft:-0.009529,0.720892,-0.065860,-0.689845 KneeRight:0.026474,0.693545,-0.005615,0.719905 Neck:0.058417,-0.035649,0.993717,-0.088565 ShoulderLeft:-0.043041,0.775717,-0.616530,0.127679 ShoulderRight:0.035411,0.776538,0.628079,-0.035385 SpineBase:0.018780,-0.028886,0.998266,-0.047738 SpineMid:0.038054,-0.029803,0.997717,-0.047171 SpineShoulder:0.058040,-0.033280,0.995529,-0.066674 ThumbLeft:0.000000,0.000000,0.000000,0.000000 ThumbRight:0.000000,0.000000,0.000000,0.000000 WristLeft:-0.066206,-0.126764,-0.396757,0.906715 WristRight:-0.045581,0.648187,-0.078794,0.756021 END:
KINECT_DATA POSITION:32.359158,0.607602,-17.022823 HEAD_JOINT1:0.975092,0.216958,-0.000000,0.046105 LARM_JOINT2:0.785744,0.000000,-0.463721,-0.409351 LARM_JOINT3:0.981053,0.000000,-0.158235,-0.111792 LLEG_JOINT2:0.997173,0.040833,0.000000,0.063081 LLEG_JOINT4:0.994921,0.074955,0.000000,-0.067183 RARM_JOINT2:0.802297,0.000000,-0.064719,0.593406 RARM_JOINT3:0.950544,0.000000,0.198444,0.238925 RLEG_JOINT2:0.999278,0.018528,0.000000,0.033161 RLEG_JOINT4:0.994380,0.105277,0.000000,0.011148 WAIST:0.999854,0.000000,0.006065,-0.015967 WAIST_JOINT0:0.999543,0.000000,-0.030218,0.000472 WAIST_JOINT1:0.997133,0.075174,0.000000,-0.008690 END:
KINECT_DATA_Sensor  AnkleLeft:0.098134,0.713158,-0.064263,-0.691119 AnkleRight:0.111179,0.749028,0.061276,0.650263 ElbowLeft:-0.345859,0.921631,-0.048338,-0.169236 ElbowRight:0.046414,0.899645,0.206377,0.381958 FootLeft:0.000000,0.000000,0.000000,0.000000 FootRight:0.000000,0.000000,0.000000,0.000000 HandLeft:-0.028536,-0.033577,-0.267906,0.962437 HandRight:0.030633,0.656217,-0.203729,0.725903 HandTipLeft:0.000000,0.000000,0.000000,0.000000 HandTipRight:0.000000,0.000000,0.000000,0.000000 Head:0.000000,0.000000,0.000000,0.000000 HipLeft:0.112893,-0.691520,0.693982,-0.165663 HipRight:-0.120213,0.663657,0.713808,-0.188643 KneeLeft:0.003871,-0.703655,0.062314,0.707793 KneeRight:0.025325,0.710818,0.001163,0.702919 Neck:0.030412,-0.029205,0.994977,-0.090789 ShoulderLeft:-0.028858,0.775092,-0.621000,0.112957 ShoulderRight:0.012901,0.776686,0.626486,-0.064085 SpineBase:-0.005609,-0.023211,0.998478,-0.049710 SpineMid:0.011925,-0.024081,0.998423,-0.049295 SpineShoulder:0.030073,-0.027196,0.996805,-0.068817 ThumbLeft:0.000000,0.000000,0.000000,0.000000 ThumbRight:0.000000,0.000000,0.000000,0.000000 WristLeft:-0.097485,-0.037513,-0.391688,0.914150 WristRight:-0.031744,0.652580,-0.073741,0.753455 END:
KINECT_DATA POSITION:32.664402,0.494661,-16.497910 HEAD_JOINT1:0.975340,0.217867,-0.000000,0.035297 LARM_JOINT2:0.776320,0.000000,-0.474247,-0.415230 LARM_JOINT3:0.983813,0.000000,-0.145426,-0.104704 LLEG_JOINT2:0.997658,0.040939,0.000000,0.054796 LLEG_JOINT4:0.995785,0.071541,0.000000,-0.057387 RARM_JOINT2:0.809279,0.000000,-0.051916,0.585127 RARM_JOINT3:0.951389,0.000000,0.190867,0.241720 RLEG_JOINT2:0.999415,0.020393,0.000000,0.027440 RLEG_JOINT4:0.994470,0.103833,0.000000,0.015744 WAIST:0.999712,0.000000,0.019583,-0.013904 WAIST_JOINT0:0.999909,0.000000,-0.013433,0.000956 WAIST_JOINT1:0.996976,0.077660,0.000000,-0.002623 END:
KINECT_DATA_Sensor  AnkleLeft:-0.093331,-0.694095,0.064922,0.710849 AnkleRight:0.111787,0.761087,0.061811,0.635948 ElbowLeft:-0.345472,0.919320,-0.042580,-0.183539 ElbowRight:0.039249,0.912459,0.206349,0.351138 FootLeft:0.000000,0.000000,0.000000,0.000000 FootRight:0.000000,0.000000,0.000000,0.000000 HandLeft:-0.021553,-0.041623,-0.254826,0.965850 HandRight:0.029502,0.728213,-0.200077,0.654832 HandTipLeft:0.000000,0.000000,0.000000,0.000000 HandTipRight:0.000000,0.000000,0.000000,0.000000 Head:0.000000,0.000000,0.000000,0.000000 HipLeft:0.100621,-0.691642,0.697334,-0.158847 HipRight:-0.126590,0.663563,0.711392,-0.193856 KneeLeft:-0.001467,-0.693960,0.058055,0.717668 KneeRight:0.024083,0.720112,0.005517,0.693418 Neck:0.013530,-0.021378,0.995274,-0.093754 ShoulderLeft:-0.014250,0.777458,-0.620620,0.100928 ShoulderRight:0.004866,0.778025,0.623295,-0.078463 SpineBase:-0.018964,-0.017262,0.998351,-0.051359 SpineMid:-0.003145,-0.018073,0.998526,-0.051079 SpineShoulder:0.013232,-0.020172,0.997145,-0.071550 ThumbLeft:0.000000,0.000000,0.000000,0.000000 ThumbRight:0.000000,0.000000,0.000000,0.000000 WristLeft:-0.077789,-0.042284,-0.393667,0.914979 WristRight:-0.036501,0.750966,-0.070628,0.655537 END:
KINECT_DATA POSITION:32.420147,0.410368,-16.246450 HEAD_JOINT1:0.973444,0.224225,-0.000000,0.046142 LARM_JOINT2:0.770816,0.000000,-0.480801,-0.417939 LARM_JOINT3:0.985765,0.000000,-0.135889,-0.099002 LLEG_JOINT2:0.997417,0.045731,0.000000,0.055386 LLEG_JOINT4:0.995633,0.074021,0.000000,-0.056891 RARM_JOINT2:0.807698,0.000000,-0.054223,0.587098 RARM_JOINT3:0.955580,0.000000,0.175946,0.236454 RLEG_JOINT2:0.999348,0.020692,0.000000,0.029591 RLEG_JOINT4:0.994026,0.108112,0.000000,0.014979 WAIST:0.999792,0.000000,0.014937,-0.013882 WAIST_JOINT0:0.999738,0.000000,-0.022112,-0.005962 WAIST_JOINT1:0.996751,0.080495,0.000000,-0.002868 END:
KINECT_DATA_Sensor  AnkleLeft:0.098700,0.708962,-0.069360,-0.694853 AnkleRight:0.114765,0.741990,0.066087,0.657201 ElbowLeft:-0.343935,0.922430,-0.034402,-0.172187 ElbowRight:0.043717,0.907905,0.206091,0.362386 FootLeft:0.000000,0.000000,0.000000,0.000000 FootRight:0.000000,0.000000,0.000000,0.000000 HandLeft:-0.110923,0.245043,-0.235460,0.933921 HandRight:0.076113,0.705773,-0.137606,0.690764 HandTipLeft:0.000000,0.000000,0.000000,0.000000 HandTipRight:0.000000,0.000000,0.000000,0.000000 Head:0.000000,0.000000,0.000000,0.000000 HipLeft:0.099300,-0.690565,0.697717,-0.162636 HipRight:-0.120637,0.663803,0.712686,-0.192070 KneeLeft:-0.004188,-0.697393,0.061787,0.714009 KneeRight:0.025831,0.716791,0.004062,0.696798 Neck:0.023357,-0.022486,0.994830,-0.096235 ShoulderLeft:-0.024637,0.783914,-0.609969,0.113184 ShoulderRight:0.007489,0.776844,0.624938,-0.076878 SpineBase:-0.014240,-0.016295,0.998255,-0.054942 SpineMid:0.004196,-0.017307,0.998348,-0.054632 SpineShoulder:0.023178,-0.020358,0.996753,-0.074374 ThumbLeft:0.000000,0.000000,0.000000,0.000000 ThumbRight:0.000000,0.000000,0.000000,0.000000 WristLeft:-0.186675,0.235363,-0.346593,0.888611 WristRight:-0.030133,0.688086,-0.072810,0.721338 END:
KINECT_DATA POSITION:31.938435,0.344126,-16.129803 HEAD_JOINT1:0.972092,0.226741,-0.000000,0.060216 LARM_JOINT2:0.774697,0.000000,-0.480178,-0.411428 LARM_JOINT3:0.985846,0.000000,-0.138891,-0.093898 LLEG_JOINT2:0.996896,0.049270,0.000000,0.061410 LLEG_JOINT4:0.995754,0.065686,0.000000,-0.064489 RARM_JOINT2:0.805318,0.000000,-0.060747,0.589723 RARM_JOINT3:0.955300,0.000000,0.174753,0.238459 RLEG_JOINT2:0.999122,0.020425,0.000000,0.036572 RLEG_JOINT4:0.993926,0.109653,0.000000,0.009312 WAIST:0.999857,0.000000,0.005925,-0.015869 WAIST_JOINT0:0.999444,0.000000,-0.032657,-0.006762 WAIST_JOINT1:0.996682,0.081312,0.000000,-0.003785 END:
KINECT_DATA_Sensor  AnkleLeft:0.096810,0.714645,-0.064416,-0.689754 AnkleRight:0.116073,0.739837,0.065740,0.659429 ElbowLeft:-0.346888,0.922228,-0.033850,-0.167388 ElbowRight:0.050650,0.902465,0.207232,0.374228 FootLeft:0.000000,0.000000,0.000000,0.000000 FootRight:0.000000,0.000000,0.000000,0.000000 HandLeft:-0.018188,-0.163948,-0.293318,0.941676 HandRight:0.086155,0.688954,-0.138512,0.706211 HandTipLeft:0.000000,0.000000,0.000000,0.000000 HandTipRight:0.000000,0.000000,0.000000,0.000000 Head:0.000000,0.000000,0.000000,0.000000 HipLeft:0.103746,-0.690536,0.695865,-0.167837 HipRight:-0.113664,0.663447,0.715323,-0.187703 KneeLeft:0.003270,0.704014,-0.067106,-0.707001 KneeRight:0.029153,0.710335,0.000052,0.703260 Neck:0.034002,-0.025027,0.994399,-0.096892 ShoulderLeft:-0.031207,0.782769,-0.609460,0.121891 ShoulderRight:0.015080,0.775976,0.626790,-0.069050 SpineBase:-0.005145,-0.018347,0.998236,-0.056224 SpineMid:0.014056,-0.019425,0.998151,-0.055861 SpineShoulder:0.033831,-0.022617,0.996344,-0.075122 ThumbLeft:0.000000,0.000000,0.000000,0.000000 ThumbRight:0.000000,0.000000,0.000000,0.000000 WristLeft:-0.020448,-0.156310,-0.392386,0.906191 WristRight:-0.027773,0.673725,-0.069163,0.735214 END:
KINECT_DATA POSITION:31.578043,0.328381,-16.096474 HEAD_JOINT1:0.972751,0.221731,-0.000000,0.067756 LARM_JOINT2:0.774433,0.000000,-0.485360,-0.405806 LARM_JOINT3:0.985939,0.000000,-0.134270,-0.099480 LLEG_JOINT2:0.996773,0.049224,0.000000,0.063405 LLEG_JOINT4:0.995883,0.066420,0.000000,-0.061691 RARM_JOINT2:0.803009,0.000000,-0.061392,0.592796 RARM_JOINT3:0.954788,0.000000,0.179678,0.236847 RLEG_JOINT2:0.999018,0.021395,0.000000,0.038808 RLEG_JOINT4:0.993965,0.109429,0.000000,0.007721 WAIST:0.999872,0.000000,-0.000779,-0.015988 WAIST_JOINT0:0.999046,0.000000,-0.043282,-0.005820 WAIST_JOINT1:0.996710,0.080903,0.000000,-0.004949 END:
KINECT_DATA_Sensor  AnkleLeft:0.093771,0.721080,-0.068609,-0.683039 AnkleRight:0.118073,0.743178,0.063625,0.655513 ElbowLeft:-0.352173,0.924389,-0.036716,-0.141885 ElbowRight:0.052039,0.898473,0.204735,0.384866 FootLeft:0.000000,0.000000,0.000000,0.000000 FootRight:0.000000,0.000000,0.000000,0.000000 HandLeft:0.009077,-0.268953,-0.284683,0.920074 HandRight:0.068932,0.708890,-0.144390,0.686931 HandTipLeft:0.000000,0.000000,0.000000,0.000000 HandTipRight:0.000000,0.000000,0.000000,0.000000 Head:0.000000,0.000000,0.000000,0.000000 HipLeft:0.107837,-0.689711,0.695245,-0.171183 HipRight:-0.109798,0.664213,0.716171,-0.184022 KneeLeft:0.001392,0.708743,-0.068350,-0.702147 KneeRight:0.031261,0.705521,-0.001031,0.707999 Neck:0.044625,-0.026317,0.994001,-0.096319 ShoulderLeft:-0.036037,0.779333,-0.612271,0.128320 ShoulderRight:0.024311,0.774638,0.629197,-0.058783 SpineBase:0.001511,-0.018799,0.998252,-0.056009 SpineMid:0.022717,-0.019984,0.997995,-0.055597 SpineShoulder:0.044490,-0.023578,0.995939,-0.074638 ThumbLeft:0.000000,0.000000,0.000000,0.000000 ThumbRight:0.000000,0.000000,0.000000,0.000000 WristLeft:0.016308,-0.257815,-0.392106,0.882903 WristRight:-0.033907,0.718152,-0.071279,0.691395 END:
KINECT_DATA POSITION:31.117170,0.342076,-16.221214 HEAD_JOINT1:0.973042,0.218753,-0.000000,0.073054 LARM_JOINT2:0.776242,0.000000,-0.482277,-0.406027 LARM_JOINT3:0.986595,0.000000,-0.129381,-0.099449 LLEG_JOINT2:0.996540,0.052120,0.000000,0.064743 LLEG_JOINT4:0.995547,0.065817,0.000000,-0.067486 RARM_JOINT2:0.799816,0.000000,-0.062788,0.596952 RARM_JOINT3:0.955266,0.000000,0.179103,0.235349 RLEG_JOINT2:0.998896,0.022899,0.000000,0.041015 RLEG_JOINT4:0.994510,0.104526,0.000000,0.004860 WAIST:0.999857,0.000000,-0.008021,-0.014891 WAIST_JOINT0:0.998667,0.000000,-0.051319,-0.005597 WAIST_JOINT1:0.996789,0.079750,0.000000,-0.007161 END:
KINECT_DATA_Sensor  AnkleLeft:0.097079,0.724747,-0.068425,-0.678702 AnkleRight:0.117072,0.748904,0.058360,0.649639 ElbowLeft:-0.352480,0.923355,-0.031232,-0.148990 ElbowRight:0.053586,0.893589,0.200782,0.397888 FootLeft:0.000000,0.000000,0.000000,0.000000 FootRight:0.000000,0.000000,0.000000,0.000000 HandLeft:-0.105340,0.178483,-0.234211,0.949838 HandRight:0.083020,0.673401,-0.145477,0.720053 HandTipLeft:0.000000,0.000000,0.000000,0.000000 HandTipRight:0.000000,0.000000,0.000000,0.000000 Head:0.000000,0.000000,0.000000,0.000000 HipLeft:0.112185,-0.688376,0.695248,-0.173731 HipRight:-0.105452,0.666189,0.716201,-0.179245 KneeLeft:0.001149,0.713799,-0.072055,-0.696633 KneeRight:0.034568,0.700293,-0.002630,0.713013 Neck:0.052607,-0.027073,0.993708,-0.095104 ShoulderLeft:-0.040089,0.777469,-0.613520,0.132391 ShoulderRight:0.030760,0.773859,0.630598,-0.050420 SpineBase:0.008571,-0.019093,0.998264,-0.055061 SpineMid:0.030263,-0.020285,0.997842,-0.054633 SpineShoulder:0.052501,-0.024084,0.995620,-0.073515 ThumbLeft:0.000000,0.000000,0.000000,0.000000 ThumbRight:0.000000,0.000000,0.000000,0.000000 WristLeft:-0.167438,0.175693,-0.358218,0.901541 WristRight:-0.029840,0.657676,-0.074596,0.749004 END:
KINECT_DATA POSITION:30.876297,0.345809,-16.301525 HEAD_JOINT1:0.972868,0.218785,-0.000000,0.075243 LARM_JOINT2:0.777682,0.000000,-0.479746,-0.406269 LARM_JOINT3:0.986598,0.000000,-0.130412,-0.098062 LLEG_JOINT2:0.996461,0.051595,0.000000,0.066361 LLEG_JOINT4:0.995755,0.065112,0.000000,-0.065052 RARM_JOINT2:0.799233,0.000000,-0.064277,0.597575 RARM_JOINT3:0.954646,0.000000,0.183064,0.234816 RLEG_JOINT2:0.998819,0.023003,0.000000,0.042796 RLEG_JOINT4:0.994520,0.104514,0.000000,0.002663 WAIST:0.999830,0.000000,-0.011381,-0.014533 WAIST_JOINT0:0.998617,0.000000,-0.052334,-0.004989 WAIST_JOINT1:0.996825,0.079219,0.000000,-0.008008 END:
KINECT_DATA_Sensor  AnkleLeft:0.092766,0.726142,-0.071195,-0.677528 AnkleRight:0.110901,0.678366,0.069418,0.722981 ElbowLeft:-0.352426,0.920956,-0.025201,-0.164318 ElbowRight:0.054773,0.891748,0.200471,0.401991 FootLeft:0.000000,0.000000,0.000000,0.000000 FootRight:0.000000,0.000000,0.000000,0.000000 HandLeft:-0.029969,-0.118925,-0.243137,0.962207 HandRight:0.069310,0.669526,-0.152119,0.723734 HandTipLeft:0.000000,0.000000,0.000000,0.000000 HandTipRight:0.000000,0.000000,0.000000,0.000000 Head:0.000000,0.000000,0.000000,0.000000 HipLeft:0.114401,-0.687744,0.695178,-0.175069 HipRight:-0.103734,0.666862,0.716327,-0.177229 KneeLeft:-0.000898,0.716097,-0.073038,-0.694168 KneeRight:0.036098,0.697854,-0.004235,0.715318 Neck:0.053563,-0.027119,0.993699,-0.094641 ShoulderLeft:-0.041055,0.776875,-0.614104,0.132876 ShoulderRight:0.031057,0.774102,0.630372,-0.049315 SpineBase:0.011863,-0.019249,0.998252,-0.054611 SpineMid:0.032400,-0.020369,0.997796,-0.054204 SpineShoulder:0.053461,-0.024097,0.995601,-0.073070 ThumbLeft:0.000000,0.000000,0.000000,0.000000 ThumbRight:0.000000,0.000000,0.000000,0.000000 WristLeft:-0.049243,-0.109225,-0.397360,0.909808 WristRight:-0.030142,0.656530,-0.075215,0.749935 END:
KINECT_DATA POSITION:30.730211,0.353383,-16.394817 HEAD_JOINT1:0.972530,0.220440,-0.000000,0.074778 LARM_JOINT2:0.777834,0.000000,-0.478284,-0.407700 LARM_JOINT3:0.987185,0.000000,-0.128126,-0.095125 LLEG_JOINT2:0.996382,0.052224,0.000000,0.067046 LLEG_JOINT4:0.995646,0.063637,0.000000,-0.068117 RARM_JOINT2:0.798844,0.000000,-0.064524,0.598068 RARM_JOINT3:0.954650,0.000000,0.181277,0.236181 RLEG_JOINT2:0.998781,0.023604,0.000000,0.043354 RLEG_JOINT4:0.994930,0.100516,0.000000,0.003270 WAIST:0.999822,0.000000,-0.012334,-0.014289 WAIST_JOINT0:0.998641,0.000000,-0.051856,-0.005170 WAIST_JOINT1:0.996879,0.078568,0.000000,-0.007678 END:
KINECT_DATA_Sensor  AnkleLeft:0.093450,0.725639,-0.069298,-0.678169 AnkleRight:0.116221,0.753892,0.053351,0.644432 ElbowLeft:-0.352019,0.919151,-0.021068,-0.175502 ElbowRight:0.054870,0.891306,0.199170,0.403602 FootLeft:0.000000,0.000000,0.000000,0.000000 FootRight:0.000000,0.000000,0.000000,0.000000 HandLeft:-0.020870,-0.132100,-0.235263,0.962687 HandRight:0.076514,0.670948,-0.157347,0.720566 HandTipLeft:0.000000,0.000000,0.000000,0.000000 HandTipRight:0.000000,0.000000,0.000000,0.000000 Head:0.000000,0.000000,0.000000,0.000000 HipLeft:0.115160,-0.687515,0.695192,-0.175413 HipRight:-0.103902,0.667246,0.716142,-0.176430 KneeLeft:-0.001191,0.716762,-0.074130,-0.693366 KneeRight:0.037078,0.697090,-0.004428,0.716011 Neck:0.052999,-0.026357,0.993809,-0.094018 ShoulderLeft:-0.040338,0.777330,-0.613861,0.131553 ShoulderRight:0.030908,0.774380,0.630072,-0.048889 SpineBase:0.012819,-0.018559,0.998282,-0.054080 SpineMid:0.032618,-0.019628,0.997831,-0.053701 SpineShoulder:0.052913,-0.023310,0.995691,-0.072496 ThumbLeft:0.000000,0.000000,0.000000,0.000000 ThumbRight:0.000000,0.000000,0.000000,0.000000 WristLeft:-0.040210,-0.122107,-0.400471,0.907247 WristRight:-0.030146,0.656406,-0.074396,0.750125 END:
KINECT_DATA POSITION:30.607397,0.379293,-16.452110 HEAD_JOINT1:0.972680,0.219580,-0.000000,0.075358 LARM_JOINT2:0.779491,0.000000,-0.474110,-0.409406 LARM_JOINT3:0.986825,0.000000,-0.135948,-0.087717 LLEG_JOINT2:0.996344,0.051001,0.000000,0.068544 LLEG_JOINT4:0.995541,0.064032,0.000000,-0.069266 RARM_JOINT2:0.797262,0.000000,-0.065080,0.600115 RARM_JOINT3:0.954399,0.000000,0.181691,0.236880 RLEG_JOINT2:0.998730,0.023021,0.000000,0.044822 RLEG_JOINT4:0.994960,0.100267,0.000000,0.001211 WAIST:0.999821,0.000000,-0.012740,-0.013991 WAIST_JOINT0:0.998631,0.000000,-0.052118,-0.004489 WAIST_JOINT1:0.996982,0.077178,0.000000,-0.008347 END:
KINECT_DATA_Sensor  AnkleLeft:0.092386,0.725959,-0.069202,-0.677982 AnkleRight:0.108894,0.678598,0.065350,0.723447 ElbowLeft:-0.350891,0.916977,-0.018466,-0.188910 ElbowRight:0.054121,0.889861,0.196932,0.407965 FootLeft:0.000000,0.000000,0.000000,0.000000 FootRight:0.000000,0.000000,0.000000,0.000000 HandLeft:-0.013106,-0.160219,-0.271341,0.948964 HandRight:0.081163,0.673589,-0.164895,0.715891 HandTipLeft:0.000000,0.000000,0.000000,0.000000 HandTipRight:0.000000,0.000000,0.000000,0.000000 Head:0.000000,0.000000,0.000000,0.000000 HipLeft:0.116135,-0.687387,0.695259,-0.175003 HipRight:-0.104219,0.667523,0.715947,-0.175987 KneeLeft:-0.003361,0.716989,-0.074513,-0.693082 KneeRight:0.037890,0.696806,-0.006117,0.716232 Neck:0.053168,-0.026639,0.993944,-0.092411 ShoulderLeft:-0.040364,0.777389,-0.614100,0.130071 ShoulderRight:0.031015,0.775057,0.629379,-0.046965 SpineBase:0.013163,-0.018979,0.998314,-0.053258 SpineMid:0.032867,-0.020026,0.997859,-0.052873 SpineShoulder:0.053073,-0.023601,0.995771,-0.071182 ThumbLeft:0.000000,0.000000,0.000000,0.000000 ThumbRight:0.000000,0.000000,0.000000,0.000000 WristLeft:-0.024065,-0.151845,-0.404303,0.901611 WristRight:-0.031615,0.657398,-0.075878,0.749047 END:
KINECT_DATA POSITION:30.823589,0.448903,-16.529596 HEAD_JOINT1:0.974700,0.210350,-0.000000,0.075582 LARM_JOINT2:0.800415,0.000000,-0.484941,-0.352376 LARM_JOINT3:0.977660,0.000000,-0.184390,-0.100903 LLEG_JOINT2:0.996912,0.047199,0.000000,0.062752 LLEG_JOINT4:0.995135,0.070645,0.000000,-0.068666 RARM_JOINT2:0.798585,0.000000,-0.067411,0.598095 RARM_JOINT3:0.953258,0.000000,0.187731,0.236761 RLEG_JOINT2:0.999097,0.021327,0.000000,0.036737 RLEG_JOINT4:0.994530,0.104305,0.000000,0.005488 WAIST:0.999877,0.000000,-0.012467,-0.009499 WAIST_JOINT0:0.998641,0.000000,-0.052113,-0.000329 WAIST_JOINT1:0.997429,0.070865,0.000000,-0.010658 END:
KINECT_DATA_Sensor  AnkleLeft:-0.092046,-0.697283,0.074405,0.706957 AnkleRight:0.117427,0.750558,0.054612,0.647990 ElbowLeft:-0.391064,0.910658,-0.087478,-0.100592 ElbowRight:0.050093,0.890296,0.195365,0.408284 FootLeft:0.000000,0.000000,0.000000,0.000000 FootRight:0.000000,0.000000,0.000000,0.000000 HandLeft:-0.015571,-0.160733,-0.434794,0.885932 HandRight:0.003109,0.846903,-0.197347,0.493762 HandTipLeft:0.000000,0.000000,0.000000,0.000000 HandTipRight:0.000000,0.000000,0.000000,0.000000 Head:0.000000,0.000000,0.000000,0.000000 HipLeft:0.118822,-0.685212,0.697721,-0.171906 HipRight:-0.107379,0.671166,0.712549,-0.174013 KneeLeft:-0.005060,0.716422,-0.070920,-0.694035 KneeRight:0.034208,0.697457,-0.004686,0.715794 Neck:0.053611,-0.024040,0.994591,-0.085655 ShoulderLeft:-0.049150,0.778093,-0.612759,0.129162 ShoulderRight:0.022364,0.779668,0.624174,-0.044992 SpineBase:0.012494,-0.017500,0.998567,-0.049006 SpineMid:0.032729,-0.018490,0.998109,-0.048641 SpineShoulder:0.053504,-0.021485,0.996209,-0.065140 ThumbLeft:0.000000,0.000000,0.000000,0.000000 ThumbRight:0.000000,0.000000,0.000000,0.000000 WristLeft:-0.023702,-0.166573,-0.416683,0.893346 WristRight:-0.057913,0.864435,-0.062622,0.495456 END:
KINECT_DATA POSITION:31.393820,0.552416,-16.887247 HEAD_JOINT1:0.978837,0.192444,-0.000000,0.069598 LARM_JOINT2:0.810395,0.000000,-0.554947,-0.187864 LARM_JOINT3:0.980071,0.000000,-0.146440,-0.134226 LLEG_JOINT2:0.998245,0.036916,0.000000,0.046302 LLEG_JOINT4:0.994704,0.083728,0.000000,-0.059615 RARM_JOINT2:0.801627,0.000000,-0.068810,0.593852 RARM_JOINT3:0.952756,0.000000,0.196531,0.231587 RLEG_JOINT2:0.999582,0.019078,0.000000,0.021721 RLEG_JOINT4:0.994327,0.104712,0.000000,0.018674 WAIST:0.999996,0.000000,-0.002089,-0.001661 WAIST_JOINT0:0.998586,0.000000,-0.052978,0.004389 WAIST_JOINT1:0.997799,0.065093,0.000000,-0.012619 END:
KINECT_DATA_Sensor  AnkleLeft:0.098374,0.725601,-0.070885,-0.677348 AnkleRight:0.112833,0.677533,0.063611,0.723996 ElbowLeft:-0.472583,0.835305,-0.250783,0.126649 ElbowRight:0.042206,0.890643,0.193980,0.409078 FootLeft:0.000000,0.000000,0.000000,0.000000 FootRight:0.000000,0.000000,0.000000,0.000000 HandLeft:0.084680,-0.155650,-0.521054,0.834928 HandRight:0.033314,0.685120,-0.199130,0.699892 HandTipLeft:0.000000,0.000000,0.000000,0.000000 HandTipRight:0.000000,0.000000,0.000000,0.000000 Head:0.000000,0.000000,0.000000,0.000000 HipLeft:0.114715,-0.682678,0.703410,-0.161261 HipRight:-0.116255,0.676644,0.705821,-0.174509 KneeLeft:-0.005495,0.708551,-0.057666,-0.703278 KneeRight:0.027671,0.705420,-0.000758,0.708249 Neck:0.054817,-0.019401,0.995118,-0.079742 ShoulderLeft:-0.059419,0.777795,-0.612071,0.129901 ShoulderRight:0.013149,0.784603,0.618339,-0.043392 SpineBase:0.001679,-0.012783,0.998992,-0.042998 SpineMid:0.027898,-0.013907,0.998604,-0.042648 SpineShoulder:0.054773,-0.016956,0.996593,-0.059289 ThumbLeft:0.000000,0.000000,0.000000,0.000000 ThumbRight:0.000000,0.000000,0.000000,0.000000 WristLeft:0.044629,-0.185160,-0.436681,0.879223 WristRight:-0.043073,0.676591,-0.081189,0.730601 END:
KINECT_DATA POSITION:31.799549,0.695979,-17.290474 HEAD_JOINT1:0.981556,0.181767,-0.000000,0.059240 LARM_JOINT2:0.778529,0.000000,-0.587669,-0.220313 LARM_JOINT3:0.993278,0.000000,-0.087939,0.075274 LLEG_JOINT2:0.998906,0.030464,0.000000,0.035491 LLEG_JOINT4:0.994797,0.087312,0.000000,-0.052490 RARM_JOINT2:0.804748,0.000000,-0.068565,0.589643 RARM_JOINT3:0.952109,0.000000,0.200494,0.230848 RLEG_JOINT2:0.999800,0.015750,0.000000,0.012292 RLEG_JOINT4:0.993670,0.109767,0.000000,0.023878 WAIST:0.999965,-0.000000,0.007703,0.003174 WAIST_JOINT0:0.998751,0.000000,-0.048756,0.010946 WAIST_JOINT1:0.998046,0.061279,0.000000,-0.012195 END:
KINECT_DATA_Sensor  AnkleLeft:0.096598,0.723556,-0.068309,-0.680051 AnkleRight:0.119143,0.744473,0.055328,0.654602 ElbowLeft:-0.493995,0.716354,0.167064,-0.463569 ElbowRight:0.034983,0.891245,0.193142,0.408846 FootLeft:0.000000,0.000000,0.000000,0.000000 FootRight:0.000000,0.000000,0.000000,0.000000 HandLeft:0.146222,-0.032743,-0.565122,0.811286 HandRight:0.034721,0.701973,-0.208640,0.680071 HandTipLeft:0.000000,0.000000,0.000000,0.000000 HandTipRight:0.000000,0.000000,0.000000,0.000000 Head:0.000000,0.000000,0.000000,0.000000 HipLeft:0.110725,-0.681555,0.706905,-0.153322 HipRight:-0.124816,0.679898,0.700752,-0.176372 KneeLeft:0.005393,-0.701359,0.048910,0.711108 KneeRight:0.022053,0.712622,0.000347,0.701201 Neck:0.048946,-0.014770,0.995794,-0.076026 ShoulderLeft:-0.057842,0.774721,-0.617483,0.123189 ShoulderRight:0.006451,0.790651,0.610626,-0.044338 SpineBase:-0.008255,-0.008377,0.999183,-0.038668 SpineMid:0.020024,-0.009468,0.999016,-0.038416 SpineShoulder:0.048964,-0.012385,0.997178,-0.055543 ThumbLeft:0.000000,0.000000,0.000000,0.000000 ThumbRight:0.000000,0.000000,0.000000,0.000000 WristLeft:0.099503,-0.067096,-0.600900,0.790263 WristRight:-0.054544,0.723554,-0.083161,0.683066 END:
KINECT_DATA POSITION:31.920391,0.803547,-17.561113 HEAD_JOINT1:0.982350,0.177742,-0.000000,0.058286 LARM_JOINT2:0.806599,0.000000,-0.565471,-0.172164 LARM_JOINT3:0.990406,0.000000,-0.116392,0.074493 LLEG_JOINT2:0.999090,0.025228,0.000000,0.034395 LLEG_JOINT4:0.995088,0.088608,0.000000,-0.044138 RARM_JOINT2:0.806162,0.000000,-0.068027,0.587772 RARM_JOINT3:0.953650,0.000000,0.197872,0.226713 RLEG_JOINT2:0.999872,0.012540,0.000000,0.009899 RLEG_JOINT4:0.993475,0.111185,0.000000,0.025393 WAIST:0.999976,-0.000000,0.005714,0.003862 WAIST_JOINT0:0.998428,0.000000,-0.055312,0.009045 WAIST_JOINT1:0.998098,0.060444,0.000000,-0.012156 END:
KINECT_DATA_Sensor  AnkleLeft:0.088555,0.728503,-0.071399,-0.675532 AnkleRight:0.116946,0.732699,0.055912,0.668094 ElbowLeft:0.533698,-0.689722,-0.140799,0.468643 ElbowRight:0.032335,0.887666,0.194256,0.416255 FootLeft:0.000000,0.000000,0.000000,0.000000 FootRight:0.000000,0.000000,0.000000,0.000000 HandLeft:0.116094,-0.081774,-0.594030,0.791810 HandRight:0.046015,0.699858,-0.171524,0.691853 HandTipLeft:0.000000,0.000000,0.000000,0.000000 HandTipRight:0.000000,0.000000,0.000000,0.000000 Head:0.000000,0.000000,0.000000,0.000000 HipLeft:0.113105,-0.681171,0.706660,-0.154416 HipRight:-0.125201,0.681113,0.699913,-0.174735 KneeLeft:0.008943,-0.702678,0.044930,0.710032 KneeRight:0.018584,0.711338,-0.000780,0.702604 Neck:0.054440,-0.014331,0.995572,-0.075276 ShoulderLeft:-0.062019,0.776079,-0.614680,0.126583 ShoulderRight:0.009237,0.792326,0.608777,-0.039062 SpineBase:-0.006258,-0.007151,0.999257,-0.037346 SpineMid:0.023781,-0.008271,0.998994,-0.037115 SpineShoulder:0.054505,-0.011623,0.996945,-0.054723 ThumbLeft:0.000000,0.000000,0.000000,0.000000 ThumbRight:0.000000,0.000000,0.000000,0.000000 WristLeft:0.146459,-0.062316,-0.623883,0.765139 WristRight:-0.054948,0.678174,-0.092557,0.726976 END:
KINECT_DATA POSITION:32.015144,0.951310,-17.929672 HEAD_JOINT1:0.983856,0.169611,-0.000000,0.057097 LARM_JOINT2:0.825108,0.000000,-0.546082,-0.144881 LARM_JOINT3:0.988458,0.000000,-0.129134,0.079219 LLEG_JOINT2:0.999208,0.022210,0.000000,0.033021 LLEG_JOINT4:0.994823,0.089202,0.000000,-0.048688 RARM_JOINT2:0.806995,0.000000,-0.071051,0.586269 RARM_JOINT3:0.952885,0.000000,0.199938,0.228112 RLEG_JOINT2:0.999920,0.009762,0.000000,0.008074 RLEG_JOINT4:0.993278,0.112742,0.000000,0.026229 WAIST:0.999974,-0.000000,0.005608,0.004461 WAIST_JOINT0:0.998172,0.000000,-0.059953,0.007654 WAIST_JOINT1:0.997979,0.062374,0.000000,-0.012177 END:
KINECT_DATA_Sensor  AnkleLeft:0.090468,0.730353,-0.065623,-0.673864 AnkleRight:0.116310,0.738731,0.054307,0.661664 ElbowLeft:-0.565591,0.724532,0.051473,-0.390525 ElbowRight:0.035433,0.886130,0.197043,0.417962 FootLeft:0.000000,0.000000,0.000000,0.000000 FootRight:0.000000,0.000000,0.000000,0.000000 HandLeft:0.219539,-0.046132,-0.606360,0.762891 HandRight:0.046627,0.700957,-0.164116,0.692497 HandTipLeft:0.000000,0.000000,0.000000,0.000000 HandTipRight:0.000000,0.000000,0.000000,0.000000 Head:0.000000,0.000000,0.000000,0.000000 HipLeft:0.111731,-0.680554,0.707046,-0.156359 HipRight:-0.124205,0.681433,0.699459,-0.176011 KneeLeft:0.010561,-0.702664,0.042252,0.710188 KneeRight:0.015757,0.711372,-0.001898,0.702637 Neck:0.058585,-0.014411,0.995207,-0.076964 ShoulderLeft:-0.060136,0.775967,-0.614527,0.128899 ShoulderRight:0.016535,0.791810,0.609545,-0.034906 SpineBase:-0.006181,-0.005909,0.999183,-0.039495 SpineMid:0.025935,-0.007175,0.998866,-0.039285 SpineShoulder:0.058699,-0.011335,0.996599,-0.056706 ThumbLeft:0.000000,0.000000,0.000000,0.000000 ThumbRight:0.000000,0.000000,0.000000,0.000000 WristLeft:0.156279,-0.098129,-0.629117,0.755089 WristRight:-0.054334,0.679104,-0.093341,0.726053 END:
KINECT_DATA POSITION:32.037498,0.988428,-18.109358 HEAD_JOINT1:0.984372,0.166741,-0.000000,0.056643 LARM_JOINT2:0.833440,0.000000,-0.538113,-0.125744 LARM_JOINT3:0.988921,0.000000,-0.128527,0.074274 LLEG_JOINT2:0.999235,0.023130,0.000000,0.031532 LLEG_JOINT4:0.994770,0.089635,0.000000,-0.048981 RARM_JOINT2:0.807334,0.000000,-0.071719,0.585720 RARM_JOINT3:0.951886,0.000000,0.205262,0.227555 RLEG_JOINT2:0.999942,0.008089,0.000000,0.007053 RLEG_JOINT4:0.993354,0.112247,0.000000,0.025463 WAIST:0.999977,-0.000000,0.004284,0.005217 WAIST_JOINT0:0.998331,0.000000,-0.057198,0.007946 WAIST_JOINT1:0.997899,0.063521,0.000000,-0.012744 END:
KINECT_DATA_Sensor  AnkleLeft:0.091834,0.728685,-0.066208,-0.675427 AnkleRight:0.108857,0.675768,0.063461,0.726264 ElbowLeft:-0.578236,0.712940,0.044024,-0.394234 ElbowRight:0.036754,0.884843,0.198142,0.420050 FootLeft:0.000000,0.000000,0.000000,0.000000 FootRight:0.000000,0.000000,0.000000,0.000000 HandLeft:0.197322,-0.052658,-0.620436,0.757199 HandRight:0.033046,0.691846,-0.173144,0.700199 HandTipLeft:0.000000,0.000000,0.000000,0.000000 HandTipRight:0.000000,0.000000,0.000000,0.000000 Head:0.000000,0.000000,0.000000,0.000000 HipLeft:0.111503,-0.679759,0.707549,-0.157700 HipRight:-0.122428,0.682000,0.699261,-0.175845 KneeLeft:0.009446,-0.703575,0.042367,0.709294 KneeRight:0.014393,0.710530,-0.002919,0.703514 Neck:0.056969,-0.014031,0.995221,-0.078054 ShoulderLeft:-0.054129,0.778096,-0.613077,0.125595 ShoulderRight:0.020321,0.791303,0.610121,-0.034332 SpineBase:-0.004924,-0.005554,0.999143,-0.040722 SpineMid:0.025791,-0.006803,0.998822,-0.040532 SpineShoulder:0.057092,-0.010968,0.996625,-0.057954 ThumbLeft:0.000000,0.000000,0.000000,0.000000 ThumbRight:0.000000,0.000000,0.000000,0.000000 WristLeft:0.170259,-0.076256,-0.629219,0.754507 WristRight:-0.054066,0.675549,-0.092718,0.729461 END:
KINECT_DATA POSITION:32.039745,1.003037,-18.214489 HEAD_JOINT1:0.984601,0.165972,-0.000000,0.054909 LARM_JOINT2:0.845407,0.000000,-0.523922,-0.103891 LARM_JOINT3:0.987951,0.000000,-0.144685,0.054949 LLEG_JOINT2:0.999258,0.023163,0.000000,0.030780 LLEG_JOINT4:0.995035,0.087451,0.000000,-0.047518 RARM_JOINT2:0.807822,0.000000,-0.072095,0.585001 RARM_JOINT3:0.952147,0.000000,0.203523,0.228025 RLEG_JOINT2:0.999949,0.007910,0.000000,0.006260 RLEG_JOINT4:0.993456,0.111403,0.000000,0.025209 WAIST:0.999971,-0.000000,0.004967,0.005816 WAIST_JOINT0:0.998537,0.000000,-0.053219,0.009620 WAIST_JOINT1:0.997866,0.063984,0.000000,-0.012997 END:
KINECT_DATA_Sensor  AnkleLeft:0.089253,0.726976,-0.065884,-0.677643 AnkleRight:0.113414,0.743730,0.052295,0.656711 ElbowLeft:-0.593751,0.732094,-0.027303,-0.332794 ElbowRight:0.036993,0.884810,0.198965,0.419708 FootLeft:0.000000,0.000000,0.000000,0.000000 FootRight:0.000000,0.000000,0.000000,0.000000 HandLeft:0.196397,-0.060668,-0.625884,0.752341 HandRight:0.038228,0.698369,-0.165890,0.695198 HandTipLeft:0.000000,0.000000,0.000000,0.000000 HandTipRight:0.000000,0.000000,0.000000,0.000000 Head:0.000000,0.000000,0.000000,0.000000 HipLeft:0.110822,-0.679427,0.708057,-0.157330 HipRight:-0.122597,0.682275,0.698844,-0.176318 KneeLeft:0.009293,-0.703060,0.042282,0.709812 KneeRight:0.014122,0.711043,-0.002906,0.703001 Neck:0.055254,-0.013653,0.995275,-0.078666 ShoulderLeft:-0.050230,0.781478,-0.609696,0.122634 ShoulderRight:0.021825,0.790888,0.610602,-0.034436 SpineBase:-0.005649,-0.005321,0.999131,-0.040949 SpineMid:0.024577,-0.006557,0.998845,-0.040770 SpineShoulder:0.055377,-0.010649,0.996700,-0.058393 ThumbLeft:0.000000,0.000000,0.000000,0.000000 ThumbRight:0.000000,0.000000,0.000000,0.000000 WristLeft:0.174395,-0.078571,-0.621727,0.759518 WristRight:-0.054661,0.680240,-0.092367,0.725089 END:
KINECT_DATA POSITION:32.022030,0.998482,-18.336414 HEAD_JOINT1:0.984684,0.165660,-0.000000,0.054348 LARM_JOINT2:0.847468,0.000000,-0.521174,-0.100878 LARM_JOINT3:0.987181,0.000000,-0.150239,0.053864 LLEG_JOINT2:0.999334,0.021359,0.000000,0.029589 LLEG_JOINT4:0.994879,0.090115,0.000000,-0.045775 RARM_JOINT2:0.807218,0.000000,-0.072348,0.585803 RARM_JOINT3:0.952140,0.000000,0.202891,0.228616 RLEG_JOINT2:0.999950,0.008457,0.000000,0.005325 RLEG_JOINT4:0.993735,0.109159,0.000000,0.023989 WAIST:0.999963,-0.000000,0.004455,0.007375 WAIST_JOINT0:0.998526,0.000000,-0.053385,0.009845 WAIST_JOINT1:0.997835,0.064166,0.000000,-0.014401 END:
KINECT_DATA_Sensor  AnkleLeft:0.088456,0.727328,-0.068051,-0.677155 AnkleRight:0.112289,0.750189,0.050410,0.649666 ElbowLeft:-0.595652,0.729307,-0.028814,-0.335380 ElbowRight:0.037779,0.884505,0.198080,0.420699 FootLeft:0.000000,0.000000,0.000000,0.000000 FootRight:0.000000,0.000000,0.000000,0.000000 HandLeft:0.235042,-0.125164,-0.609009,0.747126 HandRight:0.042488,0.694843,-0.167628,0.698060 HandTipLeft:0.000000,0.000000,0.000000,0.000000 HandTipRight:0.000000,0.000000,0.000000,0.000000 Head:0.000000,0.000000,0.000000,0.000000 HipLeft:0.111064,-0.678489,0.708928,-0.157288 HipRight:-0.121956,0.683491,0.697823,-0.176096 KneeLeft:0.010864,-0.703299,0.041263,0.709612 KneeRight:0.014947,0.710748,-0.002969,0.703282 Neck:0.056097,-0.013521,0.995204,-0.078988 ShoulderLeft:-0.049755,0.782699,-0.608163,0.122656 ShoulderRight:0.023319,0.790655,0.610911,-0.033304 SpineBase:-0.005261,-0.005222,0.999134,-0.040942 SpineMid:0.025192,-0.006467,0.998830,-0.040764 SpineShoulder:0.056226,-0.010501,0.996645,-0.058538 ThumbLeft:0.000000,0.000000,0.000000,0.000000 ThumbRight:0.000000,0.000000,0.000000,0.000000 WristLeft:0.223088,-0.135183,-0.609093,0.748975 WristRight:-0.053439,0.675574,-0.092464,0.729516 END:
KINECT_DATA POSITION:32.028973,1.002435,-18.431164 HEAD_JOINT1:0.984793,0.164933,-0.000000,0.054582 LARM_JOINT2:0.848619,0.000000,-0.517823,-0.108188 LARM_JOINT3:0.986194,0.000000,-0.154786,0.058844 LLEG_JOINT2:0.999360,0.021007,0.000000,0.028946 LLEG_JOINT4:0.994895,0.089401,0.000000,-0.046821 RARM_JOINT2:0.806817,0.000000,-0.074778,0.586050 RARM_JOINT3:0.951160,0.000000,0.206022,0.229892 RLEG_JOINT2:0.999959,0.007519,0.000000,0.004991 RLEG_JOINT4:0.993648,0.109816,0.000000,0.024595 WAIST:0.999961,-0.000000,0.003722,0.007951 WAIST_JOINT0:0.998471,0.000000,-0.054399,0.009843 WAIST_JOINT1:0.997815,0.064350,0.000000,-0.014956 END:
KINECT_DATA_Sensor  AnkleLeft:0.088358,0.727805,-0.066593,-0.676800 AnkleRight:0.112238,0.743943,0.050513,0.656811 ElbowLeft:-0.590789,0.726694,-0.021073,-0.349914 ElbowRight:0.039239,0.882157,0.198582,0.425234 FootLeft:0.000000,0.000000,0.000000,0.000000 FootRight:0.000000,0.000000,0.000000,0.000000 HandLeft:0.217939,-0.103114,-0.612365,0.752914 HandRight:0.043185,0.690889,-0.174297,0.700306 HandTipLeft:0.000000,0.000000,0.000000,0.000000 HandTipRight:0.000000,0.000000,0.000000,0.000000 Head:0.000000,0.000000,0.000000,0.000000 HipLeft:0.111490,-0.678086,0.709174,-0.157609 HipRight:-0.121374,0.684041,0.697484,-0.175704 KneeLeft:0.011097,-0.703779,0.040960,0.709151 KneeRight:0.014456,0.710283,-0.003814,0.703758 Neck:0.057341,-0.013519,0.995110,-0.079284 ShoulderLeft:-0.050437,0.783100,-0.607386,0.123662 ShoulderRight:0.024224,0.790620,0.610969,-0.032417 SpineBase:-0.004577,-0.005181,0.999137,-0.040952 SpineMid:0.026154,-0.006438,0.998805,-0.040773 SpineShoulder:0.057475,-0.010477,0.996565,-0.058692 ThumbLeft:0.000000,0.000000,0.000000,0.000000 ThumbRight:0.000000,0.000000,0.000000,0.000000 WristLeft:0.203981,-0.115393,-0.617411,0.750919 WristRight:-0.053884,0.671848,-0.093204,0.732823 END:
KINECT_DATA POSITION:32.026199,1.005099,-18.506002 HEAD_JOINT1:0.984698,0.165201,-0.000000,0.055491 LARM_JOINT2:0.851179,0.000000,-0.513143,-0.110358 LARM_JOINT3:0.988287,0.000000,-0.141281,0.057686 LLEG_JOINT2:0.999382,0.021006,0.000000,0.028166 LLEG_JOINT4:0.994919,0.088286,0.000000,-0.048384 RARM_JOINT2:0.805848,0.000000,-0.075248,0.587322 RARM_JOINT3:0.952273,0.000000,0.204659,0.226476 RLEG_JOINT2:0.999966,0.006885,0.000000,0.004640 RLEG_JOINT4:0.993490,0.111376,0.000000,0.023931 WAIST:0.999962,-0.000000,0.001696,0.008556 WAIST_JOINT0:0.998354,0.000000,-0.056531,0.009712 WAIST_JOINT1:0.997794,0.064483,0.000000,-0.015802 END:
KINECT_DATA_Sensor  AnkleLeft:0.088537,0.728805,-0.064809,-0.675873 AnkleRight:0.112928,0.744641,0.050869,0.655872 ElbowLeft:-0.589170,0.723135,-0.017233,-0.360079 ElbowRight:0.040169,0.880351,0.197574,0.429339 FootLeft:0.000000,0.000000,0.000000,0.000000 FootRight:0.000000,0.000000,0.000000,0.000000 HandLeft:0.183349,-0.026197,-0.629892,0.754277 HandRight:0.044041,0.680774,-0.168386,0.711514 HandTipLeft:0.000000,0.000000,0.000000,0.000000 HandTipRight:0.000000,0.000000,0.000000,0.000000 Head:0.000000,0.000000,0.000000,0.000000 HipLeft:0.112647,-0.677534,0.709290,-0.158641 HipRight:-0.119913,0.684789,0.697253,-0.174711 KneeLeft:0.011048,-0.705173,0.040824,0.707773 KneeRight:0.014192,0.708913,-0.004462,0.705139 Neck:0.059525,-0.013666,0.994965,-0.079467 ShoulderLeft:-0.051041,0.783169,-0.606986,0.124937 ShoulderRight:0.026421,0.790430,0.611232,-0.030299 SpineBase:-0.002614,-0.005338,0.999139,-0.041061 SpineMid:0.028227,-0.006603,0.998744,-0.040877 SpineShoulder:0.059663,-0.010609,0.996427,-0.058835 ThumbLeft:0.000000,0.000000,0.000000,0.000000 ThumbRight:0.000000,0.000000,0.000000,0.000000 WristLeft:0.165338,-0.040125,-0.623016,0.763482 WristRight:-0.053454,0.665056,-0.091349,0.739255 END:
KINECT_DATA POSITION:32.038063,0.998069,-18.532335 HEAD_JOINT1:0.984525,0.166125,-0.000000,0.055800 LARM_JOINT2:0.851450,0.000000,-0.514911,-0.099502 LARM_JOINT3:0.988926,0.000000,-0.137908,0.054832 LLEG_JOINT2:0.999405,0.018514,0.000000,0.029116 LLEG_JOINT4:0.994580,0.091650,0.000000,-0.049099 RARM_JOINT2:0.805403,0.000000,-0.075033,0.587960 RARM_JOINT3:0.950709,0.000000,0.211136,0.227100 RLEG_JOINT2:0.999969,0.006495,0.000000,0.004549 RLEG_JOINT4:0.993520,0.111414,0.000000,0.022460 WAIST:0.999961,-0.000000,0.001761,0.008640 WAIST_JOINT0:0.998353,0.000000,-0.056587,0.009461 WAIST_JOINT1:0.997782,0.064639,0.000000,-0.015925 END:
KINECT_DATA_Sensor  AnkleLeft:0.089004,0.728825,-0.065591,-0.675715 AnkleRight:0.112313,0.752822,0.050363,0.646614 ElbowLeft:-0.595395,0.732384,-0.041124,-0.327760 ElbowRight:0.040314,0.880240,0.196943,0.429844 FootLeft:0.000000,0.000000,0.000000,0.000000 FootRight:0.000000,0.000000,0.000000,0.000000 HandLeft:0.188110,-0.030071,-0.638736,0.745471 HandRight:0.027518,0.679137,-0.190624,0.708292 HandTipLeft:0.000000,0.000000,0.000000,0.000000 HandTipRight:0.000000,0.000000,0.000000,0.000000 Head:0.000000,0.000000,0.000000,0.000000 HipLeft:0.112558,-0.677460,0.709354,-0.158732 HipRight:-0.119883,0.684809,0.697198,-0.174869 KneeLeft:0.013547,-0.705058,0.039796,0.707903 KneeRight:0.013914,0.708973,-0.004732,0.705082 Neck:0.059676,-0.013760,0.994940,-0.079654 ShoulderLeft:-0.051082,0.783381,-0.606664,0.125158 ShoulderRight:0.026587,0.790206,0.611511,-0.030348 SpineBase:-0.002687,-0.005311,0.999133,-0.041205 SpineMid:0.028268,-0.006585,0.998737,-0.041021 SpineShoulder:0.059816,-0.010668,0.996409,-0.058973 ThumbLeft:0.000000,0.000000,0.000000,0.000000 ThumbRight:0.000000,0.000000,0.000000,0.000000 WristLeft:0.166410,-0.045572,-0.619610,0.765712 WristRight:-0.053575,0.667666,-0.090731,0.736967 END:
KINECT_DATA POSITION:32.043541,0.996593,-18.537258 HEAD_JOINT1:0.984096,0.168923,-0.000000,0.054961 LARM_JOINT2:0.855384,0.000000,-0.507515,-0.103668 LARM_JOINT3:0.988562,0.000000,-0.135379,0.066459 LLEG_JOINT2:0.999422,0.018325,0.000000,0.028644 LLEG_JOINT4:0.994577,0.092648,0.000000,-0.047245 RARM_JOINT2:0.805012,0.000000,-0.074813,0.588523 RARM_JOINT3:0.951451,0.000000,0.209299,0.225686 RLEG_JOINT2:0.999973,0.005998,0.000000,0.004312 RLEG_JOINT4:0.993287,0.113445,0.000000,0.022616 WAIST:0.999959,-0.000000,0.002229,0.008776 WAIST_JOINT0:0.998375,0.000000,-0.056198,0.009400 WAIST_JOINT1:0.997765,0.064855,0.000000,-0.016104 END:
KINECT_DATA_Sensor  AnkleLeft:0.088637,0.728762,-0.067177,-0.675675 AnkleRight:0.113875,0.757983,0.050498,0.640269 ElbowLeft:-0.593649,0.709817,-0.010291,-0.378991 ElbowRight:0.040256,0.880001,0.196465,0.430557 FootLeft:0.000000,0.000000,0.000000,0.000000 FootRight:0.000000,0.000000,0.000000,0.000000 HandLeft:0.143340,0.027778,-0.648380,0.747185 HandRight:0.029066,0.692765,-0.185931,0.696176 HandTipLeft:0.000000,0.000000,0.000000,0.000000 HandTipRight:0.000000,0.000000,0.000000,0.000000 Head:0.000000,0.000000,0.000000,0.000000 HipLeft:0.112230,-0.677413,0.709500,-0.158508 HipRight:-0.120072,0.684804,0.697079,-0.175237 KneeLeft:0.013429,-0.704716,0.039427,0.708266 KneeRight:0.013485,0.709326,-0.005011,0.704734 Neck:0.059338,-0.013883,0.994936,-0.079924 ShoulderLeft:-0.050769,0.783302,-0.606814,0.125050 ShoulderRight:0.026496,0.789962,0.611808,-0.030800 SpineBase:-0.003169,-0.005348,0.999127,-0.041310 SpineMid:0.027860,-0.006628,0.998744,-0.041124 SpineShoulder:0.059480,-0.010755,0.996417,-0.059152 ThumbLeft:0.000000,0.000000,0.000000,0.000000 ThumbRight:0.000000,0.000000,0.000000,0.000000 WristLeft:0.134123,0.022114,-0.637134,0.758672 WristRight:-0.055090,0.679067,-0.089362,0.726531 END:
KINECT_DATA POSITION:32.054329,0.992841,-18.501366 HEAD_JOINT1:0.984010,0.169373,-0.000000,0.055115 LARM_JOINT2:0.859110,0.000000,-0.501433,-0.102445 LARM_JOINT3:0.988709,0.000000,-0.134483,0.066092 LLEG_JOINT2:0.999422,0.018927,0.000000,0.028239 LLEG_JOINT4:0.994792,0.089945,0.000000,-0.047941 RARM_JOINT2:0.804479,0.000000,-0.073518,0.589413 RARM_JOINT3:0.950611,0.000000,0.213814,0.224994 RLEG_JOINT2:0.999971,0.006136,0.000000,0.004414 RLEG_JOINT4:0.993300,0.113132,0.000000,0.023577 WAIST:0.999959,-0.000000,0.002312,0.008741 WAIST_JOINT0:0.998446,0.000000,-0.054923,0.009410 WAIST_JOINT1:0.997694,0.065846,0.000000,-0.016431 END:
KINECT_DATA_Sensor  AnkleLeft:0.087765,0.728076,-0.065036,-0.676737 AnkleRight:0.112993,0.740078,0.052748,0.660859 ElbowLeft:-0.593403,0.710203,-0.019979,-0.378268 ElbowRight:0.040395,0.880198,0.195922,0.430389 FootLeft:0.000000,0.000000,0.000000,0.000000 FootRight:0.000000,0.000000,0.000000,0.000000 HandLeft:0.134059,0.055719,-0.651968,0.744218 HandRight:-0.044317,0.870341,-0.192954,0.450901 HandTipLeft:0.000000,0.000000,0.000000,0.000000 HandTipRight:0.000000,0.000000,0.000000,0.000000 Head:0.000000,0.000000,0.000000,0.000000 HipLeft:0.111909,-0.677391,0.709515,-0.158765 HipRight:-0.119742,0.684682,0.697143,-0.175683 KneeLeft:0.012689,-0.704660,0.039540,0.708329 KneeRight:0.013631,0.709400,-0.004960,0.704657 Neck:0.058079,-0.014274,0.994912,-0.081078 ShoulderLeft:-0.048688,0.783467,-0.606937,0.124246 ShoulderRight:0.026988,0.789770,0.611975,-0.031950 SpineBase:-0.003271,-0.005565,0.999104,-0.041832 SpineMid:0.027190,-0.006838,0.998739,-0.041643 SpineShoulder:0.058219,-0.011099,0.996433,-0.060072 ThumbLeft:0.000000,0.000000,0.000000,0.000000 ThumbRight:0.000000,0.000000,0.000000,0.000000 WristLeft:0.121033,0.047501,-0.637871,0.759088 WristRight:-0.081540,0.883154,-0.066135,0.457184 END:
KINECT_DATA POSITION:32.063873,0.991253,-18.478191 HEAD_JOINT1:0.983731,0.170972,-0.000000,0.055149 LARM_JOINT2:0.861630,0.000000,-0.497693,-0.099475 LARM_JOINT3:0.989264,0.000000,-0.131030,0.064713 LLEG_JOINT2:0.999417,0.019053,0.000000,0.028343 LLEG_JOINT4:0.994807,0.090568,0.000000,-0.046442 RARM_JOINT2:0.804185,0.000000,-0.073770,0.589784 RARM_JOINT3:0.951261,0.000000,0.210515,0.225356 RLEG_JOINT2:0.999968,0.006811,0.000000,0.004102 RLEG_JOINT4:0.993273,0.113206,0.000000,0.024366 WAIST:0.999959,-0.000000,0.002580,0.008660 WAIST_JOINT0:0.998479,0.000000,-0.054350,0.009270 WAIST_JOINT1:0.997679,0.066080,0.000000,-0.016450 END:
KINECT_DATA_Sensor  AnkleLeft:0.087320,0.727948,-0.066626,-0.676778 AnkleRight:0.113730,0.739320,0.053122,0.661550 ElbowLeft:-0.595019,0.709320,-0.026654,-0.376971 ElbowRight:0.040575,0.879631,0.195834,0.431570 FootLeft:0.000000,0.000000,0.000000,0.000000 FootRight:0.000000,0.000000,0.000000,0.000000 HandLeft:0.223766,-0.016292,-0.621907,0.750263 HandRight:0.032765,0.682989,-0.190193,0.704471 HandTipLeft:0.000000,0.000000,0.000000,0.000000 HandTipRight:0.000000,0.000000,0.000000,0.000000 Head:0.000000,0.000000,0.000000,0.000000 HipLeft:0.111731,-0.677418,0.709517,-0.158764 HipRight:-0.119848,0.684514,0.697206,-0.176011 KneeLeft:0.012607,-0.704471,0.039649,0.708512 KneeRight:0.013831,0.709583,-0.004202,0.704474 Neck:0.057503,-0.014379,0.994924,-0.081316 ShoulderLeft:-0.048154,0.783496,-0.607003,0.123945 ShoulderRight:0.026798,0.789623,0.612140,-0.032572 SpineBase:-0.003539,-0.005663,0.999095,-0.041998 SpineMid:0.026769,-0.006935,0.998743,-0.041807 SpineShoulder:0.057640,-0.011212,0.996452,-0.060294 ThumbLeft:0.000000,0.000000,0.000000,0.000000 ThumbRight:0.000000,0.000000,0.000000,0.000000 WristLeft:0.195306,-0.039790,-0.621140,0.757930 WristRight:-0.053720,0.668867,-0.090083,0.735945 END:
KINECT_DATA POSITION:32.092514,0.984865,-18.462193 HEAD_JOINT1:0.983862,0.169880,-0.000000,0.056176 LARM_JOINT2:0.861293,0.000000,-0.503022,-0.071713 LARM_JOINT3:0.992615,0.000000,-0.117069,0.031796 LLEG_JOINT2:0.999425,0.018587,0.000000,0.028374 LLEG_JOINT4:0.994285,0.094333,0.000000,-0.049983 RARM_JOINT2:0.803742,0.000000,-0.072931,0.590492 RARM_JOINT3:0.951090,0.000000,0.212059,0.224632 RLEG_JOINT2:0.999972,0.006238,0.000000,0.004169 RLEG_JOINT4:0.993352,0.112459,0.000000,0.024590 WAIST:0.999957,-0.000000,0.003185,0.008724 WAIST_JOINT0:0.998522,0.000000,-0.053527,0.009472 WAIST_JOINT1:0.997593,0.067312,0.000000,-0.016674 END:
KINECT_DATA_Sensor  AnkleLeft:0.092079,0.726695,-0.066279,-0.677527 AnkleRight:0.113059,0.741099,0.051824,0.659776 ElbowLeft:-0.606075,0.736781,-0.097351,-0.283459 ElbowRight:0.040913,0.879428,0.195606,0.432055 FootLeft:0.000000,0.000000,0.000000,0.000000 FootRight:0.000000,0.000000,0.000000,0.000000 HandLeft:0.169539,0.043702,-0.632964,0.754125 HandRight:0.026221,0.695986,-0.193532,0.690986 HandTipLeft:0.000000,0.000000,0.000000,0.000000 HandTipRight:0.000000,0.000000,0.000000,0.000000 Head:0.000000,0.000000,0.000000,0.000000 HipLeft:0.110920,-0.677327,0.709691,-0.158948 HipRight:-0.119648,0.684299,0.697200,-0.177004 KneeLeft:0.012986,-0.704004,0.039389,0.708984 KneeRight:0.013515,0.710049,-0.004696,0.704007 Neck:0.056638,-0.014598,0.994861,-0.082645 ShoulderLeft:-0.045486,0.783294,-0.607623,0.123191 ShoulderRight:0.028380,0.789291,0.612468,-0.033138 SpineBase:-0.004175,-0.005875,0.999056,-0.042847 SpineMid:0.026020,-0.007167,0.998725,-0.042650 SpineShoulder:0.056767,-0.011488,0.996427,-0.061464 ThumbLeft:0.000000,0.000000,0.000000,0.000000 ThumbRight:0.000000,0.000000,0.000000,0.000000 WristLeft:0.149219,0.030009,-0.619184,0.770354 WristRight:-0.055378,0.684154,-0.088426,0.721836 END:
KINECT_DATA POSITION:32.113438,0.987875,-18.465948 HEAD_JOINT1:0.983779,0.170311,-0.000000,0.056337 LARM_JOINT2:0.863494,0.000000,-0.497751,-0.081378 LARM_JOINT3:0.990115,0.000000,-0.132513,0.045962 LLEG_JOINT2:0.999418,0.018168,0.000000,0.028886 LLEG_JOINT4:0.994337,0.093312,0.000000,-0.050857 RARM_JOINT2:0.803406,0.000000,-0.073246,0.590909 RARM_JOINT3:0.950692,0.000000,0.212860,0.225557 RLEG_JOINT2:0.999971,0.006176,0.000000,0.004508 RLEG_JOINT4:0.993557,0.110788,0.000000,0.023871 WAIST:0.999954,-0.000000,0.003960,0.008760 WAIST_JOINT0:0.998560,0.000000,-0.052788,0.009555 WAIST_JOINT1:0.997551,0.067895,0.000000,-0.016813 END:
KINECT_DATA_Sensor  AnkleLeft:0.091289,0.726355,-0.064985,-0.678124 AnkleRight:0.111363,0.740026,0.051297,0.661308 ElbowLeft:-0.603300,0.721975,-0.065414,-0.332419 ElbowRight:0.041337,0.879000,0.195666,0.432857 FootLeft:0.000000,0.000000,0.000000,0.000000 FootRight:0.000000,0.000000,0.000000,0.000000 HandLeft:0.127175,0.076512,-0.641684,0.752472 HandRight:0.036066,0.675090,-0.195135,0.710545 HandTipLeft:0.000000,0.000000,0.000000,0.000000 HandTipRight:0.000000,0.000000,0.000000,0.000000 Head:0.000000,0.000000,0.000000,0.000000 HipLeft:0.110127,-0.677332,0.709846,-0.158785 HipRight:-0.119746,0.684114,0.697161,-0.177806 KneeLeft:0.013646,-0.703421,0.039488,0.709544 KneeRight:0.013740,0.710608,-0.004999,0.703436 Neck:0.055893,-0.014792,0.994847,-0.083281 ShoulderLeft:-0.044671,0.783154,-0.607902,0.123004 ShoulderRight:0.028274,0.789191,0.612548,-0.034096 SpineBase:-0.004969,-0.005990,0.999029,-0.043358 SpineMid:0.025251,-0.007298,0.998722,-0.043157 SpineShoulder:0.056019,-0.011683,0.996435,-0.061997 ThumbLeft:0.000000,0.000000,0.000000,0.000000 ThumbRight:0.000000,0.000000,0.000000,0.000000 WristLeft:0.112909,0.065909,-0.636106,0.760445 WristRight:-0.052687,0.661789,-0.090722,0.742313 END:
KINECT_DATA POSITION:32.138927,0.988465,-18.469942 HEAD_JOINT1:0.984004,0.169155,-0.000000,0.055874 LARM_JOINT2:0.864932,0.000000,-0.494080,-0.088195 LARM_JOINT3:0.988350,0.000000,-0.141180,0.056852 LLEG_JOINT2:0.999409,0.019263,0.000000,0.028471 LLEG_JOINT4:0.993891,0.098590,0.000000,-0.049603 RARM_JOINT2:0.803532,0.000000,-0.072861,0.590786 RARM_JOINT3:0.952115,0.000000,0.208937,0.223211 RLEG_JOINT2:0.999968,0.006746,0.000000,0.004275 RLEG_JOINT4:0.993370,0.112370,0.000000,0.024263 WAIST:0.999954,-0.000000,0.003894,0.008759 WAIST_JOINT0:0.998565,0.000000,-0.052699,0.009565 WAIST_JOINT1:0.997508,0.068486,0.000000,-0.016972 END:
KINECT_DATA_Sensor  AnkleLeft:0.095448,0.725912,-0.069851,-0.677541 AnkleRight:0.112914,0.737958,0.052930,0.663224 ElbowLeft:-0.599580,0.714421,-0.050228,-0.357189 ElbowRight:0.041549,0.879190,0.196083,0.432261 FootLeft:0.000000,0.000000,0.000000,0.000000 FootRight:0.000000,0.000000,0.000000,0.000000 HandLeft:0.153446,0.043163,-0.639398,0.752171 HandRight:0.037537,0.689518,-0.177748,0.701114 HandTipLeft:0.000000,0.000000,0.000000,0.000000 HandTipRight:0.000000,0.000000,0.000000,0.000000 Head:0.000000,0.000000,0.000000,0.000000 HipLeft:0.109766,-0.677281,0.709907,-0.158979 HipRight:-0.119237,0.684060,0.697255,-0.177987 KneeLeft:0.012576,-0.703483,0.039965,0.709476 KneeRight:0.013975,0.710570,-0.004430,0.703474 Neck:0.055733,-0.014934,0.994803,-0.083889 ShoulderLeft:-0.043499,0.782962,-0.608271,0.122820 ShoulderRight:0.029259,0.788981,0.612770,-0.034145 SpineBase:-0.004919,-0.006132,0.999008,-0.043835 SpineMid:0.025197,-0.007451,0.998702,-0.043630 SpineShoulder:0.055853,-0.011872,0.996406,-0.062572 ThumbLeft:0.000000,0.000000,0.000000,0.000000 ThumbRight:0.000000,0.000000,0.000000,0.000000 WristLeft:0.137208,0.030195,-0.636516,0.758360 WristRight:-0.053819,0.673304,-0.089396,0.731966 END:
KINECT_DATA POSITION:32.180958,0.982679,-18.470621 HEAD_JOINT1:0.984101,0.169047,-0.000000,0.054478 LARM_JOINT2:0.864728,0.000000,-0.494219,-0.089405 LARM_JOINT3:0.988341,0.000000,-0.141490,0.056238 LLEG_JOINT2:0.999409,0.018158,0.000000,0.029186 LLEG_JOINT4:0.994160,0.094704,0.000000,-0.051731 RARM_JOINT2:0.803296,0.000000,-0.072590,0.591140 RARM_JOINT3:0.952073,0.000000,0.208309,0.223974 RLEG_JOINT2:0.999968,0.006457,0.000000,0.004724 RLEG_JOINT4:0.993427,0.112762,0.000000,0.019691 WAIST:0.999956,-0.000000,0.004285,0.008375 WAIST_JOINT0:0.998562,0.000000,-0.052768,0.009426 WAIST_JOINT1:0.997510,0.068571,0.000000,-0.016504 END:
KINECT_DATA_Sensor  AnkleLeft:0.092989,0.726107,-0.065152,-0.678142 AnkleRight:0.110873,0.749561,0.054482,0.650305 ElbowLeft:-0.598845,0.713969,-0.048576,-0.359546 ElbowRight:0.041483,0.879265,0.195620,0.432326 FootLeft:0.000000,0.000000,0.000000,0.000000 FootRight:0.000000,0.000000,0.000000,0.000000 HandLeft:0.156489,0.046729,-0.632888,0.756823 HandRight:0.040146,0.696431,-0.181802,0.693052 HandTipLeft:0.000000,0.000000,0.000000,0.000000 HandTipRight:0.000000,0.000000,0.000000,0.000000 Head:0.000000,0.000000,0.000000,0.000000 HipLeft:0.109415,-0.677479,0.709764,-0.159012 HipRight:-0.119394,0.683661,0.697531,-0.178336 KneeLeft:0.013581,-0.703195,0.039425,0.709773 KneeRight:0.013815,0.710833,-0.004678,0.703210 Neck:0.055803,-0.014904,0.994799,-0.083898 ShoulderLeft:-0.043384,0.782933,-0.608302,0.122887 ShoulderRight:0.029471,0.788822,0.612966,-0.034131 SpineBase:-0.005284,-0.006158,0.998995,-0.044081 SpineMid:0.025046,-0.007493,0.998695,-0.043873 SpineShoulder:0.055924,-0.011851,0.996396,-0.062672 ThumbLeft:0.000000,0.000000,0.000000,0.000000 ThumbRight:0.000000,0.000000,0.000000,0.000000 WristLeft:0.135355,0.028273,-0.637933,0.757576 WristRight:-0.054476,0.679977,-0.088326,0.725853 END:
