EastLYD/RoboCupatHomeSim/InteractiveCleanUp/JapanOpen2016/Motion_Data/File35.dat
KINECT_DATA POSITION:22.751751,-0.581588,-13.536131 HEAD_JOINT1:0.973674,0.209479,-0.000000,0.089878 LARM_JOINT2:0.825564,0.000000,-0.052352,-0.561874 LARM_JOINT3:0.967820,0.000000,-0.181445,-0.174363 LLEG_JOINT2:0.999292,0.012686,0.000000,0.035431 LLEG_JOINT4:0.995655,0.087541,0.000000,-0.031748 RARM_JOINT2:0.782521,0.000000,-0.038539,0.621431 RARM_JOINT3:0.981623,0.000000,0.147700,0.120837 RLEG_JOINT2:0.999787,0.004686,0.000000,-0.020090 RLEG_JOINT4:0.995441,0.089205,0.000000,0.033767 WAIST:0.999782,0.000000,-0.019672,-0.006965 WAIST_JOINT0:0.998930,0.000000,-0.045749,-0.006759 WAIST_JOINT1:0.995743,0.091274,0.000000,-0.012844 END:
KINECT_DATA_Sensor  AnkleLeft:0.073416,0.731951,-0.067975,-0.673971 AnkleRight:0.073270,0.700038,0.058800,0.707899 ElbowLeft:-0.026248,0.919418,-0.168826,-0.354231 ElbowRight:0.039079,0.838510,0.174809,0.514602 FootLeft:0.000000,0.000000,0.000000,0.000000 FootRight:0.000000,0.000000,0.000000,0.000000 HandLeft:-0.012030,-0.661062,-0.107504,0.742492 HandRight:0.064454,0.656780,0.001323,0.751321 HandTipLeft:0.000000,0.000000,0.000000,0.000000 HandTipRight:0.000000,0.000000,0.000000,0.000000 Head:0.000000,0.000000,0.000000,0.000000 HipLeft:0.121201,-0.677843,0.698696,-0.194070 HipRight:-0.088567,0.672453,0.712737,-0.178796 KneeLeft:-0.011850,0.720017,-0.028768,-0.693258 KneeRight:-0.015435,0.693892,0.022678,0.719556 Neck:0.045853,-0.021041,0.992920,-0.107543 ShoulderLeft:0.005835,0.775885,-0.620796,0.112161 ShoulderRight:0.066757,0.769145,0.634299,-0.040310 SpineBase:0.019300,-0.017497,0.997456,-0.066354 SpineMid:0.032273,-0.018359,0.997121,-0.066121 SpineShoulder:0.045641,-0.020082,0.995075,-0.085669 ThumbLeft:0.000000,0.000000,0.000000,0.000000 ThumbRight:0.000000,0.000000,0.000000,0.000000 WristLeft:0.067096,-0.648780,-0.112733,0.749582 WristRight:-0.062076,0.647122,-0.015993,0.759687 END:
KINECT_DATA POSITION:22.786274,-0.574993,-13.699425 HEAD_JOINT1:0.974167,0.207375,-0.000000,0.089413 LARM_JOINT2:0.825687,0.000000,-0.052766,-0.561655 LARM_JOINT3:0.967912,0.000000,-0.180364,-0.174972 LLEG_JOINT2:0.999322,0.011606,0.000000,0.034955 LLEG_JOINT4:0.995345,0.090278,0.000000,-0.033748 RARM_JOINT2:0.782014,0.000000,-0.036852,0.622171 RARM_JOINT3:0.981410,0.000000,0.148895,0.121094 RLEG_JOINT2:0.999780,0.003579,0.000000,-0.020677 RLEG_JOINT4:0.995340,0.090034,0.000000,0.034539 WAIST:0.999759,0.000000,-0.020947,-0.006525 WAIST_JOINT0:0.998811,0.000000,-0.048248,-0.006912 WAIST_JOINT1:0.995727,0.091351,0.000000,-0.013490 END:
KINECT_DATA_Sensor  AnkleLeft:0.075950,0.732655,-0.067783,-0.672944 AnkleRight:0.073728,0.701070,0.057861,0.706907 ElbowLeft:-0.026360,0.920625,-0.168747,-0.351112 ElbowRight:0.038730,0.838720,0.173562,0.514709 FootLeft:0.000000,0.000000,0.000000,0.000000 FootRight:0.000000,0.000000,0.000000,0.000000 HandLeft:-0.014595,-0.664497,-0.104879,0.739750 HandRight:0.064648,0.652710,-0.006430,0.754817 HandTipLeft:0.000000,0.000000,0.000000,0.000000 HandTipRight:0.000000,0.000000,0.000000,0.000000 Head:0.000000,0.000000,0.000000,0.000000 HipLeft:0.121986,-0.677353,0.698822,-0.194834 HipRight:-0.087663,0.672891,0.712552,-0.178333 KneeLeft:-0.012613,0.720802,-0.027947,-0.692462 KneeRight:-0.016305,0.693046,0.022040,0.720372 Neck:0.048208,-0.021236,0.992797,-0.107608 ShoulderLeft:0.005583,0.776129,-0.620333,0.113048 ShoulderRight:0.069524,0.769560,0.633674,-0.037428 SpineBase:0.020499,-0.017604,0.997418,-0.066532 SpineMid:0.034048,-0.018507,0.997048,-0.066286 SpineShoulder:0.047998,-0.020278,0.994953,-0.085753 ThumbLeft:0.000000,0.000000,0.000000,0.000000 ThumbRight:0.000000,0.000000,0.000000,0.000000 WristLeft:0.066411,-0.652008,-0.112836,0.746822 WristRight:-0.061767,0.642128,-0.017064,0.763915 END:
KINECT_DATA POSITION:22.787003,-0.573321,-13.786900 HEAD_JOINT1:0.973975,0.207694,-0.000000,0.090748 LARM_JOINT2:0.826338,0.000000,-0.052170,-0.560754 LARM_JOINT3:0.967426,0.000000,-0.182879,-0.175049 LLEG_JOINT2:0.999302,0.011182,0.000000,0.035639 LLEG_JOINT4:0.995522,0.088621,0.000000,-0.032907 RARM_JOINT2:0.781689,0.000000,-0.037511,0.622539 RARM_JOINT3:0.981602,0.000000,0.148989,0.119415 RLEG_JOINT2:0.999797,0.003551,0.000000,-0.019858 RLEG_JOINT4:0.995477,0.088621,0.000000,0.034230 WAIST:0.999723,0.000000,-0.022486,-0.006876 WAIST_JOINT0:0.998730,0.000000,-0.049837,-0.007445 WAIST_JOINT1:0.995782,0.090701,0.000000,-0.013840 END:
KINECT_DATA_Sensor  AnkleLeft:0.074441,0.742990,-0.066245,-0.661843 AnkleRight:0.072715,0.698441,0.056822,0.709693 ElbowLeft:-0.026762,0.921613,-0.169064,-0.348327 ElbowRight:0.038541,0.837138,0.173639,0.517266 FootLeft:0.000000,0.000000,0.000000,0.000000 FootRight:0.000000,0.000000,0.000000,0.000000 HandLeft:-0.007073,-0.655277,-0.112810,0.746884 HandRight:0.059926,0.640624,0.002512,0.765508 HandTipLeft:0.000000,0.000000,0.000000,0.000000 HandTipRight:0.000000,0.000000,0.000000,0.000000 Head:0.000000,0.000000,0.000000,0.000000 HipLeft:0.123288,-0.677460,0.698381,-0.195220 HipRight:-0.086908,0.672938,0.712902,-0.177123 KneeLeft:-0.013203,0.721846,-0.027837,-0.691367 KneeRight:-0.015980,0.691951,0.021694,0.721442 Neck:0.049881,-0.021836,0.992773,-0.106941 ShoulderLeft:0.003336,0.776200,-0.620010,0.114409 ShoulderRight:0.069487,0.769108,0.634294,-0.036276 SpineBase:0.022048,-0.018074,0.997412,-0.066003 SpineMid:0.035658,-0.018973,0.997018,-0.065750 SpineShoulder:0.049668,-0.020833,0.994914,-0.085119 ThumbLeft:0.000000,0.000000,0.000000,0.000000 ThumbRight:0.000000,0.000000,0.000000,0.000000 WristLeft:0.064550,-0.644252,-0.114112,0.753493 WristRight:-0.062550,0.631970,-0.018457,0.772244 END:
KINECT_DATA POSITION:22.819658,-0.580674,-13.886547 HEAD_JOINT1:0.974754,0.203010,-0.000000,0.092962 LARM_JOINT2:0.827466,0.000000,-0.056798,-0.558636 LARM_JOINT3:0.961576,0.000000,-0.201308,-0.186670 LLEG_JOINT2:0.999322,0.010253,0.000000,0.035353 LLEG_JOINT4:0.995572,0.088346,0.000000,-0.032120 RARM_JOINT2:0.781954,0.000000,-0.038727,0.622131 RARM_JOINT3:0.981325,0.000000,0.151646,0.118340 RLEG_JOINT2:0.999783,0.003462,0.000000,-0.020537 RLEG_JOINT4:0.995831,0.084647,0.000000,0.033986 WAIST:0.999692,0.000000,-0.023917,-0.006594 WAIST_JOINT0:0.998539,0.000000,-0.053324,-0.008774 WAIST_JOINT1:0.995791,0.090530,0.000000,-0.014325 END:
KINECT_DATA_Sensor  AnkleLeft:0.072135,0.736007,-0.066953,-0.669782 AnkleRight:0.070600,0.713901,0.052834,0.694672 ElbowLeft:-0.030101,0.924988,-0.169221,-0.338903 ElbowRight:0.039040,0.835891,0.174544,0.518938 FootLeft:0.000000,0.000000,0.000000,0.000000 FootRight:0.000000,0.000000,0.000000,0.000000 HandLeft:-0.049474,0.819838,0.183973,-0.539974 HandRight:0.049158,0.665876,0.001172,0.744440 HandTipLeft:0.000000,0.000000,0.000000,0.000000 HandTipRight:0.000000,0.000000,0.000000,0.000000 Head:0.000000,0.000000,0.000000,0.000000 HipLeft:0.124320,-0.677082,0.698375,-0.195901 HipRight:-0.086132,0.673327,0.712822,-0.176345 KneeLeft:-0.013885,0.722763,-0.027139,-0.690423 KneeRight:-0.016289,0.690950,0.021944,0.722386 Neck:0.053532,-0.022130,0.992599,-0.106729 ShoulderLeft:0.000303,0.776472,-0.619110,0.117448 ShoulderRight:0.071178,0.768212,0.635324,-0.033865 SpineBase:0.023429,-0.018145,0.997387,-0.065881 SpineMid:0.038173,-0.019117,0.996932,-0.065606 SpineShoulder:0.053325,-0.021107,0.994735,-0.084934 ThumbLeft:0.000000,0.000000,0.000000,0.000000 ThumbRight:0.000000,0.000000,0.000000,0.000000 WristLeft:-0.093405,0.825171,0.100321,-0.548000 WristRight:-0.063687,0.657654,-0.016430,0.750443 END:
KINECT_DATA POSITION:22.836287,-0.596572,-13.907266 HEAD_JOINT1:0.975897,0.196771,-0.000000,0.094378 LARM_JOINT2:0.825612,0.000000,-0.085380,-0.557741 LARM_JOINT3:0.951953,0.000000,-0.233416,-0.198249 LLEG_JOINT2:0.999330,0.010605,0.000000,0.035021 LLEG_JOINT4:0.995526,0.088523,0.000000,-0.033039 RARM_JOINT2:0.782109,0.000000,-0.038700,0.621939 RARM_JOINT3:0.981537,0.000000,0.151281,0.117047 RLEG_JOINT2:0.999778,0.003053,0.000000,-0.020858 RLEG_JOINT4:0.995759,0.085504,0.000000,0.033965 WAIST:0.999658,0.000000,-0.025317,-0.006590 WAIST_JOINT0:0.998294,0.000000,-0.057577,-0.009725 WAIST_JOINT1:0.995865,0.089707,0.000000,-0.014362 END:
KINECT_DATA_Sensor  AnkleLeft:0.073399,0.738019,-0.066417,-0.667480 AnkleRight:0.070502,0.709199,0.053648,0.699420 ElbowLeft:-0.049704,0.930768,-0.157108,-0.326369 ElbowRight:0.038484,0.835402,0.174307,0.519846 FootLeft:0.000000,0.000000,0.000000,0.000000 FootRight:0.000000,0.000000,0.000000,0.000000 HandLeft:-0.130293,0.878209,0.244396,-0.389928 HandRight:0.044443,0.642307,0.007231,0.765124 HandTipLeft:0.000000,0.000000,0.000000,0.000000 HandTipRight:0.000000,0.000000,0.000000,0.000000 Head:0.000000,0.000000,0.000000,0.000000 HipLeft:0.125318,-0.676975,0.698171,-0.196362 HipRight:-0.085538,0.673636,0.712876,-0.175230 KneeLeft:-0.013448,0.723755,-0.027144,-0.689392 KneeRight:-0.016779,0.689930,0.021907,0.723350 Neck:0.057863,-0.022321,0.992462,-0.105704 ShoulderLeft:-0.003178,0.777335,-0.617486,0.120218 ShoulderRight:0.073218,0.768311,0.635167,-0.029990 SpineBase:0.024828,-0.018061,0.997383,-0.065459 SpineMid:0.041039,-0.019123,0.996847,-0.065157 SpineShoulder:0.057667,-0.021268,0.994558,-0.084119 ThumbLeft:0.000000,0.000000,0.000000,0.000000 ThumbRight:0.000000,0.000000,0.000000,0.000000 WristLeft:-0.124599,0.896458,0.121621,-0.407488 WristRight:-0.063816,0.635838,-0.018398,0.768960 END:
KINECT_DATA POSITION:21.805397,-0.590070,-13.519835 HEAD_JOINT1:0.975858,0.195910,-0.000000,0.096543 LARM_JOINT2:0.817447,0.000000,-0.160651,-0.553147 LARM_JOINT3:0.937616,0.000000,-0.287179,-0.195969 LLEG_JOINT2:0.997953,0.018765,0.000000,0.061144 LLEG_JOINT4:0.995687,0.081970,0.000000,-0.043456 RARM_JOINT2:0.778368,0.000000,-0.038706,0.626614 RARM_JOINT3:0.981361,0.000000,0.149598,0.120628 RLEG_JOINT2:0.999954,0.006140,0.000000,0.007375 RLEG_JOINT4:0.996251,0.084991,0.000000,0.016163 WAIST:0.999097,0.000000,-0.037862,-0.019303 WAIST_JOINT0:0.997537,0.000000,-0.068706,-0.014117 WAIST_JOINT1:0.996256,0.085910,0.000000,-0.009711 END:
KINECT_DATA_Sensor  AnkleLeft:0.070973,0.744534,-0.070257,-0.660072 AnkleRight:0.071380,0.703651,0.055588,0.704763 ElbowLeft:-0.104755,0.935717,-0.110312,-0.318263 ElbowRight:0.037763,0.833457,0.173108,0.523410 FootLeft:0.000000,0.000000,0.000000,0.000000 FootRight:0.000000,0.000000,0.000000,0.000000 HandLeft:-0.133784,-0.299837,-0.344040,0.879679 HandRight:0.039975,0.639640,0.003896,0.767625 HandTipLeft:0.000000,0.000000,0.000000,0.000000 HandTipRight:0.000000,0.000000,0.000000,0.000000 Head:0.000000,0.000000,0.000000,0.000000 HipLeft:0.138979,-0.685247,0.687233,-0.197061 HipRight:-0.079708,0.667410,0.721832,-0.164830 KneeLeft:-0.018455,0.732861,-0.041698,-0.678848 KneeRight:-0.004118,0.680711,0.012421,0.732435 Neck:0.069355,-0.027793,0.992150,-0.100280 ShoulderLeft:-0.017658,0.780650,-0.611184,0.129335 ShoulderRight:0.073710,0.767712,0.636176,-0.021572 SpineBase:0.038101,-0.030941,0.997077,-0.058552 SpineMid:0.052901,-0.031807,0.996401,-0.058086 SpineShoulder:0.068895,-0.028379,0.993959,-0.080581 ThumbLeft:0.000000,0.000000,0.000000,0.000000 ThumbRight:0.000000,0.000000,0.000000,0.000000 WristLeft:-0.049464,-0.280596,-0.271052,0.919429 WristRight:-0.065081,0.633103,-0.020373,0.771058 END:
KINECT_DATA POSITION:21.163570,-0.566723,-13.228273 HEAD_JOINT1:0.975897,0.194984,-0.000000,0.098012 LARM_JOINT2:0.807850,0.000000,-0.221318,-0.546257 LARM_JOINT3:0.934794,0.000000,-0.307768,-0.177313 LLEG_JOINT2:0.996362,0.025112,0.000000,0.081435 LLEG_JOINT4:0.995002,0.080449,0.000000,-0.059147 RARM_JOINT2:0.773786,0.000000,-0.042283,0.632034 RARM_JOINT3:0.981266,0.000000,0.147945,0.123403 RLEG_JOINT2:0.999620,0.009062,0.000000,0.026019 RLEG_JOINT4:0.996582,0.082432,0.000000,0.005411 WAIST:0.998585,0.000000,-0.044098,-0.029719 WAIST_JOINT0:0.996998,0.000000,-0.075502,-0.017168 WAIST_JOINT1:0.996532,0.082995,0.000000,-0.006033 END:
KINECT_DATA_Sensor  AnkleLeft:0.077507,0.746942,-0.069789,-0.656658 AnkleRight:0.070706,0.709475,0.055952,0.698939 ElbowLeft:-0.143910,0.941770,-0.071134,-0.295464 ElbowRight:0.038664,0.830023,0.171958,0.529148 FootLeft:0.000000,0.000000,0.000000,0.000000 FootRight:0.000000,0.000000,0.000000,0.000000 HandLeft:-0.151200,-0.279450,-0.403804,0.857898 HandRight:0.045723,0.623817,-0.000216,0.780232 HandTipLeft:0.000000,0.000000,0.000000,0.000000 HandTipRight:0.000000,0.000000,0.000000,0.000000 Head:0.000000,0.000000,0.000000,0.000000 HipLeft:-0.146230,0.691696,-0.678876,0.198248 HipRight:-0.078436,0.661260,0.728694,-0.159963 KneeLeft:-0.022075,0.737858,-0.052572,-0.672543 KneeRight:0.003241,0.675490,0.007937,0.737319 Neck:0.075243,-0.031377,0.991829,-0.098133 ShoulderLeft:-0.024050,0.779276,-0.612398,0.130836 ShoulderRight:0.075048,0.766968,0.637127,-0.014023 SpineBase:0.045136,-0.036673,0.996787,-0.055079 SpineMid:0.059121,-0.037443,0.996055,-0.054559 SpineShoulder:0.074294,-0.035268,0.993629,-0.077053 ThumbLeft:0.000000,0.000000,0.000000,0.000000 ThumbRight:0.000000,0.000000,0.000000,0.000000 WristLeft:-0.080473,-0.266862,-0.315633,0.907020 WristRight:-0.064871,0.616424,-0.021773,0.784435 END:
KINECT_DATA POSITION:20.997786,-0.608046,-13.038719 HEAD_JOINT1:0.975792,0.194594,-0.000000,0.099819 LARM_JOINT2:0.816586,0.000000,-0.239532,-0.525178 LARM_JOINT3:0.922899,0.000000,-0.336584,-0.186998 LLEG_JOINT2:0.995658,0.029599,0.000000,0.088261 LLEG_JOINT4:0.995384,0.074842,0.000000,-0.060084 RARM_JOINT2:0.771550,0.000000,-0.043761,0.634662 RARM_JOINT3:0.981137,0.000000,0.148523,0.123735 RLEG_JOINT2:0.999445,0.010242,0.000000,0.031695 RLEG_JOINT4:0.996562,0.082776,0.000000,0.003572 WAIST:0.998187,0.000000,-0.049653,-0.034021 WAIST_JOINT0:0.996102,0.000000,-0.086110,-0.019135 WAIST_JOINT1:0.996743,0.080498,0.000000,-0.004863 END:
KINECT_DATA_Sensor  AnkleLeft:0.075102,0.752860,-0.070029,-0.650121 AnkleRight:0.074423,0.740623,0.052884,0.665689 ElbowLeft:-0.169876,0.938188,-0.072810,-0.292649 ElbowRight:0.039369,0.830357,0.170314,0.529103 FootLeft:0.000000,0.000000,0.000000,0.000000 FootRight:0.000000,0.000000,0.000000,0.000000 HandLeft:-0.239647,-0.155747,-0.391317,0.874747 HandRight:0.031844,0.622624,-0.008980,0.781822 HandTipLeft:0.000000,0.000000,0.000000,0.000000 HandTipRight:0.000000,0.000000,0.000000,0.000000 Head:0.000000,0.000000,0.000000,0.000000 HipLeft:-0.150956,0.693431,-0.675209,0.201143 HipRight:-0.077295,0.658899,0.731787,-0.156092 KneeLeft:-0.021456,0.742129,-0.057227,-0.667465 KneeRight:0.004805,0.671015,0.007428,0.741391 Neck:0.086912,-0.034912,0.990985,-0.095790 ShoulderLeft:-0.040145,0.782892,-0.604426,0.141912 ShoulderRight:0.074078,0.766804,0.637548,-0.007493 SpineBase:0.051053,-0.037557,0.996570,-0.053217 SpineMid:0.067963,-0.038455,0.995559,-0.052572 SpineShoulder:0.085958,-0.038337,0.992803,-0.074046 ThumbLeft:0.000000,0.000000,0.000000,0.000000 ThumbRight:0.000000,0.000000,0.000000,0.000000 WristLeft:-0.144726,-0.127632,-0.336234,0.921798 WristRight:-0.063273,0.615861,-0.021463,0.785017 END:
KINECT_DATA POSITION:21.223675,-0.642078,-12.828552 HEAD_JOINT1:0.975753,0.194803,-0.000000,0.099789 LARM_JOINT2:0.805114,0.000000,-0.268755,-0.528736 LARM_JOINT3:0.919499,0.000000,-0.355704,-0.167320 LLEG_JOINT2:0.996114,0.031577,0.000000,0.082220 LLEG_JOINT4:0.995501,0.073131,0.000000,-0.060243 RARM_JOINT2:0.772128,0.000000,-0.045011,0.633871 RARM_JOINT3:0.980226,0.000000,0.153506,0.124875 RLEG_JOINT2:0.999684,0.010259,0.000000,0.022930 RLEG_JOINT4:0.996408,0.084271,0.000000,0.008375 WAIST:0.998160,0.000000,-0.052464,-0.030387 WAIST_JOINT0:0.996203,0.000000,-0.085004,-0.018836 WAIST_JOINT1:0.996876,0.078564,0.000000,-0.008104 END:
KINECT_DATA_Sensor  AnkleLeft:0.076724,0.751938,-0.069059,-0.651101 AnkleRight:0.069298,0.660366,0.061868,0.745176 ElbowLeft:-0.185038,0.932510,-0.042985,-0.307146 ElbowRight:0.039338,0.830572,0.170188,0.528809 FootLeft:0.000000,0.000000,0.000000,0.000000 FootRight:0.000000,0.000000,0.000000,0.000000 HandLeft:-0.210148,-0.258745,-0.449370,0.828828 HandRight:0.011612,0.620804,-0.028333,0.783367 HandTipLeft:0.000000,0.000000,0.000000,0.000000 HandTipRight:0.000000,0.000000,0.000000,0.000000 Head:0.000000,0.000000,0.000000,0.000000 HipLeft:-0.153850,0.690497,-0.677041,0.202877 HipRight:-0.078620,0.661705,0.729408,-0.154692 KneeLeft:-0.018427,0.744038,-0.057080,-0.665439 KneeRight:0.001478,0.669001,0.011305,0.743174 Neck:0.084764,-0.035284,0.991271,-0.094610 ShoulderLeft:-0.037843,0.780513,-0.608583,0.137819 ShoulderRight:0.073809,0.766876,0.637506,-0.006327 SpineBase:0.053619,-0.034208,0.996629,-0.051827 SpineMid:0.068414,-0.034974,0.995723,-0.051314 SpineShoulder:0.083987,-0.037001,0.993147,-0.072355 ThumbLeft:0.000000,0.000000,0.000000,0.000000 ThumbRight:0.000000,0.000000,0.000000,0.000000 WristLeft:-0.118089,-0.230171,-0.384923,0.885952 WristRight:-0.063125,0.614227,-0.021706,0.786301 END:
KINECT_DATA POSITION:21.201912,-0.684277,-12.625753 HEAD_JOINT1:0.976153,0.193290,-0.000000,0.098815 LARM_JOINT2:0.802751,0.000000,-0.305394,-0.512176 LARM_JOINT3:0.937709,0.000000,-0.328203,-0.113948 LLEG_JOINT2:0.996266,0.033478,0.000000,0.079578 LLEG_JOINT4:0.995347,0.073682,0.000000,-0.062093 RARM_JOINT2:0.772252,0.000000,-0.045469,0.633688 RARM_JOINT3:0.979700,0.000000,0.156075,0.125809 RLEG_JOINT2:0.999751,0.010015,0.000000,0.019917 RLEG_JOINT4:0.996039,0.088672,0.000000,0.006590 WAIST:0.998056,0.000000,-0.055840,-0.027673 WAIST_JOINT0:0.995853,0.000000,-0.088827,-0.019638 WAIST_JOINT1:0.997002,0.076544,0.000000,-0.011319 END:
KINECT_DATA_Sensor  AnkleLeft:0.079462,0.753494,-0.069940,-0.648877 AnkleRight:0.076065,0.712787,0.060358,0.694626 ElbowLeft:-0.215403,0.923232,-0.022294,-0.317407 ElbowRight:0.038740,0.830740,0.169846,0.528699 FootLeft:0.000000,0.000000,0.000000,0.000000 FootRight:0.000000,0.000000,0.000000,0.000000 HandLeft:-0.283128,0.046071,-0.381183,0.878872 HandRight:0.000359,0.611102,-0.034893,0.790782 HandTipLeft:0.000000,0.000000,0.000000,0.000000 HandTipRight:0.000000,0.000000,0.000000,0.000000 Head:0.000000,0.000000,0.000000,0.000000 HipLeft:-0.157040,0.688037,-0.678400,0.204246 HipRight:-0.077534,0.663631,0.728112,-0.153083 KneeLeft:-0.017364,0.746230,-0.058514,-0.662884 KneeRight:0.001177,0.666675,0.011393,0.745261 Neck:0.088963,-0.036859,0.991036,-0.092595 ShoulderLeft:-0.044828,0.782564,-0.604519,0.141916 ShoulderRight:0.072289,0.767322,0.637162,-0.003959 SpineBase:0.056712,-0.033729,0.996508,-0.051170 SpineMid:0.072169,-0.034519,0.995508,-0.050640 SpineShoulder:0.088349,-0.037012,0.992900,-0.070531 ThumbLeft:0.000000,0.000000,0.000000,0.000000 ThumbRight:0.000000,0.000000,0.000000,0.000000 WristLeft:-0.215842,0.069291,-0.350388,0.908757 WristRight:-0.063505,0.605244,-0.024230,0.793133 END:
KINECT_DATA POSITION:21.040142,-0.762276,-12.494553 HEAD_JOINT1:0.976758,0.190651,-0.000000,0.097956 LARM_JOINT2:0.801598,0.000000,-0.345485,-0.487935 LARM_JOINT3:0.948156,0.000000,-0.305111,-0.088919 LLEG_JOINT2:0.995936,0.036222,0.000000,0.082464 LLEG_JOINT4:0.995423,0.069450,0.000000,-0.065649 RARM_JOINT2:0.772214,0.000000,-0.044815,0.633781 RARM_JOINT3:0.979172,0.000000,0.159107,0.126122 RLEG_JOINT2:0.999690,0.010962,0.000000,0.022334 RLEG_JOINT4:0.996083,0.088233,0.000000,0.005727 WAIST:0.997998,0.000000,-0.056485,-0.028450 WAIST_JOINT0:0.995300,0.000000,-0.093908,-0.023657 WAIST_JOINT1:0.997094,0.075314,0.000000,-0.011475 END:
KINECT_DATA_Sensor  AnkleLeft:0.079602,0.755993,-0.067634,-0.646192 AnkleRight:0.077676,0.721043,0.058997,0.685990 ElbowLeft:-0.249685,0.917639,-0.006679,-0.309113 ElbowRight:0.036211,0.828344,0.169950,0.532591 FootLeft:0.000000,0.000000,0.000000,0.000000 FootRight:0.000000,0.000000,0.000000,0.000000 HandLeft:-0.161880,-0.172268,-0.449583,0.861390 HandRight:-0.004959,0.650040,-0.044081,0.758605 HandTipLeft:0.000000,0.000000,0.000000,0.000000 HandTipRight:0.000000,0.000000,0.000000,0.000000 Head:0.000000,0.000000,0.000000,0.000000 HipLeft:-0.158724,0.688623,-0.677680,0.203358 HipRight:-0.078073,0.663120,0.728741,-0.152032 KneeLeft:-0.017165,0.746834,-0.061921,-0.661898 KneeRight:0.002937,0.666129,0.010754,0.745753 Neck:0.094564,-0.038391,0.990591,-0.091177 ShoulderLeft:-0.054258,0.787213,-0.596091,0.148414 ShoulderRight:0.069911,0.767794,0.636867,-0.002229 SpineBase:0.057347,-0.034995,0.996507,-0.049595 SpineMid:0.075231,-0.035880,0.995317,-0.048959 SpineShoulder:0.093966,-0.038217,0.992439,-0.069094 ThumbLeft:0.000000,0.000000,0.000000,0.000000 ThumbRight:0.000000,0.000000,0.000000,0.000000 WristLeft:-0.105521,-0.153124,-0.406788,0.894394 WristRight:-0.068227,0.643110,-0.022273,0.762403 END:
KINECT_DATA POSITION:20.927135,-0.813325,-12.408805 HEAD_JOINT1:0.977840,0.186103,-0.000000,0.095888 LARM_JOINT2:0.800173,0.000000,-0.357792,-0.481360 LARM_JOINT3:0.956086,0.000000,-0.277575,-0.094084 LLEG_JOINT2:0.995687,0.038028,0.000000,0.084624 LLEG_JOINT4:0.995495,0.069331,0.000000,-0.064676 RARM_JOINT2:0.772833,0.000000,-0.043597,0.633111 RARM_JOINT3:0.979509,0.000000,0.155602,0.127871 RLEG_JOINT2:0.999647,0.011137,0.000000,0.024132 RLEG_JOINT4:0.996011,0.089150,0.000000,0.003875 WAIST:0.997936,0.000000,-0.057083,-0.029402 WAIST_JOINT0:0.995071,0.000000,-0.095962,-0.025010 WAIST_JOINT1:0.997218,0.073726,0.000000,-0.010953 END:
KINECT_DATA_Sensor  AnkleLeft:0.079166,0.757215,-0.070237,-0.644535 AnkleRight:0.077370,0.714371,0.061070,0.692790 ElbowLeft:-0.260223,0.920754,-0.004195,-0.290652 ElbowRight:0.034082,0.830189,0.169905,0.529866 FootLeft:0.000000,0.000000,0.000000,0.000000 FootRight:0.000000,0.000000,0.000000,0.000000 HandLeft:-0.226373,0.008734,-0.370274,0.900875 HandRight:0.004922,0.641169,-0.037373,0.766473 HandTipLeft:0.000000,0.000000,0.000000,0.000000 HandTipRight:0.000000,0.000000,0.000000,0.000000 Head:0.000000,0.000000,0.000000,0.000000 HipLeft:-0.160195,0.689354,-0.676799,0.202662 HipRight:-0.078584,0.662581,0.729390,-0.151002 KneeLeft:-0.016934,0.747384,-0.064021,-0.661083 KneeRight:0.003585,0.665637,0.010188,0.746197 Neck:0.096705,-0.039143,0.990570,-0.088809 ShoulderLeft:-0.059303,0.788998,-0.592646,0.150783 ShoulderRight:0.067625,0.768371,0.636420,-0.001405 SpineBase:0.057964,-0.036042,0.996505,-0.048149 SpineMid:0.076581,-0.036936,0.995248,-0.047467 SpineShoulder:0.096148,-0.038679,0.992314,-0.067623 ThumbLeft:0.000000,0.000000,0.000000,0.000000 ThumbRight:0.000000,0.000000,0.000000,0.000000 WristLeft:-0.183564,0.027241,-0.374879,0.908310 WristRight:-0.069264,0.633507,-0.024599,0.770238 END:
KINECT_DATA POSITION:20.796627,-0.825555,-12.316346 HEAD_JOINT1:0.979386,0.181026,-0.000000,0.089625 LARM_JOINT2:0.801165,0.000000,-0.358193,-0.479408 LARM_JOINT3:0.965577,0.000000,-0.251094,-0.067920 LLEG_JOINT2:0.995744,0.037456,0.000000,0.084207 LLEG_JOINT4:0.995318,0.070956,0.000000,-0.065629 RARM_JOINT2:0.774614,0.000000,-0.035224,0.631453 RARM_JOINT3:0.978183,0.000000,0.159059,0.133638 RLEG_JOINT2:0.999578,0.013994,0.000000,0.025466 RLEG_JOINT4:0.996200,0.086871,0.000000,0.006177 WAIST:0.998340,0.000000,-0.049900,-0.028760 WAIST_JOINT0:0.995921,0.000000,-0.087210,-0.023125 WAIST_JOINT1:0.997387,0.071511,0.000000,-0.010292 END:
KINECT_DATA_Sensor  AnkleLeft:0.079296,0.735596,-0.072114,-0.668887 AnkleRight:0.080025,0.717421,0.058979,0.689510 ElbowLeft:-0.264116,0.912358,-0.003142,-0.312787 ElbowRight:0.027208,0.842555,0.167363,0.511225 FootLeft:0.000000,0.000000,0.000000,0.000000 FootRight:0.000000,0.000000,0.000000,0.000000 HandLeft:-0.075757,-0.146984,-0.401581,0.900771 HandRight:-0.003000,0.635883,-0.056388,0.769717 HandTipLeft:0.000000,0.000000,0.000000,0.000000 HandTipRight:0.000000,0.000000,0.000000,0.000000 Head:0.000000,0.000000,0.000000,0.000000 HipLeft:-0.157442,0.690343,-0.677728,0.198302 HipRight:-0.083979,0.662483,0.728132,-0.154558 KneeLeft:-0.016852,0.742558,-0.064038,-0.666500 KneeRight:0.007126,0.670801,0.010836,0.741524 Neck:0.087430,-0.038359,0.991707,-0.086031 ShoulderLeft:-0.053258,0.788375,-0.596325,0.141513 ShoulderRight:0.061613,0.769622,0.635489,-0.006219 SpineBase:0.050727,-0.036027,0.996965,-0.046795 SpineMid:0.068332,-0.036849,0.995913,-0.046152 SpineShoulder:0.086898,-0.037769,0.993336,-0.065625 ThumbLeft:0.000000,0.000000,0.000000,0.000000 ThumbRight:0.000000,0.000000,0.000000,0.000000 WristLeft:-0.076960,-0.147253,-0.403114,0.899941 WristRight:-0.070192,0.627957,-0.036059,0.774237 END:
KINECT_DATA POSITION:20.896219,-0.852671,-12.227762 HEAD_JOINT1:0.980394,0.181035,-0.000000,0.077813 LARM_JOINT2:0.807684,0.000000,-0.341158,-0.480893 LARM_JOINT3:0.959439,0.000000,-0.268914,-0.084631 LLEG_JOINT2:0.996307,0.034110,0.000000,0.078800 LLEG_JOINT4:0.995398,0.072820,0.000000,-0.062291 RARM_JOINT2:0.775530,0.000000,-0.026772,0.630742 RARM_JOINT3:0.978090,0.000000,0.155710,0.138184 RLEG_JOINT2:0.999675,0.014989,0.000000,0.020610 RLEG_JOINT4:0.996108,0.087608,0.000000,0.009669 WAIST:0.998917,0.000000,-0.038844,-0.025620 WAIST_JOINT0:0.997078,0.000000,-0.073125,-0.022111 WAIST_JOINT1:0.997591,0.068597,0.000000,-0.010295 END:
KINECT_DATA_Sensor  AnkleLeft:0.078584,0.727782,-0.071244,-0.677556 AnkleRight:0.080284,0.703442,0.062331,0.703448 ElbowLeft:-0.260125,0.907974,-0.021185,-0.327824 ElbowRight:0.019163,0.852916,0.162066,0.495885 FootLeft:0.000000,0.000000,0.000000,0.000000 FootRight:0.000000,0.000000,0.000000,0.000000 HandLeft:-0.063385,-0.192821,-0.393365,0.896697 HandRight:0.012193,0.717507,-0.075971,0.692288 HandTipLeft:0.000000,0.000000,0.000000,0.000000 HandTipRight:0.000000,0.000000,0.000000,0.000000 Head:0.000000,0.000000,0.000000,0.000000 HipLeft:-0.151455,0.690669,-0.680658,0.191680 HipRight:-0.092719,0.663834,0.724482,-0.160789 KneeLeft:-0.016467,0.734835,-0.060517,-0.675340 KneeRight:0.006885,0.678972,0.013160,0.734014 Neck:0.073356,-0.035534,0.993238,-0.082674 ShoulderLeft:-0.046837,0.790590,-0.596602,0.129767 ShoulderRight:0.049528,0.771774,0.633751,-0.016457 SpineBase:0.039505,-0.033770,0.997615,-0.045430 SpineMid:0.055731,-0.034504,0.996840,-0.044875 SpineShoulder:0.072820,-0.035363,0.994725,-0.063002 ThumbLeft:0.000000,0.000000,0.000000,0.000000 ThumbRight:0.000000,0.000000,0.000000,0.000000 WristLeft:-0.055227,-0.186475,-0.413472,0.889504 WristRight:-0.075746,0.716478,-0.035184,0.692593 END:
KINECT_DATA POSITION:21.338358,-0.894242,-12.198234 HEAD_JOINT1:0.981394,0.187466,-0.000000,0.041493 LARM_JOINT2:0.804690,0.000000,-0.358754,-0.473043 LARM_JOINT3:0.961215,0.000000,-0.253254,-0.109218 LLEG_JOINT2:0.996644,0.029653,0.000000,0.076298 LLEG_JOINT4:0.995877,0.075015,0.000000,-0.051017 RARM_JOINT2:0.780001,0.000000,-0.034403,0.624832 RARM_JOINT3:0.979129,0.000000,0.149442,0.137745 RLEG_JOINT2:0.999662,0.017107,0.000000,0.019601 RLEG_JOINT4:0.996241,0.085009,0.000000,0.016653 WAIST:0.999283,0.000000,-0.023392,-0.029758 WAIST_JOINT0:0.998021,0.000000,-0.055214,-0.030097 WAIST_JOINT1:0.997747,0.066156,0.000000,-0.011154 END:
KINECT_DATA_Sensor  AnkleLeft:0.076720,0.734468,-0.070015,-0.670648 AnkleRight:0.079619,0.705252,0.063017,0.701647 ElbowLeft:-0.271222,0.917051,-0.025399,-0.291223 ElbowRight:0.015225,0.859765,0.174781,0.479608 FootLeft:0.000000,0.000000,0.000000,0.000000 FootRight:0.000000,0.000000,0.000000,0.000000 HandLeft:-0.265498,0.264206,-0.290088,0.880656 HandRight:0.024045,0.702619,-0.016745,0.710962 HandTipLeft:0.000000,0.000000,0.000000,0.000000 HandTipRight:0.000000,0.000000,0.000000,0.000000 Head:0.000000,0.000000,0.000000,0.000000 HipLeft:-0.142202,0.696770,-0.679795,0.179357 HipRight:-0.100320,0.659759,0.725928,-0.166382 KneeLeft:-0.013632,0.724346,-0.053149,-0.687250 KneeRight:0.004864,0.689989,0.018665,0.723563 Neck:0.056827,-0.042299,0.994226,-0.080593 ShoulderLeft:-0.042028,0.799015,-0.588275,0.117221 ShoulderRight:0.033333,0.767344,0.639606,-0.031262 SpineBase:0.024243,-0.038085,0.998047,-0.043166 SpineMid:0.039804,-0.038754,0.997548,-0.042567 SpineShoulder:0.056211,-0.041028,0.995763,-0.060116 ThumbLeft:0.000000,0.000000,0.000000,0.000000 ThumbRight:0.000000,0.000000,0.000000,0.000000 WristLeft:-0.250953,0.274785,-0.321755,0.870626 WristRight:-0.078844,0.692587,-0.035248,0.716145 END:
KINECT_DATA POSITION:21.931955,-0.860271,-12.154615 HEAD_JOINT1:0.981901,0.186298,-0.000000,0.034105 LARM_JOINT2:0.823718,0.000000,-0.387815,-0.413628 LARM_JOINT3:0.951625,0.000000,-0.242205,-0.189065 LLEG_JOINT2:0.996640,0.028088,0.000000,0.076946 LLEG_JOINT4:0.996073,0.077015,0.000000,-0.043674 RARM_JOINT2:0.783514,0.000000,-0.036701,0.620290 RARM_JOINT3:0.978651,0.000000,0.148934,0.141636 RLEG_JOINT2:0.999667,0.018251,0.000000,0.018270 RLEG_JOINT4:0.996254,0.083147,0.000000,0.023740 WAIST:0.999195,0.000000,-0.019436,-0.035105 WAIST_JOINT0:0.997961,0.000000,-0.054671,-0.032938 WAIST_JOINT1:0.997807,0.065550,0.000000,-0.009157 END:
KINECT_DATA_Sensor  AnkleLeft:0.077127,0.747787,-0.070149,-0.655701 AnkleRight:0.078305,0.698315,0.063545,0.708651 ElbowLeft:-0.306535,0.940622,-0.111870,-0.093548 ElbowRight:0.010592,0.857277,0.183412,0.480962 FootLeft:0.000000,0.000000,0.000000,0.000000 FootRight:0.000000,0.000000,0.000000,0.000000 HandLeft:-0.262099,0.235810,-0.315445,0.881017 HandRight:0.040088,0.738064,-0.025213,0.673067 HandTipLeft:0.000000,0.000000,0.000000,0.000000 HandTipRight:0.000000,0.000000,0.000000,0.000000 Head:0.000000,0.000000,0.000000,0.000000 HipLeft:-0.141748,0.700656,-0.676592,0.176667 HipRight:-0.102306,0.655507,0.729190,-0.167708 KneeLeft:-0.011128,0.721826,-0.048821,-0.690260 KneeRight:0.000990,0.692595,0.024299,0.720917 Neck:0.056397,-0.045961,0.994143,-0.079917 ShoulderLeft:-0.042317,0.799850,-0.587378,0.115912 ShoulderRight:0.032678,0.764736,0.642766,-0.031032 SpineBase:0.020557,-0.042176,0.998012,-0.042090 SpineMid:0.037625,-0.042890,0.997514,-0.041363 SpineShoulder:0.055674,-0.044860,0.995689,-0.059085 ThumbLeft:0.000000,0.000000,0.000000,0.000000 ThumbRight:0.000000,0.000000,0.000000,0.000000 WristLeft:-0.260323,0.226583,-0.263612,0.900778 WristRight:-0.087664,0.733983,-0.022765,0.673101 END:
KINECT_DATA POSITION:22.487432,-0.843149,-12.107552 HEAD_JOINT1:0.981749,0.185697,-0.000000,0.041055 LARM_JOINT2:0.791714,0.000000,-0.352724,-0.498773 LARM_JOINT3:0.962125,0.000000,-0.264033,-0.067845 LLEG_JOINT2:0.996584,0.028226,0.000000,0.077615 LLEG_JOINT4:0.995795,0.078674,0.000000,-0.046925 RARM_JOINT2:0.778966,0.000000,-0.038510,0.625883 RARM_JOINT3:0.978380,0.000000,0.149930,0.142456 RLEG_JOINT2:0.999672,0.018218,0.000000,0.017981 RLEG_JOINT4:0.996208,0.084516,0.000000,0.020642 WAIST:0.999046,0.000000,-0.023209,-0.036980 WAIST_JOINT0:0.997504,0.000000,-0.062687,-0.032487 WAIST_JOINT1:0.997895,0.064067,0.000000,-0.010009 END:
KINECT_DATA_Sensor  AnkleLeft:0.080005,0.739665,-0.069603,-0.664568 AnkleRight:0.076700,0.704628,0.066891,0.702241 ElbowLeft:-0.250402,0.896645,0.017280,-0.364729 ElbowRight:0.011264,0.850992,0.179316,0.493489 FootLeft:0.000000,0.000000,0.000000,0.000000 FootRight:0.000000,0.000000,0.000000,0.000000 HandLeft:-0.133451,-0.092822,-0.414444,0.895439 HandRight:0.049764,0.711096,-0.041783,0.700086 HandTipLeft:0.000000,0.000000,0.000000,0.000000 HandTipRight:0.000000,0.000000,0.000000,0.000000 Head:0.000000,0.000000,0.000000,0.000000 HipLeft:-0.145524,0.701577,-0.674646,0.177386 HipRight:-0.100137,0.654828,0.730798,-0.164639 KneeLeft:-0.010472,0.724521,-0.047921,-0.687505 KneeRight:-0.000563,0.689835,0.025714,0.723510 Neck:0.064446,-0.048740,0.993655,-0.078235 ShoulderLeft:-0.050719,0.798316,-0.587543,0.122115 ShoulderRight:0.034974,0.764060,0.643721,-0.024748 SpineBase:0.024327,-0.044770,0.997877,-0.040567 SpineMid:0.043468,-0.045540,0.997226,-0.039701 SpineShoulder:0.063683,-0.047564,0.995185,-0.057348 ThumbLeft:0.000000,0.000000,0.000000,0.000000 ThumbRight:0.000000,0.000000,0.000000,0.000000 WristLeft:-0.097697,-0.077564,-0.409281,0.903841 WristRight:-0.087195,0.688348,-0.028998,0.719537 END:
KINECT_DATA POSITION:22.662867,-0.851350,-12.045563 HEAD_JOINT1:0.981504,0.186248,-0.000000,0.044284 LARM_JOINT2:0.792047,0.000000,-0.347039,-0.502221 LARM_JOINT3:0.959970,0.000000,-0.271991,-0.066919 LLEG_JOINT2:0.996660,0.029784,0.000000,0.076039 LLEG_JOINT4:0.995766,0.077490,0.000000,-0.049455 RARM_JOINT2:0.778405,0.000000,-0.037802,0.626623 RARM_JOINT3:0.978731,0.000000,0.149249,0.140749 RLEG_JOINT2:0.999701,0.017544,0.000000,0.017039 RLEG_JOINT4:0.996478,0.082049,0.000000,0.017276 WAIST:0.998954,0.000000,-0.027842,-0.036265 WAIST_JOINT0:0.997303,0.000000,-0.066825,-0.030351 WAIST_JOINT1:0.997940,0.063210,0.000000,-0.010939 END:
KINECT_DATA_Sensor  AnkleLeft:0.083140,0.751713,-0.066586,-0.650832 AnkleRight:0.072634,0.706601,0.066523,0.700724 ElbowLeft:-0.246019,0.889629,0.022935,-0.384068 ElbowRight:0.011914,0.851433,0.177891,0.493230 FootLeft:0.000000,0.000000,0.000000,0.000000 FootRight:0.000000,0.000000,0.000000,0.000000 HandLeft:-0.373321,0.896608,0.227966,-0.068973 HandRight:0.042412,0.647310,-0.026717,0.760577 HandTipLeft:0.000000,0.000000,0.000000,0.000000 HandTipRight:0.000000,0.000000,0.000000,0.000000 Head:0.000000,0.000000,0.000000,0.000000 HipLeft:-0.149152,0.700504,-0.674437,0.179395 HipRight:-0.098319,0.655961,0.730729,-0.161505 KneeLeft:-0.009097,0.727792,-0.048301,-0.684035 KneeRight:-0.001195,0.686540,0.025312,0.726651 Neck:0.068586,-0.048758,0.993436,-0.077478 ShoulderLeft:-0.054949,0.796555,-0.588844,0.125474 ShoulderRight:0.036194,0.764810,0.642880,-0.021451 SpineBase:0.028875,-0.044414,0.997816,-0.039458 SpineMid:0.047830,-0.045156,0.997087,-0.038607 SpineShoulder:0.067846,-0.047413,0.994961,-0.056576 ThumbLeft:0.000000,0.000000,0.000000,0.000000 ThumbRight:0.000000,0.000000,0.000000,0.000000 WristLeft:-0.391305,0.898968,0.172288,-0.095148 WristRight:-0.083741,0.633072,-0.037496,0.768636 END:
KINECT_DATA POSITION:22.640293,-0.854611,-12.009382 HEAD_JOINT1:0.981412,0.185407,-0.000000,0.049545 LARM_JOINT2:0.790340,0.000000,-0.360494,-0.495386 LARM_JOINT3:0.964570,0.000000,-0.255208,-0.066881 LLEG_JOINT2:0.996595,0.029745,0.000000,0.076897 LLEG_JOINT4:0.995369,0.080355,0.000000,-0.052752 RARM_JOINT2:0.777826,0.000000,-0.039154,0.627259 RARM_JOINT3:0.979262,0.000000,0.150593,0.135529 RLEG_JOINT2:0.999681,0.017849,0.000000,0.017893 RLEG_JOINT4:0.996443,0.082704,0.000000,0.016144 WAIST:0.998881,0.000000,-0.029888,-0.036644 WAIST_JOINT0:0.997069,0.000000,-0.069778,-0.031377 WAIST_JOINT1:0.997959,0.062929,0.000000,-0.010891 END:
KINECT_DATA_Sensor  AnkleLeft:0.085874,0.742382,-0.067973,-0.660965 AnkleRight:0.073224,0.707498,0.067193,0.699692 ElbowLeft:-0.256383,0.896329,0.025115,-0.360875 ElbowRight:0.012218,0.847781,0.177715,0.499535 FootLeft:0.000000,0.000000,0.000000,0.000000 FootRight:0.000000,0.000000,0.000000,0.000000 HandLeft:-0.393684,0.904024,0.155400,0.060042 HandRight:0.026545,0.665768,-0.018251,0.745463 HandTipLeft:0.000000,0.000000,0.000000,0.000000 HandTipRight:0.000000,0.000000,0.000000,0.000000 Head:0.000000,0.000000,0.000000,0.000000 HipLeft:-0.150997,0.700475,-0.673768,0.180473 HipRight:-0.097470,0.655996,0.731075,-0.160305 KneeLeft:-0.009631,0.729202,-0.048524,-0.682508 KneeRight:-0.000656,0.685019,0.025116,0.728092 Neck:0.071545,-0.049005,0.993236,-0.077221 ShoulderLeft:-0.057042,0.797054,-0.587552,0.127410 ShoulderRight:0.037890,0.764481,0.643255,-0.018897 SpineBase:0.030920,-0.044806,0.997754,-0.039029 SpineMid:0.050314,-0.045557,0.996964,-0.038151 SpineShoulder:0.070801,-0.047670,0.994762,-0.056241 ThumbLeft:0.000000,0.000000,0.000000,0.000000 ThumbRight:0.000000,0.000000,0.000000,0.000000 WristLeft:-0.408402,0.904413,0.116384,0.041224 WristRight:-0.086045,0.654185,-0.033631,0.750671 END:
KINECT_DATA POSITION:22.616896,-0.850161,-11.983431 HEAD_JOINT1:0.981437,0.184500,-0.000000,0.052349 LARM_JOINT2:0.790183,0.000000,-0.363774,-0.493233 LARM_JOINT3:0.966295,0.000000,-0.248481,-0.067315 LLEG_JOINT2:0.996591,0.030653,0.000000,0.076591 LLEG_JOINT4:0.995432,0.080440,0.000000,-0.051425 RARM_JOINT2:0.777715,0.000000,-0.040211,0.627330 RARM_JOINT3:0.978909,0.000000,0.152807,0.135601 RLEG_JOINT2:0.999700,0.016921,0.000000,0.017702 RLEG_JOINT4:0.996309,0.084088,0.000000,0.017260 WAIST:0.998852,0.000000,-0.030899,-0.036610 WAIST_JOINT0:0.996981,0.000000,-0.071072,-0.031271 WAIST_JOINT1:0.997943,0.063235,0.000000,-0.010573 END:
KINECT_DATA_Sensor  AnkleLeft:0.084954,0.735643,-0.070431,-0.668320 AnkleRight:0.074357,0.707986,0.066542,0.699142 ElbowLeft:-0.259249,0.899850,0.023545,-0.350007 ElbowRight:0.012938,0.845357,0.177781,0.503585 FootLeft:0.000000,0.000000,0.000000,0.000000 FootRight:0.000000,0.000000,0.000000,0.000000 HandLeft:-0.404289,0.896465,0.113260,0.141676 HandRight:0.025602,0.688156,-0.022483,0.724762 HandTipLeft:0.000000,0.000000,0.000000,0.000000 HandTipRight:0.000000,0.000000,0.000000,0.000000 Head:0.000000,0.000000,0.000000,0.000000 HipLeft:-0.151575,0.700243,-0.673669,0.181260 HipRight:-0.096880,0.656108,0.731142,-0.159896 KneeLeft:-0.008881,0.729954,-0.048964,-0.681682 KneeRight:-0.001439,0.684344,0.024571,0.728744 Neck:0.072911,-0.048490,0.993131,-0.077605 ShoulderLeft:-0.058214,0.796699,-0.587576,0.128982 ShoulderRight:0.038513,0.764368,0.643366,-0.018427 SpineBase:0.031934,-0.044678,0.997721,-0.039190 SpineMid:0.051491,-0.045438,0.996904,-0.038307 SpineShoulder:0.072161,-0.047317,0.994666,-0.056520 ThumbLeft:0.000000,0.000000,0.000000,0.000000 ThumbRight:0.000000,0.000000,0.000000,0.000000 WristLeft:-0.412471,0.898915,0.078111,0.125374 WristRight:-0.087695,0.675345,-0.031494,0.731592 END:
KINECT_DATA POSITION:22.582157,-0.856455,-11.921751 HEAD_JOINT1:0.981650,0.182694,-0.000000,0.054640 LARM_JOINT2:0.791162,0.000000,-0.361639,-0.493234 LARM_JOINT3:0.965423,0.000000,-0.251229,-0.069586 LLEG_JOINT2:0.996549,0.031916,0.000000,0.076621 LLEG_JOINT4:0.995443,0.079873,0.000000,-0.052093 RARM_JOINT2:0.777913,0.000000,-0.040212,0.627084 RARM_JOINT3:0.978193,0.000000,0.155968,0.137155 RLEG_JOINT2:0.999692,0.016754,0.000000,0.018303 RLEG_JOINT4:0.996494,0.081910,0.000000,0.017017 WAIST:0.998795,0.000000,-0.032627,-0.036654 WAIST_JOINT0:0.996888,0.000000,-0.072894,-0.030022 WAIST_JOINT1:0.997933,0.063437,0.000000,-0.010242 END:
KINECT_DATA_Sensor  AnkleLeft:0.086519,0.744004,-0.069612,-0.658883 AnkleRight:0.073003,0.708619,0.064440,0.698840 ElbowLeft:-0.258387,0.898970,0.022961,-0.352932 ElbowRight:0.013429,0.844670,0.177843,0.504702 FootLeft:0.000000,0.000000,0.000000,0.000000 FootRight:0.000000,0.000000,0.000000,0.000000 HandLeft:-0.323558,0.882534,0.267866,-0.211404 HandRight:0.019524,0.664363,-0.035933,0.746291 HandTipLeft:0.000000,0.000000,0.000000,0.000000 HandTipRight:0.000000,0.000000,0.000000,0.000000 Head:0.000000,0.000000,0.000000,0.000000 HipLeft:-0.152306,0.699891,-0.673562,0.182402 HipRight:-0.095721,0.656206,0.731426,-0.158891 KneeLeft:-0.008132,0.731218,-0.049814,-0.680274 KneeRight:-0.001185,0.683088,0.024008,0.729940 Neck:0.074646,-0.048085,0.993005,-0.077827 ShoulderLeft:-0.059334,0.795450,-0.588797,0.130605 ShoulderRight:0.039676,0.764794,0.642823,-0.017186 SpineBase:0.033680,-0.044364,0.997669,-0.039426 SpineMid:0.053239,-0.045129,0.996816,-0.038548 SpineShoulder:0.073906,-0.046927,0.994543,-0.056741 ThumbLeft:0.000000,0.000000,0.000000,0.000000 ThumbRight:0.000000,0.000000,0.000000,0.000000 WristLeft:-0.351541,0.877622,0.230297,-0.230568 WristRight:-0.086587,0.651476,-0.034269,0.752933 END:
KINECT_DATA POSITION:22.546827,-0.867374,-11.883068 HEAD_JOINT1:0.981738,0.181887,-0.000000,0.055753 LARM_JOINT2:0.790931,0.000000,-0.361652,-0.493594 LARM_JOINT3:0.966238,0.000000,-0.247870,-0.070317 LLEG_JOINT2:0.996501,0.032543,0.000000,0.076988 LLEG_JOINT4:0.995608,0.077260,0.000000,-0.052875 RARM_JOINT2:0.777840,0.000000,-0.039719,0.627206 RARM_JOINT3:0.978468,0.000000,0.152335,0.139267 RLEG_JOINT2:0.999665,0.017847,0.000000,0.018746 RLEG_JOINT4:0.996430,0.082872,0.000000,0.016115 WAIST:0.998755,0.000000,-0.033743,-0.036746 WAIST_JOINT0:0.996815,0.000000,-0.073931,-0.029899 WAIST_JOINT1:0.997925,0.063605,0.000000,-0.009969 END:
KINECT_DATA_Sensor  AnkleLeft:0.085335,0.744641,-0.067960,-0.658490 AnkleRight:0.074230,0.707566,0.066089,0.699623 ElbowLeft:-0.258044,0.899275,0.023501,-0.352370 ElbowRight:0.013641,0.844494,0.177434,0.505135 FootLeft:0.000000,0.000000,0.000000,0.000000 FootRight:0.000000,0.000000,0.000000,0.000000 HandLeft:-0.160986,-0.053064,-0.378383,0.909997 HandRight:0.037380,0.660133,-0.032371,0.749519 HandTipLeft:0.000000,0.000000,0.000000,0.000000 HandTipRight:0.000000,0.000000,0.000000,0.000000 Head:0.000000,0.000000,0.000000,0.000000 HipLeft:-0.152927,0.699688,-0.673393,0.183284 HipRight:-0.095093,0.656224,0.731602,-0.158387 KneeLeft:-0.007988,0.732021,-0.050420,-0.679367 KneeRight:-0.000152,0.682196,0.024466,0.730760 Neck:0.075563,-0.047804,0.992933,-0.078028 ShoulderLeft:-0.058995,0.795323,-0.588935,0.130906 ShoulderRight:0.041117,0.765051,0.642458,-0.015932 SpineBase:0.034811,-0.044191,0.997631,-0.039586 SpineMid:0.054267,-0.044955,0.996762,-0.038716 SpineShoulder:0.074829,-0.046669,0.994476,-0.056923 ThumbLeft:0.000000,0.000000,0.000000,0.000000 ThumbRight:0.000000,0.000000,0.000000,0.000000 WristLeft:-0.119261,-0.032549,-0.402293,0.907126 WristRight:-0.086034,0.645051,-0.035007,0.758474 END:
KINECT_DATA POSITION:22.510067,-0.868382,-11.873949 HEAD_JOINT1:0.981723,0.182002,-0.000000,0.055643 LARM_JOINT2:0.790596,0.000000,-0.361186,-0.494472 LARM_JOINT3:0.966029,0.000000,-0.249229,-0.068354 LLEG_JOINT2:0.996435,0.033228,0.000000,0.077548 LLEG_JOINT4:0.995606,0.077486,0.000000,-0.052581 RARM_JOINT2:0.777376,0.000000,-0.039336,0.627805 RARM_JOINT3:0.978772,0.000000,0.150682,0.138923 RLEG_JOINT2:0.999661,0.017631,0.000000,0.019181 RLEG_JOINT4:0.996477,0.082434,0.000000,0.015465 WAIST:0.998724,0.000000,-0.034669,-0.036709 WAIST_JOINT0:0.996766,0.000000,-0.074678,-0.029681 WAIST_JOINT1:0.997928,0.063568,0.000000,-0.009985 END:
KINECT_DATA_Sensor  AnkleLeft:0.085248,0.745121,-0.069293,-0.657819 AnkleRight:0.074639,0.717504,0.064593,0.689525 ElbowLeft:-0.257204,0.898884,0.024687,-0.353897 ElbowRight:0.013776,0.844052,0.176582,0.506168 FootLeft:0.000000,0.000000,0.000000,0.000000 FootRight:0.000000,0.000000,0.000000,0.000000 HandLeft:-0.195627,0.034319,-0.365270,0.909467 HandRight:0.043314,0.650658,-0.030425,0.757523 HandTipLeft:0.000000,0.000000,0.000000,0.000000 HandTipRight:0.000000,0.000000,0.000000,0.000000 Head:0.000000,0.000000,0.000000,0.000000 HipLeft:-0.153337,0.699559,-0.673311,0.183731 HipRight:-0.094430,0.656399,0.731667,-0.157753 KneeLeft:-0.008021,0.732689,-0.051300,-0.678580 KneeRight:0.000013,0.681534,0.023951,0.731394 Neck:0.076186,-0.047713,0.992892,-0.078007 ShoulderLeft:-0.058747,0.795087,-0.589269,0.130948 ShoulderRight:0.042116,0.765265,0.642164,-0.014880 SpineBase:0.035735,-0.044133,0.997601,-0.039600 SpineMid:0.055046,-0.044891,0.996722,-0.038738 SpineShoulder:0.075456,-0.046568,0.994434,-0.056914 ThumbLeft:0.000000,0.000000,0.000000,0.000000 ThumbRight:0.000000,0.000000,0.000000,0.000000 WristLeft:-0.157677,0.053328,-0.389669,0.905788 WristRight:-0.085248,0.635219,-0.035576,0.766788 END:
KINECT_DATA POSITION:22.465069,-0.871920,-11.851490 HEAD_JOINT1:0.981712,0.182157,-0.000000,0.055312 LARM_JOINT2:0.791125,0.000000,-0.362385,-0.492746 LARM_JOINT3:0.965130,0.000000,-0.252503,-0.069034 LLEG_JOINT2:0.996376,0.033504,0.000000,0.078183 LLEG_JOINT4:0.995513,0.078692,0.000000,-0.052551 RARM_JOINT2:0.776483,0.000000,-0.039982,0.628868 RARM_JOINT3:0.978690,0.000000,0.151877,0.138198 RLEG_JOINT2:0.999665,0.017090,0.000000,0.019442 RLEG_JOINT4:0.996143,0.086259,0.000000,0.016067 WAIST:0.998692,0.000000,-0.035675,-0.036623 WAIST_JOINT0:0.996778,0.000000,-0.075086,-0.028191 WAIST_JOINT1:0.997940,0.063353,0.000000,-0.010125 END:
KINECT_DATA_Sensor  AnkleLeft:0.085633,0.745358,-0.070961,-0.657323 AnkleRight:0.076806,0.706031,0.067028,0.700805 ElbowLeft:-0.259267,0.901333,0.022884,-0.346202 ElbowRight:0.014528,0.842959,0.175489,0.508342 FootLeft:0.000000,0.000000,0.000000,0.000000 FootRight:0.000000,0.000000,0.000000,0.000000 HandLeft:-0.283836,0.237647,-0.321039,0.871720 HandRight:0.038641,0.621239,-0.032781,0.781981 HandTipLeft:0.000000,0.000000,0.000000,0.000000 HandTipRight:0.000000,0.000000,0.000000,0.000000 Head:0.000000,0.000000,0.000000,0.000000 HipLeft:-0.153912,0.699385,-0.673255,0.184117 HipRight:-0.093830,0.656616,0.731722,-0.156949 KneeLeft:-0.008434,0.733382,-0.051964,-0.677775 KneeRight:-0.000146,0.680834,0.023305,0.732067 Neck:0.076604,-0.047705,0.992874,-0.077827 ShoulderLeft:-0.058868,0.793890,-0.590855,0.131008 ShoulderRight:0.042575,0.765500,0.641870,-0.014115 SpineBase:0.036731,-0.044042,0.997575,-0.039442 SpineMid:0.055764,-0.044787,0.996692,-0.038594 SpineShoulder:0.075880,-0.046511,0.994414,-0.056740 ThumbLeft:0.000000,0.000000,0.000000,0.000000 ThumbRight:0.000000,0.000000,0.000000,0.000000 WristLeft:-0.242830,0.257299,-0.341362,0.870806 WristRight:-0.083398,0.607279,-0.038770,0.789147 END:
KINECT_DATA POSITION:22.411184,-0.871128,-11.896634 HEAD_JOINT1:0.981786,0.181450,-0.000000,0.056318 LARM_JOINT2:0.793087,0.000000,-0.357768,-0.492965 LARM_JOINT3:0.965252,0.000000,-0.253008,-0.065390 LLEG_JOINT2:0.996383,0.032935,0.000000,0.078335 LLEG_JOINT4:0.995451,0.076737,0.000000,-0.056471 RARM_JOINT2:0.776020,0.000000,-0.039535,0.629468 RARM_JOINT3:0.979049,0.000000,0.151049,0.136554 RLEG_JOINT2:0.999676,0.016670,0.000000,0.019250 RLEG_JOINT4:0.995944,0.088175,0.000000,0.017899 WAIST:0.998651,0.000000,-0.037261,-0.036155 WAIST_JOINT0:0.996687,0.000000,-0.076031,-0.028878 WAIST_JOINT1:0.997965,0.062956,0.000000,-0.010134 END:
KINECT_DATA_Sensor  AnkleLeft:0.084122,0.727418,-0.069392,-0.677474 AnkleRight:0.078545,0.695870,0.067245,0.710686 ElbowLeft:-0.257928,0.899098,0.021209,-0.353053 ElbowRight:0.014580,0.842223,0.174059,0.510050 FootLeft:0.000000,0.000000,0.000000,0.000000 FootRight:0.000000,0.000000,0.000000,0.000000 HandLeft:-0.269773,0.250126,-0.320107,0.873035 HandRight:0.034478,0.641627,-0.030717,0.765625 HandTipLeft:0.000000,0.000000,0.000000,0.000000 HandTipRight:0.000000,0.000000,0.000000,0.000000 Head:0.000000,0.000000,0.000000,0.000000 HipLeft:-0.154546,0.698981,-0.673376,0.184675 HipRight:-0.092879,0.657277,0.731539,-0.155599 KneeLeft:-0.009388,0.734394,-0.051928,-0.676668 KneeRight:-0.000259,0.679707,0.022789,0.733130 Neck:0.077394,-0.047113,0.992871,-0.077449 ShoulderLeft:-0.058544,0.794717,-0.589840,0.130714 ShoulderRight:0.043723,0.765899,0.641351,-0.012511 SpineBase:0.038292,-0.043513,0.997548,-0.039216 SpineMid:0.056958,-0.044239,0.996657,-0.038395 SpineShoulder:0.076686,-0.045904,0.994398,-0.056429 ThumbLeft:0.000000,0.000000,0.000000,0.000000 ThumbRight:0.000000,0.000000,0.000000,0.000000 WristLeft:-0.245755,0.263293,-0.343109,0.867501 WristRight:-0.084158,0.628039,-0.036689,0.772748 END:
KINECT_DATA POSITION:22.385620,-0.886129,-11.952436 HEAD_JOINT1:0.981608,0.181643,-0.000000,0.058742 LARM_JOINT2:0.797662,0.000000,-0.344313,-0.495160 LARM_JOINT3:0.963297,0.000000,-0.262436,-0.056446 LLEG_JOINT2:0.996510,0.031273,0.000000,0.077393 LLEG_JOINT4:0.995592,0.076118,0.000000,-0.054803 RARM_JOINT2:0.776449,0.000000,-0.040155,0.628900 RARM_JOINT3:0.978205,0.000000,0.153957,0.139328 RLEG_JOINT2:0.999707,0.015811,0.000000,0.018356 RLEG_JOINT4:0.996251,0.084758,0.000000,0.017327 WAIST:0.998717,0.000000,-0.036144,-0.035460 WAIST_JOINT0:0.996758,0.000000,-0.074608,-0.030135 WAIST_JOINT1:0.998012,0.062280,0.000000,-0.009606 END:
KINECT_DATA_Sensor  AnkleLeft:0.083509,0.745169,-0.066395,-0.658287 AnkleRight:0.074816,0.697247,0.065129,0.709935 ElbowLeft:-0.252307,0.887962,0.017695,-0.384126 ElbowRight:0.014809,0.843726,0.173532,0.507733 FootLeft:0.000000,0.000000,0.000000,0.000000 FootRight:0.000000,0.000000,0.000000,0.000000 HandLeft:-0.177925,0.052582,-0.377206,0.907355 HandRight:0.028231,0.675334,-0.048046,0.735404 HandTipLeft:0.000000,0.000000,0.000000,0.000000 HandTipRight:0.000000,0.000000,0.000000,0.000000 Head:0.000000,0.000000,0.000000,0.000000 HipLeft:-0.153843,0.698689,-0.674089,0.183764 HipRight:-0.093893,0.657658,0.731056,-0.155651 KneeLeft:-0.010243,0.733507,-0.050598,-0.677719 KneeRight:-0.001000,0.680581,0.022396,0.732330 Neck:0.076006,-0.045877,0.993093,-0.076715 ShoulderLeft:-0.058991,0.797090,-0.586784,0.129820 ShoulderRight:0.041263,0.766967,0.640207,-0.013914 SpineBase:0.037148,-0.042621,0.997647,-0.038768 SpineMid:0.055700,-0.043334,0.996784,-0.037969 SpineShoulder:0.075314,-0.044767,0.994590,-0.055807 ThumbLeft:0.000000,0.000000,0.000000,0.000000 ThumbRight:0.000000,0.000000,0.000000,0.000000 WristLeft:-0.151994,0.066619,-0.399839,0.901437 WristRight:-0.084746,0.659890,-0.034608,0.745765 END:
KINECT_DATA POSITION:22.549843,-0.884438,-12.128472 HEAD_JOINT1:0.981442,0.182773,-0.000000,0.058009 LARM_JOINT2:0.842784,0.000000,-0.378379,-0.382812 LARM_JOINT3:0.951574,0.000000,-0.273871,-0.139646 LLEG_JOINT2:0.997356,0.026202,0.000000,0.067779 LLEG_JOINT4:0.995214,0.085434,0.000000,-0.047436 RARM_JOINT2:0.778584,0.000000,-0.045532,0.625886 RARM_JOINT3:0.978789,0.000000,0.156336,0.132405 RLEG_JOINT2:0.999851,0.014727,0.000000,0.008962 RLEG_JOINT4:0.996037,0.086453,0.000000,0.020872 WAIST:0.999144,0.000000,-0.029380,-0.029137 WAIST_JOINT0:0.997190,0.000000,-0.068169,-0.031061 WAIST_JOINT1:0.998024,0.061849,0.000000,-0.011067 END:
KINECT_DATA_Sensor  AnkleLeft:0.084888,0.744524,-0.071429,-0.658313 AnkleRight:0.072530,0.670593,0.069179,0.735023 ElbowLeft:-0.333917,0.919640,-0.117030,-0.170485 ElbowRight:0.016176,0.841825,0.174514,0.510504 FootLeft:0.000000,0.000000,0.000000,0.000000 FootRight:0.000000,0.000000,0.000000,0.000000 HandLeft:-0.099377,-0.033636,-0.450983,0.886345 HandRight:0.016685,0.671066,-0.019107,0.740963 HandTipLeft:0.000000,0.000000,0.000000,0.000000 HandTipRight:0.000000,0.000000,0.000000,0.000000 Head:0.000000,0.000000,0.000000,0.000000 HipLeft:-0.147627,0.695262,-0.680185,0.179346 HipRight:-0.096604,0.660826,0.727197,-0.158625 KneeLeft:-0.010711,0.728317,-0.045002,-0.683677 KneeRight:-0.003733,0.685802,0.024182,0.727377 Neck:0.069966,-0.040433,0.993795,-0.076425 ShoulderLeft:-0.055688,0.799238,-0.585137,0.125425 ShoulderRight:0.036373,0.767433,0.639800,-0.019487 SpineBase:0.030075,-0.038748,0.998004,-0.039765 SpineMid:0.049166,-0.039502,0.997246,-0.039016 SpineShoulder:0.069232,-0.040755,0.995221,-0.055500 ThumbLeft:0.000000,0.000000,0.000000,0.000000 ThumbRight:0.000000,0.000000,0.000000,0.000000 WristLeft:-0.126971,-0.057773,-0.389628,0.910347 WristRight:-0.085403,0.660968,-0.036367,0.744651 END:
KINECT_DATA POSITION:22.657980,-0.884772,-12.423574 HEAD_JOINT1:0.981707,0.181217,-0.000000,0.058403 LARM_JOINT2:0.862418,0.000000,-0.354447,-0.361389 LARM_JOINT3:0.959327,0.000000,-0.273072,-0.071585 LLEG_JOINT2:0.998104,0.019272,0.000000,0.058451 LLEG_JOINT4:0.995026,0.089676,0.000000,-0.043385 RARM_JOINT2:0.779619,0.000000,-0.041373,0.624886 RARM_JOINT3:0.977337,0.000000,0.162649,0.135491 RLEG_JOINT2:0.999935,0.011386,0.000000,-0.000352 RLEG_JOINT4:0.995578,0.090385,0.000000,0.025608 WAIST:0.999510,0.000000,-0.022238,-0.022035 WAIST_JOINT0:0.998106,0.000000,-0.058045,-0.020355 WAIST_JOINT1:0.997936,0.063128,0.000000,-0.011790 END:
KINECT_DATA_Sensor  AnkleLeft:0.082201,0.736998,-0.070867,-0.667124 AnkleRight:0.077448,0.707307,0.065218,0.699618 ElbowLeft:-0.346823,0.888882,-0.128744,-0.270237 ElbowRight:0.014816,0.843938,0.169848,0.508626 FootLeft:0.000000,0.000000,0.000000,0.000000 FootRight:0.000000,0.000000,0.000000,0.000000 HandLeft:-0.084815,0.126609,-0.488465,0.859173 HandRight:0.020563,0.671573,-0.065536,0.737747 HandTipLeft:0.000000,0.000000,0.000000,0.000000 HandTipRight:0.000000,0.000000,0.000000,0.000000 Head:0.000000,0.000000,0.000000,0.000000 HipLeft:-0.141878,0.691459,-0.686177,0.175829 HipRight:-0.100506,0.664831,0.722153,-0.162457 KneeLeft:-0.013337,0.722736,-0.038771,-0.689907 KneeRight:-0.007582,0.691343,0.023707,0.722098 Neck:0.060148,-0.034384,0.994522,-0.078274 ShoulderLeft:-0.042955,0.793256,-0.596199,0.115957 ShoulderRight:0.036098,0.770306,0.636196,-0.024095 SpineBase:0.022595,-0.033734,0.998347,-0.040672 SpineMid:0.040598,-0.034462,0.997777,-0.040057 SpineShoulder:0.059507,-0.034724,0.995997,-0.056941 ThumbLeft:0.000000,0.000000,0.000000,0.000000 ThumbRight:0.000000,0.000000,0.000000,0.000000 WristLeft:-0.103988,0.111879,-0.415337,0.896752 WristRight:-0.083844,0.656036,-0.039614,0.749012 END:
KINECT_DATA POSITION:22.580360,-0.887134,-12.457633 HEAD_JOINT1:0.983014,0.177586,-0.000000,0.046327 LARM_JOINT2:0.878271,0.000000,-0.307904,-0.365835 LARM_JOINT3:0.957247,0.000000,-0.288872,-0.015218 LLEG_JOINT2:0.998422,0.017939,0.000000,0.053207 LLEG_JOINT4:0.994900,0.091696,0.000000,-0.042025 RARM_JOINT2:0.788735,0.000000,-0.031981,0.613901 RARM_JOINT3:0.977010,0.000000,0.163816,0.136441 RLEG_JOINT2:0.999933,0.010470,0.000000,-0.004845 RLEG_JOINT4:0.995129,0.093040,0.000000,0.032600 WAIST:0.999712,0.000000,-0.015868,-0.017994 WAIST_JOINT0:0.998825,0.000000,-0.046157,-0.014760 WAIST_JOINT1:0.997988,0.062869,0.000000,-0.008173 END:
KINECT_DATA_Sensor  AnkleLeft:0.082973,0.730545,-0.071327,-0.674041 AnkleRight:0.081590,0.697194,0.063860,0.709356 ElbowLeft:-0.343648,0.835420,-0.124998,-0.410310 ElbowRight:0.008676,0.860720,0.172347,0.478939 FootLeft:0.000000,0.000000,0.000000,0.000000 FootRight:0.000000,0.000000,0.000000,0.000000 HandLeft:0.010280,0.081699,-0.509344,0.856615 HandRight:-0.015403,0.736197,-0.049565,0.674774 HandTipLeft:0.000000,0.000000,0.000000,0.000000 HandTipRight:0.000000,0.000000,0.000000,0.000000 Head:0.000000,0.000000,0.000000,0.000000 HipLeft:-0.137725,0.689947,-0.689032,0.173895 HipRight:-0.106012,0.667921,0.718024,-0.164572 KneeLeft:-0.013006,0.718262,-0.037202,-0.694655 KneeRight:-0.008561,0.695892,0.023490,0.717711 Neck:0.047181,-0.027159,0.995460,-0.078071 ShoulderLeft:-0.034742,0.791708,-0.600506,0.106701 ShoulderRight:0.027213,0.776340,0.628803,-0.034097 SpineBase:0.016179,-0.027153,0.998702,-0.039948 SpineMid:0.031048,-0.027745,0.998350,-0.039539 SpineShoulder:0.046729,-0.026955,0.996911,-0.057077 ThumbLeft:0.000000,0.000000,0.000000,0.000000 ThumbRight:0.000000,0.000000,0.000000,0.000000 WristLeft:-0.000767,0.077509,-0.460419,0.884311 WristRight:-0.087053,0.731909,-0.038929,0.674697 END:
KINECT_DATA POSITION:22.324785,-0.879600,-12.376011 HEAD_JOINT1:0.984160,0.172082,-0.000000,0.042629 LARM_JOINT2:0.886118,0.000000,-0.302566,-0.351069 LARM_JOINT3:0.959578,0.000000,-0.281444,0.000545 LLEG_JOINT2:0.998622,0.016881,0.000000,0.049699 LLEG_JOINT4:0.994791,0.092488,0.000000,-0.042863 RARM_JOINT2:0.786834,0.000000,-0.032331,0.616317 RARM_JOINT3:0.977006,0.000000,0.163675,0.136640 RLEG_JOINT2:0.999890,0.012953,0.000000,-0.007271 RLEG_JOINT4:0.995206,0.093164,0.000000,0.029754 WAIST:0.999877,0.000000,-0.008905,-0.012927 WAIST_JOINT0:0.999443,0.000000,-0.032345,-0.008215 WAIST_JOINT1:0.998044,0.062146,0.000000,-0.006854 END:
KINECT_DATA_Sensor  AnkleLeft:0.083505,0.731324,-0.070483,-0.673219 AnkleRight:0.082560,0.697564,0.067035,0.708587 ElbowLeft:-0.359328,0.810852,-0.134083,-0.442068 ElbowRight:0.007944,0.854744,0.164205,0.492327 FootLeft:0.000000,0.000000,0.000000,0.000000 FootRight:0.000000,0.000000,0.000000,0.000000 HandLeft:0.038766,0.090426,-0.514305,0.851945 HandRight:0.023810,0.738489,-0.068159,0.670389 HandTipLeft:0.000000,0.000000,0.000000,0.000000 HandTipRight:0.000000,0.000000,0.000000,0.000000 Head:0.000000,0.000000,0.000000,0.000000 HipLeft:0.131937,-0.687919,0.692970,-0.170742 HipRight:-0.111703,0.671360,0.713339,-0.167169 KneeLeft:-0.014477,0.713276,-0.037745,-0.699717 KneeRight:-0.004983,0.700833,0.023404,0.712923 Neck:0.033067,-0.020748,0.996235,-0.077409 ShoulderLeft:-0.022189,0.791296,-0.603884,0.093180 ShoulderRight:0.021101,0.781897,0.621650,-0.041746 SpineBase:0.009084,-0.020714,0.998973,-0.039264 SpineMid:0.020591,-0.021165,0.998802,-0.039023 SpineShoulder:0.032719,-0.020600,0.997643,-0.056682 ThumbLeft:0.000000,0.000000,0.000000,0.000000 ThumbRight:0.000000,0.000000,0.000000,0.000000 WristLeft:0.037615,0.093926,-0.473772,0.874816 WristRight:-0.089497,0.734176,-0.043847,0.671605 END:
KINECT_DATA POSITION:21.982615,-0.863912,-12.099564 HEAD_JOINT1:0.984834,0.167797,-0.000000,0.044117 LARM_JOINT2:0.892790,0.000000,-0.295352,-0.340138 LARM_JOINT3:0.962746,0.000000,-0.269348,0.023929 LLEG_JOINT2:0.998911,0.016802,0.000000,0.043533 LLEG_JOINT4:0.994798,0.094252,0.000000,-0.038655 RARM_JOINT2:0.787311,0.000000,-0.030595,0.615796 RARM_JOINT3:0.978026,0.000000,0.161815,0.131458 RLEG_JOINT2:0.999832,0.014587,0.000000,-0.011077 RLEG_JOINT4:0.995435,0.090848,0.000000,0.029262 WAIST:0.999972,0.000000,-0.002707,-0.007038 WAIST_JOINT0:0.999695,0.000000,-0.024659,-0.001090 WAIST_JOINT1:0.998109,0.061190,0.000000,-0.005846 END:
KINECT_DATA_Sensor  AnkleLeft:0.083946,0.739585,-0.072471,-0.663864 AnkleRight:0.084134,0.716121,0.064345,0.689893 ElbowLeft:-0.375276,0.776680,-0.134269,-0.487758 ElbowRight:0.008601,0.860910,0.157855,0.483573 FootLeft:0.000000,0.000000,0.000000,0.000000 FootRight:0.000000,0.000000,0.000000,0.000000 HandLeft:0.016683,0.182885,-0.527659,0.829368 HandRight:0.015821,0.727562,-0.057979,0.683404 HandTipLeft:0.000000,0.000000,0.000000,0.000000 HandTipRight:0.000000,0.000000,0.000000,0.000000 Head:0.000000,0.000000,0.000000,0.000000 HipLeft:0.127030,-0.685092,0.697626,-0.166824 HipRight:-0.117022,0.675015,0.708540,-0.169208 KneeLeft:-0.014030,0.708816,-0.037646,-0.704248 KneeRight:-0.002432,0.705295,0.023118,0.708533 Neck:0.025078,-0.013974,0.996660,-0.076454 ShoulderLeft:-0.015032,0.788286,-0.609215,0.085065 ShoulderRight:0.017682,0.786172,0.616083,-0.045409 SpineBase:0.002684,-0.014501,0.999159,-0.038272 SpineMid:0.013500,-0.014915,0.999071,-0.038112 SpineShoulder:0.024832,-0.014056,0.998029,-0.055901 ThumbLeft:0.000000,0.000000,0.000000,0.000000 ThumbRight:0.000000,0.000000,0.000000,0.000000 WristLeft:0.035520,0.200408,-0.491425,0.846803 WristRight:-0.083277,0.722139,-0.050348,0.684869 END:
KINECT_DATA POSITION:21.621273,-0.866428,-11.787212 HEAD_JOINT1:0.984394,0.169541,-0.000000,0.047153 LARM_JOINT2:0.902722,0.000000,-0.280325,-0.326360 LARM_JOINT3:0.962742,0.000000,-0.268986,0.027836 LLEG_JOINT2:0.999041,0.019150,0.000000,0.039370 LLEG_JOINT4:0.995255,0.090019,0.000000,-0.036937 RARM_JOINT2:0.786441,0.000000,-0.031138,0.616879 RARM_JOINT3:0.977960,0.000000,0.160014,0.134129 RLEG_JOINT2:0.999775,0.014965,0.000000,-0.015065 RLEG_JOINT4:0.995172,0.092516,0.000000,0.032752 WAIST:0.999998,0.000000,-0.000920,-0.001807 WAIST_JOINT0:0.999705,0.000000,-0.023780,0.004870 WAIST_JOINT1:0.998149,0.060445,0.000000,-0.006745 END:
KINECT_DATA_Sensor  AnkleLeft:0.081062,0.740729,-0.072868,-0.662902 AnkleRight:0.088069,0.709512,0.063479,0.696281 ElbowLeft:-0.381647,0.770569,-0.161295,-0.484307 ElbowRight:0.010057,0.860202,0.152819,0.486413 FootLeft:0.000000,0.000000,0.000000,0.000000 FootRight:0.000000,0.000000,0.000000,0.000000 HandLeft:0.046350,0.206804,-0.542364,0.812973 HandRight:0.040237,0.705275,-0.069130,0.704407 HandTipLeft:0.000000,0.000000,0.000000,0.000000 HandTipRight:0.000000,0.000000,0.000000,0.000000 Head:0.000000,0.000000,0.000000,0.000000 HipLeft:0.125544,-0.681813,0.701416,-0.165484 HipRight:-0.119694,0.678421,0.704815,-0.169276 KneeLeft:-0.013041,0.707485,-0.040096,-0.705470 KneeRight:-0.001315,0.706665,0.022512,0.707189 Neck:0.023722,-0.009980,0.996790,-0.075809 ShoulderLeft:-0.015736,0.783807,-0.614979,0.084853 ShoulderRight:0.015172,0.789041,0.612384,-0.046585 SpineBase:0.000695,-0.009685,0.999256,-0.037324 SpineMid:0.011932,-0.010104,0.999185,-0.037213 SpineShoulder:0.023578,-0.009820,0.998147,-0.055225 ThumbLeft:0.000000,0.000000,0.000000,0.000000 ThumbRight:0.000000,0.000000,0.000000,0.000000 WristLeft:0.048479,0.218229,-0.493290,0.840649 WristRight:-0.078392,0.686277,-0.057673,0.720799 END:
KINECT_DATA POSITION:21.176325,-0.909167,-11.555683 HEAD_JOINT1:0.983917,0.170427,-0.000000,0.053492 LARM_JOINT2:0.908211,0.000000,-0.285944,-0.305595 LARM_JOINT3:0.969744,0.000000,-0.238727,0.051048 LLEG_JOINT2:0.999008,0.019626,0.000000,0.039965 LLEG_JOINT4:0.995300,0.089159,0.000000,-0.037787 RARM_JOINT2:0.787883,0.000000,-0.031269,0.615031 RARM_JOINT3:0.978827,0.000000,0.155027,0.133657 RLEG_JOINT2:0.999765,0.015378,0.000000,-0.015286 RLEG_JOINT4:0.995075,0.093667,0.000000,0.032428 WAIST:0.999999,0.000000,-0.000929,0.001349 WAIST_JOINT0:0.999664,0.000000,-0.025557,0.004244 WAIST_JOINT1:0.998146,0.060116,0.000000,-0.009560 END:
KINECT_DATA_Sensor  AnkleLeft:0.078374,0.736316,-0.075251,-0.667858 AnkleRight:0.091098,0.710614,0.062575,0.694847 ElbowLeft:-0.404652,0.748510,-0.155770,-0.501722 ElbowRight:0.010334,0.864641,0.154353,0.477980 FootLeft:0.000000,0.000000,0.000000,0.000000 FootRight:0.000000,0.000000,0.000000,0.000000 HandLeft:0.061067,0.257330,-0.568977,0.778664 HandRight:0.046893,0.714903,-0.042248,0.696369 HandTipLeft:0.000000,0.000000,0.000000,0.000000 HandTipRight:0.000000,0.000000,0.000000,0.000000 Head:0.000000,0.000000,0.000000,0.000000 HipLeft:0.125760,-0.679697,0.703597,-0.164766 HipRight:-0.120371,0.680395,0.702820,-0.169169 KneeLeft:-0.015354,0.707324,-0.043083,-0.705408 KneeRight:0.001052,0.706772,0.020728,0.707137 Neck:0.025395,-0.010009,0.996769,-0.075535 ShoulderLeft:-0.017449,0.785507,-0.612603,0.085974 ShoulderRight:0.015551,0.790436,0.610688,-0.045040 SpineBase:0.000521,-0.008389,0.999291,-0.036692 SpineMid:0.012722,-0.008836,0.999210,-0.036587 SpineShoulder:0.025285,-0.009507,0.998128,-0.054868 ThumbLeft:0.000000,0.000000,0.000000,0.000000 ThumbRight:0.000000,0.000000,0.000000,0.000000 WristLeft:0.059181,0.273094,-0.505625,0.816248 WristRight:-0.077269,0.698906,-0.056922,0.708745 END:
KINECT_DATA POSITION:21.094160,-0.909819,-11.512840 HEAD_JOINT1:0.984399,0.167644,-0.000000,0.053430 LARM_JOINT2:0.908249,0.000000,-0.284660,-0.306680 LARM_JOINT3:0.971717,0.000000,-0.224072,0.074551 LLEG_JOINT2:0.998989,0.019960,0.000000,0.040272 LLEG_JOINT4:0.994888,0.094221,0.000000,-0.036330 RARM_JOINT2:0.791441,0.000000,-0.029406,0.610537 RARM_JOINT3:0.978209,0.000000,0.154207,0.139023 RLEG_JOINT2:0.999771,0.015320,0.000000,-0.014973 RLEG_JOINT4:0.995048,0.094285,0.000000,0.031456 WAIST:0.999998,0.000000,-0.001576,0.001045 WAIST_JOINT0:0.999290,0.000000,-0.037673,-0.000475 WAIST_JOINT1:0.998134,0.060444,0.000000,-0.008642 END:
KINECT_DATA_Sensor  AnkleLeft:0.081595,0.738202,-0.079731,-0.664863 AnkleRight:0.088620,0.685703,0.066696,0.719381 ElbowLeft:-0.411889,0.719005,-0.133228,-0.543719 ElbowRight:0.008619,0.868846,0.158216,0.469042 FootLeft:0.000000,0.000000,0.000000,0.000000 FootRight:0.000000,0.000000,0.000000,0.000000 HandLeft:0.045605,0.324088,-0.579354,0.746483 HandRight:0.050547,0.719678,-0.050019,0.690657 HandTipLeft:0.000000,0.000000,0.000000,0.000000 HandTipRight:0.000000,0.000000,0.000000,0.000000 Head:0.000000,0.000000,0.000000,0.000000 HipLeft:0.125943,-0.679688,0.703390,-0.165546 HipRight:-0.120228,0.680255,0.703073,-0.168782 KneeLeft:-0.015146,0.707819,-0.043314,-0.704902 KneeRight:0.001031,0.706282,0.020680,0.707628 Neck:0.035479,-0.010086,0.996437,-0.075842 ShoulderLeft:-0.029292,0.783928,-0.612376,0.097953 ShoulderRight:0.016732,0.790763,0.610514,-0.041069 SpineBase:0.001213,-0.007717,0.999290,-0.036853 SpineMid:0.018089,-0.008339,0.999127,-0.036717 SpineShoulder:0.035405,-0.009381,0.997808,-0.055113 ThumbLeft:0.000000,0.000000,0.000000,0.000000 ThumbRight:0.000000,0.000000,0.000000,0.000000 WristLeft:0.039203,0.337392,-0.522156,0.782293 WristRight:-0.078619,0.713271,-0.054125,0.694359 END:
KINECT_DATA POSITION:21.055014,-0.873710,-11.556280 HEAD_JOINT1:0.984839,0.165022,-0.000000,0.053482 LARM_JOINT2:0.912437,0.000000,-0.270767,-0.306828 LARM_JOINT3:0.971888,0.000000,-0.215341,0.095192 LLEG_JOINT2:0.998977,0.019754,0.000000,0.040683 LLEG_JOINT4:0.995255,0.090271,0.000000,-0.036317 RARM_JOINT2:0.790632,0.000000,-0.027801,0.611660 RARM_JOINT3:0.979983,0.000000,0.148245,0.132882 RLEG_JOINT2:0.999783,0.015040,0.000000,-0.014420 RLEG_JOINT4:0.995047,0.094302,0.000000,0.031444 WAIST:0.999996,0.000000,-0.002802,0.000612 WAIST_JOINT0:0.999124,0.000000,-0.041772,-0.002654 WAIST_JOINT1:0.998086,0.061345,0.000000,-0.007772 END:
KINECT_DATA_Sensor  AnkleLeft:0.076739,0.725035,-0.078733,-0.679880 AnkleRight:0.091632,0.718097,0.062067,0.687087 ElbowLeft:0.414241,-0.688261,0.124790,0.582348 ElbowRight:0.008897,0.867305,0.156499,0.472451 FootLeft:0.000000,0.000000,0.000000,0.000000 FootRight:0.000000,0.000000,0.000000,0.000000 HandLeft:0.102736,0.324633,-0.576893,0.742465 HandRight:0.054590,0.712811,-0.013141,0.699105 HandTipLeft:0.000000,0.000000,0.000000,0.000000 HandTipRight:0.000000,0.000000,0.000000,0.000000 Head:0.000000,0.000000,0.000000,0.000000 HipLeft:0.125916,-0.679642,0.703143,-0.166798 HipRight:-0.119039,0.680006,0.703603,-0.168421 KneeLeft:-0.015329,0.708695,-0.043134,-0.704029 KneeRight:0.000942,0.705398,0.020396,0.708517 Neck:0.038984,-0.009686,0.996230,-0.076894 ShoulderLeft:-0.029847,0.782429,-0.613831,0.100625 ShoulderRight:0.020749,0.789060,0.612763,-0.038419 SpineBase:0.002469,-0.007446,0.999259,-0.037693 SpineMid:0.020467,-0.008123,0.999052,-0.037553 SpineShoulder:0.038917,-0.009055,0.997633,-0.055971 ThumbLeft:0.000000,0.000000,0.000000,0.000000 ThumbRight:0.000000,0.000000,0.000000,0.000000 WristLeft:0.072022,0.319381,-0.534183,0.779395 WristRight:-0.076897,0.690469,-0.056804,0.717017 END:
KINECT_DATA POSITION:21.009743,-0.832702,-11.654388 HEAD_JOINT1:0.984860,0.164707,-0.000000,0.054060 LARM_JOINT2:0.926321,0.000000,-0.251569,-0.280434 LARM_JOINT3:0.975391,0.000000,-0.198899,0.095146 LLEG_JOINT2:0.998951,0.019630,0.000000,0.041362 LLEG_JOINT4:0.995220,0.090545,0.000000,-0.036593 RARM_JOINT2:0.795137,0.000000,-0.027198,0.605819 RARM_JOINT3:0.977867,0.000000,0.150326,0.145530 RLEG_JOINT2:0.999795,0.015338,0.000000,-0.013212 RLEG_JOINT4:0.995163,0.093149,0.000000,0.031205 WAIST:0.999992,0.000000,-0.004013,0.000324 WAIST_JOINT0:0.999271,0.000000,-0.038101,0.002228 WAIST_JOINT1:0.998031,0.062252,0.000000,-0.007727 END:
KINECT_DATA_Sensor  AnkleLeft:0.076843,0.727283,-0.078844,-0.677450 AnkleRight:0.091173,0.713162,0.061438,0.692324 ElbowLeft:0.433570,-0.659643,0.141560,0.597368 ElbowRight:0.008431,0.873221,0.163240,0.459094 FootLeft:0.000000,0.000000,0.000000,0.000000 FootRight:0.000000,0.000000,0.000000,0.000000 HandLeft:0.164627,0.280183,-0.568571,0.755726 HandRight:0.053119,0.740848,-0.049407,0.667744 HandTipLeft:0.000000,0.000000,0.000000,0.000000 HandTipRight:0.000000,0.000000,0.000000,0.000000 Head:0.000000,0.000000,0.000000,0.000000 HipLeft:0.125746,-0.679498,0.702997,-0.168125 HipRight:-0.117454,0.679791,0.704082,-0.168395 KneeLeft:-0.015747,0.709535,-0.043302,-0.703162 KneeRight:0.001824,0.704538,0.019951,0.709383 Neck:0.036052,-0.009483,0.996262,-0.077922 ShoulderLeft:-0.020949,0.780418,-0.617710,0.094571 ShoulderRight:0.025884,0.789629,0.611947,-0.036563 SpineBase:0.003685,-0.007578,0.999208,-0.038896 SpineMid:0.019628,-0.008198,0.999022,-0.038770 SpineShoulder:0.035967,-0.009039,0.997691,-0.056892 ThumbLeft:0.000000,0.000000,0.000000,0.000000 ThumbRight:0.000000,0.000000,0.000000,0.000000 WristLeft:0.151121,0.288183,-0.528165,0.784318 WristRight:-0.079186,0.735203,-0.049398,0.671392 END:
KINECT_DATA POSITION:21.017864,-0.823545,-11.659777 HEAD_JOINT1:0.984815,0.165194,-0.000000,0.053384 LARM_JOINT2:0.929793,0.000000,-0.244749,-0.274922 LARM_JOINT3:0.977428,0.000000,-0.190777,0.090769 LLEG_JOINT2:0.998972,0.019802,0.000000,0.040779 LLEG_JOINT4:0.995475,0.087680,0.000000,-0.036628 RARM_JOINT2:0.793312,0.000000,-0.029903,0.608081 RARM_JOINT3:0.977217,0.000000,0.156800,0.143037 RLEG_JOINT2:0.999784,0.015728,0.000000,-0.013578 RLEG_JOINT4:0.995274,0.091904,0.000000,0.031366 WAIST:0.999990,0.000000,-0.004461,0.000917 WAIST_JOINT0:0.999247,0.000000,-0.038764,0.001336 WAIST_JOINT1:0.998006,0.062583,0.000000,-0.008161 END:
KINECT_DATA_Sensor  AnkleLeft:0.076513,0.742361,-0.075391,-0.661334 AnkleRight:0.088373,0.684875,0.064090,0.720437 ElbowLeft:0.437220,-0.651941,0.146797,0.601882 ElbowRight:0.010754,0.869230,0.161709,0.467091 FootLeft:0.000000,0.000000,0.000000,0.000000 FootRight:0.000000,0.000000,0.000000,0.000000 HandLeft:0.172866,0.300177,-0.554567,0.756615 HandRight:0.041936,0.730645,-0.057877,0.679006 HandTipLeft:0.000000,0.000000,0.000000,0.000000 HandTipRight:0.000000,0.000000,0.000000,0.000000 Head:0.000000,0.000000,0.000000,0.000000 HipLeft:0.125873,-0.679034,0.703346,-0.168441 HipRight:-0.117083,0.680219,0.703751,-0.168309 KneeLeft:-0.015650,0.709825,-0.043426,-0.702864 KneeRight:0.002273,0.704244,0.020065,0.709671 Neck:0.036406,-0.009326,0.996217,-0.078356 ShoulderLeft:-0.023171,0.780347,-0.617395,0.096670 ShoulderRight:0.024135,0.789621,0.611933,-0.038123 SpineBase:0.004091,-0.007369,0.999201,-0.039080 SpineMid:0.020012,-0.007991,0.999008,-0.038958 SpineShoulder:0.036328,-0.008852,0.997662,-0.057206 ThumbLeft:0.000000,0.000000,0.000000,0.000000 ThumbRight:0.000000,0.000000,0.000000,0.000000 WristLeft:0.156379,0.300943,-0.529845,0.777331 WristRight:-0.078534,0.725211,-0.051947,0.682058 END:
KINECT_DATA POSITION:21.027100,-0.810480,-11.661566 HEAD_JOINT1:0.984279,0.168041,-0.000000,0.054375 LARM_JOINT2:0.933817,0.000000,-0.235657,-0.269167 LARM_JOINT3:0.977513,0.000000,-0.189306,0.092905 LLEG_JOINT2:0.999000,0.019094,0.000000,0.040423 LLEG_JOINT4:0.995242,0.089875,0.000000,-0.037637 RARM_JOINT2:0.791001,0.000000,-0.030943,0.611032 RARM_JOINT3:0.978417,0.000000,0.152419,0.139528 RLEG_JOINT2:0.999779,0.015665,0.000000,-0.014012 RLEG_JOINT4:0.995271,0.092033,0.000000,0.031067 WAIST:0.999987,0.000000,-0.004864,0.001498 WAIST_JOINT0:0.999155,0.000000,-0.041099,0.000912 WAIST_JOINT1:0.997942,0.063346,0.000000,-0.009993 END:
KINECT_DATA_Sensor  AnkleLeft:0.077670,0.738511,-0.076286,-0.665394 AnkleRight:0.089758,0.700617,0.062211,0.705131 ElbowLeft:0.438884,-0.645550,0.154759,0.605554 ElbowRight:0.012246,0.865913,0.160306,0.473653 FootLeft:0.000000,0.000000,0.000000,0.000000 FootRight:0.000000,0.000000,0.000000,0.000000 HandLeft:0.176700,0.320619,-0.559450,0.743638 HandRight:0.058563,0.716611,-0.035203,0.694119 HandTipLeft:0.000000,0.000000,0.000000,0.000000 HandTipRight:0.000000,0.000000,0.000000,0.000000 Head:0.000000,0.000000,0.000000,0.000000 HipLeft:0.126139,-0.678463,0.703791,-0.168686 HipRight:-0.116584,0.680438,0.703577,-0.168498 KneeLeft:-0.016327,0.710038,-0.043076,-0.702655 KneeRight:0.002343,0.704008,0.019919,0.709909 Neck:0.038726,-0.011105,0.996045,-0.079190 ShoulderLeft:-0.024308,0.779948,-0.617488,0.098992 ShoulderRight:0.026136,0.788812,0.612976,-0.036782 SpineBase:0.004430,-0.007730,0.999184,-0.039383 SpineMid:0.021362,-0.008396,0.998966,-0.039247 SpineShoulder:0.038668,-0.010093,0.997523,-0.057884 ThumbLeft:0.000000,0.000000,0.000000,0.000000 ThumbRight:0.000000,0.000000,0.000000,0.000000 WristLeft:0.155365,0.319672,-0.533155,0.767735 WristRight:-0.076355,0.696247,-0.054491,0.711646 END:
KINECT_DATA POSITION:21.046467,-0.808752,-11.656034 HEAD_JOINT1:0.984167,0.168735,-0.000000,0.054253 LARM_JOINT2:0.937977,0.000000,-0.230825,-0.258686 LARM_JOINT3:0.977854,0.000000,-0.189926,0.087917 LLEG_JOINT2:0.999014,0.019265,0.000000,0.039986 LLEG_JOINT4:0.995093,0.091609,0.000000,-0.037382 RARM_JOINT2:0.787969,0.000000,-0.032008,0.614882 RARM_JOINT3:0.978427,0.000000,0.155634,0.135861 RLEG_JOINT2:0.999759,0.017139,0.000000,-0.013740 RLEG_JOINT4:0.995093,0.094005,0.000000,0.030871 WAIST:0.999984,0.000000,-0.005271,0.001936 WAIST_JOINT0:0.999275,0.000000,-0.037896,0.003675 WAIST_JOINT1:0.997888,0.064002,0.000000,-0.011101 END:
KINECT_DATA_Sensor  AnkleLeft:0.077538,0.727110,-0.079116,-0.677525 AnkleRight:0.091213,0.684988,0.066164,0.719788 ElbowLeft:0.443614,-0.647046,0.167302,0.597117 ElbowRight:0.013991,0.861165,0.157418,0.483134 FootLeft:0.000000,0.000000,0.000000,0.000000 FootRight:0.000000,0.000000,0.000000,0.000000 HandLeft:0.240052,0.241011,-0.536241,0.772486 HandRight:0.050137,0.733731,-0.045610,0.676051 HandTipLeft:0.000000,0.000000,0.000000,0.000000 HandTipRight:0.000000,0.000000,0.000000,0.000000 Head:0.000000,0.000000,0.000000,0.000000 HipLeft:0.126272,-0.678079,0.704058,-0.169014 HipRight:-0.115940,0.680655,0.703411,-0.168757 KneeLeft:-0.016225,0.710285,-0.043192,-0.702400 KneeRight:0.003901,0.703741,0.020449,0.710152 Neck:0.036695,-0.011603,0.996066,-0.079817 ShoulderLeft:-0.020435,0.780814,-0.616959,0.096305 ShoulderRight:0.027389,0.788652,0.613095,-0.037308 SpineBase:0.004778,-0.008156,0.999162,-0.039820 SpineMid:0.020526,-0.008783,0.998963,-0.039687 SpineShoulder:0.036623,-0.010606,0.997555,-0.058567 ThumbLeft:0.000000,0.000000,0.000000,0.000000 ThumbRight:0.000000,0.000000,0.000000,0.000000 WristLeft:0.216724,0.237225,-0.514660,0.794909 WristRight:-0.078783,0.727649,-0.050439,0.679541 END:
KINECT_DATA POSITION:21.124788,-0.808290,-11.619782 HEAD_JOINT1:0.983994,0.169917,-0.000000,0.053704 LARM_JOINT2:0.938889,0.000000,-0.229479,-0.256568 LARM_JOINT3:0.976793,0.000000,-0.196280,0.085726 LLEG_JOINT2:0.999050,0.019803,0.000000,0.038821 LLEG_JOINT4:0.995251,0.090270,0.000000,-0.036415 RARM_JOINT2:0.794688,0.000000,-0.030337,0.606260 RARM_JOINT3:0.976502,0.000000,0.156193,0.148486 RLEG_JOINT2:0.999752,0.016476,0.000000,-0.014990 RLEG_JOINT4:0.995261,0.092084,0.000000,0.031235 WAIST:0.999979,0.000000,-0.005897,0.002521 WAIST_JOINT0:0.999275,0.000000,-0.037969,0.002687 WAIST_JOINT1:0.997848,0.064474,0.000000,-0.011921 END:
KINECT_DATA_Sensor  AnkleLeft:0.079540,0.752481,-0.075984,-0.649363 AnkleRight:0.090841,0.702681,0.062204,0.702935 ElbowLeft:0.446622,-0.639125,0.163715,0.604356 ElbowRight:0.011775,0.870477,0.166540,0.463029 FootLeft:0.000000,0.000000,0.000000,0.000000 FootRight:0.000000,0.000000,0.000000,0.000000 HandLeft:0.159513,0.312878,-0.559266,0.750923 HandRight:0.053305,0.724993,-0.056895,0.684329 HandTipLeft:0.000000,0.000000,0.000000,0.000000 HandTipRight:0.000000,0.000000,0.000000,0.000000 Head:0.000000,0.000000,0.000000,0.000000 HipLeft:0.126324,-0.677650,0.704367,-0.169408 HipRight:-0.114950,0.681108,0.703136,-0.168754 KneeLeft:-0.015459,0.710699,-0.043159,-0.702001 KneeRight:0.002980,0.703360,0.020458,0.710533 Neck:0.036133,-0.011680,0.996052,-0.080234 ShoulderLeft:-0.017896,0.780441,-0.617726,0.094902 ShoulderRight:0.029216,0.789098,0.612477,-0.036635 SpineBase:0.005337,-0.008447,0.999137,-0.040317 SpineMid:0.020521,-0.009059,0.998940,-0.040184 SpineShoulder:0.036052,-0.010759,0.997544,-0.059080 ThumbLeft:0.000000,0.000000,0.000000,0.000000 ThumbRight:0.000000,0.000000,0.000000,0.000000 WristLeft:0.162759,0.323595,-0.539181,0.760316 WristRight:-0.077916,0.719675,-0.051216,0.688022 END:
KINECT_DATA POSITION:21.155386,-0.800996,-11.589945 HEAD_JOINT1:0.983876,0.170538,-0.000000,0.053895 LARM_JOINT2:0.937918,0.000000,-0.229435,-0.260132 LARM_JOINT3:0.975505,0.000000,-0.201221,0.088887 LLEG_JOINT2:0.999053,0.019791,0.000000,0.038754 LLEG_JOINT4:0.995114,0.091479,0.000000,-0.037137 RARM_JOINT2:0.794715,0.000000,-0.030500,0.606216 RARM_JOINT3:0.976730,0.000000,0.154780,0.148461 RLEG_JOINT2:0.999768,0.015832,0.000000,-0.014619 RLEG_JOINT4:0.995202,0.092617,0.000000,0.031552 WAIST:0.999983,0.000000,-0.005409,0.002388 WAIST_JOINT0:0.999148,0.000000,-0.041251,0.001229 WAIST_JOINT1:0.997826,0.064788,0.000000,-0.012068 END:
KINECT_DATA_Sensor  AnkleLeft:0.078363,0.728756,-0.078833,-0.675691 AnkleRight:0.090929,0.700880,0.062055,0.704733 ElbowLeft:0.443747,-0.638532,0.161365,0.607723 ElbowRight:0.011753,0.870139,0.167047,0.463481 FootLeft:0.000000,0.000000,0.000000,0.000000 FootRight:0.000000,0.000000,0.000000,0.000000 HandLeft:0.115260,0.356601,-0.572904,0.728925 HandRight:0.061352,0.713658,-0.048524,0.696114 HandTipLeft:0.000000,0.000000,0.000000,0.000000 HandTipRight:0.000000,0.000000,0.000000,0.000000 Head:0.000000,0.000000,0.000000,0.000000 HipLeft:0.125980,-0.677802,0.704311,-0.169293 HipRight:-0.115005,0.680922,0.703176,-0.169300 KneeLeft:-0.015306,0.710353,-0.043015,-0.702363 KneeRight:0.002678,0.703723,0.019837,0.710192 Neck:0.038794,-0.012239,0.995925,-0.080490 ShoulderLeft:-0.020703,0.779405,-0.618445,0.098106 ShoulderRight:0.029921,0.788705,0.613009,-0.035624 SpineBase:0.004844,-0.008775,0.999126,-0.040589 SpineMid:0.021590,-0.009454,0.998904,-0.040436 SpineShoulder:0.038712,-0.011270,0.997423,-0.059347 ThumbLeft:0.000000,0.000000,0.000000,0.000000 ThumbRight:0.000000,0.000000,0.000000,0.000000 WristLeft:0.124792,0.372868,-0.548266,0.738106 WristRight:-0.075991,0.688616,-0.054667,0.719058 END:
KINECT_DATA POSITION:21.223289,-0.791115,-11.557854 HEAD_JOINT1:0.983860,0.170788,-0.000000,0.053384 LARM_JOINT2:0.937444,0.000000,-0.231347,-0.260147 LARM_JOINT3:0.975338,0.000000,-0.201176,0.090795 LLEG_JOINT2:0.999040,0.019496,0.000000,0.039220 LLEG_JOINT4:0.995224,0.090018,0.000000,-0.037760 RARM_JOINT2:0.797334,0.000000,-0.028761,0.602853 RARM_JOINT3:0.976652,0.000000,0.155235,0.148502 RLEG_JOINT2:0.999772,0.016257,0.000000,-0.013842 RLEG_JOINT4:0.995320,0.091341,0.000000,0.031529 WAIST:0.999983,0.000000,-0.005590,0.001353 WAIST_JOINT0:0.999016,0.000000,-0.044338,-0.000425 WAIST_JOINT1:0.997835,0.064813,0.000000,-0.011196 END:
KINECT_DATA_Sensor  AnkleLeft:0.077911,0.729395,-0.076755,-0.675294 AnkleRight:0.088337,0.680399,0.064183,0.724662 ElbowLeft:0.443814,-0.640647,0.160493,0.605675 ElbowRight:0.010104,0.873873,0.170257,0.455255 FootLeft:0.000000,0.000000,0.000000,0.000000 FootRight:0.000000,0.000000,0.000000,0.000000 HandLeft:0.167586,0.285737,-0.566266,0.754726 HandRight:0.042357,0.708089,-0.040793,0.703670 HandTipLeft:0.000000,0.000000,0.000000,0.000000 HandTipRight:0.000000,0.000000,0.000000,0.000000 Head:0.000000,0.000000,0.000000,0.000000 HipLeft:0.125865,-0.678484,0.703626,-0.169495 HipRight:-0.114744,0.680317,0.703858,-0.169074 KneeLeft:-0.015121,0.710531,-0.042400,-0.702224 KneeRight:0.002798,0.703539,0.020313,0.710361 Neck:0.041420,-0.012576,0.995820,-0.080430 ShoulderLeft:-0.021757,0.779000,-0.618669,0.099667 ShoulderRight:0.032277,0.788309,0.613541,-0.033090 SpineBase:0.005098,-0.008988,0.999118,-0.040711 SpineMid:0.023020,-0.009717,0.998865,-0.040543 SpineShoulder:0.041341,-0.011561,0.997314,-0.059351 ThumbLeft:0.000000,0.000000,0.000000,0.000000 ThumbRight:0.000000,0.000000,0.000000,0.000000 WristLeft:0.172987,0.303126,-0.533926,0.770138 WristRight:-0.076545,0.692899,-0.053945,0.714928 END:
KINECT_DATA POSITION:21.258615,-0.779960,-11.586964 HEAD_JOINT1:0.983988,0.170004,-0.000000,0.053540 LARM_JOINT2:0.937673,0.000000,-0.232701,-0.258107 LARM_JOINT3:0.975424,0.000000,-0.199200,0.094168 LLEG_JOINT2:0.999051,0.019180,0.000000,0.039117 LLEG_JOINT4:0.994915,0.093030,0.000000,-0.038589 RARM_JOINT2:0.791561,0.000000,-0.030995,0.610303 RARM_JOINT3:0.978082,0.000000,0.154975,0.139061 RLEG_JOINT2:0.999765,0.016368,0.000000,-0.014200 RLEG_JOINT4:0.995303,0.091974,0.000000,0.030223 WAIST:0.999981,0.000000,-0.006029,0.001468 WAIST_JOINT0:0.998995,0.000000,-0.044828,0.000090 WAIST_JOINT1:0.997798,0.065284,0.000000,-0.011733 END:
KINECT_DATA_Sensor  AnkleLeft:0.080894,0.733587,-0.077521,-0.670296 AnkleRight:0.089513,0.699380,0.063359,0.706286 ElbowLeft:0.445416,-0.640533,0.159693,0.604831 ElbowRight:0.013013,0.865327,0.163548,0.473595 FootLeft:0.000000,0.000000,0.000000,0.000000 FootRight:0.000000,0.000000,0.000000,0.000000 HandLeft:-0.082566,-0.394626,0.594301,-0.695888 HandRight:0.046200,0.702462,-0.031867,0.709505 HandTipLeft:0.000000,0.000000,0.000000,0.000000 HandTipRight:0.000000,0.000000,0.000000,0.000000 Head:0.000000,0.000000,0.000000,0.000000 HipLeft:0.125878,-0.678300,0.703706,-0.169889 HipRight:-0.114057,0.680370,0.703906,-0.169130 KneeLeft:-0.015371,0.710810,-0.042178,-0.701950 KneeRight:0.002717,0.703248,0.020565,0.710642 Neck:0.042438,-0.013091,0.995730,-0.080932 ShoulderLeft:-0.022845,0.778771,-0.618651,0.101316 ShoulderRight:0.032581,0.787013,0.615174,-0.033325 SpineBase:0.005512,-0.009243,0.999095,-0.041153 SpineMid:0.023738,-0.009992,0.998828,-0.040978 SpineShoulder:0.042360,-0.011986,0.997240,-0.059794 ThumbLeft:0.000000,0.000000,0.000000,0.000000 ThumbRight:0.000000,0.000000,0.000000,0.000000 WristLeft:0.090249,0.417077,-0.554300,0.714600 WristRight:-0.076324,0.688191,-0.053655,0.719506 END:
KINECT_DATA POSITION:21.304209,-0.764661,-11.605513 HEAD_JOINT1:0.983975,0.169854,-0.000000,0.054239 LARM_JOINT2:0.936953,0.000000,-0.235175,-0.258481 LARM_JOINT3:0.974457,0.000000,-0.202760,0.096550 LLEG_JOINT2:0.999026,0.019213,0.000000,0.039722 LLEG_JOINT4:0.994702,0.094407,0.000000,-0.040682 RARM_JOINT2:0.792769,0.000000,-0.031295,0.608718 RARM_JOINT3:0.977634,0.000000,0.153594,0.143671 RLEG_JOINT2:0.999770,0.016247,0.000000,-0.013973 RLEG_JOINT4:0.995310,0.092005,0.000000,0.029889 WAIST:0.999976,0.000000,-0.006867,0.001217 WAIST_JOINT0:0.998842,0.000000,-0.048070,-0.002103 WAIST_JOINT1:0.997797,0.065318,0.000000,-0.011639 END:
KINECT_DATA_Sensor  AnkleLeft:0.081964,0.724585,-0.078409,-0.679788 AnkleRight:0.087528,0.679718,0.065832,0.725250 ElbowLeft:0.448310,-0.631911,0.149563,0.614278 ElbowRight:0.012667,0.865436,0.165519,0.472719 FootLeft:0.000000,0.000000,0.000000,0.000000 FootRight:0.000000,0.000000,0.000000,0.000000 HandLeft:0.120153,0.328295,-0.582475,0.733831 HandRight:0.060380,0.720629,-0.037827,0.689650 HandTipLeft:0.000000,0.000000,0.000000,0.000000 HandTipRight:0.000000,0.000000,0.000000,0.000000 Head:0.000000,0.000000,0.000000,0.000000 HipLeft:0.126440,-0.678336,0.703424,-0.170494 HipRight:-0.113570,0.680292,0.704139,-0.168797 KneeLeft:-0.015636,0.711398,-0.042437,-0.701333 KneeRight:0.002631,0.702650,0.020495,0.711235 Neck:0.045007,-0.013326,0.995615,-0.080919 ShoulderLeft:-0.024686,0.778596,-0.618449,0.103434 ShoulderRight:0.034067,0.786903,0.615334,-0.031430 SpineBase:0.006357,-0.009405,0.999085,-0.041238 SpineMid:0.025437,-0.010191,0.998781,-0.041051 SpineShoulder:0.044932,-0.012195,0.997123,-0.059821 ThumbLeft:0.000000,0.000000,0.000000,0.000000 ThumbRight:0.000000,0.000000,0.000000,0.000000 WristLeft:0.135409,0.350420,-0.552796,0.743833 WristRight:-0.079109,0.714029,-0.050384,0.693806 END:
KINECT_DATA POSITION:21.324553,-0.760674,-11.613977 HEAD_JOINT1:0.983932,0.169734,-0.000000,0.055387 LARM_JOINT2:0.938259,0.000000,-0.236392,-0.252563 LARM_JOINT3:0.976343,0.000000,-0.198235,0.086358 LLEG_JOINT2:0.999025,0.019397,0.000000,0.039652 LLEG_JOINT4:0.994871,0.093078,0.000000,-0.039591 RARM_JOINT2:0.788702,0.000000,-0.032730,0.613904 RARM_JOINT3:0.978736,0.000000,0.153384,0.136194 RLEG_JOINT2:0.999778,0.015545,0.000000,-0.014202 RLEG_JOINT4:0.995018,0.095081,0.000000,0.029993 WAIST:0.999969,0.000000,-0.007764,0.001284 WAIST_JOINT0:0.998914,0.000000,-0.046583,0.000477 WAIST_JOINT1:0.997807,0.065102,0.000000,-0.011988 END:
KINECT_DATA_Sensor  AnkleLeft:0.080991,0.731196,-0.077786,-0.672862 AnkleRight:0.090419,0.692010,0.065855,0.713169 ElbowLeft:0.449984,-0.644443,0.160204,0.597111 ElbowRight:0.014195,0.858499,0.160588,0.486815 FootLeft:0.000000,0.000000,0.000000,0.000000 FootRight:0.000000,0.000000,0.000000,0.000000 HandLeft:0.089903,0.389499,-0.577137,0.712124 HandRight:0.061912,0.698637,-0.030139,0.712155 HandTipLeft:0.000000,0.000000,0.000000,0.000000 HandTipRight:0.000000,0.000000,0.000000,0.000000 Head:0.000000,0.000000,0.000000,0.000000 HipLeft:0.127152,-0.678235,0.703294,-0.170903 HipRight:-0.113086,0.680490,0.704136,-0.168335 KneeLeft:-0.015541,0.712024,-0.042553,-0.700692 KneeRight:0.002037,0.702033,0.020116,0.711858 Neck:0.044596,-0.013444,0.995651,-0.080681 ShoulderLeft:-0.023114,0.778938,-0.618328,0.101944 ShoulderRight:0.035086,0.786455,0.615887,-0.030669 SpineBase:0.007242,-0.009617,0.999081,-0.041124 SpineMid:0.025677,-0.010375,0.998778,-0.040940 SpineShoulder:0.044516,-0.012332,0.997151,-0.059640 ThumbLeft:0.000000,0.000000,0.000000,0.000000 ThumbRight:0.000000,0.000000,0.000000,0.000000 WristLeft:0.093550,0.399860,-0.558090,0.721039 WristRight:-0.077442,0.681601,-0.053013,0.725681 END:
KINECT_DATA POSITION:21.338449,-0.750796,-11.650932 HEAD_JOINT1:0.983950,0.169512,-0.000000,0.055750 LARM_JOINT2:0.937770,0.000000,-0.237290,-0.253536 LARM_JOINT3:0.976481,0.000000,-0.197633,0.086179 LLEG_JOINT2:0.999031,0.019190,0.000000,0.039609 LLEG_JOINT4:0.994776,0.093289,0.000000,-0.041438 RARM_JOINT2:0.786113,0.000000,-0.034155,0.617138 RARM_JOINT3:0.978836,0.000000,0.153635,0.135192 RLEG_JOINT2:0.999767,0.015780,0.000000,-0.014734 RLEG_JOINT4:0.995292,0.092531,0.000000,0.028853 WAIST:0.999961,0.000000,-0.008697,0.001380 WAIST_JOINT0:0.998802,0.000000,-0.048922,-0.000782 WAIST_JOINT1:0.997804,0.065108,0.000000,-0.012206 END:
KINECT_DATA_Sensor  AnkleLeft:0.082022,0.730629,-0.076700,-0.673476 AnkleRight:0.089249,0.708234,0.063168,0.697459 ElbowLeft:0.449453,-0.645832,0.158719,0.596406 ElbowRight:0.015438,0.852663,0.157756,0.497836 FootLeft:0.000000,0.000000,0.000000,0.000000 FootRight:0.000000,0.000000,0.000000,0.000000 HandLeft:0.171766,0.276866,-0.558664,0.762716 HandRight:0.075895,0.673737,-0.038718,0.734044 HandTipLeft:0.000000,0.000000,0.000000,0.000000 HandTipRight:0.000000,0.000000,0.000000,0.000000 Head:0.000000,0.000000,0.000000,0.000000 HipLeft:0.127845,-0.678026,0.703199,-0.171601 HipRight:-0.112600,0.680656,0.704128,-0.168026 KneeLeft:-0.015764,0.712663,-0.042429,-0.700045 KneeRight:0.001920,0.701374,0.020591,0.712493 Neck:0.046880,-0.013638,0.995547,-0.080640 ShoulderLeft:-0.024592,0.779249,-0.617588,0.103690 ShoulderRight:0.036549,0.785915,0.616573,-0.028963 SpineBase:0.008163,-0.009663,0.999071,-0.041205 SpineMid:0.027278,-0.010450,0.998732,-0.041013 SpineShoulder:0.046807,-0.012468,0.997043,-0.059652 ThumbLeft:0.000000,0.000000,0.000000,0.000000 ThumbRight:0.000000,0.000000,0.000000,0.000000 WristLeft:0.175061,0.288498,-0.536124,0.773753 WristRight:-0.076304,0.653830,-0.054622,0.750800 END:
KINECT_DATA POSITION:21.349739,-0.741837,-11.689365 HEAD_JOINT1:0.983799,0.170133,-0.000000,0.056515 LARM_JOINT2:0.938058,0.000000,-0.238062,-0.251740 LARM_JOINT3:0.976939,0.000000,-0.196224,0.084174 LLEG_JOINT2:0.999058,0.018908,0.000000,0.039067 LLEG_JOINT4:0.994579,0.095105,0.000000,-0.042037 RARM_JOINT2:0.786832,0.000000,-0.033065,0.616281 RARM_JOINT3:0.979071,0.000000,0.153984,0.133071 RLEG_JOINT2:0.999762,0.015769,0.000000,-0.015101 RLEG_JOINT4:0.995341,0.092226,0.000000,0.028128 WAIST:0.999956,0.000000,-0.009209,0.001558 WAIST_JOINT0:0.998801,0.000000,-0.048958,-0.000640 WAIST_JOINT1:0.997794,0.065199,0.000000,-0.012465 END:
KINECT_DATA_Sensor  AnkleLeft:0.082603,0.720690,-0.078332,-0.683847 AnkleRight:0.089080,0.715116,0.062650,0.690470 ElbowLeft:0.450172,-0.649108,0.161035,0.591669 ElbowRight:0.014647,0.853608,0.158410,0.496030 FootLeft:0.000000,0.000000,0.000000,0.000000 FootRight:0.000000,0.000000,0.000000,0.000000 HandLeft:0.131587,0.332280,-0.569410,0.740302 HandRight:0.061895,0.688871,-0.035091,0.721384 HandTipLeft:0.000000,0.000000,0.000000,0.000000 HandTipRight:0.000000,0.000000,0.000000,0.000000 Head:0.000000,0.000000,0.000000,0.000000 HipLeft:0.128155,-0.677842,0.703221,-0.172007 HipRight:-0.112189,0.680825,0.704046,-0.167958 KneeLeft:-0.015723,0.713000,-0.041965,-0.699730 KneeRight:0.001792,0.701029,0.020720,0.712830 Neck:0.047078,-0.013655,0.995531,-0.080722 ShoulderLeft:-0.023335,0.779392,-0.617579,0.102952 ShoulderRight:0.038041,0.785684,0.616825,-0.027944 SpineBase:0.008651,-0.009772,0.999058,-0.041376 SpineMid:0.027620,-0.010556,0.998714,-0.041183 SpineShoulder:0.047003,-0.012505,0.997027,-0.059759 ThumbLeft:0.000000,0.000000,0.000000,0.000000 ThumbRight:0.000000,0.000000,0.000000,0.000000 WristLeft:0.134969,0.344140,-0.546428,0.751510 WristRight:-0.077868,0.671200,-0.052263,0.735320 END:
KINECT_DATA POSITION:21.358620,-0.744438,-11.708856 HEAD_JOINT1:0.983723,0.170563,-0.000000,0.056542 LARM_JOINT2:0.938648,0.000000,-0.237688,-0.249889 LARM_JOINT3:0.977446,0.000000,-0.194220,0.082934 LLEG_JOINT2:0.999064,0.019260,0.000000,0.038722 LLEG_JOINT4:0.995109,0.090003,0.000000,-0.040721 RARM_JOINT2:0.791934,0.000000,-0.035539,0.609572 RARM_JOINT3:0.977433,0.000000,0.156537,0.141851 RLEG_JOINT2:0.999765,0.015543,0.000000,-0.015143 RLEG_JOINT4:0.995271,0.092661,0.000000,0.029143 WAIST:0.999956,0.000000,-0.009180,0.001675 WAIST_JOINT0:0.998914,0.000000,-0.046597,0.000017 WAIST_JOINT1:0.997790,0.065261,0.000000,-0.012484 END:
KINECT_DATA_Sensor  AnkleLeft:0.078649,0.723103,-0.075601,-0.682071 AnkleRight:0.088123,0.694609,0.064600,0.711041 ElbowLeft:0.450635,-0.651693,0.164754,0.587435 ElbowRight:0.015206,0.860660,0.166323,0.481009 FootLeft:0.000000,0.000000,0.000000,0.000000 FootRight:0.000000,0.000000,0.000000,0.000000 HandLeft:0.165980,0.297979,-0.561100,0.754205 HandRight:0.053769,0.721509,-0.047043,0.688710 HandTipLeft:0.000000,0.000000,0.000000,0.000000 HandTipRight:0.000000,0.000000,0.000000,0.000000 Head:0.000000,0.000000,0.000000,0.000000 HipLeft:0.127962,-0.677757,0.703344,-0.171984 HipRight:-0.112082,0.680886,0.703999,-0.167979 KneeLeft:-0.015312,0.712988,-0.042058,-0.699746 KneeRight:0.001684,0.701058,0.020507,0.712807 Neck:0.044491,-0.013308,0.995649,-0.080789 ShoulderLeft:-0.022398,0.779442,-0.617773,0.101614 ShoulderRight:0.035622,0.786880,0.615323,-0.030468 SpineBase:0.008615,-0.009688,0.999055,-0.041490 SpineMid:0.026312,-0.010421,0.998745,-0.041312 SpineShoulder:0.044407,-0.012271,0.997143,-0.059866 ThumbLeft:0.000000,0.000000,0.000000,0.000000 ThumbRight:0.000000,0.000000,0.000000,0.000000 WristLeft:0.162549,0.305895,-0.538173,0.768360 WristRight:-0.079258,0.716179,-0.046002,0.691874 END:
KINECT_DATA POSITION:21.363129,-0.758970,-11.691236 HEAD_JOINT1:0.983853,0.171376,-0.000000,0.051605 LARM_JOINT2:0.938834,0.000000,-0.236151,-0.250647 LARM_JOINT3:0.979981,0.000000,-0.179151,0.086841 LLEG_JOINT2:0.999089,0.019047,0.000000,0.038188 LLEG_JOINT4:0.994950,0.092580,0.000000,-0.038772 RARM_JOINT2:0.797838,0.000000,-0.031709,0.602037 RARM_JOINT3:0.975114,0.000000,0.164320,0.148834 RLEG_JOINT2:0.999766,0.015474,0.000000,-0.015135 RLEG_JOINT4:0.995155,0.094028,0.000000,0.028742 WAIST:0.999972,0.000000,-0.007289,0.001469 WAIST_JOINT0:0.999143,0.000000,-0.041385,-0.000406 WAIST_JOINT1:0.997806,0.065119,0.000000,-0.011946 END:
KINECT_DATA_Sensor  AnkleLeft:0.080422,0.728374,-0.077163,-0.676054 AnkleRight:0.088781,0.698855,0.065721,0.706683 ElbowLeft:0.451453,-0.643582,0.161660,0.596539 ElbowRight:0.011941,0.872282,0.172777,0.457307 FootLeft:0.000000,0.000000,0.000000,0.000000 FootRight:0.000000,0.000000,0.000000,0.000000 HandLeft:0.245954,0.246428,-0.531583,0.772139 HandRight:0.012180,0.711873,-0.067982,0.698904 HandTipLeft:0.000000,0.000000,0.000000,0.000000 HandTipRight:0.000000,0.000000,0.000000,0.000000 Head:0.000000,0.000000,0.000000,0.000000 HipLeft:0.127177,-0.678192,0.703264,-0.171179 HipRight:-0.113624,0.680587,0.703774,-0.169094 KneeLeft:-0.014858,0.711693,-0.041413,-0.701112 KneeRight:0.001453,0.702381,0.020601,0.711502 Neck:0.039032,-0.012722,0.995896,-0.080654 ShoulderLeft:-0.018814,0.779796,-0.618145,0.097265 ShoulderRight:0.032133,0.787346,0.614698,-0.034635 SpineBase:0.006757,-0.009499,0.999079,-0.041292 SpineMid:0.022659,-0.010155,0.998845,-0.041136 SpineShoulder:0.038931,-0.011868,0.997383,-0.059755 ThumbLeft:0.000000,0.000000,0.000000,0.000000 ThumbRight:0.000000,0.000000,0.000000,0.000000 WristLeft:0.219808,0.238057,-0.517638,0.791874 WristRight:-0.076853,0.699250,-0.050517,0.708937 END:
KINECT_DATA POSITION:21.376507,-0.776369,-11.634647 HEAD_JOINT1:0.984355,0.171422,-0.000000,0.040742 LARM_JOINT2:0.939458,0.000000,-0.225848,-0.257702 LARM_JOINT3:0.978157,0.000000,-0.183866,0.096964 LLEG_JOINT2:0.999097,0.019299,0.000000,0.037846 LLEG_JOINT4:0.995230,0.090524,0.000000,-0.036364 RARM_JOINT2:0.794980,0.000000,-0.032282,0.605777 RARM_JOINT3:0.975738,0.000000,0.164399,0.144598 RLEG_JOINT2:0.999748,0.016360,0.000000,-0.015352 RLEG_JOINT4:0.995167,0.093557,0.000000,0.029839 WAIST:0.999997,0.000000,-0.002002,0.001274 WAIST_JOINT0:0.999524,0.000000,-0.030833,0.000977 WAIST_JOINT1:0.997787,0.065658,0.000000,-0.010499 END:
KINECT_DATA_Sensor  AnkleLeft:0.078184,0.724686,-0.076919,-0.680295 AnkleRight:0.089679,0.707591,0.065331,0.697857 ElbowLeft:0.446776,-0.624175,0.159926,0.620661 ElbowRight:0.012853,0.870566,0.168170,0.462242 FootLeft:0.000000,0.000000,0.000000,0.000000 FootRight:0.000000,0.000000,0.000000,0.000000 HandLeft:0.249647,0.254366,-0.533974,0.766711 HandRight:0.009116,0.795119,-0.066947,0.602678 HandTipLeft:0.000000,0.000000,0.000000,0.000000 HandTipRight:0.000000,0.000000,0.000000,0.000000 Head:0.000000,0.000000,0.000000,0.000000 HipLeft:0.124612,-0.678725,0.703681,-0.169225 HipRight:-0.117598,0.679522,0.703282,-0.172670 KneeLeft:-0.014085,0.708021,-0.041286,-0.704843 KneeRight:0.001675,0.706086,0.021521,0.707797 Neck:0.028863,-0.011256,0.996203,-0.081359 ShoulderLeft:-0.017107,0.778436,-0.620425,0.093902 ShoulderRight:0.020803,0.785628,0.616529,-0.047410 SpineBase:0.001517,-0.008926,0.999101,-0.041422 SpineMid:0.014955,-0.009483,0.998990,-0.041298 SpineShoulder:0.028738,-0.010732,0.997711,-0.060265 ThumbLeft:0.000000,0.000000,0.000000,0.000000 ThumbRight:0.000000,0.000000,0.000000,0.000000 WristLeft:0.228402,0.250124,-0.517813,0.785583 WristRight:-0.082415,0.791723,-0.041359,0.603881 END:
KINECT_DATA POSITION:21.396339,-0.787470,-11.616219 HEAD_JOINT1:0.984789,0.169867,-0.000000,0.036558 LARM_JOINT2:0.939867,0.000000,-0.225071,-0.256891 LARM_JOINT3:0.975901,0.000000,-0.196356,0.095194 LLEG_JOINT2:0.999074,0.019311,0.000000,0.038437 LLEG_JOINT4:0.995038,0.093525,0.000000,-0.033944 RARM_JOINT2:0.797208,0.000000,-0.030135,0.602952 RARM_JOINT3:0.975918,0.000000,0.159806,0.148476 RLEG_JOINT2:0.999762,0.015779,0.000000,-0.015089 RLEG_JOINT4:0.995456,0.090927,0.000000,0.028279 WAIST:1.000000,0.000000,-0.000152,0.000737 WAIST_JOINT0:0.999610,0.000000,-0.027836,0.002148 WAIST_JOINT1:0.997766,0.066166,0.000000,-0.009175 END:
KINECT_DATA_Sensor  AnkleLeft:0.078658,0.721615,-0.080800,-0.683049 AnkleRight:0.087188,0.722221,0.062931,0.683253 ElbowLeft:0.446536,-0.624882,0.164090,0.619034 ElbowRight:0.010993,0.873523,0.170095,0.455965 FootLeft:0.000000,0.000000,0.000000,0.000000 FootRight:0.000000,0.000000,0.000000,0.000000 HandLeft:0.202334,0.274440,-0.555893,0.758107 HandRight:0.039006,0.749428,-0.056873,0.658484 HandTipLeft:0.000000,0.000000,0.000000,0.000000 HandTipRight:0.000000,0.000000,0.000000,0.000000 Head:0.000000,0.000000,0.000000,0.000000 HipLeft:0.123070,-0.679343,0.703532,-0.168492 HipRight:-0.118648,0.679019,0.703351,-0.173644 KneeLeft:-0.014037,0.706764,-0.041357,-0.706100 KneeRight:0.001028,0.707352,0.021305,0.706540 Neck:0.025973,-0.010392,0.996243,-0.081955 ShoulderLeft:-0.012845,0.777672,-0.621970,0.090631 ShoulderRight:0.021311,0.785574,0.616490,-0.048587 SpineBase:-0.000262,-0.008478,0.999095,-0.041671 SpineMid:0.012622,-0.009015,0.999016,-0.041558 SpineShoulder:0.025842,-0.010053,0.997767,-0.060758 ThumbLeft:0.000000,0.000000,0.000000,0.000000 ThumbRight:0.000000,0.000000,0.000000,0.000000 WristLeft:0.203285,0.287324,-0.529251,0.772019 WristRight:-0.079818,0.744405,-0.048469,0.661166 END:
KINECT_DATA POSITION:21.394974,-0.787456,-11.616194 HEAD_JOINT1:0.984863,0.169732,-0.000000,0.035168 LARM_JOINT2:0.939663,0.000000,-0.225575,-0.257195 LARM_JOINT3:0.974255,0.000000,-0.202541,0.099021 LLEG_JOINT2:0.999052,0.018828,0.000000,0.039261 LLEG_JOINT4:0.995144,0.091569,0.000000,-0.036091 RARM_JOINT2:0.794135,0.000000,-0.031885,0.606904 RARM_JOINT3:0.977439,0.000000,0.154798,0.143702 RLEG_JOINT2:0.999771,0.015971,0.000000,-0.014210 RLEG_JOINT4:0.995314,0.092175,0.000000,0.029228 WAIST:1.000000,-0.000000,0.000600,0.000341 WAIST_JOINT0:0.999571,0.000000,-0.029287,0.001009 WAIST_JOINT1:0.997771,0.066179,0.000000,-0.008566 END:
KINECT_DATA_Sensor  AnkleLeft:0.078118,0.721349,-0.077824,-0.683737 AnkleRight:0.088678,0.717295,0.063630,0.688168 ElbowLeft:0.446296,-0.625183,0.164364,0.618831 ElbowRight:0.012690,0.869197,0.166283,0.465495 FootLeft:0.000000,0.000000,0.000000,0.000000 FootRight:0.000000,0.000000,0.000000,0.000000 HandLeft:0.197934,0.260154,-0.570107,0.753737 HandRight:0.057497,0.745268,-0.033377,0.663442 HandTipLeft:0.000000,0.000000,0.000000,0.000000 HandTipRight:0.000000,0.000000,0.000000,0.000000 Head:0.000000,0.000000,0.000000,0.000000 HipLeft:0.122353,-0.679678,0.703437,-0.168056 HipRight:-0.118923,0.678668,0.703602,-0.173814 KneeLeft:-0.014651,0.706242,-0.041330,-0.706611 KneeRight:0.001488,0.707851,0.021099,0.706045 Neck:0.027450,-0.010410,0.996207,-0.081907 ShoulderLeft:-0.014936,0.778626,-0.620454,0.092493 ShoulderRight:0.021100,0.785488,0.616630,-0.048280 SpineBase:-0.000973,-0.008362,0.999093,-0.041737 SpineMid:0.012999,-0.008945,0.999009,-0.041616 SpineShoulder:0.027327,-0.010023,0.997728,-0.060757 ThumbLeft:0.000000,0.000000,0.000000,0.000000 ThumbRight:0.000000,0.000000,0.000000,0.000000 WristLeft:0.204919,0.283484,-0.528910,0.773240 WristRight:-0.079432,0.738588,-0.050083,0.667586 END:
KINECT_DATA POSITION:21.413059,-0.784233,-11.625385 HEAD_JOINT1:0.984959,0.169182,-0.000000,0.035132 LARM_JOINT2:0.939630,0.000000,-0.226984,-0.256075 LARM_JOINT3:0.974115,0.000000,-0.204311,0.096730 LLEG_JOINT2:0.999066,0.018583,0.000000,0.039002 LLEG_JOINT4:0.995293,0.090575,0.000000,-0.034470 RARM_JOINT2:0.797083,0.000000,-0.028030,0.603219 RARM_JOINT3:0.977283,0.000000,0.150339,0.149388 RLEG_JOINT2:0.999760,0.016699,0.000000,-0.014194 RLEG_JOINT4:0.995570,0.089297,0.000000,0.029437 WAIST:1.000000,-0.000000,0.000396,0.000413 WAIST_JOINT0:0.999361,0.000000,-0.035724,-0.000992 WAIST_JOINT1:0.997821,0.065419,0.000000,-0.008595 END:
KINECT_DATA_Sensor  AnkleLeft:0.078413,0.740842,-0.075841,-0.662761 AnkleRight:0.087141,0.715116,0.062195,0.690759 ElbowLeft:0.447572,-0.627030,0.164497,0.615998 ElbowRight:0.009212,0.874613,0.168541,0.454491 FootLeft:0.000000,0.000000,0.000000,0.000000 FootRight:0.000000,0.000000,0.000000,0.000000 HandLeft:-0.089057,-0.384053,0.595877,-0.699645 HandRight:0.070375,0.756895,-0.036027,0.648737 HandTipLeft:0.000000,0.000000,0.000000,0.000000 HandTipRight:0.000000,0.000000,0.000000,0.000000 Head:0.000000,0.000000,0.000000,0.000000 HipLeft:0.122408,-0.679684,0.703493,-0.167760 HipRight:-0.118789,0.678826,0.703623,-0.173201 KneeLeft:-0.014700,0.706400,-0.041021,-0.706471 KneeRight:0.002069,0.707679,0.021552,0.706202 Neck:0.033168,-0.010790,0.996112,-0.080891 ShoulderLeft:-0.016479,0.779170,-0.619461,0.094292 ShoulderRight:0.026879,0.786602,0.615510,-0.041018 SpineBase:-0.000749,-0.008218,0.999108,-0.041403 SpineMid:0.015963,-0.008910,0.998981,-0.041260 SpineShoulder:0.033061,-0.010275,0.997597,-0.060011 ThumbLeft:0.000000,0.000000,0.000000,0.000000 ThumbRight:0.000000,0.000000,0.000000,0.000000 WristLeft:0.107952,0.412867,-0.557380,0.712190 WristRight:-0.080883,0.750579,-0.048837,0.653991 END:
KINECT_DATA POSITION:21.445217,-0.778516,-11.642445 HEAD_JOINT1:0.984628,0.170657,-0.000000,0.037206 LARM_JOINT2:0.939382,0.000000,-0.228879,-0.255297 LARM_JOINT3:0.974312,0.000000,-0.204033,0.095329 LLEG_JOINT2:0.999095,0.018517,0.000000,0.038296 LLEG_JOINT4:0.995047,0.092648,0.000000,-0.036012 RARM_JOINT2:0.795700,0.000000,-0.028101,0.605039 RARM_JOINT3:0.977448,0.000000,0.150719,0.147914 RLEG_JOINT2:0.999752,0.016612,0.000000,-0.014863 RLEG_JOINT4:0.995490,0.089835,0.000000,0.030490 WAIST:1.000000,0.000000,-0.000179,0.000689 WAIST_JOINT0:0.999253,0.000000,-0.038645,0.000363 WAIST_JOINT1:0.997922,0.063792,0.000000,-0.009041 END:
KINECT_DATA_Sensor  AnkleLeft:0.079992,0.730614,-0.076988,-0.673704 AnkleRight:0.085321,0.685437,0.065565,0.720137 ElbowLeft:0.449058,-0.629427,0.163592,0.612704 ElbowRight:0.008516,0.873554,0.165980,0.457473 FootLeft:0.000000,0.000000,0.000000,0.000000 FootRight:0.000000,0.000000,0.000000,0.000000 HandLeft:0.093905,0.373814,-0.596273,0.704204 HandRight:0.065901,0.711511,-0.039220,0.698477 HandTipLeft:0.000000,0.000000,0.000000,0.000000 HandTipRight:0.000000,0.000000,0.000000,0.000000 Head:0.000000,0.000000,0.000000,0.000000 HipLeft:0.123210,-0.679610,0.703535,-0.167297 HipRight:-0.118870,0.679244,0.703427,-0.172302 KneeLeft:-0.014467,0.706785,-0.040661,-0.706110 KneeRight:0.001743,0.707300,0.021768,0.706576 Neck:0.036058,-0.011073,0.996160,-0.079005 ShoulderLeft:-0.019022,0.779244,-0.619176,0.095070 ShoulderRight:0.028008,0.788167,0.613708,-0.037042 SpineBase:-0.000216,-0.008322,0.999144,-0.040512 SpineMid:0.017668,-0.009046,0.998988,-0.040357 SpineShoulder:0.035959,-0.010484,0.997588,-0.058437 ThumbLeft:0.000000,0.000000,0.000000,0.000000 ThumbRight:0.000000,0.000000,0.000000,0.000000 WristLeft:0.112434,0.403080,-0.556680,0.717630 WristRight:-0.076870,0.692519,-0.055654,0.715130 END:
