EastLYD/RoboCupatHomeSim/InteractiveCleanUp/JapanOpen2016/Motion_Data/File15.dat
KINECT_DATA POSITION:32.246284,-0.111388,-6.560969 HEAD_JOINT1:0.978043,0.157558,-0.000000,0.136405 LARM_JOINT2:0.817164,0.000000,-0.066021,-0.572611 LARM_JOINT3:0.955586,0.000000,-0.210355,-0.206412 LLEG_JOINT2:0.997022,0.044963,0.000000,0.062659 LLEG_JOINT4:0.995524,0.081971,0.000000,-0.047036 RARM_JOINT2:0.766012,0.000000,0.004213,0.642813 RARM_JOINT3:0.957533,0.000000,0.229750,0.174197 RLEG_JOINT2:0.999790,0.003270,0.000000,-0.020242 RLEG_JOINT4:0.993334,0.111385,0.000000,0.029677 WAIST:0.999889,0.000000,-0.012933,-0.007343 WAIST_JOINT0:0.999591,0.000000,-0.026280,0.011296 WAIST_JOINT1:0.997402,0.071498,0.000000,-0.008826 END:
KINECT_DATA_Sensor  AnkleLeft:0.082391,0.706115,-0.096266,-0.696668 AnkleRight:0.084608,0.700345,0.077175,0.704558 ElbowLeft:-0.045566,0.924340,-0.148062,-0.348709 ElbowRight:0.007484,0.849788,0.123132,0.512487 FootLeft:0.000000,0.000000,0.000000,0.000000 FootRight:0.000000,0.000000,0.000000,0.000000 HandLeft:-0.063674,0.900169,0.176244,-0.393166 HandRight:-0.027608,0.915062,-0.223460,0.334613 HandTipLeft:0.000000,0.000000,0.000000,0.000000 HandTipRight:0.000000,0.000000,0.000000,0.000000 Head:0.000000,0.000000,0.000000,0.000000 HipLeft:0.120324,-0.682989,0.699568,-0.172200 HipRight:-0.110013,0.672509,0.711469,-0.171581 KneeLeft:-0.008119,0.716559,-0.070775,-0.693879 KneeRight:-0.016962,0.698040,0.021980,0.715520 Neck:0.025408,-0.017886,0.995690,-0.087382 ShoulderLeft:-0.002580,0.788241,-0.609038,0.087987 ShoulderRight:0.031055,0.797622,0.600662,-0.045167 SpineBase:0.012978,-0.012780,0.998736,-0.046849 SpineMid:0.019056,-0.013065,0.998638,-0.046771 SpineShoulder:0.025346,-0.015498,0.997359,-0.066273 ThumbLeft:0.000000,0.000000,0.000000,0.000000 ThumbRight:0.000000,0.000000,0.000000,0.000000 WristLeft:-0.132386,0.894954,0.137565,-0.403245 WristRight:-0.154425,0.920236,-0.095767,0.346622 END:
KINECT_DATA POSITION:32.247089,-0.123283,-6.535530 HEAD_JOINT1:0.978001,0.157829,-0.000000,0.136395 LARM_JOINT2:0.817168,0.000000,-0.065721,-0.572640 LARM_JOINT3:0.956365,0.000000,-0.207809,-0.205383 LLEG_JOINT2:0.997034,0.044672,0.000000,0.062677 LLEG_JOINT4:0.995482,0.081777,0.000000,-0.048251 RARM_JOINT2:0.766392,0.000000,0.004341,0.642358 RARM_JOINT3:0.957428,0.000000,0.228612,0.176262 RLEG_JOINT2:0.999781,0.003641,0.000000,-0.020591 RLEG_JOINT4:0.993453,0.110404,0.000000,0.029375 WAIST:0.999887,0.000000,-0.013091,-0.007446 WAIST_JOINT0:0.999586,0.000000,-0.026467,0.011278 WAIST_JOINT1:0.997414,0.071328,0.000000,-0.008844 END:
KINECT_DATA_Sensor  AnkleLeft:0.084198,0.715280,-0.093935,-0.687358 AnkleRight:0.083671,0.700426,0.077265,0.704579 ElbowLeft:-0.045463,0.924426,-0.147984,-0.348527 ElbowRight:0.007059,0.850284,0.123600,0.511556 FootLeft:0.000000,0.000000,0.000000,0.000000 FootRight:0.000000,0.000000,0.000000,0.000000 HandLeft:-0.052225,0.885063,0.168977,-0.430561 HandRight:-0.036223,0.933515,-0.224226,0.277417 HandTipLeft:0.000000,0.000000,0.000000,0.000000 HandTipRight:0.000000,0.000000,0.000000,0.000000 Head:0.000000,0.000000,0.000000,0.000000 HipLeft:0.120505,-0.683074,0.699491,-0.172052 HipRight:-0.109988,0.672490,0.711565,-0.171272 KneeLeft:-0.008277,0.716671,-0.070506,-0.693789 KneeRight:-0.017011,0.697914,0.022563,0.715623 Neck:0.025555,-0.018034,0.995698,-0.087222 ShoulderLeft:-0.002850,0.788300,-0.608957,0.088012 ShoulderRight:0.030976,0.797794,0.600455,-0.044931 SpineBase:0.013142,-0.012862,0.998744,-0.046610 SpineMid:0.019211,-0.013146,0.998646,-0.046531 SpineShoulder:0.025495,-0.015594,0.997365,-0.066100 ThumbLeft:0.000000,0.000000,0.000000,0.000000 ThumbRight:0.000000,0.000000,0.000000,0.000000 WristLeft:-0.126413,0.877508,0.143100,-0.439911 WristRight:-0.160160,0.939728,-0.086178,0.289539 END:
KINECT_DATA POSITION:32.244949,-0.122114,-6.540120 HEAD_JOINT1:0.977868,0.158308,-0.000000,0.136795 LARM_JOINT2:0.817249,0.000000,-0.065589,-0.572540 LARM_JOINT3:0.956594,0.000000,-0.205332,-0.206799 LLEG_JOINT2:0.997009,0.045102,0.000000,0.062760 LLEG_JOINT4:0.995541,0.081528,0.000000,-0.047449 RARM_JOINT2:0.766305,0.000000,0.004333,0.642462 RARM_JOINT3:0.957825,0.000000,0.226839,0.176398 RLEG_JOINT2:0.999776,0.003317,0.000000,-0.020885 RLEG_JOINT4:0.993204,0.112460,0.000000,0.029969 WAIST:0.999884,0.000000,-0.013345,-0.007373 WAIST_JOINT0:0.999585,0.000000,-0.026609,0.011028 WAIST_JOINT1:0.997429,0.071077,0.000000,-0.009110 END:
KINECT_DATA_Sensor  AnkleLeft:0.083630,0.715498,-0.094755,-0.687088 AnkleRight:0.085220,0.700138,0.078148,0.704583 ElbowLeft:-0.045546,0.924668,-0.147891,-0.347913 ElbowRight:0.006841,0.850117,0.123528,0.511855 FootLeft:0.000000,0.000000,0.000000,0.000000 FootRight:0.000000,0.000000,0.000000,0.000000 HandLeft:-0.045747,0.891957,0.167405,-0.417486 HandRight:-0.028020,0.933007,-0.220799,0.282772 HandTipLeft:0.000000,0.000000,0.000000,0.000000 HandTipRight:0.000000,0.000000,0.000000,0.000000 Head:0.000000,0.000000,0.000000,0.000000 HipLeft:0.120702,-0.683023,0.699506,-0.172052 HipRight:-0.109804,0.672590,0.711552,-0.171054 KneeLeft:-0.008104,0.716852,-0.070920,-0.693561 KneeRight:-0.017390,0.697740,0.022499,0.715786 Neck:0.025715,-0.018240,0.995721,-0.086869 ShoulderLeft:-0.002986,0.788462,-0.608763,0.087902 ShoulderRight:0.031045,0.797657,0.600659,-0.044598 SpineBase:0.013383,-0.012965,0.998744,-0.046515 SpineMid:0.019415,-0.013246,0.998645,-0.046435 SpineShoulder:0.025658,-0.015752,0.997373,-0.065890 ThumbLeft:0.000000,0.000000,0.000000,0.000000 ThumbRight:0.000000,0.000000,0.000000,0.000000 WristLeft:-0.128150,0.883676,0.141218,-0.427494 WristRight:-0.160290,0.938089,-0.087222,0.294428 END:
KINECT_DATA POSITION:32.237320,-0.122576,-6.561637 HEAD_JOINT1:0.977711,0.158738,-0.000000,0.137419 LARM_JOINT2:0.817343,0.000000,-0.064320,-0.572550 LARM_JOINT3:0.956777,0.000000,-0.203147,-0.208106 LLEG_JOINT2:0.996971,0.046056,0.000000,0.062665 LLEG_JOINT4:0.995783,0.079441,0.000000,-0.045879 RARM_JOINT2:0.765556,0.000000,0.004532,0.643354 RARM_JOINT3:0.959275,0.000000,0.223248,0.173064 RLEG_JOINT2:0.999773,0.003308,0.000000,-0.021044 RLEG_JOINT4:0.993192,0.112324,0.000000,0.030865 WAIST:0.999877,0.000000,-0.013867,-0.007315 WAIST_JOINT0:0.999561,0.000000,-0.027724,0.010438 WAIST_JOINT1:0.997455,0.070688,0.000000,-0.009297 END:
KINECT_DATA_Sensor  AnkleLeft:0.081742,0.716418,-0.095049,-0.686315 AnkleRight:0.085657,0.699400,0.077470,0.705337 ElbowLeft:-0.045189,0.924427,-0.148099,-0.348510 ElbowRight:0.007131,0.850666,0.122359,0.511219 FootLeft:0.000000,0.000000,0.000000,0.000000 FootRight:0.000000,0.000000,0.000000,0.000000 HandLeft:0.018321,0.719433,0.168467,-0.673571 HandRight:-0.024728,0.936397,-0.209780,0.280252 HandTipLeft:0.000000,0.000000,0.000000,0.000000 HandTipRight:0.000000,0.000000,0.000000,0.000000 Head:0.000000,0.000000,0.000000,0.000000 HipLeft:0.121118,-0.682971,0.699466,-0.172130 HipRight:-0.109557,0.672748,0.711553,-0.170587 KneeLeft:-0.007444,0.717237,-0.071570,-0.693105 KneeRight:-0.017458,0.697371,0.022574,0.716142 Neck:0.026910,-0.018413,0.995725,-0.086423 ShoulderLeft:-0.003779,0.788550,-0.608571,0.088407 ShoulderRight:0.031760,0.797042,0.601530,-0.043331 SpineBase:0.013896,-0.013014,0.998747,-0.046292 SpineMid:0.020269,-0.013310,0.998637,-0.046208 SpineShoulder:0.026855,-0.015884,0.997364,-0.065511 ThumbLeft:0.000000,0.000000,0.000000,0.000000 ThumbRight:0.000000,0.000000,0.000000,0.000000 WristLeft:-0.077433,0.704947,0.174102,-0.683186 WristRight:-0.158698,0.939372,-0.086305,0.291457 END:
KINECT_DATA POSITION:32.185703,-0.122213,-6.640291 HEAD_JOINT1:0.977634,0.159273,-0.000000,0.137344 LARM_JOINT2:0.817444,0.000000,-0.063953,-0.572447 LARM_JOINT3:0.956351,0.000000,-0.206155,-0.207105 LLEG_JOINT2:0.996956,0.045674,0.000000,0.063189 LLEG_JOINT4:0.995727,0.079330,0.000000,-0.047272 RARM_JOINT2:0.765074,0.000000,0.004710,0.643926 RARM_JOINT3:0.959091,0.000000,0.223607,0.173622 RLEG_JOINT2:0.999782,0.002271,0.000000,-0.020766 RLEG_JOINT4:0.992987,0.113925,0.000000,0.031584 WAIST:0.999870,0.000000,-0.014440,-0.007145 WAIST_JOINT0:0.999546,0.000000,-0.028231,0.010489 WAIST_JOINT1:0.997481,0.070274,0.000000,-0.009606 END:
KINECT_DATA_Sensor  AnkleLeft:0.081816,0.716672,-0.094262,-0.686150 AnkleRight:0.086908,0.698871,0.076977,0.705762 ElbowLeft:-0.045564,0.924191,-0.148013,-0.349122 ElbowRight:0.006991,0.850270,0.121564,0.512069 FootLeft:0.000000,0.000000,0.000000,0.000000 FootRight:0.000000,0.000000,0.000000,0.000000 HandLeft:-0.033366,-0.626813,-0.173936,0.758774 HandRight:0.003332,0.890496,-0.218281,0.399199 HandTipLeft:0.000000,0.000000,0.000000,0.000000 HandTipRight:0.000000,0.000000,0.000000,0.000000 Head:0.000000,0.000000,0.000000,0.000000 HipLeft:0.121651,-0.682859,0.699469,-0.172187 HipRight:-0.109316,0.672982,0.711473,-0.170152 KneeLeft:-0.008249,0.717611,-0.071776,-0.692686 KneeRight:-0.017878,0.696988,0.021538,0.716536 Neck:0.027440,-0.018495,0.995748,-0.085970 ShoulderLeft:-0.004543,0.788576,-0.608496,0.088657 ShoulderRight:0.031658,0.797101,0.601498,-0.042748 SpineBase:0.014446,-0.013163,0.998749,-0.046024 SpineMid:0.020805,-0.013456,0.998637,-0.045939 SpineShoulder:0.027382,-0.015985,0.997374,-0.065121 ThumbLeft:0.000000,0.000000,0.000000,0.000000 ThumbRight:0.000000,0.000000,0.000000,0.000000 WristLeft:0.054355,-0.608362,-0.182735,0.770421 WristRight:-0.146272,0.893575,-0.106058,0.410949 END:
KINECT_DATA POSITION:32.164089,-0.118365,-6.665695 HEAD_JOINT1:0.977739,0.157762,-0.000000,0.138335 LARM_JOINT2:0.816942,0.000000,-0.066309,-0.572896 LARM_JOINT3:0.955966,0.000000,-0.211806,-0.203143 LLEG_JOINT2:0.997003,0.044181,0.000000,0.063507 LLEG_JOINT4:0.995728,0.079325,0.000000,-0.047255 RARM_JOINT2:0.765151,0.000000,0.004066,0.643838 RARM_JOINT3:0.957570,0.000000,0.229455,0.174385 RLEG_JOINT2:0.999783,0.000918,0.000000,-0.020833 RLEG_JOINT4:0.992983,0.113826,0.000000,0.032081 WAIST:0.999871,0.000000,-0.014377,-0.007091 WAIST_JOINT0:0.999580,0.000000,-0.026671,0.011365 WAIST_JOINT1:0.997513,0.069831,0.000000,-0.009535 END:
KINECT_DATA_Sensor  AnkleLeft:0.081020,0.720606,-0.093025,-0.682282 AnkleRight:0.086266,0.699785,0.075552,0.705089 ElbowLeft:-0.047158,0.924911,-0.146532,-0.347626 ElbowRight:0.006758,0.849144,0.121604,0.513927 FootLeft:0.000000,0.000000,0.000000,0.000000 FootRight:0.000000,0.000000,0.000000,0.000000 HandLeft:-0.005932,0.688931,0.193139,-0.698596 HandRight:0.003438,0.852451,-0.233874,0.467566 HandTipLeft:0.000000,0.000000,0.000000,0.000000 HandTipRight:0.000000,0.000000,0.000000,0.000000 Head:0.000000,0.000000,0.000000,0.000000 HipLeft:0.121840,-0.682854,0.699489,-0.171992 HipRight:-0.109614,0.673038,0.711408,-0.170010 KneeLeft:-0.009560,0.717524,-0.070970,-0.692843 KneeRight:-0.018859,0.697030,0.020604,0.716497 Neck:0.025783,-0.018223,0.995836,-0.085521 ShoulderLeft:-0.003097,0.787787,-0.609806,0.086711 ShoulderRight:0.031012,0.797261,0.601278,-0.043338 SpineBase:0.014380,-0.013086,0.998766,-0.045710 SpineMid:0.019949,-0.013341,0.998670,-0.045636 SpineShoulder:0.025720,-0.015769,0.997448,-0.064715 ThumbLeft:0.000000,0.000000,0.000000,0.000000 ThumbRight:0.000000,0.000000,0.000000,0.000000 WristLeft:0.070000,-0.672113,-0.177667,0.715401 WristRight:-0.138498,0.858345,-0.116713,0.480041 END:
KINECT_DATA POSITION:32.193680,-0.110307,-6.669199 HEAD_JOINT1:0.979097,0.152703,-0.000000,0.134356 LARM_JOINT2:0.815773,0.000000,-0.065473,-0.574655 LARM_JOINT3:0.956651,0.000000,-0.210251,-0.201527 LLEG_JOINT2:0.997024,0.045205,0.000000,0.062452 LLEG_JOINT4:0.995740,0.077968,0.000000,-0.049213 RARM_JOINT2:0.766694,0.000000,0.016851,0.641792 RARM_JOINT3:0.955662,0.000000,0.237476,0.174111 RLEG_JOINT2:0.999761,0.000665,0.000000,-0.021837 RLEG_JOINT4:0.992916,0.114363,0.000000,0.032239 WAIST:0.999898,0.000000,-0.012606,-0.006752 WAIST_JOINT0:0.999647,0.000000,-0.023411,0.012577 WAIST_JOINT1:0.997706,0.067128,0.000000,-0.008748 END:
KINECT_DATA_Sensor  AnkleLeft:-0.080107,-0.698857,0.093176,0.704628 AnkleRight:0.086082,0.701659,0.076190,0.703179 ElbowLeft:-0.048956,0.922527,-0.144873,-0.354344 ElbowRight:-0.003391,0.857436,0.116534,0.501211 FootLeft:0.000000,0.000000,0.000000,0.000000 FootRight:0.000000,0.000000,0.000000,0.000000 HandLeft:-0.064473,0.881517,0.176072,-0.433323 HandRight:-0.082891,0.917961,-0.238130,0.306220 HandTipLeft:0.000000,0.000000,0.000000,0.000000 HandTipRight:0.000000,0.000000,0.000000,0.000000 Head:0.000000,0.000000,0.000000,0.000000 HipLeft:0.121642,-0.683005,0.699741,-0.170501 HipRight:-0.111882,0.673213,0.710809,-0.170343 KneeLeft:-0.008190,0.716318,-0.071227,-0.694081 KneeRight:-0.019530,0.698249,0.020882,0.715284 Neck:0.022693,-0.016771,0.996216,-0.082199 ShoulderLeft:-0.004054,0.787996,-0.609977,0.083507 ShoulderRight:0.025958,0.798476,0.599778,-0.045047 SpineBase:0.012614,-0.012436,0.998854,-0.044463 SpineMid:0.017516,-0.012654,0.998780,-0.044401 SpineShoulder:0.022604,-0.014803,0.997697,-0.062219 ThumbLeft:0.000000,0.000000,0.000000,0.000000 ThumbRight:0.000000,0.000000,0.000000,0.000000 WristLeft:-0.130766,0.875449,0.143019,-0.442758 WristRight:-0.162508,0.927076,-0.099377,0.322871 END:
KINECT_DATA POSITION:32.445084,-0.142594,-6.515384 HEAD_JOINT1:0.980476,0.150440,-0.000000,0.126624 LARM_JOINT2:0.812919,0.000000,-0.064142,-0.578834 LARM_JOINT3:0.958632,0.000000,-0.208049,-0.194269 LLEG_JOINT2:0.997335,0.045637,0.000000,0.056914 LLEG_JOINT4:0.996119,0.077203,0.000000,-0.042272 RARM_JOINT2:0.764565,0.000000,0.111585,0.634814 RARM_JOINT3:0.956566,0.000000,0.269564,0.110978 RLEG_JOINT2:0.999634,0.003959,0.000000,-0.026746 RLEG_JOINT4:0.993071,0.111828,0.000000,0.036107 WAIST:0.999966,0.000000,-0.006767,-0.004662 WAIST_JOINT0:0.999774,0.000000,-0.015423,0.014651 WAIST_JOINT1:0.998043,0.062094,0.000000,-0.007393 END:
KINECT_DATA_Sensor  AnkleLeft:0.079960,0.709968,-0.093271,-0.693435 AnkleRight:0.086979,0.705855,0.076411,0.698831 ElbowLeft:-0.051227,0.919166,-0.142340,-0.363661 ElbowRight:-0.065737,0.881989,0.075299,0.460548 FootLeft:0.000000,0.000000,0.000000,0.000000 FootRight:0.000000,0.000000,0.000000,0.000000 HandLeft:0.011817,-0.649310,-0.171263,0.740895 HandRight:-0.298976,0.890083,-0.163504,0.302707 HandTipLeft:0.000000,0.000000,0.000000,0.000000 HandTipRight:0.000000,0.000000,0.000000,0.000000 Head:0.000000,0.000000,0.000000,0.000000 HipLeft:0.120768,-0.682619,0.701159,-0.166800 HipRight:-0.119667,0.674409,0.708000,-0.172012 KneeLeft:-0.004993,0.712168,-0.069183,-0.698574 KneeRight:-0.019249,0.702244,0.025123,0.711233 Neck:0.014959,-0.012393,0.996916,-0.076036 ShoulderLeft:-0.003466,0.787349,-0.611879,0.075328 ShoulderRight:0.016337,0.799935,0.597837,-0.049280 SpineBase:0.006775,-0.008704,0.999097,-0.041039 SpineMid:0.010760,-0.008868,0.999062,-0.041004 SpineShoulder:0.014793,-0.012018,0.998161,-0.057548 ThumbLeft:0.000000,0.000000,0.000000,0.000000 ThumbRight:0.000000,0.000000,0.000000,0.000000 WristLeft:0.070882,-0.636641,-0.184532,0.745394 WristRight:-0.209806,0.917813,-0.141906,0.305717 END:
KINECT_DATA POSITION:32.691502,-0.167362,-6.334233 HEAD_JOINT1:0.981621,0.149560,-0.000000,0.118542 LARM_JOINT2:0.811937,0.000000,-0.061330,-0.580514 LARM_JOINT3:0.959976,0.000000,-0.206761,-0.188936 LLEG_JOINT2:0.997619,0.047619,0.000000,0.049885 LLEG_JOINT4:0.996449,0.075827,0.000000,-0.036611 RARM_JOINT2:0.767608,0.000000,0.230111,0.598186 RARM_JOINT3:0.961582,0.000000,0.267242,0.062790 RLEG_JOINT2:0.999504,0.006567,0.000000,-0.030804 RLEG_JOINT4:0.993059,0.111843,0.000000,0.036388 WAIST:0.999989,0.000000,-0.004202,-0.002195 WAIST_JOINT0:0.999740,-0.000000,0.005542,0.022099 WAIST_JOINT1:0.998377,0.056711,0.000000,-0.005132 END:
KINECT_DATA_Sensor  AnkleLeft:0.082938,0.730881,-0.091629,-0.671222 AnkleRight:0.088876,0.716964,0.078148,0.686991 ElbowLeft:-0.055238,0.916033,-0.143948,-0.370284 ElbowRight:-0.156128,0.869048,0.027592,0.468635 FootLeft:0.000000,0.000000,0.000000,0.000000 FootRight:0.000000,0.000000,0.000000,0.000000 HandLeft:0.013029,-0.585425,-0.169546,0.792693 HandRight:-0.352740,0.782546,0.132346,-0.495662 HandTipLeft:0.000000,0.000000,0.000000,0.000000 HandTipRight:0.000000,0.000000,0.000000,0.000000 Head:0.000000,0.000000,0.000000,0.000000 HipLeft:0.121220,-0.681719,0.702679,-0.163729 HipRight:-0.124580,0.676546,0.705503,-0.170382 KneeLeft:-0.000178,0.710249,-0.067391,-0.700717 KneeRight:-0.018568,0.703985,0.028055,0.709417 Neck:-0.005678,-0.005752,0.997466,-0.070679 ShoulderLeft:0.001546,0.785740,-0.615693,0.059429 ShoulderRight:-0.005351,0.805144,0.589425,-0.065520 SpineBase:0.004178,-0.004851,0.999290,-0.037124 SpineMid:-0.000773,-0.004667,0.999299,-0.037148 SpineShoulder:-0.005877,-0.006750,0.998589,-0.052337 ThumbLeft:0.000000,0.000000,0.000000,0.000000 ThumbRight:0.000000,0.000000,0.000000,0.000000 WristLeft:0.064108,-0.574619,-0.186315,0.794349 WristRight:-0.316720,0.795488,0.125865,-0.501045 END:
KINECT_DATA POSITION:32.983185,-0.218913,-6.218839 HEAD_JOINT1:0.982530,0.150263,-0.000000,0.109801 LARM_JOINT2:0.809169,0.000000,-0.055641,-0.584936 LARM_JOINT3:0.960053,0.000000,-0.209867,-0.185077 LLEG_JOINT2:0.997937,0.047632,0.000000,0.043052 LLEG_JOINT4:0.997004,0.072685,0.000000,-0.026452 RARM_JOINT2:0.767432,0.000000,0.321664,0.554600 RARM_JOINT3:0.968963,0.000000,0.246825,0.013727 RLEG_JOINT2:0.999236,0.009331,0.000000,-0.037958 RLEG_JOINT4:0.992969,0.110444,0.000000,0.042601 WAIST:0.999995,0.000000,0.003022,-0.000281 WAIST_JOINT0:0.998957,-0.000000,0.033253,0.031294 WAIST_JOINT1:0.998541,0.053996,0.000000,-0.001105 END:
KINECT_DATA_Sensor  AnkleLeft:-0.071983,-0.684225,0.097410,0.719143 AnkleRight:0.091127,0.731373,0.077635,0.671389 ElbowLeft:-0.055003,0.906476,-0.145400,-0.392600 ElbowRight:-0.223980,0.855700,-0.018045,0.466139 FootLeft:0.000000,0.000000,0.000000,0.000000 FootRight:0.000000,0.000000,0.000000,0.000000 HandLeft:0.022350,-0.622716,-0.176114,0.762043 HandRight:-0.383109,0.762070,0.179617,-0.490117 HandTipLeft:0.000000,0.000000,0.000000,0.000000 HandTipRight:0.000000,0.000000,0.000000,0.000000 Head:0.000000,0.000000,0.000000,0.000000 HipLeft:0.118736,-0.681366,0.704363,-0.159734 HipRight:-0.133097,0.677362,0.702631,-0.172558 KneeLeft:0.003761,0.704975,-0.063908,-0.706336 KneeRight:-0.020531,0.708922,0.033582,0.704188 Neck:-0.033111,0.001614,0.997099,-0.068513 ShoulderLeft:0.006000,0.782851,-0.620569,0.044743 ShoulderRight:-0.036536,0.810757,0.576811,-0.092884 SpineBase:-0.002994,0.000119,0.999412,-0.034160 SpineMid:-0.017927,0.000629,0.999256,-0.034155 SpineShoulder:-0.033304,-0.000402,0.998226,-0.049352 ThumbLeft:0.000000,0.000000,0.000000,0.000000 ThumbRight:0.000000,0.000000,0.000000,0.000000 WristLeft:0.084447,-0.609277,-0.177579,0.768190 WristRight:-0.362583,0.770227,0.165087,-0.498027 END:
KINECT_DATA POSITION:33.124584,-0.230142,-6.221151 HEAD_JOINT1:0.982996,0.153193,-0.000000,0.101243 LARM_JOINT2:0.806117,0.000000,-0.052116,-0.589457 LARM_JOINT3:0.959495,0.000000,-0.213246,-0.184109 LLEG_JOINT2:0.998194,0.045371,0.000000,0.039362 LLEG_JOINT4:0.996919,0.075270,0.000000,-0.022061 RARM_JOINT2:0.764895,0.000000,0.381774,0.518829 RARM_JOINT3:0.977266,0.000000,0.212013,-0.001054 RLEG_JOINT2:0.999055,0.011221,0.000000,-0.041993 RLEG_JOINT4:0.992805,0.109068,0.000000,0.049414 WAIST:0.999930,-0.000000,0.011812,0.000882 WAIST_JOINT0:0.998236,-0.000000,0.048839,0.033753 WAIST_JOINT1:0.998615,0.052572,-0.000000,0.002186 END:
KINECT_DATA_Sensor  AnkleLeft:0.078988,0.730962,-0.092590,-0.671478 AnkleRight:0.093731,0.739040,0.075573,0.662814 ElbowLeft:-0.053452,0.898463,-0.145308,-0.410843 ElbowRight:-0.268489,0.859923,-0.045690,0.431693 FootLeft:0.000000,0.000000,0.000000,0.000000 FootRight:0.000000,0.000000,0.000000,0.000000 HandLeft:0.026063,-0.647024,-0.184302,0.739401 HandRight:-0.386573,0.742862,0.201818,-0.507924 HandTipLeft:0.000000,0.000000,0.000000,0.000000 HandTipRight:0.000000,0.000000,0.000000,0.000000 Head:0.000000,0.000000,0.000000,0.000000 HipLeft:0.113374,-0.681841,0.706172,-0.153495 HipRight:-0.140052,0.677286,0.700627,-0.175474 KneeLeft:-0.004439,-0.698620,0.060476,0.712919 KneeRight:-0.021566,0.715021,0.036753,0.697803 Neck:-0.048333,0.005524,0.996527,-0.067577 ShoulderLeft:0.011341,0.780574,-0.623999,0.034663 ShoulderRight:-0.051032,0.809705,0.574845,-0.106431 SpineBase:-0.011751,0.003081,0.999405,-0.032293 SpineMid:-0.029840,0.003665,0.999028,-0.032232 SpineShoulder:-0.048432,0.003999,0.997683,-0.047610 ThumbLeft:0.000000,0.000000,0.000000,0.000000 ThumbRight:0.000000,0.000000,0.000000,0.000000 WristLeft:0.097185,-0.630899,-0.172423,0.750195 WristRight:-0.375599,0.746888,0.183348,-0.517172 END:
KINECT_DATA POSITION:33.145992,-0.212491,-6.194150 HEAD_JOINT1:0.983565,0.152349,-0.000000,0.096904 LARM_JOINT2:0.805257,0.000000,-0.051494,-0.590686 LARM_JOINT3:0.959316,0.000000,-0.215115,-0.182863 LLEG_JOINT2:0.998199,0.045966,0.000000,0.038552 LLEG_JOINT4:0.997013,0.074673,0.000000,-0.019708 RARM_JOINT2:0.758354,0.000000,0.423613,0.495430 RARM_JOINT3:0.981966,0.000000,0.188691,-0.011751 RLEG_JOINT2:0.999007,0.012168,0.000000,-0.042865 RLEG_JOINT4:0.992805,0.108716,0.000000,0.050186 WAIST:0.999876,-0.000000,0.015735,0.001109 WAIST_JOINT0:0.998169,-0.000000,0.051114,0.032342 WAIST_JOINT1:0.998611,0.052540,-0.000000,0.004054 END:
KINECT_DATA_Sensor  AnkleLeft:-0.070738,-0.674249,0.099366,0.728362 AnkleRight:0.090357,0.710533,0.080460,0.693184 ElbowLeft:-0.053452,0.894427,-0.146014,-0.419312 ElbowRight:-0.296381,0.866650,-0.063775,0.396244 FootLeft:0.000000,0.000000,0.000000,0.000000 FootRight:0.000000,0.000000,0.000000,0.000000 HandLeft:-0.095959,0.878657,0.161194,-0.439055 HandRight:-0.404143,0.743301,0.217812,-0.486549 HandTipLeft:0.000000,0.000000,0.000000,0.000000 HandTipRight:0.000000,0.000000,0.000000,0.000000 Head:0.000000,0.000000,0.000000,0.000000 HipLeft:0.112021,-0.682039,0.706603,-0.151609 HipRight:-0.143838,0.676883,0.699735,-0.177516 KneeLeft:-0.005501,-0.695774,0.060447,0.715692 KneeRight:-0.021518,0.717744,0.037793,0.694947 Neck:-0.050106,0.006751,0.996407,-0.067948 ShoulderLeft:0.016401,0.779718,-0.625181,0.030323 ShoulderRight:-0.048136,0.806127,0.580281,-0.105430 SpineBase:-0.015651,0.004096,0.999373,-0.031480 SpineMid:-0.032681,0.004632,0.998962,-0.031406 SpineShoulder:-0.050122,0.005945,0.997599,-0.047423 ThumbLeft:0.000000,0.000000,0.000000,0.000000 ThumbRight:0.000000,0.000000,0.000000,0.000000 WristLeft:-0.159954,0.871751,0.118589,-0.447662 WristRight:-0.390816,0.747810,0.176034,-0.507006 END:
KINECT_DATA POSITION:33.178467,-0.199492,-6.159079 HEAD_JOINT1:0.983581,0.154947,-0.000000,0.092523 LARM_JOINT2:0.804177,0.000000,-0.049714,-0.592308 LARM_JOINT3:0.959370,0.000000,-0.213316,-0.184678 LLEG_JOINT2:0.998250,0.045286,0.000000,0.038019 LLEG_JOINT4:0.996917,0.075750,0.000000,-0.020454 RARM_JOINT2:0.751869,0.000000,0.505681,0.423060 RARM_JOINT3:0.994055,0.000000,0.100358,0.042220 RLEG_JOINT2:0.998989,0.012832,0.000000,-0.043079 RLEG_JOINT4:0.992955,0.107933,0.000000,0.048899 WAIST:0.999799,-0.000000,0.019993,0.001539 WAIST_JOINT0:0.998063,-0.000000,0.053330,0.032043 WAIST_JOINT1:0.998666,0.051280,-0.000000,0.005973 END:
KINECT_DATA_Sensor  AnkleLeft:-0.072258,-0.672724,0.098566,0.729730 AnkleRight:0.092454,0.741597,0.077721,0.659883 ElbowLeft:-0.053052,0.891688,-0.146734,-0.424909 ElbowRight:-0.376586,0.925219,0.043660,0.015715 FootLeft:0.000000,0.000000,0.000000,0.000000 FootRight:0.000000,0.000000,0.000000,0.000000 HandLeft:0.004276,-0.578288,-0.183950,0.794813 HandRight:-0.423146,0.803409,0.179890,-0.378313 HandTipLeft:0.000000,0.000000,0.000000,0.000000 HandTipRight:0.000000,0.000000,0.000000,0.000000 Head:0.000000,0.000000,0.000000,0.000000 HipLeft:0.110527,-0.682201,0.707171,-0.149315 HipRight:-0.147965,0.676712,0.698593,-0.179262 KneeLeft:-0.005324,-0.692666,0.059869,0.718750 KneeRight:-0.021072,0.720706,0.038020,0.691877 Neck:-0.052312,0.008512,0.996375,-0.066546 ShoulderLeft:0.016724,0.779249,-0.625865,0.027994 ShoulderRight:-0.050735,0.805525,0.580680,-0.106612 SpineBase:-0.019890,0.005553,0.999327,-0.030305 SpineMid:-0.035892,0.006038,0.998881,-0.030212 SpineShoulder:-0.052267,0.008020,0.997531,-0.046206 ThumbLeft:0.000000,0.000000,0.000000,0.000000 ThumbRight:0.000000,0.000000,0.000000,0.000000 WristLeft:0.088268,-0.558899,-0.178736,0.804918 WristRight:-0.370874,0.821991,0.093946,-0.421850 END:
KINECT_DATA POSITION:33.177570,-0.182397,-6.164861 HEAD_JOINT1:0.983900,0.154091,-0.000000,0.090537 LARM_JOINT2:0.803807,0.000000,-0.051349,-0.592669 LARM_JOINT3:0.959222,0.000000,-0.213263,-0.185502 LLEG_JOINT2:0.998351,0.044036,0.000000,0.036838 LLEG_JOINT4:0.996844,0.077233,0.000000,-0.018380 RARM_JOINT2:0.753081,0.000000,0.510606,0.414911 RARM_JOINT3:0.994148,0.000000,0.100621,0.039312 RLEG_JOINT2:0.998939,0.013833,0.000000,-0.043938 RLEG_JOINT4:0.992798,0.108402,0.000000,0.051007 WAIST:0.999730,-0.000000,0.023111,0.002431 WAIST_JOINT0:0.997926,-0.000000,0.055585,0.032466 WAIST_JOINT1:0.998631,0.051993,-0.000000,0.005779 END:
KINECT_DATA_Sensor  AnkleLeft:-0.071620,-0.671533,0.099642,0.730744 AnkleRight:0.094608,0.742419,0.077607,0.658666 ElbowLeft:-0.052926,0.891154,-0.146820,-0.426014 ElbowRight:-0.382714,0.922750,0.042534,0.015919 FootLeft:0.000000,0.000000,0.000000,0.000000 FootRight:0.000000,0.000000,0.000000,0.000000 HandLeft:-0.096400,0.892384,0.164380,-0.409068 HandRight:-0.409786,0.763161,0.225229,-0.446019 HandTipLeft:0.000000,0.000000,0.000000,0.000000 HandTipRight:0.000000,0.000000,0.000000,0.000000 Head:0.000000,0.000000,0.000000,0.000000 HipLeft:0.108233,-0.681756,0.708513,-0.146639 HipRight:-0.149630,0.676834,0.698040,-0.179573 KneeLeft:-0.004781,-0.690365,0.058762,0.721055 KneeRight:-0.020491,0.722901,0.038639,0.689566 Neck:-0.054752,0.008505,0.996167,-0.067691 ShoulderLeft:0.019944,0.778452,-0.626861,0.025713 ShoulderRight:-0.050558,0.805232,0.580831,-0.108076 SpineBase:-0.023025,0.006730,0.999271,-0.029714 SpineMid:-0.038637,0.007193,0.998789,-0.029605 SpineShoulder:-0.054652,0.008687,0.997371,-0.046778 ThumbLeft:0.000000,0.000000,0.000000,0.000000 ThumbRight:0.000000,0.000000,0.000000,0.000000 WristLeft:-0.165379,0.886211,0.108825,-0.418852 WristRight:-0.367374,0.779302,0.127515,-0.491391 END:
KINECT_DATA POSITION:33.177055,-0.177860,-6.175160 HEAD_JOINT1:0.983868,0.156271,-0.000000,0.087081 LARM_JOINT2:0.802747,0.000000,-0.051982,-0.594050 LARM_JOINT3:0.958843,0.000000,-0.215164,-0.185268 LLEG_JOINT2:0.998337,0.044127,0.000000,0.037105 LLEG_JOINT4:0.996817,0.077325,0.000000,-0.019388 RARM_JOINT2:0.761911,0.000000,0.466030,0.449786 RARM_JOINT3:0.987257,0.000000,0.159129,-0.000828 RLEG_JOINT2:0.998945,0.013762,0.000000,-0.043812 RLEG_JOINT4:0.993017,0.106987,0.000000,0.049712 WAIST:0.999689,-0.000000,0.024834,0.002239 WAIST_JOINT0:0.997478,-0.000000,0.062758,0.033148 WAIST_JOINT1:0.998659,0.051287,-0.000000,0.007019 END:
KINECT_DATA_Sensor  AnkleLeft:-0.072173,-0.667279,0.099272,0.734626 AnkleRight:0.092774,0.746415,0.077347,0.654428 ElbowLeft:-0.053429,0.890485,-0.145808,-0.427695 ElbowRight:-0.344549,0.888060,-0.051245,0.300015 FootLeft:0.000000,0.000000,0.000000,0.000000 FootRight:0.000000,0.000000,0.000000,0.000000 HandLeft:0.016427,-0.604578,-0.201681,0.770416 HandRight:-0.403875,0.720853,0.244358,-0.507489 HandTipLeft:0.000000,0.000000,0.000000,0.000000 HandTipRight:0.000000,0.000000,0.000000,0.000000 Head:0.000000,0.000000,0.000000,0.000000 HipLeft:0.107119,-0.682262,0.708507,-0.145127 HipRight:-0.151041,0.676852,0.697779,-0.179339 KneeLeft:-0.004894,-0.689099,0.058872,0.722256 KneeRight:-0.020655,0.724061,0.038597,0.688345 Neck:-0.062069,0.009826,0.995789,-0.066750 ShoulderLeft:0.018974,0.777892,-0.627669,0.023592 ShoulderRight:-0.061284,0.805492,0.577711,-0.116950 SpineBase:-0.024708,0.007762,0.999247,-0.028902 SpineMid:-0.043083,0.008292,0.998623,-0.028754 SpineShoulder:-0.061964,0.009904,0.996965,-0.046086 ThumbLeft:0.000000,0.000000,0.000000,0.000000 ThumbRight:0.000000,0.000000,0.000000,0.000000 WristLeft:0.095832,-0.585651,-0.172961,0.786075 WristRight:-0.392144,0.724615,0.186282,-0.535215 END:
KINECT_DATA POSITION:33.175972,-0.171441,-6.183445 HEAD_JOINT1:0.983983,0.156924,-0.000000,0.084572 LARM_JOINT2:0.801810,0.000000,-0.053560,-0.595173 LARM_JOINT3:0.959899,0.000000,-0.213290,-0.181935 LLEG_JOINT2:0.998381,0.043366,0.000000,0.036810 LLEG_JOINT4:0.996875,0.077145,0.000000,-0.016988 RARM_JOINT2:0.765225,0.000000,0.466286,0.443857 RARM_JOINT3:0.986535,0.000000,0.163539,0.002094 RLEG_JOINT2:0.998927,0.013863,0.000000,-0.044186 RLEG_JOINT4:0.992940,0.107029,0.000000,0.051137 WAIST:0.999639,-0.000000,0.026767,0.002329 WAIST_JOINT0:0.997103,-0.000000,0.068177,0.033734 WAIST_JOINT1:0.998664,0.051081,-0.000000,0.007763 END:
KINECT_DATA_Sensor  AnkleLeft:-0.069950,-0.664490,0.100180,0.737240 AnkleRight:0.093682,0.749053,0.076589,0.651366 ElbowLeft:-0.054024,0.890180,-0.144748,-0.428612 ElbowRight:-0.348972,0.887396,-0.048191,0.297363 FootLeft:0.000000,0.000000,0.000000,0.000000 FootRight:0.000000,0.000000,0.000000,0.000000 HandLeft:-0.104684,0.878778,0.166838,-0.434691 HandRight:-0.410966,0.736724,0.226268,-0.486977 HandTipLeft:0.000000,0.000000,0.000000,0.000000 HandTipRight:0.000000,0.000000,0.000000,0.000000 Head:0.000000,0.000000,0.000000,0.000000 HipLeft:0.106094,-0.682388,0.708770,-0.143998 HipRight:-0.152593,0.676740,0.697406,-0.179896 KneeLeft:-0.004588,-0.687685,0.058186,0.723659 KneeRight:-0.020871,0.725378,0.038821,0.686938 Neck:-0.067828,0.010795,0.995422,-0.066466 ShoulderLeft:0.018821,0.777281,-0.628491,0.021893 ShoulderRight:-0.069136,0.805806,0.574947,-0.123825 SpineBase:-0.026622,0.008548,0.999203,-0.028504 SpineMid:-0.046879,0.009124,0.998457,-0.028325 SpineShoulder:-0.067718,0.010819,0.996591,-0.045857 ThumbLeft:0.000000,0.000000,0.000000,0.000000 ThumbRight:0.000000,0.000000,0.000000,0.000000 WristLeft:-0.162869,0.873878,0.111376,-0.444304 WristRight:-0.404170,0.737766,0.174635,-0.511713 END:
KINECT_DATA POSITION:33.180664,-0.164162,-6.207895 HEAD_JOINT1:0.983988,0.158744,-0.000000,0.081048 LARM_JOINT2:0.801421,0.000000,-0.054175,-0.595643 LARM_JOINT3:0.960225,0.000000,-0.214183,-0.179147 LLEG_JOINT2:0.998439,0.042368,0.000000,0.036384 LLEG_JOINT4:0.996848,0.077505,0.000000,-0.016925 RARM_JOINT2:0.766288,0.000000,0.460786,0.447749 RARM_JOINT3:0.985810,0.000000,0.167829,-0.003353 RLEG_JOINT2:0.998887,0.014437,0.000000,-0.044909 RLEG_JOINT4:0.993041,0.105914,0.000000,0.051488 WAIST:0.999575,-0.000000,0.029028,0.002738 WAIST_JOINT0:0.996954,-0.000000,0.070016,0.034345 WAIST_JOINT1:0.998682,0.050561,-0.000000,0.008871 END:
KINECT_DATA_Sensor  AnkleLeft:-0.069762,-0.663440,0.099541,0.738290 AnkleRight:0.093069,0.750079,0.076458,0.650288 ElbowLeft:-0.054569,0.890200,-0.145416,-0.428277 ElbowRight:-0.343290,0.880475,-0.057145,0.321949 FootLeft:0.000000,0.000000,0.000000,0.000000 FootRight:0.000000,0.000000,0.000000,0.000000 HandLeft:-0.125069,0.902138,0.151352,-0.384183 HandRight:-0.402875,0.734044,0.231897,-0.495070 HandTipLeft:0.000000,0.000000,0.000000,0.000000 HandTipRight:0.000000,0.000000,0.000000,0.000000 Head:0.000000,0.000000,0.000000,0.000000 HipLeft:0.104544,-0.682516,0.709222,-0.142286 HipRight:-0.154215,0.677036,0.696703,-0.180123 KneeLeft:-0.003988,-0.686010,0.057467,0.725308 KneeRight:-0.020804,0.726939,0.039396,0.685255 Neck:-0.069787,0.012244,0.995307,-0.065905 ShoulderLeft:0.018111,0.775678,-0.630497,0.021654 ShoulderRight:-0.072699,0.805049,0.575033,-0.126283 SpineBase:-0.028872,0.009822,0.999146,-0.027883 SpineMid:-0.048968,0.010381,0.998363,-0.027680 SpineShoulder:-0.069658,0.012174,0.996466,-0.045341 ThumbLeft:0.000000,0.000000,0.000000,0.000000 ThumbRight:0.000000,0.000000,0.000000,0.000000 WristLeft:-0.169522,0.898050,0.101484,-0.393028 WristRight:-0.408953,0.729360,0.181299,-0.517611 END:
KINECT_DATA POSITION:33.161579,-0.155185,-6.230688 HEAD_JOINT1:0.984323,0.157737,-0.000000,0.078918 LARM_JOINT2:0.801729,0.000000,-0.055133,-0.595140 LARM_JOINT3:0.959161,0.000000,-0.216870,-0.181596 LLEG_JOINT2:0.998480,0.041364,0.000000,0.036414 LLEG_JOINT4:0.996797,0.077921,0.000000,-0.018027 RARM_JOINT2:0.763963,0.000000,0.465198,0.447159 RARM_JOINT3:0.986840,0.000000,0.161556,-0.006833 RLEG_JOINT2:0.998848,0.014811,0.000000,-0.045640 RLEG_JOINT4:0.992712,0.108390,0.000000,0.052666 WAIST:0.999538,-0.000000,0.030211,0.003323 WAIST_JOINT0:0.997178,-0.000000,0.066683,0.034485 WAIST_JOINT1:0.998686,0.050410,-0.000000,0.009249 END:
KINECT_DATA_Sensor  AnkleLeft:0.079918,0.737605,-0.090675,-0.664326 AnkleRight:0.095436,0.748026,0.078138,0.652107 ElbowLeft:-0.055563,0.890357,-0.146569,-0.427427 ElbowRight:-0.343957,0.879032,-0.064086,0.323866 FootLeft:0.000000,0.000000,0.000000,0.000000 FootRight:0.000000,0.000000,0.000000,0.000000 HandLeft:0.019010,-0.533242,-0.207065,0.820010 HandRight:-0.402614,0.753447,0.223715,-0.469224 HandTipLeft:0.000000,0.000000,0.000000,0.000000 HandTipRight:0.000000,0.000000,0.000000,0.000000 Head:0.000000,0.000000,0.000000,0.000000 HipLeft:0.103917,-0.682304,0.709651,-0.141627 HipRight:-0.155425,0.677440,0.695991,-0.180317 KneeLeft:-0.002886,-0.685117,0.057209,0.726177 KneeRight:-0.020715,0.727764,0.039730,0.684362 Neck:-0.066524,0.012786,0.995531,-0.065794 ShoulderLeft:0.018570,0.774491,-0.631916,0.022396 ShoulderRight:-0.067979,0.804589,0.577180,-0.121981 SpineBase:-0.030056,0.010968,0.999110,-0.027477 SpineMid:-0.047933,0.011458,0.998412,-0.027277 SpineShoulder:-0.066364,0.012890,0.996686,-0.045232 ThumbLeft:0.000000,0.000000,0.000000,0.000000 ThumbRight:0.000000,0.000000,0.000000,0.000000 WristLeft:0.083240,-0.518428,-0.180118,0.831782 WristRight:-0.418341,0.744201,0.166698,-0.493323 END:
KINECT_DATA POSITION:33.085644,-0.123500,-6.337929 HEAD_JOINT1:0.984293,0.156881,-0.000000,0.080965 LARM_JOINT2:0.802740,0.000000,-0.057101,-0.593589 LARM_JOINT3:0.959429,0.000000,-0.213203,-0.184501 LLEG_JOINT2:0.998540,0.040468,0.000000,0.035783 LLEG_JOINT4:0.996853,0.077193,0.000000,-0.018014 RARM_JOINT2:0.764152,0.000000,0.465456,0.446568 RARM_JOINT3:0.986871,0.000000,0.161213,-0.009765 RLEG_JOINT2:0.998812,0.014719,0.000000,-0.046451 RLEG_JOINT4:0.992825,0.107101,0.000000,0.053176 WAIST:0.999503,-0.000000,0.031236,0.004167 WAIST_JOINT0:0.997222,-0.000000,0.065664,0.035162 WAIST_JOINT1:0.998670,0.050828,-0.000000,0.008661 END:
KINECT_DATA_Sensor  AnkleLeft:-0.069105,-0.666038,0.097233,0.736317 AnkleRight:0.092216,0.727654,0.079860,0.675010 ElbowLeft:-0.056865,0.891099,-0.148102,-0.425177 ElbowRight:-0.343426,0.876658,-0.067200,0.330171 FootLeft:0.000000,0.000000,0.000000,0.000000 FootRight:0.000000,0.000000,0.000000,0.000000 HandLeft:-0.000396,-0.499275,-0.200498,0.842926 HandRight:-0.394105,0.745760,0.236012,-0.482517 HandTipLeft:0.000000,0.000000,0.000000,0.000000 HandTipRight:0.000000,0.000000,0.000000,0.000000 Head:0.000000,0.000000,0.000000,0.000000 HipLeft:0.103246,-0.681929,0.710155,-0.141398 HipRight:-0.156196,0.677969,0.695109,-0.181066 KneeLeft:-0.002123,-0.684339,0.056727,0.726951 KneeRight:-0.020815,0.728480,0.039597,0.683605 Neck:-0.065587,0.012790,0.995567,-0.066185 ShoulderLeft:0.018649,0.773911,-0.632591,0.023279 ShoulderRight:-0.066698,0.804885,0.577068,-0.121261 SpineBase:-0.031105,0.011738,0.999066,-0.027609 SpineMid:-0.047975,0.012202,0.998398,-0.027407 SpineShoulder:-0.065415,0.013024,0.996727,-0.045668 ThumbLeft:0.000000,0.000000,0.000000,0.000000 ThumbRight:0.000000,0.000000,0.000000,0.000000 WristLeft:0.076131,-0.481537,-0.182756,0.853772 WristRight:-0.418107,0.733142,0.175764,-0.506750 END:
KINECT_DATA POSITION:33.042336,-0.109533,-6.390345 HEAD_JOINT1:0.984322,0.156738,-0.000000,0.080893 LARM_JOINT2:0.802451,0.000000,-0.057748,-0.593917 LARM_JOINT3:0.959482,0.000000,-0.212617,-0.184900 LLEG_JOINT2:0.998550,0.040436,0.000000,0.035543 LLEG_JOINT4:0.996824,0.077641,0.000000,-0.017717 RARM_JOINT2:0.766642,0.000000,0.460259,0.447685 RARM_JOINT3:0.985723,0.000000,0.168140,-0.008912 RLEG_JOINT2:0.998843,0.015126,0.000000,-0.045648 RLEG_JOINT4:0.993259,0.104302,0.000000,0.050582 WAIST:0.999481,-0.000000,0.031933,0.004164 WAIST_JOINT0:0.997179,-0.000000,0.066161,0.035452 WAIST_JOINT1:0.998668,0.050779,-0.000000,0.009193 END:
KINECT_DATA_Sensor  AnkleLeft:-0.069455,-0.665668,0.097493,0.736585 AnkleRight:0.091536,0.748347,0.076757,0.652462 ElbowLeft:-0.057387,0.890526,-0.147938,-0.426363 ElbowRight:-0.341027,0.874779,-0.065862,0.337824 FootLeft:0.000000,0.000000,0.000000,0.000000 FootRight:0.000000,0.000000,0.000000,0.000000 HandLeft:0.016653,-0.586238,-0.202560,0.784230 HandRight:-0.415086,0.778383,0.200823,-0.426020 HandTipLeft:0.000000,0.000000,0.000000,0.000000 HandTipRight:0.000000,0.000000,0.000000,0.000000 Head:0.000000,0.000000,0.000000,0.000000 HipLeft:0.102741,-0.682090,0.710123,-0.141151 HipRight:-0.156830,0.678056,0.694849,-0.181188 KneeLeft:-0.002302,-0.683818,0.056524,0.727457 KneeRight:-0.019984,0.728975,0.039331,0.683117 Neck:-0.066274,0.013248,0.995519,-0.066142 ShoulderLeft:0.018255,0.773584,-0.632998,0.023391 ShoulderRight:-0.068061,0.805199,0.576254,-0.122281 SpineBase:-0.031781,0.012432,0.999039,-0.027498 SpineMid:-0.048638,0.012894,0.998361,-0.027284 SpineShoulder:-0.066089,0.013527,0.996678,-0.045624 ThumbLeft:0.000000,0.000000,0.000000,0.000000 ThumbRight:0.000000,0.000000,0.000000,0.000000 WristLeft:0.095733,-0.567226,-0.172737,0.799532 WristRight:-0.430802,0.768787,0.145640,-0.449629 END:
KINECT_DATA POSITION:33.004578,-0.100634,-6.437838 HEAD_JOINT1:0.984029,0.158960,-0.000000,0.080113 LARM_JOINT2:0.802039,0.000000,-0.057702,-0.594478 LARM_JOINT3:0.959563,0.000000,-0.211446,-0.185821 LLEG_JOINT2:0.998547,0.040333,0.000000,0.035724 LLEG_JOINT4:0.996831,0.077693,0.000000,-0.017058 RARM_JOINT2:0.765868,0.000000,0.459385,0.449901 RARM_JOINT3:0.986250,0.000000,0.165102,-0.007189 RLEG_JOINT2:0.998851,0.014415,0.000000,-0.045703 RLEG_JOINT4:0.993023,0.106417,0.000000,0.050800 WAIST:0.999461,-0.000000,0.032518,0.004396 WAIST_JOINT0:0.997275,-0.000000,0.064718,0.035424 WAIST_JOINT1:0.998679,0.050549,-0.000000,0.009173 END:
KINECT_DATA_Sensor  AnkleLeft:-0.068913,-0.666621,0.098047,0.735700 AnkleRight:0.089523,0.721293,0.081228,0.682000 ElbowLeft:-0.057098,0.890820,-0.147540,-0.425925 ElbowRight:-0.338481,0.871838,-0.070563,0.346916 FootLeft:0.000000,0.000000,0.000000,0.000000 FootRight:0.000000,0.000000,0.000000,0.000000 HandLeft:0.025418,-0.631836,-0.203910,0.747368 HandRight:-0.404843,0.785666,0.189394,-0.427739 HandTipLeft:0.000000,0.000000,0.000000,0.000000 HandTipRight:0.000000,0.000000,0.000000,0.000000 Head:0.000000,0.000000,0.000000,0.000000 HipLeft:0.102516,-0.682071,0.710255,-0.140741 HipRight:-0.157444,0.678234,0.694500,-0.181329 KneeLeft:-0.001970,-0.683374,0.056746,0.727857 KneeRight:-0.020374,0.729359,0.038671,0.682734 Neck:-0.064778,0.013253,0.995631,-0.065928 ShoulderLeft:0.017885,0.773568,-0.633012,0.023844 ShoulderRight:-0.066453,0.805230,0.576781,-0.120466 SpineBase:-0.032370,0.012792,0.999023,-0.027230 SpineMid:-0.048186,0.013222,0.998385,-0.027024 SpineShoulder:-0.064582,0.013625,0.996785,-0.045424 ThumbLeft:0.000000,0.000000,0.000000,0.000000 ThumbRight:0.000000,0.000000,0.000000,0.000000 WristLeft:0.105026,-0.612535,-0.165755,0.765700 WristRight:-0.432261,0.770554,0.145019,-0.445383 END:
KINECT_DATA POSITION:32.974499,-0.114079,-6.478894 HEAD_JOINT1:0.983756,0.160770,-0.000000,0.079862 LARM_JOINT2:0.802079,0.000000,-0.056794,-0.594511 LARM_JOINT3:0.959526,0.000000,-0.210787,-0.186757 LLEG_JOINT2:0.998559,0.040020,0.000000,0.035764 LLEG_JOINT4:0.996971,0.076240,0.000000,-0.015369 RARM_JOINT2:0.769905,0.000000,0.452656,0.449833 RARM_JOINT3:0.985621,0.000000,0.168934,-0.003595 RLEG_JOINT2:0.998854,0.014186,0.000000,-0.045716 RLEG_JOINT4:0.993139,0.104960,0.000000,0.051555 WAIST:0.999461,-0.000000,0.032527,0.004432 WAIST_JOINT0:0.997036,-0.000000,0.067749,0.036464 WAIST_JOINT1:0.998693,0.050298,-0.000000,0.009043 END:
KINECT_DATA_Sensor  AnkleLeft:-0.066220,-0.665301,0.098241,0.737115 AnkleRight:0.089094,0.722851,0.079295,0.680632 ElbowLeft:-0.056813,0.890286,-0.147630,-0.427046 ElbowRight:-0.337925,0.872776,-0.062783,0.346593 FootLeft:0.000000,0.000000,0.000000,0.000000 FootRight:0.000000,0.000000,0.000000,0.000000 HandLeft:-0.102847,0.884688,0.177016,-0.418826 HandRight:-0.387319,0.768057,0.208443,-0.465428 HandTipLeft:0.000000,0.000000,0.000000,0.000000 HandTipRight:0.000000,0.000000,0.000000,0.000000 Head:0.000000,0.000000,0.000000,0.000000 HipLeft:0.102596,-0.682099,0.710240,-0.140624 HipRight:-0.157495,0.678309,0.694437,-0.181246 KneeLeft:-0.001689,-0.683371,0.056588,0.727873 KneeRight:-0.020515,0.729361,0.038487,0.682738 Neck:-0.067994,0.013374,0.995440,-0.065555 ShoulderLeft:0.016912,0.774049,-0.632475,0.023199 ShoulderRight:-0.071696,0.806805,0.573077,-0.124532 SpineBase:-0.032383,0.012761,0.999027,-0.027088 SpineMid:-0.049777,0.013231,0.998311,-0.026862 SpineShoulder:-0.067809,0.013675,0.996582,-0.045153 ThumbLeft:0.000000,0.000000,0.000000,0.000000 ThumbRight:0.000000,0.000000,0.000000,0.000000 WristLeft:-0.166000,0.881282,0.104380,-0.429990 WristRight:-0.424987,0.748916,0.165666,-0.480693 END:
KINECT_DATA POSITION:32.937389,-0.123700,-6.509852 HEAD_JOINT1:0.983668,0.161488,-0.000000,0.079489 LARM_JOINT2:0.802259,0.000000,-0.055414,-0.594399 LARM_JOINT3:0.959764,0.000000,-0.210356,-0.186023 LLEG_JOINT2:0.998574,0.039462,0.000000,0.035946 LLEG_JOINT4:0.996456,0.082523,0.000000,-0.016280 RARM_JOINT2:0.769054,0.000000,0.447928,0.455978 RARM_JOINT3:0.984909,0.000000,0.173053,-0.002519 RLEG_JOINT2:0.998855,0.014070,0.000000,-0.045721 RLEG_JOINT4:0.993037,0.105545,0.000000,0.052330 WAIST:0.999462,-0.000000,0.032497,0.004532 WAIST_JOINT0:0.996995,-0.000000,0.068155,0.036819 WAIST_JOINT1:0.998706,0.050086,-0.000000,0.008828 END:
KINECT_DATA_Sensor  AnkleLeft:0.081128,0.738848,-0.093673,-0.662380 AnkleRight:0.091006,0.730996,0.077931,0.671780 ElbowLeft:-0.056093,0.890147,-0.148121,-0.427262 ElbowRight:-0.331441,0.868755,-0.067461,0.361746 FootLeft:0.000000,0.000000,0.000000,0.000000 FootRight:0.000000,0.000000,0.000000,0.000000 HandLeft:0.017173,-0.608865,-0.196585,0.768338 HandRight:-0.380163,0.754514,0.206643,-0.493441 HandTipLeft:0.000000,0.000000,0.000000,0.000000 HandTipRight:0.000000,0.000000,0.000000,0.000000 Head:0.000000,0.000000,0.000000,0.000000 HipLeft:0.102704,-0.682088,0.710260,-0.140495 HipRight:-0.157488,0.678442,0.694341,-0.181121 KneeLeft:-0.001085,-0.683398,0.056411,0.727863 KneeRight:-0.020525,0.729345,0.038336,0.682763 Neck:-0.068341,0.013205,0.995434,-0.065315 ShoulderLeft:0.017357,0.773782,-0.632811,0.022600 ShoulderRight:-0.071683,0.806787,0.573122,-0.124450 SpineBase:-0.032361,0.012716,0.999032,-0.026932 SpineMid:-0.049935,0.013188,0.998308,-0.026704 SpineShoulder:-0.068151,0.013604,0.996570,-0.044940 ThumbLeft:0.000000,0.000000,0.000000,0.000000 ThumbRight:0.000000,0.000000,0.000000,0.000000 WristLeft:0.099895,-0.588969,-0.169173,0.783911 WristRight:-0.419439,0.734600,0.179835,-0.502088 END:
KINECT_DATA POSITION:32.901295,-0.125381,-6.568110 HEAD_JOINT1:0.983554,0.162046,-0.000000,0.079767 LARM_JOINT2:0.802210,0.000000,-0.054985,-0.594505 LARM_JOINT3:0.960087,0.000000,-0.209864,-0.184904 LLEG_JOINT2:0.998565,0.039103,0.000000,0.036601 LLEG_JOINT4:0.996836,0.077915,0.000000,-0.015702 RARM_JOINT2:0.769134,0.000000,0.444619,0.459072 RARM_JOINT3:0.984834,0.000000,0.173432,-0.004844 RLEG_JOINT2:0.998857,0.015085,0.000000,-0.045361 RLEG_JOINT4:0.993030,0.105441,0.000000,0.052670 WAIST:0.999458,-0.000000,0.032602,0.004473 WAIST_JOINT0:0.996865,-0.000000,0.069697,0.037458 WAIST_JOINT1:0.998700,0.050247,-0.000000,0.008585 END:
KINECT_DATA_Sensor  AnkleLeft:-0.066275,-0.664187,0.099224,0.737982 AnkleRight:0.094263,0.749706,0.075509,0.650656 ElbowLeft:-0.055614,0.889700,-0.147909,-0.428327 ElbowRight:-0.328255,0.868885,-0.066685,0.364474 FootLeft:0.000000,0.000000,0.000000,0.000000 FootRight:0.000000,0.000000,0.000000,0.000000 HandLeft:0.015000,-0.597866,-0.192198,0.778069 HandRight:-0.377353,0.753754,0.213970,-0.493636 HandTipLeft:0.000000,0.000000,0.000000,0.000000 HandTipRight:0.000000,0.000000,0.000000,0.000000 Head:0.000000,0.000000,0.000000,0.000000 HipLeft:0.102615,-0.682150,0.710200,-0.140564 HipRight:-0.157395,0.678345,0.694365,-0.181472 KneeLeft:-0.000424,-0.683339,0.056602,0.727904 KneeRight:-0.019613,0.729458,0.038871,0.682638 Neck:-0.069964,0.012975,0.995318,-0.065419 ShoulderLeft:0.018231,0.773496,-0.633165,0.021779 ShoulderRight:-0.072922,0.807117,0.572156,-0.126025 SpineBase:-0.032469,0.012409,0.999027,-0.027155 SpineMid:-0.050797,0.012905,0.998263,-0.026923 SpineShoulder:-0.069782,0.013373,0.996453,-0.045097 ThumbLeft:0.000000,0.000000,0.000000,0.000000 ThumbRight:0.000000,0.000000,0.000000,0.000000 WristLeft:0.097587,-0.578237,-0.170566,0.791849 WristRight:-0.417081,0.733853,0.180459,-0.504915 END:
KINECT_DATA POSITION:32.898129,-0.125678,-6.568170 HEAD_JOINT1:0.983404,0.162675,-0.000000,0.080333 LARM_JOINT2:0.802158,0.000000,-0.054855,-0.594587 LARM_JOINT3:0.959977,0.000000,-0.212263,-0.182725 LLEG_JOINT2:0.998571,0.039016,0.000000,0.036533 LLEG_JOINT4:0.996737,0.078798,0.000000,-0.017496 RARM_JOINT2:0.761275,0.000000,0.483046,0.432581 RARM_JOINT3:0.991697,0.000000,0.127809,0.014202 RLEG_JOINT2:0.998881,0.014334,0.000000,-0.045073 RLEG_JOINT4:0.993082,0.105116,0.000000,0.052340 WAIST:0.999459,-0.000000,0.032562,0.004718 WAIST_JOINT0:0.997106,-0.000000,0.066775,0.036344 WAIST_JOINT1:0.998702,0.050277,-0.000000,0.008216 END:
KINECT_DATA_Sensor  AnkleLeft:-0.068158,-0.665569,0.098469,0.736666 AnkleRight:0.093459,0.748285,0.074836,0.652483 ElbowLeft:-0.055414,0.889743,-0.147765,-0.428312 ElbowRight:-0.363243,0.900904,-0.040482,0.234069 FootLeft:0.000000,0.000000,0.000000,0.000000 FootRight:0.000000,0.000000,0.000000,0.000000 HandLeft:0.013689,-0.549527,-0.197567,0.811665 HandRight:-0.386308,0.762859,0.211772,-0.473248 HandTipLeft:0.000000,0.000000,0.000000,0.000000 HandTipRight:0.000000,0.000000,0.000000,0.000000 Head:0.000000,0.000000,0.000000,0.000000 HipLeft:0.102692,-0.682007,0.710331,-0.140538 HipRight:-0.157336,0.678528,0.694201,-0.181467 KneeLeft:-0.000232,-0.683359,0.056666,0.727880 KneeRight:-0.019742,0.729425,0.037952,0.682721 Neck:-0.066741,0.012599,0.995536,-0.065535 ShoulderLeft:0.018581,0.773504,-0.633120,0.022495 ShoulderRight:-0.068272,0.805714,0.575555,-0.122062 SpineBase:-0.032444,0.012385,0.999029,-0.027123 SpineMid:-0.049194,0.012838,0.998344,-0.026911 SpineShoulder:-0.066550,0.013120,0.996675,-0.045146 ThumbLeft:0.000000,0.000000,0.000000,0.000000 ThumbRight:0.000000,0.000000,0.000000,0.000000 WristLeft:0.087513,-0.532367,-0.175810,0.823419 WristRight:-0.397474,0.756099,0.156976,-0.495668 END:
KINECT_DATA POSITION:32.886036,-0.129381,-6.560695 HEAD_JOINT1:0.983189,0.163650,-0.000000,0.080976 LARM_JOINT2:0.800650,0.000000,-0.042785,-0.597602 LARM_JOINT3:0.958028,0.000000,-0.218273,-0.185845 LLEG_JOINT2:0.998564,0.039201,0.000000,0.036505 LLEG_JOINT4:0.996763,0.079054,0.000000,-0.014625 RARM_JOINT2:0.765536,0.000000,0.507934,0.394914 RARM_JOINT3:0.990174,0.000000,0.137887,0.023299 RLEG_JOINT2:0.998899,0.013349,0.000000,-0.044982 RLEG_JOINT4:0.992992,0.106072,0.000000,0.052108 WAIST:0.999470,-0.000000,0.032247,0.004345 WAIST_JOINT0:0.997592,-0.000000,0.059939,0.034895 WAIST_JOINT1:0.998694,0.050412,-0.000000,0.008324 END:
KINECT_DATA_Sensor  AnkleLeft:-0.067272,-0.669703,0.100231,0.732752 AnkleRight:0.092757,0.744929,0.075607,0.656323 ElbowLeft:-0.047231,0.883839,-0.148327,-0.441131 ElbowRight:-0.396737,0.914305,0.026191,0.077202 FootLeft:0.000000,0.000000,0.000000,0.000000 FootRight:0.000000,0.000000,0.000000,0.000000 HandLeft:0.022219,-0.611086,-0.200648,0.765389 HandRight:-0.484964,0.767576,0.209698,-0.362857 HandTipLeft:0.000000,0.000000,0.000000,0.000000 HandTipRight:0.000000,0.000000,0.000000,0.000000 Head:0.000000,0.000000,0.000000,0.000000 HipLeft:0.102925,-0.682244,0.710023,-0.140773 HipRight:-0.157159,0.678347,0.694454,-0.181328 KneeLeft:-0.000633,-0.683604,0.056509,0.727662 KneeRight:-0.020603,0.729159,0.037441,0.683009 Neck:-0.060573,0.011943,0.995921,-0.065799 ShoulderLeft:0.008850,0.773840,-0.632521,0.031779 ShoulderRight:-0.070484,0.806195,0.574816,-0.121109 SpineBase:-0.032115,0.012195,0.999041,-0.027134 SpineMid:-0.045965,0.012570,0.998500,-0.026962 SpineShoulder:-0.060373,0.012613,0.997065,-0.045348 ThumbLeft:0.000000,0.000000,0.000000,0.000000 ThumbRight:0.000000,0.000000,0.000000,0.000000 WristLeft:0.099784,-0.592578,-0.169080,0.781221 WristRight:-0.408024,0.799200,0.098123,-0.430311 END:
KINECT_DATA POSITION:32.881760,-0.141329,-6.558609 HEAD_JOINT1:0.982893,0.165888,-0.000000,0.080021 LARM_JOINT2:0.800756,0.000000,-0.048152,-0.597052 LARM_JOINT3:0.957192,0.000000,-0.221017,-0.186912 LLEG_JOINT2:0.998548,0.039334,0.000000,0.036803 LLEG_JOINT4:0.996730,0.079324,0.000000,-0.015426 RARM_JOINT2:0.770759,0.000000,0.514944,0.375185 RARM_JOINT3:0.988955,0.000000,0.142895,0.039362 RLEG_JOINT2:0.998918,0.012954,0.000000,-0.044675 RLEG_JOINT4:0.992973,0.106022,0.000000,0.052582 WAIST:0.999465,-0.000000,0.032454,0.004066 WAIST_JOINT0:0.996932,-0.000000,0.069371,0.036263 WAIST_JOINT1:0.998656,0.050977,-0.000000,0.009397 END:
KINECT_DATA_Sensor  AnkleLeft:-0.067401,-0.664177,0.100425,0.737727 AnkleRight:0.093311,0.749680,0.074311,0.650961 ElbowLeft:-0.050091,0.886643,-0.148071,-0.435236 ElbowRight:-0.411103,0.906119,0.024181,0.096731 FootLeft:0.000000,0.000000,0.000000,0.000000 FootRight:0.000000,0.000000,0.000000,0.000000 HandLeft:-0.123469,0.890751,0.178118,-0.399489 HandRight:-0.454229,0.770898,0.190524,-0.403847 HandTipLeft:0.000000,0.000000,0.000000,0.000000 HandTipRight:0.000000,0.000000,0.000000,0.000000 Head:0.000000,0.000000,0.000000,0.000000 HipLeft:0.102539,-0.682451,0.709821,-0.141068 HipRight:-0.157287,0.678195,0.694524,-0.181516 KneeLeft:-0.000735,-0.683458,0.056619,0.727790 KneeRight:-0.020857,0.729264,0.037135,0.682905 Neck:-0.070421,0.013548,0.995213,-0.066390 ShoulderLeft:0.011324,0.773607,-0.632963,0.027602 ShoulderRight:-0.081093,0.806944,0.570004,-0.131764 SpineBase:-0.032292,0.012618,0.999022,-0.027424 SpineMid:-0.050919,0.013127,0.998246,-0.027184 SpineShoulder:-0.070242,0.013780,0.996385,-0.045750 ThumbLeft:0.000000,0.000000,0.000000,0.000000 ThumbRight:0.000000,0.000000,0.000000,0.000000 WristLeft:-0.167818,0.889736,0.104552,-0.411431 WristRight:-0.424275,0.780381,0.114087,-0.444950 END:
KINECT_DATA POSITION:32.888180,-0.164231,-6.623244 HEAD_JOINT1:0.983196,0.165191,-0.000000,0.077706 LARM_JOINT2:0.801306,0.000000,-0.050698,-0.596103 LARM_JOINT3:0.961984,0.000000,-0.206718,-0.178480 LLEG_JOINT2:0.998624,0.037752,0.000000,0.036394 LLEG_JOINT4:0.996504,0.081715,0.000000,-0.017402 RARM_JOINT2:0.774334,0.000000,0.472916,0.420425 RARM_JOINT3:0.983586,0.000000,0.180306,-0.006919 RLEG_JOINT2:0.998894,0.014150,0.000000,-0.044830 RLEG_JOINT4:0.992960,0.105834,0.000000,0.053187 WAIST:0.999276,-0.000000,0.037795,0.004259 WAIST_JOINT0:0.995122,-0.000000,0.089387,0.041737 WAIST_JOINT1:0.998538,0.052579,-0.000000,0.012521 END:
KINECT_DATA_Sensor  AnkleLeft:-0.068950,-0.652084,0.099762,0.748385 AnkleRight:0.094821,0.759652,0.074062,0.639104 ElbowLeft:-0.051013,0.885029,-0.152119,-0.437015 ElbowRight:-0.362876,0.878103,-0.055465,0.306885 FootLeft:0.000000,0.000000,0.000000,0.000000 FootRight:0.000000,0.000000,0.000000,0.000000 HandLeft:0.029985,-0.617698,-0.149247,0.771541 HandRight:-0.439046,0.795220,0.179099,-0.377872 HandTipLeft:0.000000,0.000000,0.000000,0.000000 HandTipRight:0.000000,0.000000,0.000000,0.000000 Head:0.000000,0.000000,0.000000,0.000000 HipLeft:0.097589,-0.682610,0.710899,-0.138358 HipRight:-0.159351,0.677452,0.694119,-0.184023 KneeLeft:0.000001,-0.679569,0.055363,0.731520 KneeRight:-0.020234,0.732908,0.037854,0.678973 Neck:-0.090194,0.018187,0.993411,-0.068322 ShoulderLeft:0.016922,0.771713,-0.635442,0.019639 ShoulderRight:-0.102159,0.807474,0.560432,-0.153185 SpineBase:-0.037586,0.014095,0.998785,-0.028569 SpineMid:-0.063356,0.014828,0.997482,-0.028195 SpineShoulder:-0.090049,0.017317,0.994678,-0.046972 ThumbLeft:0.000000,0.000000,0.000000,0.000000 ThumbRight:0.000000,0.000000,0.000000,0.000000 WristLeft:0.104702,-0.601761,-0.164757,0.774452 WristRight:-0.465923,0.778001,0.110360,-0.406756 END:
KINECT_DATA POSITION:32.907715,-0.157742,-6.729341 HEAD_JOINT1:0.982523,0.167559,-0.000000,0.081072 LARM_JOINT2:0.803427,0.000000,-0.047382,-0.593516 LARM_JOINT3:0.958918,0.000000,-0.215584,-0.184388 LLEG_JOINT2:0.998728,0.036133,0.000000,0.035159 LLEG_JOINT4:0.996628,0.080419,0.000000,-0.016316 RARM_JOINT2:0.769517,0.000000,0.477971,0.423541 RARM_JOINT3:0.985255,0.000000,0.170454,-0.014781 RLEG_JOINT2:0.998783,0.013859,0.000000,-0.047332 RLEG_JOINT4:0.992555,0.108466,0.000000,0.055396 WAIST:0.999094,-0.000000,0.042096,0.006298 WAIST_JOINT0:0.995072,-0.000000,0.088828,0.044061 WAIST_JOINT1:0.998417,0.054341,-0.000000,0.014533 END:
KINECT_DATA_Sensor  AnkleLeft:-0.066407,-0.652820,0.098388,0.748155 AnkleRight:0.092030,0.717216,0.081201,0.685958 ElbowLeft:-0.048648,0.883890,-0.161034,-0.436394 ElbowRight:-0.355818,0.870743,-0.078227,0.330273 FootLeft:0.000000,0.000000,0.000000,0.000000 FootRight:0.000000,0.000000,0.000000,0.000000 HandLeft:0.056798,-0.657502,-0.184839,0.728217 HandRight:-0.442245,0.827562,0.140355,-0.316007 HandTipLeft:0.000000,0.000000,0.000000,0.000000 HandTipRight:0.000000,0.000000,0.000000,0.000000 Head:0.000000,0.000000,0.000000,0.000000 HipLeft:0.093753,-0.681232,0.712943,-0.137277 HipRight:-0.161574,0.677863,0.692433,-0.186899 KneeLeft:0.001576,-0.676348,0.054787,0.734540 KneeRight:-0.021010,0.735803,0.037791,0.675814 Neck:-0.089646,0.021721,0.993252,-0.070300 ShoulderLeft:0.025753,0.768047,-0.639673,0.016081 ShoulderRight:-0.092265,0.806842,0.564158,-0.149059 SpineBase:-0.041912,0.016669,0.998531,-0.030008 SpineMid:-0.065283,0.017367,0.997276,-0.029609 SpineShoulder:-0.089425,0.020893,0.994582,-0.048711 ThumbLeft:0.000000,0.000000,0.000000,0.000000 ThumbRight:0.000000,0.000000,0.000000,0.000000 WristLeft:0.115006,-0.644338,-0.149050,0.741206 WristRight:-0.476723,0.806094,0.074833,-0.342561 END:
KINECT_DATA POSITION:32.872456,-0.140946,-6.796145 HEAD_JOINT1:0.982848,0.165963,-0.000000,0.080406 LARM_JOINT2:0.802740,0.000000,-0.050859,-0.594157 LARM_JOINT3:0.956211,0.000000,-0.222431,-0.190222 LLEG_JOINT2:0.998718,0.036806,0.000000,0.034757 LLEG_JOINT4:0.996669,0.079398,0.000000,-0.018604 RARM_JOINT2:0.771922,0.000000,0.470431,0.427587 RARM_JOINT3:0.984134,0.000000,0.176459,-0.018509 RLEG_JOINT2:0.998772,0.013982,0.000000,-0.047524 RLEG_JOINT4:0.992907,0.106655,0.000000,0.052533 WAIST:0.999063,-0.000000,0.042699,0.007107 WAIST_JOINT0:0.995005,-0.000000,0.089016,0.045177 WAIST_JOINT1:0.998417,0.054312,-0.000000,0.014643 END:
KINECT_DATA_Sensor  AnkleLeft:-0.067504,-0.652465,0.096708,0.748585 AnkleRight:0.088867,0.715562,0.081788,0.688030 ElbowLeft:-0.050952,0.884112,-0.159854,-0.436115 ElbowRight:-0.349347,0.863711,-0.082550,0.353758 FootLeft:0.000000,0.000000,0.000000,0.000000 FootRight:0.000000,0.000000,0.000000,0.000000 HandLeft:0.035784,-0.600927,-0.218158,0.768123 HandRight:-0.435933,0.828300,0.142492,-0.321836 HandTipLeft:0.000000,0.000000,0.000000,0.000000 HandTipRight:0.000000,0.000000,0.000000,0.000000 Head:0.000000,0.000000,0.000000,0.000000 HipLeft:0.093305,-0.680677,0.713425,-0.137829 HipRight:-0.162766,0.678335,0.691527,-0.187509 KneeLeft:0.001349,-0.675840,0.055514,0.734954 KneeRight:-0.020524,0.736219,0.037424,0.675396 Neck:-0.090483,0.022370,0.993184,-0.069980 ShoulderLeft:0.027901,0.766514,-0.641454,0.014655 ShoulderRight:-0.091156,0.807701,0.563206,-0.148690 SpineBase:-0.042507,0.018414,0.998470,-0.030207 SpineMid:-0.065949,0.019119,0.997196,-0.029767 SpineShoulder:-0.090223,0.021864,0.994488,-0.048732 ThumbLeft:0.000000,0.000000,0.000000,0.000000 ThumbRight:0.000000,0.000000,0.000000,0.000000 WristLeft:0.103978,-0.584485,-0.162811,0.788072 WristRight:-0.480769,0.802041,0.082563,-0.344636 END:
KINECT_DATA POSITION:32.808578,-0.110033,-6.822252 HEAD_JOINT1:0.983046,0.164956,-0.000000,0.080068 LARM_JOINT2:0.801626,0.000000,-0.049735,-0.595753 LARM_JOINT3:0.957795,0.000000,-0.215808,-0.189882 LLEG_JOINT2:0.998728,0.036252,0.000000,0.035048 LLEG_JOINT4:0.996736,0.078645,0.000000,-0.018252 RARM_JOINT2:0.770660,0.000000,0.481797,0.417079 RARM_JOINT3:0.982876,0.000000,0.183377,-0.018112 RLEG_JOINT2:0.998776,0.012931,0.000000,-0.047741 RLEG_JOINT4:0.992889,0.106760,0.000000,0.052665 WAIST:0.999106,-0.000000,0.041680,0.007045 WAIST_JOINT0:0.995897,-0.000000,0.080314,0.041690 WAIST_JOINT1:0.998628,0.050600,-0.000000,0.013509 END:
KINECT_DATA_Sensor  AnkleLeft:-0.066645,-0.657813,0.095907,0.744071 AnkleRight:0.087940,0.712514,0.081408,0.691349 ElbowLeft:-0.052424,0.884893,-0.156044,-0.435737 ElbowRight:-0.363825,0.863620,-0.083378,0.338881 FootLeft:0.000000,0.000000,0.000000,0.000000 FootRight:0.000000,0.000000,0.000000,0.000000 HandLeft:-0.125622,0.908473,0.165513,-0.362632 HandRight:-0.472945,0.777707,0.193313,-0.366232 HandTipLeft:0.000000,0.000000,0.000000,0.000000 HandTipRight:0.000000,0.000000,0.000000,0.000000 Head:0.000000,0.000000,0.000000,0.000000 HipLeft:0.094956,-0.680906,0.713080,-0.137359 HipRight:-0.163336,0.678818,0.691359,-0.185877 KneeLeft:0.001964,-0.676571,0.055313,0.734295 KneeRight:-0.021396,0.735502,0.036867,0.676180 Neck:-0.081595,0.020128,0.994314,-0.065398 ShoulderLeft:0.024505,0.767812,-0.640021,0.015441 ShoulderRight:-0.082458,0.806938,0.568663,-0.136651 SpineBase:-0.041494,0.018609,0.998559,-0.028488 SpineMid:-0.061026,0.019163,0.997556,-0.028118 SpineShoulder:-0.081295,0.020524,0.995439,-0.045510 ThumbLeft:0.000000,0.000000,0.000000,0.000000 ThumbRight:0.000000,0.000000,0.000000,0.000000 WristLeft:-0.173241,0.906738,0.087525,-0.374372 WristRight:-0.471904,0.774849,0.124206,-0.401855 END:
KINECT_DATA POSITION:32.770039,-0.097805,-6.826317 HEAD_JOINT1:0.984705,0.156602,-0.000000,0.076363 LARM_JOINT2:0.801474,0.000000,-0.051721,-0.595789 LARM_JOINT3:0.958315,0.000000,-0.215446,-0.187660 LLEG_JOINT2:0.998698,0.036308,0.000000,0.035831 LLEG_JOINT4:0.996803,0.077932,0.000000,-0.017629 RARM_JOINT2:0.781252,0.000000,0.541229,0.310992 RARM_JOINT3:0.980621,0.000000,0.191795,0.039978 RLEG_JOINT2:0.998807,0.012442,0.000000,-0.047210 RLEG_JOINT4:0.992729,0.107683,0.000000,0.053801 WAIST:0.999092,-0.000000,0.042148,0.006275 WAIST_JOINT0:0.996099,-0.000000,0.079796,0.037686 WAIST_JOINT1:0.998870,0.046088,-0.000000,0.011619 END:
KINECT_DATA_Sensor  AnkleLeft:0.074418,0.723847,-0.089387,-0.680086 AnkleRight:0.093832,0.754911,0.075429,0.644683 ElbowLeft:-0.056576,0.885828,-0.151312,-0.434985 ElbowRight:-0.461809,0.854419,-0.047959,0.233241 FootLeft:0.000000,0.000000,0.000000,0.000000 FootRight:0.000000,0.000000,0.000000,0.000000 HandLeft:0.018849,-0.546247,-0.217085,0.808785 HandRight:-0.459634,0.796430,0.085432,-0.383584 HandTipLeft:0.000000,0.000000,0.000000,0.000000 HandTipRight:0.000000,0.000000,0.000000,0.000000 Head:0.000000,0.000000,0.000000,0.000000 HipLeft:0.096620,-0.681819,0.712355,-0.135412 HipRight:-0.165119,0.678625,0.691430,-0.184737 KneeLeft:0.001887,-0.676221,0.055382,0.734611 KneeRight:-0.021899,0.735828,0.036679,0.675820 Neck:-0.080539,0.017001,0.994758,-0.060667 ShoulderLeft:0.021639,0.770724,-0.636689,0.011998 ShoulderRight:-0.083576,0.805468,0.571560,-0.132497 SpineBase:-0.041965,0.017737,0.998625,-0.025918 SpineMid:-0.060738,0.018221,0.997660,-0.025580 SpineShoulder:-0.080254,0.017915,0.995764,-0.041147 ThumbLeft:0.000000,0.000000,0.000000,0.000000 ThumbRight:0.000000,0.000000,0.000000,0.000000 WristLeft:0.092625,-0.528138,-0.174118,0.825938 WristRight:-0.544525,0.748950,0.095141,-0.365396 END:
KINECT_DATA POSITION:32.775372,-0.067278,-6.899559 HEAD_JOINT1:0.986790,0.147519,-0.000000,0.066960 LARM_JOINT2:0.798448,0.000000,-0.053482,-0.599684 LARM_JOINT3:0.961145,0.000000,-0.210062,-0.179093 LLEG_JOINT2:0.998799,0.032243,0.000000,0.036901 LLEG_JOINT4:0.996376,0.083743,0.000000,-0.014934 RARM_JOINT2:0.776965,0.000000,0.584907,0.232831 RARM_JOINT3:0.978490,0.000000,0.193616,0.071206 RLEG_JOINT2:0.998793,0.013907,0.000000,-0.047100 RLEG_JOINT4:0.993203,0.102720,0.000000,0.054747 WAIST:0.998721,-0.000000,0.050237,0.005725 WAIST_JOINT0:0.995691,-0.000000,0.087248,0.031412 WAIST_JOINT1:0.999026,0.042894,-0.000000,0.010322 END:
KINECT_DATA_Sensor  AnkleLeft:-0.065997,-0.653857,0.098658,0.747250 AnkleRight:0.090943,0.759142,0.073521,0.640334 ElbowLeft:-0.058134,0.879388,-0.143396,-0.450260 ElbowRight:-0.527080,0.842810,-0.005591,0.108753 FootLeft:0.000000,0.000000,0.000000,0.000000 FootRight:0.000000,0.000000,0.000000,0.000000 HandLeft:0.032780,-0.587881,-0.182985,0.787298 HandRight:-0.476282,0.728504,0.103095,-0.481466 HandTipLeft:0.000000,0.000000,0.000000,0.000000 HandTipRight:0.000000,0.000000,0.000000,0.000000 Head:0.000000,0.000000,0.000000,0.000000 HipLeft:0.093913,-0.684058,0.712172,-0.126711 HipRight:-0.170815,0.678106,0.690111,-0.186389 KneeLeft:0.004826,-0.670301,0.053044,0.740175 KneeRight:-0.021546,0.741404,0.037871,0.669643 Neck:-0.086997,0.015115,0.994407,-0.057944 ShoulderLeft:0.021615,0.775016,-0.631550,0.005225 ShoulderRight:-0.091743,0.800973,0.575543,-0.137024 SpineBase:-0.050102,0.015720,0.998382,-0.021837 SpineMid:-0.068088,0.016111,0.997316,-0.021550 SpineShoulder:-0.086788,0.015554,0.995382,-0.037962 ThumbLeft:0.000000,0.000000,0.000000,0.000000 ThumbRight:0.000000,0.000000,0.000000,0.000000 WristLeft:0.106616,-0.570299,-0.175531,0.795350 WristRight:0.550258,-0.690173,-0.139678,0.448740 END:
KINECT_DATA POSITION:32.884537,0.030400,-7.139480 HEAD_JOINT1:0.987464,0.145876,-0.000000,0.060298 LARM_JOINT2:0.797686,0.000000,-0.050485,-0.600956 LARM_JOINT3:0.962519,0.000000,-0.209204,-0.172601 LLEG_JOINT2:0.998857,0.026780,0.000000,0.039583 LLEG_JOINT4:0.996099,0.087054,0.000000,-0.014469 RARM_JOINT2:0.783908,0.000000,0.581212,0.218360 RARM_JOINT3:0.978209,0.000000,0.196416,0.067294 RLEG_JOINT2:0.998797,0.014487,0.000000,-0.046852 RLEG_JOINT4:0.992947,0.102904,0.000000,0.058882 WAIST:0.998087,-0.000000,0.061724,0.003448 WAIST_JOINT0:0.994048,-0.000000,0.107754,0.016055 WAIST_JOINT1:0.999018,0.042433,-0.000000,0.012709 END:
KINECT_DATA_Sensor  AnkleLeft:0.072733,0.704806,-0.091525,-0.699701 AnkleRight:0.092586,0.769499,0.073193,0.627649 ElbowLeft:-0.054836,0.871991,-0.143457,-0.464807 ElbowRight:-0.532361,0.844157,0.063172,-0.000225 FootLeft:0.000000,0.000000,0.000000,0.000000 FootRight:0.000000,0.000000,0.000000,0.000000 HandLeft:-0.131344,0.915088,0.117398,-0.362739 HandRight:0.590030,-0.688822,-0.096093,0.410067 HandTipLeft:0.000000,0.000000,0.000000,0.000000 HandTipRight:0.000000,0.000000,0.000000,0.000000 Head:0.000000,0.000000,0.000000,0.000000 HipLeft:0.088345,-0.686976,0.711364,-0.119247 HipRight:-0.178444,0.675206,0.689497,-0.191960 KneeLeft:0.008530,-0.661861,0.049838,0.747920 KneeRight:-0.023063,0.749009,0.039455,0.660982 Neck:-0.107968,0.015654,0.992352,-0.057752 ShoulderLeft:0.028778,0.775663,-0.630454,-0.006843 ShoulderRight:-0.112879,0.782672,0.591281,-0.158334 SpineBase:-0.061525,0.014481,0.997793,-0.020368 SpineMid:-0.084294,0.014943,0.996127,-0.020032 SpineShoulder:-0.107826,0.015438,0.993340,-0.037551 ThumbLeft:0.000000,0.000000,0.000000,0.000000 ThumbRight:0.000000,0.000000,0.000000,0.000000 WristLeft:-0.185077,0.907008,0.084754,-0.368646 WristRight:-0.524132,0.738084,0.094321,-0.414272 END:
KINECT_DATA POSITION:32.945049,0.085125,-7.244551 HEAD_JOINT1:0.987882,0.143393,-0.000000,0.059391 LARM_JOINT2:0.798336,0.000000,-0.043553,-0.600635 LARM_JOINT3:0.960483,0.000000,-0.218284,-0.172700 LLEG_JOINT2:0.998812,0.025440,0.000000,0.041566 LLEG_JOINT4:0.996052,0.087602,0.000000,-0.014373 RARM_JOINT2:0.787050,0.000000,0.593413,0.168563 RARM_JOINT3:0.979495,0.000000,0.188789,0.070351 RLEG_JOINT2:0.998875,0.014128,0.000000,-0.045268 RLEG_JOINT4:0.992841,0.102802,0.000000,0.060812 WAIST:0.997888,-0.000000,0.064944,0.001062 WAIST_JOINT0:0.993397,-0.000000,0.114230,0.010676 WAIST_JOINT1:0.999000,0.042078,-0.000000,0.015085 END:
KINECT_DATA_Sensor  AnkleLeft:0.074344,0.715392,-0.089323,-0.688991 AnkleRight:0.093097,0.772709,0.072280,0.623722 ElbowLeft:-0.051636,0.864301,-0.145875,-0.478579 ElbowRight:-0.558561,0.818854,0.113254,-0.068270 FootLeft:0.000000,0.000000,0.000000,0.000000 FootRight:0.000000,0.000000,0.000000,0.000000 HandLeft:0.064478,-0.602291,-0.184347,0.774019 HandRight:0.617030,-0.630373,-0.149944,0.446565 HandTipLeft:0.000000,0.000000,0.000000,0.000000 HandTipRight:0.000000,0.000000,0.000000,0.000000 Head:0.000000,0.000000,0.000000,0.000000 HipLeft:0.087366,-0.688736,0.709976,-0.118087 HipRight:-0.181615,0.673032,0.690240,-0.193938 KneeLeft:0.009008,-0.659525,0.048779,0.750044 KneeRight:-0.023930,0.751055,0.039742,0.658607 Neck:-0.114468,0.015809,0.991633,-0.057548 ShoulderLeft:0.030024,0.777560,-0.628001,-0.010696 ShoulderRight:-0.120295,0.777469,0.594824,-0.165093 SpineBase:-0.064659,0.014135,0.997607,-0.019997 SpineMid:-0.089103,0.014621,0.995721,-0.019644 SpineShoulder:-0.114347,0.015400,0.992620,-0.037335 ThumbLeft:0.000000,0.000000,0.000000,0.000000 ThumbRight:0.000000,0.000000,0.000000,0.000000 WristLeft:0.120456,-0.588830,-0.165202,0.781971 WristRight:-0.516037,0.706821,0.147991,-0.460662 END:
KINECT_DATA POSITION:32.952511,0.099745,-7.278705 HEAD_JOINT1:0.987876,0.143478,-0.000000,0.059286 LARM_JOINT2:0.798909,0.000000,-0.043902,-0.599848 LARM_JOINT3:0.959395,0.000000,-0.222408,-0.173485 LLEG_JOINT2:0.998774,0.025979,0.000000,0.042141 LLEG_JOINT4:0.996128,0.086497,0.000000,-0.015715 RARM_JOINT2:0.801663,0.000000,0.584092,0.127172 RARM_JOINT3:0.970967,0.000000,0.218594,0.097154 RLEG_JOINT2:0.998913,0.013491,0.000000,-0.044610 RLEG_JOINT4:0.992561,0.104985,0.000000,0.061645 WAIST:0.997739,-0.000000,0.067208,0.000438 WAIST_JOINT0:0.992768,-0.000000,0.119226,0.014029 WAIST_JOINT1:0.998973,0.042263,-0.000000,0.016321 END:
KINECT_DATA_Sensor  AnkleLeft:0.075313,0.716897,-0.087402,-0.687567 AnkleRight:0.088077,0.717927,0.080848,0.685774 ElbowLeft:-0.052110,0.862603,-0.147341,-0.481136 ElbowRight:-0.575320,0.799651,0.152287,-0.079836 FootLeft:0.000000,0.000000,0.000000,0.000000 FootRight:0.000000,0.000000,0.000000,0.000000 HandLeft:0.047997,-0.509562,-0.198645,0.835813 HandRight:0.627730,-0.638608,-0.058341,0.441283 HandTipLeft:0.000000,0.000000,0.000000,0.000000 HandTipRight:0.000000,0.000000,0.000000,0.000000 Head:0.000000,0.000000,0.000000,0.000000 HipLeft:0.085855,-0.689234,0.709819,-0.117224 HipRight:-0.183076,0.672197,0.690300,-0.195244 KneeLeft:0.008431,-0.657838,0.049145,0.751507 KneeRight:-0.024390,0.752500,0.039212,0.656971 Neck:-0.119562,0.016648,0.991003,-0.057810 ShoulderLeft:0.034031,0.777160,-0.628203,-0.014970 ShoulderRight:-0.122718,0.780719,0.589067,-0.168576 SpineBase:-0.066885,0.014459,0.997450,-0.020277 SpineMid:-0.092742,0.014980,0.995379,-0.019895 SpineShoulder:-0.119453,0.015972,0.992001,-0.037545 ThumbLeft:0.000000,0.000000,0.000000,0.000000 ThumbRight:0.000000,0.000000,0.000000,0.000000 WristLeft:0.103167,-0.496207,-0.178840,0.843298 WristRight:-0.531184,0.728507,0.116632,-0.416555 END:
KINECT_DATA POSITION:32.921295,0.107336,-7.292557 HEAD_JOINT1:0.987190,0.146179,-0.000000,0.063929 LARM_JOINT2:0.799625,0.000000,-0.045247,-0.598792 LARM_JOINT3:0.958492,0.000000,-0.222163,-0.178707 LLEG_JOINT2:0.998770,0.026559,0.000000,0.041869 LLEG_JOINT4:0.996020,0.087465,0.000000,-0.017159 RARM_JOINT2:0.803311,0.000000,0.583768,0.117925 RARM_JOINT3:0.976230,0.000000,0.197931,0.088308 RLEG_JOINT2:0.998860,0.012882,0.000000,-0.045974 RLEG_JOINT4:0.992449,0.105152,0.000000,0.063153 WAIST:0.997691,-0.000000,0.067910,0.000696 WAIST_JOINT0:0.992561,-0.000000,0.120342,0.018464 WAIST_JOINT1:0.998875,0.043912,-0.000000,0.017881 END:
KINECT_DATA_Sensor  AnkleLeft:0.076573,0.709195,-0.087840,-0.695315 AnkleRight:0.089827,0.733549,0.078301,0.669108 ElbowLeft:-0.052662,0.862003,-0.150309,-0.481233 ElbowRight:-0.577169,0.795589,0.161523,-0.088451 FootLeft:0.000000,0.000000,0.000000,0.000000 FootRight:0.000000,0.000000,0.000000,0.000000 HandLeft:0.050249,-0.585870,-0.196915,0.784510 HandRight:0.619136,-0.629346,-0.127208,0.452119 HandTipLeft:0.000000,0.000000,0.000000,0.000000 HandTipRight:0.000000,0.000000,0.000000,0.000000 Head:0.000000,0.000000,0.000000,0.000000 HipLeft:0.084947,-0.688965,0.710095,-0.117795 HipRight:-0.183456,0.672123,0.690022,-0.196123 KneeLeft:0.007961,-0.657306,0.049508,0.751954 KneeRight:-0.025667,0.752891,0.039449,0.656461 Neck:-0.120851,0.018639,0.990695,-0.059761 ShoulderLeft:0.037262,0.777330,-0.627776,-0.016351 ShoulderRight:-0.120710,0.786401,0.581688,-0.169236 SpineBase:-0.067563,0.015362,0.997374,-0.021100 SpineMid:-0.093708,0.015910,0.995258,-0.020690 SpineShoulder:-0.120731,0.017694,0.991757,-0.039109 ThumbLeft:0.000000,0.000000,0.000000,0.000000 ThumbRight:0.000000,0.000000,0.000000,0.000000 WristLeft:0.120221,-0.567977,-0.168398,0.796612 WristRight:-0.522092,0.710283,0.162701,-0.443223 END:
KINECT_DATA POSITION:32.809944,0.127622,-7.251620 HEAD_JOINT1:0.986935,0.146720,-0.000000,0.066583 LARM_JOINT2:0.800818,0.000000,-0.046845,-0.597073 LARM_JOINT3:0.955742,0.000000,-0.230239,-0.183161 LLEG_JOINT2:0.998819,0.026799,0.000000,0.040536 LLEG_JOINT4:0.996253,0.085345,0.000000,-0.014025 RARM_JOINT2:0.796170,0.000000,0.566957,0.211358 RARM_JOINT3:0.980932,0.000000,0.189599,-0.042721 RLEG_JOINT2:0.998809,0.011910,0.000000,-0.047309 RLEG_JOINT4:0.992120,0.108084,0.000000,0.063375 WAIST:0.997782,-0.000000,0.066539,0.001943 WAIST_JOINT0:0.992739,-0.000000,0.117664,0.024980 WAIST_JOINT1:0.998750,0.046420,-0.000000,0.018541 END:
KINECT_DATA_Sensor  AnkleLeft:0.075335,0.727931,-0.087328,-0.675880 AnkleRight:0.096160,0.773785,0.073517,0.621776 ElbowLeft:-0.052276,0.865595,-0.154541,-0.473423 ElbowRight:-0.534202,0.835695,-0.000988,0.127443 FootLeft:0.000000,0.000000,0.000000,0.000000 FootRight:0.000000,0.000000,0.000000,0.000000 HandLeft:-0.156044,0.867123,0.176500,-0.438857 HandRight:0.185589,-0.273747,0.760837,-0.558343 HandTipLeft:0.000000,0.000000,0.000000,0.000000 HandTipRight:0.000000,0.000000,0.000000,0.000000 Head:0.000000,0.000000,0.000000,0.000000 HipLeft:0.084523,-0.687530,0.711013,-0.120908 HipRight:-0.182297,0.672703,0.689586,-0.196749 KneeLeft:0.007849,-0.658331,0.049533,0.751056 KneeRight:-0.026381,0.751904,0.038749,0.657604 Neck:-0.118488,0.020341,0.990796,-0.062206 ShoulderLeft:0.038850,0.776741,-0.628465,-0.014018 ShoulderRight:-0.115618,0.793901,0.572963,-0.167532 SpineBase:-0.066163,0.017361,0.997387,-0.023258 SpineMid:-0.091776,0.017953,0.995357,-0.022804 SpineShoulder:-0.118319,0.019632,0.991911,-0.041558 ThumbLeft:0.000000,0.000000,0.000000,0.000000 ThumbRight:0.000000,0.000000,0.000000,0.000000 WristLeft:-0.180795,0.868043,0.095361,-0.452461 WristRight:-0.142702,0.362229,-0.546479,0.741476 END:
KINECT_DATA POSITION:32.634949,0.149931,-7.139492 HEAD_JOINT1:0.986866,0.146433,-0.000000,0.068218 LARM_JOINT2:0.800106,0.000000,-0.052339,-0.597570 LARM_JOINT3:0.957340,0.000000,-0.227104,-0.178671 LLEG_JOINT2:0.998771,0.028304,0.000000,0.040674 LLEG_JOINT4:0.996114,0.087221,0.000000,-0.012222 RARM_JOINT2:0.782975,0.000000,0.572581,0.243109 RARM_JOINT3:0.986467,0.000000,0.130486,-0.099282 RLEG_JOINT2:0.998873,0.012427,0.000000,-0.045812 RLEG_JOINT4:0.992295,0.107093,0.000000,0.062304 WAIST:0.997940,-0.000000,0.064108,0.002295 WAIST_JOINT0:0.993055,-0.000000,0.114532,0.026906 WAIST_JOINT1:0.998727,0.047168,-0.000000,0.017888 END:
KINECT_DATA_Sensor  AnkleLeft:0.075767,0.723422,-0.091950,-0.680048 AnkleRight:0.096515,0.772151,0.072451,0.623874 ElbowLeft:-0.054192,0.871176,-0.152197,-0.463628 ElbowRight:-0.485348,0.774356,-0.168600,0.369303 FootLeft:0.000000,0.000000,0.000000,0.000000 FootRight:0.000000,0.000000,0.000000,0.000000 HandLeft:0.078653,-0.595549,-0.225813,0.766905 HandRight:-0.343466,0.394469,-0.533137,0.664974 HandTipLeft:0.000000,0.000000,0.000000,0.000000 HandTipRight:0.000000,0.000000,0.000000,0.000000 Head:0.000000,0.000000,0.000000,0.000000 HipLeft:0.085361,-0.686934,0.711112,-0.123104 HipRight:-0.180458,0.673080,0.689845,-0.196245 KneeLeft:0.007171,-0.660147,0.050863,0.749378 KneeRight:-0.024571,0.750354,0.037967,0.659488 Neck:-0.115673,0.020010,0.991098,-0.062805 ShoulderLeft:0.038845,0.776552,-0.628736,-0.012235 ShoulderRight:-0.111727,0.796810,0.570478,-0.164820 SpineBase:-0.063727,0.017536,0.997517,-0.024296 SpineMid:-0.089140,0.018150,0.995568,-0.023841 SpineShoulder:-0.115497,0.019451,0.992217,-0.042275 ThumbLeft:0.000000,0.000000,0.000000,0.000000 ThumbRight:0.000000,0.000000,0.000000,0.000000 WristLeft:0.117435,-0.586580,-0.162665,0.784649 WristRight:0.272342,-0.443495,0.562264,-0.642652 END:
KINECT_DATA POSITION:32.523174,0.144348,-6.973231 HEAD_JOINT1:0.986687,0.146950,-0.000000,0.069671 LARM_JOINT2:0.800920,0.000000,-0.052199,-0.596491 LARM_JOINT3:0.957770,0.000000,-0.223752,-0.180585 LLEG_JOINT2:0.998713,0.029606,0.000000,0.041185 LLEG_JOINT4:0.996539,0.081885,0.000000,-0.014301 RARM_JOINT2:0.785133,0.000000,0.571675,0.238231 RARM_JOINT3:0.989077,0.000000,0.109438,-0.098739 RLEG_JOINT2:0.998921,0.011449,0.000000,-0.045015 RLEG_JOINT4:0.992326,0.108208,0.000000,0.059834 WAIST:0.998168,-0.000000,0.060449,0.002430 WAIST_JOINT0:0.993746,-0.000000,0.108512,0.026335 WAIST_JOINT1:0.998736,0.047387,-0.000000,0.016738 END:
KINECT_DATA_Sensor  AnkleLeft:-0.062032,-0.641432,0.096707,0.758528 AnkleRight:0.095710,0.769353,0.073371,0.627337 ElbowLeft:-0.053908,0.874980,-0.152664,-0.456286 ElbowRight:-0.466552,0.720258,-0.222378,0.462717 FootLeft:0.000000,0.000000,0.000000,0.000000 FootRight:0.000000,0.000000,0.000000,0.000000 HandLeft:-0.152682,0.848596,0.176793,-0.474675 HandRight:-0.294881,0.373933,-0.519664,0.709344 HandTipLeft:0.000000,0.000000,0.000000,0.000000 HandTipRight:0.000000,0.000000,0.000000,0.000000 Head:0.000000,0.000000,0.000000,0.000000 HipLeft:0.087617,-0.686481,0.710884,-0.125346 HipRight:-0.178217,0.673556,0.690348,-0.194887 KneeLeft:0.006808,-0.662875,0.052183,0.746879 KneeRight:-0.024384,0.747919,0.036705,0.662326 Neck:-0.109589,0.018913,0.991801,-0.062958 ShoulderLeft:0.035334,0.777722,-0.627565,-0.007849 ShoulderRight:-0.107188,0.797899,0.571227,-0.159895 SpineBase:-0.060091,0.016875,0.997747,-0.024582 SpineMid:-0.084299,0.017467,0.995994,-0.024166 SpineShoulder:-0.109411,0.018533,0.992916,-0.042468 ThumbLeft:0.000000,0.000000,0.000000,0.000000 ThumbRight:0.000000,0.000000,0.000000,0.000000 WristLeft:-0.168861,0.850605,0.103314,-0.487117 WristRight:-0.284247,0.380477,-0.573794,0.667234 END:
KINECT_DATA POSITION:32.483856,0.150170,-6.918609 HEAD_JOINT1:0.986375,0.148234,-0.000000,0.071349 LARM_JOINT2:0.801475,0.000000,-0.051212,-0.595831 LARM_JOINT3:0.957670,0.000000,-0.224168,-0.180599 LLEG_JOINT2:0.998723,0.029793,0.000000,0.040805 LLEG_JOINT4:0.996460,0.082672,0.000000,-0.015273 RARM_JOINT2:0.787165,0.000000,0.577170,0.217361 RARM_JOINT3:0.992235,0.000000,0.103066,-0.069627 RLEG_JOINT2:0.998929,0.011685,0.000000,-0.044761 RLEG_JOINT4:0.992220,0.108774,0.000000,0.060560 WAIST:0.998287,-0.000000,0.058442,0.002679 WAIST_JOINT0:0.994100,-0.000000,0.105328,0.025922 WAIST_JOINT1:0.998739,0.047502,-0.000000,0.016216 END:
KINECT_DATA_Sensor  AnkleLeft:-0.063327,-0.643122,0.096648,0.756996 AnkleRight:0.093452,0.734990,0.077746,0.667093 ElbowLeft:-0.053976,0.874803,-0.153346,-0.456389 ElbowRight:-0.496176,0.743177,-0.190058,0.406663 FootLeft:0.000000,0.000000,0.000000,0.000000 FootRight:0.000000,0.000000,0.000000,0.000000 HandLeft:0.068556,-0.588912,-0.215316,0.775965 HandRight:-0.298270,0.402900,-0.547464,0.670067 HandTipLeft:0.000000,0.000000,0.000000,0.000000 HandTipRight:0.000000,0.000000,0.000000,0.000000 Head:0.000000,0.000000,0.000000,0.000000 HipLeft:0.088855,-0.686121,0.710851,-0.126622 HipRight:-0.177075,0.673977,0.690466,-0.194052 KneeLeft:0.006692,-0.664368,0.052189,0.745551 KneeRight:-0.023784,0.746615,0.036589,0.663824 Neck:-0.106390,0.018609,0.992150,-0.063033 ShoulderLeft:0.033231,0.778405,-0.626858,-0.005418 ShoulderRight:-0.105087,0.798433,0.571558,-0.157427 SpineBase:-0.058098,0.016807,0.997864,-0.024687 SpineMid:-0.081705,0.017387,0.996209,-0.024282 SpineShoulder:-0.106206,0.018317,0.993264,-0.042560 ThumbLeft:0.000000,0.000000,0.000000,0.000000 ThumbRight:0.000000,0.000000,0.000000,0.000000 WristLeft:0.112483,-0.578624,-0.165084,0.790752 WristRight:-0.297023,0.404400,-0.529439,0.684056 END:
KINECT_DATA POSITION:32.450272,0.154044,-6.892991 HEAD_JOINT1:0.985772,0.151623,-0.000000,0.072558 LARM_JOINT2:0.801943,0.000000,-0.050680,-0.595248 LARM_JOINT3:0.959008,0.000000,-0.218194,-0.180819 LLEG_JOINT2:0.998710,0.030437,0.000000,0.040647 LLEG_JOINT4:0.996460,0.082467,0.000000,-0.016315 RARM_JOINT2:0.809882,0.000000,0.537390,0.235168 RARM_JOINT3:0.980062,0.000000,0.183745,-0.075609 RLEG_JOINT2:0.998929,0.011866,0.000000,-0.044714 RLEG_JOINT4:0.992322,0.108251,0.000000,0.059821 WAIST:0.998367,-0.000000,0.057026,0.003310 WAIST_JOINT0:0.994338,-0.000000,0.103066,0.025865 WAIST_JOINT1:0.998722,0.048070,-0.000000,0.015576 END:
KINECT_DATA_Sensor  AnkleLeft:0.072190,0.708659,-0.090544,-0.695983 AnkleRight:0.096992,0.766413,0.072655,0.630812 ElbowLeft:-0.053498,0.875671,-0.154351,-0.454438 ElbowRight:-0.510887,0.815891,-0.045213,0.266969 FootLeft:0.000000,0.000000,0.000000,0.000000 FootRight:0.000000,0.000000,0.000000,0.000000 HandLeft:-0.142624,0.894136,0.142892,-0.399702 HandRight:-0.340010,0.393700,-0.568903,0.636979 HandTipLeft:0.000000,0.000000,0.000000,0.000000 HandTipRight:0.000000,0.000000,0.000000,0.000000 Head:0.000000,0.000000,0.000000,0.000000 HipLeft:0.089464,-0.685498,0.711211,-0.127545 HipRight:-0.175867,0.674513,0.690404,-0.193510 KneeLeft:0.006623,-0.665398,0.052939,0.744580 KneeRight:-0.023127,0.745708,0.036283,0.664882 Neck:-0.104182,0.018602,0.992346,-0.063634 ShoulderLeft:0.032812,0.778316,-0.627003,-0.003811 ShoulderRight:-0.102628,0.798605,0.572266,-0.155596 SpineBase:-0.056709,0.016815,0.997935,-0.025041 SpineMid:-0.079912,0.017393,0.996345,-0.024643 SpineShoulder:-0.103993,0.018336,0.993476,-0.043061 ThumbLeft:0.000000,0.000000,0.000000,0.000000 ThumbRight:0.000000,0.000000,0.000000,0.000000 WristLeft:-0.177800,0.890712,0.089702,-0.408622 WristRight:-0.257621,0.459566,-0.531078,0.663616 END:
KINECT_DATA POSITION:32.423359,0.156248,-6.813502 HEAD_JOINT1:0.984437,0.159382,-0.000000,0.074033 LARM_JOINT2:0.801735,0.000000,-0.051110,-0.595490 LARM_JOINT3:0.958821,0.000000,-0.218438,-0.181515 LLEG_JOINT2:0.998662,0.032028,0.000000,0.040607 LLEG_JOINT4:0.996526,0.081713,0.000000,-0.016107 RARM_JOINT2:0.806869,0.000000,0.496470,0.320126 RARM_JOINT3:0.930151,0.000000,0.317481,-0.184457 RLEG_JOINT2:0.998938,0.011871,0.000000,-0.044530 RLEG_JOINT4:0.992121,0.109878,0.000000,0.060198 WAIST:0.998516,-0.000000,0.054344,0.003664 WAIST_JOINT0:0.994546,-0.000000,0.101024,0.025911 WAIST_JOINT1:0.998693,0.048932,-0.000000,0.014736 END:
KINECT_DATA_Sensor  AnkleLeft:-0.063811,-0.645703,0.097732,0.754615 AnkleRight:0.099038,0.765075,0.072824,0.632098 ElbowLeft:-0.052957,0.877559,-0.153688,-0.451073 ElbowRight:-0.420742,0.745353,-0.146764,0.495868 FootLeft:0.000000,0.000000,0.000000,0.000000 FootRight:0.000000,0.000000,0.000000,0.000000 HandLeft:-0.140541,0.888616,0.150553,-0.409810 HandRight:0.110007,-0.282839,0.745976,-0.592807 HandTipLeft:0.000000,0.000000,0.000000,0.000000 HandTipRight:0.000000,0.000000,0.000000,0.000000 Head:0.000000,0.000000,0.000000,0.000000 HipLeft:0.090779,-0.684880,0.711289,-0.129487 HipRight:-0.173989,0.674919,0.690701,-0.192727 KneeLeft:0.005794,-0.667374,0.054209,0.742725 KneeRight:-0.022633,0.743935,0.035982,0.666898 Neck:-0.102426,0.018213,0.992483,-0.064464 ShoulderLeft:0.034654,0.777350,-0.628105,-0.003382 ShoulderRight:-0.098421,0.798564,0.573692,-0.153254 SpineBase:-0.054046,0.016592,0.998070,-0.025697 SpineMid:-0.077703,0.017197,0.996507,-0.025296 SpineShoulder:-0.102235,0.018039,0.993631,-0.043829 ThumbLeft:0.000000,0.000000,0.000000,0.000000 ThumbRight:0.000000,0.000000,0.000000,0.000000 WristLeft:-0.174658,0.885986,0.092987,-0.419377 WristRight:0.147681,-0.255872,0.666883,-0.684096 END:
KINECT_DATA POSITION:32.437656,0.156556,-6.794000 HEAD_JOINT1:0.984153,0.162814,-0.000000,0.070241 LARM_JOINT2:0.800713,0.000000,-0.053945,-0.596614 LARM_JOINT3:0.959569,0.000000,-0.216187,-0.180249 LLEG_JOINT2:0.998697,0.031623,0.000000,0.040066 LLEG_JOINT4:0.996301,0.084565,0.000000,-0.015237 RARM_JOINT2:0.777708,0.000000,0.579110,0.244545 RARM_JOINT3:0.959242,0.000000,0.232375,-0.160799 RLEG_JOINT2:0.998930,0.011397,0.000000,-0.044830 RLEG_JOINT4:0.992249,0.110221,0.000000,0.057378 WAIST:0.998488,-0.000000,0.054829,0.004033 WAIST_JOINT0:0.994444,-0.000000,0.101743,0.027015 WAIST_JOINT1:0.998532,0.052105,-0.000000,0.014816 END:
KINECT_DATA_Sensor  AnkleLeft:0.075003,0.718669,-0.092684,-0.685054 AnkleRight:0.093965,0.740386,0.078402,0.660948 ElbowLeft:-0.051765,0.877171,-0.152814,-0.452260 ElbowRight:-0.464513,0.738189,-0.211178,0.441257 FootLeft:0.000000,0.000000,0.000000,0.000000 FootRight:0.000000,0.000000,0.000000,0.000000 HandLeft:-0.120347,0.868901,0.153371,-0.454978 HandRight:0.277202,-0.448823,0.640663,-0.557914 HandTipLeft:0.000000,0.000000,0.000000,0.000000 HandTipRight:0.000000,0.000000,0.000000,0.000000 Head:0.000000,0.000000,0.000000,0.000000 HipLeft:0.089269,-0.684527,0.711719,-0.130042 HipRight:-0.173135,0.674816,0.690672,-0.193958 KneeLeft:0.005969,-0.667039,0.053798,0.743054 KneeRight:-0.022933,0.744219,0.035555,0.666594 Neck:-0.103515,0.018788,0.992116,-0.068099 ShoulderLeft:0.040574,0.776005,-0.629406,-0.004247 ShoulderRight:-0.093753,0.799022,0.573624,-0.154044 SpineBase:-0.054527,0.016618,0.998000,-0.027317 SpineMid:-0.078495,0.017269,0.996402,-0.026910 SpineShoulder:-0.103333,0.018426,0.993373,-0.046824 ThumbLeft:0.000000,0.000000,0.000000,0.000000 ThumbRight:0.000000,0.000000,0.000000,0.000000 WristLeft:-0.168921,0.863927,0.101668,-0.463422 WristRight:0.300890,-0.427006,0.632410,-0.572004 END:
KINECT_DATA POSITION:32.483631,0.163436,-6.814742 HEAD_JOINT1:0.984379,0.163520,-0.000000,0.065263 LARM_JOINT2:0.798653,0.000000,-0.049070,-0.599788 LARM_JOINT3:0.961890,0.000000,-0.210143,-0.174949 LLEG_JOINT2:0.998775,0.030438,0.000000,0.039022 LLEG_JOINT4:0.996343,0.084431,0.000000,-0.013132 RARM_JOINT2:0.747392,0.000000,0.593617,0.298369 RARM_JOINT3:0.969262,0.000000,0.142709,-0.200411 RLEG_JOINT2:0.998870,0.012421,0.000000,-0.045866 RLEG_JOINT4:0.992316,0.109417,0.000000,0.057761 WAIST:0.998154,-0.000000,0.060602,0.004115 WAIST_JOINT0:0.993544,-0.000000,0.109951,0.027951 WAIST_JOINT1:0.998365,0.055071,-0.000000,0.015342 END:
KINECT_DATA_Sensor  AnkleLeft:-0.063904,-0.640315,0.099457,0.758961 AnkleRight:0.096345,0.770090,0.075620,0.626068 ElbowLeft:-0.045125,0.869456,-0.152472,-0.467720 ElbowRight:-0.359070,0.664081,-0.314236,0.575604 FootLeft:0.000000,0.000000,0.000000,0.000000 FootRight:0.000000,0.000000,0.000000,0.000000 HandLeft:-0.103386,0.898488,0.124106,-0.408202 HandRight:0.292223,-0.419338,0.614905,-0.600543 HandTipLeft:0.000000,0.000000,0.000000,0.000000 HandTipRight:0.000000,0.000000,0.000000,0.000000 Head:0.000000,0.000000,0.000000,0.000000 HipLeft:0.083305,-0.684992,0.712601,-0.126673 HipRight:-0.174674,0.673741,0.690296,-0.197619 KneeLeft:0.005928,-0.662789,0.052305,0.746954 KneeRight:-0.023194,0.748043,0.036802,0.662224 Neck:-0.111802,0.019389,0.990982,-0.071273 ShoulderLeft:0.047263,0.775005,-0.630136,-0.007952 ShoulderRight:-0.097951,0.797663,0.572320,-0.163058 SpineBase:-0.060269,0.016726,0.997615,-0.029204 SpineMid:-0.085503,0.017460,0.995769,-0.028771 SpineShoulder:-0.111653,0.018776,0.992323,-0.049769 ThumbLeft:0.000000,0.000000,0.000000,0.000000 ThumbRight:0.000000,0.000000,0.000000,0.000000 WristLeft:-0.173166,0.889412,0.085588,-0.414289 WristRight:0.319816,-0.394122,0.594301,-0.623853 END:
KINECT_DATA POSITION:32.542763,0.177880,-6.848478 HEAD_JOINT1:0.984585,0.163923,-0.000000,0.061010 LARM_JOINT2:0.796423,0.000000,-0.045424,-0.603031 LARM_JOINT3:0.961701,0.000000,-0.216449,-0.168167 LLEG_JOINT2:0.998861,0.029196,0.000000,0.037728 LLEG_JOINT4:0.996267,0.085464,0.000000,-0.012162 RARM_JOINT2:0.747426,0.000000,0.570118,0.341056 RARM_JOINT3:0.960341,0.000000,0.160245,-0.228181 RLEG_JOINT2:0.998798,0.012797,0.000000,-0.047317 RLEG_JOINT4:0.991955,0.110041,0.000000,0.062587 WAIST:0.997884,-0.000000,0.064855,0.004698 WAIST_JOINT0:0.992990,-0.000000,0.114371,0.029833 WAIST_JOINT1:0.998259,0.056751,-0.000000,0.016101 END:
KINECT_DATA_Sensor  AnkleLeft:-0.064031,-0.637611,0.099156,0.761263 AnkleRight:0.091551,0.705652,0.083616,0.697626 ElbowLeft:-0.041584,0.860268,-0.151581,-0.485008 ElbowRight:-0.322466,0.659294,-0.304133,0.607331 FootLeft:0.000000,0.000000,0.000000,0.000000 FootRight:0.000000,0.000000,0.000000,0.000000 HandLeft:-0.122565,0.906372,0.120363,-0.385979 HandRight:0.263192,-0.369766,0.623689,-0.636408 HandTipLeft:0.000000,0.000000,0.000000,0.000000 HandTipRight:0.000000,0.000000,0.000000,0.000000 Head:0.000000,0.000000,0.000000,0.000000 HipLeft:0.079065,-0.684849,0.713562,-0.124740 HipRight:-0.175936,0.673281,0.689648,-0.200313 KneeLeft:0.006212,-0.659629,0.050938,0.749838 KneeRight:-0.023794,0.750824,0.037519,0.659006 Neck:-0.116538,0.020742,0.990283,-0.072995 ShoulderLeft:0.053285,0.772555,-0.632610,-0.011151 ShoulderRight:-0.098181,0.797252,0.571744,-0.166907 SpineBase:-0.064505,0.017513,0.997291,-0.030711 SpineMid:-0.089998,0.018293,0.995314,-0.030253 SpineShoulder:-0.116404,0.019808,0.991669,-0.051478 ThumbLeft:0.000000,0.000000,0.000000,0.000000 ThumbRight:0.000000,0.000000,0.000000,0.000000 WristLeft:-0.177281,0.899364,0.074871,-0.392570 WristRight:-0.287198,0.347511,-0.609508,0.652115 END:
KINECT_DATA POSITION:32.562210,0.189391,-6.855834 HEAD_JOINT1:0.984793,0.162959,-0.000000,0.060228 LARM_JOINT2:0.796012,0.000000,-0.046494,-0.603493 LARM_JOINT3:0.959075,0.000000,-0.225343,-0.171452 LLEG_JOINT2:0.998892,0.028673,0.000000,0.037306 LLEG_JOINT4:0.996335,0.084899,0.000000,-0.010411 RARM_JOINT2:0.760399,0.000000,0.555222,0.336929 RARM_JOINT3:0.955844,0.000000,0.185187,-0.228185 RLEG_JOINT2:0.998777,0.013364,0.000000,-0.047602 RLEG_JOINT4:0.992088,0.109390,0.000000,0.061608 WAIST:0.997731,-0.000000,0.067143,0.004977 WAIST_JOINT0:0.992820,-0.000000,0.115641,0.030599 WAIST_JOINT1:0.998197,0.057617,-0.000000,0.016833 END:
KINECT_DATA_Sensor  AnkleLeft:0.073132,0.717629,-0.091818,-0.686462 AnkleRight:0.098394,0.772564,0.074995,0.622767 ElbowLeft:-0.041424,0.858958,-0.151957,-0.487221 ElbowRight:-0.366452,0.730234,-0.244460,0.522217 FootLeft:0.000000,0.000000,0.000000,0.000000 FootRight:0.000000,0.000000,0.000000,0.000000 HandLeft:-0.150260,0.908141,0.143145,-0.363608 HandRight:-0.397805,0.353164,-0.497458,0.685246 HandTipLeft:0.000000,0.000000,0.000000,0.000000 HandTipRight:0.000000,0.000000,0.000000,0.000000 Head:0.000000,0.000000,0.000000,0.000000 HipLeft:0.077034,-0.684677,0.713969,-0.124626 HipRight:-0.176846,0.672885,0.689207,-0.202349 KneeLeft:0.006415,-0.657934,0.050481,0.751355 KneeRight:-0.023531,0.752327,0.037872,0.657279 Neck:-0.117966,0.021502,0.990043,-0.073736 ShoulderLeft:0.056059,0.771752,-0.633326,-0.012393 ShoulderRight:-0.097196,0.797497,0.571296,-0.167848 SpineBase:-0.066769,0.018145,0.997092,-0.031950 SpineMid:-0.091847,0.018944,0.995095,-0.031483 SpineShoulder:-0.117817,0.020641,0.991434,-0.052449 ThumbLeft:0.000000,0.000000,0.000000,0.000000 ThumbRight:0.000000,0.000000,0.000000,0.000000 WristLeft:-0.179491,0.906815,0.070526,-0.374827 WristRight:0.295298,-0.418167,0.633453,-0.580236 END:
KINECT_DATA POSITION:32.528816,0.197865,-6.860483 HEAD_JOINT1:0.984420,0.164534,-0.000000,0.062014 LARM_JOINT2:0.796393,0.000000,-0.047134,-0.602939 LARM_JOINT3:0.958621,0.000000,-0.225628,-0.173602 LLEG_JOINT2:0.998920,0.028117,0.000000,0.037000 LLEG_JOINT4:0.996321,0.085160,0.000000,-0.009557 RARM_JOINT2:0.773400,0.000000,0.600615,0.202766 RARM_JOINT3:0.990064,0.000000,0.102871,-0.095867 RLEG_JOINT2:0.998786,0.014170,0.000000,-0.047169 RLEG_JOINT4:0.992049,0.109065,0.000000,0.062796 WAIST:0.997702,-0.000000,0.067561,0.005090 WAIST_JOINT0:0.992948,-0.000000,0.114490,0.030764 WAIST_JOINT1:0.998148,0.058196,-0.000000,0.017708 END:
KINECT_DATA_Sensor  AnkleLeft:-0.062014,-0.637864,0.099536,0.761168 AnkleRight:0.099817,0.771762,0.074338,0.623614 ElbowLeft:-0.041132,0.861168,-0.153680,-0.482784 ElbowRight:-0.525345,0.817542,-0.101511,0.212916 FootLeft:0.000000,0.000000,0.000000,0.000000 FootRight:0.000000,0.000000,0.000000,0.000000 HandLeft:-0.156393,0.919042,0.139294,-0.333916 HandRight:0.322872,-0.332647,0.632507,-0.620511 HandTipLeft:0.000000,0.000000,0.000000,0.000000 HandTipRight:0.000000,0.000000,0.000000,0.000000 Head:0.000000,0.000000,0.000000,0.000000 HipLeft:0.075997,-0.684515,0.714126,-0.125251 HipRight:-0.176550,0.672862,0.689166,-0.202823 KneeLeft:0.006692,-0.657652,0.049966,0.751633 KneeRight:-0.022613,0.752614,0.038104,0.656969 Neck:-0.117136,0.022289,0.990085,-0.074254 ShoulderLeft:0.055897,0.771423,-0.633763,-0.011238 ShoulderRight:-0.096332,0.797994,0.570823,-0.167590 SpineBase:-0.067151,0.018951,0.997019,-0.032924 SpineMid:-0.091616,0.019754,0.995070,-0.032448 SpineShoulder:-0.116960,0.021550,0.991482,-0.053105 ThumbLeft:0.000000,0.000000,0.000000,0.000000 ThumbRight:0.000000,0.000000,0.000000,0.000000 WristLeft:-0.180488,0.918496,0.065920,-0.345606 WristRight:-0.231062,0.424423,-0.526019,0.699842 END:
KINECT_DATA POSITION:32.466824,0.199221,-6.839287 HEAD_JOINT1:0.983684,0.166606,-0.000000,0.067887 LARM_JOINT2:0.797843,0.000000,-0.050919,-0.600711 LARM_JOINT3:0.958160,0.000000,-0.228526,-0.172352 LLEG_JOINT2:0.998895,0.028660,0.000000,0.037246 LLEG_JOINT4:0.996355,0.084781,0.000000,-0.009421 RARM_JOINT2:0.792585,0.000000,0.546652,0.270151 RARM_JOINT3:0.953966,0.000000,0.233495,-0.188225 RLEG_JOINT2:0.998790,0.013295,0.000000,-0.047352 RLEG_JOINT4:0.992283,0.107321,0.000000,0.062101 WAIST:0.997833,-0.000000,0.065585,0.005326 WAIST_JOINT0:0.993502,-0.000000,0.109419,0.031314 WAIST_JOINT1:0.998152,0.058193,-0.000000,0.017508 END:
KINECT_DATA_Sensor  AnkleLeft:-0.061739,-0.640992,0.100084,0.758485 AnkleRight:0.097538,0.769576,0.072906,0.626837 ElbowLeft:-0.044119,0.865510,-0.154982,-0.474264 ElbowRight:-0.457744,0.783937,-0.148817,0.392130 FootLeft:0.000000,0.000000,0.000000,0.000000 FootRight:0.000000,0.000000,0.000000,0.000000 HandLeft:0.054973,-0.511871,-0.220135,0.828557 HandRight:0.316993,-0.251724,0.768399,-0.495696 HandTipLeft:0.000000,0.000000,0.000000,0.000000 HandTipRight:0.000000,0.000000,0.000000,0.000000 Head:0.000000,0.000000,0.000000,0.000000 HipLeft:0.077268,-0.683993,0.714065,-0.127648 HipRight:-0.175463,0.673200,0.689225,-0.202444 KneeLeft:0.006702,-0.659135,0.050670,0.750286 KneeRight:-0.023082,0.751255,0.037450,0.658544 Neck:-0.112260,0.022096,0.990660,-0.074184 ShoulderLeft:0.052479,0.770765,-0.634918,-0.006838 ShoulderRight:-0.093600,0.798578,0.571494,-0.164034 SpineBase:-0.065166,0.019462,0.997117,-0.033647 SpineMid:-0.088183,0.020234,0.995346,-0.033188 SpineShoulder:-0.112058,0.021583,0.992045,-0.053145 ThumbLeft:0.000000,0.000000,0.000000,0.000000 ThumbRight:0.000000,0.000000,0.000000,0.000000 WristLeft:0.098802,-0.501401,-0.163297,0.843901 WristRight:0.230083,-0.413685,0.583575,-0.659823 END:
KINECT_DATA POSITION:32.416428,0.184053,-6.816888 HEAD_JOINT1:0.983144,0.168758,-0.000000,0.070350 LARM_JOINT2:0.799389,0.000000,-0.056724,-0.598130 LARM_JOINT3:0.958151,0.000000,-0.224705,-0.177352 LLEG_JOINT2:0.998862,0.029897,0.000000,0.037149 LLEG_JOINT4:0.996432,0.083511,0.000000,-0.012243 RARM_JOINT2:0.813122,0.000000,0.527180,0.246808 RARM_JOINT3:0.923694,0.000000,0.332769,-0.189878 RLEG_JOINT2:0.998854,0.013214,0.000000,-0.045999 RLEG_JOINT4:0.992366,0.108788,0.000000,0.058100 WAIST:0.998032,-0.000000,0.062429,0.005860 WAIST_JOINT0:0.994225,-0.000000,0.102717,0.031065 WAIST_JOINT1:0.998174,0.058089,-0.000000,0.016547 END:
KINECT_DATA_Sensor  AnkleLeft:-0.063159,-0.644727,0.098365,0.755423 AnkleRight:0.097040,0.766383,0.075253,0.630537 ElbowLeft:-0.047719,0.873633,-0.155703,-0.458525 ElbowRight:-0.475437,0.758740,-0.134981,0.424328 FootLeft:0.000000,0.000000,0.000000,0.000000 FootRight:0.000000,0.000000,0.000000,0.000000 HandLeft:0.084334,-0.648033,-0.213915,0.726072 HandRight:0.237744,-0.381799,0.750094,-0.484836 HandTipLeft:0.000000,0.000000,0.000000,0.000000 HandTipRight:0.000000,0.000000,0.000000,0.000000 Head:0.000000,0.000000,0.000000,0.000000 HipLeft:0.079222,-0.683424,0.714017,-0.129754 HipRight:-0.173252,0.674190,0.689275,-0.200876 KneeLeft:0.006234,-0.661456,0.051783,0.748168 KneeRight:-0.021613,0.749227,0.036201,0.660970 Neck:-0.105478,0.021501,0.991429,-0.074035 ShoulderLeft:0.048434,0.771999,-0.633771,-0.002310 ShoulderRight:-0.088653,0.800271,0.571568,-0.158170 SpineBase:-0.062049,0.019453,0.997309,-0.033851 SpineMid:-0.083241,0.020168,0.995764,-0.033429 SpineShoulder:-0.105259,0.021169,0.992804,-0.053040 ThumbLeft:0.000000,0.000000,0.000000,0.000000 ThumbRight:0.000000,0.000000,0.000000,0.000000 WristLeft:0.121595,-0.640204,-0.145857,0.744365 WristRight:0.249709,-0.400309,0.665318,-0.578576 END:
KINECT_DATA POSITION:32.335083,0.155414,-6.658828 HEAD_JOINT1:0.982221,0.173182,-0.000000,0.072457 LARM_JOINT2:0.799877,0.000000,-0.057167,-0.597435 LARM_JOINT3:0.960406,0.000000,-0.214319,-0.178008 LLEG_JOINT2:0.998807,0.031289,0.000000,0.037504 LLEG_JOINT4:0.996435,0.083222,0.000000,-0.013859 RARM_JOINT2:0.796944,0.000000,0.558543,0.230021 RARM_JOINT3:0.942687,0.000000,0.287814,-0.168830 RLEG_JOINT2:0.998867,0.013048,0.000000,-0.045774 RLEG_JOINT4:0.992161,0.110560,0.000000,0.058248 WAIST:0.998188,-0.000000,0.059854,0.006179 WAIST_JOINT0:0.992763,-0.000000,0.113344,0.039691 WAIST_JOINT1:0.998207,0.057713,-0.000000,0.015852 END:
KINECT_DATA_Sensor  AnkleLeft:0.073530,0.716043,-0.091912,-0.688061 AnkleRight:0.099641,0.771230,0.074627,0.624266 ElbowLeft:-0.049173,0.874233,-0.155651,-0.457243 ElbowRight:-0.482641,0.752255,-0.168043,0.415850 FootLeft:0.000000,0.000000,0.000000,0.000000 FootRight:0.000000,0.000000,0.000000,0.000000 HandLeft:-0.121749,0.891590,0.137202,-0.414028 HandRight:0.218089,-0.407672,0.707977,-0.533862 HandTipLeft:0.000000,0.000000,0.000000,0.000000 HandTipRight:0.000000,0.000000,0.000000,0.000000 Head:0.000000,0.000000,0.000000,0.000000 HipLeft:0.080840,-0.682975,0.714010,-0.131152 HipRight:-0.171902,0.674738,0.689412,-0.199722 KneeLeft:0.005773,-0.663336,0.053189,0.746407 KneeRight:-0.021225,0.747544,0.035769,0.662909 Neck:-0.116994,0.022280,0.990173,-0.073304 ShoulderLeft:0.044961,0.772415,-0.633512,-0.003938 ShoulderRight:-0.107430,0.808489,0.552249,-0.172702 SpineBase:-0.059506,0.019323,0.997468,-0.033810 SpineMid:-0.087583,0.020268,0.995396,-0.033252 SpineShoulder:-0.116803,0.021707,0.991540,-0.052289 ThumbLeft:0.000000,0.000000,0.000000,0.000000 ThumbRight:0.000000,0.000000,0.000000,0.000000 WristLeft:-0.172317,0.885908,0.087365,-0.421711 WristRight:0.244365,-0.392146,0.664361,-0.587479 END:
KINECT_DATA POSITION:32.344990,0.150014,-6.613827 HEAD_JOINT1:0.982354,0.174577,-0.000000,0.067116 LARM_JOINT2:0.797382,0.000000,-0.051250,-0.601295 LARM_JOINT3:0.962747,0.000000,-0.209202,-0.171328 LLEG_JOINT2:0.998807,0.031369,0.000000,0.037416 LLEG_JOINT4:0.996310,0.084828,0.000000,-0.013079 RARM_JOINT2:0.766701,0.000000,0.601240,0.225122 RARM_JOINT3:0.973155,0.000000,0.172448,-0.152417 RLEG_JOINT2:0.998848,0.011794,0.000000,-0.046509 RLEG_JOINT4:0.991803,0.113132,0.000000,0.059392 WAIST:0.997976,-0.000000,0.063269,0.006350 WAIST_JOINT0:0.993013,-0.000000,0.111496,0.038642 WAIST_JOINT1:0.997996,0.060908,-0.000000,0.017152 END:
KINECT_DATA_Sensor  AnkleLeft:0.076027,0.723593,-0.092214,-0.679801 AnkleRight:0.095843,0.733173,0.081567,0.668295 ElbowLeft:-0.042374,0.866159,-0.155621,-0.473028 ElbowRight:-0.455171,0.728697,-0.248790,0.447128 FootLeft:0.000000,0.000000,0.000000,0.000000 FootRight:0.000000,0.000000,0.000000,0.000000 HandLeft:0.036889,-0.632704,-0.141105,0.760536 HandRight:0.266969,-0.401031,0.675059,-0.558746 HandTipLeft:0.000000,0.000000,0.000000,0.000000 HandTipRight:0.000000,0.000000,0.000000,0.000000 Head:0.000000,0.000000,0.000000,0.000000 HipLeft:0.077447,-0.682862,0.714503,-0.131100 HipRight:-0.172927,0.673863,0.689016,-0.203130 KneeLeft:0.005605,-0.660824,0.053302,0.748625 KneeRight:-0.022628,0.749673,0.035100,0.660490 Neck:-0.115497,0.023298,0.990047,-0.076967 ShoulderLeft:0.055769,0.769518,-0.636146,-0.007114 ShoulderRight:-0.094045,0.806572,0.558929,-0.167917 SpineBase:-0.062874,0.019897,0.997169,-0.036124 SpineMid:-0.088598,0.020823,0.995213,-0.035599 SpineShoulder:-0.115297,0.022638,0.991518,-0.055550 ThumbLeft:0.000000,0.000000,0.000000,0.000000 ThumbRight:0.000000,0.000000,0.000000,0.000000 WristLeft:0.118976,-0.614965,-0.148241,0.765302 WristRight:0.275169,-0.408599,0.596788,-0.633382 END:
KINECT_DATA POSITION:32.377182,0.137208,-6.577623 HEAD_JOINT1:0.983169,0.172244,-0.000000,0.060916 LARM_JOINT2:0.794857,0.000000,-0.043036,-0.605269 LARM_JOINT3:0.960939,0.000000,-0.219422,-0.168674 LLEG_JOINT2:0.998865,0.030818,0.000000,0.036328 LLEG_JOINT4:0.996336,0.084832,0.000000,-0.010859 RARM_JOINT2:0.765836,0.000000,0.569374,0.298846 RARM_JOINT3:0.965912,0.000000,0.161494,-0.202323 RLEG_JOINT2:0.998731,0.011879,0.000000,-0.048948 RLEG_JOINT4:0.991555,0.113437,0.000000,0.062852 WAIST:0.997570,-0.000000,0.069317,0.007075 WAIST_JOINT0:0.991257,-0.000000,0.126161,0.038644 WAIST_JOINT1:0.997837,0.063064,-0.000000,0.018561 END:
KINECT_DATA_Sensor  AnkleLeft:-0.063089,-0.630541,0.101364,0.766918 AnkleRight:0.096454,0.733564,0.081729,0.667758 ElbowLeft:-0.035490,0.853854,-0.156547,-0.495144 ElbowRight:-0.370271,0.687062,-0.277967,0.559981 FootLeft:0.000000,0.000000,0.000000,0.000000 FootRight:0.000000,0.000000,0.000000,0.000000 HandLeft:-0.101163,0.885417,0.123046,-0.436648 HandRight:0.318118,-0.399658,0.608543,-0.607248 HandTipLeft:0.000000,0.000000,0.000000,0.000000 HandTipRight:0.000000,0.000000,0.000000,0.000000 Head:0.000000,0.000000,0.000000,0.000000 HipLeft:0.073178,-0.682684,0.715314,-0.130046 HipRight:-0.176671,0.672832,0.687446,-0.208572 KneeLeft:0.005522,-0.656308,0.052638,0.752634 KneeRight:-0.024143,0.753569,0.036087,0.655934 Neck:-0.130455,0.025892,0.987963,-0.078994 ShoulderLeft:0.063210,0.766746,-0.638683,-0.013773 ShoulderRight:-0.107031,0.801217,0.559297,-0.183802 SpineBase:-0.068890,0.020996,0.996673,-0.038166 SpineMid:-0.099042,0.022142,0.994129,-0.037513 SpineShoulder:-0.130278,0.024828,0.989494,-0.057563 ThumbLeft:0.000000,0.000000,0.000000,0.000000 ThumbRight:0.000000,0.000000,0.000000,0.000000 WristLeft:-0.172892,0.876328,0.080255,-0.442399 WristRight:0.315758,-0.403811,0.586204,-0.627374 END:
KINECT_DATA POSITION:32.405102,0.131388,-6.589603 HEAD_JOINT1:0.983375,0.171549,-0.000000,0.059544 LARM_JOINT2:0.790985,0.000000,-0.048333,-0.609923 LARM_JOINT3:0.961581,0.000000,-0.220845,-0.163060 LLEG_JOINT2:0.998900,0.030113,0.000000,0.035931 LLEG_JOINT4:0.996487,0.083140,0.000000,-0.010072 RARM_JOINT2:0.781571,0.000000,0.584430,0.218147 RARM_JOINT3:0.990264,0.000000,0.106156,-0.090048 RLEG_JOINT2:0.998685,0.011929,0.000000,-0.049859 RLEG_JOINT4:0.991666,0.113521,0.000000,0.060917 WAIST:0.997374,-0.000000,0.072052,0.007264 WAIST_JOINT0:0.990215,-0.000000,0.134081,0.038687 WAIST_JOINT1:0.997816,0.063227,-0.000000,0.019139 END:
KINECT_DATA_Sensor  AnkleLeft:0.072294,0.713048,-0.092287,-0.691245 AnkleRight:0.100055,0.781529,0.076750,0.610992 ElbowLeft:-0.037074,0.851339,-0.149954,-0.501360 ElbowRight:-0.468323,0.740861,-0.220853,0.427811 FootLeft:0.000000,0.000000,0.000000,0.000000 FootRight:0.000000,0.000000,0.000000,0.000000 HandLeft:-0.123346,0.915910,0.120747,-0.362375 HandRight:-0.281200,0.384527,-0.482584,0.734968 HandTipLeft:0.000000,0.000000,0.000000,0.000000 HandTipRight:0.000000,0.000000,0.000000,0.000000 Head:0.000000,0.000000,0.000000,0.000000 HipLeft:0.070733,-0.682892,0.715673,-0.128327 HipRight:-0.178025,0.672563,0.686943,-0.209943 KneeLeft:0.005799,-0.654263,0.052013,0.754454 KneeRight:-0.024779,0.755327,0.036506,0.653861 Neck:-0.138676,0.027065,0.986809,-0.079019 ShoulderLeft:0.070874,0.765299,-0.639394,-0.021664 ShoulderRight:-0.109849,0.800118,0.558606,-0.188953 SpineBase:-0.071606,0.021577,0.996457,-0.038478 SpineMid:-0.104485,0.022837,0.993548,-0.037744 SpineShoulder:-0.138522,0.025697,0.988347,-0.057637 ThumbLeft:0.000000,0.000000,0.000000,0.000000 ThumbRight:0.000000,0.000000,0.000000,0.000000 WristLeft:-0.180521,0.909044,0.066081,-0.369707 WristRight:0.258914,-0.395122,0.599829,-0.645792 END:
