EastLYD/RoboCupatHomeSim/InteractiveCleanUp/JapanOpen2016/Motion_Data/File53.dat
KINECT_DATA POSITION:20.653048,-4.059513,-2.988422 HEAD_JOINT1:0.977980,0.184467,-0.000000,0.097609 LARM_JOINT2:0.824173,0.000000,-0.027655,-0.565662 LARM_JOINT3:0.978796,0.000000,-0.163267,-0.123706 LLEG_JOINT2:0.998620,0.020217,0.000000,0.048476 LLEG_JOINT4:0.995221,0.088779,0.000000,-0.040671 RARM_JOINT2:0.799217,0.000000,-0.040638,0.599667 RARM_JOINT3:0.974074,0.000000,0.181680,0.134805 RLEG_JOINT2:0.999353,-0.006990,-0.000000,-0.035295 RLEG_JOINT4:0.993527,0.107044,0.000000,0.038020 WAIST:0.999943,-0.000000,0.010654,0.000950 WAIST_JOINT0:0.999928,0.000000,-0.002641,0.011705 WAIST_JOINT1:0.996467,0.083401,0.000000,-0.009897 END:
KINECT_DATA_Sensor  AnkleLeft:-0.071209,-0.687140,0.082655,0.718287 AnkleRight:0.073228,0.713594,0.068245,0.693371 ElbowLeft:-0.025139,0.875521,-0.180941,-0.447316 ElbowRight:0.025586,0.866551,0.186264,0.462321 FootLeft:0.000000,0.000000,0.000000,0.000000 FootRight:0.000000,0.000000,0.000000,0.000000 HandLeft:0.028138,-0.390531,-0.093664,0.915380 HandRight:-0.050910,0.750124,-0.072251,0.655364 HandTipLeft:0.000000,0.000000,0.000000,0.000000 HandTipRight:0.000000,0.000000,0.000000,0.000000 Head:0.000000,0.000000,0.000000,0.000000 HipLeft:0.099409,-0.679643,0.707085,-0.168029 HipRight:-0.118886,0.673788,0.703170,-0.193462 KneeLeft:0.020114,-0.698808,0.049462,0.713314 KneeRight:-0.029425,0.714678,0.019045,0.698575 Neck:0.001613,-0.012508,0.994945,-0.099628 ShoulderLeft:0.024919,0.776244,-0.625304,0.076281 ShoulderRight:0.028393,0.785747,0.613787,-0.071144 SpineBase:-0.011135,-0.007278,0.998216,-0.058212 SpineMid:-0.004798,-0.007647,0.998266,-0.058164 SpineShoulder:0.001609,-0.010335,0.996911,-0.077846 ThumbLeft:0.000000,0.000000,0.000000,0.000000 ThumbRight:0.000000,0.000000,0.000000,0.000000 WristLeft:0.088776,-0.381050,-0.067106,0.917832 WristRight:-0.071359,0.750389,-0.022973,0.656731 END:
KINECT_DATA POSITION:20.690157,-4.078063,-2.891982 HEAD_JOINT1:0.977729,0.184991,-0.000000,0.099114 LARM_JOINT2:0.824834,0.000000,-0.028808,-0.564640 LARM_JOINT3:0.978504,0.000000,-0.163642,-0.125502 LLEG_JOINT2:0.998591,0.020040,0.000000,0.049128 LLEG_JOINT4:0.995461,0.087490,0.000000,-0.037466 RARM_JOINT2:0.798466,0.000000,-0.040566,0.600671 RARM_JOINT3:0.974404,0.000000,0.178310,0.136906 RLEG_JOINT2:0.999380,-0.005487,-0.000000,-0.034778 RLEG_JOINT4:0.993307,0.109008,0.000000,0.038195 WAIST:0.999945,-0.000000,0.010438,0.000902 WAIST_JOINT0:0.999933,0.000000,-0.003555,0.011004 WAIST_JOINT1:0.996423,0.083847,0.000000,-0.010501 END:
KINECT_DATA_Sensor  AnkleLeft:0.072841,0.732936,-0.079758,-0.671668 AnkleRight:0.076096,0.712687,0.070276,0.693792 ElbowLeft:-0.025066,0.877719,-0.181248,-0.442866 ElbowRight:0.026014,0.865911,0.185958,0.463618 FootLeft:0.000000,0.000000,0.000000,0.000000 FootRight:0.000000,0.000000,0.000000,0.000000 HandLeft:-0.068926,0.783145,0.071637,-0.613842 HandRight:-0.035188,0.776277,-0.066574,0.625878 HandTipLeft:0.000000,0.000000,0.000000,0.000000 HandTipRight:0.000000,0.000000,0.000000,0.000000 Head:0.000000,0.000000,0.000000,0.000000 HipLeft:0.099632,-0.679639,0.707005,-0.168252 HipRight:-0.118405,0.673684,0.703265,-0.193774 KneeLeft:0.020676,-0.698904,0.049765,0.713182 KneeRight:-0.028032,0.714635,0.019801,0.698655 Neck:0.002629,-0.013208,0.994888,-0.100087 ShoulderLeft:0.024455,0.776891,-0.624390,0.077332 ShoulderRight:0.029254,0.785426,0.614210,-0.070685 SpineBase:-0.010959,-0.008017,0.998194,-0.058511 SpineMid:-0.004223,-0.008412,0.998246,-0.058456 SpineShoulder:0.002611,-0.011049,0.996868,-0.078260 ThumbLeft:0.000000,0.000000,0.000000,0.000000 ThumbRight:0.000000,0.000000,0.000000,0.000000 WristLeft:-0.109480,0.780910,0.016732,-0.614747 WristRight:-0.072250,0.775854,-0.020755,0.626418 END:
KINECT_DATA POSITION:20.722677,-4.105947,-2.742517 HEAD_JOINT1:0.977758,0.184234,-0.000000,0.100239 LARM_JOINT2:0.824769,0.000000,-0.027936,-0.564780 LARM_JOINT3:0.978124,0.000000,-0.166125,-0.125203 LLEG_JOINT2:0.998566,0.021020,0.000000,0.049234 LLEG_JOINT4:0.995201,0.089840,0.000000,-0.038784 RARM_JOINT2:0.797934,0.000000,-0.041125,0.601340 RARM_JOINT3:0.974048,0.000000,0.178331,0.139387 RLEG_JOINT2:0.999375,-0.006250,-0.000000,-0.034799 RLEG_JOINT4:0.993503,0.107344,0.000000,0.037795 WAIST:0.999955,-0.000000,0.009494,0.000510 WAIST_JOINT0:0.999933,0.000000,-0.004630,0.010645 WAIST_JOINT1:0.996347,0.084701,0.000000,-0.010850 END:
KINECT_DATA_Sensor  AnkleLeft:0.074238,0.715821,-0.082718,-0.689381 AnkleRight:0.073895,0.712428,0.069044,0.694420 ElbowLeft:-0.024242,0.876307,-0.181053,-0.445779 ElbowRight:0.027473,0.865590,0.186432,0.463941 FootLeft:0.000000,0.000000,0.000000,0.000000 FootRight:0.000000,0.000000,0.000000,0.000000 HandLeft:0.031872,-0.455667,-0.096577,0.884322 HandRight:-0.028407,0.770285,-0.073111,0.632858 HandTipLeft:0.000000,0.000000,0.000000,0.000000 HandTipRight:0.000000,0.000000,0.000000,0.000000 Head:0.000000,0.000000,0.000000,0.000000 HipLeft:0.099900,-0.679688,0.706714,-0.169113 HipRight:-0.117165,0.673395,0.703736,-0.193822 KneeLeft:0.019819,-0.699594,0.050232,0.712497 KneeRight:-0.028838,0.714001,0.019578,0.699277 Neck:0.003672,-0.013867,0.994785,-0.100985 ShoulderLeft:0.024913,0.777483,-0.623527,0.078192 ShoulderRight:0.031104,0.785587,0.614002,-0.069906 SpineBase:-0.010025,-0.008787,0.998154,-0.059244 SpineMid:-0.003252,-0.009189,0.998200,-0.059183 SpineShoulder:0.003640,-0.011742,0.996791,-0.079097 ThumbLeft:0.000000,0.000000,0.000000,0.000000 ThumbRight:0.000000,0.000000,0.000000,0.000000 WristLeft:0.091708,-0.445552,-0.062769,0.888332 WristRight:-0.070933,0.770478,-0.020770,0.633167 END:
KINECT_DATA POSITION:20.766756,-4.149043,-2.571094 HEAD_JOINT1:0.977248,0.186933,-0.000000,0.100215 LARM_JOINT2:0.824490,0.000000,-0.026728,-0.565245 LARM_JOINT3:0.978720,0.000000,-0.163189,-0.124405 LLEG_JOINT2:0.998560,0.021867,0.000000,0.048978 LLEG_JOINT4:0.995144,0.090539,0.000000,-0.038605 RARM_JOINT2:0.797525,0.000000,-0.042294,0.601802 RARM_JOINT3:0.974130,0.000000,0.178506,0.138589 RLEG_JOINT2:0.999375,-0.005215,-0.000000,-0.034953 RLEG_JOINT4:0.993358,0.109377,0.000000,0.035723 WAIST:0.999962,-0.000000,0.008685,0.000301 WAIST_JOINT0:0.999931,0.000000,-0.005115,0.010532 WAIST_JOINT1:0.996367,0.084460,0.000000,-0.010941 END:
KINECT_DATA_Sensor  AnkleLeft:0.077791,0.735081,-0.081483,-0.668554 AnkleRight:0.074477,0.712325,0.072781,0.694081 ElbowLeft:-0.023441,0.876443,-0.180681,-0.445706 ElbowRight:0.028413,0.865148,0.186433,0.464709 FootLeft:0.000000,0.000000,0.000000,0.000000 FootRight:0.000000,0.000000,0.000000,0.000000 HandLeft:-0.065668,0.805927,0.063094,-0.584968 HandRight:-0.024455,0.699702,-0.074061,0.710165 HandTipLeft:0.000000,0.000000,0.000000,0.000000 HandTipRight:0.000000,0.000000,0.000000,0.000000 Head:0.000000,0.000000,0.000000,0.000000 HipLeft:0.100604,-0.679740,0.706520,-0.169296 HipRight:-0.116709,0.673387,0.703997,-0.193179 KneeLeft:0.018927,-0.700205,0.050480,0.711903 KneeRight:-0.028352,0.713458,0.020595,0.699821 Neck:0.004190,-0.014051,0.994802,-0.100765 ShoulderLeft:0.024060,0.777844,-0.623053,0.078645 ShoulderRight:0.030913,0.785809,0.613767,-0.069559 SpineBase:-0.009216,-0.009122,0.998175,-0.058973 SpineMid:-0.002598,-0.009513,0.998214,-0.058912 SpineShoulder:0.004152,-0.011945,0.996805,-0.078861 ThumbLeft:0.000000,0.000000,0.000000,0.000000 ThumbRight:0.000000,0.000000,0.000000,0.000000 WristLeft:-0.109331,0.803149,0.013686,-0.585501 WristRight:-0.067453,0.694131,-0.028052,0.716132 END:
KINECT_DATA POSITION:20.812431,-4.189761,-2.379084 HEAD_JOINT1:0.977278,0.187230,-0.000000,0.099364 LARM_JOINT2:0.824221,0.000000,-0.025213,-0.565707 LARM_JOINT3:0.972896,0.000000,-0.190482,-0.131113 LLEG_JOINT2:0.998524,0.023194,0.000000,0.049112 LLEG_JOINT4:0.995143,0.091255,0.000000,-0.036927 RARM_JOINT2:0.797248,0.000000,-0.042726,0.602138 RARM_JOINT3:0.974651,0.000000,0.175736,0.138461 RLEG_JOINT2:0.999373,-0.005038,-0.000000,-0.035055 RLEG_JOINT4:0.993117,0.110652,0.000000,0.038394 WAIST:0.999970,0.000000,0.007772,-0.000053 WAIST_JOINT0:0.999931,0.000000,-0.005161,0.010526 WAIST_JOINT1:0.996384,0.084288,0.000000,-0.010728 END:
KINECT_DATA_Sensor  AnkleLeft:0.074611,0.706088,-0.087281,-0.698752 AnkleRight:0.077170,0.711777,0.072139,0.694416 ElbowLeft:-0.024965,0.870297,-0.180276,-0.457669 ElbowRight:0.029161,0.865377,0.186183,0.464337 FootLeft:0.000000,0.000000,0.000000,0.000000 FootRight:0.000000,0.000000,0.000000,0.000000 HandLeft:-0.090309,0.744807,0.151423,-0.643566 HandRight:-0.024394,0.745506,-0.066479,0.662726 HandTipLeft:0.000000,0.000000,0.000000,0.000000 HandTipRight:0.000000,0.000000,0.000000,0.000000 Head:0.000000,0.000000,0.000000,0.000000 HipLeft:0.101445,-0.679834,0.706218,-0.169679 HipRight:-0.116371,0.673277,0.704341,-0.192507 KneeLeft:0.017864,-0.700923,0.051241,0.711170 KneeRight:-0.028532,0.712797,0.021069,0.700473 Neck:0.004194,-0.013980,0.994812,-0.100679 ShoulderLeft:0.024244,0.778070,-0.622812,0.078265 ShoulderRight:0.031092,0.786137,0.613381,-0.069175 SpineBase:-0.008274,-0.009317,0.998199,-0.058690 SpineMid:-0.002133,-0.009678,0.998231,-0.058631 SpineShoulder:0.004148,-0.011943,0.996819,-0.078693 ThumbLeft:0.000000,0.000000,0.000000,0.000000 ThumbRight:0.000000,0.000000,0.000000,0.000000 WristLeft:-0.113502,0.752361,0.028088,-0.648291 WristRight:-0.068250,0.745259,-0.022108,0.662904 END:
KINECT_DATA POSITION:20.816385,-4.244800,-2.168810 HEAD_JOINT1:0.977571,0.186503,-0.000000,0.097836 LARM_JOINT2:0.829548,0.000000,-0.023419,-0.557945 LARM_JOINT3:0.923352,0.000000,-0.329707,-0.196763 LLEG_JOINT2:0.998475,0.024667,0.000000,0.049385 LLEG_JOINT4:0.995251,0.089063,0.000000,-0.039291 RARM_JOINT2:0.797417,0.000000,-0.043577,0.601853 RARM_JOINT3:0.973871,0.000000,0.178312,0.140645 RLEG_JOINT2:0.999423,-0.003226,-0.000000,-0.033801 RLEG_JOINT4:0.993309,0.109339,0.000000,0.037171 WAIST:0.999969,0.000000,0.007918,-0.000534 WAIST_JOINT0:0.999927,0.000000,-0.005041,0.011015 WAIST_JOINT1:0.996492,0.083056,0.000000,-0.010284 END:
KINECT_DATA_Sensor  AnkleLeft:0.077478,0.719353,-0.083450,-0.685248 AnkleRight:0.079309,0.732144,0.070505,0.672833 ElbowLeft:-0.028568,0.870757,-0.188583,-0.453213 ElbowRight:0.028882,0.866265,0.186157,0.462706 FootLeft:0.000000,0.000000,0.000000,0.000000 FootRight:0.000000,0.000000,0.000000,0.000000 HandLeft:-0.321406,0.834042,0.308114,-0.325789 HandRight:-0.029658,0.737361,-0.079639,0.670132 HandTipLeft:0.000000,0.000000,0.000000,0.000000 HandTipRight:0.000000,0.000000,0.000000,0.000000 Head:0.000000,0.000000,0.000000,0.000000 HipLeft:0.102351,-0.680423,0.705834,-0.168364 HipRight:-0.117436,0.673242,0.704536,-0.191264 KneeLeft:0.016651,-0.700925,0.052134,0.711133 KneeRight:-0.026711,0.712897,0.021814,0.700420 Neck:0.003966,-0.013969,0.994910,-0.099717 ShoulderLeft:0.023542,0.777889,-0.623201,0.077164 ShoulderRight:0.030091,0.786798,0.612676,-0.068353 SpineBase:-0.008356,-0.009429,0.998299,-0.056921 SpineMid:-0.002300,-0.009774,0.998331,-0.056863 SpineShoulder:0.003910,-0.011962,0.996922,-0.077380 ThumbLeft:0.000000,0.000000,0.000000,0.000000 ThumbRight:0.000000,0.000000,0.000000,0.000000 WristLeft:-0.175444,0.897580,0.095470,-0.393009 WristRight:-0.067871,0.738355,-0.023256,0.670585 END:
KINECT_DATA POSITION:20.603607,-4.323083,-1.821554 HEAD_JOINT1:0.977870,0.184020,-0.000000,0.099537 LARM_JOINT2:0.834046,0.000000,-0.030419,-0.550856 LARM_JOINT3:0.895613,0.000000,-0.373170,-0.242120 LLEG_JOINT2:0.998065,0.027828,0.000000,0.055603 LLEG_JOINT4:0.995406,0.087751,0.000000,-0.038307 RARM_JOINT2:0.795838,0.000000,-0.044532,0.603870 RARM_JOINT3:0.974964,0.000000,0.170902,0.142259 RLEG_JOINT2:0.999645,0.000721,0.000000,-0.026615 RLEG_JOINT4:0.993732,0.106670,0.000000,0.033440 WAIST:0.999972,0.000000,0.006320,-0.003928 WAIST_JOINT0:0.999913,0.000000,-0.007887,0.010597 WAIST_JOINT1:0.996676,0.081019,0.000000,-0.008499 END:
KINECT_DATA_Sensor  AnkleLeft:0.079773,0.748516,-0.084330,-0.652877 AnkleRight:0.078150,0.710118,0.073677,0.695842 ElbowLeft:-0.038287,0.873117,-0.190585,-0.447077 ElbowRight:0.028405,0.864948,0.184670,0.465785 FootLeft:0.000000,0.000000,0.000000,0.000000 FootRight:0.000000,0.000000,0.000000,0.000000 HandLeft:-0.205809,0.751073,0.407557,-0.476896 HandRight:-0.004796,0.752434,-0.065355,0.655400 HandTipLeft:0.000000,0.000000,0.000000,0.000000 HandTipRight:0.000000,0.000000,0.000000,0.000000 Head:0.000000,0.000000,0.000000,0.000000 HipLeft:0.106289,-0.683126,0.703103,-0.166398 HipRight:-0.118480,0.671681,0.706646,-0.188303 KneeLeft:0.016431,-0.702295,0.056363,0.709461 KneeRight:-0.021188,0.711853,0.022008,0.701664 Neck:0.006747,-0.015801,0.995013,-0.098257 ShoulderLeft:0.020478,0.778711,-0.622246,0.077460 ShoulderRight:0.030667,0.787437,0.612271,-0.064240 SpineBase:-0.006545,-0.012555,0.998492,-0.053049 SpineMid:-0.000111,-0.012896,0.998513,-0.052967 SpineShoulder:0.006697,-0.013359,0.997060,-0.075154 ThumbLeft:0.000000,0.000000,0.000000,0.000000 ThumbRight:0.000000,0.000000,0.000000,0.000000 WristLeft:-0.180473,0.811188,0.185598,-0.524364 WristRight:-0.069242,0.751964,-0.023060,0.655152 END:
KINECT_DATA POSITION:20.245934,-4.402148,-1.408720 HEAD_JOINT1:0.977989,0.179416,-0.000000,0.106527 LARM_JOINT2:0.844133,0.000000,-0.043869,-0.534337 LARM_JOINT3:0.880116,0.000000,-0.387062,-0.274918 LLEG_JOINT2:0.997435,0.031033,0.000000,0.064506 LLEG_JOINT4:0.994921,0.089179,0.000000,-0.046691 RARM_JOINT2:0.790908,0.000000,-0.049891,0.609899 RARM_JOINT3:0.976256,0.000000,0.168900,0.135638 RLEG_JOINT2:0.999827,0.005654,0.000000,-0.017696 RLEG_JOINT4:0.994419,0.101647,0.000000,0.028279 WAIST:0.999964,0.000000,0.003244,-0.007797 WAIST_JOINT0:0.999796,0.000000,-0.018128,0.008869 WAIST_JOINT1:0.996952,0.077615,0.000000,-0.007880 END:
KINECT_DATA_Sensor  AnkleLeft:0.085693,0.753658,-0.084444,-0.646162 AnkleRight:0.077790,0.704451,0.073903,0.701595 ElbowLeft:-0.054289,0.884929,-0.198180,-0.417946 ElbowRight:0.029743,0.857481,0.181191,0.480637 FootLeft:0.000000,0.000000,0.000000,0.000000 FootRight:0.000000,0.000000,0.000000,0.000000 HandLeft:-0.317271,0.864221,0.344659,-0.183495 HandRight:-0.001405,0.713332,-0.042966,0.699506 HandTipLeft:0.000000,0.000000,0.000000,0.000000 HandTipRight:0.000000,0.000000,0.000000,0.000000 Head:0.000000,0.000000,0.000000,0.000000 HipLeft:0.111166,-0.685810,0.699958,-0.165426 HipRight:-0.118424,0.669705,0.709337,-0.185234 KneeLeft:-0.017845,0.704704,-0.062162,-0.706548 KneeRight:-0.014062,0.709736,0.022008,0.703983 Neck:0.017220,-0.018761,0.995105,-0.095489 ShoulderLeft:0.010091,0.780922,-0.618968,0.083294 ShoulderRight:0.033648,0.788110,0.612248,-0.053877 SpineBase:-0.003287,-0.016695,0.998623,-0.049614 SpineMid:0.006583,-0.017185,0.998607,-0.049447 SpineShoulder:0.017027,-0.017007,0.997159,-0.071373 ThumbLeft:0.000000,0.000000,0.000000,0.000000 ThumbRight:0.000000,0.000000,0.000000,0.000000 WristLeft:-0.245214,0.925305,0.158091,-0.242257 WristRight:-0.069614,0.710715,-0.028861,0.699432 END:
KINECT_DATA POSITION:20.092834,-4.482762,-1.102960 HEAD_JOINT1:0.978115,0.170807,-0.000000,0.118811 LARM_JOINT2:0.857692,0.000000,-0.103519,-0.503635 LARM_JOINT3:0.854951,0.000000,-0.433077,-0.285488 LLEG_JOINT2:0.996938,0.035848,0.000000,0.069491 LLEG_JOINT4:0.994869,0.087051,0.000000,-0.051555 RARM_JOINT2:0.788072,0.000000,-0.051227,0.613448 RARM_JOINT3:0.975733,0.000000,0.171585,0.136025 RLEG_JOINT2:0.999869,0.007108,0.000000,-0.014557 RLEG_JOINT4:0.994659,0.099891,0.000000,0.026003 WAIST:0.999949,0.000000,-0.004376,-0.009151 WAIST_JOINT0:0.999505,0.000000,-0.030567,0.007395 WAIST_JOINT1:0.997178,0.074499,0.000000,-0.009261 END:
KINECT_DATA_Sensor  AnkleLeft:0.082616,0.719188,-0.090830,-0.683881 AnkleRight:0.077545,0.697409,0.073607,0.708653 ElbowLeft:-0.108991,0.901832,-0.198483,-0.368001 ElbowRight:0.029456,0.851962,0.178386,0.491397 FootLeft:0.000000,0.000000,0.000000,0.000000 FootRight:0.000000,0.000000,0.000000,0.000000 HandLeft:-0.518668,0.565581,-0.117659,0.630284 HandRight:-0.004724,0.680442,-0.057952,0.730491 HandTipLeft:0.000000,0.000000,0.000000,0.000000 HandTipRight:0.000000,0.000000,0.000000,0.000000 Head:0.000000,0.000000,0.000000,0.000000 HipLeft:0.119379,-0.685919,0.697910,-0.167885 HipRight:-0.116868,0.669927,0.710741,-0.179962 KneeLeft:-0.017505,0.710300,-0.067968,-0.700391 KneeRight:-0.011651,0.704349,0.021822,0.709423 Neck:0.030074,-0.021708,0.995155,-0.091052 ShoulderLeft:-0.003690,0.783305,-0.614557,0.093485 ShoulderRight:0.036371,0.788723,0.612094,-0.043975 SpineBase:0.004348,-0.018560,0.998757,-0.046048 SpineMid:0.016812,-0.019134,0.998625,-0.045813 SpineShoulder:0.029930,-0.019336,0.997010,-0.068569 ThumbLeft:0.000000,0.000000,0.000000,0.000000 ThumbRight:0.000000,0.000000,0.000000,0.000000 WristLeft:-0.327512,0.617985,-0.144642,0.699935 WristRight:-0.070216,0.672500,-0.033219,0.736009 END:
KINECT_DATA POSITION:19.977627,-4.607009,-0.804591 HEAD_JOINT1:0.978522,0.157838,-0.000000,0.132600 LARM_JOINT2:0.847802,0.000000,-0.176993,-0.499906 LARM_JOINT3:0.870574,0.000000,-0.414575,-0.265005 LLEG_JOINT2:0.996292,0.042328,0.000000,0.074902 LLEG_JOINT4:0.994978,0.082321,0.000000,-0.056931 RARM_JOINT2:0.783782,0.000000,-0.052522,0.618812 RARM_JOINT3:0.975760,0.000000,0.172375,0.134829 RLEG_JOINT2:0.999911,0.005892,0.000000,-0.011983 RLEG_JOINT4:0.994330,0.103283,0.000000,0.025301 WAIST:0.999774,0.000000,-0.017961,-0.011379 WAIST_JOINT0:0.998540,0.000000,-0.053929,0.003233 WAIST_JOINT1:0.997440,0.070782,0.000000,-0.010184 END:
KINECT_DATA_Sensor  AnkleLeft:0.085355,0.738191,-0.090207,-0.663062 AnkleRight:0.079355,0.683777,0.074616,0.721515 ElbowLeft:-0.160324,0.917623,-0.156694,-0.328193 ElbowRight:0.029982,0.842169,0.173449,0.509674 FootLeft:0.000000,0.000000,0.000000,0.000000 FootRight:0.000000,0.000000,0.000000,0.000000 HandLeft:-0.472568,0.815081,0.207991,0.262797 HandRight:-0.007282,0.700320,-0.058100,0.711423 HandTipLeft:0.000000,0.000000,0.000000,0.000000 HandTipRight:0.000000,0.000000,0.000000,0.000000 Head:0.000000,0.000000,0.000000,0.000000 HipLeft:0.132050,-0.685144,0.694515,-0.175471 HipRight:-0.113290,0.669885,0.713225,-0.172424 KneeLeft:-0.016262,0.720136,-0.074498,-0.689631 KneeRight:-0.012109,0.694566,0.020767,0.719027 Neck:0.054353,-0.024396,0.994433,-0.086917 ShoulderLeft:-0.028407,0.788144,-0.604272,0.113475 ShoulderRight:0.042468,0.789522,0.611684,-0.026329 SpineBase:0.018046,-0.019530,0.998729,-0.042822 SpineMid:0.035768,-0.020287,0.998251,-0.042469 SpineShoulder:0.054175,-0.022249,0.996180,-0.064773 ThumbLeft:0.000000,0.000000,0.000000,0.000000 ThumbRight:0.000000,0.000000,0.000000,0.000000 WristLeft:-0.381940,0.890689,0.099011,0.225815 WristRight:-0.074642,0.691851,-0.034696,0.717333 END:
KINECT_DATA POSITION:20.039932,-4.623276,-0.709963 HEAD_JOINT1:0.978212,0.153748,-0.000000,0.139511 LARM_JOINT2:0.836977,0.000000,-0.202934,-0.508219 LARM_JOINT3:0.873317,0.000000,-0.416342,-0.252937 LLEG_JOINT2:0.996464,0.043901,0.000000,0.071634 LLEG_JOINT4:0.995273,0.079870,0.000000,-0.055253 RARM_JOINT2:0.780841,0.000000,-0.053186,0.622461 RARM_JOINT3:0.976406,0.000000,0.171596,0.131098 RLEG_JOINT2:0.999857,0.004378,0.000000,-0.016356 RLEG_JOINT4:0.994061,0.105894,0.000000,0.025064 WAIST:0.999628,0.000000,-0.025723,-0.009110 WAIST_JOINT0:0.998367,0.000000,-0.056982,0.004151 WAIST_JOINT1:0.997503,0.069355,0.000000,-0.013334 END:
KINECT_DATA_Sensor  AnkleLeft:0.082134,0.733358,-0.091999,-0.668563 AnkleRight:0.079533,0.682099,0.075958,0.722943 ElbowLeft:-0.173749,0.921001,-0.128599,-0.324083 ElbowRight:0.031124,0.835198,0.169589,0.522221 FootLeft:0.000000,0.000000,0.000000,0.000000 FootRight:0.000000,0.000000,0.000000,0.000000 HandLeft:-0.241281,-0.282625,-0.487259,0.790244 HandRight:-0.007052,0.670885,-0.052798,0.739646 HandTipLeft:0.000000,0.000000,0.000000,0.000000 HandTipRight:0.000000,0.000000,0.000000,0.000000 Head:0.000000,0.000000,0.000000,0.000000 HipLeft:0.137898,-0.682293,0.694985,-0.180158 HipRight:-0.110520,0.671958,0.712434,-0.169398 KneeLeft:-0.015044,0.725419,-0.074791,-0.684067 KneeRight:-0.014511,0.689067,0.021326,0.724239 Neck:0.056249,-0.024615,0.994399,-0.086022 ShoulderLeft:-0.022838,0.784513,-0.610052,0.108878 ShoulderRight:0.050553,0.788596,0.612554,-0.018404 SpineBase:0.025625,-0.018781,0.998594,-0.042439 SpineMid:0.040608,-0.019415,0.998097,-0.042152 SpineShoulder:0.056101,-0.022092,0.996157,-0.063531 ThumbLeft:0.000000,0.000000,0.000000,0.000000 ThumbRight:0.000000,0.000000,0.000000,0.000000 WristLeft:-0.107072,-0.230736,-0.395412,0.882579 WristRight:-0.074391,0.662942,-0.038192,0.743986 END:
KINECT_DATA POSITION:20.070877,-4.594824,-0.637138 HEAD_JOINT1:0.977997,0.151307,-0.000000,0.143627 LARM_JOINT2:0.838312,0.000000,-0.197871,-0.508016 LARM_JOINT3:0.865566,0.000000,-0.432070,-0.253201 LLEG_JOINT2:0.996642,0.042572,0.000000,0.069944 LLEG_JOINT4:0.994477,0.088532,0.000000,-0.056368 RARM_JOINT2:0.779440,0.000000,-0.052543,0.624270 RARM_JOINT3:0.976247,0.000000,0.173743,0.129444 RLEG_JOINT2:0.999810,0.003335,0.000000,-0.019200 RLEG_JOINT4:0.993850,0.108138,0.000000,0.023828 WAIST:0.999491,0.000000,-0.031103,-0.007034 WAIST_JOINT0:0.997758,0.000000,-0.066848,0.003053 WAIST_JOINT1:0.997535,0.068318,0.000000,-0.016036 END:
KINECT_DATA_Sensor  AnkleLeft:0.094439,0.784028,-0.090165,-0.606838 AnkleRight:0.079305,0.676567,0.077978,0.727934 ElbowLeft:-0.173395,0.919571,-0.128822,-0.328219 ElbowRight:0.031282,0.832240,0.167283,0.527650 FootLeft:0.000000,0.000000,0.000000,0.000000 FootRight:0.000000,0.000000,0.000000,0.000000 HandLeft:-0.274425,-0.238963,-0.489479,0.792463 HandRight:-0.018261,0.670090,-0.062627,0.739407 HandTipLeft:0.000000,0.000000,0.000000,0.000000 HandTipRight:0.000000,0.000000,0.000000,0.000000 Head:0.000000,0.000000,0.000000,0.000000 HipLeft:0.141822,-0.679950,0.695715,-0.183127 HipRight:-0.107752,0.673738,0.711765,-0.166904 KneeLeft:-0.016639,0.728916,-0.074012,-0.680388 KneeRight:-0.015667,0.685284,0.021265,0.727797 Neck:0.066359,-0.025537,0.993855,-0.084833 ShoulderLeft:-0.032027,0.785025,-0.607403,0.117352 ShoulderRight:0.054286,0.788117,0.613026,-0.011100 SpineBase:0.030825,-0.018553,0.998457,-0.042309 SpineMid:0.048286,-0.019290,0.997765,-0.041978 SpineShoulder:0.066260,-0.022585,0.995582,-0.062577 ThumbLeft:0.000000,0.000000,0.000000,0.000000 ThumbRight:0.000000,0.000000,0.000000,0.000000 WristLeft:-0.136050,-0.183732,-0.398974,0.888005 WristRight:-0.074562,0.662987,-0.037337,0.743973 END:
KINECT_DATA POSITION:20.083649,-4.599658,-0.598621 HEAD_JOINT1:0.977640,0.150861,-0.000000,0.146494 LARM_JOINT2:0.827873,0.000000,-0.239397,-0.507263 LARM_JOINT3:0.878058,0.000000,-0.420729,-0.228036 LLEG_JOINT2:0.996747,0.043558,0.000000,0.067812 LLEG_JOINT4:0.994523,0.086785,0.000000,-0.058250 RARM_JOINT2:0.778895,0.000000,-0.053225,0.624892 RARM_JOINT3:0.975907,0.000000,0.175086,0.130194 RLEG_JOINT2:0.999782,0.002229,0.000000,-0.020775 RLEG_JOINT4:0.993494,0.110889,0.000000,0.025950 WAIST:0.999391,0.000000,-0.034332,-0.006254 WAIST_JOINT0:0.997793,0.000000,-0.066336,0.003024 WAIST_JOINT1:0.997576,0.067236,0.000000,-0.017931 END:
KINECT_DATA_Sensor  AnkleLeft:0.088008,0.732587,-0.095269,-0.668203 AnkleRight:0.087842,0.732106,0.070847,0.671778 ElbowLeft:-0.197394,0.922796,-0.099541,-0.315554 ElbowRight:0.030946,0.829656,0.167180,0.531756 FootLeft:0.000000,0.000000,0.000000,0.000000 FootRight:0.000000,0.000000,0.000000,0.000000 HandLeft:-0.297729,-0.201674,-0.468402,0.807022 HandRight:-0.021130,0.682146,-0.067990,0.727742 HandTipLeft:0.000000,0.000000,0.000000,0.000000 HandTipRight:0.000000,0.000000,0.000000,0.000000 Head:0.000000,0.000000,0.000000,0.000000 HipLeft:0.144124,-0.679042,0.695781,-0.184443 HipRight:-0.106111,0.674574,0.711597,-0.165287 KneeLeft:-0.015211,0.731132,-0.073752,-0.678067 KneeRight:-0.016944,0.682998,0.021147,0.729918 Neck:0.065489,-0.026532,0.994002,-0.083469 ShoulderLeft:-0.029315,0.785192,-0.607919,0.114236 ShoulderRight:0.055873,0.788376,0.612583,-0.009149 SpineBase:0.033966,-0.018919,0.998362,-0.041975 SpineMid:0.049468,-0.019569,0.997714,-0.041676 SpineShoulder:0.065421,-0.023095,0.995673,-0.061821 ThumbLeft:0.000000,0.000000,0.000000,0.000000 ThumbRight:0.000000,0.000000,0.000000,0.000000 WristLeft:-0.165854,-0.148377,-0.407966,0.885461 WristRight:-0.076654,0.674700,-0.035865,0.733225 END:
KINECT_DATA POSITION:20.091768,-4.590289,-0.547552 HEAD_JOINT1:0.977417,0.149826,-0.000000,0.149021 LARM_JOINT2:0.839254,0.000000,-0.322384,-0.437859 LARM_JOINT3:0.885714,0.000000,-0.375164,-0.273429 LLEG_JOINT2:0.996779,0.045772,0.000000,0.065856 LLEG_JOINT4:0.994743,0.085075,0.000000,-0.056998 RARM_JOINT2:0.778597,0.000000,-0.053666,0.625226 RARM_JOINT3:0.976098,0.000000,0.172433,0.132290 RLEG_JOINT2:0.999746,-0.000302,-0.000000,-0.022518 RLEG_JOINT4:0.993287,0.113234,0.000000,0.023651 WAIST:0.999195,0.000000,-0.039725,-0.005615 WAIST_JOINT0:0.997845,0.000000,-0.065474,0.004216 WAIST_JOINT1:0.997652,0.065443,0.000000,-0.020198 END:
KINECT_DATA_Sensor  AnkleLeft:0.087975,0.736930,-0.095973,-0.663313 AnkleRight:0.087360,0.741124,0.071280,0.661832 ElbowLeft:-0.268736,0.942687,-0.134888,-0.144660 ElbowRight:0.030238,0.827374,0.167282,0.535308 FootLeft:0.000000,0.000000,0.000000,0.000000 FootRight:0.000000,0.000000,0.000000,0.000000 HandLeft:-0.170260,-0.372121,-0.481301,0.775169 HandRight:-0.008744,0.655858,-0.065099,0.752021 HandTipLeft:0.000000,0.000000,0.000000,0.000000 HandTipRight:0.000000,0.000000,0.000000,0.000000 Head:0.000000,0.000000,0.000000,0.000000 HipLeft:0.148532,-0.677854,0.695348,-0.186930 HipRight:-0.104072,0.675462,0.711654,-0.162694 KneeLeft:-0.013130,0.734868,-0.074390,-0.673990 KneeRight:-0.019442,0.679120,0.020331,0.733488 Neck:0.064027,-0.027675,0.994254,-0.081202 ShoulderLeft:-0.024535,0.784139,-0.610473,0.108844 ShoulderRight:0.058842,0.788809,0.611788,-0.005719 SpineBase:0.039276,-0.019512,0.998192,-0.041113 SpineMid:0.051450,-0.020012,0.997638,-0.040872 SpineShoulder:0.063979,-0.023833,0.995825,-0.060588 ThumbLeft:0.000000,0.000000,0.000000,0.000000 ThumbRight:0.000000,0.000000,0.000000,0.000000 WristLeft:-0.133285,-0.382309,-0.402543,0.820996 WristRight:-0.077200,0.646778,-0.039132,0.757752 END:
KINECT_DATA POSITION:20.098059,-4.579208,-0.575662 HEAD_JOINT1:0.977624,0.148313,-0.000000,0.149180 LARM_JOINT2:0.848392,0.000000,-0.310838,-0.428498 LARM_JOINT3:0.875665,0.000000,-0.384716,-0.291900 LLEG_JOINT2:0.996983,0.047709,0.000000,0.061230 LLEG_JOINT4:0.994917,0.085391,0.000000,-0.053378 RARM_JOINT2:0.778316,0.000000,-0.053634,0.625578 RARM_JOINT3:0.977077,0.000000,0.166565,0.132573 RLEG_JOINT2:0.999657,-0.002832,-0.000000,-0.026046 RLEG_JOINT4:0.993087,0.114973,0.000000,0.023640 WAIST:0.998664,0.000000,-0.051526,-0.003937 WAIST_JOINT0:0.996054,0.000000,-0.088706,-0.002908 WAIST_JOINT1:0.997748,0.063036,0.000000,-0.022933 END:
KINECT_DATA_Sensor  AnkleLeft:0.088559,0.748980,-0.098533,-0.649213 AnkleRight:0.079079,0.663841,0.079420,0.739428 ElbowLeft:-0.270963,0.941233,-0.146958,-0.138070 ElbowRight:0.031101,0.825324,0.166093,0.538782 FootLeft:0.000000,0.000000,0.000000,0.000000 FootRight:0.000000,0.000000,0.000000,0.000000 HandLeft:-0.464951,0.235538,-0.216003,0.825642 HandRight:-0.004201,0.645319,-0.052432,0.762101 HandTipLeft:0.000000,0.000000,0.000000,0.000000 HandTipRight:0.000000,0.000000,0.000000,0.000000 Head:0.000000,0.000000,0.000000,0.000000 HipLeft:0.155011,-0.675929,0.694575,-0.191459 HipRight:-0.096500,0.678737,0.711320,-0.155006 KneeLeft:-0.010503,0.742820,-0.073694,-0.665340 KneeRight:-0.022301,0.670515,0.020262,0.741284 Neck:0.088708,-0.028906,0.992539,-0.078502 ShoulderLeft:-0.051897,0.788738,-0.597863,0.133263 ShoulderRight:0.062715,0.785969,0.615030,0.007638 SpineBase:0.050909,-0.019861,0.997696,-0.040203 SpineMid:0.069558,-0.020609,0.996570,-0.039824 SpineShoulder:0.088684,-0.025000,0.994039,-0.058285 ThumbLeft:0.000000,0.000000,0.000000,0.000000 ThumbRight:0.000000,0.000000,0.000000,0.000000 WristLeft:-0.373618,0.261867,-0.204525,0.866028 WristRight:-0.076215,0.636772,-0.039219,0.766273 END:
KINECT_DATA POSITION:19.983295,-4.572428,-0.709331 HEAD_JOINT1:0.977712,0.145862,-0.000000,0.151009 LARM_JOINT2:0.852961,0.000000,-0.298724,-0.428044 LARM_JOINT3:0.863572,0.000000,-0.399558,-0.307567 LLEG_JOINT2:0.997045,0.048213,0.000000,0.059813 LLEG_JOINT4:0.994943,0.084085,0.000000,-0.054937 RARM_JOINT2:0.778482,0.000000,-0.054913,0.625261 RARM_JOINT3:0.976621,0.000000,0.165975,0.136615 RLEG_JOINT2:0.999602,-0.004862,-0.000000,-0.027798 RLEG_JOINT4:0.993049,0.115767,0.000000,0.021269 WAIST:0.998065,0.000000,-0.062135,-0.002333 WAIST_JOINT0:0.994788,0.000000,-0.101742,-0.006686 WAIST_JOINT1:0.997711,0.062282,0.000000,-0.026323 END:
KINECT_DATA_Sensor  AnkleLeft:0.087990,0.755743,-0.097996,-0.641488 AnkleRight:0.077425,0.656439,0.079649,0.746156 ElbowLeft:-0.267134,0.941700,-0.149514,-0.139589 ElbowRight:0.033741,0.824235,0.167415,0.539881 FootLeft:0.000000,0.000000,0.000000,0.000000 FootRight:0.000000,0.000000,0.000000,0.000000 HandLeft:-0.475921,0.187832,-0.213744,0.832184 HandRight:-0.002918,0.635395,-0.047758,0.770704 HandTipLeft:0.000000,0.000000,0.000000,0.000000 HandTipRight:0.000000,0.000000,0.000000,0.000000 Head:0.000000,0.000000,0.000000,0.000000 HipLeft:0.161977,-0.673606,0.693815,-0.196567 HipRight:-0.089666,0.681292,0.711052,-0.149018 KneeLeft:-0.011044,0.749808,-0.074121,-0.657398 KneeRight:-0.023659,0.662792,0.019312,0.748180 Neck:0.102470,-0.030430,0.991188,-0.078230 ShoulderLeft:-0.065225,0.790983,-0.590490,0.146329 ShoulderRight:0.066918,0.784286,0.616580,0.015711 SpineBase:0.061325,-0.020943,0.997100,-0.039898 SpineMid:0.081622,-0.021751,0.995644,-0.039463 SpineShoulder:0.102461,-0.026286,0.992711,-0.057751 ThumbLeft:0.000000,0.000000,0.000000,0.000000 ThumbRight:0.000000,0.000000,0.000000,0.000000 WristLeft:-0.379819,0.218163,-0.214332,0.873043 WristRight:-0.074939,0.627415,-0.041397,0.773965 END:
KINECT_DATA POSITION:19.743790,-4.545162,-0.852096 HEAD_JOINT1:0.977023,0.145867,-0.000000,0.155397 LARM_JOINT2:0.852082,0.000000,-0.286644,-0.437941 LARM_JOINT3:0.857179,0.000000,-0.408647,-0.313451 LLEG_JOINT2:0.996854,0.048373,0.000000,0.062784 LLEG_JOINT4:0.994281,0.087785,0.000000,-0.060820 RARM_JOINT2:0.776134,0.000000,-0.055262,0.628141 RARM_JOINT3:0.976875,0.000000,0.165788,0.135016 RLEG_JOINT2:0.999578,-0.006677,-0.000000,-0.028263 RLEG_JOINT4:0.993335,0.113825,0.000000,0.018124 WAIST:0.997496,0.000000,-0.070725,-0.000163 WAIST_JOINT0:0.993529,0.000000,-0.113186,-0.009437 WAIST_JOINT1:0.997612,0.061834,0.000000,-0.030765 END:
KINECT_DATA_Sensor  AnkleLeft:0.090536,0.761185,-0.100955,-0.634200 AnkleRight:0.074372,0.649968,0.077772,0.752305 ElbowLeft:-0.257309,0.944327,-0.141851,-0.148042 ElbowRight:0.035310,0.818507,0.165828,0.548908 FootLeft:0.000000,0.000000,0.000000,0.000000 FootRight:0.000000,0.000000,0.000000,0.000000 HandLeft:-0.343322,-0.190896,-0.388649,0.833451 HandRight:-0.005452,0.628827,-0.051132,0.775843 HandTipLeft:0.000000,0.000000,0.000000,0.000000 HandTipRight:0.000000,0.000000,0.000000,0.000000 Head:0.000000,0.000000,0.000000,0.000000 HipLeft:0.169166,-0.670703,0.693524,-0.201404 HipRight:-0.085519,0.683132,0.710295,-0.146623 KneeLeft:-0.015333,0.755301,-0.077622,-0.650584 KneeRight:-0.023644,0.656673,0.017140,0.753609 Neck:0.114340,-0.032398,0.989832,-0.078166 ShoulderLeft:-0.075784,0.791281,-0.586019,0.157206 ShoulderRight:0.071694,0.782281,0.618356,0.023069 SpineBase:0.069633,-0.022988,0.996506,-0.039977 SpineMid:0.091658,-0.023866,0.994722,-0.039458 SpineShoulder:0.114315,-0.028253,0.991370,-0.057619 ThumbLeft:0.000000,0.000000,0.000000,0.000000 ThumbRight:0.000000,0.000000,0.000000,0.000000 WristLeft:-0.273598,-0.175437,-0.358676,0.875053 WristRight:-0.074744,0.620897,-0.039288,0.779331 END:
KINECT_DATA POSITION:19.564295,-4.538293,-0.973272 HEAD_JOINT1:0.976424,0.145583,-0.000000,0.159379 LARM_JOINT2:0.851115,0.000000,-0.286333,-0.440020 LARM_JOINT3:0.865868,0.000000,-0.399869,-0.300629 LLEG_JOINT2:0.996679,0.049183,0.000000,0.064900 LLEG_JOINT4:0.994012,0.086683,0.000000,-0.066536 RARM_JOINT2:0.774967,0.000000,-0.056834,0.629441 RARM_JOINT3:0.976044,0.000000,0.167927,0.138342 RLEG_JOINT2:0.999587,-0.009266,-0.000000,-0.027210 RLEG_JOINT4:0.992738,0.118876,0.000000,0.018440 WAIST:0.996950,0.000000,-0.078036,0.000828 WAIST_JOINT0:0.992815,0.000000,-0.119213,-0.010276 WAIST_JOINT1:0.997489,0.062184,0.000000,-0.033903 END:
KINECT_DATA_Sensor  AnkleLeft:0.091357,0.764167,-0.099858,-0.630659 AnkleRight:0.078535,0.645469,0.076978,0.755828 ElbowLeft:-0.256608,0.945694,-0.135254,-0.146705 ElbowRight:0.038021,0.814909,0.166473,0.553864 FootLeft:0.000000,0.000000,0.000000,0.000000 FootRight:0.000000,0.000000,0.000000,0.000000 HandLeft:-0.174458,-0.438768,-0.459004,0.752571 HandRight:-0.008371,0.641302,-0.066011,0.764398 HandTipLeft:0.000000,0.000000,0.000000,0.000000 HandTipRight:0.000000,0.000000,0.000000,0.000000 Head:0.000000,0.000000,0.000000,0.000000 HipLeft:0.173682,-0.668933,0.692933,-0.205443 HipRight:-0.080240,0.684390,0.710230,-0.144031 KneeLeft:-0.017655,0.759979,-0.080206,-0.644738 KneeRight:-0.024102,0.651476,0.014140,0.758154 Neck:0.120346,-0.033904,0.989002,-0.079011 ShoulderLeft:-0.080472,0.791305,-0.583772,0.163006 ShoulderRight:0.074742,0.782134,0.618032,0.026776 SpineBase:0.076729,-0.024891,0.995897,-0.041009 SpineMid:0.098180,-0.025769,0.994012,-0.040463 SpineShoulder:0.120294,-0.029883,0.990572,-0.058339 ThumbLeft:0.000000,0.000000,0.000000,0.000000 ThumbRight:0.000000,0.000000,0.000000,0.000000 WristLeft:-0.150864,-0.442152,-0.427790,0.773781 WristRight:-0.074356,0.632591,-0.035496,0.770091 END:
KINECT_DATA POSITION:19.558176,-4.567764,-0.934994 HEAD_JOINT1:0.976241,0.146820,-0.000000,0.159366 LARM_JOINT2:0.842279,0.000000,-0.312143,-0.439469 LARM_JOINT3:0.898974,0.000000,-0.360675,-0.248513 LLEG_JOINT2:0.996843,0.049736,0.000000,0.061883 LLEG_JOINT4:0.994550,0.085189,0.000000,-0.060109 RARM_JOINT2:0.774977,0.000000,-0.056717,0.629439 RARM_JOINT3:0.975554,0.000000,0.170599,0.138526 RLEG_JOINT2:0.999583,-0.010671,-0.000000,-0.026817 RLEG_JOINT4:0.992839,0.118297,0.000000,0.016652 WAIST:0.996651,0.000000,-0.081766,0.000674 WAIST_JOINT0:0.992602,0.000000,-0.120923,-0.010883 WAIST_JOINT1:0.997447,0.062413,0.000000,-0.034707 END:
KINECT_DATA_Sensor  AnkleLeft:0.086630,0.758959,-0.102826,-0.637105 AnkleRight:0.076503,0.644785,0.076389,0.756679 ElbowLeft:-0.269989,0.947127,-0.117099,-0.127843 ElbowRight:0.038601,0.813543,0.167194,0.555612 FootLeft:0.000000,0.000000,0.000000,0.000000 FootRight:0.000000,0.000000,0.000000,0.000000 HandLeft:-0.196960,-0.235319,-0.424600,0.851790 HandRight:-0.013377,0.594227,-0.069625,0.801167 HandTipLeft:0.000000,0.000000,0.000000,0.000000 HandTipRight:0.000000,0.000000,0.000000,0.000000 Head:0.000000,0.000000,0.000000,0.000000 HipLeft:0.176221,-0.668436,0.692123,-0.207620 HipRight:-0.078713,0.684617,0.710480,-0.142554 KneeLeft:-0.015199,0.762477,-0.078492,-0.642057 KneeRight:-0.024975,0.648675,0.013136,0.760542 Neck:0.121772,-0.034672,0.988750,-0.079649 ShoulderLeft:-0.081396,0.790240,-0.584677,0.164461 ShoulderRight:0.075856,0.781529,0.618628,0.027520 SpineBase:0.080455,-0.025096,0.995601,-0.040943 SpineMid:0.100788,-0.025928,0.993748,-0.040422 SpineShoulder:0.121735,-0.030382,0.990358,-0.058721 ThumbLeft:0.000000,0.000000,0.000000,0.000000 ThumbRight:0.000000,0.000000,0.000000,0.000000 WristLeft:-0.212044,-0.258836,-0.374092,0.864926 WristRight:-0.072685,0.586465,-0.039821,0.805723 END:
KINECT_DATA POSITION:19.649563,-4.517499,-0.917876 HEAD_JOINT1:0.976438,0.148785,-0.000000,0.156304 LARM_JOINT2:0.798805,0.000000,-0.407358,-0.442685 LARM_JOINT3:0.943434,0.000000,-0.307782,-0.123299 LLEG_JOINT2:0.996802,0.053358,0.000000,0.059490 LLEG_JOINT4:0.994161,0.089039,0.000000,-0.060961 RARM_JOINT2:0.774907,0.000000,-0.052329,0.629905 RARM_JOINT3:0.976799,0.000000,0.166106,0.135179 RLEG_JOINT2:0.999561,-0.013550,-0.000000,-0.026357 RLEG_JOINT4:0.992532,0.121384,0.000000,0.012058 WAIST:0.996151,0.000000,-0.087656,0.000402 WAIST_JOINT0:0.991648,0.000000,-0.128656,-0.009082 WAIST_JOINT1:0.997104,0.066075,0.000000,-0.037662 END:
KINECT_DATA_Sensor  AnkleLeft:0.094602,0.768172,-0.105681,-0.624335 AnkleRight:0.074353,0.640653,0.079408,0.760085 ElbowLeft:-0.311676,0.937240,-0.012284,-0.155847 ElbowRight:0.039587,0.813702,0.169556,0.554592 FootLeft:0.000000,0.000000,0.000000,0.000000 FootRight:0.000000,0.000000,0.000000,0.000000 HandLeft:-0.209942,-0.216705,-0.484486,0.821119 HandRight:-0.015826,0.626191,-0.040328,0.778465 HandTipLeft:0.000000,0.000000,0.000000,0.000000 HandTipRight:0.000000,0.000000,0.000000,0.000000 Head:0.000000,0.000000,0.000000,0.000000 HipLeft:0.177855,-0.667431,0.691699,-0.210845 HipRight:-0.073217,0.684653,0.711547,-0.139965 KneeLeft:-0.011285,0.766396,-0.079436,-0.637338 KneeRight:-0.026998,0.644396,0.011290,0.764132 Neck:0.129678,-0.038007,0.987226,-0.084409 ShoulderLeft:-0.087135,0.782425,-0.591427,0.174448 ShoulderRight:0.081896,0.777417,0.622942,0.029305 SpineBase:0.086236,-0.026100,0.995012,-0.042825 SpineMid:0.107683,-0.027018,0.992920,-0.042251 SpineShoulder:0.129678,-0.033031,0.989043,-0.062348 ThumbLeft:0.000000,0.000000,0.000000,0.000000 ThumbRight:0.000000,0.000000,0.000000,0.000000 WristLeft:-0.162011,-0.213854,-0.410505,0.871496 WristRight:-0.074082,0.620382,-0.035047,0.780007 END:
KINECT_DATA POSITION:19.669205,-4.307477,-0.932562 HEAD_JOINT1:0.977162,0.151123,-0.000000,0.149389 LARM_JOINT2:0.821054,0.000000,-0.442364,-0.360810 LARM_JOINT3:0.935023,0.000000,-0.328719,-0.132950 LLEG_JOINT2:0.996196,0.058865,0.000000,0.064260 LLEG_JOINT4:0.993948,0.078979,0.000000,-0.076355 RARM_JOINT2:0.776230,0.000000,-0.048971,0.628545 RARM_JOINT3:0.975466,0.000000,0.168139,0.142110 RLEG_JOINT2:0.999606,-0.016978,-0.000000,-0.022366 RLEG_JOINT4:0.992328,0.123620,0.000000,0.001865 WAIST:0.995141,0.000000,-0.098456,-0.000030 WAIST_JOINT0:0.988903,0.000000,-0.148118,-0.011525 WAIST_JOINT1:0.996867,0.067998,0.000000,-0.040394 END:
KINECT_DATA_Sensor  AnkleLeft:0.103114,0.802639,-0.091305,-0.580345 AnkleRight:0.069770,0.629597,0.083282,0.769288 ElbowLeft:-0.377469,0.917577,-0.041331,-0.117736 ElbowRight:0.041318,0.815655,0.172974,0.550527 FootLeft:0.000000,0.000000,0.000000,0.000000 FootRight:0.000000,0.000000,0.000000,0.000000 HandLeft:-0.126070,-0.290636,-0.481638,0.817106 HandRight:-0.022273,0.623299,-0.052135,0.779926 HandTipLeft:0.000000,0.000000,0.000000,0.000000 HandTipRight:0.000000,0.000000,0.000000,0.000000 Head:0.000000,0.000000,0.000000,0.000000 HipLeft:0.183208,-0.665087,0.690681,-0.216922 HipRight:-0.064974,0.684452,0.713573,-0.134602 KneeLeft:-0.011929,0.773403,-0.086301,-0.627900 KneeRight:-0.027307,0.636454,0.006646,0.770803 Neck:0.149820,-0.041505,0.984036,-0.086626 ShoulderLeft:-0.113889,0.777229,-0.585539,0.200218 ShoulderRight:0.083137,0.775279,0.625220,0.033629 SpineBase:0.096907,-0.027465,0.993912,-0.044640 SpineMid:0.123061,-0.028632,0.991014,-0.043901 SpineShoulder:0.149885,-0.035855,0.985954,-0.064375 ThumbLeft:0.000000,0.000000,0.000000,0.000000 ThumbRight:0.000000,0.000000,0.000000,0.000000 WristLeft:-0.150181,-0.306399,-0.468078,0.815149 WristRight:-0.072922,0.617570,-0.034536,0.782366 END:
KINECT_DATA POSITION:19.763292,-3.987327,-1.106346 HEAD_JOINT1:0.977645,0.149701,-0.000000,0.147645 LARM_JOINT2:0.800279,0.000000,-0.494058,-0.339794 LARM_JOINT3:0.953854,0.000000,-0.282841,-0.100812 LLEG_JOINT2:0.996206,0.058707,0.000000,0.064241 LLEG_JOINT4:0.993878,0.077256,0.000000,-0.078983 RARM_JOINT2:0.778818,0.000000,-0.048178,0.625398 RARM_JOINT3:0.975388,0.000000,0.160096,0.151617 RLEG_JOINT2:0.999521,-0.021808,-0.000000,-0.021966 RLEG_JOINT4:0.991623,0.129160,0.000000,-0.001171 WAIST:0.994755,0.000000,-0.102285,0.001041 WAIST_JOINT0:0.986566,0.000000,-0.163041,-0.010297 WAIST_JOINT1:0.996561,0.070555,0.000000,-0.043455 END:
KINECT_DATA_Sensor  AnkleLeft:0.099564,0.784576,-0.092804,-0.604909 AnkleRight:0.069109,0.620487,0.085313,0.776493 ElbowLeft:-0.405100,0.910870,-0.009737,-0.078204 ElbowRight:0.045745,0.825511,0.178180,0.533564 FootLeft:0.000000,0.000000,0.000000,0.000000 FootRight:0.000000,0.000000,0.000000,0.000000 HandLeft:-0.105019,-0.289409,-0.506001,0.805715 HandRight:-0.005108,0.628628,-0.040585,0.776630 HandTipLeft:0.000000,0.000000,0.000000,0.000000 HandTipRight:0.000000,0.000000,0.000000,0.000000 Head:0.000000,0.000000,0.000000,0.000000 HipLeft:0.183223,-0.663931,0.690353,-0.221445 HipRight:-0.059857,0.686229,0.712134,-0.135541 KneeLeft:-0.013116,0.775590,-0.086876,-0.625092 KneeRight:-0.030032,0.634004,0.002667,0.772741 Neck:0.163949,-0.044246,0.981375,-0.089810 ShoulderLeft:-0.132969,0.767458,-0.587889,0.218435 ShoulderRight:0.085011,0.773714,0.626751,0.036364 SpineBase:0.100426,-0.027971,0.993361,-0.048645 SpineMid:0.131876,-0.029499,0.989677,-0.047734 SpineShoulder:0.164063,-0.038104,0.983458,-0.066643 ThumbLeft:0.000000,0.000000,0.000000,0.000000 ThumbRight:0.000000,0.000000,0.000000,0.000000 WristLeft:-0.130873,-0.313710,-0.472430,0.813184 WristRight:-0.066478,0.622689,-0.032824,0.778949 END:
KINECT_DATA POSITION:19.849829,-3.830176,-1.251161 HEAD_JOINT1:0.977665,0.150728,-0.000000,0.146466 LARM_JOINT2:0.800675,0.000000,-0.507412,-0.318517 LARM_JOINT3:0.950809,0.000000,-0.294247,-0.096858 LLEG_JOINT2:0.996480,0.057215,0.000000,0.061264 LLEG_JOINT4:0.993884,0.077956,0.000000,-0.078219 RARM_JOINT2:0.780659,0.000000,-0.045645,0.623288 RARM_JOINT3:0.976211,0.000000,0.155360,0.151243 RLEG_JOINT2:0.999396,-0.024569,-0.000000,-0.024574 RLEG_JOINT4:0.991152,0.132732,0.000000,0.000693 WAIST:0.994900,0.000000,-0.100807,0.003467 WAIST_JOINT0:0.986543,0.000000,-0.163139,-0.010857 WAIST_JOINT1:0.996182,0.074263,0.000000,-0.045901 END:
KINECT_DATA_Sensor  AnkleLeft:0.099355,0.784707,-0.092204,-0.604865 AnkleRight:0.070737,0.620148,0.084924,0.776659 ElbowLeft:-0.419863,0.904272,-0.010186,-0.076831 ElbowRight:0.048183,0.831829,0.181187,0.522408 FootLeft:0.000000,0.000000,0.000000,0.000000 FootRight:0.000000,0.000000,0.000000,0.000000 HandLeft:-0.128986,-0.274199,-0.515892,0.801270 HandRight:-0.002619,0.602901,-0.025828,0.797394 HandTipLeft:0.000000,0.000000,0.000000,0.000000 HandTipRight:0.000000,0.000000,0.000000,0.000000 Head:0.000000,0.000000,0.000000,0.000000 HipLeft:0.180177,-0.662488,0.692309,-0.222157 HipRight:-0.058093,0.687875,0.710179,-0.138202 KneeLeft:-0.013389,0.774320,-0.085560,-0.626840 KneeRight:-0.032117,0.635523,0.001210,0.771413 Neck:0.163967,-0.043961,0.980954,-0.094396 ShoulderLeft:-0.127690,0.765967,-0.590772,0.219040 ShoulderRight:0.090606,0.771852,0.628302,0.035661 SpineBase:0.098590,-0.027448,0.993399,-0.051817 SpineMid:0.130992,-0.029127,0.989648,-0.050893 SpineShoulder:0.164048,-0.038367,0.983202,-0.070220 ThumbLeft:0.000000,0.000000,0.000000,0.000000 ThumbRight:0.000000,0.000000,0.000000,0.000000 WristLeft:-0.145334,-0.294721,-0.481911,0.812268 WristRight:-0.060838,0.598691,-0.031123,0.798059 END:
KINECT_DATA POSITION:19.843220,-3.619946,-1.388180 HEAD_JOINT1:0.978220,0.149344,-0.000000,0.144162 LARM_JOINT2:0.796650,0.000000,-0.519683,-0.308672 LARM_JOINT3:0.949945,0.000000,-0.297331,-0.095913 LLEG_JOINT2:0.996617,0.055225,0.000000,0.060864 LLEG_JOINT4:0.993651,0.079136,0.000000,-0.079970 RARM_JOINT2:0.780720,0.000000,-0.041433,0.623506 RARM_JOINT3:0.976118,0.000000,0.156981,0.150171 RLEG_JOINT2:0.999347,-0.025234,-0.000000,-0.025854 RLEG_JOINT4:0.991358,0.131162,0.000000,0.002188 WAIST:0.994966,0.000000,-0.100098,0.004842 WAIST_JOINT0:0.985771,0.000000,-0.167783,-0.010252 WAIST_JOINT1:0.995907,0.077511,0.000000,-0.046484 END:
KINECT_DATA_Sensor  AnkleLeft:0.099962,0.786801,-0.090662,-0.602272 AnkleRight:0.069692,0.617328,0.082738,0.779233 ElbowLeft:-0.427114,0.900721,-0.001848,-0.079195 ElbowRight:0.049146,0.834930,0.180362,0.517635 FootLeft:0.000000,0.000000,0.000000,0.000000 FootRight:0.000000,0.000000,0.000000,0.000000 HandLeft:-0.087103,-0.368847,-0.520356,0.765242 HandRight:-0.013033,0.624208,-0.038689,0.780191 HandTipLeft:0.000000,0.000000,0.000000,0.000000 HandTipRight:0.000000,0.000000,0.000000,0.000000 Head:0.000000,0.000000,0.000000,0.000000 HipLeft:0.178153,-0.661495,0.693325,-0.223576 HipRight:-0.056420,0.688706,0.708928,-0.141147 KneeLeft:-0.015295,0.773548,-0.084742,-0.627860 KneeRight:-0.032474,0.636442,0.000803,0.770640 Neck:0.168231,-0.043417,0.979949,-0.097536 ShoulderLeft:-0.127336,0.760270,-0.596527,0.223453 ShoulderRight:0.097652,0.768855,0.630821,0.037296 SpineBase:0.097559,-0.027745,0.993324,-0.054959 SpineMid:0.132582,-0.029669,0.989258,-0.053944 SpineShoulder:0.168347,-0.037974,0.982263,-0.073330 ThumbLeft:0.000000,0.000000,0.000000,0.000000 ThumbRight:0.000000,0.000000,0.000000,0.000000 WristLeft:-0.096483,-0.379215,-0.504780,0.769470 WristRight:-0.058307,0.620221,-0.026161,0.781819 END:
KINECT_DATA POSITION:19.811478,-3.511862,-1.454628 HEAD_JOINT1:0.979018,0.146961,-0.000000,0.141157 LARM_JOINT2:0.786224,0.000000,-0.536964,-0.305813 LARM_JOINT3:0.956930,0.000000,-0.274714,-0.093899 LLEG_JOINT2:0.996658,0.053790,0.000000,0.061479 LLEG_JOINT4:0.993692,0.076837,0.000000,-0.081689 RARM_JOINT2:0.780454,0.000000,-0.038495,0.624027 RARM_JOINT3:0.976693,0.000000,0.156308,0.147101 RLEG_JOINT2:0.999325,-0.024455,-0.000000,-0.027412 RLEG_JOINT4:0.991357,0.131101,0.000000,0.004966 WAIST:0.995206,0.000000,-0.097627,0.005844 WAIST_JOINT0:0.984924,0.000000,-0.172705,-0.009924 WAIST_JOINT1:0.995770,0.079307,0.000000,-0.046396 END:
KINECT_DATA_Sensor  AnkleLeft:0.098379,0.789358,-0.087032,-0.599717 AnkleRight:0.070975,0.613944,0.082205,0.781842 ElbowLeft:-0.432018,0.899647,0.007106,-0.062819 ElbowRight:0.048830,0.836694,0.178911,0.515315 FootLeft:0.000000,0.000000,0.000000,0.000000 FootRight:0.000000,0.000000,0.000000,0.000000 HandLeft:-0.091213,-0.354220,-0.505846,0.781235 HandRight:-0.015323,0.627606,-0.037130,0.777495 HandTipLeft:0.000000,0.000000,0.000000,0.000000 HandTipRight:0.000000,0.000000,0.000000,0.000000 Head:0.000000,0.000000,0.000000,0.000000 HipLeft:0.176233,-0.660949,0.694374,-0.223458 HipRight:-0.057240,0.688862,0.708079,-0.144282 KneeLeft:-0.017210,0.771751,-0.084761,-0.630016 KneeRight:-0.032157,0.638506,0.001709,0.768943 Neck:0.172788,-0.043210,0.979061,-0.098577 ShoulderLeft:-0.129243,0.754928,-0.601286,0.227674 ShoulderRight:0.102882,0.765948,0.633394,0.039391 SpineBase:0.094900,-0.027743,0.993489,-0.056597 SpineMid:0.133501,-0.029925,0.989042,-0.055474 SpineShoulder:0.172963,-0.037580,0.981354,-0.074935 ThumbLeft:0.000000,0.000000,0.000000,0.000000 ThumbRight:0.000000,0.000000,0.000000,0.000000 WristLeft:-0.103113,-0.362409,-0.498912,0.780458 WristRight:-0.057066,0.624044,-0.025025,0.778901 END:
KINECT_DATA POSITION:19.756504,-3.444203,-1.539052 HEAD_JOINT1:0.979202,0.146909,-0.000000,0.139930 LARM_JOINT2:0.781492,0.000000,-0.542076,-0.308907 LARM_JOINT3:0.958289,0.000000,-0.269144,-0.096143 LLEG_JOINT2:0.996613,0.052944,0.000000,0.062920 LLEG_JOINT4:0.993558,0.077138,0.000000,-0.083022 RARM_JOINT2:0.780033,0.000000,-0.037326,0.624624 RARM_JOINT3:0.976346,0.000000,0.157198,0.148450 RLEG_JOINT2:0.999333,-0.025003,-0.000000,-0.026626 RLEG_JOINT4:0.991387,0.130964,0.000000,0.000941 WAIST:0.995393,0.000000,-0.095720,0.005596 WAIST_JOINT0:0.984637,0.000000,-0.174341,-0.009786 WAIST_JOINT1:0.995724,0.080280,0.000000,-0.045710 END:
KINECT_DATA_Sensor  AnkleLeft:0.090255,0.732042,-0.094651,-0.668588 AnkleRight:0.067825,0.613785,0.084667,0.781984 ElbowLeft:-0.430410,0.900134,0.014706,-0.065492 ElbowRight:0.048858,0.837769,0.177979,0.513886 FootLeft:0.000000,0.000000,0.000000,0.000000 FootRight:0.000000,0.000000,0.000000,0.000000 HandLeft:-0.104419,-0.351796,-0.489141,0.791250 HandRight:-0.011715,0.599275,-0.050993,0.798832 HandTipLeft:0.000000,0.000000,0.000000,0.000000 HandTipRight:0.000000,0.000000,0.000000,0.000000 Head:0.000000,0.000000,0.000000,0.000000 HipLeft:0.174530,-0.661153,0.694562,-0.223605 HipRight:-0.057788,0.688277,0.708079,-0.146833 KneeLeft:-0.018544,0.770424,-0.084877,-0.631585 KneeRight:-0.032271,0.640108,0.000866,0.767606 Neck:0.174321,-0.043195,0.978754,-0.098928 ShoulderLeft:-0.129000,0.752688,-0.603715,0.228796 ShoulderRight:0.105625,0.764443,0.634700,0.040315 SpineBase:0.092933,-0.027980,0.993583,-0.058075 SpineMid:0.133265,-0.030319,0.988982,-0.056889 SpineShoulder:0.174513,-0.037558,0.981017,-0.075770 ThumbLeft:0.000000,0.000000,0.000000,0.000000 ThumbRight:0.000000,0.000000,0.000000,0.000000 WristLeft:-0.109992,-0.351033,-0.498660,0.784867 WristRight:-0.055000,0.594975,-0.025952,0.801440 END:
KINECT_DATA POSITION:19.765923,-3.418776,-1.544309 HEAD_JOINT1:0.979229,0.147028,-0.000000,0.139618 LARM_JOINT2:0.779656,0.000000,-0.538754,-0.319186 LARM_JOINT3:0.957666,0.000000,-0.269349,-0.101617 LLEG_JOINT2:0.996655,0.052916,0.000000,0.062276 LLEG_JOINT4:0.994086,0.073965,0.000000,-0.079513 RARM_JOINT2:0.779859,0.000000,-0.037066,0.624857 RARM_JOINT3:0.975838,0.000000,0.160464,0.148297 RLEG_JOINT2:0.999304,-0.025055,-0.000000,-0.027640 RLEG_JOINT4:0.991593,0.129383,0.000000,0.001772 WAIST:0.995402,0.000000,-0.095573,0.006380 WAIST_JOINT0:0.983927,0.000000,-0.178341,-0.009086 WAIST_JOINT1:0.995675,0.080675,0.000000,-0.046075 END:
KINECT_DATA_Sensor  AnkleLeft:0.094060,0.792713,-0.085846,-0.596146 AnkleRight:0.066734,0.611362,0.083431,0.784106 ElbowLeft:-0.422356,0.903822,0.016832,-0.066619 ElbowRight:0.048999,0.837068,0.177522,0.515172 FootLeft:0.000000,0.000000,0.000000,0.000000 FootRight:0.000000,0.000000,0.000000,0.000000 HandLeft:-0.090533,-0.374597,-0.478462,0.789022 HandRight:-0.019116,0.608956,-0.059552,0.790735 HandTipLeft:0.000000,0.000000,0.000000,0.000000 HandTipRight:0.000000,0.000000,0.000000,0.000000 Head:0.000000,0.000000,0.000000,0.000000 HipLeft:0.174539,-0.660485,0.695041,-0.224085 HipRight:-0.058302,0.688597,0.707510,-0.147868 KneeLeft:-0.018612,0.770250,-0.084999,-0.631778 KneeRight:-0.032401,0.640266,0.001059,0.767469 Neck:0.178102,-0.043223,0.978070,-0.098950 ShoulderLeft:-0.134153,0.749837,-0.604362,0.233439 ShoulderRight:0.106192,0.764201,0.634842,0.041181 SpineBase:0.092695,-0.027589,0.993590,-0.058526 SpineMid:0.135023,-0.030062,0.988728,-0.057295 SpineShoulder:0.178326,-0.037454,0.980305,-0.076154 ThumbLeft:0.000000,0.000000,0.000000,0.000000 ThumbRight:0.000000,0.000000,0.000000,0.000000 WristLeft:-0.106314,-0.374537,-0.497900,0.774929 WristRight:-0.055361,0.604987,-0.025427,0.793901 END:
KINECT_DATA POSITION:19.755449,-3.411969,-1.553822 HEAD_JOINT1:0.979138,0.147339,-0.000000,0.139931 LARM_JOINT2:0.780076,0.000000,-0.535872,-0.322988 LARM_JOINT3:0.956548,0.000000,-0.274275,-0.098939 LLEG_JOINT2:0.996664,0.052620,0.000000,0.062379 LLEG_JOINT4:0.993516,0.077810,0.000000,-0.082901 RARM_JOINT2:0.779476,0.000000,-0.037544,0.625307 RARM_JOINT3:0.975627,0.000000,0.161811,0.148220 RLEG_JOINT2:0.999302,-0.025419,-0.000000,-0.027373 RLEG_JOINT4:0.991271,0.131822,0.000000,0.001946 WAIST:0.995362,0.000000,-0.095987,0.006393 WAIST_JOINT0:0.984106,0.000000,-0.177371,-0.008684 WAIST_JOINT1:0.995677,0.080613,0.000000,-0.046141 END:
KINECT_DATA_Sensor  AnkleLeft:0.098718,0.791529,-0.086361,-0.596890 AnkleRight:0.068728,0.611638,0.084359,0.783619 ElbowLeft:-0.419046,0.904982,0.018129,-0.071272 ElbowRight:0.049538,0.836810,0.177104,0.515683 FootLeft:0.000000,0.000000,0.000000,0.000000 FootRight:0.000000,0.000000,0.000000,0.000000 HandLeft:-0.074613,-0.394529,-0.487918,0.775059 HandRight:-0.023315,0.614624,-0.062901,0.785962 HandTipLeft:0.000000,0.000000,0.000000,0.000000 HandTipRight:0.000000,0.000000,0.000000,0.000000 Head:0.000000,0.000000,0.000000,0.000000 HipLeft:0.174677,-0.660417,0.694998,-0.224313 HipRight:-0.057907,0.688676,0.707516,-0.147625 KneeLeft:-0.018926,0.770491,-0.084839,-0.631496 KneeRight:-0.032503,0.639977,0.000630,0.767706 Neck:0.177303,-0.043156,0.978230,-0.098834 ShoulderLeft:-0.133452,0.750530,-0.603885,0.232848 ShoulderRight:0.105652,0.764802,0.634235,0.040755 SpineBase:0.093097,-0.027615,0.993546,-0.058622 SpineMid:0.134830,-0.030058,0.988748,-0.057408 SpineShoulder:0.177530,-0.037369,0.980449,-0.076198 ThumbLeft:0.000000,0.000000,0.000000,0.000000 ThumbRight:0.000000,0.000000,0.000000,0.000000 WristLeft:-0.094723,-0.398344,-0.501772,0.761955 WristRight:-0.055055,0.611033,-0.025162,0.789287 END:
KINECT_DATA POSITION:19.742691,-3.435339,-1.545179 HEAD_JOINT1:0.978202,0.152224,-0.000000,0.141243 LARM_JOINT2:0.811571,0.000000,-0.467374,-0.350592 LARM_JOINT3:0.925017,0.000000,-0.355397,-0.134297 LLEG_JOINT2:0.996635,0.053362,0.000000,0.062226 LLEG_JOINT4:0.993434,0.079707,0.000000,-0.082075 RARM_JOINT2:0.780185,0.000000,-0.038811,0.624344 RARM_JOINT3:0.974936,0.000000,0.163466,0.150928 RLEG_JOINT2:0.999336,-0.024915,-0.000000,-0.026581 RLEG_JOINT4:0.991204,0.132342,0.000000,0.001018 WAIST:0.995247,0.000000,-0.097187,0.006176 WAIST_JOINT0:0.985254,0.000000,-0.170799,-0.010163 WAIST_JOINT1:0.995902,0.078116,0.000000,-0.045573 END:
KINECT_DATA_Sensor  AnkleLeft:0.099499,0.788257,-0.089318,-0.600644 AnkleRight:0.069898,0.615588,0.084767,0.780372 ElbowLeft:-0.384074,0.914221,-0.020409,-0.127558 ElbowRight:0.049250,0.839458,0.176935,0.511447 FootLeft:0.000000,0.000000,0.000000,0.000000 FootRight:0.000000,0.000000,0.000000,0.000000 HandLeft:-0.140023,-0.355671,-0.472468,0.794144 HandRight:-0.034523,0.634612,-0.069948,0.768884 HandTipLeft:0.000000,0.000000,0.000000,0.000000 HandTipRight:0.000000,0.000000,0.000000,0.000000 Head:0.000000,0.000000,0.000000,0.000000 HipLeft:0.175750,-0.660562,0.694533,-0.224483 HipRight:-0.057690,0.688873,0.707620,-0.146287 KneeLeft:-0.018266,0.771350,-0.085146,-0.630426 KneeRight:-0.031758,0.638976,0.000527,0.768570 Neck:0.171177,-0.042003,0.979685,-0.095661 ShoulderLeft:-0.127006,0.756061,-0.601181,0.225436 ShoulderRight:0.102615,0.765790,0.633645,0.039104 SpineBase:0.094369,-0.027504,0.993477,-0.057809 SpineMid:0.132439,-0.029703,0.989122,-0.056711 SpineShoulder:0.171378,-0.036395,0.981723,-0.074335 ThumbLeft:0.000000,0.000000,0.000000,0.000000 ThumbRight:0.000000,0.000000,0.000000,0.000000 WristLeft:-0.158061,-0.351689,-0.500805,0.774936 WristRight:-0.054905,0.632109,-0.025110,0.772524 END:
KINECT_DATA POSITION:19.628328,-3.622307,-1.499045 HEAD_JOINT1:0.976961,0.158397,-0.000000,0.143033 LARM_JOINT2:0.844760,0.000000,-0.397398,-0.358406 LARM_JOINT3:0.909674,0.000000,-0.377404,-0.173374 LLEG_JOINT2:0.996268,0.055331,0.000000,0.066240 LLEG_JOINT4:0.993743,0.075300,0.000000,-0.082486 RARM_JOINT2:0.779869,0.000000,-0.043161,0.624452 RARM_JOINT3:0.972635,0.000000,0.172677,0.155450 RLEG_JOINT2:0.999470,-0.024857,-0.000000,-0.021030 RLEG_JOINT4:0.991199,0.132357,0.000000,-0.002469 WAIST:0.994956,0.000000,-0.100264,0.002995 WAIST_JOINT0:0.987863,0.000000,-0.154995,-0.010130 WAIST_JOINT1:0.996222,0.075313,0.000000,-0.043238 END:
KINECT_DATA_Sensor  AnkleLeft:0.095683,0.781253,-0.089416,-0.610322 AnkleRight:0.084188,0.750689,0.070576,0.651458 ElbowLeft:-0.356803,0.919497,-0.081541,-0.143416 ElbowRight:0.048428,0.832786,0.177654,0.522075 FootLeft:0.000000,0.000000,0.000000,0.000000 FootRight:0.000000,0.000000,0.000000,0.000000 HandLeft:-0.223328,-0.144694,-0.409388,0.872691 HandRight:-0.043808,0.637981,-0.087465,0.763814 HandTipLeft:0.000000,0.000000,0.000000,0.000000 HandTipRight:0.000000,0.000000,0.000000,0.000000 Head:0.000000,0.000000,0.000000,0.000000 HipLeft:0.178323,-0.662731,0.691803,-0.224495 HipRight:-0.056435,0.687652,0.709777,-0.142006 KneeLeft:-0.018070,0.773702,-0.086937,-0.627296 KneeRight:-0.030446,0.636383,-0.001396,0.770771 Neck:0.156079,-0.041128,0.982534,-0.092600 ShoulderLeft:-0.108888,0.765185,-0.599648,0.207505 ShoulderRight:0.098608,0.768069,0.631761,0.035001 SpineBase:0.097851,-0.028582,0.993243,-0.055459 SpineMid:0.126701,-0.030183,0.989977,-0.054604 SpineShoulder:0.156236,-0.035620,0.984423,-0.072335 ThumbLeft:0.000000,0.000000,0.000000,0.000000 ThumbRight:0.000000,0.000000,0.000000,0.000000 WristLeft:-0.259840,-0.152301,-0.427365,0.852436 WristRight:-0.060308,0.635619,-0.029624,0.769073 END:
KINECT_DATA POSITION:19.736668,-4.155502,-1.228607 HEAD_JOINT1:0.974487,0.167771,-0.000000,0.149089 LARM_JOINT2:0.854668,0.000000,-0.343034,-0.389705 LARM_JOINT3:0.905273,0.000000,-0.366015,-0.215671 LLEG_JOINT2:0.996332,0.054735,0.000000,0.065780 LLEG_JOINT4:0.994331,0.075385,0.000000,-0.074988 RARM_JOINT2:0.777669,0.000000,-0.048106,0.626831 RARM_JOINT3:0.970656,0.000000,0.184124,0.154677 RLEG_JOINT2:0.999592,-0.019365,-0.000000,-0.020997 RLEG_JOINT4:0.991870,0.127241,0.000000,0.002167 WAIST:0.996111,0.000000,-0.088107,-0.000124 WAIST_JOINT0:0.991335,0.000000,-0.130878,-0.011203 WAIST_JOINT1:0.996744,0.070794,0.000000,-0.038605 END:
KINECT_DATA_Sensor  AnkleLeft:0.089490,0.748110,-0.094110,-0.650743 AnkleRight:0.071141,0.640027,0.083362,0.760497 ElbowLeft:-0.312763,0.930959,-0.119526,-0.145631 ElbowRight:0.041373,0.821684,0.174745,0.540914 FootLeft:0.000000,0.000000,0.000000,0.000000 FootRight:0.000000,0.000000,0.000000,0.000000 HandLeft:-0.127345,-0.347317,-0.430603,0.823247 HandRight:-0.038181,0.657147,-0.104096,0.745563 HandTipLeft:0.000000,0.000000,0.000000,0.000000 HandTipRight:0.000000,0.000000,0.000000,0.000000 Head:0.000000,0.000000,0.000000,0.000000 HipLeft:0.173522,-0.667581,0.691281,-0.215306 HipRight:-0.067483,0.684965,0.711026,-0.143910 KneeLeft:-0.014860,0.766438,-0.084171,-0.636606 KneeRight:-0.028400,0.644701,0.003859,0.763898 Neck:0.132201,-0.039625,0.986644,-0.086528 ShoulderLeft:-0.085054,0.775946,-0.598598,0.179872 ShoulderRight:0.089049,0.770115,0.631106,0.026407 SpineBase:0.086428,-0.026861,0.994653,-0.049730 SpineMid:0.109129,-0.027991,0.992419,-0.049103 SpineShoulder:0.132288,-0.034329,0.988292,-0.067827 ThumbLeft:0.000000,0.000000,0.000000,0.000000 ThumbRight:0.000000,0.000000,0.000000,0.000000 WristLeft:-0.131441,-0.349060,-0.430092,0.822132 WristRight:-0.074247,0.651489,-0.038793,0.754019 END:
KINECT_DATA POSITION:20.060507,-4.447349,-1.058185 HEAD_JOINT1:0.974212,0.171695,-0.000000,0.146394 LARM_JOINT2:0.855811,0.000000,-0.333256,-0.395636 LARM_JOINT3:0.897134,0.000000,-0.383319,-0.219584 LLEG_JOINT2:0.996569,0.053157,0.000000,0.063444 LLEG_JOINT4:0.995142,0.072755,0.000000,-0.066321 RARM_JOINT2:0.779391,0.000000,-0.052284,0.624353 RARM_JOINT3:0.970765,0.000000,0.183383,0.154872 RLEG_JOINT2:0.999588,-0.015913,-0.000000,-0.023893 RLEG_JOINT4:0.992146,0.124519,0.000000,0.011907 WAIST:0.996928,0.000000,-0.078290,-0.002211 WAIST_JOINT0:0.993045,0.000000,-0.117181,-0.011423 WAIST_JOINT1:0.997121,0.067567,0.000000,-0.034411 END:
KINECT_DATA_Sensor  AnkleLeft:0.087335,0.763728,-0.089926,-0.633250 AnkleRight:0.073866,0.647687,0.080699,0.754011 ElbowLeft:-0.305987,0.930887,-0.128330,-0.152814 ElbowRight:0.038313,0.823430,0.175967,0.538081 FootLeft:0.000000,0.000000,0.000000,0.000000 FootRight:0.000000,0.000000,0.000000,0.000000 HandLeft:-0.196953,-0.223736,-0.447146,0.843334 HandRight:-0.033507,0.677463,-0.099153,0.728073 HandTipLeft:0.000000,0.000000,0.000000,0.000000 HandTipRight:0.000000,0.000000,0.000000,0.000000 Head:0.000000,0.000000,0.000000,0.000000 HipLeft:0.168836,-0.670803,0.691551,-0.208026 HipRight:-0.075369,0.682786,0.712016,-0.145450 KneeLeft:-0.011840,0.760356,-0.080114,-0.644438 KneeRight:-0.029155,0.651466,0.009476,0.758058 Neck:0.118795,-0.037835,0.988668,-0.083615 ShoulderLeft:-0.078975,0.781881,-0.595321,0.167385 ShoulderRight:0.076768,0.773392,0.629000,0.018192 SpineBase:0.077059,-0.025265,0.995644,-0.046016 SpineMid:0.097731,-0.026216,0.993827,-0.045481 SpineShoulder:0.118814,-0.032840,0.990313,-0.063907 ThumbLeft:0.000000,0.000000,0.000000,0.000000 ThumbRight:0.000000,0.000000,0.000000,0.000000 WristLeft:-0.187806,-0.233046,-0.406482,0.863244 WristRight:-0.077959,0.670472,-0.038427,0.736826 END:
KINECT_DATA POSITION:20.132921,-4.499475,-1.034272 HEAD_JOINT1:0.975263,0.169467,-0.000000,0.141925 LARM_JOINT2:0.821466,0.000000,-0.352538,-0.448231 LARM_JOINT3:0.917543,0.000000,-0.366838,-0.153443 LLEG_JOINT2:0.996511,0.053386,0.000000,0.064155 LLEG_JOINT4:0.994905,0.076032,0.000000,-0.066203 RARM_JOINT2:0.779409,0.000000,-0.054221,0.624165 RARM_JOINT3:0.970886,0.000000,0.180846,0.157085 RLEG_JOINT2:0.999588,-0.015172,-0.000000,-0.024365 RLEG_JOINT4:0.992155,0.124258,0.000000,0.013706 WAIST:0.997131,0.000000,-0.075655,-0.002603 WAIST_JOINT0:0.993393,0.000000,-0.114213,-0.011234 WAIST_JOINT1:0.997276,0.065420,0.000000,-0.034061 END:
KINECT_DATA_Sensor  AnkleLeft:0.087781,0.749303,-0.094245,-0.649582 AnkleRight:0.074576,0.649343,0.080493,0.752538 ElbowLeft:-0.288800,0.928484,-0.045401,-0.229022 ElbowRight:0.036787,0.823358,0.175978,0.538294 FootLeft:0.000000,0.000000,0.000000,0.000000 FootRight:0.000000,0.000000,0.000000,0.000000 HandLeft:-0.182845,-0.327926,-0.496495,0.782640 HandRight:-0.018566,0.665633,-0.099913,0.739328 HandTipLeft:0.000000,0.000000,0.000000,0.000000 HandTipRight:0.000000,0.000000,0.000000,0.000000 Head:0.000000,0.000000,0.000000,0.000000 HipLeft:0.168278,-0.671796,0.691556,-0.205241 HipRight:-0.077517,0.682328,0.712155,-0.145791 KneeLeft:-0.011725,0.758741,-0.080513,-0.646291 KneeRight:-0.029195,0.653393,0.010518,0.756383 Neck:0.116137,-0.037767,0.989143,-0.081742 ShoulderLeft:-0.080910,0.783276,-0.593876,0.165056 ShoulderRight:0.071236,0.774398,0.628466,0.016234 SpineBase:0.074481,-0.026082,0.995892,-0.044404 SpineMid:0.095050,-0.026994,0.994140,-0.043856 SpineShoulder:0.116080,-0.033244,0.990775,-0.061532 ThumbLeft:0.000000,0.000000,0.000000,0.000000 ThumbRight:0.000000,0.000000,0.000000,0.000000 WristLeft:-0.109406,-0.303189,-0.451305,0.832124 WristRight:-0.078795,0.655926,-0.040786,0.749592 END:
KINECT_DATA POSITION:20.179316,-4.514247,-1.050544 HEAD_JOINT1:0.975934,0.166703,-0.000000,0.140581 LARM_JOINT2:0.817004,0.000000,-0.357062,-0.452781 LARM_JOINT3:0.920763,0.000000,-0.362330,-0.144610 LLEG_JOINT2:0.996574,0.052984,0.000000,0.063500 LLEG_JOINT4:0.994939,0.075903,0.000000,-0.065845 RARM_JOINT2:0.779568,0.000000,-0.055808,0.623826 RARM_JOINT3:0.971790,0.000000,0.180358,0.151970 RLEG_JOINT2:0.999576,-0.016423,-0.000000,-0.024050 RLEG_JOINT4:0.991851,0.126927,0.000000,0.010976 WAIST:0.997230,0.000000,-0.074332,-0.002693 WAIST_JOINT0:0.993611,0.000000,-0.112340,-0.010768 WAIST_JOINT1:0.997379,0.064070,0.000000,-0.033617 END:
KINECT_DATA_Sensor  AnkleLeft:0.089636,0.760942,-0.091771,-0.636011 AnkleRight:0.074002,0.650775,0.083358,0.751044 ElbowLeft:-0.288883,0.927504,-0.036406,-0.234432 ElbowRight:0.036214,0.823101,0.175971,0.538728 FootLeft:0.000000,0.000000,0.000000,0.000000 FootRight:0.000000,0.000000,0.000000,0.000000 HandLeft:-0.203452,-0.279289,-0.490228,0.800176 HandRight:-0.025555,0.643666,-0.084604,0.760186 HandTipLeft:0.000000,0.000000,0.000000,0.000000 HandTipRight:0.000000,0.000000,0.000000,0.000000 Head:0.000000,0.000000,0.000000,0.000000 HipLeft:0.168297,-0.672263,0.691616,-0.203484 HipRight:-0.078767,0.682214,0.712200,-0.145436 KneeLeft:-0.011321,0.757930,-0.079734,-0.647346 KneeRight:-0.030016,0.654377,0.009492,0.755513 Neck:0.114524,-0.037403,0.989440,-0.080585 ShoulderLeft:-0.082379,0.784006,-0.593046,0.163841 ShoulderRight:0.067591,0.775182,0.627936,0.014856 SpineBase:0.073194,-0.026424,0.996036,-0.043079 SpineMid:0.093563,-0.027300,0.994330,-0.042530 SpineShoulder:0.114439,-0.033040,0.991063,-0.060058 ThumbLeft:0.000000,0.000000,0.000000,0.000000 ThumbRight:0.000000,0.000000,0.000000,0.000000 WristLeft:-0.132573,-0.255037,-0.447633,0.846762 WristRight:-0.078330,0.635817,-0.042923,0.766654 END:
KINECT_DATA POSITION:20.208523,-4.509694,-1.120090 HEAD_JOINT1:0.976344,0.165449,-0.000000,0.139210 LARM_JOINT2:0.811055,0.000000,-0.372850,-0.450748 LARM_JOINT3:0.925817,0.000000,-0.356004,-0.126976 LLEG_JOINT2:0.996650,0.052556,0.000000,0.062671 LLEG_JOINT4:0.994733,0.077652,0.000000,-0.066904 RARM_JOINT2:0.779529,0.000000,-0.055065,0.623941 RARM_JOINT3:0.972305,0.000000,0.177163,0.152432 RLEG_JOINT2:0.999584,-0.015752,-0.000000,-0.024176 RLEG_JOINT4:0.992007,0.125769,0.000000,0.010192 WAIST:0.997184,0.000000,-0.074948,-0.002601 WAIST_JOINT0:0.993578,0.000000,-0.112663,-0.010504 WAIST_JOINT1:0.997377,0.064209,0.000000,-0.033415 END:
KINECT_DATA_Sensor  AnkleLeft:0.086536,0.724402,-0.096588,-0.677070 AnkleRight:0.073191,0.650703,0.083587,0.751161 ElbowLeft:-0.296390,0.926561,-0.023931,-0.230359 ElbowRight:0.035891,0.822318,0.175478,0.540104 FootLeft:0.000000,0.000000,0.000000,0.000000 FootRight:0.000000,0.000000,0.000000,0.000000 HandLeft:-0.154915,-0.316357,-0.518086,0.779427 HandRight:-0.015066,0.659953,-0.079394,0.746948 HandTipLeft:0.000000,0.000000,0.000000,0.000000 HandTipRight:0.000000,0.000000,0.000000,0.000000 Head:0.000000,0.000000,0.000000,0.000000 HipLeft:0.168742,-0.672097,0.691667,-0.203489 HipRight:-0.078314,0.682340,0.712308,-0.144559 KneeLeft:-0.011096,0.758327,-0.078923,-0.646984 KneeRight:-0.029518,0.653890,0.009975,0.755948 Neck:0.114937,-0.037075,0.989378,-0.080910 ShoulderLeft:-0.083565,0.783749,-0.592924,0.164911 ShoulderRight:0.066997,0.775391,0.627752,0.014389 SpineBase:0.073812,-0.026383,0.996005,-0.042771 SpineMid:0.094070,-0.027248,0.994296,-0.042225 SpineShoulder:0.114861,-0.032682,0.991019,-0.060167 ThumbLeft:0.000000,0.000000,0.000000,0.000000 ThumbRight:0.000000,0.000000,0.000000,0.000000 WristLeft:-0.104869,-0.306994,-0.459440,0.826844 WristRight:-0.079658,0.650463,-0.041515,0.754208 END:
KINECT_DATA POSITION:20.213873,-4.450903,-1.185226 HEAD_JOINT1:0.976569,0.165125,-0.000000,0.138009 LARM_JOINT2:0.822517,0.000000,-0.431553,-0.370443 LARM_JOINT3:0.937914,0.000000,-0.321853,-0.129332 LLEG_JOINT2:0.996556,0.054614,0.000000,0.062400 LLEG_JOINT4:0.994875,0.073515,0.000000,-0.069423 RARM_JOINT2:0.780466,0.000000,-0.052316,0.623005 RARM_JOINT3:0.972051,0.000000,0.177064,0.154158 RLEG_JOINT2:0.999513,-0.018326,-0.000000,-0.025259 RLEG_JOINT4:0.991496,0.129825,0.000000,0.009033 WAIST:0.996698,0.000000,-0.081190,-0.001236 WAIST_JOINT0:0.992167,0.000000,-0.124551,-0.009523 WAIST_JOINT1:0.997318,0.063982,0.000000,-0.035550 END:
KINECT_DATA_Sensor  AnkleLeft:0.083686,0.713656,-0.096559,-0.688744 AnkleRight:0.074110,0.643386,0.085056,0.757184 ElbowLeft:-0.370871,0.917241,-0.053788,-0.135017 ElbowRight:0.035760,0.824339,0.176009,0.536850 FootLeft:0.000000,0.000000,0.000000,0.000000 FootRight:0.000000,0.000000,0.000000,0.000000 HandLeft:-0.204398,-0.089952,-0.457415,0.860757 HandRight:-0.023640,0.668196,-0.078775,0.739425 HandTipLeft:0.000000,0.000000,0.000000,0.000000 HandTipRight:0.000000,0.000000,0.000000,0.000000 Head:0.000000,0.000000,0.000000,0.000000 HipLeft:0.171869,-0.669952,0.692207,-0.206092 HipRight:-0.073692,0.683458,0.712505,-0.140682 KneeLeft:-0.010994,0.762355,-0.081196,-0.641951 KneeRight:-0.031168,0.649329,0.008356,0.759823 Neck:0.127899,-0.038017,0.987756,-0.080832 ShoulderLeft:-0.102991,0.779868,-0.590141,0.181473 ShoulderRight:0.065481,0.775081,0.628224,0.017221 SpineBase:0.079898,-0.026596,0.995515,-0.043106 SpineMid:0.103558,-0.027614,0.993333,-0.042461 SpineShoulder:0.127846,-0.033472,0.989410,-0.060025 ThumbLeft:0.000000,0.000000,0.000000,0.000000 ThumbRight:0.000000,0.000000,0.000000,0.000000 WristLeft:-0.223534,-0.109622,-0.424563,0.870495 WristRight:-0.079686,0.660074,-0.041400,0.745814 END:
KINECT_DATA POSITION:20.195120,-4.291654,-1.234484 HEAD_JOINT1:0.977313,0.162735,-0.000000,0.135562 LARM_JOINT2:0.824160,0.000000,-0.444007,-0.351594 LARM_JOINT3:0.941752,0.000000,-0.313248,-0.122387 LLEG_JOINT2:0.996447,0.057361,0.000000,0.061664 LLEG_JOINT4:0.994454,0.070866,0.000000,-0.077710 RARM_JOINT2:0.781008,0.000000,-0.046821,0.622763 RARM_JOINT3:0.973984,0.000000,0.166113,0.154149 RLEG_JOINT2:0.999442,-0.022371,-0.000000,-0.024809 RLEG_JOINT4:0.991356,0.131169,0.000000,0.002918 WAIST:0.995887,0.000000,-0.090600,0.000510 WAIST_JOINT0:0.990345,0.000000,-0.138291,-0.009641 WAIST_JOINT1:0.997193,0.064320,0.000000,-0.038342 END:
KINECT_DATA_Sensor  AnkleLeft:0.096044,0.772939,-0.085592,-0.621301 AnkleRight:0.070372,0.635648,0.085847,0.763957 ElbowLeft:-0.388474,0.910277,-0.045253,-0.135782 ElbowRight:0.035321,0.826124,0.175455,0.534311 FootLeft:0.000000,0.000000,0.000000,0.000000 FootRight:0.000000,0.000000,0.000000,0.000000 HandLeft:-0.123001,-0.239690,-0.467864,0.841738 HandRight:-0.001490,0.633177,-0.054686,0.772071 HandTipLeft:0.000000,0.000000,0.000000,0.000000 HandTipRight:0.000000,0.000000,0.000000,0.000000 Head:0.000000,0.000000,0.000000,0.000000 HipLeft:0.177786,-0.666653,0.692338,-0.211266 HipRight:-0.067505,0.684843,0.712688,-0.136045 KneeLeft:-0.010634,0.768374,-0.083950,-0.634382 KneeRight:-0.032692,0.642490,0.004494,0.765583 Neck:0.141784,-0.038816,0.985710,-0.082254 ShoulderLeft:-0.120079,0.774921,-0.588379,0.197203 ShoulderRight:0.067656,0.774139,0.628996,0.022264 SpineBase:0.089073,-0.027171,0.994688,-0.043860 SpineMid:0.115049,-0.028308,0.992019,-0.043135 SpineShoulder:0.141748,-0.034182,0.987462,-0.060481 ThumbLeft:0.000000,0.000000,0.000000,0.000000 ThumbRight:0.000000,0.000000,0.000000,0.000000 WristLeft:-0.145846,-0.249187,-0.470910,0.833594 WristRight:-0.076758,0.624192,-0.044901,0.776194 END:
KINECT_DATA POSITION:20.127684,-4.229425,-1.233852 HEAD_JOINT1:0.977648,0.161524,-0.000000,0.134592 LARM_JOINT2:0.825044,0.000000,-0.445011,-0.348235 LARM_JOINT3:0.941630,0.000000,-0.305386,-0.141680 LLEG_JOINT2:0.996395,0.058040,0.000000,0.061870 LLEG_JOINT4:0.994199,0.072871,0.000000,-0.079111 RARM_JOINT2:0.780743,0.000000,-0.043466,0.623339 RARM_JOINT3:0.972397,0.000000,0.173850,0.155631 RLEG_JOINT2:0.999481,-0.021821,-0.000000,-0.023710 RLEG_JOINT4:0.991606,0.129293,0.000000,0.000732 WAIST:0.995540,0.000000,-0.094329,0.001472 WAIST_JOINT0:0.989821,0.000000,-0.141962,-0.010073 WAIST_JOINT1:0.996996,0.066377,0.000000,-0.039906 END:
KINECT_DATA_Sensor  AnkleLeft:0.097684,0.774526,-0.087880,-0.618744 AnkleRight:0.069683,0.633411,0.084881,0.765983 ElbowLeft:-0.388087,0.913281,-0.054034,-0.111292 ElbowRight:0.036903,0.828797,0.174970,0.530207 FootLeft:0.000000,0.000000,0.000000,0.000000 FootRight:0.000000,0.000000,0.000000,0.000000 HandLeft:-0.180510,-0.135362,-0.418969,0.879522 HandRight:-0.030282,0.648097,-0.077890,0.756959 HandTipLeft:0.000000,0.000000,0.000000,0.000000 HandTipRight:0.000000,0.000000,0.000000,0.000000 Head:0.000000,0.000000,0.000000,0.000000 HipLeft:0.180193,-0.665437,0.692046,-0.214001 HipRight:-0.065091,0.685917,0.711991,-0.135459 KneeLeft:-0.011337,0.770686,-0.085246,-0.631385 KneeRight:-0.030872,0.639863,0.003444,0.767861 Neck:0.145108,-0.039217,0.984996,-0.084779 ShoulderLeft:-0.119388,0.773524,-0.589295,0.200344 ShoulderRight:0.072870,0.773245,0.629434,0.024372 SpineBase:0.092639,-0.027760,0.994304,-0.044790 SpineMid:0.118496,-0.028917,0.991555,-0.044052 SpineShoulder:0.145107,-0.034386,0.986827,-0.062726 ThumbLeft:0.000000,0.000000,0.000000,0.000000 ThumbRight:0.000000,0.000000,0.000000,0.000000 WristLeft:-0.214131,-0.144620,-0.433965,0.863080 WristRight:-0.074749,0.641995,-0.043146,0.761836 END:
KINECT_DATA POSITION:20.171156,-4.225722,-1.175702 HEAD_JOINT1:0.977449,0.165215,-0.000000,0.131522 LARM_JOINT2:0.827160,0.000000,-0.439846,-0.349774 LARM_JOINT3:0.942259,0.000000,-0.303756,-0.140996 LLEG_JOINT2:0.996367,0.058820,0.000000,0.061594 LLEG_JOINT4:0.994295,0.075218,0.000000,-0.075632 RARM_JOINT2:0.781533,0.000000,-0.042808,0.622394 RARM_JOINT3:0.971211,0.000000,0.178215,0.158078 RLEG_JOINT2:0.999452,-0.022613,-0.000000,-0.024154 RLEG_JOINT4:0.991272,0.131820,0.000000,0.001870 WAIST:0.995533,0.000000,-0.094407,0.001391 WAIST_JOINT0:0.989881,0.000000,-0.141534,-0.010208 WAIST_JOINT1:0.997004,0.066489,0.000000,-0.039525 END:
KINECT_DATA_Sensor  AnkleLeft:0.097390,0.774431,-0.092261,-0.618272 AnkleRight:0.071451,0.633371,0.085477,0.765787 ElbowLeft:-0.385088,0.914242,-0.058779,-0.111420 ElbowRight:0.036639,0.830036,0.175614,0.528069 FootLeft:0.000000,0.000000,0.000000,0.000000 FootRight:0.000000,0.000000,0.000000,0.000000 HandLeft:-0.058268,-0.348384,-0.450617,0.819864 HandRight:-0.042346,0.661276,-0.092750,0.743181 HandTipLeft:0.000000,0.000000,0.000000,0.000000 HandTipRight:0.000000,0.000000,0.000000,0.000000 Head:0.000000,0.000000,0.000000,0.000000 HipLeft:0.180165,-0.665585,0.691795,-0.214373 HipRight:-0.065444,0.686090,0.711770,-0.135576 KneeLeft:-0.010569,0.770760,-0.085610,-0.631259 KneeRight:-0.031824,0.639741,0.003344,0.767924 Neck:0.144686,-0.038916,0.985074,-0.084741 ShoulderLeft:-0.119694,0.773546,-0.589114,0.200613 ShoulderRight:0.072084,0.773328,0.629461,0.023372 SpineBase:0.092750,-0.027216,0.994309,-0.044782 SpineMid:0.118360,-0.028361,0.991587,-0.044065 SpineShoulder:0.144699,-0.034029,0.986889,-0.062884 ThumbLeft:0.000000,0.000000,0.000000,0.000000 ThumbRight:0.000000,0.000000,0.000000,0.000000 WristLeft:-0.095159,-0.357475,-0.469875,0.801483 WristRight:-0.075454,0.656306,-0.041999,0.749537 END:
KINECT_DATA POSITION:20.164227,-4.236626,-1.094759 HEAD_JOINT1:0.977376,0.165975,-0.000000,0.131102 LARM_JOINT2:0.853746,0.000000,-0.372016,-0.364311 LARM_JOINT3:0.896761,0.000000,-0.408262,-0.170708 LLEG_JOINT2:0.996377,0.057695,0.000000,0.062487 LLEG_JOINT4:0.994105,0.074714,0.000000,-0.078575 RARM_JOINT2:0.781880,0.000000,-0.042716,0.621964 RARM_JOINT3:0.970207,0.000000,0.180481,0.161633 RLEG_JOINT2:0.999471,-0.021976,-0.000000,-0.023954 RLEG_JOINT4:0.991404,0.130822,0.000000,0.001891 WAIST:0.995846,0.000000,-0.091042,0.001247 WAIST_JOINT0:0.990870,0.000000,-0.134526,-0.008960 WAIST_JOINT1:0.997031,0.066358,0.000000,-0.039058 END:
KINECT_DATA_Sensor  AnkleLeft:0.093158,0.736741,-0.094562,-0.663018 AnkleRight:0.078650,0.705169,0.078349,0.700294 ElbowLeft:-0.351972,0.914179,-0.096771,-0.176147 ElbowRight:0.035654,0.831474,0.175895,0.525777 FootLeft:0.000000,0.000000,0.000000,0.000000 FootRight:0.000000,0.000000,0.000000,0.000000 HandLeft:-0.126248,-0.344239,-0.500189,0.784456 HandRight:-0.037614,0.658494,-0.102513,0.744622 HandTipLeft:0.000000,0.000000,0.000000,0.000000 HandTipRight:0.000000,0.000000,0.000000,0.000000 Head:0.000000,0.000000,0.000000,0.000000 HipLeft:0.178792,-0.666234,0.691990,-0.212875 HipRight:-0.067796,0.685741,0.711498,-0.137597 KneeLeft:-0.011597,0.768587,-0.085252,-0.633933 KneeRight:-0.031321,0.642290,0.003584,0.765813 Neck:0.137541,-0.038484,0.986132,-0.084527 ShoulderLeft:-0.111260,0.774991,-0.591457,0.192844 ShoulderRight:0.070664,0.774217,0.628625,0.020612 SpineBase:0.089419,-0.027231,0.994625,-0.044545 SpineMid:0.113138,-0.028286,0.992207,-0.043882 SpineShoulder:0.137534,-0.033701,0.987932,-0.062760 ThumbLeft:0.000000,0.000000,0.000000,0.000000 ThumbRight:0.000000,0.000000,0.000000,0.000000 WristLeft:-0.128761,-0.349698,-0.488630,0.788906 WristRight:-0.076174,0.652542,-0.045426,0.752545 END:
KINECT_DATA POSITION:20.138235,-4.266461,-0.990415 HEAD_JOINT1:0.976348,0.167801,-0.000000,0.136333 LARM_JOINT2:0.870093,0.000000,-0.242539,-0.429083 LARM_JOINT3:0.813246,0.000000,-0.539387,-0.218387 LLEG_JOINT2:0.996627,0.053935,0.000000,0.061853 LLEG_JOINT4:0.994296,0.077463,0.000000,-0.073309 RARM_JOINT2:0.780895,0.000000,-0.047266,0.622872 RARM_JOINT3:0.970709,0.000000,0.181988,0.156857 RLEG_JOINT2:0.999506,-0.018666,-0.000000,-0.025283 RLEG_JOINT4:0.991511,0.129961,0.000000,0.004006 WAIST:0.996905,0.000000,-0.078614,0.001019 WAIST_JOINT0:0.993010,0.000000,-0.117701,-0.008800 WAIST_JOINT1:0.997091,0.066719,0.000000,-0.036863 END:
KINECT_DATA_Sensor  AnkleLeft:0.093207,0.749411,-0.092512,-0.648951 AnkleRight:0.072365,0.648085,0.087130,0.753098 ElbowLeft:-0.255531,0.910654,-0.138434,-0.293682 ElbowRight:0.035946,0.830764,0.175121,0.527135 FootLeft:0.000000,0.000000,0.000000,0.000000 FootRight:0.000000,0.000000,0.000000,0.000000 HandLeft:-0.201669,-0.341717,-0.594478,0.699396 HandRight:-0.034315,0.648082,-0.100746,0.754097 HandTipLeft:0.000000,0.000000,0.000000,0.000000 HandTipRight:0.000000,0.000000,0.000000,0.000000 Head:0.000000,0.000000,0.000000,0.000000 HipLeft:0.173645,-0.668307,0.692782,-0.208007 HipRight:-0.076831,0.684618,0.710075,-0.145564 KneeLeft:-0.012402,0.760489,-0.081950,-0.644040 KneeRight:-0.029871,0.651544,0.006488,0.757995 Neck:0.120110,-0.036661,0.988477,-0.084518 ShoulderLeft:-0.088755,0.780930,-0.593621,0.172872 ShoulderRight:0.068973,0.775943,0.626852,0.014529 SpineBase:0.077103,-0.026550,0.995697,-0.044013 SpineMid:0.098269,-0.027481,0.993832,-0.043439 SpineShoulder:0.120052,-0.032322,0.990254,-0.062762 ThumbLeft:0.000000,0.000000,0.000000,0.000000 ThumbRight:0.000000,0.000000,0.000000,0.000000 WristLeft:-0.145778,-0.336549,-0.522614,0.769648 WristRight:-0.075029,0.641826,-0.045177,0.761832 END:
KINECT_DATA POSITION:20.076189,-4.354680,-0.881016 HEAD_JOINT1:0.975686,0.170169,-0.000000,0.138125 LARM_JOINT2:0.870819,0.000000,-0.148053,-0.468780 LARM_JOINT3:0.785038,0.000000,-0.568972,-0.244921 LLEG_JOINT2:0.996956,0.047937,0.000000,0.061497 LLEG_JOINT4:0.994313,0.081721,0.000000,-0.068285 RARM_JOINT2:0.779916,0.000000,-0.053190,0.623620 RARM_JOINT3:0.969705,0.000000,0.191160,0.152088 RLEG_JOINT2:0.999607,-0.010463,-0.000000,-0.026004 RLEG_JOINT4:0.992063,0.124984,0.000000,0.013786 WAIST:0.998383,0.000000,-0.056818,0.001956 WAIST_JOINT0:0.995378,0.000000,-0.095929,-0.004460 WAIST_JOINT1:0.997126,0.068055,0.000000,-0.033277 END:
KINECT_DATA_Sensor  AnkleLeft:0.092283,0.752149,-0.090604,-0.646179 AnkleRight:0.087462,0.735737,0.074843,0.667414 ElbowLeft:-0.180603,0.893823,-0.173466,-0.371984 ElbowRight:0.035906,0.829975,0.173831,0.528806 FootLeft:0.000000,0.000000,0.000000,0.000000 FootRight:0.000000,0.000000,0.000000,0.000000 HandLeft:-0.129252,-0.292768,-0.567420,0.758693 HandRight:-0.036931,0.638843,-0.119799,0.759054 HandTipLeft:0.000000,0.000000,0.000000,0.000000 HandTipRight:0.000000,0.000000,0.000000,0.000000 Head:0.000000,0.000000,0.000000,0.000000 HipLeft:0.161619,-0.671771,0.695071,-0.198696 HipRight:-0.090660,0.683925,0.706156,-0.159281 KneeLeft:-0.015095,0.745864,-0.078139,-0.661327 KneeRight:-0.023706,0.667684,0.011122,0.743984 Neck:0.097854,-0.032980,0.991027,-0.084866 ShoulderLeft:-0.065056,0.783810,-0.598888,0.150806 ShoulderRight:0.062910,0.779373,0.623387,0.002914 SpineBase:0.055368,-0.024630,0.997175,-0.044394 SpineMid:0.076240,-0.025554,0.995796,-0.043869 SpineShoulder:0.097748,-0.029407,0.992754,-0.063401 ThumbLeft:0.000000,0.000000,0.000000,0.000000 ThumbRight:0.000000,0.000000,0.000000,0.000000 WristLeft:-0.132871,-0.305923,-0.539529,0.773088 WristRight:-0.074448,0.632780,-0.046255,0.769355 END:
KINECT_DATA POSITION:20.069565,-4.406617,-0.766551 HEAD_JOINT1:0.976480,0.174873,-0.000000,0.126122 LARM_JOINT2:0.869530,0.000000,-0.048358,-0.491507 LARM_JOINT3:0.758965,0.000000,-0.587891,-0.279921 LLEG_JOINT2:0.997271,0.043014,0.000000,0.060004 LLEG_JOINT4:0.994709,0.085946,0.000000,-0.056280 RARM_JOINT2:0.786425,0.000000,-0.041448,0.616293 RARM_JOINT3:0.967839,0.000000,0.192184,0.162337 RLEG_JOINT2:0.999672,-0.002082,-0.000000,-0.025521 RLEG_JOINT4:0.992961,0.117137,0.000000,0.017539 WAIST:0.999523,0.000000,-0.030866,0.001205 WAIST_JOINT0:0.998872,0.000000,-0.046737,0.008417 WAIST_JOINT1:0.997447,0.067314,0.000000,-0.023850 END:
KINECT_DATA_Sensor  AnkleLeft:0.086001,0.727339,-0.095630,-0.674119 AnkleRight:0.080453,0.688228,0.082537,0.716280 ElbowLeft:-0.115028,0.851732,-0.215607,-0.463502 ElbowRight:0.024577,0.852335,0.171327,0.493527 FootLeft:0.000000,0.000000,0.000000,0.000000 FootRight:0.000000,0.000000,0.000000,0.000000 HandLeft:-0.247359,-0.257828,-0.575752,0.735424 HandRight:-0.029584,0.699016,-0.153115,0.697895 HandTipLeft:0.000000,0.000000,0.000000,0.000000 HandTipRight:0.000000,0.000000,0.000000,0.000000 Head:0.000000,0.000000,0.000000,0.000000 HipLeft:0.144814,-0.676041,0.698353,-0.185205 HipRight:-0.107152,0.680383,0.704186,-0.172394 KneeLeft:-0.014917,0.728281,-0.073328,-0.681181 KneeRight:-0.018112,0.686240,0.016354,0.726966 Neck:0.047015,-0.023116,0.995155,-0.083191 ShoulderLeft:-0.016472,0.780353,-0.616926,0.100895 ShoulderRight:0.045348,0.784834,0.617523,-0.025380 SpineBase:0.029759,-0.020616,0.998378,-0.043951 SpineMid:0.038051,-0.020980,0.998096,-0.043779 SpineShoulder:0.046838,-0.021189,0.996709,-0.062670 ThumbLeft:0.000000,0.000000,0.000000,0.000000 ThumbRight:0.000000,0.000000,0.000000,0.000000 WristLeft:-0.108596,-0.175478,-0.513877,0.832673 WristRight:-0.076832,0.690082,-0.052382,0.717733 END:
KINECT_DATA POSITION:20.016224,-4.413599,-0.752223 HEAD_JOINT1:0.979433,0.177379,-0.000000,0.096161 LARM_JOINT2:0.862954,0.000000,-0.016692,-0.505008 LARM_JOINT3:0.770394,0.000000,-0.580793,-0.263007 LLEG_JOINT2:0.997523,0.035521,0.000000,0.060715 LLEG_JOINT4:0.994864,0.087207,0.000000,-0.051377 RARM_JOINT2:0.794909,0.000000,-0.043324,0.605180 RARM_JOINT3:0.956758,0.000000,0.198464,0.212663 RLEG_JOINT2:0.999629,-0.001358,-0.000000,-0.027214 RLEG_JOINT4:0.992613,0.118693,0.000000,0.025145 WAIST:0.999998,0.000000,-0.001948,0.000891 WAIST_JOINT0:0.999830,-0.000000,0.002483,0.018261 WAIST_JOINT1:0.997763,0.065773,0.000000,-0.011977 END:
KINECT_DATA_Sensor  AnkleLeft:0.079657,0.701315,-0.093376,-0.702206 AnkleRight:0.087998,0.745915,0.077574,0.655629 ElbowLeft:-0.089687,0.825853,-0.229637,-0.507138 ElbowRight:0.022633,0.876703,0.173617,0.448037 FootLeft:0.000000,0.000000,0.000000,0.000000 FootRight:0.000000,0.000000,0.000000,0.000000 HandLeft:-0.179474,-0.182510,-0.602376,0.756057 HandRight:0.074916,0.676347,-0.230732,0.695489 HandTipLeft:0.000000,0.000000,0.000000,0.000000 HandTipRight:0.000000,0.000000,0.000000,0.000000 Head:0.000000,0.000000,0.000000,0.000000 HipLeft:0.122011,-0.680365,0.703108,-0.166904 HipRight:-0.121955,0.677957,0.702323,-0.179567 KneeLeft:-0.018438,0.708074,-0.068680,-0.702549 KneeRight:-0.019519,0.706253,0.017713,0.707469 Neck:-0.003043,-0.011612,0.996594,-0.081590 ShoulderLeft:0.019316,0.776535,-0.627049,0.058566 ShoulderRight:0.016464,0.790672,0.608990,-0.060807 SpineBase:0.001362,-0.011905,0.999032,-0.042329 SpineMid:-0.001028,-0.011803,0.999032,-0.042357 SpineShoulder:-0.003156,-0.010311,0.998093,-0.060776 ThumbLeft:0.000000,0.000000,0.000000,0.000000 ThumbRight:0.000000,0.000000,0.000000,0.000000 WristLeft:-0.069705,-0.118215,-0.484731,0.863830 WristRight:-0.062842,0.646253,-0.086855,0.755555 END:
KINECT_DATA POSITION:19.879091,-4.423811,-0.789785 HEAD_JOINT1:0.982887,0.175238,-0.000000,0.056794 LARM_JOINT2:0.860268,0.000000,0.032107,-0.508831 LARM_JOINT3:0.734036,0.000000,-0.632519,-0.247206 LLEG_JOINT2:0.997898,0.027622,0.000000,0.058631 LLEG_JOINT4:0.994984,0.089328,0.000000,-0.045034 RARM_JOINT2:0.803222,0.000000,-0.046603,0.593854 RARM_JOINT3:0.956691,0.000000,0.194861,0.216268 RLEG_JOINT2:0.999555,0.001263,0.000000,-0.029812 RLEG_JOINT4:0.991959,0.121333,0.000000,0.036002 WAIST:0.999624,-0.000000,0.027285,0.002802 WAIST_JOINT0:0.998171,-0.000000,0.052069,0.030704 WAIST_JOINT1:0.997758,0.066922,0.000000,-0.000750 END:
KINECT_DATA_Sensor  AnkleLeft:-0.073003,-0.673947,0.092257,0.729352 AnkleRight:0.093520,0.740289,0.079600,0.660977 ElbowLeft:-0.058275,0.786637,-0.259728,-0.557089 ElbowRight:0.026748,0.903541,0.175931,0.389802 FootLeft:0.000000,0.000000,0.000000,0.000000 FootRight:0.000000,0.000000,0.000000,0.000000 HandLeft:-0.016188,0.134677,-0.567305,0.812259 HandRight:0.055039,0.685070,-0.208362,0.695870 HandTipLeft:0.000000,0.000000,0.000000,0.000000 HandTipRight:0.000000,0.000000,0.000000,0.000000 Head:0.000000,0.000000,0.000000,0.000000 HipLeft:0.099519,-0.682383,0.708344,-0.150660 HipRight:-0.138810,0.676278,0.698098,-0.189837 KneeLeft:0.022132,-0.687055,0.063577,0.723480 KneeRight:-0.018794,0.726050,0.019439,0.687110 Neck:-0.053553,0.001785,0.995102,-0.083070 ShoulderLeft:0.058776,0.765728,-0.640250,0.016917 ShoulderRight:-0.009204,0.792841,0.601523,-0.097408 SpineBase:-0.027492,-0.001043,0.998733,-0.042145 SpineMid:-0.040536,-0.000492,0.998288,-0.042155 SpineShoulder:-0.053598,0.002037,0.996658,-0.061619 ThumbLeft:0.000000,0.000000,0.000000,0.000000 ThumbRight:0.000000,0.000000,0.000000,0.000000 WristLeft:-0.149424,0.034656,-0.527572,0.835547 WristRight:-0.041212,0.672157,-0.090494,0.733701 END:
KINECT_DATA POSITION:19.588028,-4.385330,-0.928724 HEAD_JOINT1:0.984045,0.174684,-0.000000,0.033777 LARM_JOINT2:0.838930,0.000000,0.168316,-0.517557 LARM_JOINT3:0.733233,0.000000,-0.679971,0.002863 LLEG_JOINT2:0.998444,0.023589,0.000000,0.050533 LLEG_JOINT4:0.995854,0.084245,0.000000,-0.034321 RARM_JOINT2:0.810386,0.000000,-0.045188,0.584151 RARM_JOINT3:0.956573,0.000000,0.187855,0.222887 RLEG_JOINT2:0.999303,0.000574,0.000000,-0.037332 RLEG_JOINT4:0.991482,0.122710,0.000000,0.043660 WAIST:0.998350,-0.000000,0.056741,0.008792 WAIST_JOINT0:0.994319,-0.000000,0.095651,0.046704 WAIST_JOINT1:0.997647,0.068234,-0.000000,0.006659 END:
KINECT_DATA_Sensor  AnkleLeft:-0.062444,-0.649539,0.090426,0.752345 AnkleRight:0.096162,0.762517,0.077792,0.635034 ElbowLeft:0.024092,-0.566068,0.307865,0.764334 ElbowRight:0.024682,0.920751,0.175176,0.347737 FootLeft:0.000000,0.000000,0.000000,0.000000 FootRight:0.000000,0.000000,0.000000,0.000000 HandLeft:0.213406,0.232024,-0.554326,0.770290 HandRight:0.085892,0.681909,-0.200585,0.698133 HandTipLeft:0.000000,0.000000,0.000000,0.000000 HandTipRight:0.000000,0.000000,0.000000,0.000000 Head:0.000000,0.000000,0.000000,0.000000 HipLeft:0.076541,-0.680606,0.716201,-0.134062 HipRight:-0.157383,0.675563,0.691109,-0.203010 KneeLeft:0.022173,-0.665336,0.059644,0.743827 KneeRight:-0.021263,0.745550,0.019064,0.665837 Neck:-0.098413,0.014648,0.991455,-0.084370 ShoulderLeft:0.095996,0.749327,-0.654882,-0.020570 ShoulderRight:-0.030014,0.793752,0.593749,-0.128524 SpineBase:-0.056881,0.010634,0.997403,-0.042877 SpineMid:-0.077456,0.011517,0.996017,-0.042648 SpineShoulder:-0.098344,0.014282,0.993074,-0.062675 ThumbLeft:0.000000,0.000000,0.000000,0.000000 ThumbRight:0.000000,0.000000,0.000000,0.000000 WristLeft:0.118923,0.171044,-0.552648,0.806958 WristRight:-0.026050,0.666666,-0.093362,0.739027 END:
KINECT_DATA POSITION:19.283426,-4.390961,-0.973213 HEAD_JOINT1:0.984000,0.176684,-0.000000,0.022964 LARM_JOINT2:0.832829,0.000000,0.170107,-0.526744 LARM_JOINT3:0.764289,0.000000,-0.633349,0.121369 LLEG_JOINT2:0.998662,0.020759,0.000000,0.047361 LLEG_JOINT4:0.996035,0.084482,0.000000,-0.027875 RARM_JOINT2:0.818460,0.000000,-0.031213,0.573715 RARM_JOINT3:0.955666,0.000000,0.179673,0.233280 RLEG_JOINT2:0.999185,0.000902,0.000000,-0.040346 RLEG_JOINT4:0.990978,0.124779,0.000000,0.048912 WAIST:0.997160,-0.000000,0.074338,0.012094 WAIST_JOINT0:0.992037,-0.000000,0.115108,0.051111 WAIST_JOINT1:0.997680,0.067352,-0.000000,0.009906 END:
KINECT_DATA_Sensor  AnkleLeft:-0.057734,-0.638497,0.092099,0.761910 AnkleRight:0.093978,0.723424,0.084623,0.678723 ElbowLeft:0.048569,-0.464631,0.300868,0.831407 ElbowRight:0.013201,0.938175,0.175483,0.298092 FootLeft:0.000000,0.000000,0.000000,0.000000 FootRight:0.000000,0.000000,0.000000,0.000000 HandLeft:-0.105969,-0.361215,0.636272,-0.673389 HandRight:0.090190,0.722034,-0.212841,0.652098 HandTipLeft:0.000000,0.000000,0.000000,0.000000 HandTipRight:0.000000,0.000000,0.000000,0.000000 Head:0.000000,0.000000,0.000000,0.000000 HipLeft:0.065672,-0.680055,0.719276,-0.125916 HipRight:-0.170564,0.675004,0.685532,-0.212893 KneeLeft:0.023639,-0.652080,0.058001,0.755559 KneeRight:-0.021446,0.757001,0.018453,0.652801 Neck:-0.118370,0.020312,0.989257,-0.083350 ShoulderLeft:0.113880,0.741812,-0.659643,-0.040221 ShoulderRight:-0.037894,0.793528,0.591069,-0.139697 SpineBase:-0.074451,0.016602,0.996166,-0.042827 SpineMid:-0.096121,0.017530,0.994309,-0.042455 SpineShoulder:-0.118243,0.019741,0.990860,-0.061856 ThumbLeft:0.000000,0.000000,0.000000,0.000000 ThumbRight:0.000000,0.000000,0.000000,0.000000 WristLeft:0.123985,0.420819,-0.540189,0.718147 WristRight:-0.028476,0.747566,-0.093884,0.656901 END:
KINECT_DATA POSITION:18.966270,-4.395239,-0.921476 HEAD_JOINT1:0.984040,0.176258,-0.000000,0.024463 LARM_JOINT2:0.871471,0.000000,0.084078,-0.483187 LARM_JOINT3:0.890933,0.000000,-0.421001,0.170283 LLEG_JOINT2:0.998781,0.019384,0.000000,0.045406 LLEG_JOINT4:0.996275,0.082263,0.000000,-0.025849 RARM_JOINT2:0.815727,0.000000,-0.035563,0.577343 RARM_JOINT3:0.958611,0.000000,0.169107,0.229057 RLEG_JOINT2:0.999131,0.001402,0.000000,-0.041647 RLEG_JOINT4:0.991080,0.124233,0.000000,0.048229 WAIST:0.996693,-0.000000,0.079791,0.015355 WAIST_JOINT0:0.991497,-0.000000,0.118865,0.052963 WAIST_JOINT1:0.997730,0.066603,-0.000000,0.009970 END:
KINECT_DATA_Sensor  AnkleLeft:-0.061022,-0.699820,0.086670,0.706411 AnkleRight:0.100026,0.773619,0.077135,0.620934 ElbowLeft:0.147506,-0.464428,0.289736,0.823773 ElbowRight:0.015544,0.936271,0.169883,0.307074 FootLeft:0.000000,0.000000,0.000000,0.000000 FootRight:0.000000,0.000000,0.000000,0.000000 HandLeft:-0.294109,-0.480750,0.533195,-0.630938 HandRight:0.134280,0.701344,-0.167606,0.679701 HandTipLeft:0.000000,0.000000,0.000000,0.000000 HandTipRight:0.000000,0.000000,0.000000,0.000000 Head:0.000000,0.000000,0.000000,0.000000 HipLeft:0.062348,-0.678417,0.721546,-0.123428 HipRight:-0.176528,0.675949,0.681799,-0.216979 KneeLeft:0.025456,-0.647808,0.058006,0.759165 KneeRight:-0.019954,0.760601,0.017209,0.648685 Neck:-0.122061,0.023082,0.988820,-0.082480 ShoulderLeft:0.113783,0.741241,-0.660182,-0.042124 ShoulderRight:-0.042894,0.794431,0.588610,-0.143451 SpineBase:-0.080017,0.020078,0.995684,-0.042506 SpineMid:-0.100678,0.020957,0.993808,-0.042079 SpineShoulder:-0.121872,0.022601,0.990407,-0.061074 ThumbLeft:0.000000,0.000000,0.000000,0.000000 ThumbRight:0.000000,0.000000,0.000000,0.000000 WristLeft:0.201965,0.474087,-0.459288,0.723537 WristRight:-0.016431,0.669614,-0.100451,0.735701 END:
KINECT_DATA POSITION:18.688049,-4.406030,-0.839436 HEAD_JOINT1:0.983362,0.179587,-0.000000,0.027333 LARM_JOINT2:0.906944,0.000000,0.023049,-0.420621 LARM_JOINT3:0.936921,0.000000,-0.307492,0.166215 LLEG_JOINT2:0.998748,0.019172,0.000000,0.046214 LLEG_JOINT4:0.996238,0.081816,0.000000,-0.028562 RARM_JOINT2:0.817905,0.000000,-0.032874,0.574413 RARM_JOINT3:0.957351,0.000000,0.171088,0.232825 RLEG_JOINT2:0.999237,0.001847,0.000000,-0.039014 RLEG_JOINT4:0.991202,0.124623,0.000000,0.044583 WAIST:0.996718,-0.000000,0.079261,0.016488 WAIST_JOINT0:0.992511,-0.000000,0.110212,0.052688 WAIST_JOINT1:0.997788,0.065870,-0.000000,0.008982 END:
KINECT_DATA_Sensor  AnkleLeft:-0.053849,-0.641976,0.090181,0.759496 AnkleRight:0.099534,0.764620,0.079006,0.631828 ElbowLeft:0.243862,-0.448373,0.285995,0.810987 ElbowRight:0.012685,0.938340,0.171541,0.299884 FootLeft:0.000000,0.000000,0.000000,0.000000 FootRight:0.000000,0.000000,0.000000,0.000000 HandLeft:-0.279660,-0.494801,0.553120,-0.609115 HandRight:0.128893,0.696092,-0.178146,0.683452 HandTipLeft:0.000000,0.000000,0.000000,0.000000 HandTipRight:0.000000,0.000000,0.000000,0.000000 Head:0.000000,0.000000,0.000000,0.000000 HipLeft:0.062705,-0.677874,0.722136,-0.122779 HipRight:-0.176819,0.676882,0.680905,-0.216641 KneeLeft:0.026966,-0.648085,0.059275,0.758779 KneeRight:-0.016842,0.760404,0.015057,0.649057 Neck:-0.113624,0.022630,0.989897,-0.081739 ShoulderLeft:0.107856,0.742566,-0.660033,-0.036311 ShoulderRight:-0.037529,0.797490,0.586529,-0.136324 SpineBase:-0.079574,0.020312,0.995746,-0.041782 SpineMid:-0.096243,0.021009,0.994273,-0.041436 SpineShoulder:-0.113407,0.022320,0.991456,-0.060468 ThumbLeft:0.000000,0.000000,0.000000,0.000000 ThumbRight:0.000000,0.000000,0.000000,0.000000 WristLeft:0.225507,0.565741,-0.456159,0.648847 WristRight:-0.016487,0.669124,-0.101727,0.735971 END:
KINECT_DATA POSITION:18.629513,-4.437212,-0.791681 HEAD_JOINT1:0.983178,0.180436,-0.000000,0.028354 LARM_JOINT2:0.913714,0.000000,-0.036207,-0.404742 LARM_JOINT3:0.943577,0.000000,-0.295146,0.150170 LLEG_JOINT2:0.998737,0.018706,0.000000,0.046642 LLEG_JOINT4:0.996093,0.083984,0.000000,-0.027288 RARM_JOINT2:0.815169,0.000000,-0.035515,0.578134 RARM_JOINT3:0.955547,0.000000,0.188496,0.226714 RLEG_JOINT2:0.999282,0.001515,0.000000,-0.037865 RLEG_JOINT4:0.991271,0.124481,0.000000,0.043442 WAIST:0.996783,-0.000000,0.078408,0.016597 WAIST_JOINT0:0.993643,-0.000000,0.100057,0.051601 WAIST_JOINT1:0.997836,0.065267,-0.000000,0.007946 END:
KINECT_DATA_Sensor  AnkleLeft:0.062083,0.708513,-0.087429,-0.697504 AnkleRight:0.097626,0.750151,0.080667,0.649026 ElbowLeft:0.283956,-0.471541,0.255315,0.794879 ElbowRight:0.012510,0.932081,0.169203,0.320061 FootLeft:0.000000,0.000000,0.000000,0.000000 FootRight:0.000000,0.000000,0.000000,0.000000 HandLeft:-0.195881,-0.468289,0.564879,-0.650575 HandRight:0.076706,0.748196,-0.205446,0.626188 HandTipLeft:0.000000,0.000000,0.000000,0.000000 HandTipRight:0.000000,0.000000,0.000000,0.000000 Head:0.000000,0.000000,0.000000,0.000000 HipLeft:0.063861,-0.677890,0.722049,-0.122603 HipRight:-0.176604,0.677160,0.680850,-0.216122 KneeLeft:0.027720,-0.648675,0.059360,0.758241 KneeRight:-0.016082,0.759912,0.014006,0.649676 Neck:-0.103498,0.020772,0.991107,-0.081020 ShoulderLeft:0.092954,0.745443,-0.659688,-0.022041 ShoulderRight:-0.039842,0.798727,0.585208,-0.134086 SpineBase:-0.078764,0.019519,0.995855,-0.041077 SpineMid:-0.090790,0.020013,0.994831,-0.040838 SpineShoulder:-0.103247,0.020999,0.992617,-0.060094 ThumbLeft:0.000000,0.000000,0.000000,0.000000 ThumbRight:0.000000,0.000000,0.000000,0.000000 WristLeft:0.209037,0.547411,-0.473785,0.657398 WristRight:-0.037198,0.765205,-0.105128,0.634055 END:
KINECT_DATA POSITION:18.837502,-4.522320,-0.645852 HEAD_JOINT1:0.982298,0.185769,-0.000000,0.024078 LARM_JOINT2:0.920173,0.000000,-0.085639,-0.382030 LARM_JOINT3:0.962194,0.000000,-0.232096,0.142529 LLEG_JOINT2:0.998748,0.020899,0.000000,0.045440 LLEG_JOINT4:0.996084,0.084814,0.000000,-0.024949 RARM_JOINT2:0.813298,0.000000,-0.036768,0.580685 RARM_JOINT3:0.959707,0.000000,0.174011,0.220643 RLEG_JOINT2:0.999291,0.002035,0.000000,-0.037598 RLEG_JOINT4:0.990925,0.126684,0.000000,0.044940 WAIST:0.997073,-0.000000,0.074812,0.015756 WAIST_JOINT0:0.995140,-0.000000,0.085679,0.048529 WAIST_JOINT1:0.997958,0.063749,-0.000000,0.003937 END:
KINECT_DATA_Sensor  AnkleLeft:0.062998,0.701896,-0.090535,-0.703688 AnkleRight:0.101631,0.756625,0.080423,0.640876 ElbowLeft:0.320336,-0.493677,0.229465,0.775251 ElbowRight:0.010048,0.926709,0.170534,0.334705 FootLeft:0.000000,0.000000,0.000000,0.000000 FootRight:0.000000,0.000000,0.000000,0.000000 HandLeft:0.345576,0.329633,-0.498927,0.723181 HandRight:0.108152,0.744457,-0.139613,0.643891 HandTipLeft:0.000000,0.000000,0.000000,0.000000 HandTipRight:0.000000,0.000000,0.000000,0.000000 Head:0.000000,0.000000,0.000000,0.000000 HipLeft:0.067024,-0.678499,0.721137,-0.122915 HipRight:-0.174195,0.677346,0.681970,-0.213952 KneeLeft:0.024856,-0.651414,0.059225,0.755999 KneeRight:-0.016039,0.757701,0.014925,0.652234 Neck:-0.088632,0.015030,0.992784,-0.079366 ShoulderLeft:0.072744,0.749951,-0.657471,-0.003818 ShoulderRight:-0.041469,0.798367,0.586853,-0.128431 SpineBase:-0.075225,0.016612,0.996230,-0.039893 SpineMid:-0.081613,0.016868,0.995727,-0.039785 SpineShoulder:-0.088403,0.015916,0.994232,-0.058600 ThumbLeft:0.000000,0.000000,0.000000,0.000000 ThumbRight:0.000000,0.000000,0.000000,0.000000 WristLeft:0.312660,0.370167,-0.400934,0.777478 WristRight:-0.041931,0.743604,-0.107963,0.658512 END:
KINECT_DATA POSITION:19.096874,-4.599311,-0.512505 HEAD_JOINT1:0.982043,0.187743,-0.000000,0.018548 LARM_JOINT2:0.927040,0.000000,-0.105064,-0.359942 LARM_JOINT3:0.962984,0.000000,-0.233688,0.134359 LLEG_JOINT2:0.998662,0.023530,0.000000,0.046053 LLEG_JOINT4:0.996095,0.084873,0.000000,-0.024333 RARM_JOINT2:0.810981,0.000000,-0.043978,0.583418 RARM_JOINT3:0.959866,0.000000,0.176790,0.217722 RLEG_JOINT2:0.999371,0.001228,0.000000,-0.035449 RLEG_JOINT4:0.990948,0.127053,0.000000,0.043342 WAIST:0.997384,-0.000000,0.071059,0.013249 WAIST_JOINT0:0.996028,-0.000000,0.076551,0.045466 WAIST_JOINT1:0.997884,0.064932,-0.000000,0.003371 END:
KINECT_DATA_Sensor  AnkleLeft:0.067955,0.721238,-0.089870,-0.683463 AnkleRight:0.100094,0.752213,0.081494,0.646154 ElbowLeft:0.340614,-0.511663,0.229561,0.754642 ElbowRight:0.014453,0.918809,0.173520,0.354219 FootLeft:0.000000,0.000000,0.000000,0.000000 FootRight:0.000000,0.000000,0.000000,0.000000 HandLeft:0.268870,0.380568,-0.548837,0.694014 HandRight:0.108407,0.756508,-0.150663,0.627091 HandTipLeft:0.000000,0.000000,0.000000,0.000000 HandTipRight:0.000000,0.000000,0.000000,0.000000 Head:0.000000,0.000000,0.000000,0.000000 HipLeft:0.068830,-0.679972,0.719280,-0.124652 HipRight:-0.170328,0.676264,0.684536,-0.212287 KneeLeft:0.021673,-0.654385,0.059588,0.753498 KneeRight:-0.016619,0.755234,0.014782,0.655077 Neck:-0.078945,0.011772,0.993521,-0.080905 ShoulderLeft:0.061796,0.754825,-0.652959,0.008094 ShoulderRight:-0.040004,0.798479,0.587469,-0.125341 SpineBase:-0.071407,0.013552,0.996526,-0.040657 SpineMid:-0.074931,0.013695,0.996267,-0.040609 SpineShoulder:-0.078766,0.012640,0.995020,-0.059761 ThumbLeft:0.000000,0.000000,0.000000,0.000000 ThumbRight:0.000000,0.000000,0.000000,0.000000 WristLeft:0.263870,0.437075,-0.446331,0.734933 WristRight:-0.049551,0.760958,-0.097278,0.639550 END:
KINECT_DATA POSITION:19.343191,-4.623656,-0.460243 HEAD_JOINT1:0.982081,0.186724,-0.000000,0.025515 LARM_JOINT2:0.929929,0.000000,-0.135285,-0.341951 LARM_JOINT3:0.962921,0.000000,-0.238272,0.126528 LLEG_JOINT2:0.998573,0.023332,0.000000,0.048033 LLEG_JOINT4:0.995941,0.085506,0.000000,-0.028114 RARM_JOINT2:0.808636,0.000000,-0.047925,0.586354 RARM_JOINT3:0.960394,0.000000,0.178150,0.214258 RLEG_JOINT2:0.999423,-0.000612,-0.000000,-0.033948 RLEG_JOINT4:0.990714,0.130321,0.000000,0.038759 WAIST:0.997656,-0.000000,0.067362,0.012031 WAIST_JOINT0:0.996820,-0.000000,0.067926,0.041672 WAIST_JOINT1:0.997734,0.067267,-0.000000,0.001213 END:
KINECT_DATA_Sensor  AnkleLeft:-0.062470,-0.666264,0.093338,0.737210 AnkleRight:0.097913,0.747290,0.085512,0.651659 ElbowLeft:0.359864,-0.535245,0.219970,0.731863 ElbowRight:0.018228,0.912865,0.175911,0.367968 FootLeft:0.000000,0.000000,0.000000,0.000000 FootRight:0.000000,0.000000,0.000000,0.000000 HandLeft:-0.172776,-0.449331,0.576063,-0.660607 HandRight:0.110268,0.739996,-0.140349,0.648498 HandTipLeft:0.000000,0.000000,0.000000,0.000000 HandTipRight:0.000000,0.000000,0.000000,0.000000 Head:0.000000,0.000000,0.000000,0.000000 HipLeft:0.070486,-0.680407,0.718286,-0.127060 HipRight:-0.166057,0.675621,0.686363,-0.211818 KneeLeft:0.022451,-0.657148,0.060042,0.751031 KneeRight:-0.017467,0.752856,0.013366,0.657817 Neck:-0.069813,0.008089,0.994035,-0.083399 ShoulderLeft:0.055197,0.758464,-0.649131,0.017756 ShoulderRight:-0.034739,0.796917,0.590810,-0.121078 SpineBase:-0.067766,0.010240,0.996751,-0.042319 SpineMid:-0.068616,0.010277,0.996693,-0.042310 SpineShoulder:-0.069687,0.009026,0.995603,-0.061947 ThumbLeft:0.000000,0.000000,0.000000,0.000000 ThumbRight:0.000000,0.000000,0.000000,0.000000 WristLeft:-0.182296,-0.500020,0.502236,-0.681548 WristRight:-0.049609,0.742761,-0.094074,0.661056 END:
KINECT_DATA POSITION:19.559326,-4.683748,-0.401688 HEAD_JOINT1:0.982152,0.186171,-0.000000,0.026803 LARM_JOINT2:0.928080,0.000000,-0.159025,-0.336718 LARM_JOINT3:0.974827,0.000000,-0.194141,0.109644 LLEG_JOINT2:0.998618,0.023239,0.000000,0.047138 LLEG_JOINT4:0.995742,0.087966,0.000000,-0.027570 RARM_JOINT2:0.806998,0.000000,-0.052614,0.588206 RARM_JOINT3:0.960770,0.000000,0.182447,0.208888 RLEG_JOINT2:0.999457,-0.001647,-0.000000,-0.032900 RLEG_JOINT4:0.990497,0.131230,0.000000,0.041163 WAIST:0.997970,-0.000000,0.062755,0.010810 WAIST_JOINT0:0.997597,-0.000000,0.058166,0.037645 WAIST_JOINT1:0.997705,0.067704,-0.000000,0.001132 END:
