EastLYD/RoboCupatHomeSim/InteractiveCleanUp/JapanOpen2016/Motion_Data/File45.dat
KINECT_DATA POSITION:3.410968,-1.249672,-6.504965 HEAD_JOINT1:0.975926,0.193335,-0.000000,0.100943 LARM_JOINT2:0.825122,0.000000,-0.022637,-0.564501 LARM_JOINT3:0.970717,0.000000,-0.181624,-0.157230 LLEG_JOINT2:0.995839,0.034767,0.000000,0.084233 LLEG_JOINT4:0.994860,0.096027,0.000000,-0.032144 RARM_JOINT2:0.794102,0.000000,-0.038755,0.606547 RARM_JOINT3:0.967995,0.000000,0.214773,0.129836 RLEG_JOINT2:0.998242,0.002675,0.000000,-0.059217 RLEG_JOINT4:0.993613,0.109299,0.000000,0.028037 WAIST:0.999890,0.000000,-0.014042,-0.004797 WAIST_JOINT0:0.999808,0.000000,-0.018457,0.006627 WAIST_JOINT1:0.997234,0.073825,0.000000,-0.008631 END:
KINECT_DATA_Sensor  AnkleLeft:0.059960,0.720114,-0.124769,-0.679906 AnkleRight:0.066090,0.760714,0.096796,0.638417 ElbowLeft:-0.029483,0.895113,-0.176039,-0.408551 ElbowRight:0.016184,0.838024,0.177535,0.515689 FootLeft:0.000000,0.000000,0.000000,0.000000 FootRight:0.000000,0.000000,0.000000,0.000000 HandLeft:-0.093474,0.763031,-0.010292,0.639484 HandRight:0.079272,-0.560027,-0.113489,0.816827 HandTipLeft:0.000000,0.000000,0.000000,0.000000 HandTipRight:0.000000,0.000000,0.000000,0.000000 Head:0.000000,0.000000,0.000000,0.000000 HipLeft:0.120078,-0.681094,0.700536,-0.175902 HipRight:-0.100973,0.676466,0.710065,-0.167350 KneeLeft:-0.032557,0.716282,-0.080357,-0.692403 KneeRight:-0.042706,0.696287,0.047743,0.714899 Neck:0.018291,-0.013299,0.995711,-0.089710 ShoulderLeft:0.006065,0.779872,-0.620280,0.083762 ShoulderRight:0.030574,0.784593,0.616932,-0.053602 SpineBase:0.013888,-0.011591,0.998591,-0.049888 SpineMid:0.015924,-0.011692,0.998561,-0.049864 SpineShoulder:0.018148,-0.012454,0.997389,-0.068783 ThumbLeft:0.000000,0.000000,0.000000,0.000000 ThumbRight:0.000000,0.000000,0.000000,0.000000 WristLeft:-0.096105,0.767979,-0.091964,0.626510 WristRight:0.038623,-0.564484,-0.106771,0.817598 END:
KINECT_DATA POSITION:3.397566,-1.256963,-6.491923 HEAD_JOINT1:0.975791,0.193768,-0.000000,0.101418 LARM_JOINT2:0.825113,0.000000,-0.022081,-0.564536 LARM_JOINT3:0.971363,0.000000,-0.178933,-0.156321 LLEG_JOINT2:0.995802,0.034880,0.000000,0.084625 LLEG_JOINT4:0.994922,0.095011,0.000000,-0.033220 RARM_JOINT2:0.794506,0.000000,-0.043006,0.605732 RARM_JOINT3:0.968005,0.000000,0.211615,0.134851 RLEG_JOINT2:0.998237,0.002692,0.000000,-0.059288 RLEG_JOINT4:0.993713,0.108359,0.000000,0.028153 WAIST:0.999889,0.000000,-0.014046,-0.004962 WAIST_JOINT0:0.999847,0.000000,-0.015984,0.007134 WAIST_JOINT1:0.997234,0.073804,0.000000,-0.008744 END:
KINECT_DATA_Sensor  AnkleLeft:0.059649,0.718843,-0.123663,-0.681480 AnkleRight:0.057533,0.708425,0.101147,0.696128 ElbowLeft:-0.029022,0.894994,-0.175969,-0.408875 ElbowRight:0.018400,0.836943,0.180090,0.516484 FootLeft:0.000000,0.000000,0.000000,0.000000 FootRight:0.000000,0.000000,0.000000,0.000000 HandLeft:-0.080920,0.796205,-0.003202,0.599583 HandRight:0.078625,-0.598855,-0.083798,0.792571 HandTipLeft:0.000000,0.000000,0.000000,0.000000 HandTipRight:0.000000,0.000000,0.000000,0.000000 Head:0.000000,0.000000,0.000000,0.000000 HipLeft:0.120252,-0.681221,0.700396,-0.175851 HipRight:-0.101066,0.676355,0.710156,-0.167355 KneeLeft:-0.032641,0.716292,-0.080596,-0.692362 KneeRight:-0.042860,0.696275,0.047923,0.714890 Neck:0.015892,-0.013476,0.995750,-0.089706 ShoulderLeft:0.005684,0.780102,-0.620048,0.083357 ShoulderRight:0.027127,0.785132,0.616115,-0.056863 SpineBase:0.013899,-0.011795,0.998594,-0.049769 SpineMid:0.014738,-0.011837,0.998582,-0.049760 SpineShoulder:0.015751,-0.012527,0.997428,-0.068798 ThumbLeft:0.000000,0.000000,0.000000,0.000000 ThumbRight:0.000000,0.000000,0.000000,0.000000 WristLeft:-0.100752,0.797930,-0.086764,0.587902 WristRight:0.043450,-0.601295,-0.104666,0.790950 END:
KINECT_DATA POSITION:3.402084,-1.264834,-6.452024 HEAD_JOINT1:0.975697,0.194026,-0.000000,0.101827 LARM_JOINT2:0.824996,0.000000,-0.022659,-0.564685 LARM_JOINT3:0.970526,0.000000,-0.182476,-0.157421 LLEG_JOINT2:0.995847,0.034035,0.000000,0.084438 LLEG_JOINT4:0.994973,0.095812,0.000000,-0.029148 RARM_JOINT2:0.795638,0.000000,-0.026427,0.605196 RARM_JOINT3:0.946557,0.000000,0.296167,0.127726 RLEG_JOINT2:0.998223,0.002073,0.000000,-0.059552 RLEG_JOINT4:0.993396,0.110127,0.000000,0.032204 WAIST:0.999894,0.000000,-0.013627,-0.005132 WAIST_JOINT0:0.999724,0.000000,-0.022758,0.005837 WAIST_JOINT1:0.997269,0.073339,0.000000,-0.008666 END:
KINECT_DATA_Sensor  AnkleLeft:0.057862,0.722757,-0.125893,-0.677071 AnkleRight:0.066427,0.747667,0.095587,0.653792 ElbowLeft:-0.029349,0.895584,-0.175352,-0.407823 ElbowRight:-0.001662,0.816107,0.174843,0.550815 FootLeft:0.000000,0.000000,0.000000,0.000000 FootRight:0.000000,0.000000,0.000000,0.000000 HandLeft:-0.097900,0.800662,-0.006433,0.591028 HandRight:0.155600,-0.535812,-0.235827,0.795663 HandTipLeft:0.000000,0.000000,0.000000,0.000000 HandTipRight:0.000000,0.000000,0.000000,0.000000 Head:0.000000,0.000000,0.000000,0.000000 HipLeft:0.120385,-0.681402,0.700304,-0.175422 HipRight:-0.101775,0.676187,0.710206,-0.167394 KneeLeft:-0.032949,0.715990,-0.079753,-0.692757 KneeRight:-0.043629,0.696521,0.047783,0.714613 Neck:0.022305,-0.014246,0.995684,-0.088951 ShoulderLeft:0.006760,0.780020,-0.620085,0.083773 ShoulderRight:0.036471,0.784411,0.617358,-0.047305 SpineBase:0.013500,-0.011802,0.998623,-0.049308 SpineMid:0.017737,-0.012011,0.998556,-0.049258 SpineShoulder:0.022184,-0.013114,0.997332,-0.068303 ThumbLeft:0.000000,0.000000,0.000000,0.000000 ThumbRight:0.000000,0.000000,0.000000,0.000000 WristLeft:-0.102219,0.804481,-0.085219,0.578878 WristRight:0.081755,-0.555934,-0.162403,0.811097 END:
KINECT_DATA POSITION:3.508788,-1.241827,-6.343734 HEAD_JOINT1:0.975461,0.195853,-0.000000,0.100583 LARM_JOINT2:0.823736,0.000000,-0.021294,-0.566573 LARM_JOINT3:0.973296,0.000000,-0.171153,-0.152976 LLEG_JOINT2:0.995996,0.034045,0.000000,0.082664 LLEG_JOINT4:0.994900,0.096989,0.000000,-0.027683 RARM_JOINT2:0.806825,0.000000,-0.015442,0.590588 RARM_JOINT3:0.895248,0.000000,0.430230,0.115899 RLEG_JOINT2:0.998151,0.002349,0.000000,-0.060742 RLEG_JOINT4:0.993293,0.111238,0.000000,0.031547 WAIST:0.999905,0.000000,-0.012963,-0.004733 WAIST_JOINT0:0.999756,0.000000,-0.021231,0.006027 WAIST_JOINT1:0.997444,0.070950,0.000000,-0.008439 END:
KINECT_DATA_Sensor  AnkleLeft:0.058655,0.721747,-0.126790,-0.677913 AnkleRight:0.067815,0.756421,0.096731,0.643329 ElbowLeft:-0.030010,0.894249,-0.173405,-0.411519 ElbowRight:-0.033027,0.777214,0.181915,0.601460 FootLeft:0.000000,0.000000,0.000000,0.000000 FootRight:0.000000,0.000000,0.000000,0.000000 HandLeft:-0.056157,0.787527,0.000498,0.613716 HandRight:-0.057573,0.104023,-0.435655,0.892227 HandTipLeft:0.000000,0.000000,0.000000,0.000000 HandTipRight:0.000000,0.000000,0.000000,0.000000 Head:0.000000,0.000000,0.000000,0.000000 HipLeft:0.120889,-0.681445,0.700494,-0.174145 HipRight:-0.103686,0.676734,0.709677,-0.166248 KneeLeft:-0.031901,0.715593,-0.078825,-0.693322 KneeRight:-0.044013,0.696885,0.048515,0.714185 Neck:0.020792,-0.013272,0.996020,-0.085654 ShoulderLeft:0.007201,0.779753,-0.620842,0.080554 ShoulderRight:0.034868,0.784362,0.617570,-0.046558 SpineBase:0.012871,-0.010462,0.998737,-0.047421 SpineMid:0.016698,-0.010644,0.998681,-0.047381 SpineShoulder:0.020646,-0.012604,0.997512,-0.066220 ThumbLeft:0.000000,0.000000,0.000000,0.000000 ThumbRight:0.000000,0.000000,0.000000,0.000000 WristLeft:-0.099218,0.786305,-0.089496,0.603217 WristRight:-0.059622,0.100958,-0.321269,0.939702 END:
KINECT_DATA POSITION:3.694954,-1.199510,-6.163239 HEAD_JOINT1:0.975956,0.195240,-0.000000,0.096903 LARM_JOINT2:0.821988,0.000000,-0.017645,-0.569231 LARM_JOINT3:0.972854,0.000000,-0.176674,-0.149470 LLEG_JOINT2:0.996204,0.036210,0.000000,0.079161 LLEG_JOINT4:0.995100,0.095743,0.000000,-0.024702 RARM_JOINT2:0.812582,0.000000,0.007014,0.582805 RARM_JOINT3:0.890758,0.000000,0.442147,0.105148 RLEG_JOINT2:0.997936,0.000853,0.000000,-0.064204 RLEG_JOINT4:0.992746,0.115396,0.000000,0.033760 WAIST:0.999911,0.000000,-0.012529,-0.004537 WAIST_JOINT0:0.999820,0.000000,-0.018147,0.005577 WAIST_JOINT1:0.997574,0.069226,0.000000,-0.007355 END:
KINECT_DATA_Sensor  AnkleLeft:0.059270,0.719928,-0.127352,-0.679686 AnkleRight:0.061696,0.706450,0.104035,0.697351 ElbowLeft:-0.029057,0.891166,-0.172311,-0.418675 ElbowRight:-0.055037,0.775242,0.176293,0.604063 FootLeft:0.000000,0.000000,0.000000,0.000000 FootRight:0.000000,0.000000,0.000000,0.000000 HandLeft:-0.070913,0.785434,-0.015340,0.614679 HandRight:-0.033015,0.054856,-0.417478,0.906429 HandTipLeft:0.000000,0.000000,0.000000,0.000000 HandTipRight:0.000000,0.000000,0.000000,0.000000 Head:0.000000,0.000000,0.000000,0.000000 HipLeft:0.121498,-0.681757,0.700465,-0.172608 HipRight:-0.105901,0.677496,0.709161,-0.163939 KneeLeft:-0.027974,0.715524,-0.078076,-0.693648 KneeRight:-0.047395,0.696839,0.049780,0.713926 Neck:0.017799,-0.011579,0.996279,-0.083535 ShoulderLeft:0.008783,0.779598,-0.621504,0.076698 ShoulderRight:0.032462,0.783768,0.618375,-0.047609 SpineBase:0.012532,-0.008166,0.998885,-0.044777 SpineMid:0.015089,-0.008281,0.998850,-0.044755 SpineShoulder:0.017645,-0.011277,0.997688,-0.064653 ThumbLeft:0.000000,0.000000,0.000000,0.000000 ThumbRight:0.000000,0.000000,0.000000,0.000000 WristLeft:-0.098031,0.784987,-0.091094,0.604885 WristRight:-0.042164,0.049411,-0.363391,0.929369 END:
KINECT_DATA POSITION:3.728755,-1.191329,-5.926287 HEAD_JOINT1:0.976524,0.194112,-0.000000,0.093391 LARM_JOINT2:0.821737,0.000000,-0.014474,-0.569684 LARM_JOINT3:0.972039,0.000000,-0.181399,-0.149110 LLEG_JOINT2:0.996255,0.037191,0.000000,0.078058 LLEG_JOINT4:0.995139,0.095985,0.000000,-0.022040 RARM_JOINT2:0.819632,0.000000,0.019720,0.572551 RARM_JOINT3:0.890949,0.000000,0.444361,0.093554 RLEG_JOINT2:0.997961,0.003676,0.000000,-0.063722 RLEG_JOINT4:0.993147,0.112237,0.000000,0.032577 WAIST:0.999936,0.000000,-0.010339,-0.004500 WAIST_JOINT0:0.999879,0.000000,-0.014454,0.005682 WAIST_JOINT1:0.997688,0.067657,0.000000,-0.006379 END:
KINECT_DATA_Sensor  AnkleLeft:0.059221,0.717832,-0.129270,-0.681542 AnkleRight:0.067809,0.754388,0.100012,0.645212 ElbowLeft:-0.028870,0.887723,-0.173248,-0.425558 ElbowRight:-0.069478,0.784010,0.178452,0.590471 FootLeft:0.000000,0.000000,0.000000,0.000000 FootRight:0.000000,0.000000,0.000000,0.000000 HandLeft:-0.082788,0.761843,-0.026336,0.641909 HandRight:-0.040518,-0.001581,-0.475120,0.878986 HandTipLeft:0.000000,0.000000,0.000000,0.000000 HandTipRight:0.000000,0.000000,0.000000,0.000000 Head:0.000000,0.000000,0.000000,0.000000 HipLeft:0.121811,-0.682503,0.700427,-0.169570 HipRight:-0.109084,0.677759,0.708623,-0.163086 KneeLeft:-0.026340,0.714088,-0.078096,-0.695187 KneeRight:-0.045113,0.698475,0.051292,0.712367 Neck:0.014136,-0.010393,0.996475,-0.082031 ShoulderLeft:0.010214,0.779378,-0.622237,0.072715 ShoulderRight:0.029085,0.783730,0.618447,-0.049453 SpineBase:0.010368,-0.007658,0.999040,-0.041877 SpineMid:0.012160,-0.007733,0.999019,-0.041863 SpineShoulder:0.013965,-0.010401,0.997858,-0.063059 ThumbLeft:0.000000,0.000000,0.000000,0.000000 ThumbRight:0.000000,0.000000,0.000000,0.000000 WristLeft:-0.093845,0.763558,-0.097149,0.631454 WristRight:-0.023996,0.004733,-0.362615,0.931618 END:
KINECT_DATA POSITION:3.785615,-1.193427,-5.793607 HEAD_JOINT1:0.977240,0.194748,-0.000000,0.084120 LARM_JOINT2:0.820031,0.000000,-0.008983,-0.572249 LARM_JOINT3:0.972367,0.000000,-0.179538,-0.149227 LLEG_JOINT2:0.996330,0.038435,0.000000,0.076485 LLEG_JOINT4:0.995289,0.094721,0.000000,-0.020675 RARM_JOINT2:0.828335,0.000000,0.042581,0.558613 RARM_JOINT3:0.876676,0.000000,0.476613,0.065419 RLEG_JOINT2:0.997686,0.004147,0.000000,-0.067866 RLEG_JOINT4:0.992799,0.112985,0.000000,0.039819 WAIST:0.999967,0.000000,-0.007060,-0.003901 WAIST_JOINT0:0.999948,0.000000,-0.008051,0.006263 WAIST_JOINT1:0.997862,0.065272,0.000000,-0.003471 END:
KINECT_DATA_Sensor  AnkleLeft:0.059109,0.714330,-0.129484,-0.685181 AnkleRight:0.064055,0.711574,0.102609,0.692120 ElbowLeft:-0.028104,0.881882,-0.174629,-0.437033 ElbowRight:-0.099382,0.769313,0.171882,0.607238 FootLeft:0.000000,0.000000,0.000000,0.000000 FootRight:0.000000,0.000000,0.000000,0.000000 HandLeft:-0.073115,0.821538,-0.008568,0.565382 HandRight:-0.046275,0.011398,-0.508426,0.859786 HandTipLeft:0.000000,0.000000,0.000000,0.000000 HandTipRight:0.000000,0.000000,0.000000,0.000000 Head:0.000000,0.000000,0.000000,0.000000 HipLeft:0.120549,-0.682703,0.701002,-0.167273 HipRight:-0.112389,0.678029,0.707646,-0.163961 KneeLeft:-0.024497,0.711852,-0.078393,-0.697511 KneeRight:-0.047422,0.700607,0.054012,0.709918 Neck:0.007866,-0.006306,0.996772,-0.079651 ShoulderLeft:0.010939,0.778606,-0.623762,0.067630 ShoulderRight:0.021482,0.783875,0.618159,-0.054388 SpineBase:0.007106,-0.006261,0.999134,-0.040519 SpineMid:0.007358,-0.006271,0.999132,-0.040518 SpineShoulder:0.007680,-0.007131,0.998103,-0.060664 ThumbLeft:0.000000,0.000000,0.000000,0.000000 ThumbRight:0.000000,0.000000,0.000000,0.000000 WristLeft:-0.101263,0.820727,-0.091915,0.554711 WristRight:-0.035226,0.015367,-0.422362,0.905612 END:
KINECT_DATA POSITION:3.785766,-1.182293,-5.759776 HEAD_JOINT1:0.977937,0.193832,-0.000000,0.077901 LARM_JOINT2:0.819288,0.000000,-0.008421,-0.573320 LARM_JOINT3:0.972013,0.000000,-0.183695,-0.146446 LLEG_JOINT2:0.996305,0.038856,0.000000,0.076597 LLEG_JOINT4:0.995397,0.092477,0.000000,-0.025146 RARM_JOINT2:0.833147,0.000000,0.051072,0.550689 RARM_JOINT3:0.884407,0.000000,0.462010,0.066107 RLEG_JOINT2:0.997778,0.004136,0.000000,-0.066500 RLEG_JOINT4:0.992814,0.114034,0.000000,0.036283 WAIST:0.999970,0.000000,-0.006593,-0.004050 WAIST_JOINT0:0.999973,0.000000,-0.004150,0.006126 WAIST_JOINT1:0.997891,0.064889,0.000000,-0.001886 END:
KINECT_DATA_Sensor  AnkleLeft:0.066079,0.741933,-0.122363,-0.655893 AnkleRight:0.063502,0.713822,0.104862,0.689514 ElbowLeft:-0.028550,0.880189,-0.174732,-0.440365 ElbowRight:-0.109895,0.769794,0.172645,0.604594 FootLeft:0.000000,0.000000,0.000000,0.000000 FootRight:0.000000,0.000000,0.000000,0.000000 HandLeft:-0.084218,0.787348,-0.027526,0.610108 HandRight:-0.055865,0.005603,-0.432667,0.899804 HandTipLeft:0.000000,0.000000,0.000000,0.000000 HandTipRight:0.000000,0.000000,0.000000,0.000000 Head:0.000000,0.000000,0.000000,0.000000 HipLeft:0.119964,-0.682825,0.701026,-0.167095 HipRight:-0.112815,0.677929,0.707690,-0.163891 KneeLeft:-0.024135,0.711548,-0.078679,-0.697801 KneeRight:-0.046604,0.700949,0.053113,0.709702 Neck:0.003990,-0.004881,0.996809,-0.079576 ShoulderLeft:0.011777,0.778332,-0.624327,0.065396 ShoulderRight:0.017262,0.783587,0.618303,-0.058268 SpineBase:0.006679,-0.005509,0.999143,-0.040482 SpineMid:0.005225,-0.005451,0.999151,-0.040490 SpineShoulder:0.003849,-0.005445,0.998165,-0.060192 ThumbLeft:0.000000,0.000000,0.000000,0.000000 ThumbRight:0.000000,0.000000,0.000000,0.000000 WristLeft:-0.094608,0.788512,-0.099132,0.599559 WristRight:-0.035487,0.015335,-0.431822,0.901130 END:
KINECT_DATA POSITION:3.798797,-1.172669,-5.728161 HEAD_JOINT1:0.979270,0.189679,-0.000000,0.071084 LARM_JOINT2:0.819094,0.000000,-0.009509,-0.573580 LARM_JOINT3:0.971701,0.000000,-0.186027,-0.145574 LLEG_JOINT2:0.996288,0.039877,0.000000,0.076291 LLEG_JOINT4:0.995568,0.091346,0.000000,-0.022372 RARM_JOINT2:0.841053,0.000000,0.086471,0.533997 RARM_JOINT3:0.869970,0.000000,0.492592,0.022474 RLEG_JOINT2:0.997728,0.004689,0.000000,-0.067201 RLEG_JOINT4:0.992805,0.113571,0.000000,0.037939 WAIST:0.999975,0.000000,-0.005455,-0.004427 WAIST_JOINT0:0.999983,-0.000000,0.001082,0.005657 WAIST_JOINT1:0.997929,0.064320,0.000000,-0.001095 END:
KINECT_DATA_Sensor  AnkleLeft:0.058817,0.709403,-0.126712,-0.690820 AnkleRight:0.064150,0.716584,0.104371,0.686657 ElbowLeft:-0.029973,0.878960,-0.174104,-0.442965 ElbowRight:-0.146943,0.757739,0.161200,0.615023 FootLeft:0.000000,0.000000,0.000000,0.000000 FootRight:0.000000,0.000000,0.000000,0.000000 HandLeft:-0.090096,0.757080,-0.037197,0.646010 HandRight:-0.076036,0.020384,-0.519070,0.851099 HandTipLeft:0.000000,0.000000,0.000000,0.000000 HandTipRight:0.000000,0.000000,0.000000,0.000000 Head:0.000000,0.000000,0.000000,0.000000 HipLeft:0.119358,-0.683163,0.700961,-0.166422 HipRight:-0.113882,0.677540,0.707834,-0.164139 KneeLeft:-0.022835,0.710825,-0.078953,-0.698550 KneeRight:-0.047027,0.701677,0.054215,0.708871 Neck:-0.001229,-0.004454,0.996849,-0.079182 ShoulderLeft:0.012858,0.778302,-0.624647,0.062415 ShoulderRight:0.011585,0.783067,0.618582,-0.063471 SpineBase:0.005596,-0.005042,0.999165,-0.040159 SpineMid:0.002103,-0.004901,0.999178,-0.040176 SpineShoulder:-0.001350,-0.004789,0.998211,-0.059581 ThumbLeft:0.000000,0.000000,0.000000,0.000000 ThumbRight:0.000000,0.000000,0.000000,0.000000 WristLeft:-0.090646,0.759874,-0.105292,0.635050 WristRight:-0.052210,0.033554,-0.483577,0.873099 END:
KINECT_DATA POSITION:3.900494,-1.158772,-5.666983 HEAD_JOINT1:0.980072,0.187050,-0.000000,0.066868 LARM_JOINT2:0.817737,0.000000,-0.003835,-0.575579 LARM_JOINT3:0.975127,0.000000,-0.173468,-0.137973 LLEG_JOINT2:0.996459,0.038079,0.000000,0.074960 LLEG_JOINT4:0.995459,0.093596,0.000000,-0.017358 RARM_JOINT2:0.856650,0.000000,0.238905,0.457248 RARM_JOINT3:0.903956,0.000000,0.422835,-0.063826 RLEG_JOINT2:0.997629,0.005833,0.000000,-0.068580 RLEG_JOINT4:0.992481,0.115277,0.000000,0.041133 WAIST:0.999988,0.000000,-0.002174,-0.004369 WAIST_JOINT0:0.999817,-0.000000,0.016707,0.009274 WAIST_JOINT1:0.998062,0.062227,0.000000,-0.000731 END:
KINECT_DATA_Sensor  AnkleLeft:0.055877,0.701164,-0.129993,-0.698819 AnkleRight:0.068100,0.724399,0.104527,0.677999 ElbowLeft:-0.028974,0.869998,-0.173340,-0.460670 ElbowRight:-0.279060,0.760964,0.102204,0.576726 FootLeft:0.000000,0.000000,0.000000,0.000000 FootRight:0.000000,0.000000,0.000000,0.000000 HandLeft:-0.050557,0.822808,-0.010915,0.565961 HandRight:-0.136848,0.108601,-0.593619,0.785554 HandTipLeft:0.000000,0.000000,0.000000,0.000000 HandTipRight:0.000000,0.000000,0.000000,0.000000 Head:0.000000,0.000000,0.000000,0.000000 HipLeft:0.117958,-0.683776,0.701232,-0.163737 HipRight:-0.117090,0.677467,0.707236,-0.164757 KneeLeft:-0.022953,0.708502,-0.076861,-0.701135 KneeRight:-0.047314,0.703930,0.055814,0.706490 Neck:-0.017067,-0.003505,0.996877,-0.077023 ShoulderLeft:0.020362,0.777233,-0.626890,0.050024 ShoulderRight:-0.001318,0.785239,0.614589,-0.075355 SpineBase:0.002352,-0.003988,0.999242,-0.038639 SpineMid:-0.007368,-0.003612,0.999218,-0.038676 SpineShoulder:-0.017192,-0.003806,0.998186,-0.057572 ThumbLeft:0.000000,0.000000,0.000000,0.000000 ThumbRight:0.000000,0.000000,0.000000,0.000000 WristLeft:-0.092739,0.819446,-0.101574,0.556408 WristRight:-0.121602,0.116906,-0.524776,0.834360 END:
KINECT_DATA POSITION:3.994343,-1.120137,-5.776632 HEAD_JOINT1:0.980367,0.186560,-0.000000,0.063841 LARM_JOINT2:0.815349,0.000000,0.002210,-0.578965 LARM_JOINT3:0.973937,0.000000,-0.178325,-0.140167 LLEG_JOINT2:0.996808,0.034899,0.000000,0.071810 LLEG_JOINT4:0.995149,0.096972,0.000000,-0.016559 RARM_JOINT2:0.851722,0.000000,0.380631,0.360125 RARM_JOINT3:0.948397,0.000000,0.306463,-0.081390 RLEG_JOINT2:0.997328,0.005124,0.000000,-0.072869 RLEG_JOINT4:0.992341,0.114789,0.000000,0.045632 WAIST:0.999990,0.000000,0.003473,-0.002946 WAIST_JOINT0:0.999190,-0.000000,0.037763,0.013933 WAIST_JOINT1:0.998018,0.062904,-0.000000,0.001624 END:
KINECT_DATA_Sensor  AnkleLeft:0.067705,0.751750,-0.124082,-0.644121 AnkleRight:0.068871,0.735562,0.102141,0.666163 ElbowLeft:-0.025021,0.861002,-0.175623,-0.476660 ElbowRight:-0.391988,0.780517,0.043975,0.484978 FootLeft:0.000000,0.000000,0.000000,0.000000 FootRight:0.000000,0.000000,0.000000,0.000000 HandLeft:-0.059829,0.820520,-0.001481,0.568476 HandRight:-0.128801,0.097819,-0.618576,0.768899 HandTipLeft:0.000000,0.000000,0.000000,0.000000 HandTipRight:0.000000,0.000000,0.000000,0.000000 Head:0.000000,0.000000,0.000000,0.000000 HipLeft:0.112421,-0.683526,0.703102,-0.160628 HipRight:-0.119134,0.677850,0.705943,-0.167245 KneeLeft:-0.023574,0.704415,-0.073528,-0.705576 KneeRight:-0.050156,0.707697,0.057074,0.702418 Neck:-0.038215,0.001887,0.996199,-0.078253 ShoulderLeft:0.027349,0.774918,-0.630222,0.039685 ShoulderRight:-0.022046,0.786677,0.609218,-0.097507 SpineBase:-0.003300,-0.001785,0.999205,-0.039700 SpineMid:-0.020749,-0.001091,0.998995,-0.039725 SpineShoulder:-0.038402,0.000288,0.997579,-0.057983 ThumbLeft:0.000000,0.000000,0.000000,0.000000 ThumbRight:0.000000,0.000000,0.000000,0.000000 WristLeft:-0.089893,0.820043,-0.104985,0.555362 WristRight:-0.112880,0.107487,-0.540837,0.826559 END:
KINECT_DATA POSITION:4.012894,-1.094791,-5.860233 HEAD_JOINT1:0.980047,0.189444,-0.000000,0.060165 LARM_JOINT2:0.814126,0.000000,0.008156,-0.580630 LARM_JOINT3:0.972870,0.000000,-0.182401,-0.142318 LLEG_JOINT2:0.997035,0.033373,0.000000,0.069335 LLEG_JOINT4:0.995338,0.095692,0.000000,-0.012034 RARM_JOINT2:0.850035,0.000000,0.431359,0.302275 RARM_JOINT3:0.968248,0.000000,0.243774,-0.055412 RLEG_JOINT2:0.997240,0.006593,0.000000,-0.073956 RLEG_JOINT4:0.992481,0.113764,0.000000,0.045161 WAIST:0.999966,0.000000,0.008100,-0.001749 WAIST_JOINT0:0.998379,-0.000000,0.054287,0.017115 WAIST_JOINT1:0.998000,0.063075,-0.000000,0.004271 END:
KINECT_DATA_Sensor  AnkleLeft:0.064032,0.748891,-0.124528,-0.647730 AnkleRight:0.069341,0.744187,0.102450,0.656416 ElbowLeft:-0.021473,0.855724,-0.179600,-0.484788 ElbowRight:-0.441731,0.804210,0.051818,0.394251 FootLeft:0.000000,0.000000,0.000000,0.000000 FootRight:0.000000,0.000000,0.000000,0.000000 HandLeft:-0.069026,0.825108,-0.002677,0.560736 HandRight:-0.137508,0.094983,-0.613731,0.771624 HandTipLeft:0.000000,0.000000,0.000000,0.000000 HandTipRight:0.000000,0.000000,0.000000,0.000000 Head:0.000000,0.000000,0.000000,0.000000 HipLeft:0.108743,-0.683242,0.704526,-0.158109 HipRight:-0.121956,0.678225,0.704692,-0.168955 KneeLeft:0.023437,-0.701085,0.071651,0.709081 KneeRight:-0.049308,0.710959,0.057818,0.699116 Neck:-0.054872,0.006170,0.995377,-0.078581 ShoulderLeft:0.033435,0.773084,-0.632682,0.030599 ShoulderRight:-0.037877,0.786985,0.605183,-0.113898 SpineBase:-0.007915,0.000673,0.999179,-0.039717 SpineMid:-0.031317,0.001603,0.998720,-0.039690 SpineShoulder:-0.055002,0.004603,0.996795,-0.057902 ThumbLeft:0.000000,0.000000,0.000000,0.000000 ThumbRight:0.000000,0.000000,0.000000,0.000000 WristLeft:-0.086594,0.826317,-0.105892,0.546340 WristRight:-0.114491,0.109600,-0.526557,0.835235 END:
KINECT_DATA POSITION:3.985275,-1.081014,-6.017661 HEAD_JOINT1:0.979795,0.191503,-0.000000,0.057692 LARM_JOINT2:0.813779,0.000000,0.008845,-0.581108 LARM_JOINT3:0.972770,0.000000,-0.183405,-0.141706 LLEG_JOINT2:0.997137,0.031233,0.000000,0.068857 LLEG_JOINT4:0.995535,0.093522,0.000000,-0.012768 RARM_JOINT2:0.848768,0.000000,0.437964,0.296278 RARM_JOINT3:0.971416,0.000000,0.228226,-0.065302 RLEG_JOINT2:0.997187,0.005848,0.000000,-0.074728 RLEG_JOINT4:0.992129,0.115721,0.000000,0.047839 WAIST:0.999925,0.000000,0.012194,-0.001440 WAIST_JOINT0:0.998085,-0.000000,0.059404,0.017245 WAIST_JOINT1:0.997985,0.063266,-0.000000,0.004915 END:
KINECT_DATA_Sensor  AnkleLeft:-0.049424,-0.678079,0.126432,0.722344 AnkleRight:0.071295,0.746550,0.101900,0.653602 ElbowLeft:-0.020540,0.852796,-0.180327,-0.489692 ElbowRight:-0.448109,0.795631,0.035578,0.406085 FootLeft:0.000000,0.000000,0.000000,0.000000 FootRight:0.000000,0.000000,0.000000,0.000000 HandLeft:-0.070478,0.829096,-0.005434,0.554620 HandRight:-0.159994,0.102108,-0.599093,0.777858 HandTipLeft:0.000000,0.000000,0.000000,0.000000 HandTipRight:0.000000,0.000000,0.000000,0.000000 Head:0.000000,0.000000,0.000000,0.000000 HipLeft:0.105796,-0.683585,0.705069,-0.156191 HipRight:-0.124710,0.678011,0.703865,-0.171238 KneeLeft:0.024567,-0.698128,0.070133,0.712106 KneeRight:-0.050402,0.713702,0.057402,0.696272 Neck:-0.060070,0.006703,0.995065,-0.078694 ShoulderLeft:0.034596,0.773467,-0.632254,0.028395 ShoulderRight:-0.043519,0.787044,0.603607,-0.119693 SpineBase:-0.011972,0.001987,0.999129,-0.039920 SpineMid:-0.035892,0.002942,0.998556,-0.039861 SpineShoulder:-0.060168,0.005448,0.996481,-0.058096 ThumbLeft:0.000000,0.000000,0.000000,0.000000 ThumbRight:0.000000,0.000000,0.000000,0.000000 WristLeft:-0.085632,0.830224,-0.106641,0.540392 WristRight:-0.130487,0.121124,-0.530803,0.828583 END:
KINECT_DATA POSITION:3.972830,-1.059932,-6.116474 HEAD_JOINT1:0.979676,0.192177,-0.000000,0.057473 LARM_JOINT2:0.814064,0.000000,0.010034,-0.580688 LARM_JOINT3:0.971647,0.000000,-0.189324,-0.141630 LLEG_JOINT2:0.997157,0.030117,0.000000,0.069069 LLEG_JOINT4:0.995526,0.093660,0.000000,-0.012451 RARM_JOINT2:0.852869,0.000000,0.440718,0.279968 RARM_JOINT3:0.976246,0.000000,0.208616,-0.058513 RLEG_JOINT2:0.997226,0.004832,0.000000,-0.074281 RLEG_JOINT4:0.992188,0.115180,0.000000,0.047924 WAIST:0.999909,0.000000,0.013404,-0.001637 WAIST_JOINT0:0.997953,-0.000000,0.061609,0.017146 WAIST_JOINT1:0.997969,0.063494,-0.000000,0.005106 END:
KINECT_DATA_Sensor  AnkleLeft:-0.048603,-0.676961,0.125945,0.723532 AnkleRight:0.070294,0.747848,0.100677,0.652415 ElbowLeft:-0.019687,0.851594,-0.181333,-0.491446 ElbowRight:-0.460186,0.796344,0.046484,0.389749 FootLeft:0.000000,0.000000,0.000000,0.000000 FootRight:0.000000,0.000000,0.000000,0.000000 HandLeft:-0.080204,0.728550,-0.030480,0.679598 HandRight:-0.159551,0.046866,-0.586894,0.792403 HandTipLeft:0.000000,0.000000,0.000000,0.000000 HandTipRight:0.000000,0.000000,0.000000,0.000000 Head:0.000000,0.000000,0.000000,0.000000 HipLeft:0.104993,-0.683896,0.704946,-0.155931 HipRight:-0.125520,0.677781,0.703721,-0.172147 KneeLeft:0.025294,-0.697257,0.069399,0.713005 KneeRight:-0.051005,0.714474,0.056434,0.695515 Neck:-0.062325,0.006598,0.994914,-0.078858 ShoulderLeft:0.035290,0.773481,-0.632236,0.027567 ShoulderRight:-0.045785,0.786727,0.603328,-0.122313 SpineBase:-0.013150,0.002244,0.999104,-0.040155 SpineMid:-0.037588,0.003226,0.998484,-0.040088 SpineShoulder:-0.062417,0.005472,0.996328,-0.058350 ThumbLeft:0.000000,0.000000,0.000000,0.000000 ThumbRight:0.000000,0.000000,0.000000,0.000000 WristLeft:-0.068115,0.735215,-0.119190,0.663787 WristRight:-0.112174,0.078206,-0.536008,0.833064 END:
KINECT_DATA POSITION:3.973251,-1.035801,-6.167912 HEAD_JOINT1:0.979514,0.192743,-0.000000,0.058334 LARM_JOINT2:0.814400,0.000000,0.008859,-0.580236 LARM_JOINT3:0.971723,0.000000,-0.191725,-0.137822 LLEG_JOINT2:0.997194,0.028723,0.000000,0.069137 LLEG_JOINT4:0.995306,0.096030,0.000000,-0.011991 RARM_JOINT2:0.856698,0.000000,0.439330,0.270290 RARM_JOINT3:0.979984,0.000000,0.187639,-0.066499 RLEG_JOINT2:0.997247,0.004619,0.000000,-0.074005 RLEG_JOINT4:0.991873,0.118055,0.000000,0.047438 WAIST:0.999898,0.000000,0.014202,-0.001536 WAIST_JOINT0:0.998012,-0.000000,0.060865,0.016380 WAIST_JOINT1:0.997988,0.063198,-0.000000,0.005014 END:
KINECT_DATA_Sensor  AnkleLeft:0.065092,0.764740,-0.119564,-0.629794 AnkleRight:0.074935,0.765755,0.100546,0.630789 ElbowLeft:-0.021242,0.850327,-0.181208,-0.493615 ElbowRight:-0.468852,0.779965,0.036896,0.412882 FootLeft:0.000000,0.000000,0.000000,0.000000 FootRight:0.000000,0.000000,0.000000,0.000000 HandLeft:-0.077031,0.687888,-0.050948,0.719917 HandRight:-0.224390,0.084160,-0.566152,0.788694 HandTipLeft:0.000000,0.000000,0.000000,0.000000 HandTipRight:0.000000,0.000000,0.000000,0.000000 Head:0.000000,0.000000,0.000000,0.000000 HipLeft:0.104886,-0.683910,0.705020,-0.155606 HipRight:-0.126422,0.677748,0.703475,-0.172622 KneeLeft:0.026365,-0.696647,0.068569,0.713643 KneeRight:-0.050930,0.715032,0.055977,0.694983 Neck:-0.061448,0.006300,0.994996,-0.078538 ShoulderLeft:0.034480,0.773139,-0.632669,0.028232 ShoulderRight:-0.045534,0.785359,0.605261,-0.121643 SpineBase:-0.013948,0.002445,0.999103,-0.039920 SpineMid:-0.037545,0.003387,0.998494,-0.039851 SpineShoulder:-0.061526,0.005359,0.996400,-0.058081 ThumbLeft:0.000000,0.000000,0.000000,0.000000 ThumbRight:0.000000,0.000000,0.000000,0.000000 WristLeft:-0.059349,0.687743,-0.125594,0.712540 WristRight:-0.169780,0.119220,-0.527841,0.823617 END:
KINECT_DATA POSITION:3.954928,-1.026885,-6.188917 HEAD_JOINT1:0.979534,0.192589,-0.000000,0.058503 LARM_JOINT2:0.815187,0.000000,0.007315,-0.579152 LARM_JOINT3:0.971040,0.000000,-0.194338,-0.138971 LLEG_JOINT2:0.997142,0.029155,0.000000,0.069697 LLEG_JOINT4:0.995455,0.094938,0.000000,-0.007494 RARM_JOINT2:0.859970,0.000000,0.436527,0.264378 RARM_JOINT3:0.981227,0.000000,0.182631,-0.061957 RLEG_JOINT2:0.997315,0.004861,0.000000,-0.073069 RLEG_JOINT4:0.992172,0.116296,0.000000,0.045491 WAIST:0.999895,0.000000,0.014421,-0.001622 WAIST_JOINT0:0.998140,-0.000000,0.058770,0.016211 WAIST_JOINT1:0.998003,0.062962,-0.000000,0.005088 END:
KINECT_DATA_Sensor  AnkleLeft:-0.045577,-0.679117,0.129871,0.721010 AnkleRight:0.069922,0.746408,0.102632,0.653799 ElbowLeft:-0.022784,0.851177,-0.181682,-0.491904 ElbowRight:-0.472957,0.778761,0.043727,0.409793 FootLeft:0.000000,0.000000,0.000000,0.000000 FootRight:0.000000,0.000000,0.000000,0.000000 HandLeft:-0.095368,0.762003,-0.046428,0.638827 HandRight:-0.201362,0.059090,-0.574975,0.790801 HandTipLeft:0.000000,0.000000,0.000000,0.000000 HandTipRight:0.000000,0.000000,0.000000,0.000000 Head:0.000000,0.000000,0.000000,0.000000 HipLeft:0.105030,-0.684017,0.704926,-0.155461 HipRight:-0.126864,0.677701,0.703433,-0.172654 KneeLeft:0.026365,-0.696493,0.069218,0.713730 KneeRight:-0.050162,0.715234,0.055549,0.694866 Neck:-0.059250,0.006050,0.995148,-0.078313 ShoulderLeft:0.033190,0.773113,-0.632709,0.029581 ShoulderRight:-0.043965,0.785158,0.606043,-0.119603 SpineBase:-0.014158,0.002510,0.999110,-0.039653 SpineMid:-0.036556,0.003399,0.998541,-0.039587 SpineShoulder:-0.059320,0.005193,0.996547,-0.057863 ThumbLeft:0.000000,0.000000,0.000000,0.000000 ThumbRight:0.000000,0.000000,0.000000,0.000000 WristLeft:-0.073814,0.767727,-0.118515,0.625381 WristRight:-0.160746,0.082844,-0.527464,0.830108 END:
KINECT_DATA POSITION:3.939215,-1.013963,-6.214249 HEAD_JOINT1:0.979719,0.191325,-0.000000,0.059542 LARM_JOINT2:0.816230,0.000000,0.005534,-0.577700 LARM_JOINT3:0.971105,0.000000,-0.191500,-0.142416 LLEG_JOINT2:0.997157,0.028250,0.000000,0.069850 LLEG_JOINT4:0.995234,0.096769,0.000000,-0.012081 RARM_JOINT2:0.859004,0.000000,0.439981,0.261780 RARM_JOINT3:0.982817,0.000000,0.173419,-0.063214 RLEG_JOINT2:0.997313,0.005058,0.000000,-0.073081 RLEG_JOINT4:0.992210,0.115991,0.000000,0.045453 WAIST:0.999907,0.000000,0.013528,-0.001823 WAIST_JOINT0:0.998268,-0.000000,0.056408,0.016708 WAIST_JOINT1:0.998015,0.062776,-0.000000,0.004975 END:
KINECT_DATA_Sensor  AnkleLeft:-0.049401,-0.679808,0.127259,0.720573 AnkleRight:0.069670,0.745229,0.102746,0.655151 ElbowLeft:-0.024289,0.853758,-0.182245,-0.487128 ElbowRight:-0.475805,0.776703,0.040570,0.410726 FootLeft:0.000000,0.000000,0.000000,0.000000 FootRight:0.000000,0.000000,0.000000,0.000000 HandLeft:-0.095195,0.782548,-0.033679,0.614347 HandRight:-0.211717,0.070513,-0.578532,0.784541 HandTipLeft:0.000000,0.000000,0.000000,0.000000 HandTipRight:0.000000,0.000000,0.000000,0.000000 Head:0.000000,0.000000,0.000000,0.000000 HipLeft:0.105647,-0.684073,0.704689,-0.155871 HipRight:-0.126325,0.677723,0.703656,-0.172051 KneeLeft:0.027045,-0.697117,0.068530,0.713162 KneeRight:-0.050126,0.714612,0.055885,0.695481 Neck:-0.056785,0.005610,0.995312,-0.078094 ShoulderLeft:0.032267,0.773102,-0.632712,0.030785 ShoulderRight:-0.041615,0.785674,0.606056,-0.116960 SpineBase:-0.013259,0.002341,0.999127,-0.039540 SpineMid:-0.034877,0.003196,0.998606,-0.039480 SpineShoulder:-0.056849,0.004857,0.996702,-0.057707 ThumbLeft:0.000000,0.000000,0.000000,0.000000 ThumbRight:0.000000,0.000000,0.000000,0.000000 WristLeft:-0.078586,0.788148,-0.115824,0.599359 WristRight:-0.175612,0.089382,-0.519906,0.831186 END:
KINECT_DATA POSITION:3.943989,-1.011344,-6.219327 HEAD_JOINT1:0.979543,0.192026,-0.000000,0.060180 LARM_JOINT2:0.816345,0.000000,0.004431,-0.577548 LARM_JOINT3:0.971557,0.000000,-0.189383,-0.142165 LLEG_JOINT2:0.997108,0.027875,0.000000,0.070695 LLEG_JOINT4:0.995153,0.097345,0.000000,-0.013918 RARM_JOINT2:0.858933,0.000000,0.441339,0.259720 RARM_JOINT3:0.984425,0.000000,0.165408,-0.059559 RLEG_JOINT2:0.997315,0.003826,0.000000,-0.073126 RLEG_JOINT4:0.992174,0.115988,0.000000,0.046225 WAIST:0.999913,0.000000,0.013100,-0.001846 WAIST_JOINT0:0.998309,-0.000000,0.055540,0.017130 WAIST_JOINT1:0.998025,0.062627,-0.000000,0.004829 END:
KINECT_DATA_Sensor  AnkleLeft:0.059567,0.732162,-0.122569,-0.667359 AnkleRight:0.069239,0.744822,0.101399,0.655869 ElbowLeft:-0.024901,0.855115,-0.181807,-0.484877 ElbowRight:-0.478012,0.772897,0.036849,0.415665 FootLeft:0.000000,0.000000,0.000000,0.000000 FootRight:0.000000,0.000000,0.000000,0.000000 HandLeft:-0.090481,0.783694,-0.031357,0.613721 HandRight:-0.212048,0.076401,-0.567173,0.792157 HandTipLeft:0.000000,0.000000,0.000000,0.000000 HandTipRight:0.000000,0.000000,0.000000,0.000000 Head:0.000000,0.000000,0.000000,0.000000 HipLeft:0.105987,-0.684031,0.704650,-0.156002 HipRight:-0.126138,0.677756,0.703736,-0.171731 KneeLeft:0.027917,-0.697389,0.068847,0.712832 KneeRight:-0.051016,0.714249,0.055066,0.695854 Neck:-0.055965,0.005395,0.995370,-0.077952 ShoulderLeft:0.031730,0.772866,-0.633002,0.031315 ShoulderRight:-0.041069,0.786040,0.605779,-0.116130 SpineBase:-0.012834,0.002284,0.999138,-0.039413 SpineMid:-0.034253,0.003129,0.998633,-0.039355 SpineShoulder:-0.056026,0.004700,0.996758,-0.057561 ThumbLeft:0.000000,0.000000,0.000000,0.000000 ThumbRight:0.000000,0.000000,0.000000,0.000000 WristLeft:-0.078963,0.788520,-0.115284,0.598925 WristRight:-0.184664,0.088715,-0.516235,0.831583 END:
KINECT_DATA POSITION:3.952306,-1.002896,-6.234789 HEAD_JOINT1:0.979344,0.192736,-0.000000,0.061138 LARM_JOINT2:0.816381,0.000000,0.004568,-0.577496 LARM_JOINT3:0.972143,0.000000,-0.185957,-0.142681 LLEG_JOINT2:0.997078,0.028863,0.000000,0.070734 LLEG_JOINT4:0.995436,0.094402,0.000000,-0.013988 RARM_JOINT2:0.858949,0.000000,0.441554,0.259299 RARM_JOINT3:0.985749,0.000000,0.158060,-0.057589 RLEG_JOINT2:0.997292,0.003849,0.000000,-0.073446 RLEG_JOINT4:0.992097,0.116040,0.000000,0.047739 WAIST:0.999925,0.000000,0.012074,-0.001925 WAIST_JOINT0:0.998308,-0.000000,0.055628,0.016932 WAIST_JOINT1:0.998040,0.062423,-0.000000,0.004463 END:
KINECT_DATA_Sensor  AnkleLeft:-0.048640,-0.680419,0.125354,0.720382 AnkleRight:0.070235,0.744694,0.100486,0.656049 ElbowLeft:-0.025044,0.855507,-0.181402,-0.484329 ElbowRight:-0.478802,0.770761,0.035840,0.418797 FootLeft:0.000000,0.000000,0.000000,0.000000 FootRight:0.000000,0.000000,0.000000,0.000000 HandLeft:-0.083505,0.818202,-0.019159,0.568511 HandRight:-0.217068,0.067137,-0.554936,0.800263 HandTipLeft:0.000000,0.000000,0.000000,0.000000 HandTipRight:0.000000,0.000000,0.000000,0.000000 Head:0.000000,0.000000,0.000000,0.000000 HipLeft:0.106746,-0.683964,0.704499,-0.156460 HipRight:-0.125597,0.677834,0.703910,-0.171107 KneeLeft:0.027248,-0.698146,0.069480,0.712055 KneeRight:-0.051227,0.713524,0.055413,0.696555 Neck:-0.056071,0.005006,0.995383,-0.077737 ShoulderLeft:0.031120,0.772946,-0.632923,0.031532 ShoulderRight:-0.041823,0.785904,0.605837,-0.116481 SpineBase:-0.011813,0.002100,0.999157,-0.039266 SpineMid:-0.033786,0.002963,0.998655,-0.039210 SpineShoulder:-0.056130,0.004407,0.996764,-0.057364 ThumbLeft:0.000000,0.000000,0.000000,0.000000 ThumbRight:0.000000,0.000000,0.000000,0.000000 WristLeft:-0.085246,0.820736,-0.110430,0.554014 WristRight:-0.186094,0.082709,-0.515437,0.832378 END:
KINECT_DATA POSITION:3.959791,-1.005412,-6.258833 HEAD_JOINT1:0.979478,0.192163,-0.000000,0.060803 LARM_JOINT2:0.816585,0.000000,0.005057,-0.577204 LARM_JOINT3:0.972650,0.000000,-0.183316,-0.142643 LLEG_JOINT2:0.997073,0.029505,0.000000,0.070534 LLEG_JOINT4:0.995504,0.093548,0.000000,-0.014858 RARM_JOINT2:0.862397,0.000000,0.413439,0.292129 RARM_JOINT3:0.978570,0.000000,0.182866,-0.094658 RLEG_JOINT2:0.997343,0.004578,0.000000,-0.072702 RLEG_JOINT4:0.992270,0.116067,0.000000,0.043923 WAIST:0.999931,0.000000,0.011599,-0.001906 WAIST_JOINT0:0.998348,-0.000000,0.054834,0.017162 WAIST_JOINT1:0.998068,0.061987,-0.000000,0.004247 END:
KINECT_DATA_Sensor  AnkleLeft:-0.049154,-0.680782,0.124493,0.720153 AnkleRight:0.068823,0.744523,0.103202,0.655971 ElbowLeft:-0.024943,0.856457,-0.181553,-0.482596 ElbowRight:-0.452480,0.725923,0.000833,0.517975 FootLeft:0.000000,0.000000,0.000000,0.000000 FootRight:0.000000,0.000000,0.000000,0.000000 HandLeft:-0.078386,0.853058,-0.010969,0.515779 HandRight:-0.241229,0.056982,-0.522327,0.815927 HandTipLeft:0.000000,0.000000,0.000000,0.000000 HandTipRight:0.000000,0.000000,0.000000,0.000000 Head:0.000000,0.000000,0.000000,0.000000 HipLeft:0.107260,-0.684019,0.704383,-0.156391 HipRight:-0.125467,0.678024,0.703876,-0.170588 KneeLeft:0.026693,-0.698500,0.069785,0.711699 KneeRight:-0.050143,0.713281,0.055429,0.696881 Neck:-0.055180,0.004777,0.995467,-0.077309 ShoulderLeft:0.030204,0.773507,-0.632267,0.031815 ShoulderRight:-0.041519,0.786597,0.605160,-0.115425 SpineBase:-0.011348,0.001960,0.999178,-0.038866 SpineMid:-0.033108,0.002806,0.998694,-0.038814 SpineShoulder:-0.055239,0.004205,0.996840,-0.056933 ThumbLeft:0.000000,0.000000,0.000000,0.000000 ThumbRight:0.000000,0.000000,0.000000,0.000000 WristLeft:-0.090840,0.853340,-0.104417,0.502649 WristRight:-0.198561,0.087904,-0.541554,0.812137 END:
KINECT_DATA POSITION:3.953185,-1.010394,-6.276429 HEAD_JOINT1:0.979601,0.191704,-0.000000,0.060258 LARM_JOINT2:0.816315,0.000000,0.005012,-0.577586 LARM_JOINT3:0.972253,0.000000,-0.185252,-0.142847 LLEG_JOINT2:0.997105,0.028534,0.000000,0.070478 LLEG_JOINT4:0.995124,0.097736,0.000000,-0.013240 RARM_JOINT2:0.861153,0.000000,0.430200,0.270820 RARM_JOINT3:0.984626,0.000000,0.161488,-0.066576 RLEG_JOINT2:0.997330,0.003539,0.000000,-0.072943 RLEG_JOINT4:0.992194,0.116097,0.000000,0.045526 WAIST:0.999937,0.000000,0.011009,-0.002013 WAIST_JOINT0:0.998365,-0.000000,0.054456,0.017368 WAIST_JOINT1:0.998083,0.061748,-0.000000,0.004191 END:
KINECT_DATA_Sensor  AnkleLeft:0.063132,0.750663,-0.121981,-0.646251 AnkleRight:0.068989,0.744291,0.101552,0.656475 ElbowLeft:-0.024871,0.857133,-0.180883,-0.481648 ElbowRight:-0.470697,0.747428,0.016730,0.468526 FootLeft:0.000000,0.000000,0.000000,0.000000 FootRight:0.000000,0.000000,0.000000,0.000000 HandLeft:-0.088450,0.833225,-0.017173,0.545544 HandRight:-0.219426,0.063751,-0.532225,0.815184 HandTipLeft:0.000000,0.000000,0.000000,0.000000 HandTipRight:0.000000,0.000000,0.000000,0.000000 Head:0.000000,0.000000,0.000000,0.000000 HipLeft:0.107691,-0.684068,0.704251,-0.156475 HipRight:-0.125102,0.678085,0.704019,-0.170021 KneeLeft:0.027321,-0.698901,0.068973,0.711360 KneeRight:-0.051090,0.712801,0.054955,0.697341 Neck:-0.054927,0.004651,0.995502,-0.077059 ShoulderLeft:0.029589,0.773574,-0.632202,0.032061 ShoulderRight:-0.041786,0.787182,0.604421,-0.115215 SpineBase:-0.010759,0.001815,0.999193,-0.038644 SpineMid:-0.032685,0.002663,0.998717,-0.038595 SpineShoulder:-0.054986,0.004096,0.996868,-0.056700 ThumbLeft:0.000000,0.000000,0.000000,0.000000 ThumbRight:0.000000,0.000000,0.000000,0.000000 WristLeft:-0.086934,0.835963,-0.106724,0.531242 WristRight:-0.196286,0.077292,-0.521806,0.826569 END:
KINECT_DATA POSITION:3.965686,-1.016943,-6.307435 HEAD_JOINT1:0.979626,0.191711,-0.000000,0.059832 LARM_JOINT2:0.816434,0.000000,0.005414,-0.577413 LARM_JOINT3:0.972527,0.000000,-0.183726,-0.142954 LLEG_JOINT2:0.997091,0.028913,0.000000,0.070519 LLEG_JOINT4:0.995221,0.096732,0.000000,-0.013355 RARM_JOINT2:0.859928,0.000000,0.437804,0.262395 RARM_JOINT3:0.986897,0.000000,0.151497,-0.055520 RLEG_JOINT2:0.997321,0.003766,0.000000,-0.073050 RLEG_JOINT4:0.992147,0.116085,0.000000,0.046567 WAIST:0.999943,0.000000,0.010475,-0.002121 WAIST_JOINT0:0.998393,-0.000000,0.053840,0.017692 WAIST_JOINT1:0.998115,0.061227,-0.000000,0.004124 END:
KINECT_DATA_Sensor  AnkleLeft:-0.049951,-0.681189,0.127259,0.719230 AnkleRight:0.069742,0.743824,0.101052,0.657001 ElbowLeft:-0.025081,0.857538,-0.180824,-0.480938 ElbowRight:-0.477828,0.759507,0.027341,0.440548 FootLeft:0.000000,0.000000,0.000000,0.000000 FootRight:0.000000,0.000000,0.000000,0.000000 HandLeft:-0.083968,0.839449,-0.013647,0.536739 HandRight:-0.220043,0.073086,-0.534325,0.812857 HandTipLeft:0.000000,0.000000,0.000000,0.000000 HandTipRight:0.000000,0.000000,0.000000,0.000000 Head:0.000000,0.000000,0.000000,0.000000 HipLeft:0.108418,-0.684157,0.704038,-0.156538 HipRight:-0.125231,0.678169,0.704043,-0.169494 KneeLeft:0.027039,-0.699294,0.069176,0.710965 KneeRight:-0.051054,0.712430,0.055295,0.697696 Neck:-0.054232,0.004460,0.995580,-0.076541 ShoulderLeft:0.028088,0.773909,-0.631828,0.032702 ShoulderRight:-0.042375,0.787736,0.603746,-0.114750 SpineBase:-0.010223,0.001792,0.999219,-0.038128 SpineMid:-0.032064,0.002625,0.998757,-0.038080 SpineShoulder:-0.054290,0.003935,0.996936,-0.056183 ThumbLeft:0.000000,0.000000,0.000000,0.000000 ThumbRight:0.000000,0.000000,0.000000,0.000000 WristLeft:-0.088209,0.841309,-0.105721,0.522724 WristRight:-0.200343,0.082287,-0.511532,0.831520 END:
KINECT_DATA POSITION:3.964582,-1.021929,-6.321871 HEAD_JOINT1:0.979527,0.192197,-0.000000,0.059896 LARM_JOINT2:0.816756,0.000000,0.006177,-0.576951 LARM_JOINT3:0.972283,0.000000,-0.184926,-0.143064 LLEG_JOINT2:0.997113,0.028728,0.000000,0.070291 LLEG_JOINT4:0.995543,0.093078,0.000000,-0.015215 RARM_JOINT2:0.859279,0.000000,0.441061,0.259046 RARM_JOINT3:0.988535,0.000000,0.140341,-0.055709 RLEG_JOINT2:0.997329,0.003862,0.000000,-0.072939 RLEG_JOINT4:0.992213,0.115371,0.000000,0.046925 WAIST:0.999949,0.000000,0.009901,-0.002048 WAIST_JOINT0:0.998399,-0.000000,0.053747,0.017600 WAIST_JOINT1:0.998146,0.060747,-0.000000,0.003874 END:
KINECT_DATA_Sensor  AnkleLeft:-0.048472,-0.681515,0.123225,0.719725 AnkleRight:0.069731,0.743756,0.100181,0.657212 ElbowLeft:-0.025080,0.858125,-0.181236,-0.479735 ElbowRight:-0.480792,0.764534,0.032388,0.428110 FootLeft:0.000000,0.000000,0.000000,0.000000 FootRight:0.000000,0.000000,0.000000,0.000000 HandLeft:-0.085249,0.781632,-0.025428,0.617364 HandRight:-0.223486,0.035677,-0.541880,0.809412 HandTipLeft:0.000000,0.000000,0.000000,0.000000 HandTipRight:0.000000,0.000000,0.000000,0.000000 Head:0.000000,0.000000,0.000000,0.000000 HipLeft:0.108978,-0.684128,0.703979,-0.156543 HipRight:-0.124992,0.678391,0.704022,-0.168870 KneeLeft:0.027105,-0.699694,0.068917,0.710595 KneeRight:-0.050824,0.712055,0.055265,0.698097 Neck:-0.054106,0.004306,0.995627,-0.076028 ShoulderLeft:0.026862,0.774265,-0.631427,0.033033 ShoulderRight:-0.043445,0.787940,0.603378,-0.114888 SpineBase:-0.009662,0.001709,0.999239,-0.037747 SpineMid:-0.031715,0.002542,0.998782,-0.037700 SpineShoulder:-0.054163,0.003810,0.996969,-0.055716 ThumbLeft:0.000000,0.000000,0.000000,0.000000 ThumbRight:0.000000,0.000000,0.000000,0.000000 WristLeft:-0.077556,0.786312,-0.113587,0.602325 WristRight:-0.185867,0.055911,-0.513167,0.836055 END:
KINECT_DATA POSITION:3.940424,-1.013153,-6.387603 HEAD_JOINT1:0.979794,0.190405,-0.000000,0.061241 LARM_JOINT2:0.817187,0.000000,0.005924,-0.576343 LARM_JOINT3:0.971071,0.000000,-0.190700,-0.143716 LLEG_JOINT2:0.997111,0.028631,0.000000,0.070349 LLEG_JOINT4:0.995597,0.092670,0.000000,-0.014108 RARM_JOINT2:0.865818,0.000000,0.401559,0.298511 RARM_JOINT3:0.979559,0.000000,0.175837,-0.097699 RLEG_JOINT2:0.997351,0.004089,0.000000,-0.072620 RLEG_JOINT4:0.992408,0.114942,0.000000,0.043760 WAIST:0.999954,0.000000,0.009426,-0.001662 WAIST_JOINT0:0.998436,-0.000000,0.052923,0.018002 WAIST_JOINT1:0.998161,0.060512,-0.000000,0.003623 END:
KINECT_DATA_Sensor  AnkleLeft:0.059741,0.753751,-0.118352,-0.643648 AnkleRight:0.067994,0.743607,0.101835,0.657309 ElbowLeft:-0.025953,0.858291,-0.181775,-0.479188 ElbowRight:-0.447717,0.712638,0.001184,0.540087 FootLeft:0.000000,0.000000,0.000000,0.000000 FootRight:0.000000,0.000000,0.000000,0.000000 HandLeft:-0.095563,0.709364,-0.046993,0.696752 HandRight:-0.255656,0.029397,-0.493812,0.830617 HandTipLeft:0.000000,0.000000,0.000000,0.000000 HandTipRight:0.000000,0.000000,0.000000,0.000000 Head:0.000000,0.000000,0.000000,0.000000 HipLeft:0.109741,-0.683806,0.704106,-0.156849 HipRight:-0.125190,0.678701,0.703730,-0.168689 KneeLeft:0.027521,-0.699997,0.069150,0.710257 KneeRight:-0.050137,0.711786,0.054956,0.698445 Neck:-0.053256,0.004452,0.995691,-0.075784 ShoulderLeft:0.025637,0.774475,-0.631178,0.033838 ShoulderRight:-0.043568,0.788592,0.602620,-0.114337 SpineBase:-0.009212,0.001841,0.999255,-0.037435 SpineMid:-0.031062,0.002659,0.998815,-0.037386 SpineShoulder:-0.053310,0.003935,0.997028,-0.055471 ThumbLeft:0.000000,0.000000,0.000000,0.000000 ThumbRight:0.000000,0.000000,0.000000,0.000000 WristLeft:-0.066818,0.717910,-0.122226,0.682057 WristRight:-0.203111,0.070394,-0.543529,0.811398 END:
KINECT_DATA POSITION:3.921355,-1.000720,-6.419218 HEAD_JOINT1:0.979883,0.189539,-0.000000,0.062486 LARM_JOINT2:0.817409,0.000000,0.004797,-0.576038 LARM_JOINT3:0.971585,0.000000,-0.188370,-0.143314 LLEG_JOINT2:0.997134,0.027791,0.000000,0.070364 LLEG_JOINT4:0.995335,0.095523,0.000000,-0.013518 RARM_JOINT2:0.866893,0.000000,0.396634,0.301957 RARM_JOINT3:0.978099,0.000000,0.182184,-0.100652 RLEG_JOINT2:0.997368,0.005490,0.000000,-0.072304 RLEG_JOINT4:0.992718,0.112243,0.000000,0.043742 WAIST:0.999953,0.000000,0.009566,-0.001740 WAIST_JOINT0:0.998453,-0.000000,0.052475,0.018357 WAIST_JOINT1:0.998174,0.060286,-0.000000,0.003869 END:
KINECT_DATA_Sensor  AnkleLeft:0.061504,0.756065,-0.119741,-0.640504 AnkleRight:0.071914,0.774640,0.097486,0.620692 ElbowLeft:-0.027307,0.857934,-0.181687,-0.479784 ElbowRight:-0.444614,0.707638,0.000335,0.549151 FootLeft:0.000000,0.000000,0.000000,0.000000 FootRight:0.000000,0.000000,0.000000,0.000000 HandLeft:-0.094086,0.798295,-0.030438,0.594093 HandRight:-0.243860,0.030759,-0.504417,0.827738 HandTipLeft:0.000000,0.000000,0.000000,0.000000 HandTipRight:0.000000,0.000000,0.000000,0.000000 Head:0.000000,0.000000,0.000000,0.000000 HipLeft:0.109950,-0.683848,0.704044,-0.156797 HipRight:-0.125610,0.678627,0.703726,-0.168694 KneeLeft:0.028071,-0.699881,0.068521,0.710411 KneeRight:-0.048988,0.711962,0.055788,0.698282 Neck:-0.052879,0.004596,0.995727,-0.075570 ShoulderLeft:0.024773,0.774156,-0.631574,0.034397 ShoulderRight:-0.043984,0.788840,0.602290,-0.114210 SpineBase:-0.009344,0.001944,0.999263,-0.037190 SpineMid:-0.030941,0.002748,0.998827,-0.037139 SpineShoulder:-0.052932,0.004047,0.997061,-0.055239 ThumbLeft:0.000000,0.000000,0.000000,0.000000 ThumbRight:0.000000,0.000000,0.000000,0.000000 WristLeft:-0.082723,0.802798,-0.113485,0.579476 WristRight:-0.204040,0.062997,-0.543208,0.811988 END:
KINECT_DATA POSITION:3.910384,-0.993380,-6.452286 HEAD_JOINT1:0.979930,0.189044,-0.000000,0.063237 LARM_JOINT2:0.817697,0.000000,0.004492,-0.575631 LARM_JOINT3:0.971829,0.000000,-0.185730,-0.145093 LLEG_JOINT2:0.997093,0.028307,0.000000,0.070737 LLEG_JOINT4:0.995297,0.095952,0.000000,-0.013272 RARM_JOINT2:0.867343,0.000000,0.394142,0.303920 RARM_JOINT3:0.976786,0.000000,0.188222,-0.102282 RLEG_JOINT2:0.997344,0.004784,0.000000,-0.072676 RLEG_JOINT4:0.992639,0.113004,0.000000,0.043567 WAIST:0.999955,0.000000,0.009355,-0.001660 WAIST_JOINT0:0.998505,-0.000000,0.051572,0.018132 WAIST_JOINT1:0.998165,0.060425,-0.000000,0.003832 END:
KINECT_DATA_Sensor  AnkleLeft:-0.048413,-0.682777,0.126824,0.717905 AnkleRight:0.066802,0.743089,0.101258,0.658105 ElbowLeft:-0.027588,0.858297,-0.182109,-0.478959 ElbowRight:-0.442700,0.705931,0.000789,0.552880 FootLeft:0.000000,0.000000,0.000000,0.000000 FootRight:0.000000,0.000000,0.000000,0.000000 HandLeft:-0.084487,0.747460,-0.026810,0.658366 HandRight:-0.233096,0.030186,-0.512731,0.825750 HandTipLeft:0.000000,0.000000,0.000000,0.000000 HandTipRight:0.000000,0.000000,0.000000,0.000000 Head:0.000000,0.000000,0.000000,0.000000 HipLeft:0.109895,-0.683802,0.704070,-0.156915 HipRight:-0.125311,0.678733,0.703696,-0.168614 KneeLeft:0.028031,-0.700029,0.069200,0.710201 KneeRight:-0.049683,0.711766,0.055496,0.698456 Neck:-0.052005,0.004620,0.995761,-0.075718 ShoulderLeft:0.024066,0.774350,-0.631315,0.035284 ShoulderRight:-0.043560,0.788935,0.602282,-0.113758 SpineBase:-0.009138,0.001949,0.999259,-0.037326 SpineMid:-0.030404,0.002743,0.998839,-0.037276 SpineShoulder:-0.052057,0.004066,0.997100,-0.055373 ThumbLeft:0.000000,0.000000,0.000000,0.000000 ThumbRight:0.000000,0.000000,0.000000,0.000000 WristLeft:-0.074198,0.754020,-0.119922,0.641535 WristRight:-0.201090,0.056743,-0.545031,0.811963 END:
KINECT_DATA POSITION:3.903634,-0.983696,-6.488645 HEAD_JOINT1:0.979219,0.192603,-0.000000,0.063513 LARM_JOINT2:0.817738,0.000000,0.005581,-0.575563 LARM_JOINT3:0.972746,0.000000,-0.182154,-0.143474 LLEG_JOINT2:0.997069,0.026488,0.000000,0.071770 LLEG_JOINT4:0.995044,0.098464,0.000000,-0.013855 RARM_JOINT2:0.883661,0.000000,0.280584,0.374720 RARM_JOINT3:0.882004,0.000000,0.415207,-0.222871 RLEG_JOINT2:0.997431,0.002587,0.000000,-0.071584 RLEG_JOINT4:0.992471,0.114983,0.000000,0.042187 WAIST:0.999975,0.000000,0.006712,-0.002241 WAIST_JOINT0:0.998642,-0.000000,0.049133,0.017345 WAIST_JOINT1:0.998128,0.061051,-0.000000,0.003583 END:
KINECT_DATA_Sensor  AnkleLeft:-0.048607,-0.684144,0.127358,0.716494 AnkleRight:0.069685,0.762865,0.099322,0.635071 ElbowLeft:-0.026364,0.859711,-0.182109,-0.476485 ElbowRight:-0.369810,0.670181,0.060085,0.640693 FootLeft:0.000000,0.000000,0.000000,0.000000 FootRight:0.000000,0.000000,0.000000,0.000000 HandLeft:-0.073534,0.821817,-0.014005,0.564812 HandRight:-0.175364,-0.010463,-0.699966,0.692232 HandTipLeft:0.000000,0.000000,0.000000,0.000000 HandTipRight:0.000000,0.000000,0.000000,0.000000 Head:0.000000,0.000000,0.000000,0.000000 HipLeft:0.110895,-0.683714,0.703688,-0.158306 HipRight:-0.123068,0.678529,0.704655,-0.167073 KneeLeft:0.029835,-0.701867,0.068172,0.708410 KneeRight:-0.050725,0.709819,0.053694,0.700501 Neck:-0.049770,0.003814,0.995811,-0.076607 ShoulderLeft:0.025063,0.773738,-0.631985,0.036005 ShoulderRight:-0.039589,0.788161,0.604076,-0.111025 SpineBase:-0.006469,0.001528,0.999264,-0.037771 SpineMid:-0.027950,0.002339,0.998894,-0.037729 SpineShoulder:-0.049813,0.003506,0.997185,-0.055937 ThumbLeft:0.000000,0.000000,0.000000,0.000000 ThumbRight:0.000000,0.000000,0.000000,0.000000 WristLeft:-0.086284,0.822800,-0.108727,0.551120 WristRight:-0.137452,0.021672,-0.662236,0.736261 END:
KINECT_DATA POSITION:3.909492,-0.991706,-6.475985 HEAD_JOINT1:0.977905,0.197940,-0.000000,0.067239 LARM_JOINT2:0.817727,0.000000,0.004893,-0.575586 LARM_JOINT3:0.970236,0.000000,-0.192397,-0.147056 LLEG_JOINT2:0.996989,0.030567,0.000000,0.071263 LLEG_JOINT4:0.995348,0.095041,0.000000,-0.015790 RARM_JOINT2:0.883938,0.000000,0.268712,0.382685 RARM_JOINT3:0.877106,0.000000,0.426738,-0.220408 RLEG_JOINT2:0.997405,-0.000099,-0.000000,-0.071993 RLEG_JOINT4:0.992126,0.117585,0.000000,0.043131 WAIST:0.999990,0.000000,0.004131,-0.001979 WAIST_JOINT0:0.998996,-0.000000,0.040970,0.018102 WAIST_JOINT1:0.997923,0.064276,-0.000000,0.004315 END:
KINECT_DATA_Sensor  AnkleLeft:-0.050673,-0.688474,0.126257,0.712387 AnkleRight:0.066785,0.737558,0.100955,0.664347 ElbowLeft:-0.024590,0.861973,-0.184165,-0.471679 ElbowRight:-0.358388,0.662069,0.065607,0.654919 FootLeft:0.000000,0.000000,0.000000,0.000000 FootRight:0.000000,0.000000,0.000000,0.000000 HandLeft:-0.104041,0.799423,-0.025580,0.591138 HandRight:-0.221924,0.048671,-0.637040,0.736587 HandTipLeft:0.000000,0.000000,0.000000,0.000000 HandTipRight:0.000000,0.000000,0.000000,0.000000 Head:0.000000,0.000000,0.000000,0.000000 HipLeft:0.111502,-0.683054,0.703577,-0.161192 HipRight:-0.120868,0.678931,0.704704,-0.166843 KneeLeft:-0.026923,0.703809,-0.070789,-0.706340 KneeRight:-0.052600,0.707835,0.052004,0.702494 Neck:-0.041918,0.004900,0.995885,-0.080205 ShoulderLeft:0.025957,0.772032,-0.633701,0.041424 ShoulderRight:-0.028462,0.788613,0.605338,-0.104145 SpineBase:-0.003883,0.002075,0.999214,-0.039389 SpineMid:-0.022765,0.002819,0.998962,-0.039343 SpineShoulder:-0.041948,0.004394,0.997367,-0.058996 ThumbLeft:0.000000,0.000000,0.000000,0.000000 ThumbRight:0.000000,0.000000,0.000000,0.000000 WristLeft:-0.083914,0.805924,-0.108975,0.575820 WristRight:-0.192224,0.078592,-0.660965,0.721109 END:
KINECT_DATA POSITION:3.897798,-0.981247,-6.370997 HEAD_JOINT1:0.977880,0.198370,-0.000000,0.066330 LARM_JOINT2:0.815250,0.000000,0.008329,-0.579049 LARM_JOINT3:0.974060,0.000000,-0.177878,-0.139881 LLEG_JOINT2:0.997076,0.030708,0.000000,0.069976 LLEG_JOINT4:0.995446,0.093122,0.000000,-0.020370 RARM_JOINT2:0.876109,0.000000,0.342061,0.339744 RARM_JOINT3:0.932624,0.000000,0.313975,-0.177854 RLEG_JOINT2:0.997289,-0.000301,-0.000000,-0.073588 RLEG_JOINT4:0.991689,0.121044,0.000000,0.043595 WAIST:0.999971,0.000000,0.007606,-0.000619 WAIST_JOINT0:0.998586,-0.000000,0.049001,0.020595 WAIST_JOINT1:0.997834,0.065522,-0.000000,0.005824 END:
KINECT_DATA_Sensor  AnkleLeft:-0.052570,-0.683577,0.121842,0.717714 AnkleRight:0.069330,0.741443,0.102957,0.659436 ElbowLeft:-0.021956,0.854277,-0.184731,-0.485390 ElbowRight:-0.403075,0.683025,0.021914,0.608709 FootLeft:0.000000,0.000000,0.000000,0.000000 FootRight:0.000000,0.000000,0.000000,0.000000 HandLeft:-0.046490,0.830438,0.000964,0.555167 HandRight:-0.224187,0.074895,-0.628356,0.741147 HandTipLeft:0.000000,0.000000,0.000000,0.000000 HandTipRight:0.000000,0.000000,0.000000,0.000000 Head:0.000000,0.000000,0.000000,0.000000 HipLeft:0.108472,-0.682338,0.704775,-0.161064 HipRight:-0.122898,0.679286,0.703262,-0.169967 KneeLeft:0.026627,-0.701313,0.071028,0.708806 KneeRight:-0.053100,0.710186,0.051835,0.700093 Neck:-0.050221,0.008140,0.995403,-0.081147 ShoulderLeft:0.031860,0.769174,-0.637193,0.036621 ShoulderRight:-0.033595,0.788194,0.604244,-0.111857 SpineBase:-0.007364,0.004192,0.999125,-0.040947 SpineMid:-0.028630,0.005062,0.998742,-0.040849 SpineShoulder:-0.050235,0.007305,0.996895,-0.060195 ThumbLeft:0.000000,0.000000,0.000000,0.000000 ThumbRight:0.000000,0.000000,0.000000,0.000000 WristLeft:-0.081418,0.828808,-0.108671,0.542807 WristRight:-0.207941,0.083043,-0.595721,0.771350 END:
KINECT_DATA POSITION:3.909239,-0.990157,-6.240988 HEAD_JOINT1:0.978145,0.197913,-0.000000,0.063743 LARM_JOINT2:0.814219,0.000000,0.009670,-0.580477 LARM_JOINT3:0.973476,0.000000,-0.182307,-0.138236 LLEG_JOINT2:0.997194,0.030536,0.000000,0.068344 LLEG_JOINT4:0.995564,0.092492,0.000000,-0.017273 RARM_JOINT2:0.866229,0.000000,0.402623,0.295877 RARM_JOINT3:0.967538,0.000000,0.215566,-0.131917 RLEG_JOINT2:0.997190,0.000615,0.000000,-0.074910 RLEG_JOINT4:0.991504,0.122659,0.000000,0.043292 WAIST:0.999924,-0.000000,0.012316,0.000702 WAIST_JOINT0:0.998241,-0.000000,0.054940,0.022266 WAIST_JOINT1:0.997844,0.065337,-0.000000,0.006267 END:
KINECT_DATA_Sensor  AnkleLeft:-0.050653,-0.680497,0.122976,0.720580 AnkleRight:0.072885,0.758971,0.103549,0.638692 ElbowLeft:-0.021112,0.849559,-0.185182,-0.493469 ElbowRight:-0.443274,0.689671,-0.021721,0.572180 FootLeft:0.000000,0.000000,0.000000,0.000000 FootRight:0.000000,0.000000,0.000000,0.000000 HandLeft:-0.064666,0.789397,-0.013356,0.610321 HandRight:-0.177790,0.045659,-0.603988,0.775567 HandTipLeft:0.000000,0.000000,0.000000,0.000000 HandTipRight:0.000000,0.000000,0.000000,0.000000 Head:0.000000,0.000000,0.000000,0.000000 HipLeft:0.105787,-0.682076,0.705934,-0.158869 HipRight:-0.126474,0.679633,0.701609,-0.172768 KneeLeft:0.026210,-0.697918,0.070796,0.712188 KneeRight:-0.052714,0.713507,0.052237,0.696706 Neck:-0.056275,0.009777,0.995084,-0.080899 ShoulderLeft:0.034967,0.767795,-0.638909,0.032600 ShoulderRight:-0.038502,0.788250,0.602906,-0.116980 SpineBase:-0.012108,0.005708,0.999076,-0.040842 SpineMid:-0.034004,0.006601,0.998571,-0.040707 SpineShoulder:-0.056281,0.008800,0.996573,-0.059971 ThumbLeft:0.000000,0.000000,0.000000,0.000000 ThumbRight:0.000000,0.000000,0.000000,0.000000 WristLeft:-0.069785,0.792512,-0.115777,0.594686 WristRight:-0.186651,0.030925,-0.565944,0.802442 END:
KINECT_DATA POSITION:3.909225,-0.999624,-6.164730 HEAD_JOINT1:0.978124,0.198803,-0.000000,0.061245 LARM_JOINT2:0.813663,0.000000,0.009753,-0.581255 LARM_JOINT3:0.973605,0.000000,-0.183706,-0.135442 LLEG_JOINT2:0.997269,0.030905,0.000000,0.067074 LLEG_JOINT4:0.995243,0.096194,0.000000,-0.015429 RARM_JOINT2:0.859132,0.000000,0.421492,0.290235 RARM_JOINT3:0.976655,0.000000,0.181841,-0.114359 RLEG_JOINT2:0.997058,0.000229,0.000000,-0.076653 RLEG_JOINT4:0.991521,0.122429,0.000000,0.043557 WAIST:0.999871,-0.000000,0.015971,0.001463 WAIST_JOINT0:0.997906,-0.000000,0.059920,0.024358 WAIST_JOINT1:0.997814,0.065715,-0.000000,0.007042 END:
KINECT_DATA_Sensor  AnkleLeft:-0.053032,-0.677179,0.126565,0.722909 AnkleRight:0.069267,0.747210,0.105474,0.652498 ElbowLeft:-0.021171,0.845340,-0.185871,-0.500404 ElbowRight:-0.447562,0.705884,-0.031826,0.548090 FootLeft:0.000000,0.000000,0.000000,0.000000 FootRight:0.000000,0.000000,0.000000,0.000000 HandLeft:-0.065981,0.811073,-0.017665,0.580944 HandRight:-0.214972,0.055996,-0.564109,0.795256 HandTipLeft:0.000000,0.000000,0.000000,0.000000 HandTipRight:0.000000,0.000000,0.000000,0.000000 Head:0.000000,0.000000,0.000000,0.000000 HipLeft:0.103250,-0.681889,0.706799,-0.157485 HipRight:-0.128804,0.679578,0.700648,-0.175144 KneeLeft:0.025341,-0.695308,0.070769,0.714770 KneeRight:-0.053895,0.715936,0.052437,0.694104 Neck:-0.061510,0.011248,0.994734,-0.081207 ShoulderLeft:0.039956,0.765935,-0.641059,0.028115 ShoulderRight:-0.040346,0.788709,0.601520,-0.120354 SpineBase:-0.015766,0.006873,0.998997,-0.041334 SpineMid:-0.038437,0.007809,0.998382,-0.041168 SpineShoulder:-0.061506,0.010185,0.996230,-0.060317 ThumbLeft:0.000000,0.000000,0.000000,0.000000 ThumbRight:0.000000,0.000000,0.000000,0.000000 WristLeft:-0.071179,0.812867,-0.115988,0.566329 WristRight:-0.194794,0.067718,-0.548604,0.810248 END:
KINECT_DATA POSITION:3.905292,-0.991225,-6.174445 HEAD_JOINT1:0.978024,0.199506,-0.000000,0.060550 LARM_JOINT2:0.814141,0.000000,0.011511,-0.580553 LARM_JOINT3:0.973024,0.000000,-0.185539,-0.137112 LLEG_JOINT2:0.997338,0.029631,0.000000,0.066630 LLEG_JOINT4:0.995338,0.095284,0.000000,-0.014941 RARM_JOINT2:0.859482,0.000000,0.419209,0.292497 RARM_JOINT3:0.975776,0.000000,0.181883,-0.121572 RLEG_JOINT2:0.997027,0.001170,0.000000,-0.077050 RLEG_JOINT4:0.991764,0.119775,0.000000,0.045375 WAIST:0.999845,-0.000000,0.017553,0.001585 WAIST_JOINT0:0.997628,-0.000000,0.064204,0.024826 WAIST_JOINT1:0.997801,0.065892,-0.000000,0.007180 END:
KINECT_DATA_Sensor  AnkleLeft:0.059896,0.723676,-0.121312,-0.676749 AnkleRight:0.069011,0.749475,0.103199,0.650288 ElbowLeft:-0.020228,0.843676,-0.187598,-0.502603 ElbowRight:-0.445173,0.704238,-0.033343,0.552049 FootLeft:0.000000,0.000000,0.000000,0.000000 FootRight:0.000000,0.000000,0.000000,0.000000 HandLeft:-0.068109,0.793736,-0.020564,0.604088 HandRight:-0.199250,0.014808,-0.579336,0.790221 HandTipLeft:0.000000,0.000000,0.000000,0.000000 HandTipRight:0.000000,0.000000,0.000000,0.000000 Head:0.000000,0.000000,0.000000,0.000000 HipLeft:0.101722,-0.681851,0.707310,-0.156346 HipRight:-0.129312,0.679293,0.700670,-0.175786 KneeLeft:0.025933,-0.694161,0.069689,0.715969 KneeRight:-0.053522,0.717068,0.053220,0.692904 Neck:-0.065892,0.011554,0.994438,-0.081346 ShoulderLeft:0.041222,0.765832,-0.641182,0.026222 ShoulderRight:-0.044871,0.788689,0.600257,-0.125093 SpineBase:-0.017345,0.007072,0.998960,-0.041577 SpineMid:-0.041399,0.008071,0.998252,-0.041395 SpineShoulder:-0.065885,0.010543,0.995937,-0.060471 ThumbLeft:0.000000,0.000000,0.000000,0.000000 ThumbRight:0.000000,0.000000,0.000000,0.000000 WristLeft:-0.067449,0.796843,-0.118713,0.588556 WristRight:-0.170322,0.032131,-0.557625,0.811796 END:
KINECT_DATA POSITION:3.909502,-1.001052,-6.143403 HEAD_JOINT1:0.977966,0.199199,-0.000000,0.062462 LARM_JOINT2:0.816195,0.000000,0.005039,-0.577754 LARM_JOINT3:0.969419,0.000000,-0.200149,-0.142009 LLEG_JOINT2:0.997252,0.029409,0.000000,0.067992 LLEG_JOINT4:0.995302,0.096000,0.000000,-0.012605 RARM_JOINT2:0.873392,0.000000,0.330067,0.358109 RARM_JOINT3:0.918314,0.000000,0.333920,-0.212594 RLEG_JOINT2:0.997241,0.004022,0.000000,-0.074120 RLEG_JOINT4:0.992204,0.117320,0.000000,0.042038 WAIST:0.999904,-0.000000,0.013844,0.000538 WAIST_JOINT0:0.998056,-0.000000,0.057843,0.023196 WAIST_JOINT1:0.997885,0.064761,-0.000000,0.005697 END:
KINECT_DATA_Sensor  AnkleLeft:0.061353,0.743592,-0.122290,-0.654486 AnkleRight:0.068551,0.746194,0.104425,0.653905 ElbowLeft:-0.024429,0.852808,-0.185563,-0.487533 ElbowRight:-0.386072,0.681431,0.017326,0.621530 FootLeft:0.000000,0.000000,0.000000,0.000000 FootRight:0.000000,0.000000,0.000000,0.000000 HandLeft:-0.123380,0.743251,-0.061941,0.654613 HandRight:-0.209504,0.008730,-0.687646,0.695108 HandTipLeft:0.000000,0.000000,0.000000,0.000000 HandTipRight:0.000000,0.000000,0.000000,0.000000 Head:0.000000,0.000000,0.000000,0.000000 HipLeft:0.104926,-0.682132,0.706042,-0.158722 HipRight:-0.127823,0.679120,0.701546,-0.174040 KneeLeft:0.026555,-0.696841,0.069681,0.713338 KneeRight:-0.049956,0.714762,0.054175,0.695474 Neck:-0.059651,0.008409,0.994986,-0.079842 ShoulderLeft:0.038432,0.766328,-0.640645,0.028960 ShoulderRight:-0.039269,0.788444,0.602358,-0.118229 SpineBase:-0.013596,0.006258,0.999041,-0.041157 SpineMid:-0.036370,0.007195,0.998471,-0.041004 SpineShoulder:-0.059607,0.008272,0.996408,-0.059579 ThumbLeft:0.000000,0.000000,0.000000,0.000000 ThumbRight:0.000000,0.000000,0.000000,0.000000 WristLeft:-0.066312,0.754680,-0.121121,0.641397 WristRight:-0.164486,0.041595,-0.618079,0.767589 END:
KINECT_DATA POSITION:3.985413,-1.027632,-6.080937 HEAD_JOINT1:0.977430,0.197881,-0.000000,0.073991 LARM_JOINT2:0.821962,0.000000,0.002750,-0.569535 LARM_JOINT3:0.970885,0.000000,-0.189147,-0.146987 LLEG_JOINT2:0.997009,0.034330,0.000000,0.069245 LLEG_JOINT4:0.995559,0.092973,0.000000,-0.014777 RARM_JOINT2:0.859067,0.000000,0.243307,0.450339 RARM_JOINT3:0.827619,0.000000,0.471066,-0.305195 RLEG_JOINT2:0.997343,0.004101,0.000000,-0.072731 RLEG_JOINT4:0.992362,0.115637,0.000000,0.042960 WAIST:0.999994,0.000000,0.003288,-0.001109 WAIST_JOINT0:0.999397,-0.000000,0.029197,0.018784 WAIST_JOINT1:0.998043,0.062500,-0.000000,0.001969 END:
KINECT_DATA_Sensor  AnkleLeft:-0.052855,-0.694733,0.126989,0.705993 AnkleRight:0.067621,0.731175,0.102995,0.670972 ElbowLeft:-0.026280,0.872551,-0.188186,-0.450056 ElbowRight:-0.297377,0.625223,0.035119,0.720715 FootLeft:0.000000,0.000000,0.000000,0.000000 FootRight:0.000000,0.000000,0.000000,0.000000 HandLeft:-0.090399,0.802861,-0.055663,0.586638 HandRight:0.192574,0.016068,0.734495,-0.650518 HandTipLeft:0.000000,0.000000,0.000000,0.000000 HandTipRight:0.000000,0.000000,0.000000,0.000000 Head:0.000000,0.000000,0.000000,0.000000 HipLeft:0.113176,-0.682420,0.703394,-0.163496 HipRight:-0.122298,0.679533,0.703425,-0.168736 KneeLeft:-0.023489,0.704476,-0.072596,-0.705614 KneeRight:-0.049488,0.707498,0.054951,0.702835 Neck:-0.031134,0.002215,0.996491,-0.077669 ShoulderLeft:0.021614,0.770127,-0.635839,0.046323 ShoulderRight:-0.018545,0.790816,0.604848,-0.091792 SpineBase:-0.003086,0.002591,0.999199,-0.039807 SpineMid:-0.016938,0.003143,0.999061,-0.039767 SpineShoulder:-0.031122,0.002466,0.997854,-0.057559 ThumbLeft:0.000000,0.000000,0.000000,0.000000 ThumbRight:0.000000,0.000000,0.000000,0.000000 WristLeft:-0.084097,0.804160,-0.104791,0.579028 WristRight:-0.165981,0.006223,-0.700090,0.694467 END:
KINECT_DATA POSITION:4.076718,-1.061063,-5.987084 HEAD_JOINT1:0.976870,0.197096,-0.000000,0.082937 LARM_JOINT2:0.824838,0.000000,0.002869,-0.565362 LARM_JOINT3:0.968769,0.000000,-0.192313,-0.156533 LLEG_JOINT2:0.996933,0.035297,0.000000,0.069854 LLEG_JOINT4:0.995166,0.095891,0.000000,-0.021224 RARM_JOINT2:0.855929,0.000000,0.234622,0.460801 RARM_JOINT3:0.811576,0.000000,0.498730,-0.304324 RLEG_JOINT2:0.997409,0.002709,0.000000,-0.071894 RLEG_JOINT4:0.992462,0.116135,0.000000,0.039129 WAIST:0.999989,0.000000,-0.004423,-0.001531 WAIST_JOINT0:0.999676,-0.000000,0.018842,0.017100 WAIST_JOINT1:0.998040,0.062571,0.000000,-0.000274 END:
KINECT_DATA_Sensor  AnkleLeft:0.059000,0.699559,-0.125709,-0.700952 AnkleRight:0.065457,0.725965,0.104420,0.676600 ElbowLeft:-0.028368,0.876630,-0.190161,-0.441083 ElbowRight:-0.287791,0.616186,0.040175,0.732036 FootLeft:0.000000,0.000000,0.000000,0.000000 FootRight:0.000000,0.000000,0.000000,0.000000 HandLeft:-0.111501,0.782211,-0.036747,0.611852 HandRight:0.199109,-0.033229,0.708868,-0.675839 HandTipLeft:0.000000,0.000000,0.000000,0.000000 HandTipRight:0.000000,0.000000,0.000000,0.000000 Head:0.000000,0.000000,0.000000,0.000000 HipLeft:0.118280,-0.681822,0.702340,-0.166874 HipRight:-0.116746,0.680211,0.704771,-0.164260 KneeLeft:-0.023501,0.709915,-0.073223,-0.700076 KneeRight:-0.049763,0.702122,0.054052,0.708256 Neck:-0.020399,-0.000218,0.996745,-0.077991 ShoulderLeft:0.016074,0.771028,-0.634356,0.053383 ShoulderRight:-0.010069,0.789773,0.607755,-0.082405 SpineBase:0.004542,0.000239,0.999208,-0.039530 SpineMid:-0.007802,0.000727,0.999188,-0.039524 SpineShoulder:-0.020408,0.000118,0.998130,-0.057623 ThumbLeft:0.000000,0.000000,0.000000,0.000000 ThumbRight:0.000000,0.000000,0.000000,0.000000 WristLeft:-0.084622,0.789231,-0.106223,0.598891 WristRight:0.198979,-0.033884,0.711015,-0.673585 END:
KINECT_DATA POSITION:4.104348,-1.109996,-5.678821 HEAD_JOINT1:0.976645,0.200134,-0.000000,0.078173 LARM_JOINT2:0.821043,0.000000,0.007945,-0.570811 LARM_JOINT3:0.972500,0.000000,-0.176456,-0.152010 LLEG_JOINT2:0.997067,0.035616,0.000000,0.067738 LLEG_JOINT4:0.995463,0.093364,0.000000,-0.018329 RARM_JOINT2:0.859523,0.000000,0.293215,0.418622 RARM_JOINT3:0.862504,0.000000,0.431652,-0.264127 RLEG_JOINT2:0.997176,-0.000098,-0.000000,-0.075099 RLEG_JOINT4:0.991649,0.121317,0.000000,0.043759 WAIST:0.999995,0.000000,-0.002995,-0.000811 WAIST_JOINT0:0.999399,-0.000000,0.028222,0.020120 WAIST_JOINT1:0.998038,0.062593,-0.000000,0.001351 END:
KINECT_DATA_Sensor  AnkleLeft:0.065451,0.747786,-0.120742,-0.649580 AnkleRight:0.069162,0.730412,0.104050,0.671483 ElbowLeft:-0.025593,0.868325,-0.188041,-0.458255 ElbowRight:-0.333250,0.640717,0.014307,0.691536 FootLeft:0.000000,0.000000,0.000000,0.000000 FootRight:0.000000,0.000000,0.000000,0.000000 HandLeft:-0.057466,0.786716,0.009377,0.614564 HandRight:-0.158386,0.031191,-0.687864,0.707661 HandTipLeft:0.000000,0.000000,0.000000,0.000000 HandTipRight:0.000000,0.000000,0.000000,0.000000 Head:0.000000,0.000000,0.000000,0.000000 HipLeft:0.116727,-0.681467,0.703462,-0.164676 HipRight:-0.117026,0.680659,0.704627,-0.162817 KneeLeft:-0.022183,0.708920,-0.072497,-0.701202 KneeRight:-0.053595,0.702820,0.053754,0.707306 Neck:-0.029677,0.003024,0.996493,-0.078179 ShoulderLeft:0.020277,0.769552,-0.636474,0.047746 ShoulderRight:-0.018106,0.790503,0.605394,-0.090963 SpineBase:0.003113,0.001563,0.999247,-0.038634 SpineMid:-0.013147,0.002191,0.999166,-0.038604 SpineShoulder:-0.029701,0.002703,0.997901,-0.057485 ThumbLeft:0.000000,0.000000,0.000000,0.000000 ThumbRight:0.000000,0.000000,0.000000,0.000000 WristLeft:-0.079738,0.790234,-0.109023,0.597734 WristRight:-0.164381,0.025861,-0.690641,0.703794 END:
KINECT_DATA POSITION:4.004384,-1.201663,-5.225992 HEAD_JOINT1:0.977687,0.197238,-0.000000,0.072286 LARM_JOINT2:0.816962,0.000000,0.016203,-0.576463 LARM_JOINT3:0.971995,0.000000,-0.183129,-0.147273 LLEG_JOINT2:0.997037,0.037335,0.000000,0.067250 LLEG_JOINT4:0.995592,0.092250,0.000000,-0.016899 RARM_JOINT2:0.862702,0.000000,0.336164,0.377809 RARM_JOINT3:0.916029,0.000000,0.338759,-0.214788 RLEG_JOINT2:0.997095,0.002658,0.000000,-0.076124 RLEG_JOINT4:0.991301,0.123625,0.000000,0.045164 WAIST:0.999988,0.000000,0.004843,-0.000030 WAIST_JOINT0:0.998573,-0.000000,0.047535,0.024341 WAIST_JOINT1:0.998213,0.059672,-0.000000,0.003024 END:
KINECT_DATA_Sensor  AnkleLeft:-0.055083,-0.683910,0.127092,0.716296 AnkleRight:0.073655,0.739871,0.106553,0.660161 ElbowLeft:-0.023356,0.852060,-0.185595,-0.488880 ElbowRight:-0.374668,0.666874,-0.002336,0.644126 FootLeft:0.000000,0.000000,0.000000,0.000000 FootRight:0.000000,0.000000,0.000000,0.000000 HandLeft:-0.071986,0.642352,-0.011579,0.762934 HandRight:-0.202260,0.028506,-0.638746,0.741810 HandTipLeft:0.000000,0.000000,0.000000,0.000000 HandTipRight:0.000000,0.000000,0.000000,0.000000 Head:0.000000,0.000000,0.000000,0.000000 HipLeft:0.114811,-0.682420,0.704497,-0.157496 HipRight:-0.125125,0.680700,0.702863,-0.164242 KneeLeft:-0.020587,0.703371,-0.074085,-0.706652 KneeRight:-0.052238,0.708463,0.055477,0.701622 Neck:-0.048711,0.006580,0.995972,-0.074989 ShoulderLeft:0.029048,0.768957,-0.637818,0.032416 ShoulderRight:-0.034204,0.792448,0.599845,-0.105080 SpineBase:-0.004733,0.002831,0.999405,-0.034054 SpineMid:-0.026582,0.003575,0.999062,-0.033984 SpineShoulder:-0.048820,0.004928,0.997306,-0.054519 ThumbLeft:0.000000,0.000000,0.000000,0.000000 ThumbRight:0.000000,0.000000,0.000000,0.000000 WristLeft:-0.049082,0.642047,-0.130601,0.753864 WristRight:-0.175877,0.050914,-0.636331,0.749371 END:
KINECT_DATA POSITION:3.971242,-1.234269,-5.119169 HEAD_JOINT1:0.978615,0.194376,-0.000000,0.067313 LARM_JOINT2:0.815344,0.000000,0.022873,-0.578524 LARM_JOINT3:0.970713,0.000000,-0.190043,-0.146966 LLEG_JOINT2:0.997048,0.037575,0.000000,0.066953 LLEG_JOINT4:0.995389,0.095211,0.000000,-0.011647 RARM_JOINT2:0.866211,0.000000,0.357620,0.348978 RARM_JOINT3:0.943184,0.000000,0.275164,-0.186248 RLEG_JOINT2:0.997105,0.003178,0.000000,-0.075974 RLEG_JOINT4:0.991289,0.123271,0.000000,0.046374 WAIST:0.999971,0.000000,0.007650,-0.000117 WAIST_JOINT0:0.997988,-0.000000,0.058261,0.024997 WAIST_JOINT1:0.998329,0.057606,-0.000000,0.004527 END:
KINECT_DATA_Sensor  AnkleLeft:0.069280,0.760190,-0.125411,-0.633707 AnkleRight:0.074891,0.745239,0.105525,0.654121 ElbowLeft:-0.021226,0.844908,-0.186006,-0.501080 ElbowRight:-0.402245,0.672688,-0.009642,0.620965 FootLeft:0.000000,0.000000,0.000000,0.000000 FootRight:0.000000,0.000000,0.000000,0.000000 HandLeft:-0.083585,0.761829,-0.007034,0.642325 HandRight:-0.233308,0.013405,-0.602961,0.762775 HandTipLeft:0.000000,0.000000,0.000000,0.000000 HandTipRight:0.000000,0.000000,0.000000,0.000000 Head:0.000000,0.000000,0.000000,0.000000 HipLeft:0.113946,-0.682898,0.704648,-0.155365 HipRight:-0.127915,0.680410,0.702455,-0.165034 KneeLeft:0.019940,-0.701390,0.074037,0.708642 KneeRight:-0.051983,0.710440,0.055657,0.699625 Neck:-0.059209,0.008347,0.995585,-0.072355 ShoulderLeft:0.033323,0.769990,-0.636750,0.023569 ShoulderRight:-0.043541,0.793086,0.596998,-0.112748 SpineBase:-0.007519,0.003342,0.999428,-0.032815 SpineMid:-0.033196,0.004184,0.998904,-0.032718 SpineShoulder:-0.059312,0.006497,0.996836,-0.052521 ThumbLeft:0.000000,0.000000,0.000000,0.000000 ThumbRight:0.000000,0.000000,0.000000,0.000000 WristLeft:-0.072748,0.771007,-0.122122,0.620760 WristRight:-0.188319,0.049235,-0.604576,0.772398 END:
KINECT_DATA POSITION:3.953676,-1.223178,-5.153787 HEAD_JOINT1:0.978472,0.195921,-0.000000,0.064869 LARM_JOINT2:0.815789,0.000000,0.023684,-0.577864 LARM_JOINT3:0.970552,0.000000,-0.192529,-0.144780 LLEG_JOINT2:0.997016,0.036929,0.000000,0.067787 LLEG_JOINT4:0.995238,0.096827,0.000000,-0.011206 RARM_JOINT2:0.867660,0.000000,0.371698,0.330160 RARM_JOINT3:0.961873,0.000000,0.222397,-0.159183 RLEG_JOINT2:0.997028,0.004265,0.000000,-0.076919 RLEG_JOINT4:0.991189,0.122964,0.000000,0.049235 WAIST:0.999947,0.000000,0.010241,-0.000287 WAIST_JOINT0:0.997694,-0.000000,0.063401,0.024245 WAIST_JOINT1:0.998403,0.056237,-0.000000,0.005351 END:
KINECT_DATA_Sensor  AnkleLeft:-0.053672,-0.674911,0.134253,0.723596 AnkleRight:0.076492,0.747653,0.104818,0.651289 ElbowLeft:-0.021499,0.844783,-0.187008,-0.500907 ElbowRight:-0.419931,0.675702,-0.015605,0.605674 FootLeft:0.000000,0.000000,0.000000,0.000000 FootRight:0.000000,0.000000,0.000000,0.000000 HandLeft:-0.087130,0.791642,-0.021276,0.604366 HandRight:-0.258256,0.005506,-0.568734,0.780907 HandTipLeft:0.000000,0.000000,0.000000,0.000000 HandTipRight:0.000000,0.000000,0.000000,0.000000 Head:0.000000,0.000000,0.000000,0.000000 HipLeft:0.112269,-0.683396,0.704822,-0.153596 HipRight:-0.129546,0.680119,0.702254,-0.165816 KneeLeft:0.020674,-0.699527,0.074113,0.710452 KneeRight:-0.052157,0.712226,0.057083,0.697679 Neck:-0.064237,0.008579,0.995363,-0.071074 ShoulderLeft:0.033032,0.770574,-0.636162,0.020584 ShoulderRight:-0.050461,0.792245,0.596635,-0.117592 SpineBase:-0.010081,0.003863,0.999415,-0.032443 SpineMid:-0.036952,0.004734,0.998783,-0.032328 SpineShoulder:-0.064298,0.007193,0.996596,-0.051093 ThumbLeft:0.000000,0.000000,0.000000,0.000000 ThumbRight:0.000000,0.000000,0.000000,0.000000 WristLeft:-0.076839,0.797198,-0.119431,0.586777 WristRight:-0.203174,0.046244,-0.572265,0.793155 END:
KINECT_DATA POSITION:3.943605,-1.207718,-5.225098 HEAD_JOINT1:0.979197,0.192925,-0.000000,0.062867 LARM_JOINT2:0.816025,0.000000,0.023429,-0.577541 LARM_JOINT3:0.970973,0.000000,-0.192486,-0.141986 LLEG_JOINT2:0.996976,0.036049,0.000000,0.068840 LLEG_JOINT4:0.995463,0.093507,0.000000,-0.017581 RARM_JOINT2:0.867925,0.000000,0.381513,0.318048 RARM_JOINT3:0.967853,0.000000,0.203152,-0.148287 RLEG_JOINT2:0.997130,0.006447,0.000000,-0.075437 RLEG_JOINT4:0.991429,0.122013,0.000000,0.046708 WAIST:0.999938,0.000000,0.011168,-0.000195 WAIST_JOINT0:0.997703,-0.000000,0.063108,0.024628 WAIST_JOINT1:0.998450,0.055362,-0.000000,0.005634 END:
KINECT_DATA_Sensor  AnkleLeft:-0.054605,-0.675003,0.127553,0.724652 AnkleRight:0.076536,0.747445,0.106524,0.651245 ElbowLeft:-0.022109,0.845623,-0.187231,-0.499377 ElbowRight:-0.431140,0.676358,-0.020649,0.596852 FootLeft:0.000000,0.000000,0.000000,0.000000 FootRight:0.000000,0.000000,0.000000,0.000000 HandLeft:-0.082429,0.824227,-0.029633,0.559444 HandRight:-0.243940,-0.006491,-0.577722,0.778902 HandTipLeft:0.000000,0.000000,0.000000,0.000000 HandTipRight:0.000000,0.000000,0.000000,0.000000 Head:0.000000,0.000000,0.000000,0.000000 HipLeft:0.111985,-0.683445,0.704951,-0.152993 HipRight:-0.130582,0.680122,0.702014,-0.166009 KneeLeft:0.022037,-0.698819,0.074339,0.711084 KneeRight:-0.049551,0.713062,0.057502,0.696980 Neck:-0.064049,0.008606,0.995430,-0.070301 ShoulderLeft:0.032126,0.770231,-0.636632,0.020309 ShoulderRight:-0.051132,0.792654,0.596167,-0.116919 SpineBase:-0.010998,0.004360,0.999418,-0.032007 SpineMid:-0.037301,0.005201,0.998782,-0.031881 SpineShoulder:-0.064084,0.007478,0.996654,-0.050186 ThumbLeft:0.000000,0.000000,0.000000,0.000000 ThumbRight:0.000000,0.000000,0.000000,0.000000 WristLeft:-0.082981,0.825754,-0.115456,0.545815 WristRight:-0.196581,0.025567,-0.564840,0.801035 END:
KINECT_DATA POSITION:3.902577,-1.186772,-5.388379 HEAD_JOINT1:0.980102,0.188260,-0.000000,0.062915 LARM_JOINT2:0.816565,0.000000,0.021651,-0.576847 LARM_JOINT3:0.970506,0.000000,-0.190600,-0.147611 LLEG_JOINT2:0.996997,0.036068,0.000000,0.068528 LLEG_JOINT4:0.995410,0.093715,0.000000,-0.019390 RARM_JOINT2:0.867679,0.000000,0.388623,0.310008 RARM_JOINT3:0.972198,0.000000,0.189547,-0.137488 RLEG_JOINT2:0.997215,0.005965,0.000000,-0.074346 RLEG_JOINT4:0.991712,0.120394,0.000000,0.044859 WAIST:0.999938,0.000000,0.011166,-0.000220 WAIST_JOINT0:0.997787,-0.000000,0.061723,0.024733 WAIST_JOINT1:0.998478,0.054864,-0.000000,0.005666 END:
KINECT_DATA_Sensor  AnkleLeft:-0.056369,-0.675482,0.126173,0.724312 AnkleRight:0.074328,0.747060,0.105824,0.652056 ElbowLeft:-0.023803,0.846824,-0.187123,-0.497300 ElbowRight:-0.438698,0.679147,-0.022278,0.588053 FootLeft:0.000000,0.000000,0.000000,0.000000 FootRight:0.000000,0.000000,0.000000,0.000000 HandLeft:-0.093431,0.816821,-0.015610,0.569060 HandRight:-0.241933,-0.005971,-0.571828,0.783866 HandTipLeft:0.000000,0.000000,0.000000,0.000000 HandTipRight:0.000000,0.000000,0.000000,0.000000 Head:0.000000,0.000000,0.000000,0.000000 HipLeft:0.112243,-0.683493,0.704867,-0.152975 HipRight:-0.131042,0.680184,0.701918,-0.165800 KneeLeft:0.021789,-0.698825,0.074110,0.711109 KneeRight:-0.049129,0.713075,0.056409,0.697086 Neck:-0.062626,0.008351,0.995553,-0.069882 ShoulderLeft:0.031269,0.770457,-0.636389,0.020668 ShoulderRight:-0.050080,0.793097,0.596022,-0.115097 SpineBase:-0.010984,0.004721,0.999428,-0.031641 SpineMid:-0.036569,0.005530,0.998819,-0.031509 SpineShoulder:-0.062644,0.007439,0.996771,-0.049678 ThumbLeft:0.000000,0.000000,0.000000,0.000000 ThumbRight:0.000000,0.000000,0.000000,0.000000 WristLeft:-0.081833,0.822359,-0.116555,0.550857 WristRight:-0.197907,0.022800,-0.557672,0.805801 END:
KINECT_DATA POSITION:3.862586,-1.186486,-5.467057 HEAD_JOINT1:0.980119,0.188493,-0.000000,0.061938 LARM_JOINT2:0.815960,0.000000,0.021565,-0.577706 LARM_JOINT3:0.970834,0.000000,-0.189490,-0.146884 LLEG_JOINT2:0.996906,0.037147,0.000000,0.069273 LLEG_JOINT4:0.996193,0.085969,0.000000,-0.014445 RARM_JOINT2:0.868683,0.000000,0.377161,0.321154 RARM_JOINT3:0.967436,0.000000,0.207450,-0.145023 RLEG_JOINT2:0.997190,0.005164,0.000000,-0.074741 RLEG_JOINT4:0.991590,0.120945,0.000000,0.046051 WAIST:0.999931,0.000000,0.011745,-0.000392 WAIST_JOINT0:0.997722,-0.000000,0.062686,0.024918 WAIST_JOINT1:0.998500,0.054405,-0.000000,0.006133 END:
KINECT_DATA_Sensor  AnkleLeft:0.061232,0.750996,-0.119372,-0.646533 AnkleRight:0.074522,0.747533,0.105216,0.651590 ElbowLeft:-0.023532,0.847305,-0.186268,-0.496814 ElbowRight:-0.428753,0.676322,-0.018464,0.598680 FootLeft:0.000000,0.000000,0.000000,0.000000 FootRight:0.000000,0.000000,0.000000,0.000000 HandLeft:-0.096947,0.799380,-0.016861,0.592712 HandRight:-0.239559,0.001910,-0.571939,0.784534 HandTipLeft:0.000000,0.000000,0.000000,0.000000 HandTipRight:0.000000,0.000000,0.000000,0.000000 Head:0.000000,0.000000,0.000000,0.000000 HipLeft:0.111931,-0.683730,0.704786,-0.152519 HipRight:-0.131633,0.680096,0.701896,-0.165783 KneeLeft:0.021365,-0.698419,0.075289,0.711397 KneeRight:-0.050130,0.713389,0.056200,0.696710 Neck:-0.063580,0.008597,0.995524,-0.069394 ShoulderLeft:0.031898,0.770027,-0.636917,0.019459 ShoulderRight:-0.050709,0.792852,0.596245,-0.115352 SpineBase:-0.011545,0.005057,0.999429,-0.031345 SpineMid:-0.037319,0.005864,0.998799,-0.031204 SpineShoulder:-0.063591,0.007711,0.996732,-0.049219 ThumbLeft:0.000000,0.000000,0.000000,0.000000 ThumbRight:0.000000,0.000000,0.000000,0.000000 WristLeft:-0.076548,0.807073,-0.117857,0.573484 WristRight:-0.199533,0.029034,-0.562931,0.801531 END:
KINECT_DATA POSITION:3.833012,-1.182003,-5.511045 HEAD_JOINT1:0.979859,0.189613,-0.000000,0.062642 LARM_JOINT2:0.816320,0.000000,0.022674,-0.577155 LARM_JOINT3:0.970820,0.000000,-0.189987,-0.146333 LLEG_JOINT2:0.996991,0.035299,0.000000,0.069015 LLEG_JOINT4:0.995497,0.092778,0.000000,-0.019445 RARM_JOINT2:0.868463,0.000000,0.381014,0.317177 RARM_JOINT3:0.973264,0.000000,0.186606,-0.133924 RLEG_JOINT2:0.997131,0.002569,0.000000,-0.075648 RLEG_JOINT4:0.991194,0.123608,0.000000,0.047489 WAIST:0.999922,0.000000,0.012461,-0.000052 WAIST_JOINT0:0.997676,-0.000000,0.063227,0.025399 WAIST_JOINT1:0.998530,0.053810,-0.000000,0.006517 END:
KINECT_DATA_Sensor  AnkleLeft:0.060130,0.704597,-0.122895,-0.696293 AnkleRight:0.077679,0.763864,0.102751,0.632392 ElbowLeft:-0.023789,0.846610,-0.187606,-0.497483 ElbowRight:-0.432166,0.673983,-0.023509,0.598687 FootLeft:0.000000,0.000000,0.000000,0.000000 FootRight:0.000000,0.000000,0.000000,0.000000 HandLeft:-0.097454,0.803718,-0.021695,0.586574 HandRight:-0.241017,-0.010658,-0.538677,0.807232 HandTipLeft:0.000000,0.000000,0.000000,0.000000 HandTipRight:0.000000,0.000000,0.000000,0.000000 Head:0.000000,0.000000,0.000000,0.000000 HipLeft:0.111701,-0.683562,0.705085,-0.152051 HipRight:-0.132488,0.680252,0.701547,-0.165941 KneeLeft:0.022705,-0.697857,0.074070,0.712035 KneeRight:-0.052405,0.713701,0.054689,0.696343 Neck:-0.064192,0.009273,0.995526,-0.068711 ShoulderLeft:0.031422,0.769430,-0.637673,0.019051 ShoulderRight:-0.052066,0.792958,0.595904,-0.115781 SpineBase:-0.012265,0.005615,0.999428,-0.031000 SpineMid:-0.037978,0.006411,0.998782,-0.030845 SpineShoulder:-0.064192,0.008356,0.996718,-0.048618 ThumbLeft:0.000000,0.000000,0.000000,0.000000 ThumbRight:0.000000,0.000000,0.000000,0.000000 WristLeft:-0.075716,0.810836,-0.118398,0.568150 WristRight:-0.199541,0.021560,-0.559181,0.804385 END:
KINECT_DATA POSITION:3.827428,-1.176156,-5.535758 HEAD_JOINT1:0.980076,0.188402,-0.000000,0.062886 LARM_JOINT2:0.815640,0.000000,0.023222,-0.578094 LARM_JOINT3:0.970672,0.000000,-0.187931,-0.149926 LLEG_JOINT2:0.997046,0.034947,0.000000,0.068395 LLEG_JOINT4:0.995600,0.092130,0.000000,-0.017105 RARM_JOINT2:0.869446,0.000000,0.379274,0.316568 RARM_JOINT3:0.973526,0.000000,0.182614,-0.137472 RLEG_JOINT2:0.997050,0.000893,0.000000,-0.076749 RLEG_JOINT4:0.991046,0.124588,0.000000,0.048020 WAIST:0.999917,-0.000000,0.012899,0.000233 WAIST_JOINT0:0.997437,-0.000000,0.066662,0.026012 WAIST_JOINT1:0.998585,0.052693,-0.000000,0.007186 END:
KINECT_DATA_Sensor  AnkleLeft:-0.052626,-0.673256,0.126089,0.726677 AnkleRight:0.074577,0.749565,0.104262,0.649400 ElbowLeft:-0.023156,0.849018,-0.187241,-0.493531 ElbowRight:-0.432706,0.671420,-0.024340,0.601139 FootLeft:0.000000,0.000000,0.000000,0.000000 FootRight:0.000000,0.000000,0.000000,0.000000 HandLeft:-0.084155,0.643365,-0.036979,0.760021 HandRight:-0.244203,-0.029278,-0.543472,0.802587 HandTipLeft:0.000000,0.000000,0.000000,0.000000 HandTipRight:0.000000,0.000000,0.000000,0.000000 Head:0.000000,0.000000,0.000000,0.000000 HipLeft:0.111873,-0.683525,0.705231,-0.151419 HipRight:-0.133531,0.680550,0.701146,-0.165577 KneeLeft:0.022698,-0.697522,0.073590,0.712413 KneeRight:-0.054195,0.713850,0.054024,0.696105 Neck:-0.067660,0.010406,0.995368,-0.067499 ShoulderLeft:0.032250,0.768887,-0.638367,0.016138 ShoulderRight:-0.055831,0.793038,0.594985,-0.118182 SpineBase:-0.012704,0.006306,0.999445,-0.030141 SpineMid:-0.039911,0.007124,0.998729,-0.029958 SpineShoulder:-0.067651,0.009371,0.996536,-0.047448 ThumbLeft:0.000000,0.000000,0.000000,0.000000 ThumbRight:0.000000,0.000000,0.000000,0.000000 WristLeft:-0.047801,0.643274,-0.132498,0.752568 WristRight:-0.193961,0.008464,-0.561363,0.804474 END:
KINECT_DATA POSITION:3.806131,-1.164259,-5.630004 HEAD_JOINT1:0.980133,0.188160,-0.000000,0.062728 LARM_JOINT2:0.816104,0.000000,0.025547,-0.577341 LARM_JOINT3:0.970512,0.000000,-0.189665,-0.148772 LLEG_JOINT2:0.997009,0.035461,0.000000,0.068666 LLEG_JOINT4:0.995845,0.090670,0.000000,-0.008474 RARM_JOINT2:0.869020,0.000000,0.379402,0.317583 RARM_JOINT3:0.975170,0.000000,0.174388,-0.136502 RLEG_JOINT2:0.997060,0.002125,0.000000,-0.076591 RLEG_JOINT4:0.991306,0.122314,0.000000,0.048484 WAIST:0.999919,-0.000000,0.012763,0.000304 WAIST_JOINT0:0.997580,-0.000000,0.064867,0.025012 WAIST_JOINT1:0.998631,0.051879,-0.000000,0.006616 END:
KINECT_DATA_Sensor  AnkleLeft:-0.045955,-0.675449,0.131599,0.724113 AnkleRight:0.074105,0.748699,0.103168,0.650626 ElbowLeft:-0.022530,0.848449,-0.188038,-0.494234 ElbowRight:-0.432449,0.666025,-0.028750,0.607102 FootLeft:0.000000,0.000000,0.000000,0.000000 FootRight:0.000000,0.000000,0.000000,0.000000 HandLeft:-0.081744,0.624904,-0.045158,0.775096 HandRight:-0.258705,-0.022820,-0.527909,0.808618 HandTipLeft:0.000000,0.000000,0.000000,0.000000 HandTipRight:0.000000,0.000000,0.000000,0.000000 Head:0.000000,0.000000,0.000000,0.000000 HipLeft:0.112602,-0.683619,0.705122,-0.150962 HipRight:-0.134079,0.680764,0.700957,-0.165050 KneeLeft:0.022576,-0.697608,0.074190,0.712270 KneeRight:-0.053157,0.713859,0.054760,0.696118 Neck:-0.065730,0.009609,0.995558,-0.066723 ShoulderLeft:0.028738,0.769783,-0.637396,0.018275 ShoulderRight:-0.056893,0.792669,0.595539,-0.117359 SpineBase:-0.012582,0.006250,0.999473,-0.029250 SpineMid:-0.038876,0.007017,0.998796,-0.029075 SpineShoulder:-0.065711,0.008809,0.996708,-0.046668 ThumbLeft:0.000000,0.000000,0.000000,0.000000 ThumbRight:0.000000,0.000000,0.000000,0.000000 WristLeft:-0.044216,0.624840,-0.133625,0.767961 WristRight:-0.206406,0.017762,-0.556308,0.804738 END:
KINECT_DATA POSITION:3.814886,-1.150861,-5.685711 HEAD_JOINT1:0.980502,0.186257,-0.000000,0.062649 LARM_JOINT2:0.816244,0.000000,0.025166,-0.577158 LARM_JOINT3:0.970400,0.000000,-0.191094,-0.147671 LLEG_JOINT2:0.997019,0.034519,0.000000,0.069001 LLEG_JOINT4:0.995752,0.090902,0.000000,-0.014667 RARM_JOINT2:0.870731,0.000000,0.370445,0.323415 RARM_JOINT3:0.963575,0.000000,0.220301,-0.151629 RLEG_JOINT2:0.997134,0.003483,0.000000,-0.075576 RLEG_JOINT4:0.991619,0.120541,0.000000,0.046491 WAIST:0.999919,-0.000000,0.012712,0.000121 WAIST_JOINT0:0.997601,-0.000000,0.064834,0.024278 WAIST_JOINT1:0.998688,0.050843,-0.000000,0.006143 END:
KINECT_DATA_Sensor  AnkleLeft:-0.049586,-0.674828,0.126904,0.725289 AnkleRight:0.073018,0.748827,0.103767,0.650506 ElbowLeft:-0.023428,0.848756,-0.187049,-0.494042 ElbowRight:-0.428386,0.669606,-0.019221,0.606419 FootLeft:0.000000,0.000000,0.000000,0.000000 FootRight:0.000000,0.000000,0.000000,0.000000 HandLeft:-0.096399,0.797369,-0.031146,0.594929 HandRight:-0.232165,0.026626,-0.596423,0.767900 HandTipLeft:0.000000,0.000000,0.000000,0.000000 HandTipRight:0.000000,0.000000,0.000000,0.000000 Head:0.000000,0.000000,0.000000,0.000000 HipLeft:0.113330,-0.683883,0.704874,-0.150374 HipRight:-0.134591,0.680776,0.700969,-0.164537 KneeLeft:0.023364,-0.697629,0.073644,0.712281 KneeRight:-0.051601,0.713963,0.055163,0.696097 Neck:-0.065668,0.008836,0.995639,-0.065676 ShoulderLeft:0.028011,0.770569,-0.636500,0.017490 ShoulderRight:-0.057458,0.792747,0.595526,-0.116617 SpineBase:-0.012536,0.005905,0.999502,-0.028332 SpineMid:-0.038819,0.006648,0.998827,-0.028167 SpineShoulder:-0.065654,0.008140,0.996763,-0.045674 ThumbLeft:0.000000,0.000000,0.000000,0.000000 ThumbRight:0.000000,0.000000,0.000000,0.000000 WristLeft:-0.077840,0.803137,-0.117739,0.578835 WristRight:-0.211351,0.034914,-0.561782,0.799070 END:
KINECT_DATA POSITION:3.848225,-1.143665,-5.687702 HEAD_JOINT1:0.980972,0.183565,-0.000000,0.063234 LARM_JOINT2:0.816915,0.000000,0.024398,-0.576242 LARM_JOINT3:0.969082,0.000000,-0.196896,-0.148703 LLEG_JOINT2:0.996975,0.035200,0.000000,0.069293 LLEG_JOINT4:0.995653,0.091991,0.000000,-0.014557 RARM_JOINT2:0.863219,0.000000,0.386940,0.324239 RARM_JOINT3:0.944815,0.000000,0.295305,-0.141845 RLEG_JOINT2:0.997204,0.002720,0.000000,-0.074680 RLEG_JOINT4:0.991606,0.120822,0.000000,0.046034 WAIST:0.999943,0.000000,0.010640,-0.000670 WAIST_JOINT0:0.997834,-0.000000,0.062330,0.021023 WAIST_JOINT1:0.998829,0.048136,-0.000000,0.004750 END:
KINECT_DATA_Sensor  AnkleLeft:-0.050808,-0.675979,0.128006,0.723938 AnkleRight:0.072658,0.747559,0.103561,0.652037 ElbowLeft:-0.025560,0.851664,-0.184619,-0.489827 ElbowRight:-0.432760,0.712557,-0.003922,0.552238 FootLeft:0.000000,0.000000,0.000000,0.000000 FootRight:0.000000,0.000000,0.000000,0.000000 HandLeft:-0.115762,0.827261,-0.038549,0.548409 HandRight:-0.131783,0.077937,-0.671681,0.724847 HandTipLeft:0.000000,0.000000,0.000000,0.000000 HandTipRight:0.000000,0.000000,0.000000,0.000000 Head:0.000000,0.000000,0.000000,0.000000 HipLeft:0.115809,-0.684476,0.703963,-0.150055 HipRight:-0.134122,0.680730,0.701610,-0.162361 KneeLeft:0.022673,-0.699156,0.073721,0.710796 KneeRight:-0.051938,0.712512,0.054655,0.697597 Neck:-0.063056,0.006451,0.996012,-0.062791 ShoulderLeft:0.023544,0.773152,-0.633526,0.018075 ShoulderRight:-0.058405,0.792095,0.596886,-0.113583 SpineBase:-0.010472,0.004630,0.999582,-0.026562 SpineMid:-0.036482,0.005320,0.998970,-0.026432 SpineShoulder:-0.063061,0.005979,0.997059,-0.043142 ThumbLeft:0.000000,0.000000,0.000000,0.000000 ThumbRight:0.000000,0.000000,0.000000,0.000000 WristLeft:-0.090401,0.833079,-0.112297,0.534038 WristRight:-0.146641,0.055018,-0.600505,0.784132 END:
KINECT_DATA POSITION:3.913246,-1.139970,-5.721140 HEAD_JOINT1:0.981906,0.179729,-0.000000,0.059649 LARM_JOINT2:0.817923,0.000000,0.020113,-0.574976 LARM_JOINT3:0.970172,0.000000,-0.189839,-0.150753 LLEG_JOINT2:0.996919,0.034646,0.000000,0.070376 LLEG_JOINT4:0.995793,0.090948,0.000000,-0.011154 RARM_JOINT2:0.830219,0.000000,0.481192,0.281408 RARM_JOINT3:0.966774,0.000000,0.233984,-0.102958 RLEG_JOINT2:0.997260,0.002682,0.000000,-0.073923 RLEG_JOINT4:0.991579,0.120973,0.000000,0.046218 WAIST:0.999948,0.000000,0.010088,-0.001624 WAIST_JOINT0:0.997610,-0.000000,0.066739,0.017871 WAIST_JOINT1:0.998855,0.047592,-0.000000,0.004964 END:
KINECT_DATA_Sensor  AnkleLeft:-0.046673,-0.674083,0.129555,0.725707 AnkleRight:0.073215,0.749774,0.103314,0.649465 ElbowLeft:-0.027848,0.856930,-0.183772,-0.480753 ElbowRight:-0.475546,0.754479,-0.045088,0.450095 FootLeft:0.000000,0.000000,0.000000,0.000000 FootRight:0.000000,0.000000,0.000000,0.000000 HandLeft:-0.098686,0.811179,-0.032511,0.575494 HandRight:0.113315,-0.183090,0.728138,-0.650733 HandTipLeft:0.000000,0.000000,0.000000,0.000000 HandTipRight:0.000000,0.000000,0.000000,0.000000 Head:0.000000,0.000000,0.000000,0.000000 HipLeft:0.117173,-0.685131,0.703159,-0.149778 HipRight:-0.134494,0.680186,0.702216,-0.161714 KneeLeft:0.023197,-0.699577,0.073422,0.710396 KneeRight:-0.052067,0.712121,0.054800,0.697975 Neck:-0.068044,0.006169,0.995711,-0.062383 ShoulderLeft:0.023162,0.774491,-0.631958,0.016033 ShoulderRight:-0.065357,0.790754,0.596798,-0.119452 SpineBase:-0.009903,0.003627,0.999618,-0.025545 SpineMid:-0.038685,0.004361,0.998918,-0.025430 SpineShoulder:-0.068080,0.005451,0.996757,-0.042564 ThumbLeft:0.000000,0.000000,0.000000,0.000000 ThumbRight:0.000000,0.000000,0.000000,0.000000 WristLeft:-0.089513,0.814965,-0.113365,0.561220 WristRight:-0.151919,0.135259,-0.575593,0.792034 END:
KINECT_DATA POSITION:4.512024,-1.097769,-5.644321 HEAD_JOINT1:0.986070,0.160942,-0.000000,0.041997 LARM_JOINT2:0.810297,0.000000,0.035578,-0.584938 LARM_JOINT3:0.969259,0.000000,-0.202397,-0.139904 LLEG_JOINT2:0.997207,0.030312,0.000000,0.068258 LLEG_JOINT4:0.995727,0.092154,0.000000,-0.005983 RARM_JOINT2:0.828313,0.000000,0.472861,0.300500 RARM_JOINT3:0.921458,0.000000,0.361849,-0.141350 RLEG_JOINT2:0.996547,0.007578,0.000000,-0.082689 RLEG_JOINT4:0.990490,0.124623,0.000000,0.058295 WAIST:0.999396,0.000000,0.034687,-0.002175 WAIST_JOINT0:0.993940,-0.000000,0.108035,0.020303 WAIST_JOINT1:0.999047,0.042747,-0.000000,0.008796 END:
KINECT_DATA_Sensor  AnkleLeft:-0.044848,-0.650141,0.128435,0.747536 AnkleRight:0.079809,0.769575,0.107993,0.624278 ElbowLeft:-0.020912,0.818725,-0.178626,-0.545294 ElbowRight:-0.460159,0.763017,-0.065608,0.449171 FootLeft:0.000000,0.000000,0.000000,0.000000 FootRight:0.000000,0.000000,0.000000,0.000000 HandLeft:-0.051242,0.751127,-0.038619,0.657032 HandRight:0.020943,-0.194530,0.721401,-0.664304 HandTipLeft:0.000000,0.000000,0.000000,0.000000 HandTipRight:0.000000,0.000000,0.000000,0.000000 Head:0.000000,0.000000,0.000000,0.000000 HipLeft:0.107156,-0.688029,0.704615,-0.136572 HipRight:-0.156210,0.676309,0.698064,-0.175812 KneeLeft:0.022732,-0.681798,0.069099,0.727915 KneeRight:-0.056802,0.728796,0.063501,0.679409 Neck:-0.109273,0.009802,0.992360,-0.056437 ShoulderLeft:0.047288,0.778011,-0.626111,-0.021171 ShoulderRight:-0.093397,0.795390,0.580330,-0.147811 SpineBase:-0.034429,0.006362,0.999152,-0.021683 SpineMid:-0.071406,0.007160,0.997191,-0.021432 SpineShoulder:-0.109373,0.007880,0.993241,-0.038038 ThumbLeft:0.000000,0.000000,0.000000,0.000000 ThumbRight:0.000000,0.000000,0.000000,0.000000 WristLeft:-0.087803,0.748410,-0.142509,0.641767 WristRight:-0.045461,0.175346,-0.683787,0.706840 END:
KINECT_DATA POSITION:5.007302,-1.109470,-5.993843 HEAD_JOINT1:0.984846,0.168581,-0.000000,0.040739 LARM_JOINT2:0.811832,0.000000,0.044727,-0.582175 LARM_JOINT3:0.967692,0.000000,-0.199095,-0.154702 LLEG_JOINT2:0.997651,0.024271,0.000000,0.064059 LLEG_JOINT4:0.995273,0.097104,0.000000,-0.001852 RARM_JOINT2:0.787734,0.000000,0.585460,0.191602 RARM_JOINT3:0.968778,0.000000,0.199195,-0.147618 RLEG_JOINT2:0.996297,0.013215,0.000000,-0.084954 RLEG_JOINT4:0.991231,0.117116,0.000000,0.061191 WAIST:0.998503,0.000000,0.054680,-0.001222 WAIST_JOINT0:0.991368,-0.000000,0.124162,0.042105 WAIST_JOINT1:0.999023,0.042412,-0.000000,0.012440 END:
KINECT_DATA_Sensor  AnkleLeft:-0.046944,-0.640482,0.127072,0.755931 AnkleRight:0.076486,0.777683,0.107726,0.614617 ElbowLeft:-0.011587,0.814515,-0.188970,-0.548381 ElbowRight:-0.517731,0.724535,-0.199401,0.408953 FootLeft:0.000000,0.000000,0.000000,0.000000 FootRight:0.000000,0.000000,0.000000,0.000000 HandLeft:-0.068162,0.700934,-0.035592,0.709069 HandRight:-0.028867,-0.159427,0.758198,-0.631574 HandTipLeft:0.000000,0.000000,0.000000,0.000000 HandTipRight:0.000000,0.000000,0.000000,0.000000 Head:0.000000,0.000000,0.000000,0.000000 HipLeft:0.092225,-0.690053,0.707459,-0.121750 HipRight:-0.165030,0.675388,0.695271,-0.182251 KneeLeft:0.023721,-0.666992,0.063077,0.742011 KneeRight:-0.055241,0.742521,0.067453,0.664124 Neck:-0.126484,0.013499,0.990245,-0.056868 ShoulderLeft:0.049569,0.777369,-0.626437,-0.028569 ShoulderRight:-0.112382,0.818469,0.538487,-0.165862 SpineBase:-0.054412,0.008670,0.998265,-0.020768 SpineMid:-0.089838,0.009403,0.995702,-0.020447 SpineShoulder:-0.126549,0.011475,0.991182,-0.037576 ThumbLeft:0.000000,0.000000,0.000000,0.000000 ThumbRight:0.000000,0.000000,0.000000,0.000000 WristLeft:-0.063207,0.710042,-0.141839,0.686824 WristRight:-0.018652,0.109208,-0.688938,0.716303 END:
KINECT_DATA POSITION:4.924479,-0.706146,-6.222379 HEAD_JOINT1:0.985078,0.169453,-0.000000,0.030131 LARM_JOINT2:0.812233,0.000000,0.050967,-0.581103 LARM_JOINT3:0.964983,0.000000,-0.203374,-0.165672 LLEG_JOINT2:0.997804,0.019237,0.000000,0.063389 LLEG_JOINT4:0.995480,0.094954,0.000000,-0.001641 RARM_JOINT2:0.833127,0.000000,0.522732,0.180697 RARM_JOINT3:0.948953,0.000000,0.291359,-0.120825 RLEG_JOINT2:0.996416,0.014454,0.000000,-0.083344 RLEG_JOINT4:0.991684,0.113220,0.000000,0.061181 WAIST:0.997990,0.000000,0.063376,-0.000648 WAIST_JOINT0:0.991281,-0.000000,0.124448,0.043299 WAIST_JOINT1:0.998959,0.043303,-0.000000,0.014354 END:
KINECT_DATA_Sensor  AnkleLeft:-0.043706,-0.640852,0.121539,0.756721 AnkleRight:0.074205,0.778216,0.105676,0.614578 ElbowLeft:-0.004511,0.813253,-0.194676,-0.548362 ElbowRight:-0.549906,0.760186,-0.068208,0.339218 FootLeft:0.000000,0.000000,0.000000,0.000000 FootRight:0.000000,0.000000,0.000000,0.000000 HandLeft:-0.079815,0.626682,-0.045639,0.773832 HandRight:0.025926,-0.202835,0.738465,-0.642538 HandTipLeft:0.000000,0.000000,0.000000,0.000000 HandTipRight:0.000000,0.000000,0.000000,0.000000 Head:0.000000,0.000000,0.000000,0.000000 HipLeft:0.084842,-0.690776,0.708575,-0.116415 HipRight:-0.168537,0.674926,0.693784,-0.186368 KneeLeft:0.026921,-0.660416,0.059864,0.748026 KneeRight:-0.053384,0.748458,0.066440,0.657683 Neck:-0.127504,0.015455,0.990013,-0.058119 ShoulderLeft:0.043449,0.780662,-0.622956,-0.024590 ShoulderRight:-0.119956,0.823374,0.527667,-0.170975 SpineBase:-0.063082,0.010026,0.997721,-0.021767 SpineMid:-0.094682,0.010711,0.995219,-0.021439 SpineShoulder:-0.127557,0.013214,0.990993,-0.038565 ThumbLeft:0.000000,0.000000,0.000000,0.000000 ThumbRight:0.000000,0.000000,0.000000,0.000000 WristLeft:-0.044548,0.625937,-0.144524,0.765069 WristRight:0.044182,-0.194951,0.687881,-0.697755 END:
KINECT_DATA POSITION:4.863542,-0.520174,-6.259060 HEAD_JOINT1:0.985364,0.169279,-0.000000,0.020048 LARM_JOINT2:0.812627,0.000000,0.048628,-0.580752 LARM_JOINT3:0.964475,0.000000,-0.203006,-0.169048 LLEG_JOINT2:0.997761,0.016620,0.000000,0.064790 LLEG_JOINT4:0.995322,0.096611,0.000000,-0.000898 RARM_JOINT2:0.843534,0.000000,0.503878,0.185899 RARM_JOINT3:0.940357,0.000000,0.314763,-0.129047 RLEG_JOINT2:0.996623,0.016359,0.000000,-0.080473 RLEG_JOINT4:0.991974,0.110016,0.000000,0.062317 WAIST:0.997662,0.000000,0.068296,-0.002357 WAIST_JOINT0:0.990686,-0.000000,0.129334,0.042581 WAIST_JOINT1:0.998908,0.043249,-0.000000,0.017698 END:
KINECT_DATA_Sensor  AnkleLeft:-0.043515,-0.637887,0.121051,0.759311 AnkleRight:0.074322,0.780656,0.103712,0.611797 ElbowLeft:-0.004129,0.816253,-0.195941,-0.543435 ElbowRight:-0.545381,0.759927,-0.055354,0.349294 FootLeft:0.000000,0.000000,0.000000,0.000000 FootRight:0.000000,0.000000,0.000000,0.000000 HandLeft:-0.085723,0.691021,-0.044199,0.716372 HandRight:0.002507,-0.185235,0.749653,-0.635376 HandTipLeft:0.000000,0.000000,0.000000,0.000000 HandTipRight:0.000000,0.000000,0.000000,0.000000 Head:0.000000,0.000000,0.000000,0.000000 HipLeft:0.081138,-0.692407,0.707845,-0.113777 HipRight:-0.171615,0.673319,0.694061,-0.188330 KneeLeft:0.028316,-0.656748,0.058128,0.751333 KneeRight:-0.051488,0.751814,0.066936,0.653945 Neck:-0.132738,0.017014,0.989287,-0.058337 ShoulderLeft:0.045065,0.782730,-0.620075,-0.028451 ShoulderRight:-0.124639,0.825337,0.521887,-0.175833 SpineBase:-0.067897,0.011151,0.997390,-0.021881 SpineMid:-0.099664,0.011843,0.994718,-0.021514 SpineShoulder:-0.132783,0.014624,0.990283,-0.038669 ThumbLeft:0.000000,0.000000,0.000000,0.000000 ThumbRight:0.000000,0.000000,0.000000,0.000000 WristLeft:-0.060326,0.703824,-0.137327,0.694358 WristRight:0.022060,-0.177744,0.693352,-0.697986 END:
KINECT_DATA POSITION:4.788040,-0.367077,-6.245196 HEAD_JOINT1:0.985492,0.168928,-0.000000,0.016387 LARM_JOINT2:0.813477,0.000000,0.039550,-0.580251 LARM_JOINT3:0.964874,0.000000,-0.201275,-0.168839 LLEG_JOINT2:0.997676,0.015335,0.000000,0.066388 LLEG_JOINT4:0.995399,0.095820,0.000000,-0.000093 RARM_JOINT2:0.822219,0.000000,0.540640,0.177943 RARM_JOINT3:0.956470,0.000000,0.255801,-0.140469 RLEG_JOINT2:0.996740,0.016809,0.000000,-0.078909 RLEG_JOINT4:0.992084,0.109417,0.000000,0.061619 WAIST:0.997515,0.000000,0.070377,-0.003236 WAIST_JOINT0:0.989643,-0.000000,0.138086,0.039238 WAIST_JOINT1:0.998892,0.043164,-0.000000,0.018748 END:
KINECT_DATA_Sensor  AnkleLeft:0.060205,0.750836,-0.112529,-0.648041 AnkleRight:0.074543,0.784946,0.103462,0.606299 ElbowLeft:-0.008504,0.822746,-0.194205,-0.534136 ElbowRight:-0.544127,0.746510,-0.119349,0.363874 FootLeft:0.000000,0.000000,0.000000,0.000000 FootRight:0.000000,0.000000,0.000000,0.000000 HandLeft:-0.098807,0.727877,-0.049451,0.676748 HandRight:0.102476,-0.259017,0.744398,-0.606860 HandTipLeft:0.000000,0.000000,0.000000,0.000000 HandTipRight:0.000000,0.000000,0.000000,0.000000 Head:0.000000,0.000000,0.000000,0.000000 HipLeft:0.080021,-0.693515,0.707062,-0.112679 HipRight:-0.173107,0.672751,0.693936,-0.189451 KneeLeft:0.029591,-0.655161,0.057937,0.752683 KneeRight:-0.050766,0.753221,0.066766,0.652399 Neck:-0.141341,0.017585,0.988087,-0.058296 ShoulderLeft:0.051988,0.783247,-0.618436,-0.036859 ShoulderRight:-0.128291,0.822176,0.523884,-0.181970 SpineBase:-0.069942,0.011089,0.997253,-0.021715 SpineMid:-0.104943,0.011846,0.994179,-0.021312 SpineShoulder:-0.141406,0.014933,0.989088,-0.038564 ThumbLeft:0.000000,0.000000,0.000000,0.000000 ThumbRight:0.000000,0.000000,0.000000,0.000000 WristLeft:-0.066984,0.737152,-0.132802,0.659153 WristRight:0.123854,-0.247982,0.683595,-0.675176 END:
KINECT_DATA POSITION:4.734644,-0.256670,-6.232381 HEAD_JOINT1:0.987806,0.154495,-0.000000,0.019244 LARM_JOINT2:0.814409,0.000000,0.038464,-0.579015 LARM_JOINT3:0.964369,0.000000,-0.204990,-0.167249 LLEG_JOINT2:0.997616,0.015233,0.000000,0.067311 LLEG_JOINT4:0.995206,0.097795,0.000000,-0.001066 RARM_JOINT2:0.826135,0.000000,0.534268,0.179046 RARM_JOINT3:0.955134,0.000000,0.259337,-0.143048 RLEG_JOINT2:0.996844,0.016131,0.000000,-0.077726 RLEG_JOINT4:0.992008,0.109823,0.000000,0.062129 WAIST:0.997500,0.000000,0.070556,-0.003998 WAIST_JOINT0:0.989991,-0.000000,0.136540,0.035688 WAIST_JOINT1:0.998734,0.046649,-0.000000,0.018803 END:
KINECT_DATA_Sensor  AnkleLeft:-0.042841,-0.633455,0.121575,0.762967 AnkleRight:0.073680,0.777037,0.103646,0.616476 ElbowLeft:-0.007040,0.821202,-0.196079,-0.535846 ElbowRight:-0.539306,0.739336,-0.123165,0.383876 FootLeft:0.000000,0.000000,0.000000,0.000000 FootRight:0.000000,0.000000,0.000000,0.000000 HandLeft:-0.107683,0.824300,-0.037833,0.554530 HandRight:0.145214,-0.270881,0.681782,-0.663860 HandTipLeft:0.000000,0.000000,0.000000,0.000000 HandTipRight:0.000000,0.000000,0.000000,0.000000 Head:0.000000,0.000000,0.000000,0.000000 HipLeft:0.077844,-0.693981,0.706539,-0.114601 HipRight:-0.171059,0.671868,0.694696,-0.191651 KneeLeft:0.029717,-0.655120,0.058039,0.752706 KneeRight:-0.050880,0.753235,0.065997,0.652451 Neck:-0.139873,0.016590,0.988148,-0.061028 ShoulderLeft:0.058587,0.783704,-0.617252,-0.037083 ShoulderRight:-0.119185,0.819671,0.530516,-0.180242 SpineBase:-0.070030,0.010387,0.997180,-0.024914 SpineMid:-0.104318,0.011239,0.994178,-0.024542 SpineShoulder:-0.139948,0.014221,0.989148,-0.042401 ThumbLeft:0.000000,0.000000,0.000000,0.000000 ThumbRight:0.000000,0.000000,0.000000,0.000000 WristLeft:-0.084943,0.829760,-0.121304,0.538115 WristRight:0.141958,-0.270773,0.701304,-0.643974 END:
