EastLYD/RoboCupatHomeSim/InteractiveCleanUp/JapanOpen2016/Motion_Data/File23.dat
KINECT_DATA POSITION:9.660716,-1.524427,9.488546 HEAD_JOINT1:0.980106,0.171275,-0.000000,0.100286 LARM_JOINT2:0.830184,0.000000,-0.045569,-0.555624 LARM_JOINT3:0.966112,0.000000,-0.186173,-0.178793 LLEG_JOINT2:0.996598,0.017314,0.000000,0.080576 LLEG_JOINT4:0.995757,0.090069,0.000000,-0.018854 RARM_JOINT2:0.799785,0.000000,-0.036185,0.599195 RARM_JOINT3:0.974000,0.000000,0.208168,0.089387 RLEG_JOINT2:0.999050,0.023646,0.000000,-0.036611 RLEG_JOINT4:0.994453,0.094162,0.000000,0.046866 WAIST:0.999857,0.000000,0.016913,-0.000606 WAIST_JOINT0:0.999928,0.000000,-0.004563,0.011067 WAIST_JOINT1:0.997159,0.075030,0.000000,-0.006622 END:
KINECT_DATA_Sensor  AnkleLeft:0.042937,0.733547,-0.115373,-0.668397 AnkleRight:0.090329,0.724489,0.075930,0.679110 ElbowLeft:-0.037057,0.902927,-0.184959,-0.386185 ElbowRight:-0.007993,0.806026,0.180280,0.563699 FootLeft:0.000000,0.000000,0.000000,0.000000 FootRight:0.000000,0.000000,0.000000,0.000000 HandLeft:-0.127103,0.715364,-0.034090,0.686248 HandRight:0.023282,-0.412410,-0.090038,0.906239 HandTipLeft:0.000000,0.000000,0.000000,0.000000 HandTipRight:0.000000,0.000000,0.000000,0.000000 Head:0.000000,0.000000,0.000000,0.000000 HipLeft:0.104181,-0.680292,0.707265,-0.161632 HipRight:-0.128148,0.671725,0.704281,-0.190664 KneeLeft:0.043056,-0.693471,0.069583,0.715823 KneeRight:-0.010266,0.719064,0.042887,0.693544 Neck:0.003881,-0.011150,0.995779,-0.091017 ShoulderLeft:0.024009,0.778363,-0.623746,0.067192 ShoulderRight:0.030055,0.786177,0.614424,-0.059215 SpineBase:-0.017142,-0.007074,0.998587,-0.049792 SpineMid:-0.006763,-0.007591,0.998712,-0.049716 SpineShoulder:0.003814,-0.009688,0.997530,-0.069462 ThumbLeft:0.000000,0.000000,0.000000,0.000000 ThumbRight:0.000000,0.000000,0.000000,0.000000 WristLeft:-0.098794,0.725150,-0.099508,0.674163 WristRight:-0.013875,-0.412258,-0.135158,0.900879 END:
KINECT_DATA POSITION:9.676722,-1.530306,9.486521 HEAD_JOINT1:0.979933,0.171686,-0.000000,0.101266 LARM_JOINT2:0.830045,0.000000,-0.045570,-0.555832 LARM_JOINT3:0.967034,0.000000,-0.185156,-0.174819 LLEG_JOINT2:0.996603,0.017623,0.000000,0.080454 LLEG_JOINT4:0.995786,0.089503,0.000000,-0.019991 RARM_JOINT2:0.799317,0.000000,-0.036340,0.599810 RARM_JOINT3:0.972610,0.000000,0.214225,0.090206 RLEG_JOINT2:0.999052,0.023548,0.000000,-0.036612 RLEG_JOINT4:0.994255,0.095418,0.000000,0.048508 WAIST:0.999862,0.000000,0.016580,-0.000669 WAIST_JOINT0:0.999929,0.000000,-0.004561,0.010974 WAIST_JOINT1:0.997173,0.074832,0.000000,-0.006806 END:
KINECT_DATA_Sensor  AnkleLeft:0.043837,0.735555,-0.114107,-0.666346 AnkleRight:0.092925,0.729805,0.074806,0.673167 ElbowLeft:-0.037340,0.902631,-0.184383,-0.387124 ElbowRight:-0.007626,0.806017,0.179820,0.563864 FootLeft:0.000000,0.000000,0.000000,0.000000 FootRight:0.000000,0.000000,0.000000,0.000000 HandLeft:-0.118132,0.733265,-0.038400,0.668500 HandRight:0.059188,-0.592137,-0.101372,0.797242 HandTipLeft:0.000000,0.000000,0.000000,0.000000 HandTipRight:0.000000,0.000000,0.000000,0.000000 Head:0.000000,0.000000,0.000000,0.000000 HipLeft:0.104547,-0.680315,0.707177,-0.161686 HipRight:-0.128024,0.671737,0.704355,-0.190429 KneeLeft:0.042726,-0.693730,0.069652,0.715585 KneeRight:-0.010365,0.718833,0.042866,0.693782 Neck:0.003942,-0.011342,0.995796,-0.090806 ShoulderLeft:0.023632,0.778456,-0.623637,0.067256 ShoulderRight:0.029751,0.785984,0.614686,-0.059211 SpineBase:-0.016813,-0.007260,0.998600,-0.049628 SpineMid:-0.006570,-0.007769,0.998720,-0.049551 SpineShoulder:0.003871,-0.009881,0.997542,-0.069266 ThumbLeft:0.000000,0.000000,0.000000,0.000000 ThumbRight:0.000000,0.000000,0.000000,0.000000 WristLeft:-0.100600,0.739787,-0.097736,0.658060 WristRight:0.016218,-0.593539,-0.135143,0.793212 END:
KINECT_DATA POSITION:9.695113,-1.541042,9.517646 HEAD_JOINT1:0.980087,0.171334,-0.000000,0.100373 LARM_JOINT2:0.829633,0.000000,-0.045541,-0.556449 LARM_JOINT3:0.967058,0.000000,-0.187448,-0.172224 LLEG_JOINT2:0.996570,0.018014,0.000000,0.080765 LLEG_JOINT4:0.995796,0.089670,0.000000,-0.018693 RARM_JOINT2:0.798192,0.000000,-0.031185,0.601596 RARM_JOINT3:0.968396,0.000000,0.230407,0.095505 RLEG_JOINT2:0.999079,0.023104,0.000000,-0.036144 RLEG_JOINT4:0.994442,0.094743,0.000000,0.045922 WAIST:0.999867,0.000000,0.016265,-0.000862 WAIST_JOINT0:0.999932,0.000000,-0.004140,0.010918 WAIST_JOINT1:0.997195,0.074564,0.000000,-0.006585 END:
KINECT_DATA_Sensor  AnkleLeft:0.039704,0.714559,-0.116856,-0.688602 AnkleRight:0.088217,0.709159,0.078356,0.695105 ElbowLeft:-0.038157,0.901082,-0.183481,-0.391062 ElbowRight:-0.008443,0.811126,0.175709,0.557789 FootLeft:0.000000,0.000000,0.000000,0.000000 FootRight:0.000000,0.000000,0.000000,0.000000 HandLeft:-0.126991,0.800555,-0.031274,0.584814 HandRight:0.096466,-0.637742,-0.121303,0.754497 HandTipLeft:0.000000,0.000000,0.000000,0.000000 HandTipRight:0.000000,0.000000,0.000000,0.000000 Head:0.000000,0.000000,0.000000,0.000000 HipLeft:0.105083,-0.680417,0.706981,-0.161767 HipRight:-0.128227,0.671692,0.704454,-0.190086 KneeLeft:0.042544,-0.693990,0.070000,0.715310 KneeRight:-0.010462,0.718601,0.042360,0.694052 Neck:0.003538,-0.011196,0.995825,-0.090529 ShoulderLeft:0.023517,0.778545,-0.623567,0.066926 ShoulderRight:0.029100,0.786059,0.614589,-0.059529 SpineBase:-0.016477,-0.007227,0.998624,-0.049254 SpineMid:-0.006604,-0.007713,0.998738,-0.049180 SpineShoulder:0.003465,-0.009774,0.997561,-0.069020 ThumbLeft:0.000000,0.000000,0.000000,0.000000 ThumbRight:0.000000,0.000000,0.000000,0.000000 WristLeft:-0.110470,0.805936,-0.088271,0.574867 WristRight:0.042417,-0.642451,-0.137792,0.752643 END:
KINECT_DATA POSITION:9.754731,-1.548980,9.543335 HEAD_JOINT1:0.980587,0.169449,-0.000000,0.098671 LARM_JOINT2:0.829765,0.000000,-0.045296,-0.556272 LARM_JOINT3:0.968304,0.000000,-0.186073,-0.166628 LLEG_JOINT2:0.996634,0.017625,0.000000,0.080069 LLEG_JOINT4:0.995971,0.088034,0.000000,-0.017089 RARM_JOINT2:0.799173,0.000000,-0.027705,0.600462 RARM_JOINT3:0.967754,0.000000,0.232443,0.097070 RLEG_JOINT2:0.999059,0.023030,0.000000,-0.036746 RLEG_JOINT4:0.994471,0.094002,0.000000,0.046816 WAIST:0.999858,0.000000,0.016847,-0.000611 WAIST_JOINT0:0.999934,0.000000,-0.002237,0.011237 WAIST_JOINT1:0.997223,0.074194,0.000000,-0.006423 END:
KINECT_DATA_Sensor  AnkleLeft:0.044026,0.752304,-0.114055,-0.647373 AnkleRight:0.088056,0.710172,0.077373,0.694202 ElbowLeft:-0.039701,0.898041,-0.183766,-0.397713 ElbowRight:-0.011040,0.813982,0.174814,0.553852 FootLeft:0.000000,0.000000,0.000000,0.000000 FootRight:0.000000,0.000000,0.000000,0.000000 HandLeft:-0.110638,0.824717,-0.035254,0.553497 HandRight:0.043166,-0.277935,-0.154313,0.947141 HandTipLeft:0.000000,0.000000,0.000000,0.000000 HandTipRight:0.000000,0.000000,0.000000,0.000000 Head:0.000000,0.000000,0.000000,0.000000 HipLeft:0.104966,-0.680323,0.707174,-0.161395 HipRight:-0.128993,0.671854,0.704155,-0.190102 KneeLeft:0.042477,-0.693582,0.069429,0.715765 KneeRight:-0.010794,0.718995,0.042542,0.693628 Neck:0.001667,-0.010739,0.995867,-0.090176 ShoulderLeft:0.023468,0.778918,-0.623204,0.065975 ShoulderRight:0.026619,0.786783,0.613583,-0.061480 SpineBase:-0.017054,-0.006677,0.998637,-0.048874 SpineMid:-0.007811,-0.007129,0.998752,-0.048810 SpineShoulder:0.001602,-0.009292,0.997595,-0.068669 ThumbLeft:0.000000,0.000000,0.000000,0.000000 ThumbRight:0.000000,0.000000,0.000000,0.000000 WristLeft:-0.113624,0.825884,-0.088236,0.545178 WristRight:-0.013116,-0.286090,-0.146978,0.946773 END:
KINECT_DATA POSITION:10.057318,-1.583760,9.715056 HEAD_JOINT1:0.982563,0.163230,-0.000000,0.089030 LARM_JOINT2:0.828718,0.000000,-0.046274,-0.557751 LARM_JOINT3:0.969722,0.000000,-0.183294,-0.161377 LLEG_JOINT2:0.996810,0.019142,0.000000,0.077475 LLEG_JOINT4:0.995965,0.087670,0.000000,-0.019160 RARM_JOINT2:0.803194,0.000000,-0.019003,0.595414 RARM_JOINT3:0.951812,0.000000,0.278328,0.128790 RLEG_JOINT2:0.998967,0.023371,0.000000,-0.038967 RLEG_JOINT4:0.994156,0.097644,0.000000,0.046044 WAIST:0.999781,-0.000000,0.020923,0.000064 WAIST_JOINT0:0.999882,-0.000000,0.006561,0.013922 WAIST_JOINT1:0.997320,0.073007,0.000000,-0.004734 END:
KINECT_DATA_Sensor  AnkleLeft:0.047480,0.747659,-0.111610,-0.652913 AnkleRight:0.091297,0.733413,0.079405,0.668929 ElbowLeft:-0.042446,0.892855,-0.183313,-0.409152 ElbowRight:-0.014604,0.835860,0.173916,0.520460 FootLeft:0.000000,0.000000,0.000000,0.000000 FootRight:0.000000,0.000000,0.000000,0.000000 HandLeft:-0.106558,0.844535,-0.032402,0.523790 HandRight:0.135010,-0.409889,-0.201790,0.879229 HandTipLeft:0.000000,0.000000,0.000000,0.000000 HandTipRight:0.000000,0.000000,0.000000,0.000000 Head:0.000000,0.000000,0.000000,0.000000 HipLeft:0.103583,-0.680345,0.707890,-0.159039 HipRight:-0.133355,0.672044,0.702915,-0.191007 KneeLeft:0.039764,-0.690887,0.069264,0.718537 KneeRight:-0.011855,0.721747,0.043806,0.690668 Neck:-0.007438,-0.008443,0.995944,-0.089269 ShoulderLeft:0.027737,0.778059,-0.624813,0.058846 ShoulderRight:0.019186,0.789385,0.609786,-0.068298 SpineBase:-0.021061,-0.004282,0.998654,-0.047210 SpineMid:-0.014301,-0.004602,0.998773,-0.047180 SpineShoulder:-0.007452,-0.006769,0.997669,-0.067497 ThumbLeft:0.000000,0.000000,0.000000,0.000000 ThumbRight:0.000000,0.000000,0.000000,0.000000 WristLeft:-0.112809,0.844985,-0.091650,0.514660 WristRight:0.060698,-0.425334,-0.169052,0.887033 END:
KINECT_DATA POSITION:10.602693,-1.614281,9.918427 HEAD_JOINT1:0.984389,0.157626,-0.000000,0.078308 LARM_JOINT2:0.825993,0.000000,-0.043668,-0.561987 LARM_JOINT3:0.969255,0.000000,-0.188332,-0.158357 LLEG_JOINT2:0.997155,0.020563,0.000000,0.072520 LLEG_JOINT4:0.996030,0.086837,0.000000,-0.019598 RARM_JOINT2:0.803775,0.000000,0.044232,0.593287 RARM_JOINT3:0.934968,0.000000,0.330415,0.129073 RLEG_JOINT2:0.998738,0.023828,0.000000,-0.044215 RLEG_JOINT4:0.994112,0.098942,0.000000,0.044175 WAIST:0.999770,-0.000000,0.021407,0.001627 WAIST_JOINT0:0.999744,-0.000000,0.015584,0.016399 WAIST_JOINT1:0.997515,0.070358,0.000000,-0.003680 END:
KINECT_DATA_Sensor  AnkleLeft:0.048467,0.736287,-0.109792,-0.665942 AnkleRight:0.089319,0.739140,0.083822,0.662320 ElbowLeft:-0.043745,0.887951,-0.180773,-0.420655 ElbowRight:-0.053704,0.854655,0.143444,0.496089 FootLeft:0.000000,0.000000,0.000000,0.000000 FootRight:0.000000,0.000000,0.000000,0.000000 HandLeft:-0.117707,0.820441,-0.043130,0.557819 HandRight:-0.336297,0.844491,0.091947,-0.406553 HandTipLeft:0.000000,0.000000,0.000000,0.000000 HandTipRight:0.000000,0.000000,0.000000,0.000000 Head:0.000000,0.000000,0.000000,0.000000 HipLeft:0.104916,-0.679565,0.708758,-0.157627 HipRight:-0.136004,0.673700,0.701422,-0.188783 KneeLeft:0.036374,-0.690742,0.067789,0.718998 KneeRight:-0.014240,0.722039,0.046661,0.690130 Neck:-0.016772,-0.005216,0.996080,-0.086697 ShoulderLeft:0.032586,0.776498,-0.627318,0.049607 ShoulderRight:0.011985,0.791410,0.606732,-0.073502 SpineBase:-0.021554,-0.001496,0.998787,-0.044256 SpineMid:-0.019132,-0.001603,0.998836,-0.044252 SpineShoulder:-0.016732,-0.003469,0.997742,-0.064945 ThumbLeft:0.000000,0.000000,0.000000,0.000000 ThumbRight:0.000000,0.000000,0.000000,0.000000 WristLeft:-0.110772,0.823134,-0.100206,0.547849 WristRight:-0.248009,0.871678,0.083588,-0.414345 END:
KINECT_DATA POSITION:10.976351,-1.665895,10.027540 HEAD_JOINT1:0.985804,0.153532,-0.000000,0.067952 LARM_JOINT2:0.824106,0.000000,-0.037119,-0.565218 LARM_JOINT3:0.969428,0.000000,-0.186330,-0.159655 LLEG_JOINT2:0.997351,0.022842,0.000000,0.069067 LLEG_JOINT4:0.996131,0.086562,0.000000,-0.015196 RARM_JOINT2:0.806061,0.000000,0.135455,0.576123 RARM_JOINT3:0.948547,0.000000,0.300832,0.098790 RLEG_JOINT2:0.998601,0.022500,0.000000,-0.047851 RLEG_JOINT4:0.993680,0.101690,0.000000,0.047527 WAIST:0.999772,-0.000000,0.021318,0.001397 WAIST_JOINT0:0.999236,-0.000000,0.033571,0.020031 WAIST_JOINT1:0.997704,0.067695,0.000000,-0.001882 END:
KINECT_DATA_Sensor  AnkleLeft:0.052014,0.750917,-0.110517,-0.649003 AnkleRight:0.089348,0.733490,0.085825,0.668314 ElbowLeft:-0.043449,0.880380,-0.179654,-0.436770 ElbowRight:-0.115909,0.875610,0.108764,0.456116 FootLeft:0.000000,0.000000,0.000000,0.000000 FootRight:0.000000,0.000000,0.000000,0.000000 HandLeft:-0.107069,0.825139,-0.019811,0.554337 HandRight:-0.096511,0.374525,-0.344549,0.855396 HandTipLeft:0.000000,0.000000,0.000000,0.000000 HandTipRight:0.000000,0.000000,0.000000,0.000000 Head:0.000000,0.000000,0.000000,0.000000 HipLeft:0.106091,-0.679828,0.708513,-0.156803 HipRight:-0.138126,0.674174,0.701223,-0.186272 KneeLeft:0.032171,-0.691104,0.066708,0.718951 KneeRight:-0.017945,0.721815,0.048385,0.690159 Neck:-0.035155,-0.002155,0.995877,-0.083593 ShoulderLeft:0.037202,0.775507,-0.629084,0.038193 ShoulderRight:-0.007122,0.795094,0.599674,-0.090361 SpineBase:-0.021341,0.000922,0.998901,-0.041720 SpineMid:-0.028107,0.001205,0.998733,-0.041713 SpineShoulder:-0.035112,-0.000626,0.997425,-0.062530 ThumbLeft:0.000000,0.000000,0.000000,0.000000 ThumbRight:0.000000,0.000000,0.000000,0.000000 WristLeft:-0.112404,0.827682,-0.104409,0.539822 WristRight:-0.079321,0.384306,-0.284652,0.874637 END:
KINECT_DATA POSITION:11.236372,-1.670226,10.022783 HEAD_JOINT1:0.985799,0.155980,-0.000000,0.062211 LARM_JOINT2:0.821086,0.000000,-0.025109,-0.570252 LARM_JOINT3:0.969748,0.000000,-0.186395,-0.157627 LLEG_JOINT2:0.997580,0.022851,0.000000,0.065666 LLEG_JOINT4:0.996249,0.085616,0.000000,-0.012540 RARM_JOINT2:0.804476,0.000000,0.201538,0.558750 RARM_JOINT3:0.957663,0.000000,0.277394,0.077028 RLEG_JOINT2:0.998430,0.022003,0.000000,-0.051502 RLEG_JOINT4:0.993440,0.103384,0.000000,0.048879 WAIST:0.999724,-0.000000,0.023336,0.002799 WAIST_JOINT0:0.998380,-0.000000,0.051733,0.023696 WAIST_JOINT1:0.997842,0.065656,0.000000,-0.000388 END:
KINECT_DATA_Sensor  AnkleLeft:-0.040190,-0.683549,0.114760,0.719705 AnkleRight:0.088760,0.729860,0.088063,0.672064 ElbowLeft:-0.037774,0.871475,-0.180340,-0.454513 ElbowRight:-0.162020,0.881735,0.078672,0.436009 FootLeft:0.000000,0.000000,0.000000,0.000000 FootRight:0.000000,0.000000,0.000000,0.000000 HandLeft:-0.101885,0.767976,-0.021671,0.631951 HandRight:-0.116002,0.422199,-0.336675,0.833632 HandTipLeft:0.000000,0.000000,0.000000,0.000000 HandTipRight:0.000000,0.000000,0.000000,0.000000 Head:0.000000,0.000000,0.000000,0.000000 HipLeft:0.105024,-0.679110,0.709594,-0.155742 HipRight:-0.140580,0.675142,0.699808,-0.186250 KneeLeft:0.030677,-0.689705,0.065303,0.720487 KneeRight:-0.020037,0.723158,0.049520,0.688614 Neck:-0.053300,0.003006,0.995306,-0.080724 ShoulderLeft:0.045090,0.773280,-0.631956,0.025222 ShoulderRight:-0.022911,0.796040,0.595510,-0.105650 SpineBase:-0.023353,0.003757,0.998888,-0.040783 SpineMid:-0.038138,0.004360,0.998433,-0.040723 SpineShoulder:-0.053361,0.002785,0.996725,-0.060700 ThumbLeft:0.000000,0.000000,0.000000,0.000000 ThumbRight:0.000000,0.000000,0.000000,0.000000 WristLeft:-0.095127,0.774784,-0.116573,0.614062 WristRight:-0.103086,0.428446,-0.311098,0.842037 END:
KINECT_DATA POSITION:11.404714,-1.705347,9.910118 HEAD_JOINT1:0.985442,0.160696,-0.000000,0.055508 LARM_JOINT2:0.819768,0.000000,-0.021608,-0.572287 LARM_JOINT3:0.967656,0.000000,-0.192960,-0.162508 LLEG_JOINT2:0.997874,0.021899,0.000000,0.061378 LLEG_JOINT4:0.996362,0.084445,0.000000,-0.011504 RARM_JOINT2:0.794015,0.000000,0.257786,0.550533 RARM_JOINT3:0.962569,0.000000,0.267648,0.042721 RLEG_JOINT2:0.998151,0.021887,0.000000,-0.056708 RLEG_JOINT4:0.993296,0.103233,0.000000,0.052015 WAIST:0.999674,-0.000000,0.024991,0.005253 WAIST_JOINT0:0.997628,-0.000000,0.062102,0.029694 WAIST_JOINT1:0.997921,0.064425,-0.000000,0.001836 END:
KINECT_DATA_Sensor  AnkleLeft:-0.038600,-0.677888,0.112884,0.725421 AnkleRight:0.088839,0.732310,0.087493,0.669459 ElbowLeft:-0.036475,0.871163,-0.183347,-0.454014 ElbowRight:-0.193387,0.866276,0.031872,0.459512 FootLeft:0.000000,0.000000,0.000000,0.000000 FootRight:0.000000,0.000000,0.000000,0.000000 HandLeft:-0.134143,0.803434,-0.021263,0.579696 HandRight:-0.115188,0.432065,-0.352554,0.822045 HandTipLeft:0.000000,0.000000,0.000000,0.000000 HandTipRight:0.000000,0.000000,0.000000,0.000000 Head:0.000000,0.000000,0.000000,0.000000 HipLeft:0.103459,-0.677571,0.711437,-0.155084 HipRight:-0.141904,0.676687,0.697950,-0.186608 KneeLeft:0.030050,-0.688472,0.063314,0.721869 KneeRight:-0.022237,0.724299,0.051261,0.687218 Neck:-0.063731,0.009345,0.994737,-0.079688 ShoulderLeft:0.042736,0.770911,-0.635101,0.022720 ShoulderRight:-0.039386,0.799062,0.588106,-0.118660 SpineBase:-0.025090,0.006514,0.998833,-0.040759 SpineMid:-0.044220,0.007294,0.998169,-0.040627 SpineShoulder:-0.063844,0.007507,0.996174,-0.059206 ThumbLeft:0.000000,0.000000,0.000000,0.000000 ThumbRight:0.000000,0.000000,0.000000,0.000000 WristLeft:-0.099185,0.814597,-0.110177,0.560763 WristRight:-0.121845,0.429544,-0.350246,0.823391 END:
KINECT_DATA POSITION:11.470201,-1.733175,9.851384 HEAD_JOINT1:0.984971,0.164083,-0.000000,0.053942 LARM_JOINT2:0.819050,0.000000,-0.023007,-0.573261 LARM_JOINT3:0.966935,0.000000,-0.193008,-0.166688 LLEG_JOINT2:0.998026,0.021998,0.000000,0.058815 LLEG_JOINT4:0.996437,0.083832,0.000000,-0.009204 RARM_JOINT2:0.778557,0.000000,0.309659,0.545857 RARM_JOINT3:0.972501,0.000000,0.232601,0.011792 RLEG_JOINT2:0.997949,0.022480,0.000000,-0.059941 RLEG_JOINT4:0.993073,0.104132,0.000000,0.054436 WAIST:0.999622,-0.000000,0.026605,0.006881 WAIST_JOINT0:0.997014,-0.000000,0.068926,0.034818 WAIST_JOINT1:0.997947,0.063991,-0.000000,0.002524 END:
KINECT_DATA_Sensor  AnkleLeft:0.052069,0.766676,-0.107495,-0.630827 AnkleRight:0.088592,0.720231,0.089764,0.682174 ElbowLeft:-0.036744,0.873479,-0.183951,-0.449274 ElbowRight:-0.213586,0.854795,-0.015502,0.472722 FootLeft:0.000000,0.000000,0.000000,0.000000 FootRight:0.000000,0.000000,0.000000,0.000000 HandLeft:-0.143140,0.821263,-0.013775,0.552131 HandRight:-0.117221,0.418642,-0.354818,0.827709 HandTipLeft:0.000000,0.000000,0.000000,0.000000 HandTipRight:0.000000,0.000000,0.000000,0.000000 Head:0.000000,0.000000,0.000000,0.000000 HipLeft:0.102436,-0.676708,0.712638,-0.154017 HipRight:-0.143251,0.677666,0.696598,-0.187080 KneeLeft:0.029272,-0.687276,0.062711,0.723092 KneeRight:-0.023107,0.725443,0.052728,0.685870 Neck:-0.070708,0.011866,0.994259,-0.079432 ShoulderLeft:0.040663,0.769392,-0.637104,0.021949 ShoulderRight:-0.050862,0.802020,0.581245,-0.127795 SpineBase:-0.026774,0.007941,0.998794,-0.040384 SpineMid:-0.048500,0.008818,0.997975,-0.040202 SpineShoulder:-0.070780,0.010048,0.995721,-0.058552 ThumbLeft:0.000000,0.000000,0.000000,0.000000 ThumbRight:0.000000,0.000000,0.000000,0.000000 WristLeft:-0.103412,0.833615,-0.105347,0.532254 WristRight:-0.124795,0.415050,-0.364587,0.824158 END:
KINECT_DATA POSITION:11.591296,-1.810584,9.813606 HEAD_JOINT1:0.983641,0.172145,-0.000000,0.053073 LARM_JOINT2:0.818248,0.000000,-0.025312,-0.574308 LARM_JOINT3:0.968513,0.000000,-0.186052,-0.165429 LLEG_JOINT2:0.998229,0.022065,0.000000,0.055245 LLEG_JOINT4:0.996464,0.083785,0.000000,-0.006366 RARM_JOINT2:0.774488,0.000000,0.302677,0.555477 RARM_JOINT3:0.967078,0.000000,0.254386,-0.006978 RLEG_JOINT2:0.997666,0.024141,0.000000,-0.063874 RLEG_JOINT4:0.993029,0.103836,0.000000,0.055787 WAIST:0.999536,-0.000000,0.029107,0.009007 WAIST_JOINT0:0.996272,-0.000000,0.076666,0.039550 WAIST_JOINT1:0.997917,0.064476,-0.000000,0.001884 END:
KINECT_DATA_Sensor  AnkleLeft:-0.035934,-0.669919,0.114550,0.732663 AnkleRight:0.089681,0.727441,0.090457,0.674243 ElbowLeft:-0.036210,0.875833,-0.183804,-0.444770 ElbowRight:-0.200911,0.831573,-0.029374,0.516970 FootLeft:0.000000,0.000000,0.000000,0.000000 FootRight:0.000000,0.000000,0.000000,0.000000 HandLeft:-0.113642,0.745715,-0.028311,0.655891 HandRight:-0.109452,0.400335,-0.342280,0.842969 HandTipLeft:0.000000,0.000000,0.000000,0.000000 HandTipRight:0.000000,0.000000,0.000000,0.000000 Head:0.000000,0.000000,0.000000,0.000000 HipLeft:0.100881,-0.675459,0.714225,-0.153170 HipRight:-0.145172,0.678690,0.694782,-0.188635 KneeLeft:0.028137,-0.685430,0.061717,0.724972 KneeRight:-0.023459,0.727244,0.055071,0.683764 Neck:-0.078464,0.013476,0.993611,-0.079993 ShoulderLeft:0.040135,0.768498,-0.638253,0.020822 ShoulderRight:-0.061786,0.804576,0.574331,-0.137782 SpineBase:-0.029370,0.009741,0.998699,-0.040525 SpineMid:-0.053589,0.010721,0.997693,-0.040276 SpineShoulder:-0.078514,0.011717,0.995107,-0.058831 ThumbLeft:0.000000,0.000000,0.000000,0.000000 ThumbRight:0.000000,0.000000,0.000000,0.000000 WristLeft:-0.090021,0.755670,-0.115961,0.638289 WristRight:-0.125664,0.391050,-0.400914,0.818875 END:
KINECT_DATA POSITION:11.687190,-1.834188,9.792387 HEAD_JOINT1:0.983164,0.175103,-0.000000,0.052218 LARM_JOINT2:0.818112,0.000000,-0.025908,-0.574475 LARM_JOINT3:0.968851,0.000000,-0.185660,-0.163885 LLEG_JOINT2:0.998385,0.021321,0.000000,0.052659 LLEG_JOINT4:0.996244,0.085977,0.000000,-0.010266 RARM_JOINT2:0.783119,0.000000,0.293034,0.548503 RARM_JOINT3:0.954624,0.000000,0.297814,0.000642 RLEG_JOINT2:0.997488,0.024481,0.000000,-0.066478 RLEG_JOINT4:0.992872,0.104430,0.000000,0.057441 WAIST:0.999502,-0.000000,0.029915,0.010024 WAIST_JOINT0:0.996226,-0.000000,0.077152,0.039771 WAIST_JOINT1:0.997872,0.065186,-0.000000,0.001543 END:
KINECT_DATA_Sensor  AnkleLeft:0.051209,0.735755,-0.107188,-0.666748 AnkleRight:0.093483,0.751437,0.087815,0.647219 ElbowLeft:-0.035918,0.875777,-0.184328,-0.444689 ElbowRight:-0.204104,0.835503,-0.014134,0.509977 FootLeft:0.000000,0.000000,0.000000,0.000000 FootRight:0.000000,0.000000,0.000000,0.000000 HandLeft:-0.112552,0.823478,-0.018310,0.555771 HandRight:-0.094700,0.382606,-0.393022,0.830770 HandTipLeft:0.000000,0.000000,0.000000,0.000000 HandTipRight:0.000000,0.000000,0.000000,0.000000 Head:0.000000,0.000000,0.000000,0.000000 HipLeft:0.099978,-0.674755,0.715024,-0.153138 HipRight:-0.145423,0.679206,0.694068,-0.189212 KneeLeft:0.027588,-0.684843,0.060058,0.725687 KneeRight:-0.024446,0.727804,0.056365,0.683028 Neck:-0.078971,0.013767,0.993494,-0.080894 ShoulderLeft:0.040824,0.768055,-0.638738,0.020961 ShoulderRight:-0.061781,0.804204,0.574654,-0.138604 SpineBase:-0.030224,0.010652,0.998645,-0.040991 SpineMid:-0.054236,0.011635,0.997630,-0.040723 SpineShoulder:-0.078975,0.012428,0.995026,-0.059432 ThumbLeft:0.000000,0.000000,0.000000,0.000000 ThumbRight:0.000000,0.000000,0.000000,0.000000 WristLeft:-0.102640,0.828747,-0.104024,0.540206 WristRight:-0.114268,0.371185,-0.429369,0.815357 END:
KINECT_DATA POSITION:12.017354,-1.752450,9.889221 HEAD_JOINT1:0.982602,0.178937,-0.000000,0.049751 LARM_JOINT2:0.817135,0.000000,-0.028063,-0.575763 LARM_JOINT3:0.967066,0.000000,-0.194373,-0.164323 LLEG_JOINT2:0.998624,0.022575,0.000000,0.047343 LLEG_JOINT4:0.996455,0.084040,0.000000,-0.003968 RARM_JOINT2:0.810420,0.000000,0.360116,0.462100 RARM_JOINT3:0.951815,0.000000,0.296123,0.079747 RLEG_JOINT2:0.997138,0.024379,0.000000,-0.071570 RLEG_JOINT4:0.992741,0.103269,0.000000,0.061653 WAIST:0.999421,-0.000000,0.032292,0.010704 WAIST_JOINT0:0.997401,-0.000000,0.063906,0.033281 WAIST_JOINT1:0.997742,0.067105,-0.000000,0.002888 END:
KINECT_DATA_Sensor  AnkleLeft:-0.040723,-0.676457,0.111720,0.726819 AnkleRight:0.088460,0.725188,0.091021,0.676751 ElbowLeft:-0.035171,0.875537,-0.184807,-0.445022 ElbowRight:-0.289544,0.905041,0.044926,0.308296 FootLeft:0.000000,0.000000,0.000000,0.000000 FootRight:0.000000,0.000000,0.000000,0.000000 HandLeft:-0.132889,0.759373,-0.047670,0.635155 HandRight:-0.103739,0.451183,-0.433787,0.772982 HandTipLeft:0.000000,0.000000,0.000000,0.000000 HandTipRight:0.000000,0.000000,0.000000,0.000000 Head:0.000000,0.000000,0.000000,0.000000 HipLeft:0.096991,-0.674361,0.715955,-0.152442 HipRight:-0.146109,0.679381,0.693515,-0.190079 KneeLeft:0.023396,-0.683271,0.057563,0.727516 KneeRight:-0.027896,0.729289,0.059228,0.681066 Neck:-0.066055,0.014104,0.994218,-0.083479 ShoulderLeft:0.045727,0.766526,-0.640169,0.023053 ShoulderRight:-0.039695,0.799094,0.587385,-0.121869 SpineBase:-0.032568,0.012751,0.998506,-0.041970 SpineMid:-0.048984,0.013440,0.997836,-0.041754 SpineShoulder:-0.065956,0.013463,0.995843,-0.061358 ThumbLeft:0.000000,0.000000,0.000000,0.000000 ThumbRight:0.000000,0.000000,0.000000,0.000000 WristLeft:-0.092667,0.769739,-0.113542,0.621307 WristRight:-0.086192,0.459599,-0.431430,0.771497 END:
KINECT_DATA POSITION:12.447844,-1.759460,9.904802 HEAD_JOINT1:0.982004,0.183723,-0.000000,0.043755 LARM_JOINT2:0.814943,0.000000,-0.033746,-0.578559 LARM_JOINT3:0.969041,0.000000,-0.182005,-0.166835 LLEG_JOINT2:0.999125,0.019441,0.000000,0.037044 LLEG_JOINT4:0.996592,0.082401,0.000000,0.003897 RARM_JOINT2:0.792552,0.000000,0.455166,0.405813 RARM_JOINT3:0.980424,0.000000,0.165084,0.107316 RLEG_JOINT2:0.996042,0.031405,0.000000,-0.083145 RLEG_JOINT4:0.993257,0.094933,0.000000,0.066545 WAIST:0.998937,-0.000000,0.043120,0.016274 WAIST_JOINT0:0.994309,-0.000000,0.096531,0.045061 WAIST_JOINT1:0.997437,0.071487,-0.000000,0.002852 END:
KINECT_DATA_Sensor  AnkleLeft:-0.034459,-0.658405,0.110667,0.743685 AnkleRight:0.085411,0.732374,0.091542,0.669294 ElbowLeft:-0.032991,0.873703,-0.186749,-0.447973 ElbowRight:-0.347944,0.932900,0.070400,0.060636 FootLeft:0.000000,0.000000,0.000000,0.000000 FootRight:0.000000,0.000000,0.000000,0.000000 HandLeft:-0.098384,0.813594,-0.008862,0.572980 HandRight:-0.121692,0.492042,-0.370241,0.778464 HandTipLeft:0.000000,0.000000,0.000000,0.000000 HandTipRight:0.000000,0.000000,0.000000,0.000000 Head:0.000000,0.000000,0.000000,0.000000 HipLeft:0.088822,-0.671326,0.720558,-0.149095 HipRight:-0.152761,0.680899,0.688318,-0.198141 KneeLeft:0.022162,-0.675272,0.051952,0.735403 KneeRight:-0.028404,0.736974,0.067947,0.671897 Neck:-0.098202,0.021626,0.991012,-0.088224 ShoulderLeft:0.051847,0.763012,-0.644126,0.015013 ShoulderRight:-0.077002,0.800962,0.571422,-0.161266 SpineBase:-0.043657,0.017534,0.997904,-0.044432 SpineMid:-0.070437,0.018721,0.996372,-0.043945 SpineShoulder:-0.098200,0.019289,0.992862,-0.064874 ThumbLeft:0.000000,0.000000,0.000000,0.000000 ThumbRight:0.000000,0.000000,0.000000,0.000000 WristLeft:-0.098668,0.818279,-0.105898,0.556299 WristRight:-0.084376,0.506769,-0.364371,0.776724 END:
KINECT_DATA POSITION:12.857491,-1.762938,9.823060 HEAD_JOINT1:0.981734,0.186505,-0.000000,0.037618 LARM_JOINT2:0.811419,0.000000,-0.027436,-0.583820 LARM_JOINT3:0.969589,0.000000,-0.181378,-0.164316 LLEG_JOINT2:0.999609,0.013266,0.000000,0.024619 LLEG_JOINT4:0.996363,0.084656,0.000000,0.009654 RARM_JOINT2:0.782856,0.000000,0.416012,0.462678 RARM_JOINT3:0.984852,0.000000,0.169768,0.035299 RLEG_JOINT2:0.994779,0.038062,0.000000,-0.094691 RLEG_JOINT4:0.993148,0.089975,0.000000,0.074579 WAIST:0.997982,-0.000000,0.059191,0.022980 WAIST_JOINT0:0.990999,-0.000000,0.121792,0.055574 WAIST_JOINT1:0.996959,0.077702,-0.000000,0.005973 END:
KINECT_DATA_Sensor  AnkleLeft:-0.032369,-0.643372,0.107218,0.757317 AnkleRight:0.086021,0.736504,0.092365,0.664554 ElbowLeft:-0.023175,0.860388,-0.194455,-0.470513 ElbowRight:-0.292540,0.909457,-0.031597,0.293787 FootLeft:0.000000,0.000000,0.000000,0.000000 FootRight:0.000000,0.000000,0.000000,0.000000 HandLeft:-0.079276,0.831975,-0.006416,0.549082 HandRight:-0.111437,0.463976,-0.340661,0.810098 HandTipLeft:0.000000,0.000000,0.000000,0.000000 HandTipRight:0.000000,0.000000,0.000000,0.000000 Head:0.000000,0.000000,0.000000,0.000000 HipLeft:0.074253,-0.667673,0.727042,-0.141808 HipRight:-0.160185,0.682088,0.682594,-0.207756 KneeLeft:0.022643,-0.663395,0.043466,0.746663 KneeRight:-0.029084,0.748161,0.075251,0.658594 Neck:-0.123929,0.032656,0.987294,-0.093948 ShoulderLeft:0.066038,0.755385,-0.651917,0.006057 ShoulderRight:-0.098456,0.800070,0.560558,-0.189655 SpineBase:-0.060040,0.023952,0.996747,-0.048140 SpineMid:-0.091438,0.025458,0.994358,-0.047361 SpineShoulder:-0.124038,0.028062,0.989374,-0.070473 ThumbLeft:0.000000,0.000000,0.000000,0.000000 ThumbRight:0.000000,0.000000,0.000000,0.000000 WristLeft:-0.087831,0.834145,-0.107718,0.533745 WristRight:-0.100165,0.463537,-0.384638,0.791931 END:
KINECT_DATA POSITION:13.010338,-1.747041,9.788775 HEAD_JOINT1:0.981697,0.186357,-0.000000,0.039269 LARM_JOINT2:0.811298,0.000000,-0.023671,-0.584153 LARM_JOINT3:0.967520,0.000000,-0.192920,-0.163362 LLEG_JOINT2:0.999731,0.010091,0.000000,0.020884 LLEG_JOINT4:0.996199,0.086587,0.000000,0.009494 RARM_JOINT2:0.801595,0.000000,0.444044,0.400339 RARM_JOINT3:0.983914,0.000000,0.143619,0.106244 RLEG_JOINT2:0.994451,0.040025,0.000000,-0.097287 RLEG_JOINT4:0.993093,0.090293,0.000000,0.074921 WAIST:0.997666,-0.000000,0.063186,0.025869 WAIST_JOINT0:0.991188,-0.000000,0.119869,0.056380 WAIST_JOINT1:0.996909,0.078278,-0.000000,0.006675 END:
KINECT_DATA_Sensor  AnkleLeft:-0.032918,-0.644382,0.105155,0.756723 AnkleRight:0.085647,0.726473,0.095431,0.675126 ElbowLeft:-0.020298,0.858068,-0.198907,-0.473015 ElbowRight:-0.338218,0.937700,0.074693,0.027365 FootLeft:0.000000,0.000000,0.000000,0.000000 FootRight:0.000000,0.000000,0.000000,0.000000 HandLeft:-0.104365,0.725511,-0.059611,0.677635 HandRight:-0.109252,0.409653,-0.346876,0.836616 HandTipLeft:0.000000,0.000000,0.000000,0.000000 HandTipRight:0.000000,0.000000,0.000000,0.000000 Head:0.000000,0.000000,0.000000,0.000000 HipLeft:0.070902,-0.665775,0.729239,-0.141165 HipRight:-0.162493,0.683342,0.680101,-0.210004 KneeLeft:0.024496,-0.660425,0.040634,0.749392 KneeRight:-0.028043,0.751044,0.076229,0.655237 Neck:-0.122728,0.035249,0.987352,-0.093977 ShoulderLeft:0.072391,0.752455,-0.654647,0.002676 ShoulderRight:-0.090006,0.800317,0.563202,-0.184921 SpineBase:-0.064190,0.026652,0.996353,-0.049506 SpineMid:-0.092930,0.028070,0.994084,-0.048716 SpineShoulder:-0.122749,0.030981,0.989392,-0.071242 ThumbLeft:0.000000,0.000000,0.000000,0.000000 ThumbRight:0.000000,0.000000,0.000000,0.000000 WristLeft:-0.062480,0.734265,-0.120656,0.665126 WristRight:-0.040020,0.431478,-0.353117,0.829176 END:
KINECT_DATA POSITION:12.958556,-1.761961,9.824932 HEAD_JOINT1:0.979629,0.194105,-0.000000,0.051479 LARM_JOINT2:0.815523,0.000000,-0.039246,-0.577393 LARM_JOINT3:0.962616,0.000000,-0.200007,-0.182668 LLEG_JOINT2:0.999613,0.013003,0.000000,0.024609 LLEG_JOINT4:0.996113,0.087800,0.000000,0.007041 RARM_JOINT2:0.802294,0.000000,0.419518,0.424652 RARM_JOINT3:0.978390,0.000000,0.195253,0.068039 RLEG_JOINT2:0.994803,0.038430,0.000000,-0.094291 RLEG_JOINT4:0.993336,0.090543,0.000000,0.071310 WAIST:0.998246,-0.000000,0.053902,0.024487 WAIST_JOINT0:0.992980,-0.000000,0.105595,0.053299 WAIST_JOINT1:0.997400,0.072002,-0.000000,0.002884 END:
KINECT_DATA_Sensor  AnkleLeft:-0.035531,-0.652744,0.108272,0.748959 AnkleRight:0.087638,0.743699,0.092170,0.656305 ElbowLeft:-0.034006,0.878046,-0.194631,-0.435888 ElbowRight:-0.326905,0.926211,0.033141,0.184844 FootLeft:0.000000,0.000000,0.000000,0.000000 FootRight:0.000000,0.000000,0.000000,0.000000 HandLeft:-0.157428,0.747399,-0.052612,0.643307 HandRight:-0.158771,0.462564,-0.378133,0.786029 HandTipLeft:0.000000,0.000000,0.000000,0.000000 HandTipRight:0.000000,0.000000,0.000000,0.000000 Head:0.000000,0.000000,0.000000,0.000000 HipLeft:0.079926,-0.665979,0.726901,-0.147306 HipRight:-0.158167,0.684362,0.681589,-0.205104 KneeLeft:0.024043,-0.667236,0.044312,0.743138 KneeRight:-0.026994,0.744824,0.074428,0.662547 Neck:-0.108279,0.028050,0.990019,-0.085742 ShoulderLeft:0.060249,0.754285,-0.653712,0.009263 ShoulderRight:-0.082578,0.801356,0.567780,-0.169222 SpineBase:-0.054871,0.024834,0.997026,-0.048075 SpineMid:-0.080958,0.026084,0.995248,-0.047409 SpineShoulder:-0.108062,0.026923,0.991596,-0.065841 ThumbLeft:0.000000,0.000000,0.000000,0.000000 ThumbRight:0.000000,0.000000,0.000000,0.000000 WristLeft:-0.093444,0.762917,-0.114172,0.629437 WristRight:-0.088545,0.487034,-0.390836,0.776019 END:
KINECT_DATA POSITION:12.885745,-1.789968,9.853065 HEAD_JOINT1:0.978550,0.197901,-0.000000,0.057223 LARM_JOINT2:0.815980,0.000000,-0.038475,-0.576798 LARM_JOINT3:0.965411,0.000000,-0.185006,-0.183721 LLEG_JOINT2:0.999500,0.014972,0.000000,0.027859 LLEG_JOINT4:0.996090,0.088180,0.000000,0.005424 RARM_JOINT2:0.807426,0.000000,0.426047,0.408102 RARM_JOINT3:0.969210,0.000000,0.226321,0.097008 RLEG_JOINT2:0.995086,0.036498,0.000000,-0.092042 RLEG_JOINT4:0.993459,0.090369,0.000000,0.069808 WAIST:0.998690,-0.000000,0.046079,0.022259 WAIST_JOINT0:0.994574,-0.000000,0.090574,0.051172 WAIST_JOINT1:0.997689,0.067946,0.000000,-0.000019 END:
KINECT_DATA_Sensor  AnkleLeft:-0.037463,-0.661440,0.109749,0.740978 AnkleRight:0.085769,0.736571,0.091449,0.664639 ElbowLeft:-0.035714,0.884809,-0.189532,-0.424164 ElbowRight:-0.343590,0.923104,0.055359,0.163588 FootLeft:0.000000,0.000000,0.000000,0.000000 FootRight:0.000000,0.000000,0.000000,0.000000 HandLeft:-0.118462,0.690409,-0.032178,0.712928 HandRight:-0.135289,0.504280,-0.407218,0.749381 HandTipLeft:0.000000,0.000000,0.000000,0.000000 HandTipRight:0.000000,0.000000,0.000000,0.000000 Head:0.000000,0.000000,0.000000,0.000000 HipLeft:0.087063,-0.667109,0.724449,-0.150195 HipRight:-0.154129,0.684683,0.683817,-0.199618 KneeLeft:0.023412,-0.672985,0.046411,0.737827 KneeRight:-0.027502,0.739421,0.073394,0.668665 Neck:-0.092821,0.022470,0.992003,-0.082524 ShoulderLeft:0.049014,0.757491,-0.650792,0.016575 ShoulderRight:-0.072890,0.804062,0.569831,-0.153177 SpineBase:-0.046957,0.022110,0.997604,-0.045748 SpineMid:-0.069298,0.023129,0.996301,-0.045241 SpineShoulder:-0.092596,0.022003,0.993535,-0.061893 ThumbLeft:0.000000,0.000000,0.000000,0.000000 ThumbRight:0.000000,0.000000,0.000000,0.000000 WristLeft:-0.090015,0.703281,-0.117354,0.695357 WristRight:-0.097530,0.520491,-0.403612,0.746107 END:
KINECT_DATA POSITION:12.868975,-1.800682,9.883392 HEAD_JOINT1:0.978827,0.197152,-0.000000,0.055039 LARM_JOINT2:0.815335,0.000000,-0.034259,-0.577975 LARM_JOINT3:0.968657,0.000000,-0.176170,-0.175122 LLEG_JOINT2:0.999466,0.015429,0.000000,0.028791 LLEG_JOINT4:0.996078,0.088324,0.000000,0.005297 RARM_JOINT2:0.805020,0.000000,0.446902,0.390156 RARM_JOINT3:0.971889,0.000000,0.205551,0.114804 RLEG_JOINT2:0.995149,0.036541,0.000000,-0.091338 RLEG_JOINT4:0.993621,0.089295,0.000000,0.068874 WAIST:0.998794,-0.000000,0.044035,0.021691 WAIST_JOINT0:0.994563,-0.000000,0.090916,0.050772 WAIST_JOINT1:0.997704,0.067731,-0.000000,0.000146 END:
KINECT_DATA_Sensor  AnkleLeft:-0.037332,-0.661300,0.110532,0.740993 AnkleRight:0.086113,0.745529,0.089813,0.654755 ElbowLeft:-0.033205,0.883964,-0.189130,-0.426304 ElbowRight:-0.359150,0.925307,0.075306,0.095641 FootLeft:0.000000,0.000000,0.000000,0.000000 FootRight:0.000000,0.000000,0.000000,0.000000 HandLeft:-0.091794,0.804373,-0.014464,0.586812 HandRight:-0.137237,0.517133,-0.396099,0.746221 HandTipLeft:0.000000,0.000000,0.000000,0.000000 HandTipRight:0.000000,0.000000,0.000000,0.000000 Head:0.000000,0.000000,0.000000,0.000000 HipLeft:0.089027,-0.667441,0.723800,-0.150699 HipRight:-0.153493,0.684670,0.684327,-0.198402 KneeLeft:0.023364,-0.674473,0.046989,0.736433 KneeRight:-0.027172,0.738039,0.073438,0.670199 Neck:-0.093013,0.022500,0.991989,-0.082468 ShoulderLeft:0.048468,0.757798,-0.650476,0.016524 ShoulderRight:-0.073749,0.803698,0.570150,-0.153488 SpineBase:-0.044896,0.021217,0.997755,-0.044939 SpineMid:-0.068380,0.022269,0.996421,-0.044427 SpineShoulder:-0.092803,0.021848,0.993537,-0.061597 ThumbLeft:0.000000,0.000000,0.000000,0.000000 ThumbRight:0.000000,0.000000,0.000000,0.000000 WristLeft:-0.100036,0.807070,-0.100684,0.573143 WristRight:-0.094079,0.535017,-0.391172,0.742893 END:
KINECT_DATA POSITION:12.900831,-1.824451,9.903431 HEAD_JOINT1:0.979479,0.194607,-0.000000,0.052426 LARM_JOINT2:0.814035,0.000000,-0.022901,-0.580364 LARM_JOINT3:0.969500,0.000000,-0.176528,-0.170021 LLEG_JOINT2:0.999497,0.015365,0.000000,0.027752 LLEG_JOINT4:0.995792,0.091448,0.000000,0.005994 RARM_JOINT2:0.784608,0.000000,0.434169,0.442592 RARM_JOINT3:0.979884,0.000000,0.193324,0.049530 RLEG_JOINT2:0.995022,0.036999,0.000000,-0.092533 RLEG_JOINT4:0.993911,0.088429,0.000000,0.065741 WAIST:0.998704,-0.000000,0.045610,0.022583 WAIST_JOINT0:0.993367,-0.000000,0.101522,0.054000 WAIST_JOINT1:0.997709,0.067650,-0.000000,0.001070 END:
KINECT_DATA_Sensor  AnkleLeft:-0.038581,-0.654860,0.113144,0.746236 AnkleRight:0.085748,0.765057,0.089598,0.631908 ElbowLeft:-0.028060,0.873722,-0.191574,-0.446231 ElbowRight:-0.324104,0.904507,-0.021472,0.276338 FootLeft:0.000000,0.000000,0.000000,0.000000 FootRight:0.000000,0.000000,0.000000,0.000000 HandLeft:-0.091124,0.757943,-0.018399,0.645663 HandRight:-0.138866,0.537463,-0.357148,0.751196 HandTipLeft:0.000000,0.000000,0.000000,0.000000 HandTipRight:0.000000,0.000000,0.000000,0.000000 Head:0.000000,0.000000,0.000000,0.000000 HipLeft:0.088368,-0.667071,0.724455,-0.149573 HipRight:-0.155048,0.685017,0.683398,-0.199196 KneeLeft:0.023293,-0.673281,0.046820,0.737535 KneeRight:-0.027251,0.739156,0.073890,0.668914 Neck:-0.103084,0.025834,0.990927,-0.082277 ShoulderLeft:0.050621,0.757316,-0.650975,0.011894 ShoulderRight:-0.085346,0.804223,0.564855,-0.163953 SpineBase:-0.046512,0.021790,0.997690,-0.044448 SpineMid:-0.074224,0.023017,0.996012,-0.043825 SpineShoulder:-0.102970,0.023783,0.992514,-0.061220 ThumbLeft:0.000000,0.000000,0.000000,0.000000 ThumbRight:0.000000,0.000000,0.000000,0.000000 WristLeft:-0.079659,0.765218,-0.111611,0.628998 WristRight:-0.141863,0.530087,-0.408768,0.729240 END:
KINECT_DATA POSITION:12.972885,-1.816075,9.858238 HEAD_JOINT1:0.980524,0.191070,-0.000000,0.045434 LARM_JOINT2:0.811533,0.000000,-0.022079,-0.583890 LARM_JOINT3:0.970323,0.000000,-0.173882,-0.168043 LLEG_JOINT2:0.999618,0.014167,0.000000,0.023726 LLEG_JOINT4:0.996062,0.088366,0.000000,0.007195 RARM_JOINT2:0.789224,0.000000,0.452689,0.414968 RARM_JOINT3:0.985560,0.000000,0.150679,0.077244 RLEG_JOINT2:0.994575,0.037758,0.000000,-0.096928 RLEG_JOINT4:0.993459,0.090932,0.000000,0.069072 WAIST:0.998382,-0.000000,0.050973,0.025220 WAIST_JOINT0:0.991777,-0.000000,0.113848,0.058447 WAIST_JOINT1:0.997609,0.068926,-0.000000,0.005146 END:
KINECT_DATA_Sensor  AnkleLeft:-0.035497,-0.647905,0.109898,0.752915 AnkleRight:0.085355,0.746272,0.093970,0.653423 ElbowLeft:-0.026521,0.870031,-0.194552,-0.452208 ElbowRight:-0.346678,0.925823,0.017658,0.149516 FootLeft:0.000000,0.000000,0.000000,0.000000 FootRight:0.000000,0.000000,0.000000,0.000000 HandLeft:-0.091631,0.817630,-0.009701,0.568323 HandRight:-0.155896,0.536312,-0.318057,0.766098 HandTipLeft:0.000000,0.000000,0.000000,0.000000 HandTipRight:0.000000,0.000000,0.000000,0.000000 Head:0.000000,0.000000,0.000000,0.000000 HipLeft:0.083339,-0.665472,0.727289,-0.145780 HipRight:-0.157870,0.685681,0.681513,-0.201146 KneeLeft:0.023190,-0.669308,0.044933,0.741262 KneeRight:-0.028611,0.742852,0.075321,0.664589 Neck:-0.115783,0.033621,0.989152,-0.083918 ShoulderLeft:0.059187,0.753000,-0.655344,0.003462 ShoulderRight:-0.094089,0.803927,0.560700,-0.174540 SpineBase:-0.051978,0.024491,0.997348,-0.044661 SpineMid:-0.083335,0.025885,0.995219,-0.043869 SpineShoulder:-0.115661,0.030306,0.990897,-0.061863 ThumbLeft:0.000000,0.000000,0.000000,0.000000 ThumbRight:0.000000,0.000000,0.000000,0.000000 WristLeft:-0.080819,0.823166,-0.106264,0.551882 WristRight:-0.121625,0.540263,-0.383869,0.738896 END:
KINECT_DATA POSITION:12.977149,-1.807377,9.825504 HEAD_JOINT1:0.981109,0.188310,-0.000000,0.044316 LARM_JOINT2:0.811577,0.000000,-0.024450,-0.583734 LARM_JOINT3:0.969265,0.000000,-0.176687,-0.171195 LLEG_JOINT2:0.999656,0.013497,0.000000,0.022496 LLEG_JOINT4:0.995925,0.089978,0.000000,0.006173 RARM_JOINT2:0.786165,0.000000,0.450525,0.423051 RARM_JOINT3:0.988307,0.000000,0.136849,0.067243 RLEG_JOINT2:0.994416,0.038524,0.000000,-0.098248 RLEG_JOINT4:0.993499,0.089562,0.000000,0.070268 WAIST:0.998204,-0.000000,0.053955,0.026017 WAIST_JOINT0:0.991388,-0.000000,0.116853,0.059129 WAIST_JOINT1:0.997565,0.069422,-0.000000,0.006698 END:
KINECT_DATA_Sensor  AnkleLeft:0.050923,0.735734,-0.103685,-0.667347 AnkleRight:0.084082,0.741501,0.094128,0.658974 ElbowLeft:-0.026480,0.872515,-0.196499,-0.446547 ElbowRight:-0.339847,0.924745,0.001831,0.171308 FootLeft:0.000000,0.000000,0.000000,0.000000 FootRight:0.000000,0.000000,0.000000,0.000000 HandLeft:-0.114645,0.794159,-0.020931,0.596431 HandRight:-0.162792,0.557328,-0.295022,0.758846 HandTipLeft:0.000000,0.000000,0.000000,0.000000 HandTipRight:0.000000,0.000000,0.000000,0.000000 Head:0.000000,0.000000,0.000000,0.000000 HipLeft:0.080570,-0.665044,0.728395,-0.143754 HipRight:-0.159375,0.685802,0.680863,-0.201747 KneeLeft:0.023348,-0.667139,0.044149,0.743257 KneeRight:-0.028788,0.744892,0.076077,0.662208 Neck:-0.119281,0.035337,0.988631,-0.084451 ShoulderLeft:0.061945,0.751808,-0.656466,0.001002 ShoulderRight:-0.095969,0.803891,0.559574,-0.177274 SpineBase:-0.054946,0.026161,0.997147,-0.044654 SpineMid:-0.086521,0.027563,0.994905,-0.043802 SpineShoulder:-0.119066,0.032623,0.990395,-0.062264 ThumbLeft:0.000000,0.000000,0.000000,0.000000 ThumbRight:0.000000,0.000000,0.000000,0.000000 WristLeft:-0.073654,0.804825,-0.107962,0.578944 WristRight:-0.137778,0.557549,-0.375168,0.727603 END:
KINECT_DATA POSITION:12.981767,-1.808541,9.796333 HEAD_JOINT1:0.981882,0.183509,-0.000000,0.047249 LARM_JOINT2:0.812006,0.000000,-0.026696,-0.583039 LARM_JOINT3:0.967455,0.000000,-0.183905,-0.173812 LLEG_JOINT2:0.999698,0.012934,0.000000,0.020903 LLEG_JOINT4:0.996008,0.088847,0.000000,0.008573 RARM_JOINT2:0.782049,0.000000,0.441761,0.439599 RARM_JOINT3:0.990151,0.000000,0.126793,0.059362 RLEG_JOINT2:0.994291,0.039097,0.000000,-0.099285 RLEG_JOINT4:0.993478,0.089185,0.000000,0.071044 WAIST:0.998074,-0.000000,0.056000,0.026685 WAIST_JOINT0:0.991139,-0.000000,0.118666,0.059684 WAIST_JOINT1:0.997597,0.068972,-0.000000,0.006644 END:
KINECT_DATA_Sensor  AnkleLeft:-0.035445,-0.644948,0.109050,0.755575 AnkleRight:0.085200,0.749462,0.093248,0.649887 ElbowLeft:-0.028031,0.873196,-0.197029,-0.444885 ElbowRight:-0.325620,0.923579,-0.014663,0.201885 FootLeft:0.000000,0.000000,0.000000,0.000000 FootRight:0.000000,0.000000,0.000000,0.000000 HandLeft:-0.133585,0.745074,-0.044967,0.651918 HandRight:-0.156120,0.566030,-0.272322,0.762284 HandTipLeft:0.000000,0.000000,0.000000,0.000000 HandTipRight:0.000000,0.000000,0.000000,0.000000 Head:0.000000,0.000000,0.000000,0.000000 HipLeft:0.079222,-0.664754,0.729084,-0.142347 HipRight:-0.160795,0.685986,0.680174,-0.202315 KneeLeft:0.023127,-0.665645,0.043069,0.744666 KneeRight:-0.028895,0.746302,0.076632,0.660550 Neck:-0.121013,0.035548,0.988470,-0.083779 ShoulderLeft:0.061718,0.752140,-0.656107,0.000090 ShoulderRight:-0.098488,0.804371,0.557917,-0.178933 SpineBase:-0.056996,0.027078,0.997023,-0.044311 SpineMid:-0.088371,0.028461,0.994733,-0.043437 SpineShoulder:-0.120768,0.033138,0.990197,-0.061864 ThumbLeft:0.000000,0.000000,0.000000,0.000000 ThumbRight:0.000000,0.000000,0.000000,0.000000 WristLeft:-0.068510,0.759635,-0.114150,0.636578 WristRight:-0.142547,0.562199,-0.366234,0.727657 END:
KINECT_DATA POSITION:13.018190,-1.793286,9.694279 HEAD_JOINT1:0.982171,0.181722,-0.000000,0.048133 LARM_JOINT2:0.812094,0.000000,-0.028940,-0.582809 LARM_JOINT3:0.969036,0.000000,-0.174646,-0.174554 LLEG_JOINT2:0.999737,0.012777,0.000000,0.019068 LLEG_JOINT4:0.995850,0.090431,0.000000,0.010253 RARM_JOINT2:0.781250,0.000000,0.441189,0.441589 RARM_JOINT3:0.990022,0.000000,0.127500,0.059994 RLEG_JOINT2:0.994147,0.040544,0.000000,-0.100141 RLEG_JOINT4:0.993560,0.088203,0.000000,0.071124 WAIST:0.997940,-0.000000,0.057762,0.027925 WAIST_JOINT0:0.991167,-0.000000,0.118774,0.059003 WAIST_JOINT1:0.997637,0.068403,-0.000000,0.006416 END:
KINECT_DATA_Sensor  AnkleLeft:-0.036073,-0.644846,0.110597,0.755408 AnkleRight:0.085213,0.747999,0.093700,0.651503 ElbowLeft:-0.029290,0.874873,-0.197425,-0.441320 ElbowRight:-0.324763,0.932121,-0.003166,0.160217 FootLeft:0.000000,0.000000,0.000000,0.000000 FootRight:0.000000,0.000000,0.000000,0.000000 HandLeft:-0.107058,0.736495,-0.028621,0.667304 HandRight:-0.169302,0.550666,-0.299057,0.760703 HandTipLeft:0.000000,0.000000,0.000000,0.000000 HandTipRight:0.000000,0.000000,0.000000,0.000000 Head:0.000000,0.000000,0.000000,0.000000 HipLeft:0.078507,-0.664031,0.729981,-0.141518 HipRight:-0.162571,0.686570,0.678953,-0.203016 KneeLeft:0.022860,-0.664326,0.042478,0.745885 KneeRight:-0.027852,0.747628,0.077326,0.659012 Neck:-0.121256,0.036190,0.988478,-0.083057 ShoulderLeft:0.061077,0.751516,-0.656882,0.000053 ShoulderRight:-0.099699,0.803407,0.559026,-0.179129 SpineBase:-0.058795,0.028416,0.996901,-0.043859 SpineMid:-0.089365,0.029749,0.994627,-0.042966 SpineShoulder:-0.120979,0.033956,0.990177,-0.061331 ThumbLeft:0.000000,0.000000,0.000000,0.000000 ThumbRight:0.000000,0.000000,0.000000,0.000000 WristLeft:-0.067559,0.748330,-0.115402,0.649708 WristRight:-0.125894,0.558241,-0.358954,0.737340 END:
KINECT_DATA POSITION:13.096931,-1.789716,9.615493 HEAD_JOINT1:0.982107,0.181826,-0.000000,0.049039 LARM_JOINT2:0.811108,0.000000,-0.026904,-0.584278 LARM_JOINT3:0.969612,0.000000,-0.172666,-0.173315 LLEG_JOINT2:0.999758,0.013077,0.000000,0.017697 LLEG_JOINT4:0.996043,0.088306,0.000000,0.010011 RARM_JOINT2:0.780085,0.000000,0.440075,0.444749 RARM_JOINT3:0.985803,0.000000,0.156961,0.059623 RLEG_JOINT2:0.993941,0.039530,0.000000,-0.102564 RLEG_JOINT4:0.993604,0.087740,0.000000,0.071081 WAIST:0.997941,-0.000000,0.057156,0.029107 WAIST_JOINT0:0.991227,-0.000000,0.118677,0.058183 WAIST_JOINT1:0.997719,0.067285,-0.000000,0.005390 END:
KINECT_DATA_Sensor  AnkleLeft:-0.034865,-0.645163,0.109056,0.755418 AnkleRight:0.082317,0.740975,0.094266,0.659768 ElbowLeft:-0.028769,0.874240,-0.196149,-0.443173 ElbowRight:-0.323049,0.928249,-0.012855,0.183926 FootLeft:0.000000,0.000000,0.000000,0.000000 FootRight:0.000000,0.000000,0.000000,0.000000 HandLeft:-0.101017,0.740779,-0.025220,0.663631 HandRight:-0.150622,0.570309,-0.361372,0.722129 HandTipLeft:0.000000,0.000000,0.000000,0.000000 HandTipRight:0.000000,0.000000,0.000000,0.000000 Head:0.000000,0.000000,0.000000,0.000000 HipLeft:0.079600,-0.663289,0.730490,-0.141764 HipRight:-0.163111,0.687611,0.677941,-0.202440 KneeLeft:0.022577,-0.664734,0.042488,0.745529 KneeRight:-0.029447,0.747197,0.077386,0.659425 Neck:-0.121166,0.036250,0.988610,-0.081579 ShoulderLeft:0.059132,0.752189,-0.656289,-0.000016 ShoulderRight:-0.101600,0.803419,0.558721,-0.178958 SpineBase:-0.058238,0.029313,0.996943,-0.043048 SpineMid:-0.088997,0.030628,0.994669,-0.042123 SpineShoulder:-0.120866,0.034224,0.990250,-0.060212 ThumbLeft:0.000000,0.000000,0.000000,0.000000 ThumbRight:0.000000,0.000000,0.000000,0.000000 WristLeft:-0.068129,0.751545,-0.114699,0.646052 WristRight:-0.135564,0.575659,-0.365527,0.718769 END:
KINECT_DATA POSITION:12.764852,-1.802243,9.654593 HEAD_JOINT1:0.982662,0.179114,-0.000000,0.047888 LARM_JOINT2:0.812653,0.000000,-0.027935,-0.582078 LARM_JOINT3:0.967413,0.000000,-0.178147,-0.179934 LLEG_JOINT2:0.999577,0.012188,0.000000,0.026390 LLEG_JOINT4:0.996234,0.086648,0.000000,0.003062 RARM_JOINT2:0.821196,0.000000,0.442542,0.360270 RARM_JOINT3:0.933647,0.000000,0.306672,0.185083 RLEG_JOINT2:0.994069,0.041762,0.000000,-0.100409 RLEG_JOINT4:0.993886,0.085266,0.000000,0.070141 WAIST:0.997700,-0.000000,0.061353,0.028807 WAIST_JOINT0:0.991790,-0.000000,0.115990,0.053838 WAIST_JOINT1:0.998034,0.062567,-0.000000,0.003731 END:
KINECT_DATA_Sensor  AnkleLeft:0.047305,0.742066,-0.102499,-0.660752 AnkleRight:0.083283,0.750447,0.092948,0.649041 ElbowLeft:-0.031912,0.875947,-0.195209,-0.439990 ElbowRight:-0.376822,0.919379,0.098058,0.055961 FootLeft:0.000000,0.000000,0.000000,0.000000 FootRight:0.000000,0.000000,0.000000,0.000000 HandLeft:-0.139227,0.862340,-0.006668,0.486765 HandRight:-0.036629,0.574038,-0.521836,0.629941 HandTipLeft:0.000000,0.000000,0.000000,0.000000 HandTipRight:0.000000,0.000000,0.000000,0.000000 Head:0.000000,0.000000,0.000000,0.000000 HipLeft:0.084268,-0.663922,0.729602,-0.140670 HipRight:-0.170216,0.686491,0.676285,-0.205901 KneeLeft:0.028690,-0.661303,0.048204,0.748019 KneeRight:-0.026961,0.750136,0.077621,0.656158 Neck:-0.118805,0.033198,0.989421,-0.076348 ShoulderLeft:0.055122,0.753288,-0.655375,-0.001455 ShoulderRight:-0.102374,0.801818,0.562333,-0.174324 SpineBase:-0.062413,0.027088,0.996904,-0.039406 SpineMid:-0.089983,0.028169,0.994795,-0.038641 SpineShoulder:-0.118502,0.031733,0.990866,-0.055998 ThumbLeft:0.000000,0.000000,0.000000,0.000000 ThumbRight:0.000000,0.000000,0.000000,0.000000 WristLeft:-0.095034,0.873334,-0.097712,0.467663 WristRight:-0.052087,0.608158,-0.431102,0.664517 END:
KINECT_DATA POSITION:12.304941,-1.514414,9.586787 HEAD_JOINT1:0.984947,0.166923,-0.000000,0.044912 LARM_JOINT2:0.812725,0.000000,-0.025470,-0.582091 LARM_JOINT3:0.967957,0.000000,-0.183608,-0.171311 LLEG_JOINT2:0.999036,0.010628,0.000000,0.042600 LLEG_JOINT4:0.995945,0.089905,0.000000,-0.003166 RARM_JOINT2:0.844139,0.000000,0.404384,0.351999 RARM_JOINT3:0.867729,0.000000,0.443773,0.223857 RLEG_JOINT2:0.995583,0.040835,0.000000,-0.084540 RLEG_JOINT4:0.993795,0.085294,0.000000,0.071394 WAIST:0.997226,-0.000000,0.071974,0.018988 WAIST_JOINT0:0.992124,-0.000000,0.117153,0.044326 WAIST_JOINT1:0.998269,0.057806,-0.000000,0.010851 END:
KINECT_DATA_Sensor  AnkleLeft:-0.036858,-0.645904,0.108657,0.754747 AnkleRight:0.084147,0.733294,0.091691,0.668425 ElbowLeft:-0.036501,0.859035,-0.191472,-0.473355 ElbowRight:-0.378046,0.910059,0.106244,0.132610 FootLeft:0.000000,0.000000,0.000000,0.000000 FootRight:0.000000,0.000000,0.000000,0.000000 HandLeft:-0.117416,0.813060,-0.028790,0.569489 HandRight:-0.094459,-0.513178,0.542954,-0.657971 HandTipLeft:0.000000,0.000000,0.000000,0.000000 HandTipRight:0.000000,0.000000,0.000000,0.000000 Head:0.000000,0.000000,0.000000,0.000000 HipLeft:0.081477,-0.671385,0.724460,-0.133272 HipRight:-0.180185,0.678333,0.680836,-0.209428 KneeLeft:0.033206,-0.653537,0.052602,0.754334 KneeRight:-0.023570,0.756723,0.072901,0.649230 Neck:-0.119746,0.029211,0.989723,-0.072502 ShoulderLeft:0.056663,0.756015,-0.652045,-0.008257 ShoulderRight:-0.101538,0.795371,0.572666,-0.170673 SpineBase:-0.072317,0.024197,0.996459,-0.035421 SpineMid:-0.095519,0.025016,0.994503,-0.034848 SpineShoulder:-0.119481,0.028042,0.991065,-0.052226 ThumbLeft:0.000000,0.000000,0.000000,0.000000 ThumbRight:0.000000,0.000000,0.000000,0.000000 WristLeft:-0.093250,0.820747,-0.120346,0.550632 WristRight:-0.082381,-0.517454,0.523082,-0.672191 END:
KINECT_DATA POSITION:12.229535,-1.070351,9.490002 HEAD_JOINT1:0.986205,0.161560,-0.000000,0.036040 LARM_JOINT2:0.814869,0.000000,-0.007864,-0.579591 LARM_JOINT3:0.968522,0.000000,-0.188368,-0.162734 LLEG_JOINT2:0.998903,0.009028,0.000000,0.045947 LLEG_JOINT4:0.996022,0.089090,0.000000,0.001509 RARM_JOINT2:0.845135,0.000000,0.391394,0.364085 RARM_JOINT3:0.817082,0.000000,0.520845,0.247178 RLEG_JOINT2:0.995889,0.039262,0.000000,-0.081634 RLEG_JOINT4:0.993462,0.087416,0.000000,0.073429 WAIST:0.996103,-0.000000,0.086641,0.016486 WAIST_JOINT0:0.989721,-0.000000,0.135478,0.045814 WAIST_JOINT1:0.998415,0.054363,-0.000000,0.014536 END:
KINECT_DATA_Sensor  AnkleLeft:-0.033143,-0.635552,0.110697,0.763362 AnkleRight:0.090311,0.780636,0.086525,0.612344 ElbowLeft:-0.031588,0.834134,-0.199317,-0.513317 ElbowRight:-0.371549,0.911643,0.091552,0.149920 FootLeft:0.000000,0.000000,0.000000,0.000000 FootRight:0.000000,0.000000,0.000000,0.000000 HandLeft:-0.084320,0.811396,-0.043802,0.576722 HandRight:-0.217700,-0.510557,0.588885,-0.587497 HandTipLeft:0.000000,0.000000,0.000000,0.000000 HandTipRight:0.000000,0.000000,0.000000,0.000000 Head:0.000000,0.000000,0.000000,0.000000 HipLeft:0.074482,-0.674739,0.723862,-0.123304 HipRight:-0.191362,0.674913,0.679474,-0.214916 KneeLeft:0.034231,-0.642450,0.052660,0.763750 KneeRight:-0.025399,0.766069,0.071036,0.638316 Neck:-0.136496,0.030227,0.987733,-0.069563 ShoulderLeft:0.067949,0.757145,-0.649170,-0.026326 ShoulderRight:-0.111283,0.794616,0.569119,-0.179738 SpineBase:-0.086749,0.024893,0.995398,-0.032217 SpineMid:-0.111102,0.025674,0.992975,-0.031598 SpineShoulder:-0.136276,0.028511,0.989044,-0.049062 ThumbLeft:0.000000,0.000000,0.000000,0.000000 ThumbRight:0.000000,0.000000,0.000000,0.000000 WristLeft:-0.081659,0.813010,-0.136328,0.560144 WristRight:-0.149438,-0.499965,0.558702,-0.644636 END:
KINECT_DATA POSITION:12.292228,-0.771426,9.347010 HEAD_JOINT1:0.986886,0.158823,-0.000000,0.028824 LARM_JOINT2:0.813030,0.000000,-0.015434,-0.582017 LARM_JOINT3:0.968981,0.000000,-0.185410,-0.163398 LLEG_JOINT2:0.998962,0.006647,0.000000,0.045067 LLEG_JOINT4:0.996187,0.087238,0.000000,0.000833 RARM_JOINT2:0.841498,0.000000,0.388123,0.375822 RARM_JOINT3:0.798977,0.000000,0.546489,0.250970 RLEG_JOINT2:0.995670,0.039184,0.000000,-0.084299 RLEG_JOINT4:0.993242,0.089396,0.000000,0.074019 WAIST:0.995034,-0.000000,0.097803,0.018501 WAIST_JOINT0:0.987278,-0.000000,0.151001,0.049799 WAIST_JOINT1:0.998449,0.053435,-0.000000,0.015634 END:
KINECT_DATA_Sensor  AnkleLeft:-0.030450,-0.626566,0.107768,0.771281 AnkleRight:0.086056,0.758306,0.092816,0.639493 ElbowLeft:-0.034854,0.832233,-0.197135,-0.517021 ElbowRight:-0.364118,0.916197,0.076145,0.149003 FootLeft:0.000000,0.000000,0.000000,0.000000 FootRight:0.000000,0.000000,0.000000,0.000000 HandLeft:-0.107667,0.810319,-0.043326,0.574382 HandRight:-0.237846,-0.494890,0.597340,-0.584549 HandTipLeft:0.000000,0.000000,0.000000,0.000000 HandTipRight:0.000000,0.000000,0.000000,0.000000 Head:0.000000,0.000000,0.000000,0.000000 HipLeft:0.068211,-0.674329,0.725871,-0.117215 HipRight:-0.199047,0.674502,0.675913,-0.220384 KneeLeft:0.036479,-0.633785,0.052143,0.770887 KneeRight:-0.027005,0.773267,0.070833,0.629532 Neck:-0.151877,0.033548,0.985447,-0.068568 ShoulderLeft:0.081449,0.751441,-0.653482,-0.040791 ShoulderRight:-0.118060,0.792132,0.568316,-0.188695 SpineBase:-0.097937,0.027409,0.994318,-0.031452 SpineMid:-0.124367,0.028236,0.991359,-0.030711 SpineShoulder:-0.151682,0.031094,0.986769,-0.048095 ThumbLeft:0.000000,0.000000,0.000000,0.000000 ThumbRight:0.000000,0.000000,0.000000,0.000000 WristLeft:-0.076119,0.817759,-0.138353,0.553476 WristRight:-0.203437,-0.495221,0.577029,-0.616771 END:
KINECT_DATA POSITION:12.370314,-0.614080,9.202409 HEAD_JOINT1:0.988190,0.151745,-0.000000,0.021300 LARM_JOINT2:0.813781,0.000000,-0.017887,-0.580896 LARM_JOINT3:0.968980,0.000000,-0.184638,-0.164278 LLEG_JOINT2:0.999005,0.003556,0.000000,0.044453 LLEG_JOINT4:0.996002,0.089327,0.000000,0.001053 RARM_JOINT2:0.846798,0.000000,0.377296,0.374941 RARM_JOINT3:0.775850,0.000000,0.572358,0.265449 RLEG_JOINT2:0.995549,0.038222,0.000000,-0.086149 RLEG_JOINT4:0.992622,0.092120,0.000000,0.078834 WAIST:0.993810,-0.000000,0.109345,0.019632 WAIST_JOINT0:0.985870,-0.000000,0.159455,0.051332 WAIST_JOINT1:0.998453,0.052183,-0.000000,0.019196 END:
KINECT_DATA_Sensor  AnkleLeft:0.047752,0.739285,-0.100536,-0.664131 AnkleRight:0.092938,0.791677,0.088456,0.597316 ElbowLeft:-0.033743,0.836090,-0.202508,-0.508729 ElbowRight:-0.361096,0.917957,0.077405,0.144818 FootLeft:0.000000,0.000000,0.000000,0.000000 FootRight:0.000000,0.000000,0.000000,0.000000 HandLeft:-0.100265,0.832761,-0.064878,0.540599 HandRight:-0.277424,-0.487719,0.607641,-0.562083 HandTipLeft:0.000000,0.000000,0.000000,0.000000 HandTipRight:0.000000,0.000000,0.000000,0.000000 Head:0.000000,0.000000,0.000000,0.000000 HipLeft:0.060559,-0.674725,0.727223,-0.110569 HipRight:-0.207054,0.673987,0.672565,-0.224779 KneeLeft:0.038849,-0.624841,0.050804,0.778128 KneeRight:-0.029225,0.780531,0.069978,0.620500 Neck:-0.160186,0.038212,0.984001,-0.067984 ShoulderLeft:0.082463,0.750297,-0.654397,-0.044930 ShoulderRight:-0.128648,0.791320,0.564358,-0.196882 SpineBase:-0.109425,0.030541,0.993044,-0.030944 SpineMid:-0.134271,0.031307,0.989990,-0.030169 SpineShoulder:-0.159991,0.034825,0.985376,-0.047163 ThumbLeft:0.000000,0.000000,0.000000,0.000000 ThumbRight:0.000000,0.000000,0.000000,0.000000 WristLeft:-0.078810,0.835622,-0.134398,0.526746 WristRight:-0.238753,-0.493026,0.582035,-0.600964 END:
KINECT_DATA POSITION:12.467300,-0.490770,9.074855 HEAD_JOINT1:0.989381,0.143989,-0.000000,0.019792 LARM_JOINT2:0.815423,0.000000,-0.022794,-0.578416 LARM_JOINT3:0.966319,0.000000,-0.190870,-0.172614 LLEG_JOINT2:0.998969,0.001609,0.000000,0.045368 LLEG_JOINT4:0.995725,0.092321,0.000000,-0.002993 RARM_JOINT2:0.843075,0.000000,0.380396,0.380162 RARM_JOINT3:0.764683,0.000000,0.588706,0.262078 RLEG_JOINT2:0.995611,0.037696,0.000000,-0.085656 RLEG_JOINT4:0.992502,0.091855,0.000000,0.080638 WAIST:0.993125,-0.000000,0.115459,0.019279 WAIST_JOINT0:0.985226,-0.000000,0.164394,0.048003 WAIST_JOINT1:0.998458,0.051304,-0.000000,0.021219 END:
KINECT_DATA_Sensor  AnkleLeft:0.048886,0.721271,-0.098654,-0.683847 AnkleRight:0.093091,0.793937,0.087334,0.594450 ElbowLeft:-0.034722,0.842212,-0.205964,-0.497043 ElbowRight:-0.359769,0.919680,0.065365,0.143118 FootLeft:0.000000,0.000000,0.000000,0.000000 FootRight:0.000000,0.000000,0.000000,0.000000 HandLeft:-0.138571,0.832909,-0.079742,0.529813 HandRight:-0.239786,-0.518087,0.640370,-0.513823 HandTipLeft:0.000000,0.000000,0.000000,0.000000 HandTipRight:0.000000,0.000000,0.000000,0.000000 Head:0.000000,0.000000,0.000000,0.000000 HipLeft:0.058311,-0.675838,0.726740,-0.108130 HipRight:-0.212656,0.673207,0.670586,-0.227782 KneeLeft:0.040464,-0.620087,0.050220,0.781877 KneeRight:-0.029930,0.784336,0.069243,0.615733 Neck:-0.164927,0.039349,0.983206,-0.067507 ShoulderLeft:0.082138,0.750775,-0.653743,-0.047012 ShoulderRight:-0.135899,0.787021,0.566894,-0.201892 SpineBase:-0.115452,0.032259,0.992338,-0.029931 SpineMid:-0.139615,0.032980,0.989228,-0.029136 SpineShoulder:-0.164689,0.036213,0.984581,-0.046551 ThumbLeft:0.000000,0.000000,0.000000,0.000000 ThumbRight:0.000000,0.000000,0.000000,0.000000 WristLeft:-0.081894,0.842373,-0.131520,0.516142 WristRight:-0.218028,-0.534777,0.611049,-0.541384 END:
KINECT_DATA POSITION:12.593797,-0.438010,9.013295 HEAD_JOINT1:0.989936,0.140363,-0.000000,0.018057 LARM_JOINT2:0.811830,0.000000,-0.030977,-0.583072 LARM_JOINT3:0.967663,0.000000,-0.190115,-0.165782 LLEG_JOINT2:0.998915,0.001392,0.000000,0.046554 LLEG_JOINT4:0.996037,0.088914,0.000000,-0.002282 RARM_JOINT2:0.837299,0.000000,0.385531,0.387681 RARM_JOINT3:0.747543,0.000000,0.603821,0.276731 RLEG_JOINT2:0.995633,0.038058,0.000000,-0.085242 RLEG_JOINT4:0.992513,0.093051,0.000000,0.079118 WAIST:0.992732,-0.000000,0.118955,0.018263 WAIST_JOINT0:0.984282,-0.000000,0.171155,0.043539 WAIST_JOINT1:0.998598,0.048180,-0.000000,0.021905 END:
KINECT_DATA_Sensor  AnkleLeft:0.047913,0.734730,-0.096427,-0.669759 AnkleRight:0.092407,0.797161,0.090033,0.589821 ElbowLeft:-0.042672,0.838006,-0.196859,-0.507121 ElbowRight:-0.359475,0.921363,0.053751,0.137763 FootLeft:0.000000,0.000000,0.000000,0.000000 FootRight:0.000000,0.000000,0.000000,0.000000 HandLeft:-0.151487,0.845353,-0.070401,0.507418 HandRight:-0.299482,-0.512483,0.632960,-0.497024 HandTipLeft:0.000000,0.000000,0.000000,0.000000 HandTipRight:0.000000,0.000000,0.000000,0.000000 Head:0.000000,0.000000,0.000000,0.000000 HipLeft:0.059221,-0.677079,0.725824,-0.106002 HipRight:-0.217341,0.672307,0.669560,-0.229032 KneeLeft:0.040522,-0.617292,0.050393,0.784072 KneeRight:-0.030377,0.786518,0.069839,0.612853 Neck:-0.171773,0.039097,0.982260,-0.064269 ShoulderLeft:0.083536,0.750783,-0.653036,-0.053758 ShoulderRight:-0.143866,0.782120,0.570320,-0.205732 SpineBase:-0.118897,0.032189,0.992006,-0.027429 SpineMid:-0.144736,0.032894,0.988566,-0.026580 SpineShoulder:-0.171520,0.036133,0.983556,-0.043516 ThumbLeft:0.000000,0.000000,0.000000,0.000000 ThumbRight:0.000000,0.000000,0.000000,0.000000 WristLeft:-0.091167,0.856491,-0.134760,0.489849 WristRight:-0.262491,-0.517526,0.613536,-0.535574 END:
KINECT_DATA POSITION:12.752008,-0.411838,8.842314 HEAD_JOINT1:0.990103,0.139679,-0.000000,0.013642 LARM_JOINT2:0.805884,0.000000,-0.019010,-0.591768 LARM_JOINT3:0.968399,0.000000,-0.191037,-0.160336 LLEG_JOINT2:0.998983,-0.001419,0.000000,0.045061 LLEG_JOINT4:0.996201,0.086913,0.000000,-0.005454 RARM_JOINT2:0.782300,0.000000,0.450895,0.429768 RARM_JOINT3:0.812347,0.000000,0.536642,0.228270 RLEG_JOINT2:0.995576,0.038102,0.000000,-0.085893 RLEG_JOINT4:0.992261,0.094660,0.000000,0.080357 WAIST:0.991932,-0.000000,0.125496,0.017913 WAIST_JOINT0:0.983768,-0.000000,0.174177,0.043162 WAIST_JOINT1:0.998581,0.048036,-0.000000,0.022995 END:
KINECT_DATA_Sensor  AnkleLeft:-0.031434,-0.611605,0.095804,0.784712 AnkleRight:0.092658,0.798532,0.092022,0.587617 ElbowLeft:-0.038983,0.808097,-0.189560,-0.556351 ElbowRight:-0.350794,0.928162,-0.043962,0.116299 FootLeft:0.000000,0.000000,0.000000,0.000000 FootRight:0.000000,0.000000,0.000000,0.000000 HandLeft:-0.108410,0.834757,0.014484,0.539646 HandRight:-0.275129,-0.556335,0.624304,-0.474384 HandTipLeft:0.000000,0.000000,0.000000,0.000000 HandTipRight:0.000000,0.000000,0.000000,0.000000 Head:0.000000,0.000000,0.000000,0.000000 HipLeft:0.054780,-0.678111,0.725849,-0.101528 HipRight:-0.220744,0.671385,0.668481,-0.231617 KneeLeft:0.041339,-0.612220,0.047428,0.788180 KneeRight:-0.031648,0.790516,0.070239,0.607577 Neck:-0.174498,0.039184,0.981758,-0.064549 ShoulderLeft:0.078159,0.751226,-0.653533,-0.049442 ShoulderRight:-0.154301,0.779448,0.568609,-0.212923 SpineBase:-0.125397,0.032605,0.991200,-0.027102 SpineMid:-0.149340,0.033251,0.987877,-0.026306 SpineShoulder:-0.174232,0.036416,0.983060,-0.043716 ThumbLeft:0.000000,0.000000,0.000000,0.000000 ThumbRight:0.000000,0.000000,0.000000,0.000000 WristLeft:-0.094281,0.846510,-0.149329,0.502229 WristRight:-0.224291,-0.537034,0.626198,-0.518811 END:
KINECT_DATA POSITION:12.889640,-0.366240,8.630980 HEAD_JOINT1:0.990231,0.139240,-0.000000,0.007443 LARM_JOINT2:0.796548,0.000000,-0.035510,-0.603532 LARM_JOINT3:0.975360,0.000000,-0.174744,-0.134673 LLEG_JOINT2:0.998878,-0.005890,0.000000,0.046999 LLEG_JOINT4:0.995925,0.090180,0.000000,-0.000684 RARM_JOINT2:0.769119,0.000000,0.470361,0.432684 RARM_JOINT3:0.836818,0.000000,0.500951,0.220870 RLEG_JOINT2:0.995642,0.039022,0.000000,-0.084707 RLEG_JOINT4:0.992473,0.089780,0.000000,0.083286 WAIST:0.990851,-0.000000,0.134119,0.015060 WAIST_JOINT0:0.978480,-0.000000,0.202614,0.039039 WAIST_JOINT1:0.998440,0.048820,-0.000000,0.027089 END:
KINECT_DATA_Sensor  AnkleLeft:-0.027890,-0.594085,0.098408,0.797873 AnkleRight:0.091693,0.811906,0.087871,0.569807 ElbowLeft:-0.044695,0.802638,-0.172342,-0.569275 ElbowRight:-0.352443,0.929219,-0.064665,0.090297 FootLeft:0.000000,0.000000,0.000000,0.000000 FootRight:0.000000,0.000000,0.000000,0.000000 HandLeft:-0.136608,0.813948,-0.004032,0.564633 HandRight:-0.256428,-0.583720,0.613143,-0.466445 HandTipLeft:0.000000,0.000000,0.000000,0.000000 HandTipRight:0.000000,0.000000,0.000000,0.000000 Head:0.000000,0.000000,0.000000,0.000000 HipLeft:0.048342,-0.680555,0.724430,-0.098532 HipRight:-0.224781,0.667757,0.668847,-0.237105 KneeLeft:0.043740,-0.605651,0.044509,0.793280 KneeRight:-0.032861,0.795668,0.071883,0.600555 Neck:-0.204581,0.041065,0.975810,-0.065237 ShoulderLeft:0.097011,0.745338,-0.655921,-0.069482 ShoulderRight:-0.177299,0.766270,0.570154,-0.237318 SpineBase:-0.133789,0.033637,0.990017,-0.028904 SpineMid:-0.168442,0.034630,0.984713,-0.027706 SpineShoulder:-0.204339,0.038237,0.977151,-0.044268 ThumbLeft:0.000000,0.000000,0.000000,0.000000 ThumbRight:0.000000,0.000000,0.000000,0.000000 WristLeft:-0.069752,0.835484,-0.149292,0.524227 WristRight:-0.201684,-0.564175,0.615228,-0.512372 END:
KINECT_DATA POSITION:12.975386,-0.329009,8.322275 HEAD_JOINT1:0.990381,0.138138,-0.000000,0.007930 LARM_JOINT2:0.795747,0.000000,-0.034151,-0.604666 LARM_JOINT3:0.975663,0.000000,-0.177834,-0.128281 LLEG_JOINT2:0.998836,-0.011908,0.000000,0.046750 LLEG_JOINT4:0.995728,0.092261,0.000000,0.003753 RARM_JOINT2:0.744177,0.000000,0.515204,0.425166 RARM_JOINT3:0.862256,0.000000,0.471562,0.184779 RLEG_JOINT2:0.995689,0.040981,0.000000,-0.083206 RLEG_JOINT4:0.992325,0.088838,0.000000,0.086017 WAIST:0.989305,-0.000000,0.145292,0.012861 WAIST_JOINT0:0.976872,-0.000000,0.210377,0.038237 WAIST_JOINT1:0.998249,0.051643,-0.000000,0.028832 END:
KINECT_DATA_Sensor  AnkleLeft:0.043023,0.728676,-0.090855,-0.677441 AnkleRight:0.092597,0.815440,0.088897,0.564429 ElbowLeft:-0.041072,0.787201,-0.171900,-0.590829 ElbowRight:-0.364004,0.923462,-0.105995,0.059035 FootLeft:0.000000,0.000000,0.000000,0.000000 FootRight:0.000000,0.000000,0.000000,0.000000 HandLeft:-0.139734,0.861425,-0.008780,0.488205 HandRight:-0.264296,-0.586136,0.626193,-0.440993 HandTipLeft:0.000000,0.000000,0.000000,0.000000 HandTipRight:0.000000,0.000000,0.000000,0.000000 Head:0.000000,0.000000,0.000000,0.000000 HipLeft:0.038694,-0.682954,0.723454,-0.093223 HipRight:-0.228388,0.664164,0.668767,-0.243875 KneeLeft:0.046477,-0.597024,0.039554,0.799899 KneeRight:-0.032947,0.802327,0.073614,0.591411 Neck:-0.211496,0.039281,0.974106,-0.069597 ShoulderLeft:0.102257,0.743688,-0.656944,-0.069982 ShoulderRight:-0.182803,0.759443,0.573810,-0.246113 SpineBase:-0.144769,0.033015,0.988395,-0.032045 SpineMid:-0.177428,0.034058,0.983058,-0.030934 SpineShoulder:-0.211274,0.036893,0.975574,-0.047515 ThumbLeft:0.000000,0.000000,0.000000,0.000000 ThumbRight:0.000000,0.000000,0.000000,0.000000 WristLeft:-0.073985,0.877450,-0.146877,0.450594 WristRight:-0.188966,-0.578472,0.607552,-0.510433 END:
KINECT_DATA POSITION:13.089636,-0.122669,8.155024 HEAD_JOINT1:0.990402,0.137829,-0.000000,0.010383 LARM_JOINT2:0.792923,0.000000,-0.039195,-0.608060 LARM_JOINT3:0.973363,0.000000,-0.189596,-0.128912 LLEG_JOINT2:0.998782,-0.014028,0.000000,0.047307 LLEG_JOINT4:0.995637,0.093062,0.000000,0.006846 RARM_JOINT2:0.659110,0.000000,0.608087,0.442498 RARM_JOINT3:0.942594,0.000000,0.309829,0.124585 RLEG_JOINT2:0.995525,0.041756,0.000000,-0.084768 RLEG_JOINT4:0.992244,0.086861,0.000000,0.088921 WAIST:0.988476,-0.000000,0.150952,0.011351 WAIST_JOINT0:0.976202,-0.000000,0.212214,0.044655 WAIST_JOINT1:0.997967,0.055761,-0.000000,0.030876 END:
KINECT_DATA_Sensor  AnkleLeft:0.044590,0.746839,-0.090622,-0.657291 AnkleRight:0.080239,0.747089,0.098796,0.652425 ElbowLeft:-0.042277,0.770601,-0.167504,-0.613457 ElbowRight:-0.350598,0.908982,-0.224662,0.018972 FootLeft:0.000000,0.000000,0.000000,0.000000 FootRight:0.000000,0.000000,0.000000,0.000000 HandLeft:-0.226418,0.739938,-0.059220,0.630650 HandRight:0.147608,0.712455,-0.551593,0.407879 HandTipLeft:0.000000,0.000000,0.000000,0.000000 HandTipRight:0.000000,0.000000,0.000000,0.000000 Head:0.000000,0.000000,0.000000,0.000000 HipLeft:0.035125,-0.683852,0.722756,-0.093468 HipRight:-0.231256,0.661003,0.668806,-0.249586 KneeLeft:0.047267,-0.592674,0.037909,0.803160 KneeRight:-0.035270,0.805497,0.075997,0.586648 Neck:-0.211146,0.039323,0.973807,-0.074634 ShoulderLeft:0.107241,0.744581,-0.655259,-0.068799 ShoulderRight:-0.176190,0.764026,0.569072,-0.247748 SpineBase:-0.150275,0.032252,0.987499,-0.034962 SpineMid:-0.180097,0.033295,0.982498,-0.033969 SpineShoulder:-0.211020,0.036263,0.975415,-0.052156 ThumbLeft:0.000000,0.000000,0.000000,0.000000 ThumbRight:0.000000,0.000000,0.000000,0.000000 WristLeft:-0.037507,0.790102,-0.160689,0.590348 WristRight:0.078360,0.656425,-0.604435,0.444550 END:
KINECT_DATA POSITION:13.098362,-0.096554,8.199394 HEAD_JOINT1:0.989577,0.143485,-0.000000,0.012230 LARM_JOINT2:0.785491,0.000000,-0.054102,-0.616504 LARM_JOINT3:0.982578,0.000000,-0.155489,-0.101806 LLEG_JOINT2:0.998938,-0.013977,0.000000,0.043899 LLEG_JOINT4:0.995634,0.092984,0.000000,0.008190 RARM_JOINT2:0.648227,0.000000,0.624853,0.435156 RARM_JOINT3:0.955443,0.000000,0.274269,0.109109 RLEG_JOINT2:0.995377,0.042257,0.000000,-0.086255 RLEG_JOINT4:0.992208,0.086150,0.000000,0.090007 WAIST:0.988623,-0.000000,0.149826,0.013302 WAIST_JOINT0:0.978882,-0.000000,0.198671,0.048161 WAIST_JOINT1:0.997934,0.057111,-0.000000,0.029427 END:
KINECT_DATA_Sensor  AnkleLeft:0.041939,0.730675,-0.091538,-0.675259 AnkleRight:0.091090,0.810412,0.088485,0.571932 ElbowLeft:-0.054879,0.743568,-0.150659,-0.649151 ElbowRight:-0.357040,0.903914,-0.235469,0.004075 FootLeft:0.000000,0.000000,0.000000,0.000000 FootRight:0.000000,0.000000,0.000000,0.000000 HandLeft:-0.281398,0.831618,0.065740,0.474241 HandRight:0.072410,0.749154,-0.547859,0.365206 HandTipLeft:0.000000,0.000000,0.000000,0.000000 HandTipRight:0.000000,0.000000,0.000000,0.000000 Head:0.000000,0.000000,0.000000,0.000000 HipLeft:0.035296,-0.682223,0.724198,-0.094145 HipRight:-0.229674,0.662077,0.668267,-0.249644 KneeLeft:0.046623,-0.593563,0.036523,0.802606 KneeRight:-0.034698,0.804917,0.075957,0.587482 Neck:-0.195992,0.038905,0.976878,-0.076049 ShoulderLeft:0.093990,0.751716,-0.650406,-0.055330 ShoulderRight:-0.167880,0.774057,0.561518,-0.239477 SpineBase:-0.149285,0.032033,0.987633,-0.035636 SpineMid:-0.172096,0.032849,0.983914,-0.034885 SpineShoulder:-0.195857,0.035855,0.978498,-0.053821 ThumbLeft:0.000000,0.000000,0.000000,0.000000 ThumbRight:0.000000,0.000000,0.000000,0.000000 WristLeft:-0.041650,0.915780,-0.151988,0.369474 WristRight:0.013609,0.700341,-0.596137,0.392375 END:
KINECT_DATA POSITION:13.072705,-0.056037,8.329332 HEAD_JOINT1:0.989201,0.145908,-0.000000,0.013849 LARM_JOINT2:0.799912,0.000000,-0.041986,-0.598646 LARM_JOINT3:0.977693,0.000000,-0.160021,-0.136052 LLEG_JOINT2:0.999031,-0.011452,0.000000,0.042496 LLEG_JOINT4:0.995451,0.095014,0.000000,0.007007 RARM_JOINT2:0.643977,0.000000,0.628425,0.436321 RARM_JOINT3:0.952515,0.000000,0.282161,0.114461 RLEG_JOINT2:0.995276,0.042279,0.000000,-0.087399 RLEG_JOINT4:0.992034,0.089091,0.000000,0.089061 WAIST:0.989030,-0.000000,0.146952,0.015007 WAIST_JOINT0:0.978367,-0.000000,0.200187,0.052175 WAIST_JOINT1:0.997895,0.058354,-0.000000,0.028309 END:
KINECT_DATA_Sensor  AnkleLeft:0.042521,0.706969,-0.094332,-0.699635 AnkleRight:0.093116,0.810839,0.090228,0.570727 ElbowLeft:-0.035699,0.811755,-0.181513,-0.553924 ElbowRight:-0.355931,0.903385,-0.239161,0.003432 FootLeft:0.000000,0.000000,0.000000,0.000000 FootRight:0.000000,0.000000,0.000000,0.000000 HandLeft:-0.143946,0.795409,-0.069062,0.584667 HandRight:0.144024,0.717107,-0.555365,0.395706 HandTipLeft:0.000000,0.000000,0.000000,0.000000 HandTipRight:0.000000,0.000000,0.000000,0.000000 Head:0.000000,0.000000,0.000000,0.000000 HipLeft:0.036644,-0.680848,0.725095,-0.096645 HipRight:-0.227363,0.663468,0.667868,-0.249135 KneeLeft:0.045044,-0.595823,0.037990,0.800951 KneeRight:-0.034159,0.803263,0.075581,0.589821 Neck:-0.198250,0.040008,0.976333,-0.076619 ShoulderLeft:0.101878,0.748931,-0.651962,-0.060563 ShoulderRight:-0.161862,0.777192,0.559499,-0.238188 SpineBase:-0.146516,0.032216,0.988005,-0.036612 SpineMid:-0.171836,0.033146,0.983918,-0.035773 SpineShoulder:-0.198126,0.036745,0.977960,-0.054674 ThumbLeft:0.000000,0.000000,0.000000,0.000000 ThumbRight:0.000000,0.000000,0.000000,0.000000 WristLeft:-0.022925,0.815416,-0.137207,0.561913 WristRight:0.060198,0.667789,-0.593155,0.445647 END:
KINECT_DATA POSITION:13.064690,-0.037660,8.363926 HEAD_JOINT1:0.989002,0.147051,-0.000000,0.015860 LARM_JOINT2:0.799718,0.000000,-0.042530,-0.598867 LARM_JOINT3:0.976322,0.000000,-0.167816,-0.136500 LLEG_JOINT2:0.999067,-0.011492,0.000000,0.041632 LLEG_JOINT4:0.995662,0.092968,0.000000,0.003864 RARM_JOINT2:0.643290,0.000000,0.628402,0.437365 RARM_JOINT3:0.950101,0.000000,0.291100,0.112110 RLEG_JOINT2:0.995196,0.043730,0.000000,-0.087596 RLEG_JOINT4:0.992280,0.086958,0.000000,0.088427 WAIST:0.988968,-0.000000,0.147281,0.015802 WAIST_JOINT0:0.977991,-0.000000,0.201528,0.054045 WAIST_JOINT1:0.997877,0.058801,-0.000000,0.027990 END:
KINECT_DATA_Sensor  AnkleLeft:-0.040545,-0.695249,0.091153,0.711812 AnkleRight:0.083958,0.755737,0.097757,0.642071 ElbowLeft:-0.036889,0.808135,-0.181405,-0.559151 ElbowRight:-0.354614,0.903594,-0.240327,0.003182 FootLeft:0.000000,0.000000,0.000000,0.000000 FootRight:0.000000,0.000000,0.000000,0.000000 HandLeft:-0.155113,0.848440,-0.054236,0.503139 HandRight:0.158622,0.702319,-0.573678,0.390488 HandTipLeft:0.000000,0.000000,0.000000,0.000000 HandTipRight:0.000000,0.000000,0.000000,0.000000 Head:0.000000,0.000000,0.000000,0.000000 HipLeft:0.036257,-0.680346,0.725595,-0.096574 HipRight:-0.227189,0.663900,0.667373,-0.249471 KneeLeft:0.045114,-0.595537,0.037845,0.801167 KneeRight:-0.032907,0.803584,0.076290,0.589363 Neck:-0.199807,0.040600,0.975965,-0.076953 ShoulderLeft:0.104393,0.747765,-0.652748,-0.062213 ShoulderRight:-0.161196,0.778253,0.557918,-0.238886 SpineBase:-0.146893,0.032380,0.987935,-0.036857 SpineMid:-0.172804,0.033337,0.983734,-0.035994 SpineShoulder:-0.199692,0.037195,0.977606,-0.055007 ThumbLeft:0.000000,0.000000,0.000000,0.000000 ThumbRight:0.000000,0.000000,0.000000,0.000000 WristLeft:-0.047038,0.867111,-0.137460,0.476456 WristRight:0.067940,0.663619,-0.593558,0.450203 END:
KINECT_DATA POSITION:13.063855,-0.142397,8.253086 HEAD_JOINT1:0.988385,0.150986,-0.000000,0.017273 LARM_JOINT2:0.794989,0.000000,-0.048252,-0.604701 LARM_JOINT3:0.977239,0.000000,-0.168873,-0.128400 LLEG_JOINT2:0.999056,-0.009937,0.000000,0.042282 LLEG_JOINT4:0.995400,0.095555,0.000000,0.006876 RARM_JOINT2:0.724525,0.000000,0.562942,0.397693 RARM_JOINT3:0.881834,0.000000,0.437379,0.176263 RLEG_JOINT2:0.995319,0.041510,0.000000,-0.087281 RLEG_JOINT4:0.992247,0.088626,0.000000,0.087123 WAIST:0.989925,-0.000000,0.140749,0.015423 WAIST_JOINT0:0.980112,-0.000000,0.192139,0.049624 WAIST_JOINT1:0.997911,0.058725,-0.000000,0.026931 END:
KINECT_DATA_Sensor  AnkleLeft:-0.029125,-0.600652,0.101049,0.792564 AnkleRight:0.091817,0.807324,0.089637,0.575988 ElbowLeft:-0.041801,0.804538,-0.170587,-0.567337 ElbowRight:-0.390274,0.912841,-0.119717,0.008746 FootLeft:0.000000,0.000000,0.000000,0.000000 FootRight:0.000000,0.000000,0.000000,0.000000 HandLeft:-0.222756,0.754951,-0.043788,0.615233 HandRight:-0.227438,-0.620375,0.630120,-0.407867 HandTipLeft:0.000000,0.000000,0.000000,0.000000 HandTipRight:0.000000,0.000000,0.000000,0.000000 Head:0.000000,0.000000,0.000000,0.000000 HipLeft:0.038780,-0.681050,0.724452,-0.099177 HipRight:-0.221783,0.665751,0.668780,-0.245603 KneeLeft:0.044169,-0.600761,0.038800,0.797264 KneeRight:-0.033707,0.799519,0.074874,0.595001 Neck:-0.190669,0.039101,0.977890,-0.076466 ShoulderLeft:0.096912,0.748937,-0.653297,-0.053883 ShoulderRight:-0.157402,0.776048,0.564612,-0.232781 SpineBase:-0.140376,0.031593,0.988897,-0.037151 SpineMid:-0.164993,0.032510,0.985088,-0.036351 SpineShoulder:-0.190524,0.036109,0.979481,-0.054905 ThumbLeft:0.000000,0.000000,0.000000,0.000000 ThumbRight:0.000000,0.000000,0.000000,0.000000 WristLeft:-0.033998,0.802335,-0.143545,0.578357 WristRight:0.152877,0.627961,-0.603410,0.467109 END:
KINECT_DATA POSITION:13.044655,-0.206858,8.140362 HEAD_JOINT1:0.987465,0.157301,-0.000000,0.013037 LARM_JOINT2:0.797724,0.000000,-0.038387,-0.601799 LARM_JOINT3:0.972836,0.000000,-0.184297,-0.140087 LLEG_JOINT2:0.999019,-0.007965,0.000000,0.043571 LLEG_JOINT4:0.995448,0.095125,0.000000,0.005841 RARM_JOINT2:0.777941,0.000000,0.505819,0.372767 RARM_JOINT3:0.830888,0.000000,0.520627,0.196397 RLEG_JOINT2:0.995541,0.035881,0.000000,-0.087243 RLEG_JOINT4:0.992092,0.093528,0.000000,0.083705 WAIST:0.991449,-0.000000,0.129616,0.015145 WAIST_JOINT0:0.980266,-0.000000,0.193758,0.039206 WAIST_JOINT1:0.997991,0.057974,-0.000000,0.025550 END:
KINECT_DATA_Sensor  AnkleLeft:0.045258,0.726355,-0.096453,-0.679012 AnkleRight:0.090853,0.808146,0.089384,0.575027 ElbowLeft:-0.037007,0.813063,-0.175421,-0.553884 ElbowRight:-0.398447,0.914924,-0.039502,0.050920 FootLeft:0.000000,0.000000,0.000000,0.000000 FootRight:0.000000,0.000000,0.000000,0.000000 HandLeft:-0.142941,0.810630,-0.036703,0.566657 HandRight:-0.247675,-0.545807,0.659909,-0.453070 HandTipLeft:0.000000,0.000000,0.000000,0.000000 HandTipRight:0.000000,0.000000,0.000000,0.000000 Head:0.000000,0.000000,0.000000,0.000000 HipLeft:0.044843,-0.680325,0.724150,-0.103705 HipRight:-0.214891,0.667848,0.671504,-0.238503 KneeLeft:0.043508,-0.609556,0.040446,0.790514 KneeRight:-0.036403,0.792446,0.071066,0.604693 Neck:-0.194751,0.039191,0.977221,-0.074661 ShoulderLeft:0.106142,0.739841,-0.661609,-0.060358 ShoulderRight:-0.156346,0.759928,0.587307,-0.230514 SpineBase:-0.129284,0.031011,0.990455,-0.036382 SpineMid:-0.161469,0.032179,0.985719,-0.035353 SpineShoulder:-0.194612,0.036078,0.978766,-0.053304 ThumbLeft:0.000000,0.000000,0.000000,0.000000 ThumbRight:0.000000,0.000000,0.000000,0.000000 WristLeft:-0.073967,0.827580,-0.140952,0.538306 WristRight:-0.204559,-0.583767,0.603617,-0.503009 END:
KINECT_DATA POSITION:12.988806,-0.287007,8.054817 HEAD_JOINT1:0.987076,0.159833,-0.000000,0.011568 LARM_JOINT2:0.803079,0.000000,-0.020167,-0.595532 LARM_JOINT3:0.966678,0.000000,-0.203199,-0.155706 LLEG_JOINT2:0.999052,-0.007043,0.000000,0.042951 LLEG_JOINT4:0.995948,0.089886,0.000000,0.002679 RARM_JOINT2:0.792332,0.000000,0.492515,0.360055 RARM_JOINT3:0.810865,0.000000,0.553061,0.191367 RLEG_JOINT2:0.995558,0.034531,0.000000,-0.087594 RLEG_JOINT4:0.992423,0.092226,0.000000,0.081187 WAIST:0.992094,-0.000000,0.124460,0.016076 WAIST_JOINT0:0.982500,-0.000000,0.181246,0.042946 WAIST_JOINT1:0.998058,0.057624,-0.000000,0.023643 END:
KINECT_DATA_Sensor  AnkleLeft:0.041442,0.724568,-0.092513,-0.681708 AnkleRight:0.087680,0.802828,0.088584,0.583037 ElbowLeft:-0.028395,0.811187,-0.187219,-0.553279 ElbowRight:-0.404300,0.910796,-0.023189,0.080346 FootLeft:0.000000,0.000000,0.000000,0.000000 FootRight:0.000000,0.000000,0.000000,0.000000 HandLeft:-0.179337,0.821877,-0.052639,0.538131 HandRight:-0.210086,-0.560454,0.674019,-0.432958 HandTipLeft:0.000000,0.000000,0.000000,0.000000 HandTipRight:0.000000,0.000000,0.000000,0.000000 Head:0.000000,0.000000,0.000000,0.000000 HipLeft:0.048294,-0.679306,0.724554,-0.105989 HipRight:-0.211591,0.669435,0.672009,-0.235563 KneeLeft:0.043215,-0.613522,0.041001,0.787427 KneeRight:-0.036441,0.789277,0.069798,0.608968 Neck:-0.181313,0.037932,0.979880,-0.074310 ShoulderLeft:0.094659,0.742118,-0.661786,-0.048373 ShoulderRight:-0.149497,0.766454,0.583876,-0.222007 SpineBase:-0.124239,0.030412,0.991136,-0.035898 SpineMid:-0.152255,0.031416,0.987221,-0.035022 SpineShoulder:-0.181155,0.034970,0.981403,-0.052983 ThumbLeft:0.000000,0.000000,0.000000,0.000000 ThumbRight:0.000000,0.000000,0.000000,0.000000 WristLeft:-0.081244,0.844207,-0.137909,0.511561 WristRight:-0.183097,-0.589230,0.632617,-0.468059 END:
KINECT_DATA POSITION:12.947753,-0.344558,8.071470 HEAD_JOINT1:0.986934,0.160807,-0.000000,0.010174 LARM_JOINT2:0.801182,0.000000,-0.019290,-0.598110 LARM_JOINT3:0.968027,0.000000,-0.199787,-0.151688 LLEG_JOINT2:0.999006,-0.006633,0.000000,0.044078 LLEG_JOINT4:0.995825,0.091278,0.000000,-0.000016 RARM_JOINT2:0.783109,0.000000,0.504613,0.363464 RARM_JOINT3:0.830473,0.000000,0.518138,0.204567 RLEG_JOINT2:0.995710,0.033292,0.000000,-0.086338 RLEG_JOINT4:0.992177,0.094285,0.000000,0.081820 WAIST:0.992307,-0.000000,0.122871,0.015162 WAIST_JOINT0:0.982593,-0.000000,0.181223,0.040852 WAIST_JOINT1:0.998044,0.057311,-0.000000,0.024966 END:
KINECT_DATA_Sensor  AnkleLeft:0.042105,0.710033,-0.092314,-0.696820 AnkleRight:0.089336,0.802567,0.088391,0.583174 ElbowLeft:-0.030593,0.802043,-0.184315,-0.567291 ElbowRight:-0.405030,0.910778,-0.035260,0.072051 FootLeft:0.000000,0.000000,0.000000,0.000000 FootRight:0.000000,0.000000,0.000000,0.000000 HandLeft:-0.158652,0.737549,-0.035021,0.655458 HandRight:0.145115,0.646583,-0.639519,0.389727 HandTipLeft:0.000000,0.000000,0.000000,0.000000 HandTipRight:0.000000,0.000000,0.000000,0.000000 Head:0.000000,0.000000,0.000000,0.000000 HipLeft:0.050025,-0.679885,0.723652,-0.107619 HipRight:-0.211729,0.669214,0.672418,-0.234898 KneeLeft:0.042983,-0.614828,0.041447,0.786397 KneeRight:-0.036741,0.788209,0.068763,0.610450 Neck:-0.180840,0.038629,0.979958,-0.074081 ShoulderLeft:0.090724,0.743290,-0.661210,-0.045712 ShoulderRight:-0.153581,0.764115,0.585242,-0.223680 SpineBase:-0.122580,0.030679,0.991345,-0.035617 SpineMid:-0.151175,0.031696,0.987389,-0.034716 SpineShoulder:-0.180679,0.035529,0.981485,-0.052731 ThumbLeft:0.000000,0.000000,0.000000,0.000000 ThumbRight:0.000000,0.000000,0.000000,0.000000 WristLeft:-0.062151,0.767775,-0.153578,0.618929 WristRight:-0.111686,-0.635199,0.639224,-0.418857 END:
KINECT_DATA POSITION:12.916088,-0.399585,8.150827 HEAD_JOINT1:0.986875,0.161105,-0.000000,0.011047 LARM_JOINT2:0.796173,0.000000,-0.034286,-0.604097 LARM_JOINT3:0.975407,0.000000,-0.173013,-0.136558 LLEG_JOINT2:0.998965,-0.006982,0.000000,0.044944 LLEG_JOINT4:0.995998,0.089361,0.000000,0.001687 RARM_JOINT2:0.731864,0.000000,0.568738,0.375383 RARM_JOINT3:0.887493,0.000000,0.424791,0.178629 RLEG_JOINT2:0.995680,0.034577,0.000000,-0.086168 RLEG_JOINT4:0.992203,0.093038,0.000000,0.082926 WAIST:0.991810,-0.000000,0.126879,0.014685 WAIST_JOINT0:0.981088,-0.000000,0.188839,0.042495 WAIST_JOINT1:0.997865,0.059090,-0.000000,0.027825 END:
KINECT_DATA_Sensor  AnkleLeft:0.042096,0.726917,-0.091675,-0.679276 AnkleRight:0.089785,0.806087,0.088073,0.578278 ElbowLeft:-0.036576,0.802912,-0.175460,-0.568514 ElbowRight:-0.408081,0.906660,-0.105009,0.020262 FootLeft:0.000000,0.000000,0.000000,0.000000 FootRight:0.000000,0.000000,0.000000,0.000000 HandLeft:-0.146862,0.824766,0.039803,0.544618 HandRight:0.175820,0.661375,-0.610087,0.399330 HandTipLeft:0.000000,0.000000,0.000000,0.000000 HandTipRight:0.000000,0.000000,0.000000,0.000000 Head:0.000000,0.000000,0.000000,0.000000 HipLeft:0.047464,-0.680135,0.723607,-0.107501 HipRight:-0.214694,0.667751,0.671850,-0.237976 KneeLeft:0.043319,-0.611802,0.041723,0.788721 KneeRight:-0.036467,0.790686,0.069822,0.607133 Neck:-0.188874,0.041136,0.978166,-0.076331 ShoulderLeft:0.095558,0.743506,-0.659975,-0.049995 ShoulderRight:-0.159429,0.764980,0.579380,-0.231745 SpineBase:-0.126470,0.032033,0.990767,-0.036876 SpineMid:-0.157099,0.033160,0.986374,-0.035866 SpineShoulder:-0.188721,0.037717,0.979789,-0.054548 ThumbLeft:0.000000,0.000000,0.000000,0.000000 ThumbRight:0.000000,0.000000,0.000000,0.000000 WristLeft:-0.066141,0.856196,-0.140287,0.492821 WristRight:0.100393,0.642094,-0.608213,0.455755 END:
KINECT_DATA POSITION:12.924008,-0.284487,8.260166 HEAD_JOINT1:0.987156,0.158880,-0.000000,0.016748 LARM_JOINT2:0.791428,0.000000,-0.041548,-0.609849 LARM_JOINT3:0.974830,0.000000,-0.181809,-0.129041 LLEG_JOINT2:0.998923,-0.009769,0.000000,0.045350 LLEG_JOINT4:0.995856,0.090858,0.000000,0.003886 RARM_JOINT2:0.660797,0.000000,0.635602,0.399196 RARM_JOINT3:0.940576,0.000000,0.320820,0.111313 RLEG_JOINT2:0.995574,0.039060,0.000000,-0.085478 RLEG_JOINT4:0.992164,0.090897,0.000000,0.085725 WAIST:0.990439,-0.000000,0.137277,0.013638 WAIST_JOINT0:0.979968,-0.000000,0.192766,0.050033 WAIST_JOINT1:0.997581,0.062389,-0.000000,0.030652 END:
KINECT_DATA_Sensor  AnkleLeft:-0.025956,-0.600615,0.097403,0.793158 AnkleRight:0.091568,0.807766,0.089856,0.575374 ElbowLeft:-0.038095,0.786514,-0.168759,-0.592845 ElbowRight:-0.385246,0.897716,-0.213732,0.003014 FootLeft:0.000000,0.000000,0.000000,0.000000 FootRight:0.000000,0.000000,0.000000,0.000000 HandLeft:-0.219130,0.760320,-0.008821,0.611406 HandRight:0.118210,0.697659,-0.612937,0.351578 HandTipLeft:0.000000,0.000000,0.000000,0.000000 HandTipRight:0.000000,0.000000,0.000000,0.000000 Head:0.000000,0.000000,0.000000,0.000000 HipLeft:0.040423,-0.680704,0.723925,-0.104595 HipRight:-0.220706,0.663923,0.671011,-0.245435 KneeLeft:0.044706,-0.603793,0.039987,0.794881 KneeRight:-0.034745,0.797156,0.073233,0.598307 Neck:-0.193031,0.041595,0.976978,-0.080761 ShoulderLeft:0.107219,0.740493,-0.661179,-0.054926 ShoulderRight:-0.151824,0.770268,0.573650,-0.233584 SpineBase:-0.136678,0.032747,0.989283,-0.039568 SpineMid:-0.164335,0.033843,0.985067,-0.038635 SpineShoulder:-0.192898,0.038219,0.978728,-0.058488 ThumbLeft:0.000000,0.000000,0.000000,0.000000 ThumbRight:0.000000,0.000000,0.000000,0.000000 WristLeft:-0.046643,0.814283,-0.149395,0.558971 WristRight:0.025035,0.678915,-0.602521,0.418826 END:
KINECT_DATA POSITION:12.990755,-0.209791,8.349955 HEAD_JOINT1:0.986401,0.162909,-0.000000,0.021770 LARM_JOINT2:0.791685,0.000000,-0.042455,-0.609453 LARM_JOINT3:0.976240,0.000000,-0.176021,-0.126383 LLEG_JOINT2:0.998996,-0.010245,0.000000,0.043622 LLEG_JOINT4:0.995579,0.093702,0.000000,0.006469 RARM_JOINT2:0.646570,0.000000,0.658655,0.384864 RARM_JOINT3:0.950769,0.000000,0.288455,0.113277 RLEG_JOINT2:0.995351,0.042584,0.000000,-0.086387 RLEG_JOINT4:0.992155,0.088042,0.000000,0.088752 WAIST:0.989666,-0.000000,0.142646,0.014584 WAIST_JOINT0:0.979361,-0.000000,0.194246,0.055864 WAIST_JOINT1:0.997583,0.062256,-0.000000,0.030851 END:
KINECT_DATA_Sensor  AnkleLeft:0.041261,0.704282,-0.095023,-0.702321 AnkleRight:0.093311,0.808230,0.089204,0.574543 ElbowLeft:-0.036599,0.790511,-0.170466,-0.587106 ElbowRight:-0.403958,0.887082,-0.217098,-0.052642 FootLeft:0.000000,0.000000,0.000000,0.000000 FootRight:0.000000,0.000000,0.000000,0.000000 HandLeft:-0.162089,0.810739,-0.019343,0.562188 HandRight:0.117617,0.697281,-0.595090,0.381881 HandTipLeft:0.000000,0.000000,0.000000,0.000000 HandTipRight:0.000000,0.000000,0.000000,0.000000 Head:0.000000,0.000000,0.000000,0.000000 HipLeft:0.036623,-0.680732,0.724514,-0.101692 HipRight:-0.223473,0.663708,0.669225,-0.248375 KneeLeft:0.044555,-0.599542,0.039179,0.798141 KneeRight:-0.033098,0.800630,0.075703,0.593435 Neck:-0.195063,0.042211,0.976545,-0.080804 ShoulderLeft:0.110891,0.736909,-0.664422,-0.056681 ShoulderRight:-0.150588,0.773729,0.569047,-0.234206 SpineBase:-0.142064,0.033579,0.988482,-0.039931 SpineMid:-0.168061,0.034619,0.984395,-0.039033 SpineShoulder:-0.194928,0.038791,0.978296,-0.058609 ThumbLeft:0.000000,0.000000,0.000000,0.000000 ThumbRight:0.000000,0.000000,0.000000,0.000000 WristLeft:-0.053329,0.838404,-0.144949,0.522709 WristRight:0.051918,0.682562,-0.590173,0.427913 END:
KINECT_DATA POSITION:13.043660,-0.141787,8.390629 HEAD_JOINT1:0.986173,0.163651,-0.000000,0.026113 LARM_JOINT2:0.795342,0.000000,-0.039391,-0.604880 LARM_JOINT3:0.977120,0.000000,-0.164371,-0.134978 LLEG_JOINT2:0.999080,-0.010891,0.000000,0.041482 LLEG_JOINT4:0.995749,0.091695,0.000000,0.008750 RARM_JOINT2:0.632642,0.000000,0.664463,0.397811 RARM_JOINT3:0.957978,0.000000,0.267681,0.103075 RLEG_JOINT2:0.995220,0.043492,0.000000,-0.087442 RLEG_JOINT4:0.992322,0.086901,0.000000,0.088009 WAIST:0.989249,-0.000000,0.145358,0.016081 WAIST_JOINT0:0.979325,-0.000000,0.194122,0.056914 WAIST_JOINT1:0.997580,0.062600,-0.000000,0.030271 END:
KINECT_DATA_Sensor  AnkleLeft:-0.024886,-0.599964,0.099302,0.793450 AnkleRight:0.092243,0.808315,0.089561,0.574541 ElbowLeft:-0.033231,0.798085,-0.178338,-0.574588 ElbowRight:-0.387326,0.888070,-0.244792,-0.037249 FootLeft:0.000000,0.000000,0.000000,0.000000 FootRight:0.000000,0.000000,0.000000,0.000000 HandLeft:-0.117678,0.807303,0.004984,0.578264 HandRight:0.133865,0.704506,-0.585064,0.378750 HandTipLeft:0.000000,0.000000,0.000000,0.000000 HandTipRight:0.000000,0.000000,0.000000,0.000000 Head:0.000000,0.000000,0.000000,0.000000 HipLeft:0.033854,-0.679890,0.725741,-0.099515 HipRight:-0.224286,0.664118,0.668063,-0.249668 KneeLeft:0.044779,-0.597362,0.038228,0.799807 KneeRight:-0.032573,0.802377,0.075889,0.591077 Neck:-0.194935,0.042778,0.976509,-0.081240 ShoulderLeft:0.111309,0.737550,-0.663607,-0.057055 ShoulderRight:-0.149530,0.775584,0.566867,-0.234034 SpineBase:-0.144854,0.034221,0.988040,-0.040280 SpineMid:-0.169400,0.035212,0.984129,-0.039416 SpineShoulder:-0.194798,0.039286,0.978279,-0.058994 ThumbLeft:0.000000,0.000000,0.000000,0.000000 ThumbRight:0.000000,0.000000,0.000000,0.000000 WristLeft:-0.046075,0.828551,-0.142494,0.539515 WristRight:0.045594,0.677490,-0.588938,0.438269 END:
KINECT_DATA POSITION:13.098595,-0.071692,8.399593 HEAD_JOINT1:0.985972,0.164568,-0.000000,0.027855 LARM_JOINT2:0.791052,0.000000,-0.043881,-0.610173 LARM_JOINT3:0.976909,0.000000,-0.167476,-0.132666 LLEG_JOINT2:0.999144,-0.010694,0.000000,0.039956 LLEG_JOINT4:0.995786,0.091214,0.000000,0.009545 RARM_JOINT2:0.631569,0.000000,0.663467,0.401163 RARM_JOINT3:0.961915,0.000000,0.255340,0.097577 RLEG_JOINT2:0.995005,0.044041,0.000000,-0.089589 RLEG_JOINT4:0.992033,0.087980,0.000000,0.090169 WAIST:0.989087,-0.000000,0.146303,0.017408 WAIST_JOINT0:0.978553,-0.000000,0.197392,0.058908 WAIST_JOINT1:0.997608,0.062581,-0.000000,0.029370 END:
KINECT_DATA_Sensor  AnkleLeft:0.041381,0.729708,-0.093637,-0.676052 AnkleRight:0.094213,0.809510,0.089770,0.572503 ElbowLeft:-0.036680,0.790023,-0.170545,-0.587735 ElbowRight:-0.384083,0.888758,-0.247638,-0.035570 FootLeft:0.000000,0.000000,0.000000,0.000000 FootRight:0.000000,0.000000,0.000000,0.000000 HandLeft:-0.147051,0.803922,0.029959,0.575489 HandRight:0.116203,0.705262,-0.571732,0.402772 HandTipLeft:0.000000,0.000000,0.000000,0.000000 HandTipRight:0.000000,0.000000,0.000000,0.000000 Head:0.000000,0.000000,0.000000,0.000000 HipLeft:0.033120,-0.678973,0.726698,-0.099041 HipRight:-0.224799,0.664729,0.667082,-0.250204 KneeLeft:0.044624,-0.596580,0.038089,0.800406 KneeRight:-0.033104,0.803006,0.076641,0.590095 Neck:-0.198639,0.043297,0.975770,-0.080874 ShoulderLeft:0.116372,0.735363,-0.664738,-0.061825 ShoulderRight:-0.148941,0.776362,0.565563,-0.234984 SpineBase:-0.145871,0.034956,0.987863,-0.040339 SpineMid:-0.171733,0.036002,0.983696,-0.039408 SpineShoulder:-0.198497,0.039834,0.977527,-0.058765 ThumbLeft:0.000000,0.000000,0.000000,0.000000 ThumbRight:0.000000,0.000000,0.000000,0.000000 WristLeft:-0.053306,0.838273,-0.145296,0.522825 WristRight:0.049417,0.674768,-0.587655,0.443744 END:
KINECT_DATA POSITION:13.117826,-0.023255,8.376861 HEAD_JOINT1:0.986072,0.163409,-0.000000,0.030985 LARM_JOINT2:0.786321,0.000000,-0.046479,-0.616067 LARM_JOINT3:0.979438,0.000000,-0.164891,-0.116246 LLEG_JOINT2:0.999147,-0.010033,0.000000,0.040050 LLEG_JOINT4:0.995888,0.090317,0.000000,0.007079 RARM_JOINT2:0.636191,0.000000,0.660385,0.398940 RARM_JOINT3:0.962337,0.000000,0.252863,0.099842 RLEG_JOINT2:0.995002,0.044502,0.000000,-0.089390 RLEG_JOINT4:0.992123,0.086527,0.000000,0.090579 WAIST:0.989106,-0.000000,0.146152,0.017596 WAIST_JOINT0:0.979236,-0.000000,0.194482,0.057222 WAIST_JOINT1:0.997635,0.062146,-0.000000,0.029356 END:
KINECT_DATA_Sensor  AnkleLeft:-0.025294,-0.599536,0.097542,0.793979 AnkleRight:0.093993,0.808161,0.088709,0.574606 ElbowLeft:-0.041851,0.770023,-0.161476,-0.615824 ElbowRight:-0.390003,0.888643,-0.236701,-0.046723 FootLeft:0.000000,0.000000,0.000000,0.000000 FootRight:0.000000,0.000000,0.000000,0.000000 HandLeft:-0.198809,0.784761,0.046478,0.585205 HandRight:0.108636,0.695653,-0.564580,0.430715 HandTipLeft:0.000000,0.000000,0.000000,0.000000 HandTipRight:0.000000,0.000000,0.000000,0.000000 Head:0.000000,0.000000,0.000000,0.000000 HipLeft:0.032980,-0.678858,0.726814,-0.099020 HipRight:-0.224556,0.664984,0.667025,-0.249897 KneeLeft:0.044285,-0.596693,0.038685,0.800312 KneeRight:-0.032520,0.802965,0.076767,0.590166 Neck:-0.194987,0.043262,0.976553,-0.080334 ShoulderLeft:0.109961,0.739023,-0.662164,-0.057380 ShoulderRight:-0.150608,0.776968,0.564611,-0.234206 SpineBase:-0.145722,0.035258,0.987874,-0.040343 SpineMid:-0.169831,0.036234,0.984016,-0.039469 SpineShoulder:-0.194835,0.039837,0.978277,-0.058542 ThumbLeft:0.000000,0.000000,0.000000,0.000000 ThumbRight:0.000000,0.000000,0.000000,0.000000 WristLeft:-0.041929,0.844877,-0.150159,0.511740 WristRight:0.063651,0.669797,-0.583218,0.455168 END:
KINECT_DATA POSITION:13.098499,-0.004108,8.324647 HEAD_JOINT1:0.986128,0.162204,-0.000000,0.035225 LARM_JOINT2:0.790366,0.000000,-0.039446,-0.611364 LARM_JOINT3:0.977527,0.000000,-0.168973,-0.126050 LLEG_JOINT2:0.999152,-0.010171,0.000000,0.039909 LLEG_JOINT4:0.995657,0.092736,0.000000,0.008153 RARM_JOINT2:0.632642,0.000000,0.660168,0.404897 RARM_JOINT3:0.962255,0.000000,0.255233,0.094451 RLEG_JOINT2:0.995017,0.044209,0.000000,-0.089367 RLEG_JOINT4:0.992067,0.088019,0.000000,0.089756 WAIST:0.989361,-0.000000,0.144398,0.017746 WAIST_JOINT0:0.979713,-0.000000,0.192363,0.056202 WAIST_JOINT1:0.997668,0.061751,-0.000000,0.029068 END:
KINECT_DATA_Sensor  AnkleLeft:0.042577,0.724160,-0.094027,-0.681864 AnkleRight:0.094415,0.807118,0.089866,0.575822 ElbowLeft:-0.037582,0.778745,-0.169681,-0.602787 ElbowRight:-0.384036,0.889841,-0.243513,-0.037437 FootLeft:0.000000,0.000000,0.000000,0.000000 FootRight:0.000000,0.000000,0.000000,0.000000 HandLeft:-0.176370,0.780029,0.049567,0.598324 HandRight:0.120464,0.685793,-0.577847,0.425758 HandTipLeft:0.000000,0.000000,0.000000,0.000000 HandTipRight:0.000000,0.000000,0.000000,0.000000 Head:0.000000,0.000000,0.000000,0.000000 HipLeft:0.033497,-0.678837,0.726773,-0.099297 HipRight:-0.222982,0.665694,0.667352,-0.248539 KneeLeft:0.044465,-0.598086,0.038538,0.799269 KneeRight:-0.032417,0.801914,0.076491,0.591635 Neck:-0.192289,0.043171,0.977132,-0.079843 ShoulderLeft:0.104138,0.741773,-0.660358,-0.053434 ShoulderRight:-0.153084,0.777558,0.563181,-0.234085 SpineBase:-0.143992,0.035161,0.988135,-0.040227 SpineMid:-0.167611,0.036114,0.984404,-0.039373 SpineShoulder:-0.192125,0.039804,0.978838,-0.058133 ThumbLeft:0.000000,0.000000,0.000000,0.000000 ThumbRight:0.000000,0.000000,0.000000,0.000000 WristLeft:-0.045161,0.834084,-0.149700,0.529012 WristRight:0.063147,0.665141,-0.582984,0.462309 END:
KINECT_DATA POSITION:13.076207,-0.007816,8.232355 HEAD_JOINT1:0.986489,0.159829,-0.000000,0.035987 LARM_JOINT2:0.793564,0.000000,-0.035147,-0.607471 LARM_JOINT3:0.976218,0.000000,-0.170268,-0.134189 LLEG_JOINT2:0.999138,-0.010496,0.000000,0.040163 LLEG_JOINT4:0.995673,0.092708,0.000000,0.006393 RARM_JOINT2:0.639786,0.000000,0.661211,0.391758 RARM_JOINT3:0.955367,0.000000,0.272450,0.114216 RLEG_JOINT2:0.995021,0.043281,0.000000,-0.089777 RLEG_JOINT4:0.992216,0.087612,0.000000,0.088492 WAIST:0.989507,-0.000000,0.143382,0.017837 WAIST_JOINT0:0.979671,-0.000000,0.192517,0.056399 WAIST_JOINT1:0.997653,0.062079,-0.000000,0.028877 END:
KINECT_DATA_Sensor  AnkleLeft:-0.026681,-0.600673,0.098509,0.792954 AnkleRight:0.092565,0.807503,0.089605,0.575623 ElbowLeft:-0.033201,0.789078,-0.176259,-0.587526 ElbowRight:-0.402238,0.885940,-0.220626,-0.068119 FootLeft:0.000000,0.000000,0.000000,0.000000 FootRight:0.000000,0.000000,0.000000,0.000000 HandLeft:-0.134904,0.776751,0.050505,0.613113 HandRight:0.146701,0.679067,-0.585520,0.417748 HandTipLeft:0.000000,0.000000,0.000000,0.000000 HandTipRight:0.000000,0.000000,0.000000,0.000000 Head:0.000000,0.000000,0.000000,0.000000 HipLeft:0.033431,-0.678865,0.726682,-0.099791 HipRight:-0.221773,0.666044,0.667561,-0.248122 KneeLeft:0.044967,-0.598902,0.038580,0.798627 KneeRight:-0.033158,0.801232,0.075973,0.592584 Neck:-0.192553,0.043183,0.977061,-0.080068 ShoulderLeft:0.104120,0.741699,-0.660471,-0.053112 ShoulderRight:-0.153525,0.777663,0.562663,-0.234695 SpineBase:-0.142983,0.035077,0.988266,-0.040683 SpineMid:-0.167233,0.036067,0.984453,-0.039809 SpineShoulder:-0.192390,0.039823,0.978772,-0.058361 ThumbLeft:0.000000,0.000000,0.000000,0.000000 ThumbRight:0.000000,0.000000,0.000000,0.000000 WristLeft:-0.048987,0.817931,-0.147944,0.553807 WristRight:0.080114,0.667079,-0.577295,0.464024 END:
KINECT_DATA POSITION:13.135913,-0.073210,8.319521 HEAD_JOINT1:0.987466,0.153571,-0.000000,0.036419 LARM_JOINT2:0.790083,0.000000,-0.054080,-0.610610 LARM_JOINT3:0.979987,0.000000,-0.157035,-0.122336 LLEG_JOINT2:0.999106,-0.008831,0.000000,0.041333 LLEG_JOINT4:0.995932,0.089768,0.000000,0.007844 RARM_JOINT2:0.661103,0.000000,0.620087,0.422416 RARM_JOINT3:0.938610,0.000000,0.323107,0.120882 RLEG_JOINT2:0.995034,0.043480,0.000000,-0.089532 RLEG_JOINT4:0.992178,0.087274,0.000000,0.089256 WAIST:0.989999,-0.000000,0.140110,0.016439 WAIST_JOINT0:0.978301,-0.000000,0.199066,0.057437 WAIST_JOINT1:0.997968,0.057147,-0.000000,0.028194 END:
KINECT_DATA_Sensor  AnkleLeft:0.041227,0.728873,-0.093363,-0.676999 AnkleRight:0.084190,0.750062,0.097587,0.648687 ElbowLeft:-0.046302,0.803393,-0.163051,-0.570816 ElbowRight:-0.374043,0.903160,-0.210681,-0.002797 FootLeft:0.000000,0.000000,0.000000,0.000000 FootRight:0.000000,0.000000,0.000000,0.000000 HandLeft:-0.222819,0.804086,0.000737,0.551177 HandRight:0.150635,0.673171,-0.606961,0.394650 HandTipLeft:0.000000,0.000000,0.000000,0.000000 HandTipRight:0.000000,0.000000,0.000000,0.000000 Head:0.000000,0.000000,0.000000,0.000000 HipLeft:0.038633,-0.679693,0.725381,-0.101721 HipRight:-0.222932,0.666132,0.668022,-0.245592 KneeLeft:0.043439,-0.601492,0.039415,0.796722 KneeRight:-0.033517,0.799260,0.077129,0.595072 Neck:-0.199437,0.042031,0.976329,-0.072384 ShoulderLeft:0.109537,0.738013,-0.662800,-0.063512 ShoulderRight:-0.156848,0.776648,0.563149,-0.234689 SpineBase:-0.139651,0.035163,0.988844,-0.038068 SpineMid:-0.168931,0.036277,0.984265,-0.037008 SpineShoulder:-0.199265,0.039145,0.977690,-0.053704 ThumbLeft:0.000000,0.000000,0.000000,0.000000 ThumbRight:0.000000,0.000000,0.000000,0.000000 WristLeft:-0.042871,0.854500,-0.139441,0.498546 WristRight:0.073113,0.659791,-0.596474,0.451165 END:
KINECT_DATA POSITION:12.985479,-0.690689,9.172356 HEAD_JOINT1:0.989863,0.133721,-0.000000,0.047853 LARM_JOINT2:0.805318,0.000000,-0.037243,-0.591672 LARM_JOINT3:0.966130,0.000000,-0.193987,-0.170180 LLEG_JOINT2:0.998495,-0.001821,0.000000,0.054807 LLEG_JOINT4:0.995277,0.097077,0.000000,-0.000275 RARM_JOINT2:0.735966,0.000000,0.537345,0.411843 RARM_JOINT3:0.851063,0.000000,0.483286,0.205248 RLEG_JOINT2:0.996186,0.039878,0.000000,-0.077606 RLEG_JOINT4:0.992908,0.089388,0.000000,0.078384 WAIST:0.994798,-0.000000,0.101605,0.007341 WAIST_JOINT0:0.985048,-0.000000,0.167775,0.039144 WAIST_JOINT1:0.999228,0.032840,-0.000000,0.021583 END:
KINECT_DATA_Sensor  AnkleLeft:-0.033316,-0.615924,0.107586,0.779714 AnkleRight:0.085219,0.749399,0.095829,0.649581 ElbowLeft:-0.054049,0.857127,-0.170358,-0.483104 ElbowRight:-0.405073,0.909764,-0.078645,0.045382 FootLeft:0.000000,0.000000,0.000000,0.000000 FootRight:0.000000,0.000000,0.000000,0.000000 HandLeft:-0.231243,0.735696,-0.096182,0.629307 HandRight:-0.136740,-0.624692,0.678327,-0.361848 HandTipLeft:0.000000,0.000000,0.000000,0.000000 HandTipRight:0.000000,0.000000,0.000000,0.000000 Head:0.000000,0.000000,0.000000,0.000000 HipLeft:0.078951,-0.684236,0.715513,-0.116744 HipRight:-0.214787,0.669475,0.676407,-0.219417 KneeLeft:0.041169,-0.631026,0.046559,0.773268 KneeRight:-0.029504,0.775482,0.074881,0.626219 Neck:-0.164838,0.028707,0.984820,-0.046194 ShoulderLeft:0.049822,0.756088,-0.651228,-0.041844 ShoulderRight:-0.171144,0.777213,0.569881,-0.204661 SpineBase:-0.101235,0.027697,0.994260,-0.020748 SpineMid:-0.132340,0.028334,0.990600,-0.019870 SpineShoulder:-0.164612,0.027283,0.985555,-0.028972 ThumbLeft:0.000000,0.000000,0.000000,0.000000 ThumbRight:0.000000,0.000000,0.000000,0.000000 WristLeft:-0.099647,0.767632,-0.137943,0.617886 WristRight:0.102784,0.649795,-0.640057,0.396899 END:
KINECT_DATA POSITION:12.814224,-0.820903,9.308159 HEAD_JOINT1:0.991637,0.119216,-0.000000,0.049433 LARM_JOINT2:0.812500,0.000000,-0.050984,-0.580727 LARM_JOINT3:0.966856,0.000000,-0.177998,-0.183046 LLEG_JOINT2:0.998526,0.000808,0.000000,0.054267 LLEG_JOINT4:0.995158,0.098134,0.000000,-0.005575 RARM_JOINT2:0.815886,0.000000,0.433606,0.382513 RARM_JOINT3:0.753271,0.000000,0.611706,0.241659 RLEG_JOINT2:0.996567,0.035340,0.000000,-0.074872 RLEG_JOINT4:0.993110,0.088900,0.000000,0.076344 WAIST:0.996675,-0.000000,0.081034,0.008549 WAIST_JOINT0:0.990609,-0.000000,0.133596,0.029078 WAIST_JOINT1:0.999346,0.032902,-0.000000,0.015004 END:
KINECT_DATA_Sensor  AnkleLeft:-0.037534,-0.636063,0.106976,0.763264 AnkleRight:0.084719,0.730452,0.089860,0.671705 ElbowLeft:-0.063239,0.885349,-0.174715,-0.426184 ElbowRight:-0.396165,0.904629,0.037456,0.152632 FootLeft:0.000000,0.000000,0.000000,0.000000 FootRight:0.000000,0.000000,0.000000,0.000000 HandLeft:-0.174597,0.792413,-0.064263,0.580919 HandRight:-0.160360,-0.567044,0.695867,-0.410506 HandTipLeft:0.000000,0.000000,0.000000,0.000000 HandTipRight:0.000000,0.000000,0.000000,0.000000 Head:0.000000,0.000000,0.000000,0.000000 HipLeft:0.092422,-0.683205,0.714018,-0.121927 HipRight:-0.200082,0.675589,0.679607,-0.204160 KneeLeft:0.040531,-0.646567,0.047935,0.760270 KneeRight:-0.027921,0.762243,0.069476,0.642945 Neck:-0.134935,0.023546,0.989351,-0.049225 ShoulderLeft:0.041214,0.755160,-0.653626,-0.028413 ShoulderRight:-0.139085,0.776304,0.589849,-0.173454 SpineBase:-0.080883,0.023209,0.996318,-0.016403 SpineMid:-0.107353,0.023637,0.993815,-0.015780 SpineShoulder:-0.134703,0.022335,0.990251,-0.027557 ThumbLeft:0.000000,0.000000,0.000000,0.000000 ThumbRight:0.000000,0.000000,0.000000,0.000000 WristLeft:-0.121153,0.805521,-0.118264,0.567866 WristRight:-0.146214,-0.582905,0.672734,-0.431593 END:
