EastLYD/RoboCupatHomeSim/InteractiveCleanUp/JapanOpen2016/Motion_Data/File30.dat
KINECT_DATA POSITION:1.866163,-1.533292,-1.155210 HEAD_JOINT1:0.980724,0.165007,-0.000000,0.104661 LARM_JOINT2:0.834674,0.000000,-0.031766,-0.549827 LARM_JOINT3:0.961062,0.000000,-0.215430,-0.173057 LLEG_JOINT2:0.999079,0.011406,0.000000,0.041354 LLEG_JOINT4:0.995182,0.095886,0.000000,-0.020477 RARM_JOINT2:0.809659,0.000000,-0.031045,0.586078 RARM_JOINT3:0.976136,0.000000,0.187782,0.109073 RLEG_JOINT2:0.999626,0.012987,0.000000,-0.024082 RLEG_JOINT4:0.995413,0.087667,0.000000,0.038314 WAIST:0.999933,-0.000000,0.011584,0.000500 WAIST_JOINT0:0.999788,0.000000,-0.020224,0.003911 WAIST_JOINT1:0.996345,0.084519,0.000000,-0.012379 END:
KINECT_DATA_Sensor  AnkleLeft:0.068993,0.747828,-0.084665,-0.654848 AnkleRight:0.080251,0.702642,0.062381,0.704246 ElbowLeft:-0.028473,0.887361,-0.194493,-0.417075 ElbowRight:0.002272,0.847758,0.200745,0.490921 FootLeft:0.000000,0.000000,0.000000,0.000000 FootRight:0.000000,0.000000,0.000000,0.000000 HandLeft:-0.154689,0.621856,-0.084236,0.763067 HandRight:-0.110220,0.932527,0.000881,0.343866 HandTipLeft:0.000000,0.000000,0.000000,0.000000 HandTipRight:0.000000,0.000000,0.000000,0.000000 Head:0.000000,0.000000,0.000000,0.000000 HipLeft:0.100605,-0.677183,0.709491,-0.167104 HipRight:-0.120399,0.669674,0.706264,-0.195528 KneeLeft:0.021114,-0.697855,0.037892,0.714924 KneeRight:-0.007764,0.715862,0.025776,0.697723 Neck:0.017607,-0.017312,0.994630,-0.100503 ShoulderLeft:0.060396,0.768631,-0.634576,0.053588 ShoulderRight:0.084966,0.771468,0.630099,-0.024358 SpineBase:-0.012188,-0.010353,0.998158,-0.058528 SpineMid:0.002615,-0.011220,0.998229,-0.058368 SpineShoulder:0.017595,-0.014683,0.996641,-0.078618 ThumbLeft:0.000000,0.000000,0.000000,0.000000 ThumbRight:0.000000,0.000000,0.000000,0.000000 WristLeft:-0.076748,0.628647,-0.118789,0.764724 WristRight:-0.096226,0.932046,0.033989,0.347672 END:
KINECT_DATA POSITION:1.907063,-1.537964,-1.143765 HEAD_JOINT1:0.981220,0.162237,-0.000000,0.104343 LARM_JOINT2:0.835081,0.000000,-0.031774,-0.549209 LARM_JOINT3:0.961125,0.000000,-0.212753,-0.175997 LLEG_JOINT2:0.999081,0.012037,0.000000,0.041133 LLEG_JOINT4:0.995293,0.094218,0.000000,-0.022712 RARM_JOINT2:0.810059,0.000000,-0.030838,0.585537 RARM_JOINT3:0.975694,0.000000,0.189172,0.110616 RLEG_JOINT2:0.999612,0.013300,0.000000,-0.024474 RLEG_JOINT4:0.995376,0.087980,0.000000,0.038541 WAIST:0.999942,-0.000000,0.010735,0.000818 WAIST_JOINT0:0.999763,0.000000,-0.021367,0.004061 WAIST_JOINT1:0.996381,0.084020,0.000000,-0.012847 END:
KINECT_DATA_Sensor  AnkleLeft:0.069430,0.748119,-0.082461,-0.654751 AnkleRight:0.080839,0.701911,0.062662,0.704882 ElbowLeft:-0.029009,0.888361,-0.194832,-0.414745 ElbowRight:0.001474,0.847356,0.201088,0.491476 FootLeft:0.000000,0.000000,0.000000,0.000000 FootRight:0.000000,0.000000,0.000000,0.000000 HandLeft:-0.155186,0.656285,-0.065028,0.735512 HandRight:-0.114029,0.929566,-0.007426,0.350498 HandTipLeft:0.000000,0.000000,0.000000,0.000000 HandTipRight:0.000000,0.000000,0.000000,0.000000 Head:0.000000,0.000000,0.000000,0.000000 HipLeft:0.101323,-0.676963,0.709572,-0.167220 HipRight:-0.120001,0.670106,0.706114,-0.194835 KneeLeft:0.020767,-0.698453,0.038384,0.714324 KneeRight:-0.007576,0.715295,0.026055,0.698295 Neck:0.018694,-0.017360,0.994670,-0.099907 ShoulderLeft:0.059292,0.768865,-0.634349,0.054144 ShoulderRight:0.085264,0.771791,0.629706,-0.023222 SpineBase:-0.011382,-0.010407,0.998188,-0.058160 SpineMid:0.003559,-0.011277,0.998247,-0.057998 SpineShoulder:0.018678,-0.014775,0.996657,-0.078151 ThumbLeft:0.000000,0.000000,0.000000,0.000000 ThumbRight:0.000000,0.000000,0.000000,0.000000 WristLeft:-0.083074,0.662110,-0.115036,0.735851 WristRight:-0.097184,0.929068,0.033960,0.355295 END:
KINECT_DATA POSITION:1.885827,-1.543657,-1.178753 HEAD_JOINT1:0.981781,0.159043,-0.000000,0.103977 LARM_JOINT2:0.835259,0.000000,-0.030029,-0.549036 LARM_JOINT3:0.961856,0.000000,-0.208792,-0.176748 LLEG_JOINT2:0.999078,0.012024,0.000000,0.041219 LLEG_JOINT4:0.995126,0.095048,0.000000,-0.026288 RARM_JOINT2:0.810667,0.000000,-0.030437,0.584716 RARM_JOINT3:0.975568,0.000000,0.189280,0.111533 RLEG_JOINT2:0.999609,0.012964,0.000000,-0.024786 RLEG_JOINT4:0.995395,0.087284,0.000000,0.039617 WAIST:0.999950,-0.000000,0.009920,0.001022 WAIST_JOINT0:0.999745,0.000000,-0.022106,0.004569 WAIST_JOINT1:0.996525,0.082290,0.000000,-0.012872 END:
KINECT_DATA_Sensor  AnkleLeft:0.068039,0.715416,-0.083961,-0.690290 AnkleRight:0.084879,0.748145,0.055492,0.655741 ElbowLeft:-0.030010,0.887579,-0.195115,-0.416212 ElbowRight:-0.000055,0.848116,0.200746,0.490307 FootLeft:0.000000,0.000000,0.000000,0.000000 FootRight:0.000000,0.000000,0.000000,0.000000 HandLeft:-0.145442,0.665209,-0.050909,0.730584 HandRight:-0.117905,0.928504,-0.010608,0.351947 HandTipLeft:0.000000,0.000000,0.000000,0.000000 HandTipRight:0.000000,0.000000,0.000000,0.000000 Head:0.000000,0.000000,0.000000,0.000000 HipLeft:0.102308,-0.676969,0.709510,-0.166861 HipRight:-0.119969,0.670669,0.705942,-0.193536 KneeLeft:0.021010,-0.699033,0.038564,0.713739 KneeRight:-0.007868,0.714722,0.025897,0.698884 Neck:0.019431,-0.016979,0.994850,-0.098015 ShoulderLeft:0.057418,0.769074,-0.634301,0.053755 ShoulderRight:0.084328,0.772731,0.628733,-0.021701 SpineBase:-0.010574,-0.010282,0.998259,-0.057104 SpineMid:0.004327,-0.011133,0.998306,-0.056945 SpineShoulder:0.019413,-0.014475,0.996775,-0.076500 ThumbLeft:0.000000,0.000000,0.000000,0.000000 ThumbRight:0.000000,0.000000,0.000000,0.000000 WristLeft:-0.084369,0.670087,-0.115664,0.728346 WristRight:-0.098365,0.928174,0.033614,0.357333 END:
KINECT_DATA POSITION:1.851964,-1.566858,-1.215935 HEAD_JOINT1:0.982266,0.156668,-0.000000,0.102994 LARM_JOINT2:0.833371,0.000000,-0.023568,-0.552212 LARM_JOINT3:0.961400,0.000000,-0.214575,-0.172244 LLEG_JOINT2:0.999109,0.012640,0.000000,0.040268 LLEG_JOINT4:0.995582,0.090849,0.000000,-0.023730 RARM_JOINT2:0.811089,0.000000,-0.038598,0.583648 RARM_JOINT3:0.961614,0.000000,0.239676,0.133618 RLEG_JOINT2:0.999586,0.012158,0.000000,-0.026097 RLEG_JOINT4:0.995433,0.087730,0.000000,0.037635 WAIST:0.999936,-0.000000,0.011175,0.001814 WAIST_JOINT0:0.999906,0.000000,-0.010734,0.008522 WAIST_JOINT1:0.997003,0.076699,0.000000,-0.010074 END:
KINECT_DATA_Sensor  AnkleLeft:0.063269,0.709942,-0.083689,-0.696402 AnkleRight:0.079246,0.708065,0.062105,0.698932 ElbowLeft:-0.033235,0.878813,-0.194854,-0.434298 ElbowRight:-0.000467,0.842212,0.199063,0.501051 FootLeft:0.000000,0.000000,0.000000,0.000000 FootRight:0.000000,0.000000,0.000000,0.000000 HandLeft:-0.155436,0.844579,-0.018304,0.512045 HandRight:-0.209503,0.903132,-0.122368,0.354241 HandTipLeft:0.000000,0.000000,0.000000,0.000000 HandTipRight:0.000000,0.000000,0.000000,0.000000 Head:0.000000,0.000000,0.000000,0.000000 HipLeft:0.103265,-0.677076,0.709857,-0.164339 HipRight:-0.123437,0.671843,0.704785,-0.191488 KneeLeft:0.020408,-0.698291,0.038904,0.714465 KneeRight:-0.008848,0.715473,0.025666,0.698113 Neck:0.008263,-0.012039,0.995637,-0.092161 ShoulderLeft:0.058425,0.770245,-0.633552,0.043827 ShoulderRight:0.070636,0.777855,0.623772,-0.029351 SpineBase:-0.011750,-0.008014,0.998462,-0.053589 SpineMid:-0.001849,-0.008545,0.998529,-0.053507 SpineShoulder:0.008242,-0.010163,0.997369,-0.071300 ThumbLeft:0.000000,0.000000,0.000000,0.000000 ThumbRight:0.000000,0.000000,0.000000,0.000000 WristLeft:-0.119147,0.854941,-0.094486,0.495936 WristRight:-0.119126,0.916136,0.007684,0.382681 END:
KINECT_DATA POSITION:1.807249,-1.574005,-1.165390 HEAD_JOINT1:0.983344,0.152211,-0.000000,0.099334 LARM_JOINT2:0.832025,0.000000,-0.011840,-0.554612 LARM_JOINT3:0.961080,0.000000,-0.216581,-0.171513 LLEG_JOINT2:0.999142,0.012680,0.000000,0.039419 LLEG_JOINT4:0.995751,0.088772,0.000000,-0.024469 RARM_JOINT2:0.815455,0.000000,-0.039081,0.577500 RARM_JOINT3:0.935070,0.000000,0.310511,0.170961 RLEG_JOINT2:0.999573,0.011512,0.000000,-0.026875 RLEG_JOINT4:0.995290,0.089463,0.000000,0.037346 WAIST:0.999905,-0.000000,0.013499,0.002938 WAIST_JOINT0:0.999914,0.000000,-0.000949,0.013111 WAIST_JOINT1:0.997472,0.070817,0.000000,-0.005939 END:
KINECT_DATA_Sensor  AnkleLeft:0.061826,0.704735,-0.082143,-0.701982 AnkleRight:0.080219,0.713287,0.062597,0.693446 ElbowLeft:-0.032835,0.870651,-0.198905,-0.448693 ElbowRight:-0.005904,0.845216,0.198121,0.496309 FootLeft:0.000000,0.000000,0.000000,0.000000 FootRight:0.000000,0.000000,0.000000,0.000000 HandLeft:-0.139041,0.685991,-0.063849,0.711342 HandRight:-0.320090,0.873178,-0.227535,0.288668 HandTipLeft:0.000000,0.000000,0.000000,0.000000 HandTipRight:0.000000,0.000000,0.000000,0.000000 Head:0.000000,0.000000,0.000000,0.000000 HipLeft:0.103740,-0.677091,0.710402,-0.161602 HipRight:-0.128350,0.673229,0.703025,-0.189853 KneeLeft:0.020484,-0.696788,0.039167,0.715914 KneeRight:-0.009131,0.716933,0.024926,0.696637 Neck:-0.001312,-0.005984,0.996267,-0.086112 ShoulderLeft:0.057526,0.770830,-0.633463,0.035173 ShoulderRight:0.057251,0.783842,0.617279,-0.035790 SpineBase:-0.013963,-0.004442,0.998652,-0.049793 SpineMid:-0.007718,-0.004754,0.998720,-0.049764 SpineShoulder:-0.001276,-0.004473,0.997829,-0.065700 ThumbLeft:0.000000,0.000000,0.000000,0.000000 ThumbRight:0.000000,0.000000,0.000000,0.000000 WristLeft:-0.086591,0.700413,-0.128496,0.696715 WristRight:-0.162533,0.921402,-0.044056,0.350228 END:
KINECT_DATA POSITION:1.828356,-1.573531,-1.071155 HEAD_JOINT1:0.984121,0.150653,-0.000000,0.093857 LARM_JOINT2:0.828357,0.000000,0.001350,-0.560200 LARM_JOINT3:0.960853,0.000000,-0.225495,-0.160976 LLEG_JOINT2:0.999208,0.013916,0.000000,0.037278 LLEG_JOINT4:0.995555,0.090457,0.000000,-0.026233 RARM_JOINT2:0.816319,0.000000,-0.019018,0.577287 RARM_JOINT3:0.896007,0.000000,0.384179,0.222663 RLEG_JOINT2:0.999517,0.011306,0.000000,-0.028936 RLEG_JOINT4:0.994901,0.094786,0.000000,0.034454 WAIST:0.999847,-0.000000,0.016644,0.005420 WAIST_JOINT0:0.999727,-0.000000,0.015630,0.017349 WAIST_JOINT1:0.997776,0.066569,0.000000,-0.003397 END:
KINECT_DATA_Sensor  AnkleLeft:-0.064342,-0.695271,0.083475,0.710979 AnkleRight:0.082476,0.722100,0.067359,0.683544 ElbowLeft:-0.031190,0.854605,-0.199979,-0.478212 ElbowRight:-0.017228,0.861584,0.184406,0.472622 FootLeft:0.000000,0.000000,0.000000,0.000000 FootRight:0.000000,0.000000,0.000000,0.000000 HandLeft:-0.121237,0.619032,-0.097972,0.769742 HandRight:-0.307456,0.824635,-0.315504,0.354829 HandTipLeft:0.000000,0.000000,0.000000,0.000000 HandTipRight:0.000000,0.000000,0.000000,0.000000 Head:0.000000,0.000000,0.000000,0.000000 HipLeft:0.104088,-0.676371,0.711746,-0.158449 HipRight:-0.134116,0.675377,0.700086,-0.189098 KneeLeft:0.019736,-0.694615,0.040302,0.717981 KneeRight:-0.009090,0.719055,0.024419,0.694465 Neck:-0.017546,0.000178,0.996481,-0.081966 ShoulderLeft:0.061594,0.770820,-0.633668,0.022530 ShoulderRight:0.040297,0.788199,0.612165,-0.048716 SpineBase:-0.017116,-0.000590,0.998801,-0.045867 SpineMid:-0.017358,-0.000578,0.998797,-0.045867 SpineShoulder:-0.017474,0.001183,0.997952,-0.061523 ThumbLeft:0.000000,0.000000,0.000000,0.000000 ThumbRight:0.000000,0.000000,0.000000,0.000000 WristLeft:-0.067025,0.623294,-0.147033,0.765110 WristRight:-0.208006,0.876812,-0.165401,0.400721 END:
KINECT_DATA POSITION:2.228871,-1.591066,-0.806773 HEAD_JOINT1:0.984123,0.155725,-0.000000,0.085152 LARM_JOINT2:0.826263,0.000000,0.028302,-0.562573 LARM_JOINT3:0.960679,0.000000,-0.229547,-0.156221 LLEG_JOINT2:0.999465,0.018754,0.000000,0.026805 LLEG_JOINT4:0.996278,0.083397,0.000000,-0.021782 RARM_JOINT2:0.822787,0.000000,-0.015576,0.568137 RARM_JOINT3:0.876616,0.000000,0.399182,0.268696 RLEG_JOINT2:0.999078,0.016080,0.000000,-0.039811 RLEG_JOINT4:0.995059,0.091837,0.000000,0.037739 WAIST:0.999513,-0.000000,0.028590,0.012483 WAIST_JOINT0:0.999114,-0.000000,0.036851,0.020341 WAIST_JOINT1:0.997969,0.063620,0.000000,-0.003292 END:
KINECT_DATA_Sensor  AnkleLeft:0.068445,0.736538,-0.077116,-0.668491 AnkleRight:0.082695,0.733281,0.069394,0.671301 ElbowLeft:-0.020291,0.828909,-0.211813,-0.517333 ElbowRight:-0.025523,0.870378,0.184599,0.455756 FootLeft:0.000000,0.000000,0.000000,0.000000 FootRight:0.000000,0.000000,0.000000,0.000000 HandLeft:-0.092984,0.624565,-0.098879,0.769087 HandRight:0.348510,-0.271929,-0.255708,0.859773 HandTipLeft:0.000000,0.000000,0.000000,0.000000 HandTipRight:0.000000,0.000000,0.000000,0.000000 Head:0.000000,0.000000,0.000000,0.000000 HipLeft:0.099694,-0.673533,0.716775,-0.150492 HipRight:-0.146526,0.679390,0.692697,-0.192691 KneeLeft:0.013578,-0.686000,0.041188,0.726308 KneeRight:-0.009057,0.727393,0.030210,0.685496 Neck:-0.037903,0.008913,0.996168,-0.078312 ShoulderLeft:0.063297,0.771841,-0.632544,0.011966 ShoulderRight:0.015329,0.791135,0.607381,-0.070419 SpineBase:-0.029259,0.006906,0.998707,-0.040995 SpineMid:-0.033526,0.007081,0.998573,-0.040965 SpineShoulder:-0.037927,0.007569,0.997530,-0.058639 ThumbLeft:0.000000,0.000000,0.000000,0.000000 ThumbRight:0.000000,0.000000,0.000000,0.000000 WristLeft:-0.046786,0.626355,-0.154170,0.762707 WristRight:0.196259,-0.315918,-0.243124,0.895862 END:
KINECT_DATA POSITION:3.076020,-1.549669,-0.318360 HEAD_JOINT1:0.984242,0.160208,-0.000000,0.074846 LARM_JOINT2:0.822230,0.000000,0.024905,-0.568610 LARM_JOINT3:0.959180,0.000000,-0.234082,-0.158683 LLEG_JOINT2:0.999732,0.022542,0.000000,0.005292 LLEG_JOINT4:0.997238,0.073881,0.000000,-0.007578 RARM_JOINT2:0.829608,0.000000,-0.000082,0.558346 RARM_JOINT3:0.862871,0.000000,0.411103,0.294020 RLEG_JOINT2:0.997908,0.023685,0.000000,-0.060148 RLEG_JOINT4:0.994974,0.091210,0.000000,0.041330 WAIST:0.998428,-0.000000,0.050118,0.025114 WAIST_JOINT0:0.997119,-0.000000,0.069339,0.030769 WAIST_JOINT1:0.998092,0.061395,0.000000,-0.006518 END:
KINECT_DATA_Sensor  AnkleLeft:-0.055387,-0.666271,0.080494,0.739281 AnkleRight:0.082676,0.750165,0.077961,0.651413 ElbowLeft:-0.020576,0.819980,-0.211530,-0.531474 ElbowRight:-0.042258,0.886706,0.178008,0.424594 FootLeft:0.000000,0.000000,0.000000,0.000000 FootRight:0.000000,0.000000,0.000000,0.000000 HandLeft:-0.127206,0.609788,-0.133054,0.770891 HandRight:-0.425036,0.821978,-0.194128,-0.325593 HandTipLeft:0.000000,0.000000,0.000000,0.000000 HandTipRight:0.000000,0.000000,0.000000,0.000000 Head:0.000000,0.000000,0.000000,0.000000 HipLeft:0.090954,-0.667602,0.726073,-0.137303 HipRight:-0.167244,0.685915,0.679518,-0.199515 KneeLeft:0.004587,-0.669914,0.036793,0.741512 KneeRight:-0.010933,0.742378,0.040190,0.668686 Neck:-0.070303,0.020034,0.994471,-0.075396 ShoulderLeft:0.079185,0.765015,-0.639007,-0.012321 ShoulderRight:-0.010512,0.795184,0.598514,-0.096707 SpineBase:-0.051057,0.020098,0.997918,-0.033898 SpineMid:-0.060351,0.020413,0.997399,-0.033709 SpineShoulder:-0.070463,0.015537,0.995824,-0.055928 ThumbLeft:0.000000,0.000000,0.000000,0.000000 ThumbRight:0.000000,0.000000,0.000000,0.000000 WristLeft:-0.031853,0.617267,-0.156102,0.770454 WristRight:-0.341955,0.898437,-0.048937,-0.271076 END:
KINECT_DATA POSITION:3.365655,-1.632271,-0.016963 HEAD_JOINT1:0.984776,0.160468,-0.000000,0.066830 LARM_JOINT2:0.818674,0.000000,0.026458,-0.573648 LARM_JOINT3:0.958875,0.000000,-0.235069,-0.159065 LLEG_JOINT2:0.999668,0.025525,0.000000,-0.003627 LLEG_JOINT4:0.997555,0.069604,0.000000,-0.006224 RARM_JOINT2:0.827686,0.000000,0.035601,0.560060 RARM_JOINT3:0.866258,0.000000,0.399933,0.299417 RLEG_JOINT2:0.997298,0.026545,0.000000,-0.068504 RLEG_JOINT4:0.994827,0.091801,0.000000,0.043499 WAIST:0.997907,-0.000000,0.056570,0.031330 WAIST_JOINT0:0.996122,-0.000000,0.080829,0.034751 WAIST_JOINT1:0.998232,0.058953,0.000000,-0.007592 END:
KINECT_DATA_Sensor  AnkleLeft:-0.055240,-0.659553,0.078071,0.745549 AnkleRight:0.087577,0.781381,0.076898,0.613075 ElbowLeft:-0.020561,0.815106,-0.209942,-0.539541 ElbowRight:-0.062345,0.903205,0.154840,0.395421 FootLeft:0.000000,0.000000,0.000000,0.000000 FootRight:0.000000,0.000000,0.000000,0.000000 HandLeft:-0.173088,0.859224,-0.076751,0.475272 HandRight:0.261634,0.327005,-0.426462,0.801714 HandTipLeft:0.000000,0.000000,0.000000,0.000000 HandTipRight:0.000000,0.000000,0.000000,0.000000 Head:0.000000,0.000000,0.000000,0.000000 HipLeft:0.088994,-0.664013,0.730582,-0.131972 HipRight:-0.173098,0.689380,0.674188,-0.200657 KneeLeft:0.000706,-0.664808,0.036432,0.746125 KneeRight:-0.011234,0.746967,0.043318,0.663354 Neck:-0.081707,0.025370,0.993690,-0.072530 ShoulderLeft:0.082187,0.763361,-0.640368,-0.021302 ShoulderRight:-0.022102,0.798069,0.592835,-0.105570 SpineBase:-0.057677,0.024164,0.997574,-0.030573 SpineMid:-0.069287,0.024518,0.996835,-0.030290 SpineShoulder:-0.081800,0.020563,0.995016,-0.053197 ThumbLeft:0.000000,0.000000,0.000000,0.000000 ThumbRight:0.000000,0.000000,0.000000,0.000000 WristLeft:-0.092136,0.874316,-0.132713,0.457679 WristRight:0.079858,0.254693,-0.348670,0.898434 END:
KINECT_DATA POSITION:3.305714,-1.706041,0.144804 HEAD_JOINT1:0.985140,0.160866,-0.000000,0.060184 LARM_JOINT2:0.816540,0.000000,0.029745,-0.576522 LARM_JOINT3:0.958692,0.000000,-0.238033,-0.155722 LLEG_JOINT2:0.999625,0.027165,0.000000,-0.003335 LLEG_JOINT4:0.997483,0.070563,0.000000,-0.007014 RARM_JOINT2:0.825144,0.000000,0.071282,0.560407 RARM_JOINT3:0.856393,0.000000,0.389194,0.339292 RLEG_JOINT2:0.997109,0.028342,0.000000,-0.070505 RLEG_JOINT4:0.994754,0.091482,0.000000,0.045776 WAIST:0.997766,-0.000000,0.057906,0.033324 WAIST_JOINT0:0.995466,-0.000000,0.087772,0.036667 WAIST_JOINT1:0.998337,0.057206,0.000000,-0.007109 END:
KINECT_DATA_Sensor  AnkleLeft:0.064933,0.738282,-0.073845,-0.667286 AnkleRight:0.087071,0.758667,0.079635,0.640704 ElbowLeft:-0.020300,0.810794,-0.209168,-0.546305 ElbowRight:-0.078962,0.924960,0.137320,0.345480 FootLeft:0.000000,0.000000,0.000000,0.000000 FootRight:0.000000,0.000000,0.000000,0.000000 HandLeft:-0.144600,0.691116,-0.132646,0.695597 HandRight:-0.021336,0.764133,-0.548083,0.339484 HandTipLeft:0.000000,0.000000,0.000000,0.000000 HandTipRight:0.000000,0.000000,0.000000,0.000000 Head:0.000000,0.000000,0.000000,0.000000 HipLeft:0.089298,-0.662192,0.732241,-0.131723 HipRight:-0.174744,0.689854,0.672927,-0.201832 KneeLeft:0.001065,-0.663669,0.039118,0.747002 KneeRight:-0.010208,0.747999,0.044539,0.662125 Neck:-0.088847,0.026119,0.993178,-0.070858 ShoulderLeft:0.082018,0.762060,-0.641784,-0.025523 ShoulderRight:-0.031263,0.799731,0.588988,-0.112011 SpineBase:-0.059104,0.024855,0.997483,-0.030270 SpineMid:-0.073496,0.025289,0.996526,-0.029908 SpineShoulder:-0.088679,0.023983,0.994455,-0.051188 ThumbLeft:0.000000,0.000000,0.000000,0.000000 ThumbRight:0.000000,0.000000,0.000000,0.000000 WristLeft:-0.051008,0.711802,-0.155344,0.683084 WristRight:-0.178744,0.831243,-0.335729,0.405427 END:
KINECT_DATA POSITION:2.961077,-1.728568,0.131464 HEAD_JOINT1:0.985572,0.156823,-0.000000,0.063669 LARM_JOINT2:0.818588,0.000000,0.026373,-0.573776 LARM_JOINT3:0.957923,0.000000,-0.239774,-0.157771 LLEG_JOINT2:0.999660,0.024913,0.000000,0.007700 LLEG_JOINT4:0.997314,0.071747,0.000000,-0.014729 RARM_JOINT2:0.822558,0.000000,0.089077,0.561661 RARM_JOINT3:0.846580,0.000000,0.393676,0.358219 RLEG_JOINT2:0.997488,0.027706,0.000000,-0.065186 RLEG_JOINT4:0.994340,0.095449,0.000000,0.046657 WAIST:0.997661,-0.000000,0.061784,0.029251 WAIST_JOINT0:0.995220,-0.000000,0.090330,0.037111 WAIST_JOINT1:0.998248,0.058931,0.000000,-0.005340 END:
KINECT_DATA_Sensor  AnkleLeft:0.066093,0.746697,-0.071306,-0.658021 AnkleRight:0.090548,0.759578,0.081172,0.638947 ElbowLeft:-0.020066,0.811140,-0.209956,-0.545497 ElbowRight:-0.086175,0.935741,0.131677,0.315632 FootLeft:0.000000,0.000000,0.000000,0.000000 FootRight:0.000000,0.000000,0.000000,0.000000 HandLeft:-0.187819,0.868314,-0.082298,0.451643 HandRight:0.566562,-0.362722,0.020978,0.739594 HandTipLeft:0.000000,0.000000,0.000000,0.000000 HandTipRight:0.000000,0.000000,0.000000,0.000000 Head:0.000000,0.000000,0.000000,0.000000 HipLeft:0.087786,-0.664870,0.729848,-0.132528 HipRight:-0.177378,0.685703,0.674961,-0.206825 KneeLeft:0.007104,-0.660953,0.042932,0.749164 KneeRight:-0.009786,0.750413,0.043280,0.659478 Neck:-0.091694,0.021992,0.992817,-0.073646 ShoulderLeft:0.085245,0.761881,-0.641533,-0.026580 ShoulderRight:-0.031330,0.799809,0.588287,-0.115072 SpineBase:-0.062865,0.022355,0.997247,-0.032339 SpineMid:-0.076793,0.022805,0.996272,-0.032023 SpineShoulder:-0.091420,0.021834,0.994172,-0.052791 ThumbLeft:0.000000,0.000000,0.000000,0.000000 ThumbRight:0.000000,0.000000,0.000000,0.000000 WristLeft:-0.094675,0.886000,-0.132364,0.434190 WristRight:0.372427,-0.433368,-0.144434,0.807855 END:
KINECT_DATA POSITION:2.648622,-1.680846,0.013697 HEAD_JOINT1:0.985755,0.157603,-0.000000,0.058720 LARM_JOINT2:0.818408,0.000000,0.024235,-0.574126 LARM_JOINT3:0.958597,0.000000,-0.236331,-0.158869 LLEG_JOINT2:0.999616,0.023023,0.000000,0.015403 LLEG_JOINT4:0.997047,0.075297,0.000000,-0.015116 RARM_JOINT2:0.820272,0.000000,0.110349,0.561227 RARM_JOINT3:0.834981,0.000000,0.398911,0.379048 RLEG_JOINT2:0.997958,0.025317,0.000000,-0.058648 RLEG_JOINT4:0.994262,0.095715,0.000000,0.047764 WAIST:0.997680,-0.000000,0.063383,0.024836 WAIST_JOINT0:0.995184,-0.000000,0.091073,0.036247 WAIST_JOINT1:0.998156,0.060706,0.000000,-0.000191 END:
KINECT_DATA_Sensor  AnkleLeft:0.066327,0.746856,-0.074502,-0.657462 AnkleRight:0.091411,0.759867,0.077861,0.638892 ElbowLeft:-0.019583,0.810971,-0.210442,-0.545579 ElbowRight:-0.095553,0.943503,0.122921,0.292510 FootLeft:0.000000,0.000000,0.000000,0.000000 FootRight:0.000000,0.000000,0.000000,0.000000 HandLeft:-0.130397,0.596399,-0.139936,0.779565 HandRight:0.585819,-0.353835,0.062891,0.726404 HandTipLeft:0.000000,0.000000,0.000000,0.000000 HandTipRight:0.000000,0.000000,0.000000,0.000000 Head:0.000000,0.000000,0.000000,0.000000 HipLeft:0.085102,-0.667321,0.727664,-0.133964 HipRight:-0.177627,0.681672,0.678124,-0.209572 KneeLeft:0.010443,-0.659959,0.044324,0.749920 KneeRight:-0.009690,0.751232,0.040230,0.658740 Neck:-0.092664,0.022620,0.992532,-0.076033 ShoulderLeft:0.086320,0.760062,-0.643613,-0.024847 ShoulderRight:-0.031800,0.798289,0.589761,-0.117923 SpineBase:-0.064276,0.021128,0.997082,-0.035347 SpineMid:-0.078057,0.021614,0.996098,-0.035052 SpineShoulder:-0.092388,0.022366,0.993964,-0.054776 ThumbLeft:0.000000,0.000000,0.000000,0.000000 ThumbRight:0.000000,0.000000,0.000000,0.000000 WristLeft:-0.026366,0.604843,-0.160190,0.779621 WristRight:0.405372,-0.433928,-0.124170,0.794960 END:
KINECT_DATA POSITION:2.575824,-1.645423,-0.037146 HEAD_JOINT1:0.985532,0.159619,-0.000000,0.056990 LARM_JOINT2:0.817671,0.000000,0.022267,-0.575255 LARM_JOINT3:0.959059,0.000000,-0.234780,-0.158381 LLEG_JOINT2:0.999628,0.021405,0.000000,0.016913 LLEG_JOINT4:0.997012,0.076301,0.000000,-0.012078 RARM_JOINT2:0.819610,0.000000,0.122003,0.559782 RARM_JOINT3:0.833603,0.000000,0.400316,0.380596 RLEG_JOINT2:0.998058,0.025368,0.000000,-0.056892 RLEG_JOINT4:0.994085,0.095997,0.000000,0.050783 WAIST:0.997614,-0.000000,0.064840,0.023709 WAIST_JOINT0:0.995369,-0.000000,0.089124,0.036030 WAIST_JOINT1:0.998120,0.061280,-0.000000,0.001279 END:
KINECT_DATA_Sensor  AnkleLeft:-0.053641,-0.655088,0.084528,0.748890 AnkleRight:0.093964,0.758477,0.076106,0.640383 ElbowLeft:-0.019484,0.811253,-0.209198,-0.545641 ElbowRight:-0.102203,0.946781,0.118822,0.281143 FootLeft:0.000000,0.000000,0.000000,0.000000 FootRight:0.000000,0.000000,0.000000,0.000000 HandLeft:-0.156169,0.736519,-0.109747,0.648928 HandRight:0.594111,-0.330134,0.054588,0.731480 HandTipLeft:0.000000,0.000000,0.000000,0.000000 HandTipRight:0.000000,0.000000,0.000000,0.000000 Head:0.000000,0.000000,0.000000,0.000000 HipLeft:0.083285,-0.668072,0.727268,-0.133511 HipRight:-0.177873,0.680554,0.678884,-0.210533 KneeLeft:0.011817,-0.658947,0.043586,0.750833 KneeRight:-0.009219,0.752150,0.039863,0.657720 Neck:-0.090813,0.022689,0.992634,-0.076911 ShoulderLeft:0.087062,0.759409,-0.644314,-0.024022 ShoulderRight:-0.028650,0.798192,0.590465,-0.115842 SpineBase:-0.065673,0.020964,0.996962,-0.036257 SpineMid:-0.077857,0.021405,0.996084,-0.035998 SpineShoulder:-0.090536,0.022389,0.994096,-0.055460 ThumbLeft:0.000000,0.000000,0.000000,0.000000 ThumbRight:0.000000,0.000000,0.000000,0.000000 WristLeft:-0.058832,0.755377,-0.150181,0.635130 WristRight:0.410715,-0.410981,-0.127926,0.803768 END:
KINECT_DATA POSITION:2.525483,-1.610371,-0.069487 HEAD_JOINT1:0.985376,0.161098,-0.000000,0.055520 LARM_JOINT2:0.817233,0.000000,0.020833,-0.575931 LARM_JOINT3:0.959436,0.000000,-0.233348,-0.158212 LLEG_JOINT2:0.999626,0.020480,0.000000,0.018107 LLEG_JOINT4:0.996718,0.079769,0.000000,-0.013763 RARM_JOINT2:0.818713,0.000000,0.125723,0.560270 RARM_JOINT3:0.827799,0.000000,0.403701,0.389583 RLEG_JOINT2:0.998155,0.023910,0.000000,-0.055804 RLEG_JOINT4:0.994067,0.096937,0.000000,0.049326 WAIST:0.997564,-0.000000,0.065845,0.023019 WAIST_JOINT0:0.995293,-0.000000,0.090085,0.035715 WAIST_JOINT1:0.998077,0.061943,-0.000000,0.002139 END:
KINECT_DATA_Sensor  AnkleLeft:0.066182,0.738617,-0.077935,-0.666326 AnkleRight:0.092779,0.759184,0.076559,0.639665 ElbowLeft:-0.019246,0.811499,-0.208479,-0.545560 ElbowRight:-0.102909,0.949152,0.116979,0.273564 FootLeft:0.000000,0.000000,0.000000,0.000000 FootRight:0.000000,0.000000,0.000000,0.000000 HandLeft:-0.158389,0.760354,-0.102013,0.621585 HandRight:0.596651,-0.346922,0.077844,0.719439 HandTipLeft:0.000000,0.000000,0.000000,0.000000 HandTipRight:0.000000,0.000000,0.000000,0.000000 Head:0.000000,0.000000,0.000000,0.000000 HipLeft:0.082073,-0.668538,0.727026,-0.133246 HipRight:-0.178037,0.679809,0.679338,-0.211335 KneeLeft:0.012784,-0.658234,0.043384,0.751453 KneeRight:-0.009911,0.752734,0.038511,0.657123 Neck:-0.091790,0.022772,0.992476,-0.077768 ShoulderLeft:0.087635,0.758963,-0.644771,-0.023796 ShoulderRight:-0.029468,0.797291,0.591319,-0.117474 SpineBase:-0.066645,0.020763,0.996877,-0.036933 SpineMid:-0.078843,0.021213,0.995986,-0.036676 SpineShoulder:-0.091513,0.022470,0.993967,-0.056130 ThumbLeft:0.000000,0.000000,0.000000,0.000000 ThumbRight:0.000000,0.000000,0.000000,0.000000 WristLeft:-0.063639,0.778687,-0.147110,0.606593 WristRight:0.426945,-0.431003,-0.107731,0.787622 END:
KINECT_DATA POSITION:2.510980,-1.571164,-0.115669 HEAD_JOINT1:0.985244,0.162311,-0.000000,0.054304 LARM_JOINT2:0.816532,0.000000,0.019743,-0.576962 LARM_JOINT3:0.959538,0.000000,-0.233757,-0.156984 LLEG_JOINT2:0.999649,0.018898,0.000000,0.018550 LLEG_JOINT4:0.996783,0.079065,0.000000,-0.013149 RARM_JOINT2:0.817689,0.000000,0.125338,0.561850 RARM_JOINT3:0.809847,0.000000,0.409949,0.419631 RLEG_JOINT2:0.998207,0.022812,0.000000,-0.055341 RLEG_JOINT4:0.994076,0.096904,0.000000,0.049215 WAIST:0.997528,-0.000000,0.066592,0.022423 WAIST_JOINT0:0.995160,-0.000000,0.091545,0.035737 WAIST_JOINT1:0.998047,0.062407,-0.000000,0.002875 END:
KINECT_DATA_Sensor  AnkleLeft:0.066466,0.758635,-0.074986,-0.643765 AnkleRight:0.091839,0.760070,0.075933,0.638822 ElbowLeft:-0.019068,0.811142,-0.207349,-0.546526 ElbowRight:-0.097152,0.958708,0.119064,0.239300 FootLeft:0.000000,0.000000,0.000000,0.000000 FootRight:0.000000,0.000000,0.000000,0.000000 HandLeft:-0.163598,0.769604,-0.101861,0.608744 HandRight:0.655710,-0.244497,0.048288,0.712695 HandTipLeft:0.000000,0.000000,0.000000,0.000000 HandTipRight:0.000000,0.000000,0.000000,0.000000 Head:0.000000,0.000000,0.000000,0.000000 HipLeft:0.080819,-0.668937,0.726820,-0.133132 HipRight:-0.177605,0.679132,0.679856,-0.212206 KneeLeft:0.013825,-0.657737,0.042253,0.751934 KneeRight:-0.010750,0.753153,0.037780,0.656672 Neck:-0.093298,0.022937,0.992283,-0.078378 ShoulderLeft:0.087442,0.758603,-0.645237,-0.023332 ShoulderRight:-0.031757,0.796749,0.591401,-0.120110 SpineBase:-0.067355,0.020828,0.996800,-0.037668 SpineMid:-0.079954,0.021302,0.995869,-0.037402 SpineShoulder:-0.093025,0.022581,0.993798,-0.056583 ThumbLeft:0.000000,0.000000,0.000000,0.000000 ThumbRight:0.000000,0.000000,0.000000,0.000000 WristLeft:-0.065430,0.788594,-0.145589,0.593838 WristRight:0.460347,-0.330540,-0.115835,0.815725 END:
KINECT_DATA POSITION:2.504556,-1.537443,-0.135577 HEAD_JOINT1:0.985025,0.163804,-0.000000,0.053795 LARM_JOINT2:0.816230,0.000000,0.018644,-0.577426 LARM_JOINT3:0.960231,0.000000,-0.232020,-0.155319 LLEG_JOINT2:0.999652,0.018115,0.000000,0.019179 LLEG_JOINT4:0.996685,0.080412,0.000000,-0.012330 RARM_JOINT2:0.816419,0.000000,0.129100,0.562844 RARM_JOINT3:0.827587,0.000000,0.405978,0.387662 RLEG_JOINT2:0.998277,0.022044,0.000000,-0.054370 RLEG_JOINT4:0.993974,0.097424,0.000000,0.050240 WAIST:0.997520,-0.000000,0.066944,0.021727 WAIST_JOINT0:0.995121,-0.000000,0.091914,0.035857 WAIST_JOINT1:0.998018,0.062831,-0.000000,0.003478 END:
KINECT_DATA_Sensor  AnkleLeft:0.064768,0.742751,-0.077490,-0.661908 AnkleRight:0.091468,0.750333,0.076354,0.650234 ElbowLeft:-0.018690,0.812305,-0.206648,-0.545076 ElbowRight:-0.102717,0.950026,0.112691,0.272398 FootLeft:0.000000,0.000000,0.000000,0.000000 FootRight:0.000000,0.000000,0.000000,0.000000 HandLeft:-0.149014,0.715521,-0.117172,0.672381 HandRight:0.599029,-0.317519,0.054355,0.733070 HandTipLeft:0.000000,0.000000,0.000000,0.000000 HandTipRight:0.000000,0.000000,0.000000,0.000000 Head:0.000000,0.000000,0.000000,0.000000 HipLeft:0.080107,-0.669366,0.726500,-0.133155 HipRight:-0.177516,0.678568,0.680370,-0.212437 KneeLeft:0.014326,-0.657527,0.041720,0.752139 KneeRight:-0.011039,0.753324,0.037045,0.656513 Neck:-0.093730,0.022716,0.992206,-0.078904 ShoulderLeft:0.087716,0.758417,-0.645430,-0.023038 ShoulderRight:-0.032047,0.796696,0.591278,-0.120990 SpineBase:-0.067660,0.020819,0.996762,-0.038126 SpineMid:-0.080316,0.021302,0.995822,-0.037859 SpineShoulder:-0.093450,0.022487,0.993735,-0.057029 ThumbLeft:0.000000,0.000000,0.000000,0.000000 ThumbRight:0.000000,0.000000,0.000000,0.000000 WristLeft:-0.052085,0.733519,-0.149365,0.661004 WristRight:0.429818,-0.400804,-0.120672,0.800032 END:
KINECT_DATA POSITION:2.496459,-1.537649,-0.132942 HEAD_JOINT1:0.984835,0.165078,-0.000000,0.053385 LARM_JOINT2:0.816059,0.000000,0.018419,-0.577675 LARM_JOINT3:0.959591,0.000000,-0.235103,-0.154634 LLEG_JOINT2:0.999647,0.018104,0.000000,0.019468 LLEG_JOINT4:0.996535,0.082387,0.000000,-0.011425 RARM_JOINT2:0.816389,0.000000,0.131739,0.562275 RARM_JOINT3:0.833510,0.000000,0.416573,0.362943 RLEG_JOINT2:0.998312,0.021870,0.000000,-0.053806 RLEG_JOINT4:0.993886,0.099286,0.000000,0.048305 WAIST:0.997541,-0.000000,0.066720,0.021465 WAIST_JOINT0:0.995318,-0.000000,0.089763,0.035829 WAIST_JOINT1:0.997961,0.063721,-0.000000,0.003684 END:
KINECT_DATA_Sensor  AnkleLeft:0.068072,0.760859,-0.077507,-0.640666 AnkleRight:0.092502,0.759147,0.077396,0.639648 ElbowLeft:-0.017554,0.813533,-0.206680,-0.543268 ElbowRight:-0.104715,0.947981,0.111469,0.279181 FootLeft:0.000000,0.000000,0.000000,0.000000 FootRight:0.000000,0.000000,0.000000,0.000000 HandLeft:-0.154205,0.722418,-0.125425,0.662270 HandRight:0.585827,-0.342431,-0.001893,0.734537 HandTipLeft:0.000000,0.000000,0.000000,0.000000 HandTipRight:0.000000,0.000000,0.000000,0.000000 Head:0.000000,0.000000,0.000000,0.000000 HipLeft:0.079847,-0.669493,0.726318,-0.133665 HipRight:-0.177125,0.678391,0.680601,-0.212588 KneeLeft:0.014344,-0.657715,0.041746,0.751973 KneeRight:-0.010904,0.753157,0.036733,0.656723 Neck:-0.091703,0.022380,0.992332,-0.079799 ShoulderLeft:0.087675,0.758008,-0.645979,-0.021185 ShoulderRight:-0.029455,0.796668,0.591737,-0.119586 SpineBase:-0.067421,0.020879,0.996757,-0.038653 SpineMid:-0.079176,0.021333,0.995892,-0.038404 SpineShoulder:-0.091409,0.022337,0.993873,-0.057989 ThumbLeft:0.000000,0.000000,0.000000,0.000000 ThumbRight:0.000000,0.000000,0.000000,0.000000 WristLeft:-0.054775,0.740518,-0.147394,0.653382 WristRight:0.428221,-0.413016,-0.122236,0.794420 END:
KINECT_DATA POSITION:2.483930,-1.538174,-0.080502 HEAD_JOINT1:0.984371,0.167578,-0.000000,0.054147 LARM_JOINT2:0.815651,0.000000,0.017277,-0.578287 LARM_JOINT3:0.960203,0.000000,-0.233231,-0.153667 LLEG_JOINT2:0.999639,0.018836,0.000000,0.019150 LLEG_JOINT4:0.996611,0.081260,0.000000,-0.012759 RARM_JOINT2:0.817884,0.000000,0.131953,0.560049 RARM_JOINT3:0.836804,0.000000,0.423474,0.347028 RLEG_JOINT2:0.998319,0.020880,0.000000,-0.054067 RLEG_JOINT4:0.993386,0.103548,0.000000,0.049610 WAIST:0.997634,-0.000000,0.065265,0.021598 WAIST_JOINT0:0.995587,-0.000000,0.086683,0.035939 WAIST_JOINT1:0.997935,0.064148,-0.000000,0.003179 END:
KINECT_DATA_Sensor  AnkleLeft:0.066206,0.742918,-0.078088,-0.661507 AnkleRight:0.094742,0.749856,0.080048,0.649871 ElbowLeft:-0.017889,0.814386,-0.205475,-0.542435 ElbowRight:-0.107209,0.943692,0.112971,0.291873 FootLeft:0.000000,0.000000,0.000000,0.000000 FootRight:0.000000,0.000000,0.000000,0.000000 HandLeft:-0.138092,0.665725,-0.131703,0.721384 HandRight:0.574466,-0.329196,-0.045852,0.748008 HandTipLeft:0.000000,0.000000,0.000000,0.000000 HandTipRight:0.000000,0.000000,0.000000,0.000000 Head:0.000000,0.000000,0.000000,0.000000 HipLeft:0.080626,-0.669150,0.726329,-0.134846 HipRight:-0.176232,0.678538,0.680791,-0.212256 KneeLeft:0.013716,-0.658793,0.042085,0.751021 KneeRight:-0.011585,0.752168,0.036105,0.657879 Neck:-0.088720,0.021876,0.992591,-0.080082 ShoulderLeft:0.087934,0.757350,-0.646755,-0.019906 ShoulderRight:-0.025263,0.796729,0.592525,-0.116184 SpineBase:-0.065987,0.020825,0.996838,-0.039055 SpineMid:-0.076964,0.021254,0.996051,-0.038823 SpineShoulder:-0.088419,0.021975,0.994123,-0.058472 ThumbLeft:0.000000,0.000000,0.000000,0.000000 ThumbRight:0.000000,0.000000,0.000000,0.000000 WristLeft:-0.042002,0.673293,-0.151937,0.722376 WristRight:0.419207,-0.395696,-0.145859,0.803999 END:
KINECT_DATA POSITION:2.479428,-1.544038,0.002193 HEAD_JOINT1:0.983863,0.170189,-0.000000,0.055217 LARM_JOINT2:0.815652,0.000000,0.019034,-0.578230 LARM_JOINT3:0.959860,0.000000,-0.234038,-0.154577 LLEG_JOINT2:0.999617,0.020049,0.000000,0.019076 LLEG_JOINT4:0.996703,0.080059,0.000000,-0.013184 RARM_JOINT2:0.818337,0.000000,0.126622,0.560618 RARM_JOINT3:0.836897,0.000000,0.428229,0.340914 RLEG_JOINT2:0.998298,0.021560,0.000000,-0.054190 RLEG_JOINT4:0.993459,0.102178,0.000000,0.050983 WAIST:0.997708,-0.000000,0.064187,0.021406 WAIST_JOINT0:0.995656,-0.000000,0.086134,0.035363 WAIST_JOINT1:0.997939,0.064083,-0.000000,0.003231 END:
KINECT_DATA_Sensor  AnkleLeft:0.067039,0.747885,-0.077188,-0.655909 AnkleRight:0.095144,0.748912,0.078788,0.651054 ElbowLeft:-0.016904,0.814578,-0.205967,-0.541991 ElbowRight:-0.104680,0.940285,0.114589,0.302946 FootLeft:0.000000,0.000000,0.000000,0.000000 FootRight:0.000000,0.000000,0.000000,0.000000 HandLeft:-0.152428,0.737771,-0.115931,0.647317 HandRight:0.571096,-0.381414,-0.022609,0.726541 HandTipLeft:0.000000,0.000000,0.000000,0.000000 HandTipRight:0.000000,0.000000,0.000000,0.000000 Head:0.000000,0.000000,0.000000,0.000000 HipLeft:0.081070,-0.669227,0.726104,-0.135412 HipRight:-0.175573,0.678657,0.681046,-0.211599 KneeLeft:0.012649,-0.659600,0.042694,0.750296 KneeRight:-0.011307,0.751469,0.036862,0.658641 Neck:-0.088118,0.021810,0.992660,-0.079916 ShoulderLeft:0.085510,0.758209,-0.646131,-0.017928 ShoulderRight:-0.027056,0.796411,0.592678,-0.117178 SpineBase:-0.064894,0.020914,0.996906,-0.039103 SpineMid:-0.076108,0.021353,0.996113,-0.038865 SpineShoulder:-0.087815,0.021948,0.994179,-0.058433 ThumbLeft:0.000000,0.000000,0.000000,0.000000 ThumbRight:0.000000,0.000000,0.000000,0.000000 WristLeft:-0.060088,0.754713,-0.145161,0.636967 WristRight:0.425516,-0.447650,-0.127189,0.776124 END:
KINECT_DATA POSITION:2.401200,-1.559707,0.141740 HEAD_JOINT1:0.983541,0.171629,-0.000000,0.056477 LARM_JOINT2:0.816251,0.000000,0.017650,-0.577427 LARM_JOINT3:0.959899,0.000000,-0.234535,-0.153584 LLEG_JOINT2:0.999593,0.021092,0.000000,0.019185 LLEG_JOINT4:0.996844,0.078113,0.000000,-0.014163 RARM_JOINT2:0.818231,0.000000,0.123855,0.561389 RARM_JOINT3:0.837689,0.000000,0.427100,0.340387 RLEG_JOINT2:0.998311,0.022554,0.000000,-0.053548 RLEG_JOINT4:0.993750,0.100359,0.000000,0.048880 WAIST:0.997808,-0.000000,0.062427,0.021945 WAIST_JOINT0:0.995697,-0.000000,0.085383,0.036007 WAIST_JOINT1:0.997931,0.064261,-0.000000,0.002043 END:
KINECT_DATA_Sensor  AnkleLeft:0.065545,0.742333,-0.077209,-0.662333 AnkleRight:0.095073,0.756578,0.077384,0.642310 ElbowLeft:-0.017441,0.817797,-0.205915,-0.537125 ElbowRight:-0.103225,0.937554,0.115468,0.311453 FootLeft:0.000000,0.000000,0.000000,0.000000 FootRight:0.000000,0.000000,0.000000,0.000000 HandLeft:-0.149139,0.715429,-0.129153,0.670252 HandRight:0.565060,-0.362187,-0.030600,0.740670 HandTipLeft:0.000000,0.000000,0.000000,0.000000 HandTipRight:0.000000,0.000000,0.000000,0.000000 Head:0.000000,0.000000,0.000000,0.000000 HipLeft:0.082162,-0.668669,0.726323,-0.136331 HipRight:-0.174377,0.679154,0.681034,-0.211033 KneeLeft:0.012369,-0.660852,0.043851,0.749132 KneeRight:-0.009693,0.750393,0.036846,0.659893 Neck:-0.087512,0.021310,0.992720,-0.079966 ShoulderLeft:0.084521,0.757119,-0.647576,-0.016483 ShoulderRight:-0.027379,0.796043,0.593119,-0.117371 SpineBase:-0.063200,0.020521,0.997017,-0.039255 SpineMid:-0.074959,0.020982,0.996202,-0.039010 SpineShoulder:-0.087216,0.021486,0.994236,-0.058540 ThumbLeft:0.000000,0.000000,0.000000,0.000000 ThumbRight:0.000000,0.000000,0.000000,0.000000 WristLeft:-0.055679,0.732076,-0.145695,0.663127 WristRight:0.419155,-0.430472,-0.144064,0.786288 END:
KINECT_DATA POSITION:2.369450,-1.563032,0.200951 HEAD_JOINT1:0.983888,0.169627,-0.000000,0.056492 LARM_JOINT2:0.816556,0.000000,0.017531,-0.577000 LARM_JOINT3:0.959990,0.000000,-0.233520,-0.154554 LLEG_JOINT2:0.999606,0.020724,0.000000,0.018907 LLEG_JOINT4:0.996660,0.080415,0.000000,-0.014258 RARM_JOINT2:0.818102,0.000000,0.123506,0.561654 RARM_JOINT3:0.837430,0.000000,0.424921,0.343733 RLEG_JOINT2:0.998299,0.022536,0.000000,-0.053772 RLEG_JOINT4:0.993614,0.101626,0.000000,0.049018 WAIST:0.997855,-0.000000,0.061594,0.022168 WAIST_JOINT0:0.995748,-0.000000,0.084835,0.035904 WAIST_JOINT1:0.997875,0.065125,-0.000000,0.001938 END:
KINECT_DATA_Sensor  AnkleLeft:0.068492,0.753876,-0.077067,-0.648876 AnkleRight:0.096348,0.758028,0.077809,0.640356 ElbowLeft:-0.017281,0.817991,-0.206793,-0.536497 ElbowRight:-0.101839,0.937664,0.115820,0.311449 FootLeft:0.000000,0.000000,0.000000,0.000000 FootRight:0.000000,0.000000,0.000000,0.000000 HandLeft:-0.138197,0.684731,-0.128332,0.703972 HandRight:0.562254,-0.341081,-0.037447,0.752417 HandTipLeft:0.000000,0.000000,0.000000,0.000000 HandTipRight:0.000000,0.000000,0.000000,0.000000 Head:0.000000,0.000000,0.000000,0.000000 HipLeft:0.082096,-0.668348,0.726471,-0.137154 HipRight:-0.173495,0.679316,0.681127,-0.210936 KneeLeft:0.012641,-0.661478,0.043558,0.748592 KneeRight:-0.009672,0.749847,0.036845,0.660513 Neck:-0.087030,0.021445,0.992687,-0.080865 ShoulderLeft:0.085050,0.756685,-0.648034,-0.015687 ShoulderRight:-0.026264,0.795706,0.593625,-0.117353 SpineBase:-0.062389,0.020710,0.997038,-0.039919 SpineMid:-0.074304,0.021186,0.996221,-0.039669 SpineShoulder:-0.086727,0.021650,0.994226,-0.059370 ThumbLeft:0.000000,0.000000,0.000000,0.000000 ThumbRight:0.000000,0.000000,0.000000,0.000000 WristLeft:-0.050080,0.702134,-0.148336,0.694619 WristRight:0.415632,-0.410122,-0.153900,0.797097 END:
KINECT_DATA POSITION:2.337427,-1.568361,0.244832 HEAD_JOINT1:0.983984,0.168952,-0.000000,0.056843 LARM_JOINT2:0.817045,0.000000,0.015613,-0.576362 LARM_JOINT3:0.959629,0.000000,-0.234802,-0.154855 LLEG_JOINT2:0.999614,0.020602,0.000000,0.018663 LLEG_JOINT4:0.996562,0.081817,0.000000,-0.013039 RARM_JOINT2:0.818001,0.000000,0.128526,0.560675 RARM_JOINT3:0.837441,0.000000,0.426475,0.341776 RLEG_JOINT2:0.998318,0.022257,0.000000,-0.053529 RLEG_JOINT4:0.993620,0.101891,0.000000,0.048349 WAIST:0.997865,-0.000000,0.061388,0.022303 WAIST_JOINT0:0.995946,-0.000000,0.082412,0.036066 WAIST_JOINT1:0.997776,0.066629,-0.000000,0.002043 END:
KINECT_DATA_Sensor  AnkleLeft:0.070605,0.767639,-0.077207,-0.632285 AnkleRight:0.095794,0.755074,0.078404,0.643847 ElbowLeft:-0.017420,0.819292,-0.207717,-0.534145 ElbowRight:-0.103813,0.938523,0.114630,0.308637 FootLeft:0.000000,0.000000,0.000000,0.000000 FootRight:0.000000,0.000000,0.000000,0.000000 HandLeft:-0.136143,0.645531,-0.139789,0.738386 HandRight:0.568482,-0.350136,-0.030820,0.743830 HandTipLeft:0.000000,0.000000,0.000000,0.000000 HandTipRight:0.000000,0.000000,0.000000,0.000000 Head:0.000000,0.000000,0.000000,0.000000 HipLeft:0.081264,-0.668092,0.726652,-0.137937 HipRight:-0.172643,0.679261,0.681257,-0.211397 KneeLeft:0.012674,-0.661639,0.043391,0.748459 KneeRight:-0.009568,0.749702,0.036384,0.660705 Neck:-0.084736,0.021431,0.992751,-0.082495 ShoulderLeft:0.086276,0.756092,-0.648599,-0.014158 ShoulderRight:-0.021978,0.795835,0.594028,-0.115298 SpineBase:-0.062203,0.020968,0.996997,-0.041079 SpineMid:-0.073058,0.021414,0.996261,-0.040848 SpineShoulder:-0.084421,0.021724,0.994331,-0.060892 ThumbLeft:0.000000,0.000000,0.000000,0.000000 ThumbRight:0.000000,0.000000,0.000000,0.000000 WristLeft:-0.039244,0.654388,-0.150629,0.739964 WristRight:0.417519,-0.419659,-0.147474,0.792348 END:
KINECT_DATA POSITION:2.309205,-1.569244,0.280178 HEAD_JOINT1:0.984044,0.168642,-0.000000,0.056727 LARM_JOINT2:0.817093,0.000000,0.015022,-0.576310 LARM_JOINT3:0.960610,0.000000,-0.229605,-0.156557 LLEG_JOINT2:0.999594,0.021046,0.000000,0.019231 LLEG_JOINT4:0.996697,0.079827,0.000000,-0.014956 RARM_JOINT2:0.818095,0.000000,0.127532,0.560764 RARM_JOINT3:0.837643,0.000000,0.425155,0.342924 RLEG_JOINT2:0.998312,0.023032,0.000000,-0.053310 RLEG_JOINT4:0.993610,0.102050,0.000000,0.048216 WAIST:0.997867,-0.000000,0.061368,0.022250 WAIST_JOINT0:0.995904,-0.000000,0.082973,0.035926 WAIST_JOINT1:0.997766,0.066781,-0.000000,0.001931 END:
KINECT_DATA_Sensor  AnkleLeft:-0.057250,-0.657961,0.085348,0.746007 AnkleRight:0.097606,0.764393,0.077633,0.632573 ElbowLeft:-0.017553,0.819710,-0.207504,-0.533581 ElbowRight:-0.103050,0.938567,0.115344,0.308493 FootLeft:0.000000,0.000000,0.000000,0.000000 FootRight:0.000000,0.000000,0.000000,0.000000 HandLeft:-0.132854,0.665051,-0.118339,0.725295 HandRight:0.564280,-0.353261,-0.027362,0.745684 HandTipLeft:0.000000,0.000000,0.000000,0.000000 HandTipRight:0.000000,0.000000,0.000000,0.000000 Head:0.000000,0.000000,0.000000,0.000000 HipLeft:0.081088,-0.668121,0.726640,-0.137962 HipRight:-0.172399,0.679191,0.681355,-0.211506 KneeLeft:0.012678,-0.661638,0.044073,0.748419 KneeRight:-0.008926,0.749719,0.036857,0.660668 Neck:-0.085294,0.021317,0.992695,-0.082622 ShoulderLeft:0.086695,0.755810,-0.648866,-0.014385 ShoulderRight:-0.022335,0.795346,0.594554,-0.115892 SpineBase:-0.062190,0.020795,0.996993,-0.041289 SpineMid:-0.073334,0.021256,0.996235,-0.041054 SpineShoulder:-0.084985,0.021589,0.994277,-0.061031 ThumbLeft:0.000000,0.000000,0.000000,0.000000 ThumbRight:0.000000,0.000000,0.000000,0.000000 WristLeft:-0.042607,0.670919,-0.149450,0.725063 WristRight:0.418408,-0.422412,-0.145417,0.790795 END:
KINECT_DATA POSITION:2.294219,-1.576452,0.287962 HEAD_JOINT1:0.983944,0.169179,-0.000000,0.056852 LARM_JOINT2:0.816876,0.000000,0.015227,-0.576612 LARM_JOINT3:0.961087,0.000000,-0.228122,-0.155797 LLEG_JOINT2:0.999590,0.021072,0.000000,0.019407 LLEG_JOINT4:0.996857,0.077759,0.000000,-0.015180 RARM_JOINT2:0.818100,0.000000,0.125446,0.561228 RARM_JOINT3:0.837387,0.000000,0.424369,0.344519 RLEG_JOINT2:0.998338,0.023492,0.000000,-0.052625 RLEG_JOINT4:0.993264,0.103794,0.000000,0.051509 WAIST:0.997883,-0.000000,0.061235,0.021911 WAIST_JOINT0:0.995819,-0.000000,0.083884,0.036175 WAIST_JOINT1:0.997782,0.066526,-0.000000,0.002169 END:
KINECT_DATA_Sensor  AnkleLeft:0.064834,0.736208,-0.077090,-0.669217 AnkleRight:0.098738,0.738890,0.080600,0.661662 ElbowLeft:-0.017408,0.819895,-0.207061,-0.533475 ElbowRight:-0.101862,0.938070,0.115935,0.310174 FootLeft:0.000000,0.000000,0.000000,0.000000 FootRight:0.000000,0.000000,0.000000,0.000000 HandLeft:-0.127989,0.678897,-0.113083,0.714094 HandRight:0.561149,-0.345577,-0.030909,0.751487 HandTipLeft:0.000000,0.000000,0.000000,0.000000 HandTipRight:0.000000,0.000000,0.000000,0.000000 Head:0.000000,0.000000,0.000000,0.000000 HipLeft:0.081214,-0.668364,0.726400,-0.137974 HipRight:-0.172331,0.679039,0.681581,-0.211317 KneeLeft:0.012539,-0.661757,0.043983,0.748322 KneeRight:-0.008341,0.749635,0.036990,0.660764 Neck:-0.086236,0.021310,0.992645,-0.082253 ShoulderLeft:0.086479,0.755523,-0.649224,-0.014626 ShoulderRight:-0.023825,0.795244,0.594413,-0.117017 SpineBase:-0.062032,0.020669,0.997009,-0.041201 SpineMid:-0.073729,0.021151,0.996213,-0.040956 SpineShoulder:-0.085930,0.021580,0.994210,-0.060805 ThumbLeft:0.000000,0.000000,0.000000,0.000000 ThumbRight:0.000000,0.000000,0.000000,0.000000 WristLeft:-0.046343,0.683880,-0.148579,0.712800 WristRight:0.416931,-0.414856,-0.150240,0.794664 END:
KINECT_DATA POSITION:2.289763,-1.571334,0.255144 HEAD_JOINT1:0.983741,0.170422,-0.000000,0.056650 LARM_JOINT2:0.816580,0.000000,0.014766,-0.577043 LARM_JOINT3:0.961729,0.000000,-0.225569,-0.155552 LLEG_JOINT2:0.999597,0.020946,0.000000,0.019142 LLEG_JOINT4:0.996847,0.078581,0.000000,-0.011023 RARM_JOINT2:0.818441,0.000000,0.130110,0.559665 RARM_JOINT3:0.838501,0.000000,0.423101,0.343369 RLEG_JOINT2:0.998328,0.024599,0.000000,-0.052304 RLEG_JOINT4:0.993965,0.098611,0.000000,0.048055 WAIST:0.997904,-0.000000,0.060836,0.022051 WAIST_JOINT0:0.996060,-0.000000,0.080822,0.036511 WAIST_JOINT1:0.997816,0.066023,-0.000000,0.002129 END:
KINECT_DATA_Sensor  AnkleLeft:-0.053965,-0.659844,0.087152,0.744378 AnkleRight:0.095624,0.754263,0.077324,0.644953 ElbowLeft:-0.018061,0.820263,-0.206309,-0.533179 ElbowRight:-0.105892,0.938299,0.114755,0.308565 FootLeft:0.000000,0.000000,0.000000,0.000000 FootRight:0.000000,0.000000,0.000000,0.000000 HandLeft:-0.125108,0.679554,-0.107997,0.714766 HandRight:0.559977,-0.359806,-0.016897,0.746110 HandTipLeft:0.000000,0.000000,0.000000,0.000000 HandTipRight:0.000000,0.000000,0.000000,0.000000 Head:0.000000,0.000000,0.000000,0.000000 HipLeft:0.081488,-0.668275,0.726449,-0.137986 HipRight:-0.172193,0.679265,0.681520,-0.210901 KneeLeft:0.012569,-0.662054,0.043801,0.748070 KneeRight:-0.007244,0.749418,0.037516,0.660994 Neck:-0.083226,0.021266,0.992948,-0.081704 ShoulderLeft:0.086675,0.755170,-0.649609,-0.014593 ShoulderRight:-0.019522,0.796228,0.594126,-0.112492 SpineBase:-0.061637,0.020794,0.997040,-0.040980 SpineMid:-0.072031,0.021220,0.996343,-0.040760 SpineShoulder:-0.082913,0.021558,0.994492,-0.060386 ThumbLeft:0.000000,0.000000,0.000000,0.000000 ThumbRight:0.000000,0.000000,0.000000,0.000000 WristLeft:-0.045860,0.683852,-0.148451,0.712885 WristRight:0.420606,-0.430181,-0.142927,0.785879 END:
KINECT_DATA POSITION:2.271652,-1.566540,0.142181 HEAD_JOINT1:0.983368,0.172017,-0.000000,0.058292 LARM_JOINT2:0.816618,0.000000,0.014719,-0.576991 LARM_JOINT3:0.961601,0.000000,-0.224395,-0.158017 LLEG_JOINT2:0.999627,0.019926,0.000000,0.018660 LLEG_JOINT4:0.996639,0.081030,0.000000,-0.011996 RARM_JOINT2:0.818650,0.000000,0.128600,0.559709 RARM_JOINT3:0.837810,0.000000,0.424548,0.343269 RLEG_JOINT2:0.998331,0.024154,0.000000,-0.052452 RLEG_JOINT4:0.993948,0.098638,0.000000,0.048345 WAIST:0.997853,-0.000000,0.061567,0.022356 WAIST_JOINT0:0.996113,-0.000000,0.080107,0.036625 WAIST_JOINT1:0.997905,0.064672,-0.000000,0.001697 END:
KINECT_DATA_Sensor  AnkleLeft:0.065474,0.740312,-0.080174,-0.664246 AnkleRight:0.095483,0.753880,0.076896,0.645472 ElbowLeft:-0.018676,0.821072,-0.205698,-0.532146 ElbowRight:-0.106591,0.937584,0.114773,0.310486 FootLeft:0.000000,0.000000,0.000000,0.000000 FootRight:0.000000,0.000000,0.000000,0.000000 HandLeft:-0.122791,0.621102,-0.112921,0.765770 HandRight:0.562719,-0.335335,-0.034407,0.754794 HandTipLeft:0.000000,0.000000,0.000000,0.000000 HandTipRight:0.000000,0.000000,0.000000,0.000000 Head:0.000000,0.000000,0.000000,0.000000 HipLeft:0.081520,-0.668339,0.726618,-0.136760 HipRight:-0.172987,0.679579,0.681082,-0.210653 KneeLeft:0.013212,-0.661503,0.042978,0.748593 KneeRight:-0.007474,0.749907,0.037047,0.660463 Neck:-0.082481,0.021011,0.993135,-0.080241 ShoulderLeft:0.084849,0.755565,-0.649392,-0.014584 ShoulderRight:-0.020362,0.796755,0.593604,-0.111359 SpineBase:-0.062377,0.020788,0.997033,-0.040025 SpineMid:-0.072032,0.021175,0.996382,-0.039822 SpineShoulder:-0.082167,0.021359,0.994636,-0.059083 ThumbLeft:0.000000,0.000000,0.000000,0.000000 ThumbRight:0.000000,0.000000,0.000000,0.000000 WristLeft:-0.034718,0.626109,-0.151557,0.764076 WristRight:0.415512,-0.406245,-0.157830,0.798376 END:
KINECT_DATA POSITION:2.233709,-1.576698,-0.005066 HEAD_JOINT1:0.983502,0.171166,-0.000000,0.058535 LARM_JOINT2:0.816419,0.000000,0.014014,-0.577289 LARM_JOINT3:0.961856,0.000000,-0.224178,-0.156772 LLEG_JOINT2:0.999634,0.018505,0.000000,0.019712 LLEG_JOINT4:0.996505,0.082779,0.000000,-0.011199 RARM_JOINT2:0.819680,0.000000,0.126038,0.558783 RARM_JOINT3:0.835891,0.000000,0.428187,0.343427 RLEG_JOINT2:0.998378,0.024187,0.000000,-0.051547 RLEG_JOINT4:0.993902,0.098160,0.000000,0.050231 WAIST:0.997793,-0.000000,0.062729,0.021767 WAIST_JOINT0:0.996129,-0.000000,0.080098,0.036199 WAIST_JOINT1:0.997915,0.064503,-0.000000,0.002066 END:
KINECT_DATA_Sensor  AnkleLeft:0.066736,0.752478,-0.080019,-0.650323 AnkleRight:0.093433,0.726488,0.079251,0.676169 ElbowLeft:-0.018781,0.820800,-0.204903,-0.532869 ElbowRight:-0.106370,0.936617,0.116825,0.312706 FootLeft:0.000000,0.000000,0.000000,0.000000 FootRight:0.000000,0.000000,0.000000,0.000000 HandLeft:-0.120337,0.628878,-0.113721,0.759671 HandRight:0.566930,-0.346170,-0.027592,0.746991 HandTipLeft:0.000000,0.000000,0.000000,0.000000 HandTipRight:0.000000,0.000000,0.000000,0.000000 Head:0.000000,0.000000,0.000000,0.000000 HipLeft:0.080615,-0.668998,0.726310,-0.135707 HipRight:-0.173493,0.679159,0.681280,-0.210953 KneeLeft:0.014524,-0.660675,0.042411,0.749332 KneeRight:-0.007251,0.750652,0.036863,0.659628 Neck:-0.082405,0.020628,0.993157,-0.080140 ShoulderLeft:0.085409,0.755948,-0.648857,-0.015251 ShoulderRight:-0.019642,0.796663,0.593877,-0.110685 SpineBase:-0.063496,0.020534,0.996974,-0.039862 SpineMid:-0.072561,0.020896,0.996355,-0.039673 SpineShoulder:-0.082096,0.021001,0.994657,-0.058960 ThumbLeft:0.000000,0.000000,0.000000,0.000000 ThumbRight:0.000000,0.000000,0.000000,0.000000 WristLeft:-0.036926,0.633796,-0.151429,0.757634 WristRight:0.417266,-0.418091,-0.153798,0.792108 END:
KINECT_DATA POSITION:2.209246,-1.559648,-0.108922 HEAD_JOINT1:0.983677,0.170515,-0.000000,0.057475 LARM_JOINT2:0.816296,0.000000,0.015173,-0.577435 LARM_JOINT3:0.962169,0.000000,-0.223659,-0.155589 LLEG_JOINT2:0.999655,0.017662,0.000000,0.019462 LLEG_JOINT4:0.996523,0.082642,0.000000,-0.010627 RARM_JOINT2:0.820604,0.000000,0.126826,0.557248 RARM_JOINT3:0.832639,0.000000,0.438141,0.338741 RLEG_JOINT2:0.998389,0.022913,0.000000,-0.051911 RLEG_JOINT4:0.994033,0.096947,0.000000,0.049988 WAIST:0.997702,-0.000000,0.064120,0.021900 WAIST_JOINT0:0.995988,-0.000000,0.081750,0.036405 WAIST_JOINT1:0.997953,0.063921,-0.000000,0.001908 END:
KINECT_DATA_Sensor  AnkleLeft:0.067480,0.765746,-0.078292,-0.634784 AnkleRight:0.093386,0.745451,0.075296,0.655677 ElbowLeft:-0.018400,0.819174,-0.204848,-0.535399 ElbowRight:-0.108668,0.936483,0.117425,0.312093 FootLeft:0.000000,0.000000,0.000000,0.000000 FootRight:0.000000,0.000000,0.000000,0.000000 HandLeft:-0.122448,0.685428,-0.104831,0.710074 HandRight:-0.442735,0.766551,-0.375891,-0.274028 HandTipLeft:0.000000,0.000000,0.000000,0.000000 HandTipRight:0.000000,0.000000,0.000000,0.000000 Head:0.000000,0.000000,0.000000,0.000000 HipLeft:0.080069,-0.669103,0.726488,-0.134556 HipRight:-0.174512,0.679083,0.680947,-0.211431 KneeLeft:0.015050,-0.659635,0.041759,0.750275 KneeRight:-0.008348,0.751534,0.036021,0.658658 Neck:-0.084015,0.020568,0.993075,-0.079506 ShoulderLeft:0.085689,0.756116,-0.648590,-0.016625 ShoulderRight:-0.021426,0.796811,0.593400,-0.111842 SpineBase:-0.064888,0.020489,0.996904,-0.039397 SpineMid:-0.074065,0.020850,0.996264,-0.039206 SpineShoulder:-0.083712,0.020924,0.994559,-0.058375 ThumbLeft:0.000000,0.000000,0.000000,0.000000 ThumbRight:0.000000,0.000000,0.000000,0.000000 WristLeft:-0.050148,0.699552,-0.148122,0.697260 WristRight:-0.393634,0.869249,-0.211656,-0.211329 END:
KINECT_DATA POSITION:2.191192,-1.541668,-0.145781 HEAD_JOINT1:0.983882,0.169820,-0.000000,0.056004 LARM_JOINT2:0.816064,0.000000,0.015778,-0.577746 LARM_JOINT3:0.962404,0.000000,-0.222578,-0.155681 LLEG_JOINT2:0.999660,0.017381,0.000000,0.019442 LLEG_JOINT4:0.996413,0.083868,0.000000,-0.011287 RARM_JOINT2:0.821091,0.000000,0.126989,0.556491 RARM_JOINT3:0.832486,0.000000,0.437342,0.340147 RLEG_JOINT2:0.998360,0.022991,0.000000,-0.052433 RLEG_JOINT4:0.993938,0.097549,0.000000,0.050714 WAIST:0.997630,-0.000000,0.065183,0.022032 WAIST_JOINT0:0.995718,-0.000000,0.084859,0.036672 WAIST_JOINT1:0.997975,0.063581,-0.000000,0.002082 END:
KINECT_DATA_Sensor  AnkleLeft:0.066634,0.748695,-0.079939,-0.654695 AnkleRight:0.095163,0.756239,0.074169,0.643075 ElbowLeft:-0.017986,0.818649,-0.204849,-0.536216 ElbowRight:-0.109494,0.936906,0.117619,0.310456 FootLeft:0.000000,0.000000,0.000000,0.000000 FootRight:0.000000,0.000000,0.000000,0.000000 HandLeft:-0.121132,0.677382,-0.105423,0.717890 HandRight:0.574735,-0.369316,-0.026847,0.729770 HandTipLeft:0.000000,0.000000,0.000000,0.000000 HandTipRight:0.000000,0.000000,0.000000,0.000000 Head:0.000000,0.000000,0.000000,0.000000 HipLeft:0.079606,-0.669159,0.726632,-0.133773 HipRight:-0.175341,0.679072,0.680642,-0.211763 KneeLeft:0.015314,-0.658835,0.041651,0.750977 KneeRight:-0.008649,0.752237,0.036306,0.657835 Neck:-0.087072,0.021026,0.992832,-0.079132 ShoulderLeft:0.086267,0.755753,-0.648893,-0.018248 ShoulderRight:-0.024937,0.796188,0.593517,-0.114893 SpineBase:-0.065947,0.020673,0.996844,-0.039069 SpineMid:-0.076121,0.021070,0.996118,-0.038856 SpineShoulder:-0.086775,0.021279,0.994311,-0.057996 ThumbLeft:0.000000,0.000000,0.000000,0.000000 ThumbRight:0.000000,0.000000,0.000000,0.000000 WristLeft:-0.044747,0.681167,-0.148884,0.715432 WristRight:0.427692,-0.439407,-0.141020,0.777248 END:
KINECT_DATA POSITION:2.153574,-1.531021,-0.125647 HEAD_JOINT1:0.984173,0.169235,-0.000000,0.052561 LARM_JOINT2:0.815917,0.000000,0.015879,-0.577950 LARM_JOINT3:0.961499,0.000000,-0.227889,-0.153580 LLEG_JOINT2:0.999655,0.017217,0.000000,0.019849 LLEG_JOINT4:0.996570,0.081539,0.000000,-0.014112 RARM_JOINT2:0.822804,0.000000,0.127272,0.553891 RARM_JOINT3:0.830041,0.000000,0.436357,0.347310 RLEG_JOINT2:0.998413,0.021317,0.000000,-0.052124 RLEG_JOINT4:0.993952,0.098554,0.000000,0.048442 WAIST:0.997606,-0.000000,0.065562,0.022015 WAIST_JOINT0:0.995227,-0.000000,0.090124,0.037433 WAIST_JOINT1:0.997953,0.063888,-0.000000,0.002945 END:
KINECT_DATA_Sensor  AnkleLeft:0.065682,0.746683,-0.076715,-0.657468 AnkleRight:0.093522,0.759169,0.074674,0.639797 ElbowLeft:-0.017836,0.818305,-0.205540,-0.536481 ElbowRight:-0.109882,0.938944,0.120190,0.303093 FootLeft:0.000000,0.000000,0.000000,0.000000 FootRight:0.000000,0.000000,0.000000,0.000000 HandLeft:-0.132447,0.698519,-0.121893,0.692583 HandRight:0.571928,-0.324924,-0.054740,0.751217 HandTipLeft:0.000000,0.000000,0.000000,0.000000 HandTipRight:0.000000,0.000000,0.000000,0.000000 Head:0.000000,0.000000,0.000000,0.000000 HipLeft:0.079390,-0.669128,0.726658,-0.133917 HipRight:-0.175796,0.678959,0.680548,-0.212047 KneeLeft:0.015682,-0.658562,0.041837,0.751199 KneeRight:-0.009558,0.752419,0.034846,0.657693 Neck:-0.092335,0.022364,0.992301,-0.079460 ShoulderLeft:0.087143,0.754906,-0.649716,-0.019828 ShoulderRight:-0.031168,0.795293,0.593157,-0.121252 SpineBase:-0.066308,0.021094,0.996806,-0.039182 SpineMid:-0.078928,0.021589,0.995887,-0.038912 SpineShoulder:-0.092048,0.022327,0.993801,-0.058203 ThumbLeft:0.000000,0.000000,0.000000,0.000000 ThumbRight:0.000000,0.000000,0.000000,0.000000 WristLeft:-0.050329,0.712812,-0.146764,0.683979 WristRight:0.424484,-0.393397,-0.158529,0.799950 END:
KINECT_DATA POSITION:2.148378,-1.523926,-0.102651 HEAD_JOINT1:0.984182,0.169323,-0.000000,0.052105 LARM_JOINT2:0.816672,0.000000,0.016812,-0.576858 LARM_JOINT3:0.960867,0.000000,-0.230261,-0.153993 LLEG_JOINT2:0.999659,0.017511,0.000000,0.019373 LLEG_JOINT4:0.996772,0.079347,0.000000,-0.012193 RARM_JOINT2:0.823104,0.000000,0.127541,0.553383 RARM_JOINT3:0.829431,0.000000,0.437461,0.347378 RLEG_JOINT2:0.998393,0.021364,0.000000,-0.052491 RLEG_JOINT4:0.993667,0.099760,0.000000,0.051704 WAIST:0.997561,-0.000000,0.066170,0.022232 WAIST_JOINT0:0.995051,-0.000000,0.091947,0.037676 WAIST_JOINT1:0.997931,0.064211,-0.000000,0.003104 END:
KINECT_DATA_Sensor  AnkleLeft:-0.052528,-0.653433,0.084648,0.750400 AnkleRight:0.094260,0.739040,0.076498,0.662634 ElbowLeft:-0.017362,0.817984,-0.207506,-0.536229 ElbowRight:-0.109743,0.939825,0.120521,0.300265 FootLeft:0.000000,0.000000,0.000000,0.000000 FootRight:0.000000,0.000000,0.000000,0.000000 HandLeft:-0.130105,0.659236,-0.136776,0.727855 HandRight:0.573490,-0.329503,-0.057119,0.747846 HandTipLeft:0.000000,0.000000,0.000000,0.000000 HandTipRight:0.000000,0.000000,0.000000,0.000000 Head:0.000000,0.000000,0.000000,0.000000 HipLeft:0.078892,-0.668969,0.726870,-0.133857 HipRight:-0.176129,0.678939,0.680335,-0.212521 KneeLeft:0.015285,-0.658103,0.041826,0.751610 KneeRight:-0.009680,0.752822,0.034955,0.657224 Neck:-0.094128,0.022779,0.992096,-0.079784 ShoulderLeft:0.086507,0.754949,-0.649765,-0.019353 ShoulderRight:-0.034309,0.794789,0.593014,-0.124368 SpineBase:-0.066923,0.021395,0.996749,-0.039424 SpineMid:-0.080124,0.021916,0.995775,-0.039137 SpineShoulder:-0.093839,0.022719,0.993608,-0.058492 ThumbLeft:0.000000,0.000000,0.000000,0.000000 ThumbRight:0.000000,0.000000,0.000000,0.000000 WristLeft:-0.038878,0.667218,-0.149621,0.728644 WristRight:0.425972,-0.396359,-0.154151,0.798552 END:
KINECT_DATA POSITION:2.203843,-1.470860,-0.042081 HEAD_JOINT1:0.984787,0.167388,-0.000000,0.046643 LARM_JOINT2:0.816503,0.000000,0.023369,-0.576869 LARM_JOINT3:0.960664,0.000000,-0.229490,-0.156396 LLEG_JOINT2:0.999615,0.019552,0.000000,0.019695 LLEG_JOINT4:0.996790,0.079166,0.000000,-0.011975 RARM_JOINT2:0.801209,0.000000,0.326213,0.501646 RARM_JOINT3:0.850609,0.000000,0.403486,0.337141 RLEG_JOINT2:0.998441,0.019346,0.000000,-0.052350 RLEG_JOINT4:0.993226,0.104762,0.000000,0.050271 WAIST:0.997334,-0.000000,0.069509,0.022220 WAIST_JOINT0:0.995183,-0.000000,0.090957,0.036570 WAIST_JOINT1:0.997905,0.064489,-0.000000,0.005142 END:
KINECT_DATA_Sensor  AnkleLeft:0.063350,0.732968,-0.079266,-0.672652 AnkleRight:0.097111,0.759098,0.077186,0.639048 ElbowLeft:-0.013759,0.811863,-0.211465,-0.544033 ElbowRight:-0.234726,0.967530,0.078848,0.050724 FootLeft:0.000000,0.000000,0.000000,0.000000 FootRight:0.000000,0.000000,0.000000,0.000000 HandLeft:-0.142433,0.842480,-0.084722,0.512604 HandRight:-0.490448,0.716474,-0.451550,-0.205495 HandTipLeft:0.000000,0.000000,0.000000,0.000000 HandTipRight:0.000000,0.000000,0.000000,0.000000 Head:0.000000,0.000000,0.000000,0.000000 HipLeft:0.076450,-0.669175,0.727246,-0.132189 HipRight:-0.178546,0.678447,0.679795,-0.213800 KneeLeft:0.013856,-0.655595,0.043398,0.753737 KneeRight:-0.011082,0.754900,0.033261,0.654903 Neck:-0.093025,0.024716,0.992116,-0.080263 ShoulderLeft:0.087190,0.756152,-0.648265,-0.019594 ShoulderRight:-0.032101,0.795606,0.592351,-0.122884 SpineBase:-0.070192,0.022885,0.996493,-0.039372 SpineMid:-0.081214,0.023319,0.995656,-0.039116 SpineShoulder:-0.092752,0.024094,0.993650,-0.058966 ThumbLeft:0.000000,0.000000,0.000000,0.000000 ThumbRight:0.000000,0.000000,0.000000,0.000000 WristLeft:-0.080762,0.852518,-0.133823,0.498781 WristRight:-0.299069,0.862605,-0.336218,-0.231145 END:
KINECT_DATA POSITION:2.363107,-1.252175,0.059021 HEAD_JOINT1:0.985542,0.165123,-0.000000,0.037958 LARM_JOINT2:0.814683,0.000000,0.036022,-0.578786 LARM_JOINT3:0.961813,0.000000,-0.226700,-0.153371 LLEG_JOINT2:0.999635,0.018920,0.000000,0.019262 LLEG_JOINT4:0.996919,0.078175,0.000000,-0.006374 RARM_JOINT2:0.827286,0.000000,0.266813,0.494377 RARM_JOINT3:0.802328,0.000000,0.494589,0.334143 RLEG_JOINT2:0.998322,0.024419,0.000000,-0.052515 RLEG_JOINT4:0.993488,0.100908,0.000000,0.052916 WAIST:0.996278,-0.000000,0.083540,0.021260 WAIST_JOINT0:0.991957,-0.000000,0.120158,0.039784 WAIST_JOINT1:0.997979,0.062715,-0.000000,0.010278 END:
KINECT_DATA_Sensor  AnkleLeft:0.063043,0.744104,-0.078964,-0.660378 AnkleRight:0.098445,0.773269,0.077417,0.621587 ElbowLeft:-0.005817,0.797255,-0.216159,-0.563583 ElbowRight:-0.220931,0.951156,0.087389,0.197114 FootLeft:0.000000,0.000000,0.000000,0.000000 FootRight:0.000000,0.000000,0.000000,0.000000 HandLeft:-0.122748,0.855447,-0.088899,0.495218 HandRight:-0.471395,0.705876,-0.450404,-0.276879 HandTipLeft:0.000000,0.000000,0.000000,0.000000 HandTipRight:0.000000,0.000000,0.000000,0.000000 Head:0.000000,0.000000,0.000000,0.000000 HipLeft:0.069906,-0.670315,0.728005,-0.125694 HipRight:-0.190981,0.674969,0.677662,-0.220720 KneeLeft:0.012985,-0.645107,0.041954,0.762829 KneeRight:-0.009290,0.764112,0.037541,0.643923 Neck:-0.121528,0.030269,0.989056,-0.077991 ShoulderLeft:0.094937,0.754840,-0.648047,-0.035186 ShoulderRight:-0.062198,0.792327,0.587762,-0.151280 SpineBase:-0.083958,0.026355,0.995404,-0.037778 SpineMid:-0.102304,0.027048,0.993686,-0.037286 SpineShoulder:-0.121367,0.027984,0.990558,-0.057285 ThumbLeft:0.000000,0.000000,0.000000,0.000000 ThumbRight:0.000000,0.000000,0.000000,0.000000 WristLeft:-0.070279,0.862389,-0.135792,0.482604 WristRight:-0.425903,0.809216,-0.325701,-0.240199 END:
KINECT_DATA POSITION:2.762966,-0.765905,0.126874 HEAD_JOINT1:0.987297,0.157784,-0.000000,0.018697 LARM_JOINT2:0.811700,0.000000,0.038193,-0.582824 LARM_JOINT3:0.962007,0.000000,-0.225789,-0.153497 LLEG_JOINT2:0.999785,0.017869,0.000000,0.010562 LLEG_JOINT4:0.996826,0.079435,0.000000,0.005257 RARM_JOINT2:0.812575,0.000000,0.363867,0.455328 RARM_JOINT3:0.804799,0.000000,0.520763,0.284788 RLEG_JOINT2:0.997492,0.032141,0.000000,-0.063059 RLEG_JOINT4:0.993297,0.097576,0.000000,0.061974 WAIST:0.993297,-0.000000,0.112304,0.027384 WAIST_JOINT0:0.987814,-0.000000,0.148419,0.046848 WAIST_JOINT1:0.998173,0.058808,-0.000000,0.013898 END:
KINECT_DATA_Sensor  AnkleLeft:-0.047332,-0.620852,0.091941,0.777077 AnkleRight:0.101073,0.786440,0.080261,0.604032 ElbowLeft:-0.003701,0.781237,-0.218913,-0.584578 ElbowRight:-0.294371,0.945998,0.030277,0.132352 FootLeft:0.000000,0.000000,0.000000,0.000000 FootRight:0.000000,0.000000,0.000000,0.000000 HandLeft:-0.093947,0.842165,-0.107512,0.519974 HandRight:-0.507028,0.660160,-0.447390,-0.327038 HandTipLeft:0.000000,0.000000,0.000000,0.000000 HandTipRight:0.000000,0.000000,0.000000,0.000000 Head:0.000000,0.000000,0.000000,0.000000 HipLeft:0.052185,-0.667814,0.734561,-0.108263 HipRight:-0.211289,0.674317,0.668401,-0.232149 KneeLeft:0.011947,-0.622712,0.038755,0.781399 KneeRight:-0.009871,0.782895,0.045115,0.620438 Neck:-0.149330,0.040308,0.985219,-0.073619 ShoulderLeft:0.110949,0.749463,-0.649944,-0.059741 ShoulderRight:-0.082239,0.792908,0.579253,-0.170296 SpineBase:-0.112778,0.034523,0.992396,-0.035220 SpineMid:-0.130584,0.035150,0.990210,-0.034594 SpineShoulder:-0.149268,0.035498,0.986688,-0.053897 ThumbLeft:0.000000,0.000000,0.000000,0.000000 ThumbRight:0.000000,0.000000,0.000000,0.000000 WristLeft:-0.063055,0.844817,-0.146678,0.510680 WristRight:-0.469162,0.733362,-0.374094,-0.319565 END:
KINECT_DATA POSITION:2.928084,-0.444707,0.128412 HEAD_JOINT1:0.988414,0.151704,-0.000000,0.004777 LARM_JOINT2:0.809614,0.000000,0.029079,-0.586243 LARM_JOINT3:0.969269,0.000000,-0.194799,-0.150238 LLEG_JOINT2:0.999847,0.015575,0.000000,0.007981 LLEG_JOINT4:0.996909,0.078487,0.000000,0.003336 RARM_JOINT2:0.799783,0.000000,0.409168,0.439237 RARM_JOINT3:0.813110,0.000000,0.529993,0.240748 RLEG_JOINT2:0.996985,0.037304,0.000000,-0.068041 RLEG_JOINT4:0.993119,0.093638,0.000000,0.070328 WAIST:0.990078,-0.000000,0.137100,0.030814 WAIST_JOINT0:0.979777,-0.000000,0.192299,0.055306 WAIST_JOINT1:0.998269,0.055532,-0.000000,0.019365 END:
KINECT_DATA_Sensor  AnkleLeft:0.062324,0.739338,-0.076838,-0.666026 AnkleRight:0.104982,0.806176,0.077720,0.577078 ElbowLeft:-0.002409,0.789255,-0.219326,-0.573556 ElbowRight:-0.323531,0.939836,-0.017241,0.108341 FootLeft:0.000000,0.000000,0.000000,0.000000 FootRight:0.000000,0.000000,0.000000,0.000000 HandLeft:-0.073206,0.843743,-0.109184,0.520401 HandRight:-0.520166,0.639464,-0.461868,-0.327401 HandTipLeft:0.000000,0.000000,0.000000,0.000000 HandTipRight:0.000000,0.000000,0.000000,0.000000 Head:0.000000,0.000000,0.000000,0.000000 HipLeft:0.037702,-0.665281,0.739681,-0.094082 HipRight:-0.228182,0.671097,0.662248,-0.242876 KneeLeft:0.014163,-0.603017,0.037549,0.796718 KneeRight:-0.009877,0.798542,0.049075,0.599855 Neck:-0.191895,0.049366,0.977635,-0.070496 ShoulderLeft:0.114981,0.743221,-0.654640,-0.076474 ShoulderRight:-0.136954,0.785052,0.564184,-0.215946 SpineBase:-0.137549,0.039812,0.989123,-0.033639 SpineMid:-0.164134,0.040703,0.985060,-0.032555 SpineShoulder:-0.191759,0.044091,0.979156,-0.050370 ThumbLeft:0.000000,0.000000,0.000000,0.000000 ThumbRight:0.000000,0.000000,0.000000,0.000000 WristLeft:-0.034076,0.846771,-0.136604,0.512988 WristRight:-0.484016,0.698856,-0.408958,-0.331787 END:
KINECT_DATA POSITION:3.027993,-0.057352,0.077832 HEAD_JOINT1:0.989409,0.145022,0.000000,-0.006211 LARM_JOINT2:0.797118,0.000000,0.008822,-0.603759 LARM_JOINT3:0.974415,0.000000,-0.187246,-0.124318 LLEG_JOINT2:0.999880,0.012704,0.000000,0.008910 LLEG_JOINT4:0.996900,0.078616,0.000000,0.003275 RARM_JOINT2:0.789454,0.000000,0.476164,0.387337 RARM_JOINT3:0.834943,0.000000,0.518043,0.185744 RLEG_JOINT2:0.996652,0.038835,0.000000,-0.071948 RLEG_JOINT4:0.992872,0.094587,0.000000,0.072513 WAIST:0.986950,-0.000000,0.157776,0.032205 WAIST_JOINT0:0.975452,-0.000000,0.213546,0.053777 WAIST_JOINT1:0.998233,0.054513,-0.000000,0.023645 END:
KINECT_DATA_Sensor  AnkleLeft:-0.043963,-0.580027,0.086064,0.808844 AnkleRight:0.103723,0.816009,0.081746,0.562750 ElbowLeft:-0.015206,0.764969,-0.198681,-0.612469 ElbowRight:-0.379435,0.921332,-0.054876,0.064531 FootLeft:0.000000,0.000000,0.000000,0.000000 FootRight:0.000000,0.000000,0.000000,0.000000 HandLeft:-0.105720,0.864280,-0.121678,0.476485 HandRight:-0.532887,0.619395,-0.468026,-0.336651 HandTipLeft:0.000000,0.000000,0.000000,0.000000 HandTipRight:0.000000,0.000000,0.000000,0.000000 Head:0.000000,0.000000,0.000000,0.000000 HipLeft:0.026911,-0.665851,0.740703,-0.085307 HipRight:-0.242456,0.668726,0.655604,-0.253386 KneeLeft:0.017682,-0.586388,0.037444,0.808971 KneeRight:-0.012616,0.811046,0.050961,0.582622 Neck:-0.213869,0.053283,0.972836,-0.070792 ShoulderLeft:0.128695,0.734447,-0.660000,-0.091791 ShoulderRight:-0.154450,0.773938,0.568625,-0.232013 SpineBase:-0.158099,0.044328,0.985870,-0.033174 SpineMid:-0.185309,0.045229,0.981119,-0.031935 SpineShoulder:-0.213588,0.048950,0.974429,-0.049717 ThumbLeft:0.000000,0.000000,0.000000,0.000000 ThumbRight:0.000000,0.000000,0.000000,0.000000 WristLeft:-0.025606,0.873142,-0.143377,0.465199 WristRight:-0.489476,0.683259,-0.415474,-0.347781 END:
KINECT_DATA POSITION:3.053065,-0.018911,0.044549 HEAD_JOINT1:0.989916,0.141546,0.000000,-0.005568 LARM_JOINT2:0.794744,0.000000,0.012664,-0.606813 LARM_JOINT3:0.976782,0.000000,-0.179488,-0.116967 LLEG_JOINT2:0.999858,0.013559,0.000000,0.010045 LLEG_JOINT4:0.997064,0.076482,0.000000,0.003835 RARM_JOINT2:0.777080,0.000000,0.531428,0.337241 RARM_JOINT3:0.865182,0.000000,0.480292,0.144149 RLEG_JOINT2:0.996681,0.037740,0.000000,-0.072124 RLEG_JOINT4:0.992208,0.098426,0.000000,0.076390 WAIST:0.986196,-0.000000,0.162604,0.031259 WAIST_JOINT0:0.974362,-0.000000,0.219462,0.049547 WAIST_JOINT1:0.998185,0.055019,-0.000000,0.024508 END:
KINECT_DATA_Sensor  AnkleLeft:-0.042929,-0.576316,0.085694,0.811587 AnkleRight:0.107181,0.818173,0.082734,0.558803 ElbowLeft:-0.010451,0.759276,-0.196257,-0.620382 ElbowRight:-0.427715,0.900638,-0.073527,0.022489 FootLeft:0.000000,0.000000,0.000000,0.000000 FootRight:0.000000,0.000000,0.000000,0.000000 HandLeft:-0.074312,0.847968,-0.122508,0.510313 HandRight:0.669327,-0.470111,0.221994,0.530769 HandTipLeft:0.000000,0.000000,0.000000,0.000000 HandTipRight:0.000000,0.000000,0.000000,0.000000 Head:0.000000,0.000000,0.000000,0.000000 HipLeft:0.023648,-0.667259,0.739836,-0.082758 HipRight:-0.244901,0.667693,0.654850,-0.255695 KneeLeft:0.016903,-0.582440,0.038172,0.811801 KneeRight:-0.014429,0.813777,0.050673,0.578784 Neck:-0.220080,0.052195,0.971431,-0.071842 ShoulderLeft:0.134836,0.732203,-0.660496,-0.097177 ShoulderRight:-0.157416,0.767182,0.575526,-0.235417 SpineBase:-0.162841,0.044530,0.985080,-0.033412 SpineMid:-0.190744,0.045460,0.980060,-0.032134 SpineShoulder:-0.219728,0.048854,0.973040,-0.050252 ThumbLeft:0.000000,0.000000,0.000000,0.000000 ThumbRight:0.000000,0.000000,0.000000,0.000000 WristLeft:-0.012850,0.853507,-0.139846,0.501801 WristRight:0.601213,-0.512655,0.192070,0.582096 END:
KINECT_DATA POSITION:3.025302,-0.058720,0.006139 HEAD_JOINT1:0.990320,0.138799,-0.000000,0.000667 LARM_JOINT2:0.796100,0.000000,0.023336,-0.604714 LARM_JOINT3:0.972960,0.000000,-0.195587,-0.122857 LLEG_JOINT2:0.999836,0.011052,0.000000,0.014355 LLEG_JOINT4:0.996859,0.079056,0.000000,0.004645 RARM_JOINT2:0.767347,0.000000,0.562693,0.307499 RARM_JOINT3:0.887005,0.000000,0.447326,0.114550 RLEG_JOINT2:0.997032,0.036919,0.000000,-0.067562 RLEG_JOINT4:0.992130,0.099282,0.000000,0.076293 WAIST:0.985437,-0.000000,0.167908,0.026832 WAIST_JOINT0:0.972077,-0.000000,0.232083,0.034680 WAIST_JOINT1:0.998083,0.055424,-0.000000,0.027544 END:
KINECT_DATA_Sensor  AnkleLeft:-0.043076,-0.567947,0.086643,0.817358 AnkleRight:0.107596,0.823766,0.083196,0.550373 ElbowLeft:-0.002776,0.749148,-0.200425,-0.631348 ElbowRight:-0.451817,0.886841,-0.095732,0.014481 FootLeft:0.000000,0.000000,0.000000,0.000000 FootRight:0.000000,0.000000,0.000000,0.000000 HandLeft:-0.096930,0.848314,-0.138098,0.501893 HandRight:0.620486,-0.537248,0.319021,0.473907 HandTipLeft:0.000000,0.000000,0.000000,0.000000 HandTipRight:0.000000,0.000000,0.000000,0.000000 Head:0.000000,0.000000,0.000000,0.000000 HipLeft:0.018530,-0.672872,0.735323,-0.078741 HipRight:-0.245974,0.666131,0.655423,-0.257270 KneeLeft:0.018214,-0.578415,0.037087,0.814695 KneeRight:-0.014703,0.816673,0.050288,0.574717 Neck:-0.231629,0.050371,0.968762,-0.072880 ShoulderLeft:0.139612,0.726470,-0.665485,-0.099392 ShoulderRight:-0.175006,0.739123,0.602269,-0.245644 SpineBase:-0.167848,0.043754,0.984258,-0.033894 SpineMid:-0.199002,0.044808,0.978435,-0.032488 SpineShoulder:-0.231275,0.047634,0.970386,-0.050932 ThumbLeft:0.000000,0.000000,0.000000,0.000000 ThumbRight:0.000000,0.000000,0.000000,0.000000 WristLeft:-0.015858,0.857876,-0.140664,0.493974 WristRight:0.574350,-0.606823,0.254690,0.486848 END:
KINECT_DATA POSITION:2.926052,-0.179174,-0.056565 HEAD_JOINT1:0.990611,0.136713,0.000000,-0.000164 LARM_JOINT2:0.797072,0.000000,0.019251,-0.603578 LARM_JOINT3:0.973974,0.000000,-0.190811,-0.122338 LLEG_JOINT2:0.999860,0.008783,0.000000,0.014254 LLEG_JOINT4:0.996947,0.077590,0.000000,0.008804 RARM_JOINT2:0.744318,0.000000,0.592197,0.308695 RARM_JOINT3:0.904107,0.000000,0.422798,0.061915 RLEG_JOINT2:0.997128,0.037249,0.000000,-0.065941 RLEG_JOINT4:0.991912,0.100413,0.000000,0.077636 WAIST:0.984517,-0.000000,0.173450,0.025335 WAIST_JOINT0:0.970017,-0.000000,0.240351,0.036046 WAIST_JOINT1:0.997991,0.055888,-0.000000,0.029848 END:
KINECT_DATA_Sensor  AnkleLeft:0.057256,0.731027,-0.075629,-0.675723 AnkleRight:0.109336,0.827160,0.084036,0.544784 ElbowLeft:-0.002372,0.753864,-0.201742,-0.625287 ElbowRight:-0.445702,0.881501,-0.151950,0.034886 FootLeft:0.000000,0.000000,0.000000,0.000000 FootRight:0.000000,0.000000,0.000000,0.000000 HandLeft:-0.078904,0.835466,-0.145459,0.524034 HandRight:-0.583997,0.589246,-0.417859,-0.370311 HandTipLeft:0.000000,0.000000,0.000000,0.000000 HandTipRight:0.000000,0.000000,0.000000,0.000000 Head:0.000000,0.000000,0.000000,0.000000 HipLeft:0.013768,-0.675063,0.733780,-0.075283 HipRight:-0.247524,0.664746,0.655069,-0.260247 KneeLeft:0.018851,-0.574063,0.034644,0.817861 KneeRight:-0.014632,0.819832,0.050494,0.570186 Neck:-0.239205,0.051004,0.966816,-0.073797 ShoulderLeft:0.148234,0.710593,-0.680754,-0.098279 ShoulderRight:-0.183819,0.721702,0.618472,-0.250696 SpineBase:-0.173292,0.042964,0.983314,-0.034879 SpineMid:-0.205595,0.044090,0.977071,-0.033445 SpineShoulder:-0.238868,0.048155,0.968478,-0.051713 ThumbLeft:0.000000,0.000000,0.000000,0.000000 ThumbRight:0.000000,0.000000,0.000000,0.000000 WristLeft:-0.008366,0.843853,-0.138325,0.518371 WristRight:-0.548429,0.672617,-0.343130,-0.359269 END:
KINECT_DATA POSITION:2.854893,-0.389179,-0.082576 HEAD_JOINT1:0.991492,0.130169,0.000000,-0.000636 LARM_JOINT2:0.798366,0.000000,0.002921,-0.602166 LARM_JOINT3:0.978047,0.000000,-0.175663,-0.112104 LLEG_JOINT2:0.999965,0.006220,0.000000,0.005574 LLEG_JOINT4:0.996809,0.078642,0.000000,0.013716 RARM_JOINT2:0.716199,0.000000,0.640275,0.277681 RARM_JOINT3:0.932781,0.000000,0.358842,0.033934 RLEG_JOINT2:0.996658,0.039948,0.000000,-0.071249 RLEG_JOINT4:0.991846,0.098596,0.000000,0.080746 WAIST:0.982927,-0.000000,0.181340,0.031157 WAIST_JOINT0:0.966631,-0.000000,0.248109,0.063761 WAIST_JOINT1:0.997846,0.059579,-0.000000,0.027467 END:
KINECT_DATA_Sensor  AnkleLeft:0.053933,0.719892,-0.076390,-0.687758 AnkleRight:0.111045,0.830434,0.082776,0.539627 ElbowLeft:-0.010821,0.754323,-0.203322,-0.624131 ElbowRight:-0.460262,0.864216,-0.202728,0.013816 FootLeft:0.000000,0.000000,0.000000,0.000000 FootRight:0.000000,0.000000,0.000000,0.000000 HandLeft:-0.053944,0.860099,-0.141079,0.487255 HandRight:0.603369,-0.567219,0.355515,0.433379 HandTipLeft:0.000000,0.000000,0.000000,0.000000 HandTipRight:0.000000,0.000000,0.000000,0.000000 Head:0.000000,0.000000,0.000000,0.000000 HipLeft:0.006029,-0.671740,0.737459,-0.069881 HipRight:-0.248518,0.666765,0.650575,-0.265358 KneeLeft:0.020034,-0.567479,0.030168,0.822591 KneeRight:-0.013899,0.824689,0.051357,0.563078 Neck:-0.249235,0.053760,0.963885,-0.076930 ShoulderLeft:-0.174905,-0.670580,0.713406,0.103840 ShoulderRight:-0.175857,0.720425,0.622376,-0.250421 SpineBase:-0.181550,0.043893,0.981721,-0.036558 SpineMid:-0.214822,0.045110,0.974981,-0.035045 SpineShoulder:-0.248900,0.050758,0.965646,-0.054775 ThumbLeft:0.000000,0.000000,0.000000,0.000000 ThumbRight:0.000000,0.000000,0.000000,0.000000 WristLeft:-0.001174,0.864999,-0.141719,0.481343 WristRight:-0.571497,0.661961,-0.304159,-0.377738 END:
KINECT_DATA POSITION:2.800584,-0.646641,-0.080752 HEAD_JOINT1:0.992192,0.124640,0.000000,-0.004532 LARM_JOINT2:0.796969,0.000000,0.002041,-0.604017 LARM_JOINT3:0.977938,0.000000,-0.177676,-0.109858 LLEG_JOINT2:0.999976,0.006628,0.000000,0.001853 LLEG_JOINT4:0.996715,0.079442,0.000000,0.015774 RARM_JOINT2:0.696949,0.000000,0.664886,0.268680 RARM_JOINT3:0.938679,0.000000,0.342659,0.038290 RLEG_JOINT2:0.996398,0.039943,0.000000,-0.074803 RLEG_JOINT4:0.991754,0.098416,0.000000,0.082083 WAIST:0.982810,-0.000000,0.181369,0.034493 WAIST_JOINT0:0.964953,-0.000000,0.253185,0.069017 WAIST_JOINT1:0.997710,0.061992,-0.000000,0.027051 END:
KINECT_DATA_Sensor  AnkleLeft:0.054390,0.724322,-0.077748,-0.682901 AnkleRight:0.100985,0.760810,0.094146,0.634119 ElbowLeft:-0.011386,0.749568,-0.204104,-0.629571 ElbowRight:-0.461911,0.856912,-0.228780,-0.000425 FootLeft:0.000000,0.000000,0.000000,0.000000 FootRight:0.000000,0.000000,0.000000,0.000000 HandLeft:-0.045489,0.843138,-0.144163,0.516009 HandRight:0.600498,-0.522710,0.344603,0.497419 HandTipLeft:0.000000,0.000000,0.000000,0.000000 HandTipRight:0.000000,0.000000,0.000000,0.000000 Head:0.000000,0.000000,0.000000,0.000000 HipLeft:0.004029,-0.668525,0.740281,-0.071007 HipRight:-0.247578,0.667812,0.649380,-0.266528 KneeLeft:0.019951,-0.567410,0.029692,0.822658 KneeRight:-0.014480,0.824793,0.051015,0.562943 Neck:-0.255321,0.057112,0.961981,-0.078377 ShoulderLeft:-0.182543,-0.668889,0.712153,0.110016 ShoulderRight:-0.174962,0.725343,0.615243,-0.254444 SpineBase:-0.181770,0.045581,0.981525,-0.038603 SpineMid:-0.217973,0.046979,0.974125,-0.036889 SpineShoulder:-0.255007,0.053642,0.963786,-0.056667 ThumbLeft:0.000000,0.000000,0.000000,0.000000 ThumbRight:0.000000,0.000000,0.000000,0.000000 WristLeft:0.004182,0.847752,-0.144213,0.510393 WristRight:0.602604,-0.613835,0.245380,0.447061 END:
KINECT_DATA POSITION:2.656667,-1.122323,-0.105381 HEAD_JOINT1:0.993015,0.117921,0.000000,-0.003891 LARM_JOINT2:0.795378,0.000000,0.017412,-0.605863 LARM_JOINT3:0.975106,0.000000,-0.189228,-0.115590 LLEG_JOINT2:0.999973,0.006864,0.000000,-0.002543 LLEG_JOINT4:0.996552,0.081095,0.000000,0.017535 RARM_JOINT2:0.667292,0.000000,0.703985,0.243161 RARM_JOINT3:0.952475,0.000000,0.303924,0.020545 RLEG_JOINT2:0.996170,0.040430,0.000000,-0.077528 RLEG_JOINT4:0.992064,0.096364,0.000000,0.080768 WAIST:0.982764,-0.000000,0.180863,0.038248 WAIST_JOINT0:0.966583,-0.000000,0.246465,0.070522 WAIST_JOINT1:0.997587,0.064738,-0.000000,0.025085 END:
KINECT_DATA_Sensor  AnkleLeft:0.052921,0.705776,-0.080684,-0.701833 AnkleRight:0.109772,0.830188,0.080029,0.540679 ElbowLeft:-0.002075,0.734954,-0.208018,-0.645419 ElbowRight:-0.474425,0.840192,-0.260614,-0.032850 FootLeft:0.000000,0.000000,0.000000,0.000000 FootRight:0.000000,0.000000,0.000000,0.000000 HandLeft:-0.054668,0.862749,-0.132101,0.485000 HandRight:-0.551212,0.618869,-0.412233,-0.378458 HandTipLeft:0.000000,0.000000,0.000000,0.000000 HandTipRight:0.000000,0.000000,0.000000,0.000000 Head:0.000000,0.000000,0.000000,0.000000 HipLeft:0.000568,-0.664984,0.743435,-0.071416 HipRight:-0.244733,0.669233,0.648655,-0.267358 KneeLeft:0.019925,-0.567770,0.028866,0.822439 KneeRight:-0.013764,0.824641,0.050329,0.563244 Neck:-0.249434,0.058335,0.963243,-0.080891 ShoulderLeft:-0.174178,-0.690400,0.693150,0.112042 ShoulderRight:-0.164314,0.747887,0.590424,-0.255077 SpineBase:-0.181539,0.046793,0.981397,-0.041400 SpineMid:-0.214903,0.048178,0.974635,-0.039780 SpineShoulder:-0.249122,0.054745,0.965108,-0.059226 ThumbLeft:0.000000,0.000000,0.000000,0.000000 ThumbRight:0.000000,0.000000,0.000000,0.000000 WristLeft:-0.003801,0.866444,-0.145618,0.477552 WristRight:-0.557128,0.663246,-0.356138,-0.350540 END:
KINECT_DATA POSITION:2.602722,-1.512226,-0.087488 HEAD_JOINT1:0.993000,0.117539,-0.000000,0.011640 LARM_JOINT2:0.794795,0.000000,0.027606,-0.606250 LARM_JOINT3:0.972735,0.000000,-0.201072,-0.115567 LLEG_JOINT2:0.999956,0.008012,0.000000,-0.004943 LLEG_JOINT4:0.996696,0.079325,0.000000,0.017456 RARM_JOINT2:0.641419,0.000000,0.737420,0.211645 RARM_JOINT3:0.967771,0.000000,0.251014,0.020295 RLEG_JOINT2:0.996138,0.039737,0.000000,-0.078290 RLEG_JOINT4:0.992210,0.096871,0.000000,0.078329 WAIST:0.983340,-0.000000,0.177338,0.039924 WAIST_JOINT0:0.967237,-0.000000,0.241487,0.078333 WAIST_JOINT1:0.997581,0.065949,-0.000000,0.021980 END:
KINECT_DATA_Sensor  AnkleLeft:0.052885,0.714069,-0.079397,-0.693545 AnkleRight:0.108611,0.828375,0.080303,0.543645 ElbowLeft:0.003328,0.726540,-0.209146,-0.654513 ElbowRight:-0.496370,0.820213,-0.274505,-0.074265 FootLeft:0.000000,0.000000,0.000000,0.000000 FootRight:0.000000,0.000000,0.000000,0.000000 HandLeft:-0.061509,0.859129,-0.141687,0.487892 HandRight:-0.557697,0.629158,-0.369885,-0.395373 HandTipLeft:0.000000,0.000000,0.000000,0.000000 HandTipRight:0.000000,0.000000,0.000000,0.000000 Head:0.000000,0.000000,0.000000,0.000000 HipLeft:0.000557,-0.663271,0.744815,-0.072953 HipRight:-0.241137,0.670606,0.649197,-0.265866 KneeLeft:0.018809,-0.570604,0.028757,0.820506 KneeRight:-0.013334,0.822640,0.049153,0.566277 Neck:-0.245597,0.055789,0.964375,-0.080937 ShoulderLeft:0.175478,0.699278,-0.683940,-0.111554 ShoulderRight:-0.153128,0.767064,0.569313,-0.253076 SpineBase:-0.178174,0.047033,0.981947,-0.042692 SpineMid:-0.211173,0.048446,0.975383,-0.041083 SpineShoulder:-0.245175,0.053780,0.966115,-0.060161 ThumbLeft:0.000000,0.000000,0.000000,0.000000 ThumbRight:0.000000,0.000000,0.000000,0.000000 WristLeft:-0.006225,0.864302,-0.146579,0.481101 WristRight:-0.567243,0.659381,-0.325784,-0.370563 END:
KINECT_DATA POSITION:2.562997,-1.645640,-0.085735 HEAD_JOINT1:0.993611,0.112392,-0.000000,0.010241 LARM_JOINT2:0.793523,0.000000,0.030419,-0.607780 LARM_JOINT3:0.972206,0.000000,-0.202005,-0.118361 LLEG_JOINT2:0.999946,0.008341,0.000000,-0.006200 LLEG_JOINT4:0.996791,0.078005,0.000000,0.017997 RARM_JOINT2:0.635526,0.000000,0.744555,0.204315 RARM_JOINT3:0.972466,0.000000,0.232327,0.018302 RLEG_JOINT2:0.996119,0.039405,0.000000,-0.078707 RLEG_JOINT4:0.991979,0.098829,0.000000,0.078809 WAIST:0.983624,-0.000000,0.175551,0.040816 WAIST_JOINT0:0.967503,-0.000000,0.239656,0.080635 WAIST_JOINT1:0.997495,0.066874,-0.000000,0.023041 END:
KINECT_DATA_Sensor  AnkleLeft:0.052040,0.718548,-0.078992,-0.689014 AnkleRight:0.110472,0.827385,0.080728,0.544714 ElbowLeft:0.004955,0.724609,-0.210171,-0.656313 ElbowRight:-0.501792,0.815269,-0.276316,-0.084794 FootLeft:0.000000,0.000000,0.000000,0.000000 FootRight:0.000000,0.000000,0.000000,0.000000 HandLeft:-0.057567,0.837468,-0.134970,0.526418 HandRight:0.619842,-0.562686,0.239152,0.491922 HandTipLeft:0.000000,0.000000,0.000000,0.000000 HandTipRight:0.000000,0.000000,0.000000,0.000000 Head:0.000000,0.000000,0.000000,0.000000 HipLeft:0.000263,-0.662455,0.745438,-0.073997 HipRight:-0.239344,0.671498,0.649317,-0.264939 KneeLeft:0.018452,-0.572091,0.028561,0.819485 KneeRight:-0.013100,0.821621,0.048563,0.567811 Neck:-0.244138,0.058423,0.964505,-0.081931 ShoulderLeft:0.175582,0.701875,-0.681107,-0.112409 ShoulderRight:-0.148970,0.773607,0.561903,-0.252201 SpineBase:-0.176440,0.047878,0.982182,-0.043542 SpineMid:-0.209605,0.049325,0.975642,-0.041895 SpineShoulder:-0.243765,0.055545,0.966315,-0.061064 ThumbLeft:0.000000,0.000000,0.000000,0.000000 ThumbRight:0.000000,0.000000,0.000000,0.000000 WristLeft:0.000091,0.842361,-0.146915,0.518501 WristRight:0.615633,-0.584827,0.214367,0.482721 END:
KINECT_DATA POSITION:2.493569,-1.778378,-0.121796 HEAD_JOINT1:0.992612,0.118348,-0.000000,0.026746 LARM_JOINT2:0.794118,0.000000,0.035253,-0.606740 LARM_JOINT3:0.971564,0.000000,-0.203967,-0.120256 LLEG_JOINT2:0.999956,0.007810,0.000000,-0.005209 LLEG_JOINT4:0.996558,0.080301,0.000000,0.020595 RARM_JOINT2:0.633613,0.000000,0.747777,0.198402 RARM_JOINT3:0.977066,0.000000,0.212562,0.012611 RLEG_JOINT2:0.996315,0.038052,0.000000,-0.076861 RLEG_JOINT4:0.992237,0.097323,0.000000,0.077419 WAIST:0.983952,-0.000000,0.174032,0.039398 WAIST_JOINT0:0.967644,-0.000000,0.239546,0.079258 WAIST_JOINT1:0.997614,0.066002,-0.000000,0.020257 END:
KINECT_DATA_Sensor  AnkleLeft:0.052831,0.718422,-0.081989,-0.688735 AnkleRight:0.108438,0.827595,0.078950,0.545064 ElbowLeft:0.007108,0.720310,-0.208606,-0.661503 ElbowRight:-0.504720,0.813158,-0.277929,-0.082389 FootLeft:0.000000,0.000000,0.000000,0.000000 FootRight:0.000000,0.000000,0.000000,0.000000 HandLeft:-0.062854,0.837573,-0.125198,0.528060 HandRight:0.637876,-0.528375,0.150897,0.539596 HandTipLeft:0.000000,0.000000,0.000000,0.000000 HandTipRight:0.000000,0.000000,0.000000,0.000000 Head:0.000000,0.000000,0.000000,0.000000 HipLeft:0.000980,-0.663426,0.744536,-0.074369 HipRight:-0.238244,0.670937,0.650671,-0.264028 KneeLeft:0.018452,-0.573431,0.028084,0.818565 KneeRight:-0.013253,0.820612,0.047458,0.569358 Neck:-0.243758,0.053625,0.965000,-0.080509 ShoulderLeft:0.173709,0.703061,-0.680567,-0.111170 ShoulderRight:-0.150526,0.771985,0.563669,-0.252306 SpineBase:-0.174848,0.046847,0.982515,-0.043560 SpineMid:-0.208525,0.048317,0.975923,-0.041924 SpineShoulder:-0.243342,0.051947,0.966687,-0.060011 ThumbLeft:0.000000,0.000000,0.000000,0.000000 ThumbRight:0.000000,0.000000,0.000000,0.000000 WristLeft:-0.002069,0.842367,-0.147064,0.518446 WristRight:0.634426,-0.541147,0.136784,0.534747 END:
KINECT_DATA POSITION:2.434067,-1.884794,-0.161076 HEAD_JOINT1:0.992978,0.115478,-0.000000,0.025677 LARM_JOINT2:0.793010,0.000000,0.038645,-0.607982 LARM_JOINT3:0.971226,0.000000,-0.207983,-0.116030 LLEG_JOINT2:0.999940,0.008228,0.000000,-0.007177 LLEG_JOINT4:0.996600,0.079882,0.000000,0.020175 RARM_JOINT2:0.637318,0.000000,0.748724,0.182315 RARM_JOINT3:0.979686,0.000000,0.200254,0.010668 RLEG_JOINT2:0.996263,0.036386,0.000000,-0.078334 RLEG_JOINT4:0.991708,0.102731,0.000000,0.077216 WAIST:0.984546,-0.000000,0.170257,0.041012 WAIST_JOINT0:0.968323,-0.000000,0.235027,0.084336 WAIST_JOINT1:0.997546,0.066945,-0.000000,0.020484 END:
KINECT_DATA_Sensor  AnkleLeft:0.052102,0.715988,-0.081825,-0.691340 AnkleRight:0.110935,0.825410,0.081370,0.547514 ElbowLeft:0.008599,0.719469,-0.210034,-0.661949 ElbowRight:-0.515158,0.808586,-0.273313,-0.078105 FootLeft:0.000000,0.000000,0.000000,0.000000 FootRight:0.000000,0.000000,0.000000,0.000000 HandLeft:-0.070263,0.864826,-0.135223,0.478387 HandRight:0.626498,-0.573642,0.182937,0.494943 HandTipLeft:0.000000,0.000000,0.000000,0.000000 HandTipRight:0.000000,0.000000,0.000000,0.000000 Head:0.000000,0.000000,0.000000,0.000000 HipLeft:0.002160,-0.662085,0.745534,-0.076278 HipRight:-0.234968,0.672692,0.650777,-0.262233 KneeLeft:0.018120,-0.576469,0.027891,0.816442 KneeRight:-0.014000,0.818389,0.045962,0.572653 Neck:-0.239786,0.056463,0.965747,-0.081527 ShoulderLeft:0.172687,0.704835,-0.679166,-0.110096 ShoulderRight:-0.143922,0.781196,0.553909,-0.249406 SpineBase:-0.171226,0.047191,0.983108,-0.044192 SpineMid:-0.204781,0.048677,0.976670,-0.042550 SpineShoulder:-0.239436,0.053634,0.967524,-0.060750 ThumbLeft:0.000000,0.000000,0.000000,0.000000 ThumbRight:0.000000,0.000000,0.000000,0.000000 WristLeft:-0.009771,0.870278,-0.146554,0.470152 WristRight:0.627271,-0.586855,0.165415,0.484531 END:
KINECT_DATA POSITION:2.376121,-1.972057,-0.248802 HEAD_JOINT1:0.991793,0.120731,-0.000000,0.042078 LARM_JOINT2:0.793727,0.000000,0.042064,-0.606818 LARM_JOINT3:0.969491,0.000000,-0.214319,-0.118970 LLEG_JOINT2:0.999926,0.008722,0.000000,-0.008461 LLEG_JOINT4:0.996685,0.078357,0.000000,0.021888 RARM_JOINT2:0.635255,0.000000,0.752066,0.175638 RARM_JOINT3:0.978843,0.000000,0.203625,0.020060 RLEG_JOINT2:0.996259,0.035688,0.000000,-0.078705 RLEG_JOINT4:0.991934,0.100738,0.000000,0.076935 WAIST:0.985334,-0.000000,0.165412,0.041895 WAIST_JOINT0:0.969029,-0.000000,0.231972,0.084679 WAIST_JOINT1:0.997657,0.066668,-0.000000,0.015336 END:
KINECT_DATA_Sensor  AnkleLeft:0.051945,0.733387,-0.081843,-0.672865 AnkleRight:0.110085,0.824158,0.078382,0.550002 ElbowLeft:0.009383,0.717531,-0.208407,-0.664551 ElbowRight:-0.523362,0.805223,-0.265034,-0.086405 FootLeft:0.000000,0.000000,0.000000,0.000000 FootRight:0.000000,0.000000,0.000000,0.000000 HandLeft:-0.076374,0.822855,-0.141746,0.544964 HandRight:0.627303,-0.516591,0.138919,0.565974 HandTipLeft:0.000000,0.000000,0.000000,0.000000 HandTipRight:0.000000,0.000000,0.000000,0.000000 Head:0.000000,0.000000,0.000000,0.000000 HipLeft:0.004822,-0.661133,0.746152,-0.078339 HipRight:-0.231245,0.674083,0.651618,-0.259868 KneeLeft:0.017599,-0.580329,0.027807,0.813717 KneeRight:-0.013718,0.815581,0.045194,0.576713 Neck:-0.236767,0.051552,0.966858,-0.080436 ShoulderLeft:0.170284,0.704899,-0.680160,-0.107253 ShoulderRight:-0.142353,0.781271,0.555332,-0.246897 SpineBase:-0.166531,0.046226,0.983959,-0.044228 SpineMid:-0.200810,0.047743,0.977539,-0.042586 SpineShoulder:-0.236334,0.050239,0.968527,-0.059809 ThumbLeft:0.000000,0.000000,0.000000,0.000000 ThumbRight:0.000000,0.000000,0.000000,0.000000 WristLeft:-0.000243,0.831034,-0.146999,0.536446 WristRight:0.639086,-0.540596,0.100517,0.537793 END:
KINECT_DATA POSITION:2.344955,-2.019516,-0.320303 HEAD_JOINT1:0.993010,0.112938,-0.000000,0.034298 LARM_JOINT2:0.792590,0.000000,0.041337,-0.608352 LARM_JOINT3:0.970569,0.000000,-0.210503,-0.116979 LLEG_JOINT2:0.999931,0.008283,0.000000,-0.008276 LLEG_JOINT4:0.996772,0.077770,0.000000,0.019957 RARM_JOINT2:0.634802,0.000000,0.753128,0.172697 RARM_JOINT3:0.978980,0.000000,0.203060,0.019123 RLEG_JOINT2:0.996324,0.034959,0.000000,-0.078213 RLEG_JOINT4:0.991981,0.100906,0.000000,0.076100 WAIST:0.985582,-0.000000,0.164080,0.041298 WAIST_JOINT0:0.969368,-0.000000,0.229719,0.086918 WAIST_JOINT1:0.997451,0.068374,-0.000000,0.020419 END:
KINECT_DATA_Sensor  AnkleLeft:-0.033330,-0.569798,0.088879,0.816284 AnkleRight:0.109206,0.823388,0.078493,0.551312 ElbowLeft:0.009746,0.719778,-0.211235,-0.661214 ElbowRight:-0.524608,0.804303,-0.264912,-0.087773 FootLeft:0.000000,0.000000,0.000000,0.000000 FootRight:0.000000,0.000000,0.000000,0.000000 HandLeft:-0.065339,0.854596,-0.134265,0.497363 HandRight:0.608295,-0.587496,0.229558,0.481797 HandTipLeft:0.000000,0.000000,0.000000,0.000000 HandTipRight:0.000000,0.000000,0.000000,0.000000 Head:0.000000,0.000000,0.000000,0.000000 HipLeft:0.005220,-0.661376,0.745795,-0.079651 HipRight:-0.230766,0.673916,0.652240,-0.259166 KneeLeft:0.017636,-0.581550,0.027299,0.812861 KneeRight:-0.014066,0.814716,0.044794,0.577957 Neck:-0.234810,0.057722,0.966735,-0.083400 ShoulderLeft:0.170367,0.704486,-0.680866,-0.105337 ShoulderRight:-0.139543,0.784235,0.552043,-0.246480 SpineBase:-0.165120,0.046883,0.984143,-0.044720 SpineMid:-0.199273,0.048411,0.977800,-0.043061 SpineShoulder:-0.234518,0.054000,0.968642,-0.061797 ThumbLeft:0.000000,0.000000,0.000000,0.000000 ThumbRight:0.000000,0.000000,0.000000,0.000000 WristLeft:-0.006887,0.859680,-0.146543,0.489314 WristRight:0.617995,-0.613572,0.190165,0.453265 END:
KINECT_DATA POSITION:2.325951,-2.056331,-0.392544 HEAD_JOINT1:0.992551,0.115791,-0.000000,0.037890 LARM_JOINT2:0.793091,0.000000,0.041509,-0.607688 LARM_JOINT3:0.969950,0.000000,-0.214986,-0.113918 LLEG_JOINT2:0.999940,0.007619,0.000000,-0.007882 LLEG_JOINT4:0.996544,0.080501,0.000000,0.020467 RARM_JOINT2:0.633745,0.000000,0.754639,0.169961 RARM_JOINT3:0.980224,0.000000,0.196082,0.026702 RLEG_JOINT2:0.996344,0.035217,0.000000,-0.077839 RLEG_JOINT4:0.991880,0.100387,0.000000,0.078076 WAIST:0.985759,-0.000000,0.163180,0.040631 WAIST_JOINT0:0.969479,-0.000000,0.228747,0.088228 WAIST_JOINT1:0.997461,0.068318,-0.000000,0.020111 END:
KINECT_DATA_Sensor  AnkleLeft:0.052878,0.727091,-0.081214,-0.679667 AnkleRight:0.110552,0.822797,0.077256,0.552100 ElbowLeft:0.009719,0.720134,-0.211224,-0.660831 ElbowRight:-0.528485,0.802382,-0.260424,-0.095213 FootLeft:0.000000,0.000000,0.000000,0.000000 FootRight:0.000000,0.000000,0.000000,0.000000 HandLeft:-0.060232,0.797195,-0.159665,0.579102 HandRight:-0.553713,0.667596,-0.302496,-0.395239 HandTipLeft:0.000000,0.000000,0.000000,0.000000 HandTipRight:0.000000,0.000000,0.000000,0.000000 Head:0.000000,0.000000,0.000000,0.000000 HipLeft:0.005717,-0.661786,0.745391,-0.079995 HipRight:-0.230139,0.673623,0.652937,-0.258731 KneeLeft:0.017931,-0.582348,0.026773,0.812301 KneeRight:-0.014014,0.814175,0.045296,0.578680 Neck:-0.233937,0.056589,0.967036,-0.083145 ShoulderLeft:0.169730,0.704002,-0.681748,-0.103888 ShoulderRight:-0.139074,0.784846,0.551412,-0.246212 SpineBase:-0.164191,0.046293,0.984324,-0.044770 SpineMid:-0.198364,0.047823,0.978010,-0.043131 SpineShoulder:-0.233634,0.053180,0.968899,-0.061814 ThumbLeft:0.000000,0.000000,0.000000,0.000000 ThumbRight:0.000000,0.000000,0.000000,0.000000 WristLeft:0.008246,0.805848,-0.146196,0.573732 WristRight:-0.583992,0.672315,-0.273378,-0.363608 END:
KINECT_DATA POSITION:2.322274,-2.059170,-0.459492 HEAD_JOINT1:0.991454,0.120787,-0.000000,0.049289 LARM_JOINT2:0.794287,0.000000,0.041953,-0.606093 LARM_JOINT3:0.970325,0.000000,-0.213778,-0.112998 LLEG_JOINT2:0.999942,0.007062,0.000000,-0.008112 LLEG_JOINT4:0.996447,0.081767,0.000000,0.020180 RARM_JOINT2:0.633918,0.000000,0.754851,0.168371 RARM_JOINT3:0.980958,0.000000,0.193111,0.020711 RLEG_JOINT2:0.996343,0.035549,0.000000,-0.077703 RLEG_JOINT4:0.992118,0.098310,0.000000,0.077702 WAIST:0.985653,-0.000000,0.163861,0.040464 WAIST_JOINT0:0.969674,-0.000000,0.228248,0.087376 WAIST_JOINT1:0.997517,0.068340,-0.000000,0.017030 END:
KINECT_DATA_Sensor  AnkleLeft:0.052366,0.713974,-0.081820,-0.693401 AnkleRight:0.109023,0.822788,0.076331,0.552546 ElbowLeft:0.010112,0.717931,-0.210270,-0.663521 ElbowRight:-0.529441,0.802091,-0.258765,-0.096868 FootLeft:0.000000,0.000000,0.000000,0.000000 FootRight:0.000000,0.000000,0.000000,0.000000 HandLeft:-0.047351,0.784150,-0.152080,0.599782 HandRight:0.600580,-0.607492,0.218839,0.471558 HandTipLeft:0.000000,0.000000,0.000000,0.000000 HandTipRight:0.000000,0.000000,0.000000,0.000000 Head:0.000000,0.000000,0.000000,0.000000 HipLeft:0.005318,-0.662037,0.745282,-0.078955 HipRight:-0.230045,0.673323,0.653060,-0.259283 KneeLeft:0.018135,-0.581767,0.026136,0.812733 KneeRight:-0.013876,0.814598,0.045576,0.578066 Neck:-0.233311,0.052376,0.967445,-0.082900 ShoulderLeft:0.169742,0.702603,-0.683447,-0.102159 ShoulderRight:-0.139119,0.781525,0.556336,-0.245672 SpineBase:-0.164914,0.045085,0.984266,-0.044620 SpineMid:-0.198361,0.046579,0.978074,-0.043058 SpineShoulder:-0.232965,0.050082,0.969235,-0.061672 ThumbLeft:0.000000,0.000000,0.000000,0.000000 ThumbRight:0.000000,0.000000,0.000000,0.000000 WristLeft:0.009812,0.790604,-0.147247,0.594279 WristRight:0.613984,-0.620867,0.192643,0.447702 END:
KINECT_DATA POSITION:2.298264,-2.067330,-0.502241 HEAD_JOINT1:0.991111,0.121848,-0.000000,0.053404 LARM_JOINT2:0.794980,0.000000,0.042229,-0.605164 LARM_JOINT3:0.969976,0.000000,-0.215291,-0.113126 LLEG_JOINT2:0.999941,0.007418,0.000000,-0.007968 LLEG_JOINT4:0.996477,0.081032,0.000000,0.021604 RARM_JOINT2:0.633262,0.000000,0.755661,0.167198 RARM_JOINT3:0.981620,0.000000,0.190115,0.016693 RLEG_JOINT2:0.996379,0.036082,0.000000,-0.076987 RLEG_JOINT4:0.992115,0.098964,0.000000,0.076898 WAIST:0.985911,-0.000000,0.162352,0.040273 WAIST_JOINT0:0.969868,-0.000000,0.227236,0.087865 WAIST_JOINT1:0.997485,0.069004,-0.000000,0.016175 END:
KINECT_DATA_Sensor  AnkleLeft:0.052648,0.725466,-0.082242,-0.681296 AnkleRight:0.109765,0.822286,0.077249,0.553019 ElbowLeft:0.010363,0.718049,-0.210797,-0.663222 ElbowRight:-0.529265,0.802341,-0.259127,-0.094764 FootLeft:0.000000,0.000000,0.000000,0.000000 FootRight:0.000000,0.000000,0.000000,0.000000 HandLeft:-0.062064,0.824276,-0.150229,0.542354 HandRight:0.602803,-0.615398,0.230198,0.452685 HandTipLeft:0.000000,0.000000,0.000000,0.000000 HandTipRight:0.000000,0.000000,0.000000,0.000000 Head:0.000000,0.000000,0.000000,0.000000 HipLeft:0.005747,-0.662036,0.745191,-0.079783 HipRight:-0.228689,0.673445,0.653698,-0.258558 KneeLeft:0.017789,-0.582996,0.026340,0.811853 KneeRight:-0.013004,0.813739,0.045790,0.579277 Neck:-0.232494,0.051167,0.967670,-0.083330 ShoulderLeft:0.170708,0.700939,-0.685078,-0.101053 ShoulderRight:-0.137444,0.780567,0.558449,-0.244867 SpineBase:-0.163410,0.044831,0.984510,-0.045027 SpineMid:-0.197176,0.046353,0.978307,-0.043458 SpineShoulder:-0.232138,0.049212,0.969440,-0.062252 ThumbLeft:0.000000,0.000000,0.000000,0.000000 ThumbRight:0.000000,0.000000,0.000000,0.000000 WristLeft:-0.000299,0.831189,-0.147424,0.536089 WristRight:0.609902,-0.633413,0.201681,0.431431 END:
KINECT_DATA POSITION:2.246597,-2.061281,-0.535738 HEAD_JOINT1:0.990376,0.124497,-0.000000,0.060467 LARM_JOINT2:0.795723,0.000000,0.042523,-0.604166 LARM_JOINT3:0.970266,0.000000,-0.213766,-0.113526 LLEG_JOINT2:0.999945,0.007267,0.000000,-0.007531 LLEG_JOINT4:0.996724,0.078597,0.000000,0.019053 RARM_JOINT2:0.631397,0.000000,0.756647,0.169775 RARM_JOINT3:0.981680,0.000000,0.189932,0.015173 RLEG_JOINT2:0.996431,0.035287,0.000000,-0.076680 RLEG_JOINT4:0.992193,0.098705,0.000000,0.076231 WAIST:0.986256,-0.000000,0.160272,0.040143 WAIST_JOINT0:0.970377,-0.000000,0.225771,0.086002 WAIST_JOINT1:0.997513,0.069064,-0.000000,0.014068 END:
KINECT_DATA_Sensor  AnkleLeft:-0.033773,-0.572168,0.088110,0.814690 AnkleRight:0.100139,0.757036,0.087810,0.639655 ElbowLeft:0.010225,0.718136,-0.210128,-0.663342 ElbowRight:-0.525599,0.804161,-0.263463,-0.087516 FootLeft:0.000000,0.000000,0.000000,0.000000 FootRight:0.000000,0.000000,0.000000,0.000000 HandLeft:-0.053486,0.793418,-0.144563,0.588837 HandRight:0.624893,-0.551763,0.156679,0.529638 HandTipLeft:0.000000,0.000000,0.000000,0.000000 HandTipRight:0.000000,0.000000,0.000000,0.000000 Head:0.000000,0.000000,0.000000,0.000000 HipLeft:0.007070,-0.661965,0.745134,-0.080793 HipRight:-0.226802,0.673498,0.654498,-0.258057 KneeLeft:0.018073,-0.584631,0.026536,0.810664 KneeRight:-0.013157,0.812480,0.045143,0.581090 Neck:-0.230707,0.049090,0.968220,-0.083157 ShoulderLeft:0.170961,0.699448,-0.686697,-0.099961 ShoulderRight:-0.135779,0.776878,0.565052,-0.242365 SpineBase:-0.161408,0.043315,0.984896,-0.045297 SpineMid:-0.195316,0.044853,0.978736,-0.043775 SpineShoulder:-0.230384,0.047153,0.969971,-0.062098 ThumbLeft:0.000000,0.000000,0.000000,0.000000 ThumbRight:0.000000,0.000000,0.000000,0.000000 WristLeft:0.007407,0.799698,-0.147171,0.582039 WristRight:0.631152,-0.575496,0.121111,0.505750 END:
KINECT_DATA POSITION:2.227095,-2.043682,-0.547028 HEAD_JOINT1:0.993177,0.113083,-0.000000,0.028475 LARM_JOINT2:0.789822,0.000000,0.041922,-0.611902 LARM_JOINT3:0.969902,0.000000,-0.215834,-0.112722 LLEG_JOINT2:0.999939,0.007167,0.000000,-0.008446 LLEG_JOINT4:0.996677,0.078489,0.000000,0.021775 RARM_JOINT2:0.634443,0.000000,0.753960,0.170373 RARM_JOINT3:0.981583,0.000000,0.190088,0.019021 RLEG_JOINT2:0.996389,0.035547,0.000000,-0.077103 RLEG_JOINT4:0.992380,0.098063,0.000000,0.074597 WAIST:0.986313,-0.000000,0.159777,0.040722 WAIST_JOINT0:0.970407,-0.000000,0.225132,0.087323 WAIST_JOINT1:0.997273,0.069961,-0.000000,0.023488 END:
KINECT_DATA_Sensor  AnkleLeft:-0.032137,-0.572945,0.089864,0.814018 AnkleRight:0.107638,0.821694,0.076963,0.554356 ElbowLeft:0.010177,0.718094,-0.210440,-0.663289 ElbowRight:-0.526437,0.804123,-0.262023,-0.087143 FootLeft:0.000000,0.000000,0.000000,0.000000 FootRight:0.000000,0.000000,0.000000,0.000000 HandLeft:-0.056096,0.791727,-0.153536,0.588599 HandRight:0.630972,-0.534568,0.138365,0.544946 HandTipLeft:0.000000,0.000000,0.000000,0.000000 HandTipRight:0.000000,0.000000,0.000000,0.000000 Head:0.000000,0.000000,0.000000,0.000000 HipLeft:0.005483,-0.661220,0.745581,-0.082870 HipRight:-0.227645,0.674252,0.653903,-0.256851 KneeLeft:0.018019,-0.585353,0.026157,0.810157 KneeRight:-0.012907,0.812160,0.045212,0.581537 Neck:-0.230952,0.060044,0.967408,-0.084722 ShoulderLeft:0.168930,0.706053,-0.680062,-0.102308 ShoulderRight:-0.134925,0.788388,0.548143,-0.244499 SpineBase:-0.160716,0.048434,0.984711,-0.046564 SpineMid:-0.195117,0.050035,0.978476,-0.044839 SpineShoulder:-0.230584,0.056769,0.969299,-0.063784 ThumbLeft:0.000000,0.000000,0.000000,0.000000 ThumbRight:0.000000,0.000000,0.000000,0.000000 WristLeft:0.008344,0.799248,-0.146992,0.582688 WristRight:0.634351,-0.561234,0.100662,0.521997 END:
KINECT_DATA POSITION:2.207254,-2.035701,-0.571215 HEAD_JOINT1:0.990532,0.124159,-0.000000,0.058576 LARM_JOINT2:0.793677,0.000000,0.043201,-0.606804 LARM_JOINT3:0.969541,0.000000,-0.218726,-0.110227 LLEG_JOINT2:0.999943,0.006898,0.000000,-0.008204 LLEG_JOINT4:0.996512,0.080032,0.000000,0.023659 RARM_JOINT2:0.636499,0.000000,0.752604,0.168692 RARM_JOINT3:0.978642,0.000000,0.205205,0.012251 RLEG_JOINT2:0.996384,0.035576,0.000000,-0.077163 RLEG_JOINT4:0.992367,0.097861,0.000000,0.075041 WAIST:0.986416,-0.000000,0.159206,0.040456 WAIST_JOINT0:0.970742,-0.000000,0.224184,0.086033 WAIST_JOINT1:0.997514,0.068955,-0.000000,0.014551 END:
KINECT_DATA_Sensor  AnkleLeft:0.050062,0.726124,-0.083773,-0.680603 AnkleRight:0.107698,0.821223,0.076760,0.555069 ElbowLeft:0.010375,0.715832,-0.208037,-0.666481 ElbowRight:-0.527406,0.805156,-0.258390,-0.082473 FootLeft:0.000000,0.000000,0.000000,0.000000 FootRight:0.000000,0.000000,0.000000,0.000000 HandLeft:-0.068367,0.822113,-0.157436,0.542835 HandRight:0.629754,-0.559525,0.198220,0.501050 HandTipLeft:0.000000,0.000000,0.000000,0.000000 HandTipRight:0.000000,0.000000,0.000000,0.000000 Head:0.000000,0.000000,0.000000,0.000000 HipLeft:0.007212,-0.661564,0.745341,-0.082151 HipRight:-0.226858,0.674013,0.654309,-0.257142 KneeLeft:0.018197,-0.585642,0.026010,0.809948 KneeRight:-0.013079,0.811857,0.045484,0.581935 Neck:-0.229540,0.049637,0.968495,-0.082860 ShoulderLeft:0.168960,0.702405,-0.684219,-0.099624 ShoulderRight:-0.134943,0.780984,0.559666,-0.242135 SpineBase:-0.160273,0.045381,0.984972,-0.045643 SpineMid:-0.194067,0.046925,0.978875,-0.044054 SpineShoulder:-0.229161,0.048122,0.970214,-0.062082 ThumbLeft:0.000000,0.000000,0.000000,0.000000 ThumbRight:0.000000,0.000000,0.000000,0.000000 WristLeft:-0.001585,0.830479,-0.147444,0.537180 WristRight:0.626712,-0.596450,0.153002,0.477567 END:
