EastLYD/RoboCupatHomeSim/InteractiveCleanUp/JapanOpen2016/Motion_Data/File16.dat
KINECT_DATA POSITION:43.359730,0.498759,-7.880008 HEAD_JOINT1:0.982654,0.144558,-0.000000,0.116161 LARM_JOINT2:0.828717,0.000000,-0.020513,-0.559291 LARM_JOINT3:0.947896,0.000000,-0.193486,-0.253093 LLEG_JOINT2:0.996849,0.023330,0.000000,0.075820 LLEG_JOINT4:0.994265,0.099955,0.000000,-0.038026 RARM_JOINT2:0.777890,0.000000,-0.052916,0.626169 RARM_JOINT3:0.944988,0.000000,0.262758,0.194824 RLEG_JOINT2:0.999495,0.005760,0.000000,-0.031242 RLEG_JOINT4:0.994027,0.104262,0.000000,0.032241 WAIST:0.999237,0.000000,-0.036211,-0.014652 WAIST_JOINT0:0.997527,0.000000,-0.070248,-0.002175 WAIST_JOINT1:0.997069,0.075764,0.000000,-0.010619 END:
KINECT_DATA_Sensor  AnkleLeft:0.070286,0.745828,-0.102828,-0.654390 AnkleRight:0.073294,0.693467,0.082240,0.712017 ElbowLeft:-0.014435,0.933268,-0.173673,-0.314071 ElbowRight:0.032071,0.807423,0.171718,0.563518 FootLeft:0.000000,0.000000,0.000000,0.000000 FootRight:0.000000,0.000000,0.000000,0.000000 HandLeft:-0.176546,0.565676,0.106216,0.798474 HandRight:0.222441,-0.578622,0.005435,0.784658 HandTipLeft:0.000000,0.000000,0.000000,0.000000 HandTipRight:0.000000,0.000000,0.000000,0.000000 Head:0.000000,0.000000,0.000000,0.000000 HipLeft:0.139122,-0.683030,0.690646,-0.192672 HipRight:-0.086356,0.671714,0.718484,-0.158505 KneeLeft:-0.029222,0.731773,-0.058422,-0.678411 KneeRight:-0.027377,0.680946,0.037179,0.730876 Neck:0.069269,-0.025979,0.993060,-0.091420 ShoulderLeft:-0.020900,0.788278,-0.603346,0.118973 ShoulderRight:0.068867,0.786444,0.613757,-0.008157 SpineBase:0.036467,-0.021418,0.997770,-0.051637 SpineMid:0.052477,-0.022244,0.997056,-0.051286 SpineShoulder:0.069039,-0.024553,0.994842,-0.070139 ThumbLeft:0.000000,0.000000,0.000000,0.000000 ThumbRight:0.000000,0.000000,0.000000,0.000000 WristLeft:-0.153654,0.588800,-0.063783,0.790972 WristRight:0.099393,-0.586208,-0.142545,0.791304 END:
KINECT_DATA POSITION:43.305840,0.522117,-8.012247 HEAD_JOINT1:0.982764,0.144551,-0.000000,0.115237 LARM_JOINT2:0.828020,0.000000,-0.023056,-0.560224 LARM_JOINT3:0.947762,0.000000,-0.197550,-0.250441 LLEG_JOINT2:0.996866,0.021619,0.000000,0.076098 LLEG_JOINT4:0.994123,0.101033,0.000000,-0.038890 RARM_JOINT2:0.777506,0.000000,-0.051007,0.626804 RARM_JOINT3:0.944837,0.000000,0.264477,0.193220 RLEG_JOINT2:0.999504,0.005653,0.000000,-0.030976 RLEG_JOINT4:0.994069,0.103867,0.000000,0.032236 WAIST:0.999299,0.000000,-0.034506,-0.014531 WAIST_JOINT0:0.997512,0.000000,-0.070441,-0.002814 WAIST_JOINT1:0.997078,0.075694,0.000000,-0.010249 END:
KINECT_DATA_Sensor  AnkleLeft:0.070555,0.745880,-0.101820,-0.654460 AnkleRight:0.072385,0.688985,0.082361,0.716433 ElbowLeft:-0.015581,0.933330,-0.172191,-0.314647 ElbowRight:0.030550,0.807099,0.170123,0.564549 FootLeft:0.000000,0.000000,0.000000,0.000000 FootRight:0.000000,0.000000,0.000000,0.000000 HandLeft:-0.187215,0.555394,0.080417,0.806239 HandRight:0.224748,-0.403551,-0.047836,0.885633 HandTipLeft:0.000000,0.000000,0.000000,0.000000 HandTipRight:0.000000,0.000000,0.000000,0.000000 Head:0.000000,0.000000,0.000000,0.000000 HipLeft:0.138212,-0.683243,0.690892,-0.191692 HipRight:-0.087579,0.671614,0.718224,-0.159435 KneeLeft:-0.030571,0.730506,-0.057511,-0.679793 KneeRight:-0.027235,0.682196,0.036797,0.729735 Neck:0.069445,-0.025709,0.993065,-0.091319 ShoulderLeft:-0.019675,0.788236,-0.603628,0.118028 ShoulderRight:0.070267,0.785751,0.614499,-0.007045 SpineBase:0.034763,-0.021280,0.997841,-0.051489 SpineMid:0.051699,-0.022151,0.997107,-0.051120 SpineShoulder:0.069211,-0.024351,0.994845,-0.069998 ThumbLeft:0.000000,0.000000,0.000000,0.000000 ThumbRight:0.000000,0.000000,0.000000,0.000000 WristLeft:-0.153181,0.574805,-0.067288,0.801004 WristRight:0.067598,-0.411680,-0.160585,0.894518 END:
KINECT_DATA POSITION:43.264954,0.531869,-8.101368 HEAD_JOINT1:0.982761,0.142408,-0.000000,0.117901 LARM_JOINT2:0.828840,0.000000,-0.023564,-0.558990 LARM_JOINT3:0.948462,0.000000,-0.196529,-0.248587 LLEG_JOINT2:0.996883,0.021205,0.000000,0.075988 LLEG_JOINT4:0.993857,0.103303,0.000000,-0.039704 RARM_JOINT2:0.777160,0.000000,-0.050800,0.627249 RARM_JOINT3:0.946041,0.000000,0.261189,0.191797 RLEG_JOINT2:0.999497,0.005172,0.000000,-0.031286 RLEG_JOINT4:0.994088,0.103507,0.000000,0.032802 WAIST:0.999321,0.000000,-0.033953,-0.014289 WAIST_JOINT0:0.997488,0.000000,-0.070793,-0.002475 WAIST_JOINT1:0.997074,0.075744,0.000000,-0.010323 END:
KINECT_DATA_Sensor  AnkleLeft:0.073566,0.752497,-0.101786,-0.646510 AnkleRight:0.073206,0.699539,0.080455,0.706267 ElbowLeft:-0.015672,0.934438,-0.173588,-0.310559 ElbowRight:0.030594,0.807043,0.169499,0.564815 FootLeft:0.000000,0.000000,0.000000,0.000000 FootRight:0.000000,0.000000,0.000000,0.000000 HandLeft:-0.162479,0.668642,0.093922,0.719512 HandRight:0.219004,-0.569503,0.001791,0.792275 HandTipLeft:0.000000,0.000000,0.000000,0.000000 HandTipRight:0.000000,0.000000,0.000000,0.000000 Head:0.000000,0.000000,0.000000,0.000000 HipLeft:0.137854,-0.683186,0.691099,-0.191404 HipRight:-0.087880,0.671709,0.718004,-0.159857 KneeLeft:-0.030910,0.730087,-0.057326,-0.680244 KneeRight:-0.027641,0.682616,0.036515,0.729341 Neck:0.069791,-0.025630,0.993041,-0.091338 ShoulderLeft:-0.019092,0.788524,-0.603324,0.117753 ShoulderRight:0.071233,0.785962,0.614127,-0.006172 SpineBase:0.034189,-0.021258,0.997858,-0.051562 SpineMid:0.051577,-0.022153,0.997110,-0.051183 SpineShoulder:0.069557,-0.024301,0.994820,-0.070032 ThumbLeft:0.000000,0.000000,0.000000,0.000000 ThumbRight:0.000000,0.000000,0.000000,0.000000 WristLeft:-0.161333,0.687180,-0.042367,0.707079 WristRight:0.096994,-0.576930,-0.144003,0.798127 END:
KINECT_DATA POSITION:43.213253,0.537413,-8.166182 HEAD_JOINT1:0.982540,0.143019,-0.000000,0.118997 LARM_JOINT2:0.829434,0.000000,-0.023645,-0.558104 LARM_JOINT3:0.947937,0.000000,-0.196978,-0.250230 LLEG_JOINT2:0.996873,0.020341,0.000000,0.076355 LLEG_JOINT4:0.993833,0.103277,0.000000,-0.040367 RARM_JOINT2:0.776626,0.000000,-0.050154,0.627962 RARM_JOINT3:0.945692,0.000000,0.263362,0.190542 RLEG_JOINT2:0.999496,0.005388,0.000000,-0.031301 RLEG_JOINT4:0.994490,0.100286,0.000000,0.030549 WAIST:0.999328,0.000000,-0.033887,-0.013987 WAIST_JOINT0:0.997450,0.000000,-0.071318,-0.002641 WAIST_JOINT1:0.997072,0.075722,0.000000,-0.010692 END:
KINECT_DATA_Sensor  AnkleLeft:0.071602,0.743893,-0.102124,-0.656556 AnkleRight:0.071395,0.715353,0.078431,0.690667 ElbowLeft:-0.015937,0.934655,-0.174465,-0.309398 ElbowRight:0.030482,0.807057,0.168568,0.565080 FootLeft:0.000000,0.000000,0.000000,0.000000 FootRight:0.000000,0.000000,0.000000,0.000000 HandLeft:-0.165588,0.676046,0.096910,0.711443 HandRight:0.225066,-0.485947,-0.025649,0.844123 HandTipLeft:0.000000,0.000000,0.000000,0.000000 HandTipRight:0.000000,0.000000,0.000000,0.000000 Head:0.000000,0.000000,0.000000,0.000000 HipLeft:0.137871,-0.683050,0.691270,-0.191261 HipRight:-0.087865,0.671910,0.717787,-0.159995 KneeLeft:-0.031982,0.729941,-0.057159,-0.680364 KneeRight:-0.027279,0.682704,0.036458,0.729274 Neck:0.070350,-0.025744,0.993002,-0.091301 ShoulderLeft:-0.019404,0.788492,-0.603284,0.118120 ShoulderRight:0.071641,0.785659,0.614471,-0.005703 SpineBase:0.034083,-0.021419,0.997858,-0.051561 SpineMid:0.051797,-0.022331,0.997096,-0.051172 SpineShoulder:0.070114,-0.024426,0.994780,-0.070006 ThumbLeft:0.000000,0.000000,0.000000,0.000000 ThumbRight:0.000000,0.000000,0.000000,0.000000 WristLeft:-0.161585,0.694968,-0.040541,0.699476 WristRight:0.082222,-0.493117,-0.152980,0.852451 END:
KINECT_DATA POSITION:43.196533,0.542448,-8.192587 HEAD_JOINT1:0.982415,0.143669,-0.000000,0.119248 LARM_JOINT2:0.829528,0.000000,-0.023551,-0.557968 LARM_JOINT3:0.947259,0.000000,-0.196153,-0.253425 LLEG_JOINT2:0.996873,0.020365,0.000000,0.076347 LLEG_JOINT4:0.993982,0.101702,0.000000,-0.040699 RARM_JOINT2:0.776432,0.000000,-0.051600,0.628085 RARM_JOINT3:0.945376,0.000000,0.265577,0.189034 RLEG_JOINT2:0.999515,0.006512,0.000000,-0.030452 RLEG_JOINT4:0.994531,0.100027,0.000000,0.030032 WAIST:0.999309,0.000000,-0.034398,-0.014052 WAIST_JOINT0:0.997419,0.000000,-0.071754,-0.002438 WAIST_JOINT1:0.997086,0.075548,0.000000,-0.010628 END:
KINECT_DATA_Sensor  AnkleLeft:0.069770,0.738196,-0.101449,-0.663255 AnkleRight:0.070869,0.702748,0.079993,0.703367 ElbowLeft:-0.016101,0.934942,-0.174577,-0.308458 ElbowRight:0.031231,0.805692,0.168838,0.566902 FootLeft:0.000000,0.000000,0.000000,0.000000 FootRight:0.000000,0.000000,0.000000,0.000000 HandLeft:-0.194855,0.440092,0.053992,0.874892 HandRight:0.224474,-0.607278,0.002384,0.762115 HandTipLeft:0.000000,0.000000,0.000000,0.000000 HandTipRight:0.000000,0.000000,0.000000,0.000000 Head:0.000000,0.000000,0.000000,0.000000 HipLeft:0.138130,-0.683060,0.691188,-0.191330 HipRight:-0.087509,0.671979,0.717894,-0.159418 KneeLeft:-0.031948,0.730300,-0.057103,-0.679986 KneeRight:-0.025911,0.682339,0.036660,0.729656 Neck:0.070771,-0.025708,0.992987,-0.091144 ShoulderLeft:-0.019961,0.787990,-0.603856,0.118456 ShoulderRight:0.071667,0.785487,0.614691,-0.005391 SpineBase:0.034600,-0.021401,0.997850,-0.051391 SpineMid:0.052268,-0.022308,0.997080,-0.051004 SpineShoulder:0.070537,-0.024379,0.994763,-0.069835 ThumbLeft:0.000000,0.000000,0.000000,0.000000 ThumbRight:0.000000,0.000000,0.000000,0.000000 WristLeft:-0.142421,0.456946,-0.086256,0.873771 WristRight:0.104547,-0.615497,-0.139746,0.768573 END:
KINECT_DATA POSITION:43.195080,0.537502,-8.231139 HEAD_JOINT1:0.982401,0.143450,-0.000000,0.119622 LARM_JOINT2:0.829759,0.000000,-0.023456,-0.557629 LARM_JOINT3:0.947475,0.000000,-0.198028,-0.251150 LLEG_JOINT2:0.996860,0.019491,0.000000,0.076747 LLEG_JOINT4:0.994034,0.101204,0.000000,-0.040681 RARM_JOINT2:0.776555,0.000000,-0.051793,0.627917 RARM_JOINT3:0.945287,0.000000,0.267055,0.187386 RLEG_JOINT2:0.999539,0.006211,0.000000,-0.029716 RLEG_JOINT4:0.994546,0.100214,0.000000,0.028897 WAIST:0.999308,0.000000,-0.034419,-0.014111 WAIST_JOINT0:0.997395,0.000000,-0.072103,-0.002311 WAIST_JOINT1:0.997077,0.075670,0.000000,-0.010580 END:
KINECT_DATA_Sensor  AnkleLeft:0.068419,0.737457,-0.100819,-0.664312 AnkleRight:0.067322,0.675016,0.082939,0.730029 ElbowLeft:-0.016093,0.934892,-0.175010,-0.308366 ElbowRight:0.031406,0.805784,0.169145,0.566671 FootLeft:0.000000,0.000000,0.000000,0.000000 FootRight:0.000000,0.000000,0.000000,0.000000 HandLeft:-0.189416,0.459516,0.048152,0.866400 HandRight:0.208399,-0.344209,-0.074267,0.912455 HandTipLeft:0.000000,0.000000,0.000000,0.000000 HandTipRight:0.000000,0.000000,0.000000,0.000000 Head:0.000000,0.000000,0.000000,0.000000 HipLeft:0.138047,-0.683074,0.691156,-0.191457 HipRight:-0.087404,0.671923,0.717934,-0.159531 KneeLeft:-0.032802,0.730250,-0.056694,-0.680032 KneeRight:-0.025672,0.682343,0.035959,0.729696 Neck:0.071116,-0.025735,0.992950,-0.091270 ShoulderLeft:-0.020330,0.787807,-0.603986,0.118947 ShoulderRight:0.071763,0.785484,0.614684,-0.005330 SpineBase:0.034626,-0.021429,0.997840,-0.051556 SpineMid:0.052451,-0.022347,0.997061,-0.051165 SpineShoulder:0.070882,-0.024413,0.994730,-0.069942 ThumbLeft:0.000000,0.000000,0.000000,0.000000 ThumbRight:0.000000,0.000000,0.000000,0.000000 WristLeft:-0.144452,0.475726,-0.083240,0.863649 WristRight:0.057507,-0.354760,-0.164680,0.918542 END:
KINECT_DATA POSITION:43.213680,0.527997,-8.222139 HEAD_JOINT1:0.982801,0.142015,-0.000000,0.118041 LARM_JOINT2:0.829657,0.000000,-0.023200,-0.557792 LARM_JOINT3:0.946137,0.000000,-0.205007,-0.250593 LLEG_JOINT2:0.996850,0.020130,0.000000,0.076709 LLEG_JOINT4:0.994148,0.100333,0.000000,-0.040039 RARM_JOINT2:0.777940,0.000000,-0.048352,0.626475 RARM_JOINT3:0.946522,0.000000,0.258585,0.192953 RLEG_JOINT2:0.999550,0.004649,0.000000,-0.029645 RLEG_JOINT4:0.994369,0.101783,0.000000,0.029519 WAIST:0.999315,0.000000,-0.034274,-0.013959 WAIST_JOINT0:0.997466,0.000000,-0.071121,-0.001813 WAIST_JOINT1:0.997101,0.075368,0.000000,-0.010419 END:
KINECT_DATA_Sensor  AnkleLeft:0.068854,0.744750,-0.100420,-0.656142 AnkleRight:0.071549,0.707367,0.079198,0.698742 ElbowLeft:-0.016464,0.934302,-0.175081,-0.310088 ElbowRight:0.029832,0.812410,0.168896,0.557292 FootLeft:0.000000,0.000000,0.000000,0.000000 FootRight:0.000000,0.000000,0.000000,0.000000 HandLeft:-0.204952,0.521601,0.042152,0.827134 HandRight:0.221587,-0.426915,-0.042598,0.875687 HandTipLeft:0.000000,0.000000,0.000000,0.000000 HandTipRight:0.000000,0.000000,0.000000,0.000000 Head:0.000000,0.000000,0.000000,0.000000 HipLeft:0.138239,-0.683045,0.691205,-0.191248 HipRight:-0.087986,0.672082,0.717751,-0.159368 KneeLeft:-0.032430,0.730199,-0.057251,-0.680059 KneeRight:-0.026664,0.682442,0.034730,0.729627 Neck:0.070134,-0.025322,0.993056,-0.090992 ShoulderLeft:-0.020581,0.787648,-0.604272,0.118504 ShoulderRight:0.070255,0.785982,0.614211,-0.006406 SpineBase:0.034484,-0.021058,0.997875,-0.051107 SpineMid:0.051896,-0.021947,0.997122,-0.050732 SpineShoulder:0.069897,-0.024067,0.994828,-0.069664 ThumbLeft:0.000000,0.000000,0.000000,0.000000 ThumbRight:0.000000,0.000000,0.000000,0.000000 WristLeft:-0.149971,0.536866,-0.073749,0.826949 WristRight:0.071513,-0.434725,-0.153214,0.884548 END:
KINECT_DATA POSITION:43.278702,0.488900,-8.039713 HEAD_JOINT1:0.984155,0.137553,-0.000000,0.111881 LARM_JOINT2:0.828493,0.000000,-0.024183,-0.559478 LARM_JOINT3:0.949824,0.000000,-0.200243,-0.240285 LLEG_JOINT2:0.996964,0.021717,0.000000,0.074776 LLEG_JOINT4:0.994121,0.100980,0.000000,-0.039063 RARM_JOINT2:0.780479,0.000000,-0.044029,0.623629 RARM_JOINT3:0.944677,0.000000,0.260400,0.199440 RLEG_JOINT2:0.999459,0.006393,0.000000,-0.032269 RLEG_JOINT4:0.994067,0.104313,0.000000,0.030823 WAIST:0.999445,0.000000,-0.030710,-0.012888 WAIST_JOINT0:0.997944,0.000000,-0.064097,0.000381 WAIST_JOINT1:0.997220,0.073717,0.000000,-0.010873 END:
KINECT_DATA_Sensor  AnkleLeft:0.070386,0.739687,-0.102143,-0.661419 AnkleRight:0.070820,0.678933,0.085549,0.725752 ElbowLeft:-0.018663,0.931013,-0.172809,-0.320942 ElbowRight:0.026427,0.824659,0.168973,0.539155 FootLeft:0.000000,0.000000,0.000000,0.000000 FootRight:0.000000,0.000000,0.000000,0.000000 HandLeft:-0.165125,0.554533,0.045136,0.814365 HandRight:0.257872,-0.647265,0.003962,0.717310 HandTipLeft:0.000000,0.000000,0.000000,0.000000 HandTipRight:0.000000,0.000000,0.000000,0.000000 Head:0.000000,0.000000,0.000000,0.000000 HipLeft:0.138006,-0.683239,0.691941,-0.188036 HipRight:-0.092417,0.672746,0.716445,-0.159929 KneeLeft:-0.030440,0.727902,-0.057991,-0.682546 KneeRight:-0.026522,0.684955,0.037019,0.727161 Neck:0.062964,-0.024603,0.993794,-0.088335 ShoulderLeft:-0.016827,0.787734,-0.605485,0.112161 ShoulderRight:0.064829,0.788064,0.612070,-0.011071 SpineBase:0.030875,-0.020028,0.998148,-0.048442 SpineMid:0.046540,-0.020786,0.997540,-0.048122 SpineShoulder:0.062727,-0.023492,0.995404,-0.068446 ThumbLeft:0.000000,0.000000,0.000000,0.000000 ThumbRight:0.000000,0.000000,0.000000,0.000000 WristLeft:-0.152599,0.569129,-0.074202,0.804549 WristRight:0.111520,-0.655518,-0.121459,0.736958 END:
KINECT_DATA POSITION:43.578506,0.360107,-7.487106 HEAD_JOINT1:0.986161,0.131632,-0.000000,0.100797 LARM_JOINT2:0.824846,0.000000,-0.024858,-0.564811 LARM_JOINT3:0.951119,0.000000,-0.198933,-0.236219 LLEG_JOINT2:0.997361,0.025448,0.000000,0.067989 LLEG_JOINT4:0.994858,0.095372,0.000000,-0.034073 RARM_JOINT2:0.789973,0.000000,0.011793,0.613029 RARM_JOINT3:0.949570,0.000000,0.268391,0.162118 RLEG_JOINT2:0.999238,0.011270,0.000000,-0.037377 RLEG_JOINT4:0.994256,0.101600,0.000000,0.033648 WAIST:0.999699,0.000000,-0.022139,-0.010612 WAIST_JOINT0:0.998837,0.000000,-0.048153,0.002476 WAIST_JOINT1:0.997585,0.068524,0.000000,-0.011309 END:
KINECT_DATA_Sensor  AnkleLeft:0.069732,0.734929,-0.100691,-0.666992 AnkleRight:0.072043,0.687252,0.087473,0.717526 ElbowLeft:-0.021684,0.925828,-0.166590,-0.338556 ElbowRight:-0.018145,0.851333,0.156642,0.500367 FootLeft:0.000000,0.000000,0.000000,0.000000 FootRight:0.000000,0.000000,0.000000,0.000000 HandLeft:-0.184965,0.561682,0.049962,0.804863 HandRight:0.173633,-0.324800,-0.211492,0.905333 HandTipLeft:0.000000,0.000000,0.000000,0.000000 HandTipRight:0.000000,0.000000,0.000000,0.000000 Head:0.000000,0.000000,0.000000,0.000000 HipLeft:0.137598,-0.683893,0.693617,-0.179591 HipRight:-0.103141,0.674231,0.713509,-0.160249 KneeLeft:-0.023964,0.722378,-0.057937,-0.688650 KneeRight:-0.025154,0.690987,0.042317,0.721189 Neck:0.047145,-0.023622,0.995208,-0.082340 ShoulderLeft:-0.009907,0.790211,-0.605064,0.096773 ShoulderRight:0.051356,0.791303,0.608920,-0.020451 SpineBase:0.022236,-0.017444,0.998749,-0.041252 SpineMid:0.034420,-0.017946,0.998403,-0.041036 SpineShoulder:0.047004,-0.021527,0.996630,-0.063683 ThumbLeft:0.000000,0.000000,0.000000,0.000000 ThumbRight:0.000000,0.000000,0.000000,0.000000 WristLeft:-0.149396,0.577713,-0.081746,0.798277 WristRight:0.073246,-0.346003,-0.174967,0.918860 END:
KINECT_DATA POSITION:43.863571,0.401045,-7.180285 HEAD_JOINT1:0.987936,0.126276,-0.000000,0.089653 LARM_JOINT2:0.820482,0.000000,-0.019933,-0.571325 LARM_JOINT3:0.952533,0.000000,-0.198272,-0.231015 LLEG_JOINT2:0.997481,0.028302,0.000000,0.065044 LLEG_JOINT4:0.995120,0.094326,0.000000,-0.028953 RARM_JOINT2:0.810722,0.000000,0.099567,0.576902 RARM_JOINT3:0.947248,0.000000,0.305597,0.096602 RLEG_JOINT2:0.999275,0.009076,0.000000,-0.036962 RLEG_JOINT4:0.993669,0.107763,0.000000,0.031769 WAIST:0.999747,0.000000,-0.018713,-0.012500 WAIST_JOINT0:0.999522,0.000000,-0.030918,0.000531 WAIST_JOINT1:0.998069,0.061620,0.000000,-0.007847 END:
KINECT_DATA_Sensor  AnkleLeft:0.070138,0.726188,-0.102656,-0.676161 AnkleRight:0.075349,0.712255,0.090422,0.691982 ElbowLeft:-0.024146,0.918279,-0.159786,-0.361454 ElbowRight:-0.108447,0.837915,0.144739,0.514964 FootLeft:0.000000,0.000000,0.000000,0.000000 FootRight:0.000000,0.000000,0.000000,0.000000 HandLeft:-0.175404,0.675178,0.086570,0.711248 HandRight:-0.358114,0.932680,0.032973,-0.027838 HandTipLeft:0.000000,0.000000,0.000000,0.000000 HandTipRight:0.000000,0.000000,0.000000,0.000000 Head:0.000000,0.000000,0.000000,0.000000 HipLeft:0.137823,-0.686083,0.692434,-0.175586 HipRight:-0.108797,0.673324,0.713944,-0.158372 KneeLeft:-0.018291,0.720412,-0.056719,-0.690981 KneeRight:-0.027914,0.693177,0.041763,0.719015 Neck:0.030696,-0.020406,0.996544,-0.074442 ShoulderLeft:-0.007256,0.791966,-0.604934,0.082418 ShoulderRight:0.032734,0.790404,0.610824,-0.032918 SpineBase:0.019020,-0.015554,0.999028,-0.036607 SpineMid:0.024644,-0.015760,0.998905,-0.036519 SpineShoulder:0.030464,-0.019673,0.997694,-0.057372 ThumbLeft:0.000000,0.000000,0.000000,0.000000 ThumbRight:0.000000,0.000000,0.000000,0.000000 WristLeft:-0.164749,0.714905,-0.063237,0.676587 WristRight:-0.285054,0.957673,0.028592,-0.028080 END:
KINECT_DATA POSITION:44.117195,0.485058,-6.987548 HEAD_JOINT1:0.988706,0.125256,-0.000000,0.082282 LARM_JOINT2:0.818398,0.000000,-0.010601,-0.574553 LARM_JOINT3:0.953288,0.000000,-0.202070,-0.224522 LLEG_JOINT2:0.997749,0.029810,0.000000,0.060065 LLEG_JOINT4:0.995103,0.095734,0.000000,-0.024605 RARM_JOINT2:0.828840,0.000000,0.216418,0.515933 RARM_JOINT3:0.959747,0.000000,0.280398,-0.016192 RLEG_JOINT2:0.999128,0.009793,0.000000,-0.040587 RLEG_JOINT4:0.993359,0.108974,0.000000,0.036903 WAIST:0.999758,0.000000,-0.018017,-0.012620 WAIST_JOINT0:0.999930,0.000000,-0.011757,-0.001075 WAIST_JOINT1:0.998439,0.055606,0.000000,-0.005220 END:
KINECT_DATA_Sensor  AnkleLeft:0.074769,0.738478,-0.102749,-0.662195 AnkleRight:0.076790,0.705642,0.091411,0.698438 ElbowLeft:-0.024368,0.911799,-0.159256,-0.377711 ElbowRight:-0.230436,0.775650,0.094901,0.579880 FootLeft:0.000000,0.000000,0.000000,0.000000 FootRight:0.000000,0.000000,0.000000,0.000000 HandLeft:-0.179255,0.615194,0.058055,0.765528 HandRight:-0.372264,0.906593,0.181455,-0.081138 HandTipLeft:0.000000,0.000000,0.000000,0.000000 HandTipRight:0.000000,0.000000,0.000000,0.000000 Head:0.000000,0.000000,0.000000,0.000000 HipLeft:0.138656,-0.687023,0.692120,-0.172464 HipRight:-0.111364,0.674090,0.713562,-0.155014 KneeLeft:-0.013532,0.720099,-0.054270,-0.691613 KneeRight:-0.030022,0.693491,0.044939,0.718436 Neck:0.012425,-0.015929,0.997401,-0.069166 ShoulderLeft:-0.007545,0.794811,-0.602786,0.069770 ShoulderRight:0.008849,0.790502,0.610354,-0.049966 SpineBase:0.018356,-0.013953,0.999201,-0.032638 SpineMid:0.015214,-0.013850,0.999254,-0.032681 SpineShoulder:0.012106,-0.016623,0.998462,-0.051488 ThumbLeft:0.000000,0.000000,0.000000,0.000000 ThumbRight:0.000000,0.000000,0.000000,0.000000 WristLeft:-0.154581,0.632418,-0.089537,0.753747 WristRight:-0.384119,0.907198,0.139524,-0.099887 END:
KINECT_DATA POSITION:44.297161,0.522114,-6.840217 HEAD_JOINT1:0.989301,0.124638,-0.000000,0.075823 LARM_JOINT2:0.816229,0.000000,-0.008713,-0.577662 LARM_JOINT3:0.953876,0.000000,-0.203578,-0.220625 LLEG_JOINT2:0.997995,0.029224,0.000000,0.056143 LLEG_JOINT4:0.995678,0.090578,0.000000,-0.020531 RARM_JOINT2:0.845083,0.000000,0.312027,0.434137 RARM_JOINT3:0.973442,0.000000,0.218599,-0.068014 RLEG_JOINT2:0.998872,0.008766,0.000000,-0.046668 RLEG_JOINT4:0.992891,0.110108,0.000000,0.045209 WAIST:0.999870,0.000000,-0.011361,-0.011463 WAIST_JOINT0:0.999998,0.000000,0.002080,-0.000161 WAIST_JOINT1:0.998583,0.053130,0.000000,-0.002898 END:
KINECT_DATA_Sensor  AnkleLeft:0.066731,0.709736,-0.101913,-0.693856 AnkleRight:0.078859,0.711692,0.089321,0.692313 ElbowLeft:-0.024858,0.906582,-0.158729,-0.390252 ElbowRight:-0.333786,0.735749,0.046510,0.587449 FootLeft:0.000000,0.000000,0.000000,0.000000 FootRight:0.000000,0.000000,0.000000,0.000000 HandLeft:-0.184714,0.457010,0.013862,0.869960 HandRight:-0.429097,0.865130,0.238367,-0.102990 HandTipLeft:0.000000,0.000000,0.000000,0.000000 HandTipRight:0.000000,0.000000,0.000000,0.000000 Head:0.000000,0.000000,0.000000,0.000000 HipLeft:0.135996,-0.687508,0.693296,-0.167862 HipRight:-0.117773,0.674627,0.711602,-0.156941 KneeLeft:-0.011543,0.715457,-0.052069,-0.696618 KneeRight:-0.034428,0.698047,0.047609,0.713638 Neck:-0.001006,-0.011444,0.997713,-0.066608 ShoulderLeft:-0.006018,0.794837,-0.603667,0.061506 ShoulderRight:-0.006939,0.790720,0.608867,-0.063194 SpineBase:0.011691,-0.011440,0.999413,-0.030089 SpineMid:0.005181,-0.011244,0.999468,-0.030163 SpineShoulder:-0.001378,-0.013546,0.998703,-0.049060 ThumbLeft:0.000000,0.000000,0.000000,0.000000 ThumbRight:0.000000,0.000000,0.000000,0.000000 WristLeft:-0.130568,0.471151,-0.123979,0.863480 WristRight:-0.425089,0.871955,0.214058,-0.114774 END:
KINECT_DATA POSITION:44.441494,0.555030,-6.698585 HEAD_JOINT1:0.989649,0.125465,-0.000000,0.069666 LARM_JOINT2:0.814553,0.000000,-0.005768,-0.580060 LARM_JOINT3:0.955045,0.000000,-0.203573,-0.215514 LLEG_JOINT2:0.998195,0.027998,0.000000,0.053131 LLEG_JOINT4:0.995135,0.096736,0.000000,-0.018682 RARM_JOINT2:0.862824,0.000000,0.369533,0.344935 RARM_JOINT3:0.981264,0.000000,0.183251,-0.059501 RLEG_JOINT2:0.998774,0.011736,0.000000,-0.048088 RLEG_JOINT4:0.992631,0.112048,0.000000,0.046142 WAIST:0.999923,0.000000,-0.006640,-0.010466 WAIST_JOINT0:0.999857,-0.000000,0.016888,0.000740 WAIST_JOINT1:0.998645,0.052046,-0.000000,0.000187 END:
KINECT_DATA_Sensor  AnkleLeft:0.074681,0.731162,-0.102315,-0.670340 AnkleRight:0.079844,0.695142,0.094883,0.708096 ElbowLeft:-0.023793,0.903062,-0.160461,-0.397699 ElbowRight:-0.415933,0.747671,0.054634,0.514784 FootLeft:0.000000,0.000000,0.000000,0.000000 FootRight:0.000000,0.000000,0.000000,0.000000 HandLeft:-0.164213,0.731436,0.057703,0.659322 HandRight:-0.532387,0.830794,0.148231,0.066127 HandTipLeft:0.000000,0.000000,0.000000,0.000000 HandTipRight:0.000000,0.000000,0.000000,0.000000 Head:0.000000,0.000000,0.000000,0.000000 HipLeft:0.133869,-0.687677,0.694288,-0.164752 HipRight:-0.122286,0.675199,0.710067,-0.157979 KneeLeft:-0.010689,0.712112,-0.049874,-0.700210 KneeRight:-0.032787,0.701424,0.049878,0.710240 Neck:-0.015546,-0.006202,0.997676,-0.066042 ShoulderLeft:-0.004614,0.793758,-0.605772,0.054470 ShoulderRight:-0.024371,0.789935,0.607559,-0.079254 SpineBase:0.006973,-0.008915,0.999535,-0.028315 SpineMid:-0.004423,-0.008592,0.999550,-0.028415 SpineShoulder:-0.015953,-0.009525,0.998683,-0.047821 ThumbLeft:0.000000,0.000000,0.000000,0.000000 ThumbRight:0.000000,0.000000,0.000000,0.000000 WristLeft:-0.161687,0.755626,-0.071376,0.630707 WristRight:-0.488914,0.857936,0.141020,0.070864 END:
KINECT_DATA POSITION:44.508152,0.574193,-6.667149 HEAD_JOINT1:0.989746,0.125985,-0.000000,0.067308 LARM_JOINT2:0.814215,0.000000,-0.004045,-0.580549 LARM_JOINT3:0.953035,0.000000,-0.206610,-0.221441 LLEG_JOINT2:0.998232,0.029079,0.000000,0.051830 LLEG_JOINT4:0.995409,0.094282,0.000000,-0.016499 RARM_JOINT2:0.862141,0.000000,0.372926,0.342986 RARM_JOINT3:0.972252,0.000000,0.220732,-0.077482 RLEG_JOINT2:0.998767,0.012061,0.000000,-0.048156 RLEG_JOINT4:0.992752,0.111971,0.000000,0.043650 WAIST:0.999932,0.000000,-0.006160,-0.009888 WAIST_JOINT0:0.999753,-0.000000,0.022154,0.001515 WAIST_JOINT1:0.998640,0.052101,-0.000000,0.001666 END:
KINECT_DATA_Sensor  AnkleLeft:-0.067897,-0.699141,0.105695,0.703861 AnkleRight:0.080756,0.711323,0.094722,0.691756 ElbowLeft:-0.023049,0.902408,-0.162413,-0.398436 ElbowRight:-0.418970,0.723597,0.031509,0.547612 FootLeft:0.000000,0.000000,0.000000,0.000000 FootRight:0.000000,0.000000,0.000000,0.000000 HandLeft:-0.201539,0.520413,0.014249,0.829668 HandRight:-0.319440,0.285684,-0.456856,0.779503 HandTipLeft:0.000000,0.000000,0.000000,0.000000 HandTipRight:0.000000,0.000000,0.000000,0.000000 Head:0.000000,0.000000,0.000000,0.000000 HipLeft:0.133348,-0.687340,0.694794,-0.164450 HipRight:-0.122785,0.675639,0.709625,-0.157697 KneeLeft:-0.009383,0.711782,-0.050142,-0.700545 KneeRight:-0.032216,0.701785,0.049734,0.709920 Neck:-0.020872,-0.003862,0.997560,-0.066509 ShoulderLeft:-0.004377,0.792957,-0.606993,0.052538 ShoulderRight:-0.031089,0.789925,0.606399,-0.085625 SpineBase:0.006491,-0.007747,0.999554,-0.028090 SpineMid:-0.007300,-0.007359,0.999549,-0.028194 SpineShoulder:-0.021257,-0.007260,0.998609,-0.047712 ThumbLeft:0.000000,0.000000,0.000000,0.000000 ThumbRight:0.000000,0.000000,0.000000,0.000000 WristLeft:-0.130259,0.533734,-0.116170,0.827445 WristRight:-0.328929,0.276105,-0.439273,0.789057 END:
KINECT_DATA POSITION:44.591366,0.572909,-6.603348 HEAD_JOINT1:0.989989,0.125473,-0.000000,0.064638 LARM_JOINT2:0.813735,0.000000,-0.004129,-0.581221 LARM_JOINT3:0.952504,0.000000,-0.211170,-0.219414 LLEG_JOINT2:0.998237,0.030863,0.000000,0.050693 LLEG_JOINT4:0.995417,0.094664,0.000000,-0.013560 RARM_JOINT2:0.847895,0.000000,0.430746,0.309082 RARM_JOINT3:0.987367,0.000000,0.148813,-0.054412 RLEG_JOINT2:0.998718,0.013053,0.000000,-0.048902 RLEG_JOINT4:0.992601,0.112930,0.000000,0.044620 WAIST:0.999931,0.000000,-0.006471,-0.009843 WAIST_JOINT0:0.999582,-0.000000,0.028867,0.001870 WAIST_JOINT1:0.998609,0.052645,-0.000000,0.003048 END:
KINECT_DATA_Sensor  AnkleLeft:0.073981,0.737309,-0.104594,-0.663296 AnkleRight:0.084391,0.725244,0.094051,0.676797 ElbowLeft:-0.022978,0.902306,-0.163133,-0.398376 ElbowRight:-0.451666,0.742582,0.005455,0.494511 FootLeft:0.000000,0.000000,0.000000,0.000000 FootRight:0.000000,0.000000,0.000000,0.000000 HandLeft:-0.206484,0.577012,0.009650,0.790144 HandRight:-0.330255,0.295202,-0.441152,0.780495 HandTipLeft:0.000000,0.000000,0.000000,0.000000 HandTipRight:0.000000,0.000000,0.000000,0.000000 Head:0.000000,0.000000,0.000000,0.000000 HipLeft:0.132713,-0.687206,0.694951,-0.164858 HipRight:-0.122390,0.675813,0.709677,-0.157024 KneeLeft:-0.007368,0.712037,-0.050637,-0.700275 KneeRight:-0.031988,0.701537,0.050939,0.710090 Neck:-0.027984,-0.002341,0.997310,-0.067711 ShoulderLeft:-0.003403,0.792263,-0.608120,0.049984 ShoulderRight:-0.039346,0.789990,0.604583,-0.094056 SpineBase:0.006838,-0.006493,0.999553,-0.028366 SpineMid:-0.010614,-0.005997,0.999520,-0.028475 SpineShoulder:-0.028326,-0.005301,0.998430,-0.048024 ThumbLeft:0.000000,0.000000,0.000000,0.000000 ThumbRight:0.000000,0.000000,0.000000,0.000000 WristLeft:-0.137144,0.590011,-0.106902,0.788448 WristRight:-0.330056,0.290582,-0.416000,0.795971 END:
KINECT_DATA POSITION:44.649410,0.572982,-6.594086 HEAD_JOINT1:0.989756,0.127933,-0.000000,0.063376 LARM_JOINT2:0.813549,0.000000,-0.004229,-0.581481 LARM_JOINT3:0.954075,0.000000,-0.206440,-0.217081 LLEG_JOINT2:0.998247,0.031477,0.000000,0.050116 LLEG_JOINT4:0.995479,0.094080,0.000000,-0.013069 RARM_JOINT2:0.843994,0.000000,0.442050,0.303753 RARM_JOINT3:0.987212,0.000000,0.149202,-0.056144 RLEG_JOINT2:0.998684,0.013893,0.000000,-0.049366 RLEG_JOINT4:0.992746,0.111512,0.000000,0.044950 WAIST:0.999935,0.000000,-0.005549,-0.010000 WAIST_JOINT0:0.999493,-0.000000,0.031798,0.001417 WAIST_JOINT1:0.998591,0.052942,-0.000000,0.003594 END:
KINECT_DATA_Sensor  AnkleLeft:0.074726,0.739698,-0.104049,-0.660634 AnkleRight:0.083802,0.726794,0.093851,0.675233 ElbowLeft:-0.022464,0.902405,-0.163334,-0.398099 ElbowRight:-0.456504,0.743962,-0.003686,0.487966 FootLeft:0.000000,0.000000,0.000000,0.000000 FootRight:0.000000,0.000000,0.000000,0.000000 HandLeft:-0.191891,0.629580,0.027985,0.752346 HandRight:-0.346309,0.318782,-0.409596,0.781460 HandTipLeft:0.000000,0.000000,0.000000,0.000000 HandTipRight:0.000000,0.000000,0.000000,0.000000 Head:0.000000,0.000000,0.000000,0.000000 HipLeft:0.131675,-0.687356,0.695060,-0.164607 HipRight:-0.122728,0.675572,0.709728,-0.157566 KneeLeft:-0.006361,0.711413,-0.050570,-0.700924 KneeRight:-0.031866,0.702173,0.051947,0.709394 Neck:-0.031172,-0.002274,0.997169,-0.068385 ShoulderLeft:-0.003262,0.792217,-0.608258,0.049042 ShoulderRight:-0.043316,0.789678,0.604083,-0.098060 SpineBase:0.005944,-0.006072,0.999550,-0.028753 SpineMid:-0.012620,-0.005537,0.999488,-0.028861 SpineShoulder:-0.031477,-0.004699,0.998331,-0.048194 ThumbLeft:0.000000,0.000000,0.000000,0.000000 ThumbRight:0.000000,0.000000,0.000000,0.000000 WristLeft:-0.141335,0.642838,-0.096622,0.746624 WristRight:-0.338857,0.326813,-0.430460,0.770113 END:
KINECT_DATA POSITION:44.668449,0.567238,-6.612110 HEAD_JOINT1:0.989749,0.128517,-0.000000,0.062298 LARM_JOINT2:0.813906,0.000000,-0.006275,-0.580963 LARM_JOINT3:0.954315,0.000000,-0.211097,-0.211474 LLEG_JOINT2:0.998254,0.031727,0.000000,0.049833 LLEG_JOINT4:0.995518,0.093706,0.000000,-0.012803 RARM_JOINT2:0.839583,0.000000,0.455802,0.295543 RARM_JOINT3:0.986877,0.000000,0.147933,-0.064721 RLEG_JOINT2:0.998668,0.013726,0.000000,-0.049743 RLEG_JOINT4:0.992743,0.111596,0.000000,0.044799 WAIST:0.999938,0.000000,-0.004846,-0.010005 WAIST_JOINT0:0.999433,-0.000000,0.033661,0.000855 WAIST_JOINT1:0.998530,0.054067,-0.000000,0.003890 END:
KINECT_DATA_Sensor  AnkleLeft:0.072853,0.727315,-0.105225,-0.674265 AnkleRight:0.080274,0.705338,0.096866,0.697618 ElbowLeft:-0.023037,0.902619,-0.163937,-0.397332 ElbowRight:-0.462572,0.733907,-0.024300,0.496806 FootLeft:0.000000,0.000000,0.000000,0.000000 FootRight:0.000000,0.000000,0.000000,0.000000 HandLeft:-0.189238,0.602722,-0.008595,0.775139 HandRight:-0.341609,0.314403,-0.431787,0.773314 HandTipLeft:0.000000,0.000000,0.000000,0.000000 HandTipRight:0.000000,0.000000,0.000000,0.000000 Head:0.000000,0.000000,0.000000,0.000000 HipLeft:0.130653,-0.687326,0.695263,-0.164688 HipRight:-0.122595,0.675391,0.709758,-0.158307 KneeLeft:-0.005939,0.710928,-0.050553,-0.701420 KneeRight:-0.032285,0.702648,0.052084,0.708894 Neck:-0.033361,-0.002112,0.996993,-0.069908 ShoulderLeft:-0.002869,0.791733,-0.608867,0.049305 ShoulderRight:-0.045795,0.788967,0.604229,-0.101688 SpineBase:0.005256,-0.005887,0.999533,-0.029528 SpineMid:-0.014044,-0.005316,0.999448,-0.029636 SpineShoulder:-0.033650,-0.004245,0.998214,-0.049185 ThumbLeft:0.000000,0.000000,0.000000,0.000000 ThumbRight:0.000000,0.000000,0.000000,0.000000 WristLeft:-0.137041,0.613465,-0.102330,0.770979 WristRight:-0.337939,0.318981,-0.445113,0.765456 END:
KINECT_DATA POSITION:44.679775,0.565199,-6.609249 HEAD_JOINT1:0.989846,0.128968,-0.000000,0.059765 LARM_JOINT2:0.814332,0.000000,-0.007463,-0.580351 LARM_JOINT3:0.953977,0.000000,-0.211474,-0.212619 LLEG_JOINT2:0.998240,0.032211,0.000000,0.049799 LLEG_JOINT4:0.996025,0.087954,0.000000,-0.014095 RARM_JOINT2:0.841116,0.000000,0.456430,0.290165 RARM_JOINT3:0.986012,0.000000,0.152796,-0.066581 RLEG_JOINT2:0.998697,0.013537,0.000000,-0.049198 RLEG_JOINT4:0.992875,0.111125,0.000000,0.043029 WAIST:0.999938,0.000000,-0.004453,-0.010237 WAIST_JOINT0:0.999392,-0.000000,0.034860,0.000849 WAIST_JOINT1:0.998474,0.055063,-0.000000,0.004195 END:
KINECT_DATA_Sensor  AnkleLeft:-0.064999,-0.693000,0.103875,0.710448 AnkleRight:0.081162,0.722896,0.095509,0.679495 ElbowLeft:-0.022820,0.903620,-0.164726,-0.394736 ElbowRight:-0.466272,0.736714,-0.018948,0.489371 FootLeft:0.000000,0.000000,0.000000,0.000000 FootRight:0.000000,0.000000,0.000000,0.000000 HandLeft:-0.187093,0.498380,-0.035468,0.845787 HandRight:-0.348170,0.313805,-0.429948,0.771653 HandTipLeft:0.000000,0.000000,0.000000,0.000000 HandTipRight:0.000000,0.000000,0.000000,0.000000 Head:0.000000,0.000000,0.000000,0.000000 HipLeft:0.129899,-0.687365,0.695293,-0.164993 HipRight:-0.122345,0.675049,0.709988,-0.158927 KneeLeft:-0.005387,0.710675,-0.050713,-0.701670 KneeRight:-0.032219,0.702915,0.051716,0.708659 Neck:-0.034815,-0.002189,0.996861,-0.071068 ShoulderLeft:-0.002109,0.790864,-0.609973,0.049613 ShoulderRight:-0.046955,0.788324,0.604565,-0.104125 SpineBase:0.004891,-0.005829,0.999512,-0.030296 SpineMid:-0.014941,-0.005227,0.999412,-0.030406 SpineShoulder:-0.035085,-0.004015,0.998118,-0.050128 ThumbLeft:0.000000,0.000000,0.000000,0.000000 ThumbRight:0.000000,0.000000,0.000000,0.000000 WristLeft:-0.123046,0.508752,-0.118118,0.843848 WristRight:-0.338462,0.323699,-0.453248,0.758438 END:
KINECT_DATA POSITION:44.681892,0.565147,-6.612182 HEAD_JOINT1:0.990008,0.129221,-0.000000,0.056442 LARM_JOINT2:0.814375,0.000000,-0.009055,-0.580269 LARM_JOINT3:0.953443,0.000000,-0.211152,-0.215318 LLEG_JOINT2:0.998214,0.032610,0.000000,0.050060 LLEG_JOINT4:0.995957,0.088949,0.000000,-0.012547 RARM_JOINT2:0.842216,0.000000,0.459502,0.282010 RARM_JOINT3:0.987967,0.000000,0.143528,-0.057626 RLEG_JOINT2:0.998711,0.014554,0.000000,-0.048631 RLEG_JOINT4:0.993057,0.110139,0.000000,0.041329 WAIST:0.999934,0.000000,-0.004355,-0.010590 WAIST_JOINT0:0.999384,-0.000000,0.035088,0.000612 WAIST_JOINT1:0.998405,0.056287,-0.000000,0.004403 END:
KINECT_DATA_Sensor  AnkleLeft:-0.064946,-0.692941,0.105866,0.710217 AnkleRight:0.081001,0.728827,0.095942,0.673086 ElbowLeft:-0.022933,0.903545,-0.164600,-0.394952 ElbowRight:-0.472220,0.741200,-0.012363,0.476946 FootLeft:0.000000,0.000000,0.000000,0.000000 FootRight:0.000000,0.000000,0.000000,0.000000 HandLeft:-0.199278,0.584375,-0.002930,0.786629 HandRight:-0.329634,0.281658,-0.432901,0.790321 HandTipLeft:0.000000,0.000000,0.000000,0.000000 HandTipRight:0.000000,0.000000,0.000000,0.000000 Head:0.000000,0.000000,0.000000,0.000000 HipLeft:0.129280,-0.687498,0.695140,-0.165572 HipRight:-0.121809,0.674701,0.710268,-0.159559 KneeLeft:-0.005035,0.710633,-0.050933,-0.701699 KneeRight:-0.031349,0.702998,0.052276,0.708574 Neck:-0.035162,-0.002498,0.996754,-0.072376 ShoulderLeft:-0.000289,0.790560,-0.610365,0.049694 ShoulderRight:-0.045558,0.787921,0.605094,-0.104714 SpineBase:0.004823,-0.005963,0.999483,-0.031213 SpineMid:-0.015146,-0.005338,0.999380,-0.031326 SpineShoulder:-0.035415,-0.004020,0.998046,-0.051331 ThumbLeft:0.000000,0.000000,0.000000,0.000000 ThumbRight:0.000000,0.000000,0.000000,0.000000 WristLeft:-0.134646,0.596033,-0.104411,0.784674 WristRight:-0.321329,0.291577,-0.460991,0.774092 END:
KINECT_DATA POSITION:44.679989,0.560228,-6.588304 HEAD_JOINT1:0.989879,0.130224,-0.000000,0.056408 LARM_JOINT2:0.814184,0.000000,-0.008971,-0.580538 LARM_JOINT3:0.953640,0.000000,-0.212302,-0.213303 LLEG_JOINT2:0.998191,0.033361,0.000000,0.050018 LLEG_JOINT4:0.995811,0.090595,0.000000,-0.012381 RARM_JOINT2:0.837923,0.000000,0.473248,0.271885 RARM_JOINT3:0.990104,0.000000,0.128095,-0.057318 RLEG_JOINT2:0.998715,0.015471,0.000000,-0.048250 RLEG_JOINT4:0.993117,0.109027,0.000000,0.042789 WAIST:0.999932,0.000000,-0.004231,-0.010832 WAIST_JOINT0:0.999650,-0.000000,0.026439,0.000385 WAIST_JOINT1:0.998399,0.056378,-0.000000,0.004671 END:
KINECT_DATA_Sensor  AnkleLeft:0.072510,0.730613,-0.103661,-0.670971 AnkleRight:0.080839,0.721383,0.095541,0.681134 ElbowLeft:-0.022767,0.903233,-0.164381,-0.395766 ElbowRight:-0.480741,0.742430,-0.020652,0.466112 FootLeft:0.000000,0.000000,0.000000,0.000000 FootRight:0.000000,0.000000,0.000000,0.000000 HandLeft:-0.194607,0.528743,-0.026404,0.825749 HandRight:-0.358765,0.319126,-0.429460,0.764860 HandTipLeft:0.000000,0.000000,0.000000,0.000000 HandTipRight:0.000000,0.000000,0.000000,0.000000 Head:0.000000,0.000000,0.000000,0.000000 HipLeft:0.128852,-0.687658,0.695013,-0.165775 HipRight:-0.121538,0.674529,0.710426,-0.159794 KneeLeft:-0.004296,0.710571,-0.051265,-0.701742 KneeRight:-0.030604,0.703097,0.052820,0.708469 Neck:-0.026637,-0.003212,0.997017,-0.072369 ShoulderLeft:0.000928,0.790159,-0.610712,0.051757 ShoulderRight:-0.033222,0.788650,0.606795,-0.093416 SpineBase:0.004722,-0.005962,0.999470,-0.031640 SpineMid:-0.010974,-0.005465,0.999421,-0.031730 SpineShoulder:-0.026860,-0.004408,0.998307,-0.051407 ThumbLeft:0.000000,0.000000,0.000000,0.000000 ThumbRight:0.000000,0.000000,0.000000,0.000000 WristLeft:-0.126773,0.539595,-0.113710,0.824521 WristRight:-0.345447,0.328975,-0.438495,0.761685 END:
KINECT_DATA POSITION:44.667358,0.564851,-6.566989 HEAD_JOINT1:0.989735,0.131282,-0.000000,0.056486 LARM_JOINT2:0.813957,0.000000,-0.008782,-0.580858 LARM_JOINT3:0.953306,0.000000,-0.211343,-0.215735 LLEG_JOINT2:0.998203,0.033278,0.000000,0.049839 LLEG_JOINT4:0.995736,0.091475,0.000000,-0.011903 RARM_JOINT2:0.837683,0.000000,0.477976,0.264247 RARM_JOINT3:0.988964,0.000000,0.139678,-0.049399 RLEG_JOINT2:0.998716,0.016768,0.000000,-0.047809 RLEG_JOINT4:0.993108,0.109264,0.000000,0.042405 WAIST:0.999934,0.000000,-0.003758,-0.010810 WAIST_JOINT0:0.999741,0.000000,0.022768,-0.000213 WAIST_JOINT1:0.998396,0.056415,-0.000000,0.004723 END:
KINECT_DATA_Sensor  AnkleLeft:0.073073,0.731132,-0.104303,-0.670244 AnkleRight:0.080644,0.712144,0.097670,0.690513 ElbowLeft:-0.022249,0.903377,-0.164211,-0.395537 ElbowRight:-0.487166,0.751675,-0.011429,0.444436 FootLeft:0.000000,0.000000,0.000000,0.000000 FootRight:0.000000,0.000000,0.000000,0.000000 HandLeft:-0.198328,0.424893,-0.043547,0.882177 HandRight:-0.351197,0.362233,-0.447413,0.738424 HandTipLeft:0.000000,0.000000,0.000000,0.000000 HandTipRight:0.000000,0.000000,0.000000,0.000000 Head:0.000000,0.000000,0.000000,0.000000 HipLeft:0.128355,-0.687684,0.695112,-0.165633 HipRight:-0.121560,0.674469,0.710395,-0.160168 KneeLeft:-0.004216,0.710239,-0.051101,-0.702091 KneeRight:-0.029375,0.703474,0.053396,0.708104 Neck:-0.022948,-0.003518,0.997109,-0.072353 ShoulderLeft:0.002087,0.790009,-0.610867,0.052190 ShoulderRight:-0.027269,0.788306,0.608327,-0.088138 SpineBase:0.004252,-0.005969,0.999464,-0.031913 SpineMid:-0.009383,-0.005533,0.999429,-0.031991 SpineShoulder:-0.023155,-0.004557,0.998397,-0.051439 ThumbLeft:0.000000,0.000000,0.000000,0.000000 ThumbRight:0.000000,0.000000,0.000000,0.000000 WristLeft:-0.111524,0.436151,-0.127360,0.883806 WristRight:-0.356927,0.355037,-0.426934,0.751185 END:
KINECT_DATA POSITION:44.633228,0.571256,-6.612194 HEAD_JOINT1:0.989563,0.132611,-0.000000,0.056381 LARM_JOINT2:0.813873,0.000000,-0.007664,-0.580992 LARM_JOINT3:0.953791,0.000000,-0.204598,-0.220053 LLEG_JOINT2:0.998231,0.032230,0.000000,0.049952 LLEG_JOINT4:0.995672,0.092280,0.000000,-0.011052 RARM_JOINT2:0.837053,0.000000,0.478960,0.264461 RARM_JOINT3:0.991906,0.000000,0.117888,-0.047169 RLEG_JOINT2:0.998681,0.015806,0.000000,-0.048861 RLEG_JOINT4:0.992940,0.109548,0.000000,0.045501 WAIST:0.999937,0.000000,-0.002960,-0.010825 WAIST_JOINT0:0.999696,0.000000,0.024643,-0.000824 WAIST_JOINT1:0.998403,0.056275,-0.000000,0.004857 END:
KINECT_DATA_Sensor  AnkleLeft:0.073272,0.736502,-0.104137,-0.664343 AnkleRight:0.080355,0.704615,0.096731,0.698358 ElbowLeft:-0.021033,0.903866,-0.164583,-0.394329 ElbowRight:-0.486860,0.745984,-0.019832,0.453962 FootLeft:0.000000,0.000000,0.000000,0.000000 FootRight:0.000000,0.000000,0.000000,0.000000 HandLeft:-0.190636,0.703435,0.053911,0.682591 HandRight:-0.330759,0.284103,-0.435779,0.787388 HandTipLeft:0.000000,0.000000,0.000000,0.000000 HandTipRight:0.000000,0.000000,0.000000,0.000000 Head:0.000000,0.000000,0.000000,0.000000 HipLeft:0.127663,-0.687825,0.695215,-0.165151 HipRight:-0.121727,0.674371,0.710354,-0.160633 KneeLeft:-0.004980,0.709666,-0.050438,-0.702713 KneeRight:-0.030847,0.703986,0.053456,0.707527 Neck:-0.024777,-0.003386,0.997080,-0.072156 ShoulderLeft:0.002235,0.790024,-0.610915,0.051380 ShoulderRight:-0.029494,0.787396,0.609086,-0.090290 SpineBase:0.003455,-0.006096,0.999460,-0.032102 SpineMid:-0.010697,-0.005641,0.999409,-0.032186 SpineShoulder:-0.024984,-0.004430,0.998360,-0.051325 ThumbLeft:0.000000,0.000000,0.000000,0.000000 ThumbRight:0.000000,0.000000,0.000000,0.000000 WristLeft:-0.150876,0.739368,-0.074027,0.651990 WristRight:-0.324094,0.291174,-0.452663,0.777996 END:
KINECT_DATA POSITION:44.604958,0.568184,-6.653476 HEAD_JOINT1:0.989294,0.134021,-0.000000,0.057760 LARM_JOINT2:0.814153,0.000000,-0.005519,-0.580624 LARM_JOINT3:0.953297,0.000000,-0.208170,-0.218837 LLEG_JOINT2:0.998238,0.032149,0.000000,0.049882 LLEG_JOINT4:0.995829,0.090461,0.000000,-0.011889 RARM_JOINT2:0.837594,0.000000,0.475881,0.268278 RARM_JOINT3:0.991799,0.000000,0.117233,-0.050900 RLEG_JOINT2:0.998683,0.015528,0.000000,-0.048903 RLEG_JOINT4:0.992963,0.109820,0.000000,0.044314 WAIST:0.999935,0.000000,-0.004145,-0.010652 WAIST_JOINT0:0.999680,0.000000,0.025313,-0.000407 WAIST_JOINT1:0.998447,0.055486,-0.000000,0.004929 END:
KINECT_DATA_Sensor  AnkleLeft:0.072220,0.737444,-0.102411,-0.663682 AnkleRight:0.082519,0.723784,0.095033,0.678451 ElbowLeft:-0.020850,0.903644,-0.165594,-0.394426 ElbowRight:-0.484088,0.741032,-0.023067,0.464755 FootLeft:0.000000,0.000000,0.000000,0.000000 FootRight:0.000000,0.000000,0.000000,0.000000 HandLeft:-0.192010,0.371521,-0.042119,0.907375 HandRight:-0.338161,0.278604,-0.427883,0.790533 HandTipLeft:0.000000,0.000000,0.000000,0.000000 HandTipRight:0.000000,0.000000,0.000000,0.000000 Head:0.000000,0.000000,0.000000,0.000000 HipLeft:0.128387,-0.687663,0.695173,-0.165441 HipRight:-0.121135,0.674761,0.710338,-0.159512 KneeLeft:-0.005178,0.710487,-0.050438,-0.701882 KneeRight:-0.030899,0.703151,0.053195,0.708375 Neck:-0.025493,-0.003029,0.997129,-0.071237 ShoulderLeft:0.000893,0.789954,-0.611021,0.051232 ShoulderRight:-0.031780,0.787765,0.608357,-0.091198 SpineBase:0.004628,-0.005873,0.999469,-0.031704 SpineMid:-0.010450,-0.005394,0.999425,-0.031789 SpineShoulder:-0.025688,-0.004031,0.998382,-0.050569 ThumbLeft:0.000000,0.000000,0.000000,0.000000 ThumbRight:0.000000,0.000000,0.000000,0.000000 WristLeft:-0.104204,0.382571,-0.132689,0.908391 WristRight:-0.326050,0.290571,-0.453605,0.776854 END:
KINECT_DATA POSITION:44.596981,0.574288,-6.683290 HEAD_JOINT1:0.989099,0.134511,-0.000000,0.059921 LARM_JOINT2:0.814486,0.000000,-0.005713,-0.580155 LARM_JOINT3:0.952648,0.000000,-0.207798,-0.221993 LLEG_JOINT2:0.998227,0.032087,0.000000,0.050139 LLEG_JOINT4:0.995760,0.091185,0.000000,-0.012124 RARM_JOINT2:0.842511,0.000000,0.459129,0.281736 RARM_JOINT3:0.987792,0.000000,0.143009,-0.061766 RLEG_JOINT2:0.998706,0.015172,0.000000,-0.048545 RLEG_JOINT4:0.992896,0.110145,0.000000,0.044997 WAIST:0.999930,0.000000,-0.004878,-0.010787 WAIST_JOINT0:0.999617,-0.000000,0.027658,0.000284 WAIST_JOINT1:0.998483,0.054741,-0.000000,0.005890 END:
KINECT_DATA_Sensor  AnkleLeft:-0.066393,-0.696662,0.106999,0.706262 AnkleRight:0.081303,0.709826,0.095892,0.693067 ElbowLeft:-0.021970,0.904695,-0.166513,-0.391557 ElbowRight:-0.472629,0.730583,-0.022468,0.492306 FootLeft:0.000000,0.000000,0.000000,0.000000 FootRight:0.000000,0.000000,0.000000,0.000000 HandLeft:-0.203729,0.401331,-0.030892,0.892454 HandRight:-0.330062,0.279353,-0.430863,0.792072 HandTipLeft:0.000000,0.000000,0.000000,0.000000 HandTipRight:0.000000,0.000000,0.000000,0.000000 Head:0.000000,0.000000,0.000000,0.000000 HipLeft:0.128874,-0.687703,0.694981,-0.165700 HipRight:-0.121128,0.674889,0.710423,-0.158593 KneeLeft:-0.005352,0.711002,-0.050470,-0.701356 KneeRight:-0.030964,0.702613,0.052802,0.708934 Neck:-0.027873,-0.001955,0.997128,-0.070388 ShoulderLeft:0.000099,0.789933,-0.611140,0.050130 ShoulderRight:-0.035696,0.788329,0.607019,-0.093761 SpineBase:0.005380,-0.005270,0.999483,-0.031243 SpineMid:-0.011239,-0.004750,0.999435,-0.031326 SpineShoulder:-0.028057,-0.003044,0.998359,-0.049823 ThumbLeft:0.000000,0.000000,0.000000,0.000000 ThumbRight:0.000000,0.000000,0.000000,0.000000 WristLeft:-0.108374,0.412738,-0.129009,0.895131 WristRight:-0.326382,0.287972,-0.466054,0.770286 END:
KINECT_DATA POSITION:44.572430,0.581665,-6.737685 HEAD_JOINT1:0.988973,0.135137,-0.000000,0.060585 LARM_JOINT2:0.814827,0.000000,-0.004592,-0.579686 LARM_JOINT3:0.952369,0.000000,-0.210229,-0.220899 LLEG_JOINT2:0.998262,0.032214,0.000000,0.049343 LLEG_JOINT4:0.995752,0.090991,0.000000,-0.014107 RARM_JOINT2:0.839645,0.000000,0.467550,0.276394 RARM_JOINT3:0.989935,0.000000,0.130277,-0.055284 RLEG_JOINT2:0.998698,0.015501,0.000000,-0.048597 RLEG_JOINT4:0.993085,0.108363,0.000000,0.045159 WAIST:0.999931,0.000000,-0.005564,-0.010311 WAIST_JOINT0:0.999701,-0.000000,0.024443,0.000793 WAIST_JOINT1:0.998499,0.054481,-0.000000,0.005552 END:
KINECT_DATA_Sensor  AnkleLeft:-0.068061,-0.698109,0.105297,0.704928 AnkleRight:0.082576,0.723314,0.092793,0.679255 ElbowLeft:-0.021853,0.904645,-0.167416,-0.391296 ElbowRight:-0.477382,0.732428,-0.026656,0.484712 FootLeft:0.000000,0.000000,0.000000,0.000000 FootRight:0.000000,0.000000,0.000000,0.000000 HandLeft:-0.193860,0.770466,0.057073,0.604602 HandRight:-0.320794,0.267506,-0.435409,0.797465 HandTipLeft:0.000000,0.000000,0.000000,0.000000 HandTipRight:0.000000,0.000000,0.000000,0.000000 Head:0.000000,0.000000,0.000000,0.000000 HipLeft:0.129371,-0.687369,0.695180,-0.165863 HipRight:-0.120864,0.675362,0.710146,-0.158022 KneeLeft:-0.005074,0.711462,-0.050327,-0.700901 KneeRight:-0.030398,0.702166,0.052751,0.709405 Neck:-0.024668,-0.002008,0.997230,-0.070141 ShoulderLeft:0.000316,0.789310,-0.611889,0.050802 ShoulderRight:-0.031338,0.788630,0.607538,-0.089325 SpineBase:0.006038,-0.005045,0.999489,-0.030982 SpineMid:-0.009314,-0.004569,0.999464,-0.031055 SpineShoulder:-0.024838,-0.002993,0.998459,-0.049540 ThumbLeft:0.000000,0.000000,0.000000,0.000000 ThumbRight:0.000000,0.000000,0.000000,0.000000 WristLeft:-0.158948,0.797384,-0.059434,0.579121 WristRight:-0.319199,0.273876,-0.464532,0.779303 END:
KINECT_DATA POSITION:44.559303,0.591559,-6.791604 HEAD_JOINT1:0.988882,0.135922,-0.000000,0.060305 LARM_JOINT2:0.815063,0.000000,-0.004396,-0.579356 LARM_JOINT3:0.952381,0.000000,-0.205606,-0.225161 LLEG_JOINT2:0.998256,0.032031,0.000000,0.049596 LLEG_JOINT4:0.995789,0.090455,0.000000,-0.014903 RARM_JOINT2:0.840188,0.000000,0.466606,0.276338 RARM_JOINT3:0.989747,0.000000,0.131291,-0.056245 RLEG_JOINT2:0.998662,0.014831,0.000000,-0.049542 RLEG_JOINT4:0.992647,0.111224,0.000000,0.047772 WAIST:0.999930,0.000000,-0.006046,-0.010127 WAIST_JOINT0:0.999643,-0.000000,0.026700,0.000660 WAIST_JOINT1:0.998498,0.054533,-0.000000,0.005368 END:
KINECT_DATA_Sensor  AnkleLeft:0.071965,0.726590,-0.101718,-0.675679 AnkleRight:0.085684,0.724028,0.092644,0.678128 ElbowLeft:-0.021813,0.905005,-0.167867,-0.390271 ElbowRight:-0.477477,0.734028,-0.023429,0.482359 FootLeft:0.000000,0.000000,0.000000,0.000000 FootRight:0.000000,0.000000,0.000000,0.000000 HandLeft:-0.199859,0.505288,0.007591,0.839454 HandRight:-0.323378,0.264664,-0.439191,0.795293 HandTipLeft:0.000000,0.000000,0.000000,0.000000 HandTipRight:0.000000,0.000000,0.000000,0.000000 Head:0.000000,0.000000,0.000000,0.000000 HipLeft:0.129577,-0.687173,0.695257,-0.166196 HipRight:-0.120556,0.675539,0.710081,-0.157794 KneeLeft:-0.005540,0.711789,-0.050500,-0.700554 KneeRight:-0.031389,0.701788,0.052834,0.709730 Neck:-0.026930,-0.001837,0.997169,-0.070187 ShoulderLeft:-0.000269,0.789143,-0.612120,0.050617 ShoulderRight:-0.034876,0.788024,0.607628,-0.092680 SpineBase:0.006515,-0.004894,0.999484,-0.031060 SpineMid:-0.010187,-0.004374,0.999454,-0.031137 SpineShoulder:-0.027099,-0.002814,0.998397,-0.049601 ThumbLeft:0.000000,0.000000,0.000000,0.000000 ThumbRight:0.000000,0.000000,0.000000,0.000000 WristLeft:-0.124981,0.517712,-0.115083,0.838516 WristRight:-0.318301,0.272298,-0.463665,0.780739 END:
KINECT_DATA POSITION:44.564507,0.593156,-6.874025 HEAD_JOINT1:0.988837,0.136238,-0.000000,0.060338 LARM_JOINT2:0.815341,0.000000,-0.004572,-0.578963 LARM_JOINT3:0.953491,0.000000,-0.207641,-0.218496 LLEG_JOINT2:0.998250,0.031720,0.000000,0.049909 LLEG_JOINT4:0.995795,0.090677,0.000000,-0.013021 RARM_JOINT2:0.838969,0.000000,0.470771,0.272958 RARM_JOINT3:0.989788,0.000000,0.132185,-0.053364 RLEG_JOINT2:0.998686,0.013245,0.000000,-0.049499 RLEG_JOINT4:0.992778,0.111172,0.000000,0.045082 WAIST:0.999926,0.000000,-0.006882,-0.010078 WAIST_JOINT0:0.999709,-0.000000,0.024097,0.000654 WAIST_JOINT1:0.998482,0.054809,-0.000000,0.005357 END:
KINECT_DATA_Sensor  AnkleLeft:-0.065939,-0.698623,0.106154,0.704492 AnkleRight:0.078206,0.690077,0.097308,0.712888 ElbowLeft:-0.021891,0.905674,-0.168382,-0.388487 ElbowRight:-0.480113,0.734313,-0.025061,0.479216 FootLeft:0.000000,0.000000,0.000000,0.000000 FootRight:0.000000,0.000000,0.000000,0.000000 HandLeft:-0.184234,0.724702,0.038592,0.662855 HandRight:-0.346983,0.331226,-0.425221,0.767514 HandTipLeft:0.000000,0.000000,0.000000,0.000000 HandTipRight:0.000000,0.000000,0.000000,0.000000 Head:0.000000,0.000000,0.000000,0.000000 HipLeft:0.129847,-0.686946,0.695248,-0.166957 HipRight:-0.119916,0.675619,0.710172,-0.157528 KneeLeft:-0.006065,0.712367,-0.050524,-0.699959 KneeRight:-0.032420,0.701153,0.051672,0.710396 Neck:-0.024441,-0.001880,0.997216,-0.070426 ShoulderLeft:-0.000233,0.789012,-0.612197,0.051718 ShoulderRight:-0.031616,0.788425,0.607711,-0.089849 SpineBase:0.007356,-0.004717,0.999469,-0.031399 SpineMid:-0.008524,-0.004217,0.999459,-0.031470 SpineShoulder:-0.024602,-0.002794,0.998449,-0.049873 ThumbLeft:0.000000,0.000000,0.000000,0.000000 ThumbRight:0.000000,0.000000,0.000000,0.000000 WristLeft:-0.152525,0.750259,-0.070796,0.639403 WristRight:-0.352895,0.329518,-0.436388,0.759242 END:
KINECT_DATA POSITION:44.551613,0.601920,-6.973755 HEAD_JOINT1:0.988840,0.136195,-0.000000,0.060391 LARM_JOINT2:0.815560,0.000000,-0.006787,-0.578633 LARM_JOINT3:0.953172,0.000000,-0.205619,-0.221776 LLEG_JOINT2:0.998233,0.031809,0.000000,0.050199 LLEG_JOINT4:0.995961,0.088483,0.000000,-0.015242 RARM_JOINT2:0.837686,0.000000,0.471893,0.274951 RARM_JOINT3:0.983357,0.000000,0.177130,-0.040426 RLEG_JOINT2:0.998694,0.012941,0.000000,-0.049415 RLEG_JOINT4:0.992777,0.111403,0.000000,0.044532 WAIST:0.999940,0.000000,-0.005147,-0.009666 WAIST_JOINT0:0.999687,-0.000000,0.024993,0.000810 WAIST_JOINT1:0.998452,0.055363,-0.000000,0.005290 END:
KINECT_DATA_Sensor  AnkleLeft:-0.065857,-0.698254,0.103428,0.705270 AnkleRight:0.080865,0.712504,0.095057,0.690480 ElbowLeft:-0.022456,0.906342,-0.168618,-0.386792 ElbowRight:-0.478734,0.758934,-0.004238,0.441378 FootLeft:0.000000,0.000000,0.000000,0.000000 FootRight:0.000000,0.000000,0.000000,0.000000 HandLeft:-0.196387,0.501727,-0.008602,0.842394 HandRight:-0.449594,0.740729,0.311495,-0.390072 HandTipLeft:0.000000,0.000000,0.000000,0.000000 HandTipRight:0.000000,0.000000,0.000000,0.000000 Head:0.000000,0.000000,0.000000,0.000000 HipLeft:0.128397,-0.686814,0.695800,-0.166319 HipRight:-0.120630,0.675600,0.709783,-0.158810 KneeLeft:-0.006397,0.711135,-0.051105,-0.701166 KneeRight:-0.032366,0.702397,0.051063,0.709213 Neck:-0.025230,-0.001678,0.997156,-0.070993 ShoulderLeft:0.000529,0.788544,-0.612804,0.051667 ShoulderRight:-0.031898,0.787764,0.608379,-0.091031 SpineBase:0.005618,-0.004381,0.999464,-0.031950 SpineMid:-0.009788,-0.003888,0.999432,-0.032014 SpineShoulder:-0.025388,-0.002573,0.998402,-0.050422 ThumbLeft:0.000000,0.000000,0.000000,0.000000 ThumbRight:0.000000,0.000000,0.000000,0.000000 WristLeft:-0.121407,0.513050,-0.114409,0.841992 WristRight:-0.450346,0.737173,0.344292,-0.367734 END:
KINECT_DATA POSITION:44.247314,0.568489,-7.039702 HEAD_JOINT1:0.989392,0.136356,-0.000000,0.050102 LARM_JOINT2:0.813136,0.000000,-0.010300,-0.581983 LARM_JOINT3:0.954285,0.000000,-0.208588,-0.214082 LLEG_JOINT2:0.998175,0.030863,0.000000,0.051904 LLEG_JOINT4:0.995935,0.089264,0.000000,-0.012047 RARM_JOINT2:0.817196,0.000000,0.537096,0.209090 RARM_JOINT3:0.983064,0.000000,0.177212,0.046692 RLEG_JOINT2:0.998675,0.012226,0.000000,-0.049981 RLEG_JOINT4:0.992518,0.111334,0.000000,0.050118 WAIST:0.999954,0.000000,0.001095,-0.009541 WAIST_JOINT0:0.999246,-0.000000,0.038735,0.002735 WAIST_JOINT1:0.998509,0.053858,-0.000000,0.008893 END:
KINECT_DATA_Sensor  AnkleLeft:-0.062528,-0.691453,0.106660,0.711763 AnkleRight:0.082756,0.712877,0.091802,0.690312 ElbowLeft:-0.026451,0.900802,-0.166438,-0.400192 ElbowRight:-0.531679,0.797825,0.021151,0.283452 FootLeft:0.000000,0.000000,0.000000,0.000000 FootRight:0.000000,0.000000,0.000000,0.000000 HandLeft:-0.186402,0.454484,-0.034891,0.870334 HandRight:-0.404661,0.775002,0.185100,-0.448730 HandTipLeft:0.000000,0.000000,0.000000,0.000000 HandTipRight:0.000000,0.000000,0.000000,0.000000 Head:0.000000,0.000000,0.000000,0.000000 HipLeft:0.124864,-0.687557,0.696500,-0.162978 HipRight:-0.126023,0.675288,0.708670,-0.160910 KneeLeft:-0.007995,0.706704,-0.051817,-0.705564 KneeRight:-0.033466,0.706710,0.050704,0.704890 Neck:-0.039326,0.002293,0.996818,-0.069299 ShoulderLeft:0.006932,0.788514,-0.613636,0.040598 ShoulderRight:-0.043762,0.789590,0.603533,-0.101878 SpineBase:-0.000550,-0.001405,0.999526,-0.030746 SpineMid:-0.019840,-0.000811,0.999329,-0.030768 SpineShoulder:-0.039449,0.001115,0.998025,-0.048876 ThumbLeft:0.000000,0.000000,0.000000,0.000000 ThumbRight:0.000000,0.000000,0.000000,0.000000 WristLeft:-0.112977,0.465106,-0.129653,0.868391 WristRight:-0.513289,0.707336,0.288602,-0.391049 END:
KINECT_DATA POSITION:43.979202,0.551527,-7.123780 HEAD_JOINT1:0.989629,0.139868,-0.000000,0.032743 LARM_JOINT2:0.802499,0.000000,0.007025,-0.596613 LARM_JOINT3:0.957874,0.000000,-0.216888,-0.188249 LLEG_JOINT2:0.998159,0.027991,0.000000,0.053798 LLEG_JOINT4:0.996132,0.087656,0.000000,-0.006066 RARM_JOINT2:0.840076,0.000000,0.526658,0.130014 RARM_JOINT3:0.940930,0.000000,0.298954,0.158985 RLEG_JOINT2:0.998718,0.014125,0.000000,-0.048600 RLEG_JOINT4:0.992197,0.113046,0.000000,0.052584 WAIST:0.999507,0.000000,0.030073,-0.008975 WAIST_JOINT0:0.997063,0.000000,0.076583,-0.000380 WAIST_JOINT1:0.998573,0.049877,-0.000000,0.019075 END:
KINECT_DATA_Sensor  AnkleLeft:-0.056893,-0.671880,0.107882,0.730549 AnkleRight:0.083531,0.715191,0.095937,0.687256 ElbowLeft:-0.017303,0.866022,-0.163992,-0.472031 ElbowRight:-0.541298,0.810596,0.223344,-0.006962 FootLeft:0.000000,0.000000,0.000000,0.000000 FootRight:0.000000,0.000000,0.000000,0.000000 HandLeft:-0.149329,0.644530,-0.028739,0.749304 HandRight:-0.531654,0.720289,0.029567,-0.444582 HandTipLeft:0.000000,0.000000,0.000000,0.000000 HandTipRight:0.000000,0.000000,0.000000,0.000000 Head:0.000000,0.000000,0.000000,0.000000 HipLeft:0.107045,-0.690792,0.700097,-0.145646 HipRight:-0.144816,0.673344,0.704604,-0.170791 KneeLeft:0.010088,-0.685834,0.052034,0.725825 KneeRight:-0.032025,0.726867,0.049945,0.684211 Neck:-0.077385,0.012594,0.994780,-0.065318 ShoulderLeft:0.030495,0.786547,-0.616743,0.006495 ShoulderRight:-0.069645,0.782679,0.605139,-0.127941 SpineBase:-0.029364,0.006488,0.999166,-0.027627 SpineMid:-0.053167,0.007144,0.998182,-0.027465 SpineShoulder:-0.077432,0.010502,0.995926,-0.045010 ThumbLeft:0.000000,0.000000,0.000000,0.000000 ThumbRight:0.000000,0.000000,0.000000,0.000000 WristLeft:-0.124782,0.651029,-0.124251,0.738344 WristRight:-0.503309,0.757523,0.102053,-0.403018 END:
KINECT_DATA POSITION:43.805458,0.681438,-7.209420 HEAD_JOINT1:0.990815,0.132289,-0.000000,0.028008 LARM_JOINT2:0.801027,0.000000,0.011838,-0.598511 LARM_JOINT3:0.957256,0.000000,-0.220031,-0.187740 LLEG_JOINT2:0.998177,0.016904,0.000000,0.057932 LLEG_JOINT4:0.995784,0.091722,0.000000,-0.001158 RARM_JOINT2:0.845757,0.000000,0.504090,0.174894 RARM_JOINT3:0.911201,0.000000,0.390414,0.131487 RLEG_JOINT2:0.998614,0.018380,0.000000,-0.049315 RLEG_JOINT4:0.991468,0.113844,0.000000,0.063483 WAIST:0.997707,0.000000,0.067124,-0.008693 WAIST_JOINT0:0.992745,0.000000,0.119859,-0.009535 WAIST_JOINT1:0.998364,0.049203,-0.000000,0.029138 END:
KINECT_DATA_Sensor  AnkleLeft:-0.050386,-0.648968,0.107893,0.751439 AnkleRight:0.087579,0.713490,0.099504,0.688013 ElbowLeft:-0.013589,0.839091,-0.172915,-0.515599 ElbowRight:-0.534389,0.831127,0.127186,0.086488 FootLeft:0.000000,0.000000,0.000000,0.000000 FootRight:0.000000,0.000000,0.000000,0.000000 HandLeft:-0.149218,0.694318,-0.030805,0.703355 HandRight:0.053820,0.421272,-0.540276,0.726454 HandTipLeft:0.000000,0.000000,0.000000,0.000000 HandTipRight:0.000000,0.000000,0.000000,0.000000 Head:0.000000,0.000000,0.000000,0.000000 HipLeft:0.086074,-0.691633,0.705988,-0.125764 HipRight:-0.170657,0.666520,0.700693,-0.188831 KneeLeft:0.019189,-0.658327,0.048634,0.750914 KneeRight:-0.031146,0.751865,0.052446,0.656490 Neck:-0.119042,0.022285,0.990440,-0.066030 ShoulderLeft:0.058764,0.784833,-0.616226,-0.029151 ShoulderRight:-0.096516,0.764521,0.617373,-0.158248 SpineBase:-0.066251,0.013060,0.997370,-0.026335 SpineMid:-0.092409,0.013747,0.995287,-0.025983 SpineShoulder:-0.119070,0.018946,0.991687,-0.044943 ThumbLeft:0.000000,0.000000,0.000000,0.000000 ThumbRight:0.000000,0.000000,0.000000,0.000000 WristLeft:-0.117188,0.714808,-0.132341,0.676611 WristRight:0.036945,0.402179,-0.567805,0.717276 END:
KINECT_DATA POSITION:43.451141,1.143391,-6.993341 HEAD_JOINT1:0.992456,0.122197,-0.000000,0.009941 LARM_JOINT2:0.787305,0.000000,0.045400,-0.614890 LARM_JOINT3:0.953768,0.000000,-0.240311,-0.180493 LLEG_JOINT2:0.998081,0.011374,0.000000,0.060861 LLEG_JOINT4:0.996065,0.088487,0.000000,0.004961 RARM_JOINT2:0.833419,0.000000,0.502357,0.230325 RARM_JOINT3:0.903250,0.000000,0.418863,0.093235 RLEG_JOINT2:0.998547,0.024275,0.000000,-0.048105 RLEG_JOINT4:0.990572,0.115031,0.000000,0.074401 WAIST:0.994613,0.000000,0.103222,-0.009543 WAIST_JOINT0:0.990116,0.000000,0.139425,-0.015177 WAIST_JOINT1:0.998065,0.044356,-0.000000,0.043567 END:
KINECT_DATA_Sensor  AnkleLeft:-0.044929,-0.638398,0.106155,0.761026 AnkleRight:0.103529,0.776108,0.095527,0.614665 ElbowLeft:0.007244,0.788081,-0.174205,-0.590363 ElbowRight:-0.506149,0.853971,0.044014,0.112286 FootLeft:0.000000,0.000000,0.000000,0.000000 FootRight:0.000000,0.000000,0.000000,0.000000 HandLeft:-0.138446,0.623826,-0.075042,0.765535 HandRight:-0.051728,-0.380771,0.619640,-0.684385 HandTipLeft:0.000000,0.000000,0.000000,0.000000 HandTipRight:0.000000,0.000000,0.000000,0.000000 Head:0.000000,0.000000,0.000000,0.000000 HipLeft:0.066173,-0.695292,0.707216,-0.109705 HipRight:-0.199936,0.660739,0.692688,-0.208884 KneeLeft:0.022723,-0.630783,0.047715,0.774158 KneeRight:-0.028712,0.775441,0.055938,0.628282 Neck:-0.143040,0.034321,0.987145,-0.062496 ShoulderLeft:0.060883,0.776365,-0.626085,-0.039610 ShoulderRight:-0.128970,0.750520,0.621924,-0.182475 SpineBase:-0.102049,0.022759,0.994197,-0.025287 SpineMid:-0.122270,0.023270,0.991914,-0.024819 SpineShoulder:-0.142934,0.030175,0.988357,-0.042530 ThumbLeft:0.000000,0.000000,0.000000,0.000000 ThumbRight:0.000000,0.000000,0.000000,0.000000 WristLeft:-0.082035,0.627835,-0.163169,0.756617 WristRight:-0.102165,-0.425661,0.595554,-0.673565 END:
KINECT_DATA POSITION:43.268269,1.651848,-6.740093 HEAD_JOINT1:0.992626,0.121103,-0.000000,0.005348 LARM_JOINT2:0.789303,0.000000,0.005133,-0.613982 LARM_JOINT3:0.958660,0.000000,-0.224010,-0.175470 LLEG_JOINT2:0.998285,0.003730,0.000000,0.058422 LLEG_JOINT4:0.995737,0.091675,0.000000,0.010180 RARM_JOINT2:0.832890,0.000000,0.495182,0.247162 RARM_JOINT3:0.897994,0.000000,0.429049,0.097588 RLEG_JOINT2:0.998090,0.033145,0.000000,-0.052139 RLEG_JOINT4:0.990471,0.108165,0.000000,0.085245 WAIST:0.990122,0.000000,0.140148,-0.004197 WAIST_JOINT0:0.980617,-0.000000,0.195679,0.010033 WAIST_JOINT1:0.998242,0.038834,-0.000000,0.044765 END:
KINECT_DATA_Sensor  AnkleLeft:0.055700,0.718118,-0.101022,-0.686294 AnkleRight:0.110666,0.799776,0.092671,0.582687 ElbowLeft:-0.019817,0.784172,-0.168484,-0.596904 ElbowRight:-0.497099,0.862316,0.013228,0.095542 FootLeft:0.000000,0.000000,0.000000,0.000000 FootRight:0.000000,0.000000,0.000000,0.000000 HandLeft:-0.142236,0.647773,-0.075372,0.744633 HandRight:-0.122608,-0.508307,0.635839,-0.567715 HandTipLeft:0.000000,0.000000,0.000000,0.000000 HandTipRight:0.000000,0.000000,0.000000,0.000000 Head:0.000000,0.000000,0.000000,0.000000 HipLeft:0.048354,-0.694276,0.712596,-0.088595 HipRight:-0.227542,0.658084,0.680545,-0.228056 KneeLeft:0.029109,-0.601218,0.046009,0.797228 KneeRight:-0.024545,0.799089,0.060857,0.597621 Neck:-0.197203,0.041057,0.977803,-0.057680 ShoulderLeft:0.109899,0.737533,-0.660860,-0.085033 ShoulderRight:-0.158210,0.731463,0.629381,-0.209310 SpineBase:-0.139215,0.028429,0.989622,-0.021430 SpineMid:-0.167890,0.029039,0.985163,-0.020595 SpineShoulder:-0.197096,0.036009,0.978994,-0.037789 ThumbLeft:0.000000,0.000000,0.000000,0.000000 ThumbRight:0.000000,0.000000,0.000000,0.000000 WristLeft:-0.079143,0.650614,-0.179596,0.733609 WristRight:-0.061244,-0.494786,0.599733,-0.625905 END:
KINECT_DATA POSITION:43.227959,1.759995,-6.649256 HEAD_JOINT1:0.992835,0.119494,0.000000,-0.000628 LARM_JOINT2:0.790335,0.000000,0.022727,-0.612253 LARM_JOINT3:0.961147,0.000000,-0.221928,-0.164145 LLEG_JOINT2:0.998458,0.007108,0.000000,0.055058 LLEG_JOINT4:0.996024,0.088690,0.000000,0.008330 RARM_JOINT2:0.806333,0.000000,0.526465,0.269559 RARM_JOINT3:0.905307,0.000000,0.410764,0.108131 RLEG_JOINT2:0.997785,0.031739,0.000000,-0.058458 RLEG_JOINT4:0.989748,0.113518,0.000000,0.086674 WAIST:0.989920,-0.000000,0.141620,0.001211 WAIST_JOINT0:0.977261,-0.000000,0.210437,0.026018 WAIST_JOINT1:0.998291,0.038879,-0.000000,0.043635 END:
KINECT_DATA_Sensor  AnkleLeft:0.056649,0.725225,-0.100216,-0.678820 AnkleRight:0.113719,0.805270,0.094037,0.574252 ElbowLeft:-0.010597,0.777054,-0.178722,-0.603435 ElbowRight:-0.486938,0.870092,-0.028572,0.070811 FootLeft:0.000000,0.000000,0.000000,0.000000 FootRight:0.000000,0.000000,0.000000,0.000000 HandLeft:-0.114133,0.781380,-0.075260,0.608897 HandRight:-0.138378,-0.526422,0.609324,-0.576590 HandTipLeft:0.000000,0.000000,0.000000,0.000000 HandTipRight:0.000000,0.000000,0.000000,0.000000 Head:0.000000,0.000000,0.000000,0.000000 HipLeft:0.047829,-0.690887,0.715919,-0.088587 HipRight:-0.229133,0.661675,0.676274,-0.228776 KneeLeft:0.028136,-0.599801,0.049205,0.798139 KneeRight:-0.026716,0.800077,0.059680,0.596324 Neck:-0.211729,0.045998,0.974569,-0.057180 ShoulderLeft:0.122821,0.713030,-0.684524,-0.089051 ShoulderRight:-0.171211,0.722498,0.633068,-0.218881 SpineBase:-0.140836,0.032151,0.989288,-0.020984 SpineMid:-0.175889,0.032876,0.983661,-0.019828 SpineShoulder:-0.211560,0.040696,0.975823,-0.036824 ThumbLeft:0.000000,0.000000,0.000000,0.000000 ThumbRight:0.000000,0.000000,0.000000,0.000000 WristLeft:-0.093817,0.786474,-0.156489,0.590058 WristRight:-0.092252,-0.507689,0.600408,-0.610944 END:
KINECT_DATA POSITION:43.264629,1.856369,-6.724191 HEAD_JOINT1:0.992817,0.119428,0.000000,-0.007201 LARM_JOINT2:0.789673,0.000000,0.025013,-0.613018 LARM_JOINT3:0.960112,0.000000,-0.220930,-0.171390 LLEG_JOINT2:0.998652,0.004025,0.000000,0.051748 LLEG_JOINT4:0.996104,0.087563,0.000000,0.010427 RARM_JOINT2:0.788858,0.000000,0.535762,0.301101 RARM_JOINT3:0.914390,0.000000,0.392286,0.100011 RLEG_JOINT2:0.997521,0.031056,0.000000,-0.063139 RLEG_JOINT4:0.988658,0.118694,0.000000,0.092017 WAIST:0.988066,-0.000000,0.153974,0.004135 WAIST_JOINT0:0.973711,-0.000000,0.227229,0.015916 WAIST_JOINT1:0.998140,0.040402,-0.000000,0.045651 END:
KINECT_DATA_Sensor  AnkleLeft:-0.035419,-0.589831,0.106530,0.799685 AnkleRight:0.101852,0.716545,0.113134,0.680728 ElbowLeft:-0.003194,0.781346,-0.183485,-0.596507 ElbowRight:-0.462062,0.880999,-0.072256,0.071537 FootLeft:0.000000,0.000000,0.000000,0.000000 FootRight:0.000000,0.000000,0.000000,0.000000 HandLeft:-0.113163,0.787337,-0.088170,0.599601 HandRight:-0.153294,-0.543654,0.606963,-0.559051 HandTipLeft:0.000000,0.000000,0.000000,0.000000 HandTipRight:0.000000,0.000000,0.000000,0.000000 Head:0.000000,0.000000,0.000000,0.000000 HipLeft:0.036847,-0.689780,0.718657,-0.079862 HipRight:-0.234438,0.661612,0.672567,-0.234441 KneeLeft:0.030131,-0.589861,0.047121,0.805565 KneeRight:-0.029589,0.807445,0.059483,0.586190 Neck:-0.226296,0.050838,0.970891,-0.059798 ShoulderLeft:0.126106,0.712034,-0.684570,-0.092024 ShoulderRight:-0.193360,0.701787,0.644385,-0.234252 SpineBase:-0.153184,0.034982,0.987330,-0.022124 SpineMid:-0.189297,0.035770,0.981047,-0.020826 SpineShoulder:-0.226120,0.044916,0.972303,-0.038456 ThumbLeft:0.000000,0.000000,0.000000,0.000000 ThumbRight:0.000000,0.000000,0.000000,0.000000 WristLeft:-0.091635,0.791185,-0.148245,0.586219 WristRight:-0.092799,-0.517553,0.599686,-0.603244 END:
KINECT_DATA POSITION:43.406033,1.935285,-6.864321 HEAD_JOINT1:0.993019,0.117020,0.000000,-0.014786 LARM_JOINT2:0.775816,0.000000,0.036460,-0.629905 LARM_JOINT3:0.962149,0.000000,-0.241373,-0.126525 LLEG_JOINT2:0.998860,0.000231,0.000000,0.047725 LLEG_JOINT4:0.996224,0.085491,0.000000,0.015131 RARM_JOINT2:0.763419,0.000000,0.557903,0.325478 RARM_JOINT3:0.930243,0.000000,0.360193,0.070056 RLEG_JOINT2:0.997235,0.031923,0.000000,-0.067107 RLEG_JOINT4:0.988511,0.117461,0.000000,0.095125 WAIST:0.985537,-0.000000,0.169346,0.006267 WAIST_JOINT0:0.970440,-0.000000,0.240118,0.024266 WAIST_JOINT1:0.997989,0.041573,-0.000000,0.047844 END:
KINECT_DATA_Sensor  AnkleLeft:-0.031061,-0.583228,0.104475,0.804963 AnkleRight:0.116291,0.817152,0.097439,0.556098 ElbowLeft:-0.001687,0.712280,-0.170383,-0.680899 ElbowRight:-0.438301,0.884910,-0.135419,0.080546 FootLeft:0.000000,0.000000,0.000000,0.000000 FootRight:0.000000,0.000000,0.000000,0.000000 HandLeft:-0.100021,0.722434,-0.150663,0.667372 HandRight:-0.104871,-0.598029,0.624311,-0.491527 HandTipLeft:0.000000,0.000000,0.000000,0.000000 HandTipRight:0.000000,0.000000,0.000000,0.000000 Head:0.000000,0.000000,0.000000,0.000000 HipLeft:0.024124,-0.689950,0.719885,-0.071777 HipRight:-0.242597,0.660632,0.667546,-0.243094 KneeLeft:0.031713,-0.577547,0.043583,0.814576 KneeRight:-0.031779,0.816504,0.060474,0.573283 Neck:-0.239009,0.054149,0.967534,-0.061815 ShoulderLeft:0.141589,0.698828,-0.694013,-0.099685 ShoulderRight:-0.198646,0.697966,0.644329,-0.241295 SpineBase:-0.168426,0.039294,0.984630,-0.024353 SpineMid:-0.203250,0.040133,0.978035,-0.022944 SpineShoulder:-0.238805,0.048322,0.969021,-0.040445 ThumbLeft:0.000000,0.000000,0.000000,0.000000 ThumbRight:0.000000,0.000000,0.000000,0.000000 WristLeft:-0.044413,0.731154,-0.178684,0.656897 WristRight:-0.034780,-0.570290,0.612064,-0.546751 END:
KINECT_DATA POSITION:43.438942,1.929389,-6.996799 HEAD_JOINT1:0.992385,0.122788,0.000000,-0.009776 LARM_JOINT2:0.776883,0.000000,0.038347,-0.628477 LARM_JOINT3:0.960040,0.000000,-0.248729,-0.128287 LLEG_JOINT2:0.998873,-0.000594,0.000000,0.047470 LLEG_JOINT4:0.996373,0.084056,0.000000,0.013282 RARM_JOINT2:0.764450,0.000000,0.556100,0.326142 RARM_JOINT3:0.932297,0.000000,0.355597,0.066130 RLEG_JOINT2:0.997242,0.033643,0.000000,-0.066160 RLEG_JOINT4:0.989107,0.114102,0.000000,0.092990 WAIST:0.985156,-0.000000,0.171534,0.006543 WAIST_JOINT0:0.970879,-0.000000,0.238853,0.018500 WAIST_JOINT1:0.998107,0.041221,-0.000000,0.045651 END:
KINECT_DATA_Sensor  AnkleLeft:-0.030713,-0.584151,0.101502,0.804688 AnkleRight:0.113953,0.816831,0.097319,0.557074 ElbowLeft:0.001063,0.715804,-0.170629,-0.677133 ElbowRight:-0.438520,0.885344,-0.133251,0.078168 FootLeft:0.000000,0.000000,0.000000,0.000000 FootRight:0.000000,0.000000,0.000000,0.000000 HandLeft:-0.114721,0.781969,-0.166423,0.589633 HandRight:-0.121525,-0.561369,0.613155,-0.542345 HandTipLeft:0.000000,0.000000,0.000000,0.000000 HandTipRight:0.000000,0.000000,0.000000,0.000000 Head:0.000000,0.000000,0.000000,0.000000 HipLeft:0.023067,-0.690447,0.719480,-0.071407 HipRight:-0.243488,0.660708,0.666492,-0.244881 KneeLeft:0.032348,-0.575774,0.043158,0.815828 KneeRight:-0.029952,0.817901,0.061059,0.571325 Neck:-0.237294,0.051215,0.968157,-0.061154 ShoulderLeft:0.135416,0.706612,-0.687665,-0.097358 ShoulderRight:-0.201264,0.697047,0.643892,-0.242943 SpineBase:-0.170609,0.039218,0.984245,-0.024813 SpineMid:-0.203439,0.040026,0.977987,-0.023487 SpineShoulder:-0.237056,0.046416,0.969551,-0.040256 ThumbLeft:0.000000,0.000000,0.000000,0.000000 ThumbRight:0.000000,0.000000,0.000000,0.000000 WristLeft:-0.066505,0.790156,-0.172186,0.584451 WristRight:-0.073198,-0.539477,0.609128,-0.576688 END:
KINECT_DATA POSITION:43.479530,1.947604,-7.073677 HEAD_JOINT1:0.991933,0.126630,0.000000,-0.005795 LARM_JOINT2:0.774052,0.000000,0.034367,-0.632189 LARM_JOINT3:0.962223,0.000000,-0.243585,-0.121627 LLEG_JOINT2:0.998887,-0.000167,0.000000,0.047171 LLEG_JOINT4:0.996521,0.082563,0.000000,0.011390 RARM_JOINT2:0.761236,0.000000,0.558436,0.329650 RARM_JOINT3:0.936662,0.000000,0.345646,0.056500 RLEG_JOINT2:0.997162,0.034557,0.000000,-0.066887 RLEG_JOINT4:0.989120,0.113570,0.000000,0.093506 WAIST:0.985366,-0.000000,0.170302,0.007204 WAIST_JOINT0:0.970773,-0.000000,0.239246,0.018999 WAIST_JOINT1:0.998190,0.041262,-0.000000,0.043748 END:
KINECT_DATA_Sensor  AnkleLeft:-0.030329,-0.584151,0.099661,0.804932 AnkleRight:0.097806,0.717691,0.114009,0.679967 ElbowLeft:-0.002448,0.706560,-0.164110,-0.688356 ElbowRight:-0.435543,0.885312,-0.139441,0.084147 FootLeft:0.000000,0.000000,0.000000,0.000000 FootRight:0.000000,0.000000,0.000000,0.000000 HandLeft:-0.126524,0.765810,-0.152061,0.611886 HandRight:-0.101788,-0.559247,0.616385,-0.544932 HandTipLeft:0.000000,0.000000,0.000000,0.000000 HandTipRight:0.000000,0.000000,0.000000,0.000000 Head:0.000000,0.000000,0.000000,0.000000 HipLeft:0.024830,-0.690228,0.719476,-0.072954 HipRight:-0.243030,0.661422,0.665927,-0.244944 KneeLeft:0.032344,-0.576730,0.043590,0.815130 KneeRight:-0.029462,0.817245,0.061805,0.572208 Neck:-0.237183,0.049999,0.968274,-0.060736 ShoulderLeft:0.135193,0.705716,-0.688754,-0.096466 ShoulderRight:-0.201715,0.696326,0.644460,-0.243132 SpineBase:-0.169427,0.038844,0.984467,-0.024720 SpineMid:-0.202780,0.039661,0.978141,-0.023386 SpineShoulder:-0.236957,0.045312,0.969639,-0.039990 ThumbLeft:0.000000,0.000000,0.000000,0.000000 ThumbRight:0.000000,0.000000,0.000000,0.000000 WristLeft:-0.057172,0.777602,-0.175269,0.601121 WristRight:-0.061481,-0.542139,0.609245,-0.575435 END:
KINECT_DATA POSITION:43.493713,1.957722,-7.084084 HEAD_JOINT1:0.991905,0.126847,0.000000,-0.005862 LARM_JOINT2:0.773710,0.000000,0.030708,-0.632795 LARM_JOINT3:0.962735,0.000000,-0.240928,-0.122863 LLEG_JOINT2:0.998873,-0.000795,0.000000,0.047452 LLEG_JOINT4:0.996349,0.084181,0.000000,0.014244 RARM_JOINT2:0.760046,0.000000,0.559719,0.330220 RARM_JOINT3:0.938807,0.000000,0.339926,0.055594 RLEG_JOINT2:0.997214,0.034974,0.000000,-0.065885 RLEG_JOINT4:0.989248,0.113791,0.000000,0.091866 WAIST:0.985515,-0.000000,0.169443,0.006956 WAIST_JOINT0:0.971544,-0.000000,0.236358,0.015400 WAIST_JOINT1:0.998145,0.041811,-0.000000,0.044265 END:
KINECT_DATA_Sensor  AnkleLeft:-0.029685,-0.586198,0.102593,0.803097 AnkleRight:0.114359,0.815539,0.098121,0.558740 ElbowLeft:-0.003157,0.713185,-0.162949,-0.681766 ElbowRight:-0.434276,0.885272,-0.141964,0.086858 FootLeft:0.000000,0.000000,0.000000,0.000000 FootRight:0.000000,0.000000,0.000000,0.000000 HandLeft:-0.117684,0.742331,-0.154514,0.641265 HandRight:-0.108117,-0.556565,0.612340,-0.550987 HandTipLeft:0.000000,0.000000,0.000000,0.000000 HandTipRight:0.000000,0.000000,0.000000,0.000000 Head:0.000000,0.000000,0.000000,0.000000 HipLeft:0.025516,-0.690527,0.719067,-0.073921 HipRight:-0.242678,0.661512,0.666043,-0.244736 KneeLeft:0.032875,-0.577474,0.043260,0.814599 KneeRight:-0.028518,0.816781,0.061770,0.572923 Neck:-0.234222,0.050402,0.968918,-0.061628 ShoulderLeft:0.131932,0.709787,-0.685470,-0.094489 ShoulderRight:-0.200370,0.695810,0.645866,-0.241986 SpineBase:-0.168550,0.038876,0.984612,-0.024857 SpineMid:-0.200871,0.039673,0.978530,-0.023563 SpineShoulder:-0.234015,0.045383,0.970324,-0.040603 ThumbLeft:0.000000,0.000000,0.000000,0.000000 ThumbRight:0.000000,0.000000,0.000000,0.000000 WristLeft:-0.053624,0.753123,-0.175016,0.631902 WristRight:-0.061542,-0.535436,0.606589,-0.584441 END:
KINECT_DATA POSITION:43.523998,1.968693,-7.069671 HEAD_JOINT1:0.991835,0.127382,0.000000,-0.006080 LARM_JOINT2:0.772900,0.000000,0.027407,-0.633936 LARM_JOINT3:0.963027,0.000000,-0.239868,-0.122649 LLEG_JOINT2:0.998898,-0.001013,0.000000,0.046916 LLEG_JOINT4:0.996397,0.084147,0.000000,0.010559 RARM_JOINT2:0.759839,0.000000,0.560324,0.329668 RARM_JOINT3:0.937284,0.000000,0.344467,0.053304 RLEG_JOINT2:0.997182,0.034877,0.000000,-0.066421 RLEG_JOINT4:0.989130,0.114304,0.000000,0.092498 WAIST:0.985670,-0.000000,0.168533,0.007108 WAIST_JOINT0:0.971655,-0.000000,0.235956,0.014502 WAIST_JOINT1:0.998106,0.042680,-0.000000,0.044299 END:
KINECT_DATA_Sensor  AnkleLeft:0.049481,0.725855,-0.091519,-0.679934 AnkleRight:0.099247,0.724059,0.113964,0.672980 ElbowLeft:-0.004481,0.713939,-0.161238,-0.681376 ElbowRight:-0.433918,0.885233,-0.142300,0.088473 FootLeft:0.000000,0.000000,0.000000,0.000000 FootRight:0.000000,0.000000,0.000000,0.000000 HandLeft:-0.129863,0.753834,-0.148741,0.626695 HandRight:-0.115460,-0.552133,0.621821,-0.543283 HandTipLeft:0.000000,0.000000,0.000000,0.000000 HandTipRight:0.000000,0.000000,0.000000,0.000000 Head:0.000000,0.000000,0.000000,0.000000 HipLeft:0.026141,-0.690349,0.719082,-0.075210 HipRight:-0.242288,0.661650,0.666049,-0.244733 KneeLeft:0.032885,-0.578271,0.042779,0.814058 KneeRight:-0.028844,0.816226,0.061926,0.573680 Neck:-0.233936,0.050529,0.968929,-0.062422 ShoulderLeft:0.132164,0.710802,-0.684397,-0.094310 ShoulderRight:-0.199590,0.695658,0.646210,-0.242150 SpineBase:-0.167628,0.039096,0.984751,-0.025258 SpineMid:-0.200255,0.039914,0.978638,-0.023945 SpineShoulder:-0.233729,0.045563,0.970351,-0.041394 ThumbLeft:0.000000,0.000000,0.000000,0.000000 ThumbRight:0.000000,0.000000,0.000000,0.000000 WristLeft:-0.057323,0.766487,-0.173321,0.615769 WristRight:-0.061677,-0.533236,0.606354,-0.586678 END:
KINECT_DATA POSITION:43.584251,1.962210,-7.051015 HEAD_JOINT1:0.991839,0.127227,0.000000,-0.008347 LARM_JOINT2:0.772851,0.000000,0.033977,-0.633677 LARM_JOINT3:0.962345,0.000000,-0.243568,-0.120695 LLEG_JOINT2:0.998911,-0.000261,0.000000,0.046645 LLEG_JOINT4:0.996236,0.086048,0.000000,0.010426 RARM_JOINT2:0.758229,0.000000,0.563339,0.328235 RARM_JOINT3:0.937463,0.000000,0.343823,0.054305 RLEG_JOINT2:0.997121,0.035010,0.000000,-0.067254 RLEG_JOINT4:0.988850,0.115098,0.000000,0.094487 WAIST:0.985658,-0.000000,0.168597,0.007323 WAIST_JOINT0:0.971701,-0.000000,0.235704,0.015518 WAIST_JOINT1:0.998002,0.044034,-0.000000,0.045312 END:
KINECT_DATA_Sensor  AnkleLeft:-0.033836,-0.586160,0.100438,0.803233 AnkleRight:0.116541,0.814876,0.098025,0.559273 ElbowLeft:-0.000344,0.708222,-0.164917,-0.686457 ElbowRight:-0.433172,0.884791,-0.146473,0.089736 FootLeft:0.000000,0.000000,0.000000,0.000000 FootRight:0.000000,0.000000,0.000000,0.000000 HandLeft:-0.098409,0.761977,-0.139319,0.624738 HandRight:-0.120677,-0.560278,0.619854,-0.536010 HandTipLeft:0.000000,0.000000,0.000000,0.000000 HandTipRight:0.000000,0.000000,0.000000,0.000000 Head:0.000000,0.000000,0.000000,0.000000 HipLeft:0.025648,-0.690337,0.719055,-0.075746 HipRight:-0.242123,0.661826,0.665814,-0.245060 KneeLeft:0.032263,-0.578249,0.043148,0.814079 KneeRight:-0.029297,0.816244,0.062363,0.573584 Neck:-0.233780,0.051859,0.968788,-0.064087 ShoulderLeft:0.134355,0.710782,-0.683885,-0.095074 ShoulderRight:-0.196724,0.697363,0.645401,-0.241747 SpineBase:-0.167663,0.039642,0.984708,-0.025839 SpineMid:-0.200205,0.040477,0.978611,-0.024511 SpineShoulder:-0.233588,0.046548,0.970279,-0.042771 ThumbLeft:0.000000,0.000000,0.000000,0.000000 ThumbRight:0.000000,0.000000,0.000000,0.000000 WristLeft:-0.060525,0.767067,-0.177802,0.613459 WristRight:-0.058305,-0.534739,0.607277,-0.584696 END:
KINECT_DATA POSITION:43.609966,1.963224,-7.052588 HEAD_JOINT1:0.992087,0.125175,0.000000,-0.009681 LARM_JOINT2:0.773726,0.000000,0.033041,-0.632659 LARM_JOINT3:0.960772,0.000000,-0.242788,-0.134055 LLEG_JOINT2:0.998948,-0.000522,0.000000,0.045862 LLEG_JOINT4:0.996344,0.084118,0.000000,0.014944 RARM_JOINT2:0.756702,0.000000,0.565726,0.327652 RARM_JOINT3:0.937063,0.000000,0.345018,0.053631 RLEG_JOINT2:0.997055,0.035665,0.000000,-0.067894 RLEG_JOINT4:0.988923,0.114280,0.000000,0.094713 WAIST:0.985585,-0.000000,0.168994,0.007900 WAIST_JOINT0:0.971636,-0.000000,0.235934,0.016090 WAIST_JOINT1:0.997926,0.045374,-0.000000,0.045655 END:
KINECT_DATA_Sensor  AnkleLeft:0.050602,0.742390,-0.094133,-0.661389 AnkleRight:0.100076,0.719705,0.114485,0.677423 ElbowLeft:0.000729,0.713771,-0.167191,-0.680130 ElbowRight:-0.431830,0.884658,-0.150422,0.090976 FootLeft:0.000000,0.000000,0.000000,0.000000 FootRight:0.000000,0.000000,0.000000,0.000000 HandLeft:-0.132146,0.753893,-0.118245,0.632614 HandRight:0.027413,0.640147,-0.634368,0.432477 HandTipLeft:0.000000,0.000000,0.000000,0.000000 HandTipRight:0.000000,0.000000,0.000000,0.000000 Head:0.000000,0.000000,0.000000,0.000000 HipLeft:0.024486,-0.689910,0.719418,-0.076569 HipRight:-0.241707,0.661902,0.665539,-0.246010 KneeLeft:0.032412,-0.578019,0.042779,0.814256 KneeRight:-0.029059,0.816482,0.062848,0.573204 Neck:-0.234193,0.052590,0.968563,-0.065373 ShoulderLeft:0.137583,0.710093,-0.683754,-0.096539 ShoulderRight:-0.193861,0.697961,0.645835,-0.241176 SpineBase:-0.168021,0.040258,0.984587,-0.027154 SpineMid:-0.200596,0.041136,0.978470,-0.025803 SpineShoulder:-0.233999,0.047315,0.970081,-0.044136 ThumbLeft:0.000000,0.000000,0.000000,0.000000 ThumbRight:0.000000,0.000000,0.000000,0.000000 WristLeft:-0.061669,0.767345,-0.175186,0.613749 WristRight:-0.045163,0.625180,-0.609074,0.485942 END:
KINECT_DATA POSITION:43.627987,1.956265,-7.059550 HEAD_JOINT1:0.991459,0.130185,0.000000,-0.007742 LARM_JOINT2:0.776613,0.000000,0.034148,-0.629051 LARM_JOINT3:0.960006,0.000000,-0.242936,-0.139180 LLEG_JOINT2:0.998979,-0.000827,0.000000,0.045168 LLEG_JOINT4:0.996310,0.084325,0.000000,0.015999 RARM_JOINT2:0.770555,0.000000,0.554921,0.313540 RARM_JOINT3:0.923545,0.000000,0.375271,0.078973 RLEG_JOINT2:0.997028,0.036948,0.000000,-0.067603 RLEG_JOINT4:0.989781,0.110116,0.000000,0.090595 WAIST:0.985139,-0.000000,0.171563,0.008205 WAIST_JOINT0:0.971509,-0.000000,0.236399,0.016899 WAIST_JOINT1:0.998045,0.044075,-0.000000,0.044307 END:
KINECT_DATA_Sensor  AnkleLeft:-0.029677,-0.586469,0.102974,0.802851 AnkleRight:0.111321,0.815752,0.098154,0.559037 ElbowLeft:0.001972,0.721994,-0.170186,-0.670640 ElbowRight:-0.448382,0.884260,-0.115627,0.060565 FootLeft:0.000000,0.000000,0.000000,0.000000 FootRight:0.000000,0.000000,0.000000,0.000000 HandLeft:-0.122074,0.751337,-0.132018,0.634950 HandRight:-0.116120,-0.576599,0.620332,-0.518881 HandTipLeft:0.000000,0.000000,0.000000,0.000000 HandTipRight:0.000000,0.000000,0.000000,0.000000 Head:0.000000,0.000000,0.000000,0.000000 HipLeft:0.022476,-0.690095,0.719564,-0.074104 HipRight:-0.242804,0.661832,0.664821,-0.247057 KneeLeft:0.032382,-0.575882,0.042321,0.815795 KneeRight:-0.028033,0.818080,0.063424,0.570908 Neck:-0.234333,0.051049,0.968728,-0.063626 ShoulderLeft:0.135956,0.710300,-0.683931,-0.096065 ShoulderRight:-0.195436,0.698758,0.644294,-0.241719 SpineBase:-0.170615,0.040129,0.984152,-0.026912 SpineMid:-0.201957,0.040968,0.978202,-0.025617 SpineShoulder:-0.234121,0.046291,0.970149,-0.043073 ThumbLeft:0.000000,0.000000,0.000000,0.000000 ThumbRight:0.000000,0.000000,0.000000,0.000000 WristLeft:-0.063345,0.761499,-0.172879,0.621466 WristRight:-0.072789,-0.561474,0.610802,-0.553506 END:
KINECT_DATA POSITION:43.625080,1.946109,-7.106364 HEAD_JOINT1:0.991363,0.130882,0.000000,-0.008360 LARM_JOINT2:0.777450,0.000000,0.030975,-0.628182 LARM_JOINT3:0.961005,0.000000,-0.236807,-0.142800 LLEG_JOINT2:0.998992,-0.001501,0.000000,0.044859 LLEG_JOINT4:0.996154,0.086260,0.000000,0.015356 RARM_JOINT2:0.760678,0.000000,0.564086,0.321211 RARM_JOINT3:0.932018,0.000000,0.356493,0.065225 RLEG_JOINT2:0.996969,0.037693,0.000000,-0.068059 RLEG_JOINT4:0.989442,0.110402,0.000000,0.093894 WAIST:0.984906,-0.000000,0.172901,0.008102 WAIST_JOINT0:0.971537,-0.000000,0.236320,0.016394 WAIST_JOINT1:0.998031,0.043976,-0.000000,0.044720 END:
KINECT_DATA_Sensor  AnkleLeft:-0.031576,-0.586204,0.102721,0.803005 AnkleRight:0.113869,0.815390,0.097648,0.559141 ElbowLeft:0.000808,0.727311,-0.170668,-0.664748 ElbowRight:-0.440342,0.884108,-0.138922,0.071784 FootLeft:0.000000,0.000000,0.000000,0.000000 FootRight:0.000000,0.000000,0.000000,0.000000 HandLeft:-0.128538,0.772413,-0.116402,0.610988 HandRight:-0.135105,-0.565884,0.617282,-0.529608 HandTipLeft:0.000000,0.000000,0.000000,0.000000 HandTipRight:0.000000,0.000000,0.000000,0.000000 Head:0.000000,0.000000,0.000000,0.000000 HipLeft:0.021176,-0.690294,0.719531,-0.072948 HipRight:-0.243212,0.661596,0.664719,-0.247563 KneeLeft:0.032634,-0.574818,0.041646,0.816569 KneeRight:-0.028134,0.818876,0.064327,0.569660 Neck:-0.234323,0.051372,0.968701,-0.063806 ShoulderLeft:0.135175,0.710612,-0.683857,-0.095380 ShoulderRight:-0.196438,0.698163,0.644409,-0.242319 SpineBase:-0.171940,0.040152,0.983918,-0.027034 SpineMid:-0.202628,0.040978,0.978059,-0.025765 SpineShoulder:-0.234119,0.046436,0.970141,-0.043109 ThumbLeft:0.000000,0.000000,0.000000,0.000000 ThumbRight:0.000000,0.000000,0.000000,0.000000 WristLeft:-0.068323,0.783075,-0.167643,0.594997 WristRight:-0.076449,-0.540550,0.609666,-0.574690 END:
KINECT_DATA POSITION:43.629337,1.935503,-7.150280 HEAD_JOINT1:0.991430,0.130429,0.000000,-0.007431 LARM_JOINT2:0.777408,0.000000,0.029864,-0.628288 LARM_JOINT3:0.958670,0.000000,-0.242823,-0.148286 LLEG_JOINT2:0.999037,-0.002121,0.000000,0.043825 LLEG_JOINT4:0.996090,0.086701,0.000000,0.016961 RARM_JOINT2:0.751781,0.000000,0.571345,0.329227 RARM_JOINT3:0.940491,0.000000,0.335969,0.050999 RLEG_JOINT2:0.996938,0.037060,0.000000,-0.068858 RLEG_JOINT4:0.989679,0.109252,0.000000,0.092732 WAIST:0.984938,-0.000000,0.172699,0.008495 WAIST_JOINT0:0.971681,-0.000000,0.235745,0.016142 WAIST_JOINT1:0.998011,0.044585,-0.000000,0.044571 END:
KINECT_DATA_Sensor  AnkleLeft:-0.030896,-0.586900,0.103369,0.802440 AnkleRight:0.111492,0.815392,0.097129,0.559706 ElbowLeft:0.000693,0.728595,-0.170693,-0.663335 ElbowRight:-0.430486,0.883979,-0.160194,0.087176 FootLeft:0.000000,0.000000,0.000000,0.000000 FootRight:0.000000,0.000000,0.000000,0.000000 HandLeft:-0.151917,0.771247,-0.121429,0.606098 HandRight:-0.126313,-0.567045,0.615072,-0.533097 HandTipLeft:0.000000,0.000000,0.000000,0.000000 HandTipRight:0.000000,0.000000,0.000000,0.000000 Head:0.000000,0.000000,0.000000,0.000000 HipLeft:0.021179,-0.689986,0.719781,-0.073383 HipRight:-0.242894,0.661810,0.664573,-0.247696 KneeLeft:0.032833,-0.575031,0.040717,0.816458 KneeRight:-0.028867,0.818710,0.063997,0.569898 Neck:-0.233633,0.051535,0.968811,-0.064543 ShoulderLeft:0.134658,0.711844,-0.682750,-0.094852 ShoulderRight:-0.195628,0.698977,0.643757,-0.242358 SpineBase:-0.171745,0.040256,0.983939,-0.027341 SpineMid:-0.202183,0.041084,0.978138,-0.026080 SpineShoulder:-0.233427,0.046594,0.970277,-0.043639 ThumbLeft:0.000000,0.000000,0.000000,0.000000 ThumbRight:0.000000,0.000000,0.000000,0.000000 WristLeft:-0.072909,0.786639,-0.168202,0.589568 WristRight:-0.061481,-0.536136,0.609711,-0.580543 END:
KINECT_DATA POSITION:43.632568,1.937443,-7.140076 HEAD_JOINT1:0.991161,0.132536,0.000000,-0.005917 LARM_JOINT2:0.778488,0.000000,0.026754,-0.627090 LARM_JOINT3:0.959945,0.000000,-0.238917,-0.146373 LLEG_JOINT2:0.999052,-0.002143,0.000000,0.043484 LLEG_JOINT4:0.996123,0.086375,0.000000,0.016685 RARM_JOINT2:0.766634,0.000000,0.559466,0.315072 RARM_JOINT3:0.927335,0.000000,0.367054,0.072944 RLEG_JOINT2:0.996894,0.036610,0.000000,-0.069735 RLEG_JOINT4:0.989481,0.109929,0.000000,0.094040 WAIST:0.984803,-0.000000,0.173436,0.009057 WAIST_JOINT0:0.971181,-0.000000,0.237400,0.021187 WAIST_JOINT1:0.998081,0.044035,-0.000000,0.043525 END:
KINECT_DATA_Sensor  AnkleLeft:-0.030599,-0.586064,0.103052,0.803102 AnkleRight:0.112326,0.815930,0.096686,0.558832 ElbowLeft:-0.001608,0.731467,-0.170651,-0.660175 ElbowRight:-0.447257,0.884029,-0.122925,0.057827 FootLeft:0.000000,0.000000,0.000000,0.000000 FootRight:0.000000,0.000000,0.000000,0.000000 HandLeft:-0.149428,0.760702,-0.127080,0.618753 HandRight:-0.105954,-0.572259,0.619531,-0.526759 HandTipLeft:0.000000,0.000000,0.000000,0.000000 HandTipRight:0.000000,0.000000,0.000000,0.000000 Head:0.000000,0.000000,0.000000,0.000000 HipLeft:0.021079,-0.689539,0.720280,-0.072721 HipRight:-0.243406,0.661952,0.664117,-0.248035 KneeLeft:0.033029,-0.574364,0.040841,0.816913 KneeRight:-0.029503,0.819125,0.063711,0.569302 Neck:-0.235035,0.050962,0.968568,-0.063543 ShoulderLeft:0.137312,0.705991,-0.688292,-0.094739 ShoulderRight:-0.195937,0.699394,0.643124,-0.242585 SpineBase:-0.172528,0.040127,0.983816,-0.027013 SpineMid:-0.203278,0.040954,0.977925,-0.025743 SpineShoulder:-0.234824,0.046219,0.969984,-0.043037 ThumbLeft:0.000000,0.000000,0.000000,0.000000 ThumbRight:0.000000,0.000000,0.000000,0.000000 WristLeft:-0.067123,0.776454,-0.167870,0.603683 WristRight:-0.075617,-0.562235,0.612009,-0.551015 END:
KINECT_DATA POSITION:43.648022,1.932038,-7.130647 HEAD_JOINT1:0.991890,0.126781,0.000000,-0.008967 LARM_JOINT2:0.775095,0.000000,0.023625,-0.631403 LARM_JOINT3:0.962010,0.000000,-0.235716,-0.137745 LLEG_JOINT2:0.999066,-0.001375,0.000000,0.043178 LLEG_JOINT4:0.996292,0.084591,0.000000,0.015680 RARM_JOINT2:0.759681,0.000000,0.563829,0.324009 RARM_JOINT3:0.936353,0.000000,0.345740,0.060884 RLEG_JOINT2:0.996889,0.036935,0.000000,-0.069632 RLEG_JOINT4:0.989447,0.110405,0.000000,0.093836 WAIST:0.984859,-0.000000,0.173100,0.009404 WAIST_JOINT0:0.971545,-0.000000,0.236111,0.018778 WAIST_JOINT1:0.997939,0.045611,-0.000000,0.045149 END:
KINECT_DATA_Sensor  AnkleLeft:-0.030245,-0.586842,0.101656,0.802725 AnkleRight:0.112926,0.815285,0.097178,0.559566 ElbowLeft:-0.002456,0.727587,-0.167126,-0.665343 ElbowRight:-0.435233,0.885076,-0.144573,0.079448 FootLeft:0.000000,0.000000,0.000000,0.000000 FootRight:0.000000,0.000000,0.000000,0.000000 HandLeft:-0.135755,0.778600,-0.120125,0.600769 HandRight:-0.108326,-0.575250,0.608015,-0.536349 HandTipLeft:0.000000,0.000000,0.000000,0.000000 HandTipRight:0.000000,0.000000,0.000000,0.000000 Head:0.000000,0.000000,0.000000,0.000000 HipLeft:0.020593,-0.689198,0.720509,-0.073818 HipRight:-0.242952,0.662071,0.664053,-0.248334 KneeLeft:0.032477,-0.574697,0.041268,0.816680 KneeRight:-0.028964,0.818946,0.063683,0.569590 Neck:-0.234286,0.053143,0.968493,-0.065626 ShoulderLeft:0.138372,0.708490,-0.685362,-0.095782 ShoulderRight:-0.193272,0.699564,0.644059,-0.241752 SpineBase:-0.172152,0.040885,0.983824,-0.027965 SpineMid:-0.202733,0.041737,0.977980,-0.026677 SpineShoulder:-0.234090,0.047868,0.970008,-0.044654 ThumbLeft:0.000000,0.000000,0.000000,0.000000 ThumbRight:0.000000,0.000000,0.000000,0.000000 WristLeft:-0.069841,0.790375,-0.166896,0.585300 WristRight:-0.061392,-0.549434,0.611632,-0.565915 END:
KINECT_DATA POSITION:43.703033,1.993401,-7.086051 HEAD_JOINT1:0.991734,0.128007,0.000000,-0.008850 LARM_JOINT2:0.784923,0.000000,-0.009646,-0.619519 LARM_JOINT3:0.964811,0.000000,-0.198305,-0.172669 LLEG_JOINT2:0.998888,0.000351,0.000000,0.047141 LLEG_JOINT4:0.996310,0.085300,0.000000,0.009467 RARM_JOINT2:0.821246,0.000000,0.476059,0.314520 RARM_JOINT3:0.886191,0.000000,0.426699,0.180535 RLEG_JOINT2:0.996979,0.036177,0.000000,-0.068733 RLEG_JOINT4:0.989696,0.109660,0.000000,0.092067 WAIST:0.986176,-0.000000,0.165552,0.007053 WAIST_JOINT0:0.972931,-0.000000,0.230746,0.012711 WAIST_JOINT1:0.997887,0.045516,-0.000000,0.046357 END:
KINECT_DATA_Sensor  AnkleLeft:-0.033972,-0.589478,0.099873,0.800867 AnkleRight:0.110893,0.813399,0.096918,0.562754 ElbowLeft:-0.012026,0.807984,-0.173023,-0.563099 ElbowRight:-0.437061,0.898095,-0.005338,0.048727 FootLeft:0.000000,0.000000,0.000000,0.000000 FootRight:0.000000,0.000000,0.000000,0.000000 HandLeft:-0.175163,0.795967,-0.085557,0.573091 HandRight:0.142315,0.603443,-0.551920,0.557662 HandTipLeft:0.000000,0.000000,0.000000,0.000000 HandTipRight:0.000000,0.000000,0.000000,0.000000 Head:0.000000,0.000000,0.000000,0.000000 HipLeft:0.027597,-0.689473,0.719218,-0.081179 HipRight:-0.241264,0.661245,0.666687,-0.245103 KneeLeft:0.031967,-0.580934,0.043638,0.812151 KneeRight:-0.029791,0.814423,0.064475,0.575908 Neck:-0.230773,0.052331,0.969409,-0.065200 ShoulderLeft:0.127780,0.725762,-0.669173,-0.095653 ShoulderRight:-0.193214,0.711052,0.630733,-0.243411 SpineBase:-0.164479,0.041188,0.985127,-0.027841 SpineMid:-0.197041,0.042088,0.979134,-0.026461 SpineShoulder:-0.230553,0.047419,0.970891,-0.044364 ThumbLeft:0.000000,0.000000,0.000000,0.000000 ThumbRight:0.000000,0.000000,0.000000,0.000000 WristLeft:-0.083013,0.813959,-0.127010,0.560757 WristRight:0.108913,0.578531,-0.572944,0.570241 END:
KINECT_DATA POSITION:43.721443,1.938781,-6.769216 HEAD_JOINT1:0.990473,0.136820,0.000000,-0.015634 LARM_JOINT2:0.801554,0.000000,0.007133,-0.597879 LARM_JOINT3:0.951311,0.000000,-0.217687,-0.218218 LLEG_JOINT2:0.998318,0.006362,0.000000,0.057621 LLEG_JOINT4:0.996299,0.085845,0.000000,0.004384 RARM_JOINT2:0.887060,0.000000,0.341062,0.311130 RARM_JOINT3:0.815224,0.000000,0.497491,0.296500 RLEG_JOINT2:0.997381,0.037797,0.000000,-0.061665 RLEG_JOINT4:0.990790,0.106534,0.000000,0.083576 WAIST:0.988346,-0.000000,0.152211,0.002197 WAIST_JOINT0:0.977411,-0.000000,0.210235,0.021644 WAIST_JOINT1:0.997872,0.044033,-0.000000,0.048084 END:
KINECT_DATA_Sensor  AnkleLeft:-0.038519,-0.601330,0.104942,0.791142 AnkleRight:0.106651,0.805057,0.098911,0.575087 ElbowLeft:-0.002979,0.828766,-0.199492,-0.522821 ElbowRight:-0.389967,0.905686,0.138685,0.091792 FootLeft:0.000000,0.000000,0.000000,0.000000 FootRight:0.000000,0.000000,0.000000,0.000000 HandLeft:-0.194139,0.734893,-0.103110,0.641568 HandRight:0.215205,0.519066,-0.486386,0.669094 HandTipLeft:0.000000,0.000000,0.000000,0.000000 HandTipRight:0.000000,0.000000,0.000000,0.000000 Head:0.000000,0.000000,0.000000,0.000000 HipLeft:0.041343,-0.692826,0.714052,-0.091720 HipRight:-0.237640,0.661406,0.670143,-0.238698 KneeLeft:0.030401,-0.591480,0.051834,0.804078 KneeRight:-0.025599,0.806672,0.065486,0.586802 Neck:-0.210349,0.049135,0.974274,-0.064258 ShoulderLeft:0.104560,0.750377,-0.647112,-0.085139 ShoulderRight:-0.177083,0.752024,0.590281,-0.233816 SpineBase:-0.151085,0.039031,0.987427,-0.025255 SpineMid:-0.180055,0.039757,0.982557,-0.024096 SpineShoulder:-0.210072,0.044922,0.975705,-0.043037 ThumbLeft:0.000000,0.000000,0.000000,0.000000 ThumbRight:0.000000,0.000000,0.000000,0.000000 WristLeft:-0.093247,0.755894,-0.128133,0.635225 WristRight:-0.203656,-0.497119,0.514357,-0.668457 END:
KINECT_DATA POSITION:43.999805,1.575688,-6.713593 HEAD_JOINT1:0.989252,0.146212,-0.000000,0.001747 LARM_JOINT2:0.801547,0.000000,0.030688,-0.597144 LARM_JOINT3:0.948658,0.000000,-0.239652,-0.206435 LLEG_JOINT2:0.998524,0.016534,0.000000,0.051743 LLEG_JOINT4:0.997169,0.075005,0.000000,0.005376 RARM_JOINT2:0.899544,0.000000,0.283151,0.332635 RARM_JOINT3:0.803710,0.000000,0.479518,0.352298 RLEG_JOINT2:0.997292,0.033169,0.000000,-0.065636 RLEG_JOINT4:0.990646,0.112374,0.000000,0.077415 WAIST:0.992425,-0.000000,0.122792,0.003957 WAIST_JOINT0:0.983493,-0.000000,0.180213,0.016280 WAIST_JOINT1:0.998191,0.046268,-0.000000,0.038400 END:
KINECT_DATA_Sensor  AnkleLeft:-0.035698,-0.618938,0.103392,0.777786 AnkleRight:0.093608,0.727100,0.111230,0.670962 ElbowLeft:0.000105,0.808083,-0.198413,-0.554648 ElbowRight:-0.340843,0.911778,0.193742,0.122275 FootLeft:0.000000,0.000000,0.000000,0.000000 FootRight:0.000000,0.000000,0.000000,0.000000 HandLeft:-0.189661,0.655462,-0.115047,0.721916 HandRight:0.186522,0.556132,-0.468097,0.660917 HandTipLeft:0.000000,0.000000,0.000000,0.000000 HandTipRight:0.000000,0.000000,0.000000,0.000000 Head:0.000000,0.000000,0.000000,0.000000 HipLeft:0.057294,-0.692127,0.711445,-0.107349 HipRight:-0.218641,0.668976,0.673434,-0.226170 KneeLeft:0.021499,-0.614910,0.053794,0.786466 KneeRight:-0.028392,0.788452,0.063808,0.611118 Neck:-0.180577,0.041510,0.980588,-0.064152 ShoulderLeft:0.087244,0.760587,-0.640002,-0.065526 ShoulderRight:-0.152325,0.761180,0.594161,-0.210653 SpineBase:-0.121888,0.035042,0.991581,-0.026142 SpineMid:-0.150547,0.035784,0.987636,-0.025116 SpineShoulder:-0.180289,0.038548,0.981901,-0.043358 ThumbLeft:0.000000,0.000000,0.000000,0.000000 ThumbRight:0.000000,0.000000,0.000000,0.000000 WristLeft:-0.074083,0.665120,-0.151851,0.727371 WristRight:0.139075,0.528750,-0.492175,0.677382 END:
KINECT_DATA POSITION:44.728100,0.847287,-6.452000 HEAD_JOINT1:0.987489,0.156493,-0.000000,0.019370 LARM_JOINT2:0.796373,0.000000,0.042802,-0.603290 LARM_JOINT3:0.951165,0.000000,-0.247893,-0.183942 LLEG_JOINT2:0.998647,0.036066,0.000000,0.037460 LLEG_JOINT4:0.997888,0.064900,0.000000,0.002650 RARM_JOINT2:0.885852,0.000000,0.177653,0.428610 RARM_JOINT3:0.834122,0.000000,0.398124,0.381756 RLEG_JOINT2:0.996756,0.026317,0.000000,-0.076054 RLEG_JOINT4:0.990995,0.116023,0.000000,0.066840 WAIST:0.997237,-0.000000,0.073706,0.009287 WAIST_JOINT0:0.989836,-0.000000,0.139647,0.026883 WAIST_JOINT1:0.998440,0.049123,-0.000000,0.026533 END:
KINECT_DATA_Sensor  AnkleLeft:-0.042933,-0.641197,0.102954,0.759225 AnkleRight:0.088416,0.718478,0.110016,0.681079 ElbowLeft:-0.002909,0.806139,-0.189526,-0.560545 ElbowRight:-0.210897,0.934120,0.207431,0.199786 FootLeft:0.000000,0.000000,0.000000,0.000000 FootRight:0.000000,0.000000,0.000000,0.000000 HandLeft:-0.169198,0.611424,-0.101524,0.766306 HandRight:0.227420,0.458044,-0.399548,0.760814 HandTipLeft:0.000000,0.000000,0.000000,0.000000 HandTipRight:0.000000,0.000000,0.000000,0.000000 Head:0.000000,0.000000,0.000000,0.000000 HipLeft:0.086424,-0.681917,0.713834,-0.134016 HipRight:-0.188082,0.678227,0.681152,-0.201657 KneeLeft:0.003658,-0.652334,0.058481,0.755663 KneeRight:-0.033733,0.756815,0.063119,0.649699 Neck:-0.139950,0.037238,0.987357,-0.064443 ShoulderLeft:0.075855,0.764074,-0.639053,-0.045264 ShoulderRight:-0.106626,0.784544,0.586613,-0.170316 SpineBase:-0.073253,0.031181,0.996460,-0.026995 SpineMid:-0.105896,0.032049,0.993522,-0.025958 SpineShoulder:-0.139628,0.034820,0.988629,-0.043644 ThumbLeft:0.000000,0.000000,0.000000,0.000000 ThumbRight:0.000000,0.000000,0.000000,0.000000 WristLeft:-0.071669,0.618968,-0.160049,0.765588 WristRight:0.122374,0.417415,-0.406580,0.803419 END:
KINECT_DATA POSITION:45.350185,0.726029,-6.267440 HEAD_JOINT1:0.985755,0.165056,-0.000000,0.032316 LARM_JOINT2:0.803891,0.000000,0.013805,-0.594616 LARM_JOINT3:0.954968,0.000000,-0.236261,-0.179491 LLEG_JOINT2:0.998879,0.043384,0.000000,0.018922 LLEG_JOINT4:0.998230,0.059150,0.000000,0.006175 RARM_JOINT2:0.889056,0.000000,0.048344,0.455238 RARM_JOINT3:0.851964,0.000000,0.236406,0.467194 RLEG_JOINT2:0.995901,0.022770,0.000000,-0.087540 RLEG_JOINT4:0.991400,0.117385,0.000000,0.057846 WAIST:0.998402,-0.000000,0.053669,0.017691 WAIST_JOINT0:0.991816,-0.000000,0.123438,0.032615 WAIST_JOINT1:0.998384,0.054916,-0.000000,0.014617 END:
KINECT_DATA_Sensor  AnkleLeft:-0.045367,-0.650003,0.100215,0.751928 AnkleRight:0.090314,0.768318,0.105939,0.624746 ElbowLeft:-0.020239,0.835338,-0.189700,-0.515573 ElbowRight:-0.083946,0.940796,0.260895,0.199474 FootLeft:0.000000,0.000000,0.000000,0.000000 FootRight:0.000000,0.000000,0.000000,0.000000 HandLeft:-0.161353,0.586632,-0.108554,0.786158 HandRight:0.369378,0.130570,-0.018334,0.919878 HandTipLeft:0.000000,0.000000,0.000000,0.000000 HandTipRight:0.000000,0.000000,0.000000,0.000000 Head:0.000000,0.000000,0.000000,0.000000 HipLeft:0.094344,-0.672826,0.719847,-0.142216 HipRight:-0.169847,0.685213,0.682067,-0.190841 KneeLeft:-0.007165,-0.666849,0.055550,0.743085 KneeRight:-0.037339,0.743484,0.063029,0.664729 Neck:-0.122745,0.034766,0.989371,-0.069783 ShoulderLeft:0.095078,0.762279,-0.638236,-0.050455 ShoulderRight:-0.062980,0.789341,0.594349,-0.140441 SpineBase:-0.053774,0.028999,0.997676,-0.030161 SpineMid:-0.087597,0.030006,0.995277,-0.029160 SpineShoulder:-0.122439,0.032482,0.990771,-0.048230 ThumbLeft:0.000000,0.000000,0.000000,0.000000 ThumbRight:0.000000,0.000000,0.000000,0.000000 WristLeft:-0.071726,0.594830,-0.155566,0.785386 WristRight:0.191051,0.089328,-0.221278,0.952132 END:
KINECT_DATA POSITION:44.629303,0.517078,-6.541657 HEAD_JOINT1:0.983927,0.171997,-0.000000,0.048016 LARM_JOINT2:0.803221,0.000000,0.030662,-0.594892 LARM_JOINT3:0.950136,0.000000,-0.254192,-0.180631 LLEG_JOINT2:0.998591,0.040055,0.000000,0.034797 LLEG_JOINT4:0.997621,0.068410,0.000000,-0.008563 RARM_JOINT2:0.844498,0.000000,-0.046247,0.533558 RARM_JOINT3:0.936640,0.000000,0.194424,0.291386 RLEG_JOINT2:0.997733,0.010617,0.000000,-0.066457 RLEG_JOINT4:0.990912,0.127669,0.000000,0.042350 WAIST:0.999506,-0.000000,0.029766,0.010042 WAIST_JOINT0:0.996847,-0.000000,0.075704,0.023759 WAIST_JOINT1:0.997911,0.063798,-0.000000,0.010161 END:
KINECT_DATA_Sensor  AnkleLeft:-0.053243,-0.674578,0.100612,0.729374 AnkleRight:0.084982,0.718784,0.109189,0.681326 ElbowLeft:-0.003564,0.834550,-0.188087,-0.517819 ElbowRight:0.016798,0.924408,0.222432,0.309372 FootLeft:0.000000,0.000000,0.000000,0.000000 FootRight:0.000000,0.000000,0.000000,0.000000 HandLeft:-0.169881,0.519822,-0.112063,0.829679 HandRight:0.070420,0.712023,-0.143941,0.683626 HandTipLeft:0.000000,0.000000,0.000000,0.000000 HandTipRight:0.000000,0.000000,0.000000,0.000000 Head:0.000000,0.000000,0.000000,0.000000 HipLeft:0.101187,-0.675769,0.713979,-0.152747 HipRight:-0.141533,0.683338,0.693527,-0.178993 KneeLeft:0.001719,-0.685197,0.059885,0.725890 KneeRight:-0.033988,0.726921,0.046223,0.684320 Neck:-0.075733,0.020061,0.993634,-0.080956 ShoulderLeft:0.065033,0.770823,-0.633719,-0.001849 ShoulderRight:-0.032415,0.790049,0.601261,-0.115140 SpineBase:-0.029843,0.016242,0.998727,-0.037285 SpineMid:-0.052339,0.017078,0.997801,-0.036910 SpineShoulder:-0.075283,0.021508,0.995274,-0.057438 ThumbLeft:0.000000,0.000000,0.000000,0.000000 ThumbRight:0.000000,0.000000,0.000000,0.000000 WristLeft:-0.072002,0.529859,-0.152620,0.831127 WristRight:-0.024794,0.673682,-0.139151,0.725379 END:
KINECT_DATA POSITION:44.289238,0.409916,-6.547081 HEAD_JOINT1:0.982799,0.175805,-0.000000,0.056565 LARM_JOINT2:0.807911,0.000000,0.022209,-0.588886 LARM_JOINT3:0.950256,0.000000,-0.255012,-0.178837 LLEG_JOINT2:0.998311,0.038793,0.000000,0.043238 LLEG_JOINT4:0.997197,0.072635,0.000000,-0.017943 RARM_JOINT2:0.828409,0.000000,-0.045382,0.558282 RARM_JOINT3:0.951585,0.000000,0.196933,0.236015 RLEG_JOINT2:0.998275,0.010295,0.000000,-0.057805 RLEG_JOINT4:0.991399,0.125953,0.000000,0.035551 WAIST:0.999720,-0.000000,0.022666,0.006733 WAIST_JOINT0:0.997957,-0.000000,0.059355,0.023640 WAIST_JOINT1:0.997870,0.064561,-0.000000,0.009371 END:
KINECT_DATA_Sensor  AnkleLeft:0.064130,0.725145,-0.096069,-0.678839 AnkleRight:0.085177,0.725907,0.106896,0.674075 ElbowLeft:-0.009038,0.846282,-0.188579,-0.498160 ElbowRight:0.017648,0.909170,0.200300,0.364662 FootLeft:0.000000,0.000000,0.000000,0.000000 FootRight:0.000000,0.000000,0.000000,0.000000 HandLeft:-0.165918,0.528404,-0.128953,0.822576 HandRight:0.021679,0.764266,-0.139181,0.629330 HandTipLeft:0.000000,0.000000,0.000000,0.000000 HandTipRight:0.000000,0.000000,0.000000,0.000000 Head:0.000000,0.000000,0.000000,0.000000 HipLeft:0.106116,-0.677391,0.710672,-0.157564 HipRight:-0.136356,0.681897,0.696383,-0.177410 KneeLeft:0.006475,-0.690535,0.062823,0.720536 KneeRight:-0.029912,0.722202,0.042634,0.689719 Neck:-0.059967,0.015973,0.994716,-0.081791 ShoulderLeft:0.055709,0.770463,-0.634937,0.011766 ShoulderRight:-0.021318,0.791629,0.601766,-0.103671 SpineBase:-0.022687,0.011598,0.998931,-0.038578 SpineMid:-0.041020,0.012304,0.998346,-0.038358 SpineShoulder:-0.059590,0.017321,0.996357,-0.058489 ThumbLeft:0.000000,0.000000,0.000000,0.000000 ThumbRight:0.000000,0.000000,0.000000,0.000000 WristLeft:-0.079872,0.539359,-0.149052,0.824922 WristRight:-0.060851,0.761647,-0.106418,0.636292 END:
