EastLYD/RoboCupatHomeSim/InteractiveCleanUp/JapanOpen2016/Motion_Data/File78.dat
KINECT_DATA POSITION:5.240092,-0.191896,-6.670511 HEAD_JOINT1:0.978206,0.174817,-0.000000,0.112039 LARM_JOINT2:0.830013,0.000000,-0.001837,-0.557741 LARM_JOINT3:0.966400,0.000000,-0.194844,-0.167651 LLEG_JOINT2:0.999116,0.017063,0.000000,0.038430 LLEG_JOINT4:0.995844,0.085909,0.000000,-0.030249 RARM_JOINT2:0.817014,0.000000,-0.053613,0.574120 RARM_JOINT3:0.956038,0.000000,0.249483,0.154109 RLEG_JOINT2:0.999622,0.014696,0.000000,-0.023239 RLEG_JOINT4:0.994324,0.099708,0.000000,0.037116 WAIST:0.999983,-0.000000,0.003601,0.004528 WAIST_JOINT0:0.999927,0.000000,-0.005732,0.010596 WAIST_JOINT1:0.997387,0.071737,0.000000,-0.008489 END:
KINECT_DATA_Sensor  AnkleLeft:0.071120,0.758331,-0.075270,-0.643592 AnkleRight:0.093956,0.706492,0.067630,0.698189 ElbowLeft:-0.021931,0.880413,-0.199141,-0.429807 ElbowRight:0.004232,0.836635,0.208194,0.506635 FootLeft:0.000000,0.000000,0.000000,0.000000 FootRight:0.000000,0.000000,0.000000,0.000000 HandLeft:-0.107282,0.799955,-0.027491,0.589752 HandRight:0.087351,-0.257487,-0.179633,0.945411 HandTipLeft:0.000000,0.000000,0.000000,0.000000 HandTipRight:0.000000,0.000000,0.000000,0.000000 Head:0.000000,0.000000,0.000000,0.000000 HipLeft:0.113317,-0.675902,0.708728,-0.167394 HipRight:-0.123702,0.677926,0.701490,-0.181731 KneeLeft:0.018156,-0.703914,0.042497,0.708780 KneeRight:-0.002918,0.710056,0.023603,0.703743 Neck:0.004210,-0.005978,0.996089,-0.088053 ShoulderLeft:0.038149,0.772414,-0.631758,0.052937 ShoulderRight:0.044582,0.782861,0.618975,-0.044845 SpineBase:-0.004141,-0.002743,0.998898,-0.046661 SpineMid:0.000047,-0.002938,0.998907,-0.046649 SpineShoulder:0.004258,-0.004443,0.997776,-0.066378 ThumbLeft:0.000000,0.000000,0.000000,0.000000 ThumbRight:0.000000,0.000000,0.000000,0.000000 WristLeft:-0.087703,0.805745,-0.097971,0.577482 WristRight:-0.006314,-0.274805,-0.134867,0.951973 END:
KINECT_DATA POSITION:5.293571,-0.215403,-6.560183 HEAD_JOINT1:0.978346,0.175373,-0.000000,0.109925 LARM_JOINT2:0.829636,0.000000,0.000140,-0.558305 LARM_JOINT3:0.966352,0.000000,-0.195764,-0.166853 LLEG_JOINT2:0.999091,0.018812,0.000000,0.038259 LLEG_JOINT4:0.996029,0.084333,0.000000,-0.028544 RARM_JOINT2:0.817738,0.000000,-0.052771,0.573167 RARM_JOINT3:0.953940,0.000000,0.262691,0.144884 RLEG_JOINT2:0.999623,0.014111,0.000000,-0.023541 RLEG_JOINT4:0.994346,0.099046,0.000000,0.038288 WAIST:0.999985,-0.000000,0.003344,0.004308 WAIST_JOINT0:0.999925,0.000000,-0.005870,0.010747 WAIST_JOINT1:0.997424,0.071220,0.000000,-0.008548 END:
KINECT_DATA_Sensor  AnkleLeft:0.070917,0.762972,-0.075923,-0.638028 AnkleRight:0.095039,0.722087,0.064121,0.682236 ElbowLeft:-0.021014,0.879491,-0.198772,-0.431908 ElbowRight:0.001254,0.833356,0.208857,0.511756 FootLeft:0.000000,0.000000,0.000000,0.000000 FootRight:0.000000,0.000000,0.000000,0.000000 HandLeft:-0.108719,0.821640,-0.025527,0.558961 HandRight:0.085499,-0.302577,-0.228605,0.921345 HandTipLeft:0.000000,0.000000,0.000000,0.000000 HandTipRight:0.000000,0.000000,0.000000,0.000000 Head:0.000000,0.000000,0.000000,0.000000 HipLeft:0.113565,-0.676153,0.708529,-0.167053 HipRight:-0.123526,0.677982,0.701645,-0.181043 KneeLeft:0.016645,-0.704154,0.043449,0.708521 KneeRight:-0.003693,0.709861,0.023558,0.703938 Neck:0.004342,-0.006290,0.996134,-0.087512 ShoulderLeft:0.036928,0.772806,-0.631322,0.053288 ShoulderRight:0.043543,0.783459,0.618286,-0.044937 SpineBase:-0.003865,-0.002886,0.998920,-0.046203 SpineMid:0.000254,-0.003076,0.998928,-0.046190 SpineShoulder:0.004393,-0.004664,0.997808,-0.065870 ThumbLeft:0.000000,0.000000,0.000000,0.000000 ThumbRight:0.000000,0.000000,0.000000,0.000000 WristLeft:-0.091240,0.826634,-0.094463,0.547200 WristRight:-0.000522,-0.325896,-0.140102,0.934967 END:
KINECT_DATA POSITION:5.394035,-0.171284,-6.378436 HEAD_JOINT1:0.978134,0.176231,-0.000000,0.110440 LARM_JOINT2:0.831213,0.000000,0.001603,-0.555952 LARM_JOINT3:0.968506,0.000000,-0.194382,-0.155601 LLEG_JOINT2:0.999151,0.020205,0.000000,0.035908 LLEG_JOINT4:0.996246,0.082273,0.000000,-0.026911 RARM_JOINT2:0.831350,0.000000,-0.037798,0.554462 RARM_JOINT3:0.945635,0.000000,0.301730,0.121378 RLEG_JOINT2:0.999556,0.015737,0.000000,-0.025321 RLEG_JOINT4:0.994447,0.098455,0.000000,0.037173 WAIST:0.999983,-0.000000,0.002807,0.005047 WAIST_JOINT0:0.999928,0.000000,-0.005409,0.010712 WAIST_JOINT1:0.997509,0.069936,0.000000,-0.009176 END:
KINECT_DATA_Sensor  AnkleLeft:0.070313,0.763226,-0.075595,-0.637830 AnkleRight:0.092894,0.706882,0.068331,0.697867 ElbowLeft:-0.023647,0.876636,-0.201193,-0.436430 ElbowRight:-0.031676,0.809387,0.220275,0.543478 FootLeft:0.000000,0.000000,0.000000,0.000000 FootRight:0.000000,0.000000,0.000000,0.000000 HandLeft:-0.097903,0.828858,-0.053369,0.548235 HandRight:0.046530,-0.223188,-0.319259,0.919835 HandTipLeft:0.000000,0.000000,0.000000,0.000000 HandTipRight:0.000000,0.000000,0.000000,0.000000 Head:0.000000,0.000000,0.000000,0.000000 HipLeft:0.114984,-0.675988,0.708682,-0.166096 HipRight:-0.124334,0.679025,0.700920,-0.179380 KneeLeft:0.014542,-0.704576,0.043279,0.708158 KneeRight:-0.003270,0.709487,0.025448,0.704252 Neck:0.003955,-0.006352,0.996243,-0.086283 ShoulderLeft:0.035741,0.773153,-0.631029,0.052529 ShoulderRight:0.041830,0.783441,0.618435,-0.044810 SpineBase:-0.003352,-0.002371,0.999012,-0.044261 SpineMid:0.000349,-0.002535,0.999017,-0.044252 SpineShoulder:0.004041,-0.004352,0.997895,-0.064579 ThumbLeft:0.000000,0.000000,0.000000,0.000000 ThumbRight:0.000000,0.000000,0.000000,0.000000 WristLeft:-0.084569,0.830938,-0.099743,0.540778 WristRight:-0.028868,-0.259199,-0.187322,0.947044 END:
KINECT_DATA POSITION:5.470355,-0.114252,-6.263459 HEAD_JOINT1:0.978136,0.178077,-0.000000,0.107421 LARM_JOINT2:0.830164,0.000000,0.004651,-0.557500 LARM_JOINT3:0.971255,0.000000,-0.178320,-0.157689 LLEG_JOINT2:0.999202,0.020553,0.000000,0.034240 LLEG_JOINT4:0.996148,0.083684,0.000000,-0.026187 RARM_JOINT2:0.842414,0.000000,-0.020116,0.538455 RARM_JOINT3:0.929173,0.000000,0.350059,0.118729 RLEG_JOINT2:0.999522,0.016316,0.000000,-0.026242 RLEG_JOINT4:0.994428,0.098519,0.000000,0.037500 WAIST:0.999978,-0.000000,0.003882,0.005422 WAIST_JOINT0:0.999938,0.000000,-0.003411,0.010615 WAIST_JOINT1:0.997575,0.069019,0.000000,-0.008919 END:
KINECT_DATA_Sensor  AnkleLeft:0.070113,0.745647,-0.078027,-0.658032 AnkleRight:0.097009,0.747273,0.063440,0.654330 ElbowLeft:-0.021653,0.875514,-0.200872,-0.438927 ElbowRight:-0.060210,0.797935,0.225594,0.555682 FootLeft:0.000000,0.000000,0.000000,0.000000 FootRight:0.000000,0.000000,0.000000,0.000000 HandLeft:-0.055058,0.836264,-0.017134,0.545286 HandRight:0.049006,-0.163342,-0.376083,0.910758 HandTipLeft:0.000000,0.000000,0.000000,0.000000 HandTipRight:0.000000,0.000000,0.000000,0.000000 Head:0.000000,0.000000,0.000000,0.000000 HipLeft:0.114843,-0.676065,0.708898,-0.164959 HipRight:-0.125653,0.679386,0.700375,-0.179221 KneeLeft:0.013342,-0.703846,0.042617,0.708947 KneeRight:-0.003283,0.710230,0.026237,0.703473 Neck:0.002066,-0.005785,0.996313,-0.085571 ShoulderLeft:0.036321,0.773113,-0.631221,0.050380 ShoulderRight:0.039916,0.783000,0.619054,-0.045704 SpineBase:-0.004419,-0.001799,0.999052,-0.043268 SpineMid:-0.001116,-0.001942,0.999061,-0.043262 SpineShoulder:0.002165,-0.003713,0.997967,-0.063592 ThumbLeft:0.000000,0.000000,0.000000,0.000000 ThumbRight:0.000000,0.000000,0.000000,0.000000 WristLeft:-0.081157,0.834203,-0.098796,0.536431 WristRight:-0.031227,-0.207312,-0.242908,0.947123 END:
KINECT_DATA POSITION:5.491432,-0.099266,-6.235373 HEAD_JOINT1:0.978434,0.178714,-0.000000,0.103576 LARM_JOINT2:0.829652,0.000000,0.005746,-0.558251 LARM_JOINT3:0.972824,0.000000,-0.176335,-0.150063 LLEG_JOINT2:0.999219,0.020726,0.000000,0.033646 LLEG_JOINT4:0.996142,0.083789,0.000000,-0.026089 RARM_JOINT2:0.847348,0.000000,-0.011652,0.530911 RARM_JOINT3:0.920888,0.000000,0.377044,0.099014 RLEG_JOINT2:0.999502,0.016860,0.000000,-0.026667 RLEG_JOINT4:0.994439,0.097928,0.000000,0.038756 WAIST:0.999976,-0.000000,0.004671,0.005173 WAIST_JOINT0:0.999941,0.000000,-0.001188,0.010798 WAIST_JOINT1:0.997613,0.068557,0.000000,-0.008284 END:
KINECT_DATA_Sensor  AnkleLeft:0.071281,0.748649,-0.077212,-0.654586 AnkleRight:0.093537,0.709062,0.068510,0.695549 ElbowLeft:-0.021950,0.872722,-0.200526,-0.444594 ElbowRight:-0.078148,0.781645,0.225743,0.576163 FootLeft:0.000000,0.000000,0.000000,0.000000 FootRight:0.000000,0.000000,0.000000,0.000000 HandLeft:-0.058562,0.824817,-0.028911,0.561615 HandRight:0.035087,-0.141005,-0.419561,0.896022 HandTipLeft:0.000000,0.000000,0.000000,0.000000 HandTipRight:0.000000,0.000000,0.000000,0.000000 Head:0.000000,0.000000,0.000000,0.000000 HipLeft:0.114627,-0.676327,0.708786,-0.164515 HipRight:-0.126604,0.679160,0.700375,-0.179412 KneeLeft:0.012593,-0.703331,0.042148,0.709500 KneeRight:-0.003401,0.710751,0.027091,0.702914 Neck:-0.000102,-0.005072,0.996383,-0.084827 ShoulderLeft:0.037865,0.772956,-0.631496,0.048149 ShoulderRight:0.038618,0.782942,0.619119,-0.046927 SpineBase:-0.005165,-0.001470,0.999065,-0.042897 SpineMid:-0.002579,-0.001581,0.999075,-0.042893 SpineShoulder:-0.000031,-0.003370,0.997994,-0.063226 ThumbLeft:0.000000,0.000000,0.000000,0.000000 ThumbRight:0.000000,0.000000,0.000000,0.000000 WristLeft:-0.069701,0.824070,-0.103347,0.552603 WristRight:-0.043239,-0.192303,-0.274112,0.941283 END:
KINECT_DATA POSITION:5.505316,-0.081516,-6.212509 HEAD_JOINT1:0.978289,0.181961,-0.000000,0.099205 LARM_JOINT2:0.828511,0.000000,0.006844,-0.559930 LARM_JOINT3:0.969701,0.000000,-0.185370,-0.159117 LLEG_JOINT2:0.999237,0.021637,0.000000,0.032510 LLEG_JOINT4:0.996236,0.082883,0.000000,-0.025396 RARM_JOINT2:0.853484,0.000000,0.022013,0.520653 RARM_JOINT3:0.890325,0.000000,0.434013,0.137675 RLEG_JOINT2:0.999470,0.017780,0.000000,-0.027253 RLEG_JOINT4:0.994756,0.095063,0.000000,0.037730 WAIST:0.999973,-0.000000,0.005077,0.005299 WAIST_JOINT0:0.999936,-0.000000,0.002240,0.011087 WAIST_JOINT1:0.997765,0.066386,0.000000,-0.007623 END:
KINECT_DATA_Sensor  AnkleLeft:0.072427,0.756195,-0.076091,-0.645858 AnkleRight:0.094813,0.747974,0.062934,0.653900 ElbowLeft:-0.022798,0.871638,-0.198879,-0.447409 ElbowRight:-0.104746,0.794859,0.217125,0.556852 FootLeft:0.000000,0.000000,0.000000,0.000000 FootRight:0.000000,0.000000,0.000000,0.000000 HandLeft:-0.118071,0.804482,-0.016899,0.581878 HandRight:0.113423,-0.016604,-0.463967,0.878404 HandTipLeft:0.000000,0.000000,0.000000,0.000000 HandTipRight:0.000000,0.000000,0.000000,0.000000 Head:0.000000,0.000000,0.000000,0.000000 HipLeft:0.114757,-0.676417,0.708860,-0.163733 HipRight:-0.127324,0.679368,0.700171,-0.178906 KneeLeft:0.011219,-0.703080,0.042074,0.709777 KneeRight:-0.003093,0.711022,0.028066,0.702603 Neck:-0.003361,-0.003778,0.996621,-0.081982 ShoulderLeft:0.037091,0.773179,-0.631464,0.045515 ShoulderRight:0.033530,0.783466,0.618554,-0.049467 SpineBase:-0.005555,-0.001130,0.999099,-0.042052 SpineMid:-0.004416,-0.001178,0.999105,-0.042051 SpineShoulder:-0.003315,-0.002500,0.998111,-0.061293 ThumbLeft:0.000000,0.000000,0.000000,0.000000 ThumbRight:0.000000,0.000000,0.000000,0.000000 WristLeft:-0.067088,0.816500,-0.105310,0.563681 WristRight:-0.024206,-0.096726,-0.335552,0.936730 END:
KINECT_DATA POSITION:5.512036,-0.092693,-6.191492 HEAD_JOINT1:0.979377,0.180186,-0.000000,0.091396 LARM_JOINT2:0.826921,0.000000,0.008155,-0.562259 LARM_JOINT3:0.971025,0.000000,-0.181882,-0.155016 LLEG_JOINT2:0.999276,0.021276,0.000000,0.031548 LLEG_JOINT4:0.996145,0.084363,0.000000,-0.024039 RARM_JOINT2:0.845577,0.000000,0.041649,0.532227 RARM_JOINT3:0.869230,0.000000,0.458510,0.184952 RLEG_JOINT2:0.999447,0.017991,0.000000,-0.027974 RLEG_JOINT4:0.994457,0.097494,0.000000,0.039363 WAIST:0.999962,-0.000000,0.006749,0.005577 WAIST_JOINT0:0.999866,-0.000000,0.010198,0.012840 WAIST_JOINT1:0.997886,0.064780,0.000000,-0.005274 END:
KINECT_DATA_Sensor  AnkleLeft:0.071846,0.745501,-0.078251,-0.657984 AnkleRight:0.097854,0.752735,0.063344,0.647921 ElbowLeft:-0.023444,0.869245,-0.198471,-0.452186 ElbowRight:-0.100917,0.822723,0.197140,0.523525 FootLeft:0.000000,0.000000,0.000000,0.000000 FootRight:0.000000,0.000000,0.000000,0.000000 HandLeft:-0.084446,0.810641,-0.020708,0.579052 HandRight:0.237607,-0.069919,-0.435317,0.865537 HandTipLeft:0.000000,0.000000,0.000000,0.000000 HandTipRight:0.000000,0.000000,0.000000,0.000000 Head:0.000000,0.000000,0.000000,0.000000 HipLeft:0.114140,-0.676543,0.709103,-0.162587 HipRight:-0.129259,0.679551,0.699575,-0.179159 KneeLeft:0.010932,-0.701917,0.041345,0.710974 KneeRight:-0.003315,0.712167,0.028515,0.701423 Neck:-0.011236,-0.000326,0.996705,-0.080324 ShoulderLeft:0.038936,0.772621,-0.632405,0.040055 ShoulderRight:0.025102,0.785305,0.616032,-0.056306 SpineBase:-0.007194,-0.000029,0.999126,-0.041184 SpineMid:-0.009194,0.000054,0.999109,-0.041184 SpineShoulder:-0.011205,0.000266,0.998152,-0.059716 ThumbLeft:0.000000,0.000000,0.000000,0.000000 ThumbRight:0.000000,0.000000,0.000000,0.000000 WristLeft:-0.071713,0.815069,-0.107049,0.564855 WristRight:0.079495,-0.145534,-0.366575,0.915491 END:
KINECT_DATA POSITION:5.606804,-0.194637,-5.986011 HEAD_JOINT1:0.980254,0.177467,-0.000000,0.087219 LARM_JOINT2:0.825819,0.000000,0.008236,-0.563875 LARM_JOINT3:0.969198,0.000000,-0.188163,-0.158900 LLEG_JOINT2:0.999338,0.022924,0.000000,0.028249 LLEG_JOINT4:0.996237,0.083508,0.000000,-0.023212 RARM_JOINT2:0.835772,0.000000,0.054797,0.546336 RARM_JOINT3:0.858135,0.000000,0.466904,0.213556 RLEG_JOINT2:0.999298,0.020559,0.000000,-0.031322 RLEG_JOINT4:0.994165,0.099739,0.000000,0.041081 WAIST:0.999888,-0.000000,0.012742,0.007852 WAIST_JOINT0:0.999597,-0.000000,0.022324,0.017562 WAIST_JOINT1:0.997985,0.063328,0.000000,-0.003802 END:
KINECT_DATA_Sensor  AnkleLeft:0.072570,0.737907,-0.078531,-0.666378 AnkleRight:0.101228,0.754065,0.066896,0.645495 ElbowLeft:-0.023772,0.867238,-0.199622,-0.455504 ElbowRight:-0.097100,0.837576,0.173882,0.508727 FootLeft:0.000000,0.000000,0.000000,0.000000 FootRight:0.000000,0.000000,0.000000,0.000000 HandLeft:-0.109752,0.821251,-0.024946,0.559356 HandRight:0.152360,0.234623,-0.481100,0.830831 HandTipLeft:0.000000,0.000000,0.000000,0.000000 HandTipRight:0.000000,0.000000,0.000000,0.000000 Head:0.000000,0.000000,0.000000,0.000000 HipLeft:0.112590,-0.675868,0.710877,-0.158680 HipRight:-0.135995,0.680567,0.696814,-0.181063 KneeLeft:0.008831,-0.697638,0.041782,0.715177 KneeRight:-0.002504,0.716382,0.031038,0.697013 Neck:-0.023434,0.004168,0.996625,-0.078564 ShoulderLeft:0.043123,0.770420,-0.635274,0.031935 ShoulderRight:0.013492,0.788181,0.611636,-0.066998 SpineBase:-0.013203,0.002991,0.999170,-0.038426 SpineMid:-0.018273,0.003186,0.999090,-0.038410 SpineShoulder:-0.023430,0.003781,0.998017,-0.058294 ThumbLeft:0.000000,0.000000,0.000000,0.000000 ThumbRight:0.000000,0.000000,0.000000,0.000000 WristLeft:-0.075219,0.829140,-0.107016,0.543523 WristRight:0.002140,0.156055,-0.401713,0.902369 END:
KINECT_DATA POSITION:6.021512,-0.387297,-5.400479 HEAD_JOINT1:0.981381,0.173857,-0.000000,0.081645 LARM_JOINT2:0.821672,0.000000,0.013195,-0.569808 LARM_JOINT3:0.969611,0.000000,-0.188502,-0.155951 LLEG_JOINT2:0.999456,0.027420,0.000000,0.018332 LLEG_JOINT4:0.996882,0.077069,0.000000,-0.016905 RARM_JOINT2:0.831936,0.000000,0.060450,0.551568 RARM_JOINT3:0.847950,0.000000,0.471579,0.242061 RLEG_JOINT2:0.998768,0.027033,0.000000,-0.041608 RLEG_JOINT4:0.994389,0.096076,0.000000,0.044276 WAIST:0.999611,-0.000000,0.024034,0.014129 WAIST_JOINT0:0.998996,-0.000000,0.038376,0.023118 WAIST_JOINT1:0.998246,0.059042,0.000000,-0.004363 END:
KINECT_DATA_Sensor  AnkleLeft:0.072387,0.750627,-0.076232,-0.652310 AnkleRight:0.101576,0.759114,0.070631,0.639092 ElbowLeft:-0.025287,0.851329,-0.197921,-0.485208 ElbowRight:-0.095954,0.855924,0.159768,0.482351 FootLeft:0.000000,0.000000,0.000000,0.000000 FootRight:0.000000,0.000000,0.000000,0.000000 HandLeft:-0.091290,0.824058,-0.017507,0.558827 HandRight:0.123302,0.396246,-0.498419,0.761160 HandTipLeft:0.000000,0.000000,0.000000,0.000000 HandTipRight:0.000000,0.000000,0.000000,0.000000 Head:0.000000,0.000000,0.000000,0.000000 HipLeft:0.111055,-0.673515,0.715309,-0.149591 HipRight:-0.149971,0.684371,0.689865,-0.182294 KneeLeft:0.002764,-0.689354,0.042171,0.723191 KneeRight:-0.001445,0.724413,0.038292,0.688300 Neck:-0.039349,0.011517,0.996493,-0.072939 ShoulderLeft:0.050122,0.769481,-0.636472,0.017045 ShoulderRight:-0.000127,0.793040,0.604264,-0.077155 SpineBase:-0.024551,0.010259,0.999180,-0.030516 SpineMid:-0.031795,0.010480,0.998976,-0.030441 SpineShoulder:-0.039478,0.008436,0.997712,-0.054227 ThumbLeft:0.000000,0.000000,0.000000,0.000000 ThumbRight:0.000000,0.000000,0.000000,0.000000 WristLeft:-0.078456,0.829104,-0.117606,0.540926 WristRight:-0.025575,0.316945,-0.428580,0.845702 END:
KINECT_DATA POSITION:6.318381,-0.519720,-5.088305 HEAD_JOINT1:0.982265,0.173507,-0.000000,0.071066 LARM_JOINT2:0.818006,0.000000,0.020506,-0.574844 LARM_JOINT3:0.969510,0.000000,-0.189040,-0.155928 LLEG_JOINT2:0.999507,0.029434,0.000000,0.010888 LLEG_JOINT4:0.997138,0.074106,0.000000,-0.014999 RARM_JOINT2:0.820570,0.000000,0.071995,0.566993 RARM_JOINT3:0.843845,0.000000,0.462608,0.271880 RLEG_JOINT2:0.998202,0.031212,0.000000,-0.051177 RLEG_JOINT4:0.994356,0.093628,0.000000,0.049892 WAIST:0.999331,-0.000000,0.030978,0.019437 WAIST_JOINT0:0.998243,-0.000000,0.052326,0.027814 WAIST_JOINT1:0.998513,0.054417,0.000000,-0.003345 END:
KINECT_DATA_Sensor  AnkleLeft:0.072551,0.750184,-0.074364,-0.653016 AnkleRight:0.100035,0.736532,0.075495,0.664692 ElbowLeft:-0.023530,0.845153,-0.198566,-0.495715 ElbowRight:-0.088069,0.882962,0.134157,0.441162 FootLeft:0.000000,0.000000,0.000000,0.000000 FootRight:0.000000,0.000000,0.000000,0.000000 HandLeft:-0.091106,0.824691,-0.025127,0.557632 HandRight:0.199627,0.387088,-0.503994,0.745857 HandTipLeft:0.000000,0.000000,0.000000,0.000000 HandTipRight:0.000000,0.000000,0.000000,0.000000 Head:0.000000,0.000000,0.000000,0.000000 HipLeft:0.109804,-0.670726,0.718964,-0.145466 HipRight:-0.158533,0.687242,0.684487,-0.184508 KneeLeft:-0.000265,-0.684082,0.041824,0.728205 KneeRight:-0.002124,0.729439,0.044065,0.682621 Neck:-0.053316,0.018204,0.996113,-0.067716 ShoulderLeft:0.056143,0.767303,-0.638817,0.002666 ShoulderRight:-0.012000,0.796890,0.598044,-0.084656 SpineBase:-0.031582,0.015367,0.999018,-0.027028 SpineMid:-0.042207,0.015654,0.998625,-0.026863 SpineShoulder:-0.053367,0.014680,0.997238,-0.049524 ThumbLeft:0.000000,0.000000,0.000000,0.000000 ThumbRight:0.000000,0.000000,0.000000,0.000000 WristLeft:-0.076115,0.829254,-0.120232,0.540452 WristRight:0.044557,0.309048,-0.445464,0.839087 END:
KINECT_DATA POSITION:6.369715,-0.571732,-5.049324 HEAD_JOINT1:0.982491,0.174655,-0.000000,0.064860 LARM_JOINT2:0.814872,0.000000,0.024938,-0.579105 LARM_JOINT3:0.970465,0.000000,-0.187774,-0.151457 LLEG_JOINT2:0.999527,0.029236,0.000000,0.009503 LLEG_JOINT4:0.997021,0.075653,0.000000,-0.014998 RARM_JOINT2:0.816488,0.000000,0.080409,0.571736 RARM_JOINT3:0.841230,0.000000,0.450736,0.298610 RLEG_JOINT2:0.998104,0.031242,0.000000,-0.053025 RLEG_JOINT4:0.994136,0.096290,0.000000,0.049210 WAIST:0.999174,-0.000000,0.034690,0.021175 WAIST_JOINT0:0.997561,-0.000000,0.063039,0.029977 WAIST_JOINT1:0.998612,0.052592,0.000000,-0.002787 END:
KINECT_DATA_Sensor  AnkleLeft:0.073648,0.748110,-0.075036,-0.655192 AnkleRight:0.101746,0.745317,0.077236,0.654358 ElbowLeft:-0.021118,0.840164,-0.196581,-0.505009 ElbowRight:-0.087824,0.897002,0.123998,0.415088 FootLeft:0.000000,0.000000,0.000000,0.000000 FootRight:0.000000,0.000000,0.000000,0.000000 HandLeft:-0.090168,0.813319,-0.032961,0.573842 HandRight:0.246353,0.404185,-0.497466,0.726961 HandTipLeft:0.000000,0.000000,0.000000,0.000000 HandTipRight:0.000000,0.000000,0.000000,0.000000 Head:0.000000,0.000000,0.000000,0.000000 HipLeft:0.108403,-0.669902,0.720205,-0.144168 HipRight:-0.161992,0.687756,0.682443,-0.187141 KneeLeft:0.000062,-0.681306,0.041853,0.730801 KneeRight:-0.002440,0.732040,0.044061,0.679831 Neck:-0.064199,0.019642,0.995533,-0.066387 ShoulderLeft:0.059405,0.765813,-0.640290,-0.005449 ShoulderRight:-0.022605,0.798539,0.594250,-0.093230 SpineBase:-0.035337,0.016809,0.998876,-0.026730 SpineMid:-0.049454,0.017186,0.998277,-0.026490 SpineShoulder:-0.064106,0.017500,0.996667,-0.047310 ThumbLeft:0.000000,0.000000,0.000000,0.000000 ThumbRight:0.000000,0.000000,0.000000,0.000000 WristLeft:-0.068345,0.818459,-0.121938,0.557302 WristRight:0.073113,0.317049,-0.446416,0.833575 END:
KINECT_DATA POSITION:6.373868,-0.605576,-5.088317 HEAD_JOINT1:0.982681,0.175129,-0.000000,0.060564 LARM_JOINT2:0.812976,0.000000,0.026575,-0.581691 LARM_JOINT3:0.971003,0.000000,-0.187173,-0.148724 LLEG_JOINT2:0.999549,0.028088,0.000000,0.010649 LLEG_JOINT4:0.997061,0.075346,0.000000,-0.013862 RARM_JOINT2:0.813362,0.000000,0.096547,0.573691 RARM_JOINT3:0.849277,0.000000,0.427130,0.310303 RLEG_JOINT2:0.998147,0.031838,0.000000,-0.051860 RLEG_JOINT4:0.994304,0.095454,0.000000,0.047408 WAIST:0.999066,-0.000000,0.037777,0.020961 WAIST_JOINT0:0.997236,-0.000000,0.068046,0.029839 WAIST_JOINT1:0.998631,0.052267,0.000000,-0.001859 END:
KINECT_DATA_Sensor  AnkleLeft:-0.062505,-0.667666,0.083099,0.737164 AnkleRight:0.100790,0.748316,0.077817,0.651006 ElbowLeft:-0.019389,0.836580,-0.194768,-0.511687 ElbowRight:-0.094362,0.908025,0.114253,0.391832 FootLeft:0.000000,0.000000,0.000000,0.000000 FootRight:0.000000,0.000000,0.000000,0.000000 HandLeft:-0.093013,0.816104,-0.034798,0.569309 HandRight:0.205503,0.511358,-0.492719,0.673431 HandTipLeft:0.000000,0.000000,0.000000,0.000000 HandTipRight:0.000000,0.000000,0.000000,0.000000 Head:0.000000,0.000000,0.000000,0.000000 HipLeft:0.106279,-0.670187,0.720557,-0.142661 HipRight:-0.163545,0.687128,0.682339,-0.188474 KneeLeft:0.001448,-0.679077,0.041716,0.732879 KneeRight:-0.001514,0.734148,0.043801,0.677573 Neck:-0.069254,0.019808,0.995183,-0.066498 ShoulderLeft:0.064392,0.764357,-0.641472,-0.011265 ShoulderRight:-0.024019,0.797706,0.594985,-0.095296 SpineBase:-0.038401,0.017295,0.998750,-0.026935 SpineMid:-0.053487,0.017700,0.998055,-0.026671 SpineShoulder:-0.069103,0.018313,0.996343,-0.046801 ThumbLeft:0.000000,0.000000,0.000000,0.000000 ThumbRight:0.000000,0.000000,0.000000,0.000000 WristLeft:-0.065302,0.821859,-0.121401,0.552761 WristRight:0.033346,0.425521,-0.446057,0.786672 END:
KINECT_DATA POSITION:6.379519,-0.643913,-5.185151 HEAD_JOINT1:0.982510,0.177523,-0.000000,0.056205 LARM_JOINT2:0.812900,0.000000,0.028021,-0.581729 LARM_JOINT3:0.970883,0.000000,-0.190206,-0.145630 LLEG_JOINT2:0.999607,0.025649,0.000000,0.011283 LLEG_JOINT4:0.996912,0.077551,0.000000,-0.012375 RARM_JOINT2:0.808905,0.000000,0.112769,0.577024 RARM_JOINT3:0.856564,0.000000,0.412814,0.309649 RLEG_JOINT2:0.998170,0.032830,0.000000,-0.050788 RLEG_JOINT4:0.994278,0.095515,0.000000,0.047826 WAIST:0.998860,-0.000000,0.042849,0.021034 WAIST_JOINT0:0.997149,-0.000000,0.069834,0.028586 WAIST_JOINT1:0.998657,0.051776,0.000000,-0.001579 END:
KINECT_DATA_Sensor  AnkleLeft:0.070486,0.744876,-0.076530,-0.659041 AnkleRight:0.101125,0.742980,0.079243,0.656867 ElbowLeft:-0.017911,0.833996,-0.195341,-0.515725 ElbowRight:-0.101086,0.917819,0.102620,0.369944 FootLeft:0.000000,0.000000,0.000000,0.000000 FootRight:0.000000,0.000000,0.000000,0.000000 HandLeft:-0.090396,0.789412,-0.059374,0.604261 HandRight:0.282099,0.399398,-0.455079,0.744180 HandTipLeft:0.000000,0.000000,0.000000,0.000000 HandTipRight:0.000000,0.000000,0.000000,0.000000 Head:0.000000,0.000000,0.000000,0.000000 HipLeft:0.103279,-0.670239,0.721453,-0.140065 HipRight:-0.166340,0.686082,0.681973,-0.191142 KneeLeft:0.003590,-0.675395,0.040518,0.736334 KneeRight:-0.000299,0.737607,0.043670,0.673816 Neck:-0.070994,0.019323,0.995073,-0.066456 ShoulderLeft:0.067468,0.763245,-0.642407,-0.014759 ShoulderRight:-0.023182,0.795861,0.597605,-0.094526 SpineBase:-0.043471,0.017508,0.998532,-0.027147 SpineMid:-0.056893,0.017872,0.997858,-0.026909 SpineShoulder:-0.070803,0.018367,0.996249,-0.046236 ThumbLeft:0.000000,0.000000,0.000000,0.000000 ThumbRight:0.000000,0.000000,0.000000,0.000000 WristLeft:-0.057743,0.794614,-0.124686,0.591360 WristRight:0.106376,0.319120,-0.426136,0.839794 END:
KINECT_DATA POSITION:6.382494,-0.676800,-5.355620 HEAD_JOINT1:0.982109,0.179919,-0.000000,0.055601 LARM_JOINT2:0.814960,0.000000,0.027330,-0.578872 LARM_JOINT3:0.969255,0.000000,-0.197391,-0.146906 LLEG_JOINT2:0.999626,0.024058,0.000000,0.013042 LLEG_JOINT4:0.996768,0.078814,0.000000,-0.015579 RARM_JOINT2:0.806777,0.000000,0.125136,0.577453 RARM_JOINT3:0.857793,0.000000,0.398287,0.324897 RLEG_JOINT2:0.998210,0.030505,0.000000,-0.051446 RLEG_JOINT4:0.994191,0.096229,0.000000,0.048217 WAIST:0.998792,-0.000000,0.044313,0.021232 WAIST_JOINT0:0.997129,-0.000000,0.069959,0.028970 WAIST_JOINT1:0.998641,0.052087,0.000000,-0.001847 END:
KINECT_DATA_Sensor  AnkleLeft:0.071704,0.749609,-0.074566,-0.653747 AnkleRight:0.100017,0.745615,0.078018,0.654193 ElbowLeft:-0.018275,0.835757,-0.198391,-0.511680 ElbowRight:-0.105913,0.927090,0.097687,0.346040 FootLeft:0.000000,0.000000,0.000000,0.000000 FootRight:0.000000,0.000000,0.000000,0.000000 HandLeft:-0.108731,0.809328,-0.076237,0.572149 HandRight:0.269084,0.454436,-0.458012,0.715057 HandTipLeft:0.000000,0.000000,0.000000,0.000000 HandTipRight:0.000000,0.000000,0.000000,0.000000 Head:0.000000,0.000000,0.000000,0.000000 HipLeft:0.102965,-0.669704,0.721835,-0.140886 HipRight:-0.167788,0.685266,0.681736,-0.193630 KneeLeft:0.006053,-0.674324,0.040866,0.737279 KneeRight:-0.002305,0.738551,0.042240,0.672869 Neck:-0.071254,0.018815,0.995032,-0.066928 ShoulderLeft:0.067273,0.762176,-0.643711,-0.014086 ShoulderRight:-0.023771,0.795416,0.598042,-0.095358 SpineBase:-0.044968,0.017434,0.998440,-0.028144 SpineMid:-0.057771,0.017794,0.997781,-0.027918 SpineShoulder:-0.071038,0.018245,0.996222,-0.046508 ThumbLeft:0.000000,0.000000,0.000000,0.000000 ThumbRight:0.000000,0.000000,0.000000,0.000000 WristLeft:-0.062974,0.815826,-0.122923,0.561562 WristRight:0.096169,0.377584,-0.426762,0.816123 END:
KINECT_DATA POSITION:6.346496,-0.726400,-5.503106 HEAD_JOINT1:0.981923,0.180710,-0.000000,0.056320 LARM_JOINT2:0.816344,0.000000,0.024896,-0.577029 LARM_JOINT3:0.969418,0.000000,-0.195728,-0.148055 LLEG_JOINT2:0.999593,0.022980,0.000000,0.016920 LLEG_JOINT4:0.996462,0.081699,0.000000,-0.019724 RARM_JOINT2:0.809026,0.000000,0.118486,0.575707 RARM_JOINT3:0.848557,0.000000,0.395431,0.351548 RLEG_JOINT2:0.998277,0.030749,0.000000,-0.049974 RLEG_JOINT4:0.994044,0.097618,0.000000,0.048447 WAIST:0.998787,-0.000000,0.045220,0.019478 WAIST_JOINT0:0.996837,-0.000000,0.072904,0.031641 WAIST_JOINT1:0.998606,0.052791,0.000000,-0.000210 END:
KINECT_DATA_Sensor  AnkleLeft:0.076943,0.770591,-0.071356,-0.628632 AnkleRight:0.102630,0.758733,0.077336,0.638601 ElbowLeft:-0.019606,0.836735,-0.199895,-0.509443 ElbowRight:-0.101287,0.930758,0.104660,0.335375 FootLeft:0.000000,0.000000,0.000000,0.000000 FootRight:0.000000,0.000000,0.000000,0.000000 HandLeft:-0.108780,0.817017,-0.070494,0.561855 HandRight:0.180982,0.620117,-0.508664,0.569176 HandTipLeft:0.000000,0.000000,0.000000,0.000000 HandTipRight:0.000000,0.000000,0.000000,0.000000 Head:0.000000,0.000000,0.000000,0.000000 HipLeft:0.102472,-0.670615,0.720822,-0.142092 HipRight:-0.168529,0.683569,0.682750,-0.195404 KneeLeft:0.008195,-0.673726,0.041755,0.737755 KneeRight:-0.002345,0.739101,0.042650,0.672239 Neck:-0.074520,0.018819,0.994751,-0.067555 ShoulderLeft:0.067091,0.761143,-0.644964,-0.013503 ShoulderRight:-0.028147,0.797361,0.594386,-0.100642 SpineBase:-0.045807,0.016992,0.998374,-0.029365 SpineMid:-0.059833,0.017403,0.997632,-0.029123 SpineShoulder:-0.074319,0.018182,0.995947,-0.047279 ThumbLeft:0.000000,0.000000,0.000000,0.000000 ThumbRight:0.000000,0.000000,0.000000,0.000000 WristLeft:-0.063558,0.823517,-0.123056,0.550125 WristRight:-0.026405,0.610590,-0.440463,0.657629 END:
KINECT_DATA POSITION:6.305241,-0.758496,-5.570030 HEAD_JOINT1:0.981931,0.180666,-0.000000,0.056308 LARM_JOINT2:0.816794,0.000000,0.028637,-0.576219 LARM_JOINT3:0.968683,0.000000,-0.195912,-0.152553 LLEG_JOINT2:0.999583,0.021556,0.000000,0.019222 LLEG_JOINT4:0.996515,0.080454,0.000000,-0.022022 RARM_JOINT2:0.809438,0.000000,0.116103,0.575612 RARM_JOINT3:0.843564,0.000000,0.396296,0.362421 RLEG_JOINT2:0.998359,0.030401,0.000000,-0.048531 RLEG_JOINT4:0.994010,0.097475,0.000000,0.049424 WAIST:0.998707,-0.000000,0.047279,0.018667 WAIST_JOINT0:0.996887,-0.000000,0.071686,0.032819 WAIST_JOINT1:0.998577,0.053328,-0.000000,0.000602 END:
KINECT_DATA_Sensor  AnkleLeft:0.071865,0.737870,-0.072636,-0.667163 AnkleRight:0.102424,0.753014,0.077199,0.645383 ElbowLeft:-0.017040,0.833483,-0.202177,-0.513946 ElbowRight:-0.099383,0.932100,0.106286,0.331687 FootLeft:0.000000,0.000000,0.000000,0.000000 FootRight:0.000000,0.000000,0.000000,0.000000 HandLeft:-0.095026,0.734399,-0.069433,0.668436 HandRight:0.345932,0.423204,-0.427773,0.719889 HandTipLeft:0.000000,0.000000,0.000000,0.000000 HandTipRight:0.000000,0.000000,0.000000,0.000000 Head:0.000000,0.000000,0.000000,0.000000 HipLeft:0.101296,-0.671184,0.720541,-0.141675 HipRight:-0.169542,0.682399,0.683087,-0.197433 KneeLeft:0.010166,-0.672240,0.041918,0.739075 KneeRight:-0.002201,0.740447,0.041960,0.670800 Neck:-0.073658,0.018541,0.994770,-0.068295 ShoulderLeft:0.062471,0.760822,-0.645890,-0.008546 ShoulderRight:-0.031857,0.798458,0.592189,-0.103742 SpineBase:-0.047839,0.016563,0.998268,-0.029968 SpineMid:-0.060438,0.016940,0.997585,-0.029757 SpineShoulder:-0.073459,0.017915,0.995988,-0.047869 ThumbLeft:0.000000,0.000000,0.000000,0.000000 ThumbRight:0.000000,0.000000,0.000000,0.000000 WristLeft:-0.047087,0.742855,-0.131141,0.654791 WristRight:0.140526,0.332954,-0.421638,0.831634 END:
KINECT_DATA POSITION:6.309953,-0.773645,-5.576706 HEAD_JOINT1:0.981811,0.181206,-0.000000,0.056675 LARM_JOINT2:0.816790,0.000000,0.026738,-0.576315 LARM_JOINT3:0.968768,0.000000,-0.195353,-0.152729 LLEG_JOINT2:0.999572,0.021590,0.000000,0.019765 LLEG_JOINT4:0.996582,0.079516,0.000000,-0.022391 RARM_JOINT2:0.808621,0.000000,0.117230,0.576532 RARM_JOINT3:0.846547,0.000000,0.394088,0.357844 RLEG_JOINT2:0.998380,0.029882,0.000000,-0.048412 RLEG_JOINT4:0.994200,0.096466,0.000000,0.047547 WAIST:0.998718,-0.000000,0.047112,0.018515 WAIST_JOINT0:0.996695,-0.000000,0.073847,0.033835 WAIST_JOINT1:0.998568,0.053494,-0.000000,0.000633 END:
KINECT_DATA_Sensor  AnkleLeft:0.073091,0.756232,-0.070139,-0.646414 AnkleRight:0.099469,0.748588,0.078134,0.650858 ElbowLeft:-0.017978,0.834446,-0.201455,-0.512633 ElbowRight:-0.099207,0.932772,0.105086,0.330230 FootLeft:0.000000,0.000000,0.000000,0.000000 FootRight:0.000000,0.000000,0.000000,0.000000 HandLeft:-0.098105,0.725325,-0.069349,0.677842 HandRight:0.229213,0.574004,-0.487839,0.616437 HandTipLeft:0.000000,0.000000,0.000000,0.000000 HandTipRight:0.000000,0.000000,0.000000,0.000000 Head:0.000000,0.000000,0.000000,0.000000 HipLeft:0.101606,-0.671181,0.720424,-0.142063 HipRight:-0.169738,0.682213,0.683176,-0.197601 KneeLeft:0.010402,-0.672367,0.042234,0.738939 KneeRight:-0.002563,0.740317,0.041608,0.670965 Neck:-0.075893,0.018458,0.994586,-0.068541 ShoulderLeft:0.064071,0.760083,-0.646580,-0.010137 ShoulderRight:-0.033096,0.798786,0.591364,-0.105519 SpineBase:-0.047663,0.016567,0.998275,-0.030023 SpineMid:-0.061454,0.016980,0.997521,-0.029792 SpineShoulder:-0.075688,0.017956,0.995816,-0.047958 ThumbLeft:0.000000,0.000000,0.000000,0.000000 ThumbRight:0.000000,0.000000,0.000000,0.000000 WristLeft:-0.045480,0.734885,-0.131640,0.663736 WristRight:0.070383,0.465820,-0.438147,0.765562 END:
KINECT_DATA POSITION:6.312283,-0.798821,-5.537450 HEAD_JOINT1:0.981575,0.182278,-0.000000,0.057322 LARM_JOINT2:0.816454,0.000000,0.033018,-0.576465 LARM_JOINT3:0.967273,0.000000,-0.200731,-0.155211 LLEG_JOINT2:0.999553,0.021950,0.000000,0.020289 LLEG_JOINT4:0.996532,0.080545,0.000000,-0.020896 RARM_JOINT2:0.806149,0.000000,0.121376,0.579131 RARM_JOINT3:0.852312,0.000000,0.389571,0.348998 RLEG_JOINT2:0.998426,0.029753,0.000000,-0.047535 RLEG_JOINT4:0.994156,0.097865,0.000000,0.045573 WAIST:0.998731,-0.000000,0.046984,0.018140 WAIST_JOINT0:0.997092,-0.000000,0.068867,0.032644 WAIST_JOINT1:0.998574,0.053373,-0.000000,0.000946 END:
KINECT_DATA_Sensor  AnkleLeft:0.071615,0.741132,-0.073963,-0.663418 AnkleRight:0.099291,0.748267,0.080094,0.651017 ElbowLeft:-0.014489,0.830903,-0.203092,-0.517825 ElbowRight:-0.100325,0.932923,0.100063,0.331023 FootLeft:0.000000,0.000000,0.000000,0.000000 FootRight:0.000000,0.000000,0.000000,0.000000 HandLeft:-0.110671,0.767940,-0.064187,0.627615 HandRight:0.181432,0.628900,-0.498282,0.568579 HandTipLeft:0.000000,0.000000,0.000000,0.000000 HandTipRight:0.000000,0.000000,0.000000,0.000000 Head:0.000000,0.000000,0.000000,0.000000 HipLeft:0.102074,-0.671397,0.720160,-0.142047 HipRight:-0.170103,0.681984,0.683378,-0.197375 KneeLeft:0.010226,-0.672470,0.042601,0.738826 KneeRight:-0.002260,0.740215,0.041187,0.671104 Neck:-0.070946,0.018068,0.994951,-0.068642 ShoulderLeft:0.059349,0.760343,-0.646784,-0.005107 ShoulderRight:-0.031651,0.797823,0.593236,-0.102701 SpineBase:-0.047509,0.016502,0.998295,-0.029633 SpineMid:-0.058915,0.016839,0.997687,-0.029442 SpineShoulder:-0.070729,0.017676,0.996188,-0.047903 ThumbLeft:0.000000,0.000000,0.000000,0.000000 ThumbRight:0.000000,0.000000,0.000000,0.000000 WristLeft:-0.054389,0.777929,-0.128112,0.612745 WristRight:-0.023046,0.614269,-0.441061,0.653917 END:
KINECT_DATA POSITION:6.383113,-0.802287,-5.497324 HEAD_JOINT1:0.981252,0.183690,-0.000000,0.058329 LARM_JOINT2:0.816378,0.000000,0.028616,-0.576808 LARM_JOINT3:0.968414,0.000000,-0.196230,-0.153846 LLEG_JOINT2:0.999549,0.022609,0.000000,0.019755 LLEG_JOINT4:0.996471,0.081014,0.000000,-0.021981 RARM_JOINT2:0.804558,0.000000,0.123253,0.580943 RARM_JOINT3:0.850822,0.000000,0.394009,0.347648 RLEG_JOINT2:0.998382,0.030253,0.000000,-0.048150 RLEG_JOINT4:0.994149,0.097437,0.000000,0.046613 WAIST:0.998679,-0.000000,0.048087,0.018134 WAIST_JOINT0:0.996868,-0.000000,0.071756,0.033241 WAIST_JOINT1:0.998577,0.053322,-0.000000,0.001090 END:
KINECT_DATA_Sensor  AnkleLeft:0.074809,0.751728,-0.071935,-0.651255 AnkleRight:0.098731,0.742357,0.080943,0.657728 ElbowLeft:-0.016552,0.833220,-0.201510,-0.514650 ElbowRight:-0.100409,0.933725,0.096919,0.329670 FootLeft:0.000000,0.000000,0.000000,0.000000 FootRight:0.000000,0.000000,0.000000,0.000000 HandLeft:-0.109630,0.820751,-0.051331,0.558313 HandRight:0.200996,0.591405,-0.503724,0.596744 HandTipLeft:0.000000,0.000000,0.000000,0.000000 HandTipRight:0.000000,0.000000,0.000000,0.000000 Head:0.000000,0.000000,0.000000,0.000000 HipLeft:0.101471,-0.671410,0.720364,-0.141378 HipRight:-0.171077,0.681760,0.683256,-0.197727 KneeLeft:0.009341,-0.671656,0.042640,0.739576 KneeRight:-0.002441,0.740964,0.041960,0.670228 Neck:-0.073756,0.018098,0.994743,-0.068690 ShoulderLeft:0.062743,0.759521,-0.647392,-0.008610 ShoulderRight:-0.031796,0.797393,0.593647,-0.103616 SpineBase:-0.048594,0.016923,0.998242,-0.029410 SpineMid:-0.060839,0.017283,0.997571,-0.029201 SpineShoulder:-0.073525,0.017892,0.995987,-0.047783 ThumbLeft:0.000000,0.000000,0.000000,0.000000 ThumbRight:0.000000,0.000000,0.000000,0.000000 WristLeft:-0.065175,0.828205,-0.122653,0.542942 WristRight:0.051351,0.498789,-0.438788,0.745679 END:
KINECT_DATA POSITION:6.405081,-0.823401,-5.448437 HEAD_JOINT1:0.980935,0.185848,-0.000000,0.056797 LARM_JOINT2:0.816369,0.000000,0.025697,-0.576959 LARM_JOINT3:0.969237,0.000000,-0.192129,-0.153838 LLEG_JOINT2:0.999582,0.021108,0.000000,0.019762 LLEG_JOINT4:0.996389,0.082769,0.000000,-0.018938 RARM_JOINT2:0.795177,0.000000,0.151375,0.587179 RARM_JOINT3:0.865356,0.000000,0.380717,0.325903 RLEG_JOINT2:0.998306,0.032446,0.000000,-0.048294 RLEG_JOINT4:0.994415,0.094307,0.000000,0.047389 WAIST:0.998503,-0.000000,0.051566,0.018260 WAIST_JOINT0:0.996355,-0.000000,0.077616,0.035380 WAIST_JOINT1:0.998570,0.053441,-0.000000,0.001221 END:
KINECT_DATA_Sensor  AnkleLeft:0.075939,0.771685,-0.071785,-0.627362 AnkleRight:0.098906,0.749707,0.079289,0.649515 ElbowLeft:-0.017207,0.833767,-0.200793,-0.514023 ElbowRight:-0.111868,0.941892,0.075764,0.307547 FootLeft:0.000000,0.000000,0.000000,0.000000 FootRight:0.000000,0.000000,0.000000,0.000000 HandLeft:-0.097003,0.773844,-0.054435,0.623533 HandRight:0.174284,0.610402,-0.497990,0.590796 HandTipLeft:0.000000,0.000000,0.000000,0.000000 HandTipRight:0.000000,0.000000,0.000000,0.000000 Head:0.000000,0.000000,0.000000,0.000000 HipLeft:0.100275,-0.671501,0.720694,-0.140115 HipRight:-0.173947,0.681032,0.682514,-0.200280 KneeLeft:0.010449,-0.669090,0.041718,0.741936 KneeRight:-0.001175,0.743348,0.043540,0.667485 Neck:-0.079775,0.018277,0.994261,-0.068902 ShoulderLeft:0.064488,0.758881,-0.647930,-0.011283 ShoulderRight:-0.037817,0.798655,0.590435,-0.110032 SpineBase:-0.052073,0.016976,0.998069,-0.029314 SpineMid:-0.065577,0.017371,0.997272,-0.029081 SpineShoulder:-0.079545,0.018104,0.995519,-0.047811 ThumbLeft:0.000000,0.000000,0.000000,0.000000 ThumbRight:0.000000,0.000000,0.000000,0.000000 WristLeft:-0.054855,0.781680,-0.127443,0.608050 WristRight:0.004996,0.599877,-0.442558,0.666532 END:
KINECT_DATA POSITION:6.404672,-0.834943,-5.400884 HEAD_JOINT1:0.980678,0.187995,-0.000000,0.054115 LARM_JOINT2:0.816255,0.000000,0.025066,-0.577148 LARM_JOINT3:0.968731,0.000000,-0.192863,-0.156088 LLEG_JOINT2:0.999580,0.020850,0.000000,0.020145 LLEG_JOINT4:0.996330,0.083157,0.000000,-0.020281 RARM_JOINT2:0.799477,0.000000,0.139425,0.584292 RARM_JOINT3:0.866653,0.000000,0.379910,0.323390 RLEG_JOINT2:0.998327,0.031781,0.000000,-0.048297 RLEG_JOINT4:0.994121,0.096622,0.000000,0.048869 WAIST:0.998475,-0.000000,0.052146,0.018126 WAIST_JOINT0:0.996523,-0.000000,0.076024,0.034086 WAIST_JOINT1:0.998550,0.053809,-0.000000,0.001239 END:
KINECT_DATA_Sensor  AnkleLeft:0.073817,0.745852,-0.073867,-0.657875 AnkleRight:0.100823,0.748631,0.079798,0.650398 ElbowLeft:-0.016347,0.835491,-0.200513,-0.511353 ElbowRight:-0.107532,0.937343,0.084412,0.320468 FootLeft:0.000000,0.000000,0.000000,0.000000 FootRight:0.000000,0.000000,0.000000,0.000000 HandLeft:-0.105484,0.744392,-0.058027,0.656800 HandRight:0.136179,0.664328,-0.500769,0.537916 HandTipLeft:0.000000,0.000000,0.000000,0.000000 HandTipRight:0.000000,0.000000,0.000000,0.000000 Head:0.000000,0.000000,0.000000,0.000000 HipLeft:0.099684,-0.671562,0.720769,-0.139855 HipRight:-0.173993,0.680754,0.682659,-0.200692 KneeLeft:0.010784,-0.668664,0.041734,0.742314 KneeRight:-0.001751,0.743715,0.043135,0.667101 Neck:-0.078055,0.017969,0.994372,-0.069341 ShoulderLeft:0.066463,0.758429,-0.648248,-0.011938 ShoulderRight:-0.033595,0.796989,0.593511,-0.106885 SpineBase:-0.052653,0.016833,0.998032,-0.029607 SpineMid:-0.065020,0.017199,0.997303,-0.029396 SpineShoulder:-0.077826,0.017833,0.995641,-0.048216 ThumbLeft:0.000000,0.000000,0.000000,0.000000 ThumbRight:0.000000,0.000000,0.000000,0.000000 WristLeft:-0.049139,0.755276,-0.127779,0.640949 WristRight:-0.046189,0.657656,-0.432184,0.615282 END:
KINECT_DATA POSITION:6.466764,-0.831629,-5.293930 HEAD_JOINT1:0.980455,0.189594,-0.000000,0.052554 LARM_JOINT2:0.815649,0.000000,0.025038,-0.578005 LARM_JOINT3:0.967934,0.000000,-0.200317,-0.151578 LLEG_JOINT2:0.999593,0.022646,0.000000,0.017320 LLEG_JOINT4:0.996613,0.079664,0.000000,-0.020420 RARM_JOINT2:0.804334,0.000000,0.124825,0.580919 RARM_JOINT3:0.858738,0.000000,0.390171,0.332169 RLEG_JOINT2:0.998248,0.031399,0.000000,-0.050153 RLEG_JOINT4:0.994179,0.096512,0.000000,0.047901 WAIST:0.998641,-0.000000,0.048357,0.019432 WAIST_JOINT0:0.996821,-0.000000,0.072880,0.032192 WAIST_JOINT1:0.998548,0.053862,-0.000000,0.000001 END:
KINECT_DATA_Sensor  AnkleLeft:0.072228,0.740530,-0.072717,-0.664162 AnkleRight:0.098337,0.735222,0.081765,0.665653 ElbowLeft:-0.017113,0.836343,-0.199560,-0.510308 ElbowRight:-0.101443,0.932081,0.095482,0.334392 FootLeft:0.000000,0.000000,0.000000,0.000000 FootRight:0.000000,0.000000,0.000000,0.000000 HandLeft:-0.125762,0.821527,-0.070998,0.551576 HandRight:0.073432,0.711896,-0.526349,0.459095 HandTipLeft:0.000000,0.000000,0.000000,0.000000 HandTipRight:0.000000,0.000000,0.000000,0.000000 Head:0.000000,0.000000,0.000000,0.000000 HipLeft:0.101505,-0.670254,0.721437,-0.141366 HipRight:-0.171483,0.682169,0.682580,-0.198302 KneeLeft:0.008592,-0.671413,0.041778,0.739855 KneeRight:-0.002247,0.741222,0.043233,0.669863 Neck:-0.074721,0.018222,0.994622,-0.069360 ShoulderLeft:0.066748,0.758361,-0.648306,-0.011497 ShoulderRight:-0.029060,0.795058,0.597126,-0.102365 SpineBase:-0.048933,0.017249,0.998217,-0.029522 SpineMid:-0.061479,0.017619,0.997523,-0.029303 SpineShoulder:-0.074476,0.018133,0.995893,-0.048187 ThumbLeft:0.000000,0.000000,0.000000,0.000000 ThumbRight:0.000000,0.000000,0.000000,0.000000 WristLeft:-0.066262,0.830718,-0.120312,0.539483 WristRight:-0.106452,0.724724,-0.419878,0.535860 END:
KINECT_DATA POSITION:6.447975,-0.844917,-5.229652 HEAD_JOINT1:0.981318,0.185596,-0.000000,0.050687 LARM_JOINT2:0.816293,0.000000,0.023244,-0.577170 LARM_JOINT3:0.969594,0.000000,-0.192289,-0.151366 LLEG_JOINT2:0.999590,0.022884,0.000000,0.017222 LLEG_JOINT4:0.996837,0.077667,0.000000,-0.016829 RARM_JOINT2:0.799695,0.000000,0.153917,0.580342 RARM_JOINT3:0.863360,0.000000,0.379277,0.332805 RLEG_JOINT2:0.998246,0.031991,0.000000,-0.049820 RLEG_JOINT4:0.994105,0.097520,0.000000,0.047391 WAIST:0.998641,-0.000000,0.048347,0.019483 WAIST_JOINT0:0.996472,-0.000000,0.076429,0.034672 WAIST_JOINT1:0.998494,0.054854,-0.000000,0.001144 END:
KINECT_DATA_Sensor  AnkleLeft:0.071312,0.763752,-0.072073,-0.637498 AnkleRight:0.101034,0.748834,0.080927,0.649992 ElbowLeft:-0.018034,0.837436,-0.201408,-0.507750 ElbowRight:-0.115228,0.942121,0.082013,0.303980 FootLeft:0.000000,0.000000,0.000000,0.000000 FootRight:0.000000,0.000000,0.000000,0.000000 HandLeft:-0.096110,0.794815,-0.061117,0.596068 HandRight:0.208415,0.575763,-0.495329,0.616206 HandTipLeft:0.000000,0.000000,0.000000,0.000000 HandTipRight:0.000000,0.000000,0.000000,0.000000 Head:0.000000,0.000000,0.000000,0.000000 HipLeft:0.101057,-0.670128,0.721489,-0.142022 HipRight:-0.171321,0.682187,0.682541,-0.198514 KneeLeft:0.008386,-0.671422,0.041901,0.739843 KneeRight:-0.001564,0.741233,0.043411,0.669840 Neck:-0.078496,0.019916,0.994222,-0.070452 ShoulderLeft:0.068646,0.756782,-0.649930,-0.012606 ShoulderRight:-0.032092,0.796248,0.594593,-0.106855 SpineBase:-0.048916,0.017886,0.998188,-0.030120 SpineMid:-0.063352,0.018320,0.997376,-0.029858 SpineShoulder:-0.078260,0.019407,0.995535,-0.049081 ThumbLeft:0.000000,0.000000,0.000000,0.000000 ThumbRight:0.000000,0.000000,0.000000,0.000000 WristLeft:-0.058642,0.800689,-0.124375,0.583086 WristRight:0.065206,0.498184,-0.429938,0.750143 END:
KINECT_DATA POSITION:6.437097,-0.848617,-5.236018 HEAD_JOINT1:0.981794,0.183936,-0.000000,0.047417 LARM_JOINT2:0.816710,0.000000,0.026405,-0.576444 LARM_JOINT3:0.969577,0.000000,-0.190204,-0.154086 LLEG_JOINT2:0.999579,0.021632,0.000000,0.019321 LLEG_JOINT4:0.996198,0.085306,0.000000,-0.017696 RARM_JOINT2:0.792665,0.000000,0.181057,0.582151 RARM_JOINT3:0.869641,0.000000,0.361327,0.336403 RLEG_JOINT2:0.998296,0.033139,0.000000,-0.048038 RLEG_JOINT4:0.994351,0.095279,0.000000,0.046776 WAIST:0.998353,-0.000000,0.054508,0.017897 WAIST_JOINT0:0.995576,-0.000000,0.086037,0.037774 WAIST_JOINT1:0.998460,0.055303,-0.000000,0.004351 END:
KINECT_DATA_Sensor  AnkleLeft:0.074602,0.736459,-0.077465,-0.667878 AnkleRight:0.099571,0.753937,0.080871,0.644301 ElbowLeft:-0.015430,0.832879,-0.204873,-0.513909 ElbowRight:-0.126926,0.953924,0.066017,0.263742 FootLeft:0.000000,0.000000,0.000000,0.000000 FootRight:0.000000,0.000000,0.000000,0.000000 HandLeft:-0.088392,0.831476,-0.045914,0.546558 HandRight:0.190065,0.631607,-0.491318,0.568819 HandTipLeft:0.000000,0.000000,0.000000,0.000000 HandTipRight:0.000000,0.000000,0.000000,0.000000 Head:0.000000,0.000000,0.000000,0.000000 HipLeft:0.096889,-0.671914,0.720869,-0.139615 HipRight:-0.174987,0.680454,0.682371,-0.201823 KneeLeft:0.009421,-0.666945,0.041476,0.743892 KneeRight:-0.000943,0.745317,0.044100,0.665249 Neck:-0.088421,0.021621,0.993316,-0.070969 ShoulderLeft:0.071558,0.755055,-0.651539,-0.016381 ShoulderRight:-0.042204,0.797424,0.590265,-0.117988 SpineBase:-0.054954,0.018708,0.997842,-0.030685 SpineMid:-0.071326,0.019209,0.996805,-0.030374 SpineShoulder:-0.088196,0.020821,0.994651,-0.049570 ThumbLeft:0.000000,0.000000,0.000000,0.000000 ThumbRight:0.000000,0.000000,0.000000,0.000000 WristLeft:-0.063105,0.835199,-0.122187,0.532476 WristRight:0.022275,0.622325,-0.442188,0.645512 END:
KINECT_DATA POSITION:6.425107,-0.852012,-5.257058 HEAD_JOINT1:0.981846,0.184132,-0.000000,0.045548 LARM_JOINT2:0.816431,0.000000,0.025620,-0.576875 LARM_JOINT3:0.968764,0.000000,-0.191570,-0.157470 LLEG_JOINT2:0.999563,0.020029,0.000000,0.021730 LLEG_JOINT4:0.996322,0.083559,0.000000,-0.018961 RARM_JOINT2:0.791013,0.000000,0.191197,0.581155 RARM_JOINT3:0.876206,0.000000,0.353825,0.327218 RLEG_JOINT2:0.998374,0.033168,0.000000,-0.046361 RLEG_JOINT4:0.994068,0.096975,0.000000,0.049232 WAIST:0.998057,-0.000000,0.060171,0.016165 WAIST_JOINT0:0.995711,-0.000000,0.084899,0.036755 WAIST_JOINT1:0.998451,0.055209,-0.000000,0.006941 END:
KINECT_DATA_Sensor  AnkleLeft:0.073533,0.740849,-0.073773,-0.663546 AnkleRight:0.101521,0.753105,0.081696,0.644866 ElbowLeft:-0.013651,0.833635,-0.205065,-0.512655 ElbowRight:-0.133153,0.956482,0.059957,0.252623 FootLeft:0.000000,0.000000,0.000000,0.000000 FootRight:0.000000,0.000000,0.000000,0.000000 HandLeft:-0.106734,0.822575,-0.050514,0.556261 HandRight:0.175558,0.652403,-0.487761,0.552846 HandTipLeft:0.000000,0.000000,0.000000,0.000000 HandTipRight:0.000000,0.000000,0.000000,0.000000 Head:0.000000,0.000000,0.000000,0.000000 HipLeft:0.092433,-0.673731,0.720395,-0.136286 HipRight:-0.177594,0.678756,0.682766,-0.203916 KneeLeft:0.010827,-0.662822,0.040973,0.747576 KneeRight:-0.001213,0.749010,0.044155,0.661084 Neck:-0.087180,0.021788,0.993408,-0.071168 ShoulderLeft:0.074592,0.753986,-0.652386,-0.018263 ShoulderRight:-0.037496,0.795966,0.593253,-0.114381 SpineBase:-0.060489,0.019128,0.997505,-0.030957 SpineMid:-0.073499,0.019530,0.996631,-0.030705 SpineShoulder:-0.086948,0.020997,0.994747,-0.049768 ThumbLeft:0.000000,0.000000,0.000000,0.000000 ThumbRight:0.000000,0.000000,0.000000,0.000000 WristLeft:-0.058678,0.830181,-0.120836,0.541069 WristRight:0.012308,0.644212,-0.438375,0.626631 END:
KINECT_DATA POSITION:6.426013,-0.855878,-5.261171 HEAD_JOINT1:0.982009,0.183684,-0.000000,0.043814 LARM_JOINT2:0.815922,0.000000,0.025441,-0.577601 LARM_JOINT3:0.968934,0.000000,-0.191005,-0.157109 LLEG_JOINT2:0.999566,0.020224,0.000000,0.021415 LLEG_JOINT4:0.996442,0.082372,0.000000,-0.017809 RARM_JOINT2:0.790627,0.000000,0.195234,0.580339 RARM_JOINT3:0.875252,0.000000,0.357214,0.326086 RLEG_JOINT2:0.998350,0.034137,0.000000,-0.046182 RLEG_JOINT4:0.994121,0.095509,0.000000,0.050996 WAIST:0.997986,-0.000000,0.061417,0.015885 WAIST_JOINT0:0.995749,-0.000000,0.084607,0.036419 WAIST_JOINT1:0.998458,0.055011,-0.000000,0.007507 END:
KINECT_DATA_Sensor  AnkleLeft:0.071882,0.734668,-0.074176,-0.670518 AnkleRight:0.101583,0.748189,0.081225,0.650612 ElbowLeft:-0.013432,0.833184,-0.204407,-0.513655 ElbowRight:-0.135981,0.957124,0.058065,0.249102 FootLeft:0.000000,0.000000,0.000000,0.000000 FootRight:0.000000,0.000000,0.000000,0.000000 HandLeft:-0.107825,0.860565,-0.042941,0.495940 HandRight:0.242982,0.566391,-0.471365,0.630854 HandTipLeft:0.000000,0.000000,0.000000,0.000000 HandTipRight:0.000000,0.000000,0.000000,0.000000 Head:0.000000,0.000000,0.000000,0.000000 HipLeft:0.091584,-0.673966,0.720381,-0.135771 HipRight:-0.178602,0.678337,0.682733,-0.204537 KneeLeft:0.010237,-0.661913,0.040669,0.748407 KneeRight:-0.000701,0.749847,0.044944,0.660082 Neck:-0.086827,0.021945,0.993453,-0.070930 ShoulderLeft:0.075913,0.754039,-0.652137,-0.019495 ShoulderRight:-0.035598,0.796071,0.593534,-0.112787 SpineBase:-0.061702,0.019547,0.997422,-0.030988 SpineMid:-0.073927,0.019926,0.996590,-0.030746 SpineShoulder:-0.086595,0.021128,0.994780,-0.049671 ThumbLeft:0.000000,0.000000,0.000000,0.000000 ThumbRight:0.000000,0.000000,0.000000,0.000000 WristLeft:-0.067406,0.866379,-0.116209,0.480978 WristRight:0.104514,0.500081,-0.426363,0.746465 END:
KINECT_DATA POSITION:6.436935,-0.846800,-5.307579 HEAD_JOINT1:0.982146,0.183206,-0.000000,0.042728 LARM_JOINT2:0.815204,0.000000,0.025010,-0.578633 LARM_JOINT3:0.969366,0.000000,-0.190875,-0.154586 LLEG_JOINT2:0.999578,0.019080,0.000000,0.021926 LLEG_JOINT4:0.996319,0.083749,0.000000,-0.018270 RARM_JOINT2:0.793466,0.000000,0.187857,0.578897 RARM_JOINT3:0.863243,0.000000,0.369569,0.343845 RLEG_JOINT2:0.998322,0.034246,0.000000,-0.046697 RLEG_JOINT4:0.993974,0.095725,0.000000,0.053415 WAIST:0.997841,-0.000000,0.063762,0.015755 WAIST_JOINT0:0.995128,-0.000000,0.090739,0.038568 WAIST_JOINT1:0.998471,0.054709,-0.000000,0.007873 END:
KINECT_DATA_Sensor  AnkleLeft:0.073419,0.743427,-0.072919,-0.660763 AnkleRight:0.103662,0.755664,0.079511,0.641797 ElbowLeft:-0.013753,0.830637,-0.203214,-0.518225 ElbowRight:-0.133043,0.957602,0.063548,0.247506 FootLeft:0.000000,0.000000,0.000000,0.000000 FootRight:0.000000,0.000000,0.000000,0.000000 HandLeft:-0.100590,0.820269,-0.055011,0.560370 HandRight:0.225218,0.605904,-0.503140,0.573592 HandTipLeft:0.000000,0.000000,0.000000,0.000000 HandTipRight:0.000000,0.000000,0.000000,0.000000 Head:0.000000,0.000000,0.000000,0.000000 HipLeft:0.089972,-0.674263,0.720558,-0.134423 HipRight:-0.179874,0.677908,0.682507,-0.205596 KneeLeft:0.011273,-0.660178,0.040203,0.749948 KneeRight:-0.001238,0.751395,0.045431,0.658286 Neck:-0.093117,0.022294,0.992910,-0.070440 ShoulderLeft:0.077788,0.753650,-0.652259,-0.022799 ShoulderRight:-0.041788,0.797673,0.589739,-0.119077 SpineBase:-0.064028,0.019796,0.997269,-0.031026 SpineMid:-0.078219,0.020235,0.996257,-0.030741 SpineShoulder:-0.092891,0.021460,0.994221,-0.049357 ThumbLeft:0.000000,0.000000,0.000000,0.000000 ThumbRight:0.000000,0.000000,0.000000,0.000000 WristLeft:-0.057877,0.826636,-0.122304,0.546227 WristRight:0.049236,0.602740,-0.447387,0.658882 END:
KINECT_DATA POSITION:6.631099,-0.754712,-5.559695 HEAD_JOINT1:0.982910,0.181102,-0.000000,0.033007 LARM_JOINT2:0.813153,0.000000,0.034623,-0.581020 LARM_JOINT3:0.968376,0.000000,-0.197303,-0.152708 LLEG_JOINT2:0.999669,0.014871,0.000000,0.021006 LLEG_JOINT4:0.996256,0.085178,0.000000,-0.014755 RARM_JOINT2:0.795893,0.000000,0.222751,0.562972 RARM_JOINT3:0.853658,0.000000,0.368761,0.367808 RLEG_JOINT2:0.998254,0.034068,0.000000,-0.048255 RLEG_JOINT4:0.994058,0.092444,0.000000,0.057466 WAIST:0.997088,-0.000000,0.074840,0.014644 WAIST_JOINT0:0.993272,-0.000000,0.108017,0.041756 WAIST_JOINT1:0.998464,0.054034,-0.000000,0.012226 END:
KINECT_DATA_Sensor  AnkleLeft:0.071100,0.737050,-0.071706,-0.668252 AnkleRight:0.101630,0.764527,0.076827,0.631876 ElbowLeft:-0.009774,0.811464,-0.205886,-0.546847 ElbowRight:-0.159932,0.967519,0.060255,0.186274 FootLeft:0.000000,0.000000,0.000000,0.000000 FootRight:0.000000,0.000000,0.000000,0.000000 HandLeft:-0.086164,0.842209,-0.048774,0.529982 HandRight:0.285868,0.582707,-0.503369,0.570396 HandTipLeft:0.000000,0.000000,0.000000,0.000000 HandTipRight:0.000000,0.000000,0.000000,0.000000 Head:0.000000,0.000000,0.000000,0.000000 HipLeft:0.081626,-0.675928,0.721021,-0.128791 HipRight:-0.186542,0.675737,0.681461,-0.210220 KneeLeft:0.012755,-0.652040,0.035979,0.757223 KneeRight:-0.003942,0.758613,0.046961,0.649835 Neck:-0.110284,0.025596,0.991132,-0.069573 ShoulderLeft:0.087097,0.751703,-0.652787,-0.035009 ShoulderRight:-0.054735,0.797658,0.585598,-0.133498 SpineBase:-0.074916,0.022947,0.996428,-0.031490 SpineMid:-0.092190,0.023490,0.994979,-0.031087 SpineShoulder:-0.110061,0.024359,0.992421,-0.048936 ThumbLeft:0.000000,0.000000,0.000000,0.000000 ThumbRight:0.000000,0.000000,0.000000,0.000000 WristLeft:-0.062801,0.845063,-0.128816,0.515103 WristRight:0.107396,0.584972,-0.451705,0.665009 END:
KINECT_DATA POSITION:7.135764,-0.498425,-6.006515 HEAD_JOINT1:0.983406,0.180998,-0.000000,0.012328 LARM_JOINT2:0.809169,0.000000,0.058108,-0.584696 LARM_JOINT3:0.967471,0.000000,-0.205198,-0.147965 LLEG_JOINT2:0.999805,0.012040,0.000000,0.015653 LLEG_JOINT4:0.996786,0.079566,0.000000,-0.009308 RARM_JOINT2:0.796183,0.000000,0.263887,0.544478 RARM_JOINT3:0.853175,0.000000,0.354215,0.382916 RLEG_JOINT2:0.997668,0.036949,0.000000,-0.057386 RLEG_JOINT4:0.993554,0.092793,0.000000,0.065109 WAIST:0.994401,-0.000000,0.104041,0.018497 WAIST_JOINT0:0.986607,-0.000000,0.154179,0.053243 WAIST_JOINT1:0.998510,0.050691,-0.000000,0.020208 END:
KINECT_DATA_Sensor  AnkleLeft:0.065991,0.745636,-0.065408,-0.659844 AnkleRight:0.098336,0.749367,0.085278,0.649235 ElbowLeft:0.002003,0.776011,-0.216886,-0.592252 ElbowRight:-0.192672,0.975246,0.044359,0.099018 FootLeft:0.000000,0.000000,0.000000,0.000000 FootRight:0.000000,0.000000,0.000000,0.000000 HandLeft:-0.037473,0.835788,-0.067677,0.543575 HandRight:0.255724,0.661556,-0.531359,0.463257 HandTipLeft:0.000000,0.000000,0.000000,0.000000 HandTipRight:0.000000,0.000000,0.000000,0.000000 Head:0.000000,0.000000,0.000000,0.000000 HipLeft:0.062265,-0.674713,0.726603,-0.113722 HipRight:-0.206009,0.673191,0.674114,-0.223482 KneeLeft:0.013553,-0.629735,0.032826,0.775998 KneeRight:-0.008139,0.777619,0.051799,0.626546 Neck:-0.156060,0.039298,0.984769,-0.065815 ShoulderLeft:0.112600,0.739983,-0.659486,-0.069458 ShoulderRight:-0.089568,0.794688,0.576025,-0.169246 SpineBase:-0.103993,0.032407,0.993555,-0.031377 SpineMid:-0.129553,0.033205,0.990546,-0.030532 SpineShoulder:-0.155928,0.034881,0.986087,-0.045856 ThumbLeft:0.000000,0.000000,0.000000,0.000000 ThumbRight:0.000000,0.000000,0.000000,0.000000 WristLeft:-0.049146,0.831285,-0.143888,0.534646 WristRight:0.096023,0.687747,-0.464050,0.549946 END:
KINECT_DATA POSITION:7.304759,-0.032492,-6.898499 HEAD_JOINT1:0.985691,0.167814,0.000000,-0.015847 LARM_JOINT2:0.805077,0.000000,0.070719,-0.588939 LARM_JOINT3:0.963374,0.000000,-0.217598,-0.156723 LLEG_JOINT2:0.999972,0.002719,0.000000,0.006993 LLEG_JOINT4:0.997160,0.075277,0.000000,-0.002267 RARM_JOINT2:0.800558,0.000000,0.285735,0.526747 RARM_JOINT3:0.855724,0.000000,0.357703,0.373877 RLEG_JOINT2:0.997010,0.039927,0.000000,-0.066157 RLEG_JOINT4:0.993466,0.088504,0.000000,0.072053 WAIST:0.988180,-0.000000,0.150999,0.026450 WAIST_JOINT0:0.976539,-0.000000,0.204173,0.068442 WAIST_JOINT1:0.998109,0.052275,-0.000000,0.032327 END:
KINECT_DATA_Sensor  AnkleLeft:0.054192,0.736481,-0.058994,-0.671698 AnkleRight:0.092427,0.745161,0.088847,0.654446 ElbowLeft:0.012915,0.733984,-0.232135,-0.638134 ElbowRight:-0.210314,0.976790,0.022516,0.033803 FootLeft:0.000000,0.000000,0.000000,0.000000 FootRight:0.000000,0.000000,0.000000,0.000000 HandLeft:-0.062120,0.994167,-0.038494,-0.079318 HandRight:0.546899,0.180541,-0.205824,0.791166 HandTipLeft:0.000000,0.000000,0.000000,0.000000 HandTipRight:0.000000,0.000000,0.000000,0.000000 Head:0.000000,0.000000,0.000000,0.000000 HipLeft:0.033130,-0.672123,0.733799,-0.093229 HipRight:-0.235269,0.670965,0.658742,-0.245995 KneeLeft:0.020615,-0.592914,0.025971,0.804583 KneeRight:-0.010846,0.806908,0.052712,0.588220 Neck:-0.206520,0.057045,0.974240,-0.070370 ShoulderLeft:0.143145,0.722243,-0.669002,-0.101545 ShoulderRight:-0.126833,0.788660,0.562897,-0.212312 SpineBase:-0.150885,0.045546,0.986942,-0.033240 SpineMid:-0.178096,0.046447,0.982396,-0.031969 SpineShoulder:-0.206149,0.052347,0.975926,-0.048284 ThumbLeft:0.000000,0.000000,0.000000,0.000000 ThumbRight:0.000000,0.000000,0.000000,0.000000 WristLeft:-0.124791,0.983292,-0.108904,-0.075530 WristRight:0.434049,0.145998,-0.238440,0.856407 END:
KINECT_DATA POSITION:7.106256,0.098089,-7.122862 HEAD_JOINT1:0.986624,0.161016,0.000000,-0.025446 LARM_JOINT2:0.803765,0.000000,0.076541,-0.590003 LARM_JOINT3:0.960466,0.000000,-0.226833,-0.161407 LLEG_JOINT2:0.999977,-0.000337,0.000000,0.006733 LLEG_JOINT4:0.997243,0.074177,0.000000,0.002093 RARM_JOINT2:0.796932,0.000000,0.295224,0.527013 RARM_JOINT3:0.860409,0.000000,0.360201,0.360488 RLEG_JOINT2:0.996894,0.041514,0.000000,-0.066924 RLEG_JOINT4:0.993544,0.086433,0.000000,0.073477 WAIST:0.986018,-0.000000,0.164256,0.028088 WAIST_JOINT0:0.973960,-0.000000,0.215094,0.071664 WAIST_JOINT1:0.998044,0.052121,-0.000000,0.034526 END:
KINECT_DATA_Sensor  AnkleLeft:0.048495,0.729478,-0.061345,-0.679520 AnkleRight:0.092495,0.753618,0.088064,0.644787 ElbowLeft:0.016742,0.717969,-0.235027,-0.654983 ElbowRight:-0.214695,0.976316,0.007381,0.025673 FootLeft:0.000000,0.000000,0.000000,0.000000 FootRight:0.000000,0.000000,0.000000,0.000000 HandLeft:-0.067120,0.993304,-0.030809,-0.088840 HandRight:0.556210,0.155351,-0.187401,0.794592 HandTipLeft:0.000000,0.000000,0.000000,0.000000 HandTipRight:0.000000,0.000000,0.000000,0.000000 Head:0.000000,0.000000,0.000000,0.000000 HipLeft:0.026258,-0.671914,0.734905,-0.088075 HipRight:-0.245388,0.669656,0.653698,-0.253031 KneeLeft:0.024005,-0.582299,0.025181,0.812230 KneeRight:-0.010333,0.814947,0.052890,0.577025 Neck:-0.217843,0.059483,0.971613,-0.070536 ShoulderLeft:0.145568,0.720042,-0.670358,-0.104737 ShoulderRight:-0.140038,0.787814,0.555834,-0.225357 SpineBase:-0.164064,0.049560,0.984651,-0.033001 SpineMid:-0.190238,0.050422,0.979931,-0.031669 SpineShoulder:-0.217391,0.055504,0.973281,-0.048843 ThumbLeft:0.000000,0.000000,0.000000,0.000000 ThumbRight:0.000000,0.000000,0.000000,0.000000 WristLeft:-0.129815,0.981224,-0.114203,-0.085476 WristRight:0.445070,0.120625,-0.223088,0.858833 END:
KINECT_DATA POSITION:7.049835,0.107500,-7.151055 HEAD_JOINT1:0.986705,0.160004,0.000000,-0.028477 LARM_JOINT2:0.800818,0.000000,0.092200,-0.591768 LARM_JOINT3:0.958547,0.000000,-0.232680,-0.164461 LLEG_JOINT2:0.999971,-0.000489,0.000000,0.007572 LLEG_JOINT4:0.997142,0.075494,0.000000,0.002988 RARM_JOINT2:0.793652,0.000000,0.299192,0.529718 RARM_JOINT3:0.864828,0.000000,0.355978,0.354050 RLEG_JOINT2:0.996930,0.042036,0.000000,-0.066051 RLEG_JOINT4:0.993484,0.087227,0.000000,0.073358 WAIST:0.985529,-0.000000,0.167271,0.027454 WAIST_JOINT0:0.973586,-0.000000,0.216814,0.071563 WAIST_JOINT1:0.998015,0.051023,-0.000000,0.036925 END:
KINECT_DATA_Sensor  AnkleLeft:0.049810,0.732479,-0.062291,-0.676101 AnkleRight:0.091133,0.741964,0.091335,0.657908 ElbowLeft:0.027065,0.708943,-0.236923,-0.663728 ElbowRight:-0.215251,0.976223,-0.001498,0.025550 FootLeft:0.000000,0.000000,0.000000,0.000000 FootRight:0.000000,0.000000,0.000000,0.000000 HandLeft:-0.062548,0.995996,-0.040248,0.049589 HandRight:0.542406,0.178186,-0.196638,0.797107 HandTipLeft:0.000000,0.000000,0.000000,0.000000 HandTipRight:0.000000,0.000000,0.000000,0.000000 Head:0.000000,0.000000,0.000000,0.000000 HipLeft:0.024673,-0.672427,0.734662,-0.086629 HipRight:-0.248544,0.668985,0.652996,-0.253537 KneeLeft:0.024148,-0.579903,0.025348,0.813933 KneeRight:-0.009980,0.816771,0.053165,0.574421 Neck:-0.219812,0.060950,0.971136,-0.069737 ShoulderLeft:0.139564,0.721975,-0.670115,-0.101094 ShoulderRight:-0.149446,0.788097,0.550553,-0.231214 SpineBase:-0.166957,0.051486,0.984087,-0.032365 SpineMid:-0.192609,0.052314,0.979389,-0.031009 SpineShoulder:-0.219311,0.057216,0.972779,-0.048260 ThumbLeft:0.000000,0.000000,0.000000,0.000000 ThumbRight:0.000000,0.000000,0.000000,0.000000 WristLeft:-0.108901,0.984315,-0.129822,0.049103 WristRight:0.442954,0.143348,-0.236214,0.852904 END:
KINECT_DATA POSITION:6.969076,0.126396,-7.024860 HEAD_JOINT1:0.986684,0.160374,0.000000,-0.027123 LARM_JOINT2:0.798369,0.000000,0.104681,-0.593000 LARM_JOINT3:0.951604,0.000000,-0.251694,-0.176351 LLEG_JOINT2:0.999970,-0.003311,0.000000,0.007062 LLEG_JOINT4:0.996957,0.077640,0.000000,0.007023 RARM_JOINT2:0.788848,0.000000,0.311847,0.529595 RARM_JOINT3:0.865347,0.000000,0.380463,0.326226 RLEG_JOINT2:0.997040,0.043790,0.000000,-0.063202 RLEG_JOINT4:0.993888,0.083171,0.000000,0.072587 WAIST:0.984572,-0.000000,0.172883,0.027012 WAIST_JOINT0:0.974943,-0.000000,0.211054,0.070301 WAIST_JOINT1:0.998029,0.049428,-0.000000,0.038673 END:
KINECT_DATA_Sensor  AnkleLeft:0.049655,0.742989,-0.063488,-0.664433 AnkleRight:0.090991,0.747122,0.088866,0.652405 ElbowLeft:0.037646,0.705890,-0.237474,-0.666265 ElbowRight:-0.222106,0.974274,-0.017670,0.033863 FootLeft:0.000000,0.000000,0.000000,0.000000 FootRight:0.000000,0.000000,0.000000,0.000000 HandLeft:-0.131504,0.989174,-0.038592,-0.052460 HandRight:0.399910,0.482343,-0.465769,0.624881 HandTipLeft:0.000000,0.000000,0.000000,0.000000 HandTipRight:0.000000,0.000000,0.000000,0.000000 Head:0.000000,0.000000,0.000000,0.000000 HipLeft:0.021720,-0.672834,0.734821,-0.082831 HipRight:-0.253179,0.667865,0.651763,-0.255072 KneeLeft:0.025818,-0.575479,0.023031,0.817084 KneeRight:-0.007351,0.820205,0.053099,0.569553 Neck:-0.214646,0.061327,0.972311,-0.069115 ShoulderLeft:0.127545,0.725871,-0.669775,-0.090803 ShoulderRight:-0.155732,0.789837,0.545746,-0.232522 SpineBase:-0.172480,0.053021,0.983091,-0.031164 SpineMid:-0.192774,0.053654,0.979314,-0.030061 SpineShoulder:-0.214099,0.057884,0.973925,-0.047766 ThumbLeft:0.000000,0.000000,0.000000,0.000000 ThumbRight:0.000000,0.000000,0.000000,0.000000 WristLeft:-0.123435,0.984175,-0.110771,-0.062396 WristRight:0.303062,0.482043,-0.413743,0.710355 END:
KINECT_DATA POSITION:6.915718,0.166040,-6.715143 HEAD_JOINT1:0.986654,0.161163,0.000000,-0.023252 LARM_JOINT2:0.797195,0.000000,0.098372,-0.595654 LARM_JOINT3:0.953181,0.000000,-0.247323,-0.174005 LLEG_JOINT2:0.999972,-0.003958,0.000000,0.006280 LLEG_JOINT4:0.996650,0.081215,0.000000,0.009641 RARM_JOINT2:0.783989,0.000000,0.325022,0.528887 RARM_JOINT3:0.869109,0.000000,0.390384,0.303728 RLEG_JOINT2:0.996974,0.046826,0.000000,-0.062055 RLEG_JOINT4:0.993949,0.080642,0.000000,0.074582 WAIST:0.983878,-0.000000,0.176766,0.027179 WAIST_JOINT0:0.975235,-0.000000,0.209483,0.070946 WAIST_JOINT1:0.998130,0.047667,-0.000000,0.038276 END:
KINECT_DATA_Sensor  AnkleLeft:0.051266,0.734875,-0.066555,-0.672979 AnkleRight:0.102221,0.812385,0.077855,0.568788 ElbowLeft:0.034974,0.710219,-0.232235,-0.663651 ElbowRight:-0.229466,0.971526,-0.033742,0.048423 FootLeft:0.000000,0.000000,0.000000,0.000000 FootRight:0.000000,0.000000,0.000000,0.000000 HandLeft:-0.084263,0.823507,-0.116556,0.548772 HandRight:0.418965,0.440456,-0.444584,0.657884 HandTipLeft:0.000000,0.000000,0.000000,0.000000 HandTipRight:0.000000,0.000000,0.000000,0.000000 Head:0.000000,0.000000,0.000000,0.000000 HipLeft:0.019216,-0.673389,0.734933,-0.077793 HipRight:-0.255783,0.667898,0.650530,-0.255534 KneeLeft:0.026009,-0.572198,0.022162,0.819403 KneeRight:-0.004815,0.822689,0.054706,0.565833 Neck:-0.213332,0.060733,0.972729,-0.067816 ShoulderLeft:0.123188,0.727354,-0.669262,-0.088711 ShoulderRight:-0.158243,0.792277,0.541487,-0.232482 SpineBase:-0.176384,0.053259,0.982445,-0.029241 SpineMid:-0.194056,0.053777,0.979107,-0.028277 SpineShoulder:-0.212766,0.057452,0.974310,-0.046372 ThumbLeft:0.000000,0.000000,0.000000,0.000000 ThumbRight:0.000000,0.000000,0.000000,0.000000 WristLeft:-0.034776,0.828033,-0.159809,0.536295 WristRight:0.328511,0.431189,-0.414231,0.731143 END:
KINECT_DATA POSITION:6.919594,0.225138,-6.449187 HEAD_JOINT1:0.987118,0.158566,0.000000,-0.021315 LARM_JOINT2:0.800250,0.000000,0.083858,-0.593774 LARM_JOINT3:0.956729,0.000000,-0.232745,-0.174643 LLEG_JOINT2:0.999980,-0.004113,0.000000,0.004745 LLEG_JOINT4:0.996419,0.084098,0.000000,0.008787 RARM_JOINT2:0.770860,0.000000,0.361668,0.524377 RARM_JOINT3:0.876255,0.000000,0.381546,0.294280 RLEG_JOINT2:0.996809,0.049299,0.000000,-0.062777 RLEG_JOINT4:0.993411,0.081046,0.000000,0.081033 WAIST:0.983310,-0.000000,0.179750,0.028121 WAIST_JOINT0:0.973698,-0.000000,0.215193,0.074858 WAIST_JOINT1:0.998167,0.046764,-0.000000,0.038404 END:
KINECT_DATA_Sensor  AnkleLeft:-0.039826,-0.580656,0.075588,0.809653 AnkleRight:0.097702,0.730394,0.090392,0.669932 ElbowLeft:0.027373,0.724598,-0.232239,-0.648285 ElbowRight:-0.248013,0.966377,-0.060497,0.030738 FootLeft:0.000000,0.000000,0.000000,0.000000 FootRight:0.000000,0.000000,0.000000,0.000000 HandLeft:-0.116244,0.989870,-0.036634,-0.072815 HandRight:0.469782,0.413612,-0.398407,0.670449 HandTipLeft:0.000000,0.000000,0.000000,0.000000 HandTipRight:0.000000,0.000000,0.000000,0.000000 Head:0.000000,0.000000,0.000000,0.000000 HipLeft:0.016813,-0.673179,0.735532,-0.074430 HipRight:-0.257747,0.668373,0.649049,-0.256085 KneeLeft:0.025921,-0.569690,0.021496,0.821169 KneeRight:-0.003536,0.824617,0.056410,0.562861 Neck:-0.218859,0.062009,0.971486,-0.066860 ShoulderLeft:0.130287,0.724735,-0.669596,-0.097083 ShoulderRight:-0.157131,0.794855,0.537564,-0.233538 SpineBase:-0.179390,0.054368,0.981868,-0.028261 SpineMid:-0.198290,0.054903,0.978226,-0.027208 SpineShoulder:-0.218285,0.058587,0.973067,-0.045397 ThumbLeft:0.000000,0.000000,0.000000,0.000000 ThumbRight:0.000000,0.000000,0.000000,0.000000 WristLeft:-0.124246,0.983719,-0.103071,-0.078967 WristRight:0.364047,0.386326,-0.398030,0.748194 END:
KINECT_DATA POSITION:6.902791,0.254058,-6.389761 HEAD_JOINT1:0.987419,0.156839,0.000000,-0.020123 LARM_JOINT2:0.800560,0.000000,0.083374,-0.593424 LARM_JOINT3:0.959071,0.000000,-0.224202,-0.172964 LLEG_JOINT2:0.999983,-0.004152,0.000000,0.004087 LLEG_JOINT4:0.996452,0.083782,0.000000,0.007942 RARM_JOINT2:0.763962,0.000000,0.378404,0.522658 RARM_JOINT3:0.879596,0.000000,0.371499,0.297152 RLEG_JOINT2:0.996761,0.050242,0.000000,-0.062797 RLEG_JOINT4:0.993754,0.082144,0.000000,0.075531 WAIST:0.982971,-0.000000,0.181519,0.028612 WAIST_JOINT0:0.972687,-0.000000,0.219037,0.076824 WAIST_JOINT1:0.998121,0.047114,-0.000000,0.039177 END:
KINECT_DATA_Sensor  AnkleLeft:0.053830,0.726042,-0.065153,-0.682437 AnkleRight:0.105931,0.816211,0.080846,0.562177 ElbowLeft:0.027765,0.725168,-0.233651,-0.647123 ElbowRight:-0.254842,0.963916,-0.073886,0.021486 FootLeft:0.000000,0.000000,0.000000,0.000000 FootRight:0.000000,0.000000,0.000000,0.000000 HandLeft:-0.079647,0.991429,-0.034341,-0.097699 HandRight:0.410561,0.531310,-0.433413,0.601084 HandTipLeft:0.000000,0.000000,0.000000,0.000000 HandTipRight:0.000000,0.000000,0.000000,0.000000 Head:0.000000,0.000000,0.000000,0.000000 HipLeft:0.014805,-0.672854,0.735976,-0.073400 HipRight:-0.258416,0.668335,0.648510,-0.256874 KneeLeft:0.025923,-0.568268,0.021292,0.822160 KneeRight:-0.002801,0.825701,0.056806,0.561234 Neck:-0.222933,0.063330,0.970452,-0.067177 ShoulderLeft:0.132348,0.724505,-0.669079,-0.099548 ShoulderRight:-0.160051,0.796563,0.532388,-0.237559 SpineBase:-0.181147,0.055202,0.981484,-0.028776 SpineMid:-0.201185,0.055779,0.977573,-0.027641 SpineShoulder:-0.222358,0.059788,0.972054,-0.045760 ThumbLeft:0.000000,0.000000,0.000000,0.000000 ThumbRight:0.000000,0.000000,0.000000,0.000000 WristLeft:-0.123782,0.982304,-0.101556,-0.097173 WristRight:0.311159,0.495472,-0.453110,0.672591 END:
KINECT_DATA POSITION:6.879411,0.278397,-6.377304 HEAD_JOINT1:0.987781,0.154564,0.000000,-0.019975 LARM_JOINT2:0.796953,0.000000,0.092762,-0.596876 LARM_JOINT3:0.959323,0.000000,-0.225032,-0.170473 LLEG_JOINT2:0.999981,-0.004518,0.000000,0.004179 LLEG_JOINT4:0.996484,0.083348,0.000000,0.008510 RARM_JOINT2:0.760035,0.000000,0.384979,0.523581 RARM_JOINT3:0.883408,0.000000,0.360485,0.299401 RLEG_JOINT2:0.996766,0.050755,0.000000,-0.062296 RLEG_JOINT4:0.993879,0.080315,0.000000,0.075854 WAIST:0.982688,-0.000000,0.183099,0.028262 WAIST_JOINT0:0.972663,-0.000000,0.218775,0.077878 WAIST_JOINT1:0.998050,0.047717,-0.000000,0.040240 END:
KINECT_DATA_Sensor  AnkleLeft:-0.039420,-0.578117,0.074149,0.811621 AnkleRight:0.105305,0.816229,0.079877,0.562406 ElbowLeft:0.035560,0.718903,-0.231828,-0.654347 ElbowRight:-0.255947,0.963291,-0.079926,0.013169 FootLeft:0.000000,0.000000,0.000000,0.000000 FootRight:0.000000,0.000000,0.000000,0.000000 HandLeft:-0.059296,0.992457,-0.040488,-0.099368 HandRight:0.426388,0.510102,-0.388091,0.638260 HandTipLeft:0.000000,0.000000,0.000000,0.000000 HandTipRight:0.000000,0.000000,0.000000,0.000000 Head:0.000000,0.000000,0.000000,0.000000 HipLeft:0.012893,-0.673175,0.735812,-0.072462 HipRight:-0.258799,0.667868,0.648572,-0.257546 KneeLeft:0.026026,-0.567044,0.020926,0.823010 KneeRight:-0.002464,0.826610,0.057154,0.559859 Neck:-0.223814,0.063838,0.970150,-0.068118 ShoulderLeft:0.129105,0.724950,-0.669832,-0.095421 ShoulderRight:-0.165155,0.798233,0.526298,-0.241989 SpineBase:-0.182680,0.055522,0.981163,-0.029398 SpineMid:-0.202382,0.056102,0.977289,-0.028275 SpineShoulder:-0.223238,0.060280,0.971782,-0.046589 ThumbLeft:0.000000,0.000000,0.000000,0.000000 ThumbRight:0.000000,0.000000,0.000000,0.000000 WristLeft:-0.120676,0.983084,-0.099392,-0.095415 WristRight:0.339174,0.465530,-0.435935,0.691523 END:
KINECT_DATA POSITION:6.892118,0.294090,-6.359470 HEAD_JOINT1:0.988033,0.152940,0.000000,-0.020000 LARM_JOINT2:0.800553,0.000000,0.078856,-0.594051 LARM_JOINT3:0.960048,0.000000,-0.220965,-0.171707 LLEG_JOINT2:0.999983,-0.005054,0.000000,0.003064 LLEG_JOINT4:0.996364,0.084593,0.000000,0.010137 RARM_JOINT2:0.760016,0.000000,0.386968,0.522142 RARM_JOINT3:0.890170,0.000000,0.356011,0.284348 RLEG_JOINT2:0.996673,0.051237,0.000000,-0.063391 RLEG_JOINT4:0.993928,0.079413,0.000000,0.076165 WAIST:0.982281,-0.000000,0.185108,0.029324 WAIST_JOINT0:0.969999,-0.000000,0.228337,0.083454 WAIST_JOINT1:0.998061,0.048052,-0.000000,0.039575 END:
KINECT_DATA_Sensor  AnkleLeft:0.053784,0.730756,-0.065987,-0.677310 AnkleRight:0.105392,0.820517,0.078831,0.556265 ElbowLeft:0.028280,0.730734,-0.233137,-0.640995 ElbowRight:-0.257343,0.962850,-0.081136,0.010524 FootLeft:0.000000,0.000000,0.000000,0.000000 FootRight:0.000000,0.000000,0.000000,0.000000 HandLeft:-0.076688,0.992146,-0.043912,-0.088527 HandRight:0.343536,0.572791,-0.439349,0.600721 HandTipLeft:0.000000,0.000000,0.000000,0.000000 HandTipRight:0.000000,0.000000,0.000000,0.000000 Head:0.000000,0.000000,0.000000,0.000000 HipLeft:0.011802,-0.672313,0.736705,-0.071564 HipRight:-0.260231,0.667757,0.647490,-0.259108 KneeLeft:0.026590,-0.565375,0.020469,0.824151 KneeRight:-0.002502,0.827813,0.057373,0.558058 Neck:-0.233098,0.064583,0.967925,-0.067935 ShoulderLeft:0.140356,0.718885,-0.672605,-0.105385 ShoulderRight:-0.165550,0.797921,0.524627,-0.246339 SpineBase:-0.184739,0.055787,0.980759,-0.029508 SpineMid:-0.208023,0.056474,0.976086,-0.028172 SpineShoulder:-0.232539,0.060874,0.969571,-0.046381 ThumbLeft:0.000000,0.000000,0.000000,0.000000 ThumbRight:0.000000,0.000000,0.000000,0.000000 WristLeft:-0.119441,0.983919,-0.099910,-0.087493 WristRight:0.285849,0.543607,-0.471334,0.632950 END:
KINECT_DATA POSITION:6.906356,0.260907,-6.354237 HEAD_JOINT1:0.988156,0.152262,0.000000,-0.019057 LARM_JOINT2:0.798397,0.000000,0.092500,-0.594983 LARM_JOINT3:0.956394,0.000000,-0.232108,-0.177302 LLEG_JOINT2:0.999973,-0.005961,0.000000,0.004274 LLEG_JOINT4:0.996372,0.084149,0.000000,0.012692 RARM_JOINT2:0.758587,0.000000,0.388889,0.522792 RARM_JOINT3:0.904103,0.000000,0.354993,0.237862 RLEG_JOINT2:0.996664,0.052145,0.000000,-0.062787 RLEG_JOINT4:0.993759,0.079932,0.000000,0.077807 WAIST:0.982090,-0.000000,0.186255,0.028433 WAIST_JOINT0:0.970921,-0.000000,0.224938,0.081950 WAIST_JOINT1:0.998094,0.047446,-0.000000,0.039451 END:
KINECT_DATA_Sensor  AnkleLeft:0.053249,0.745453,-0.066951,-0.661046 AnkleRight:0.107006,0.818773,0.079839,0.558379 ElbowLeft:0.036326,0.719597,-0.233006,-0.653123 ElbowRight:-0.256334,0.962057,-0.088619,0.029761 FootLeft:0.000000,0.000000,0.000000,0.000000 FootRight:0.000000,0.000000,0.000000,0.000000 HandLeft:-0.088036,0.992481,-0.032509,-0.078580 HandRight:0.352620,0.435539,-0.421107,0.713185 HandTipLeft:0.000000,0.000000,0.000000,0.000000 HandTipRight:0.000000,0.000000,0.000000,0.000000 Head:0.000000,0.000000,0.000000,0.000000 HipLeft:0.011538,-0.673193,0.735948,-0.071132 HipRight:-0.261278,0.667067,0.647488,-0.259835 KneeLeft:0.027390,-0.564477,0.020338,0.824743 KneeRight:-0.002198,0.828479,0.058385,0.556965 Neck:-0.230314,0.062977,0.968733,-0.067425 ShoulderLeft:0.130920,0.723646,-0.670551,-0.097766 ShoulderRight:-0.172003,0.799928,0.518251,-0.248892 SpineBase:-0.185841,0.055473,0.980573,-0.029381 SpineMid:-0.207163,0.056100,0.976290,-0.028166 SpineShoulder:-0.229735,0.059815,0.970316,-0.046157 ThumbLeft:0.000000,0.000000,0.000000,0.000000 ThumbRight:0.000000,0.000000,0.000000,0.000000 WristLeft:-0.122400,0.984184,-0.099974,-0.080027 WristRight:0.337404,0.427783,-0.428522,0.720783 END:
KINECT_DATA POSITION:6.898606,0.260052,-6.357682 HEAD_JOINT1:0.988132,0.152648,0.000000,-0.017137 LARM_JOINT2:0.799019,0.000000,0.094795,-0.593786 LARM_JOINT3:0.955095,0.000000,-0.235668,-0.179595 LLEG_JOINT2:0.999964,-0.006022,0.000000,0.006003 LLEG_JOINT4:0.996345,0.085025,0.000000,0.008226 RARM_JOINT2:0.755907,0.000000,0.400937,0.517546 RARM_JOINT3:0.912255,0.000000,0.352167,0.209209 RLEG_JOINT2:0.996798,0.052138,0.000000,-0.060620 RLEG_JOINT4:0.993943,0.078969,0.000000,0.076423 WAIST:0.982346,-0.000000,0.185114,0.026991 WAIST_JOINT0:0.973088,-0.000000,0.216990,0.077559 WAIST_JOINT1:0.998117,0.047023,-0.000000,0.039391 END:
KINECT_DATA_Sensor  AnkleLeft:0.054337,0.732751,-0.064608,-0.675240 AnkleRight:0.105794,0.815360,0.080071,0.563547 ElbowLeft:0.037855,0.720267,-0.233312,-0.652187 ElbowRight:-0.263168,0.958737,-0.097899,0.044525 FootLeft:0.000000,0.000000,0.000000,0.000000 FootRight:0.000000,0.000000,0.000000,0.000000 HandLeft:-0.085286,0.992132,-0.036124,-0.084237 HandRight:0.238649,0.562396,-0.498853,0.614738 HandTipLeft:0.000000,0.000000,0.000000,0.000000 HandTipRight:0.000000,0.000000,0.000000,0.000000 Head:0.000000,0.000000,0.000000,0.000000 HipLeft:0.012043,-0.674005,0.735178,-0.071320 HipRight:-0.260410,0.666470,0.648911,-0.258685 KneeLeft:0.027397,-0.565453,0.020703,0.824065 KneeRight:-0.001341,0.827774,0.058197,0.558034 Neck:-0.222716,0.060929,0.970645,-0.067325 ShoulderLeft:0.128561,0.725211,-0.669760,-0.094668 ShoulderRight:-0.163881,0.799677,0.524940,-0.241034 SpineBase:-0.184638,0.054848,0.980837,-0.029305 SpineMid:-0.202801,0.055383,0.977243,-0.028283 SpineShoulder:-0.222120,0.058213,0.972184,-0.046177 ThumbLeft:0.000000,0.000000,0.000000,0.000000 ThumbRight:0.000000,0.000000,0.000000,0.000000 WristLeft:-0.127109,0.983547,-0.096826,-0.084280 WristRight:0.221718,0.560614,-0.495054,0.625679 END:
KINECT_DATA POSITION:6.917757,0.263960,-6.343484 HEAD_JOINT1:0.988099,0.153196,0.000000,-0.013844 LARM_JOINT2:0.800240,0.000000,0.093584,-0.592333 LARM_JOINT3:0.954145,0.000000,-0.237897,-0.181692 LLEG_JOINT2:0.999958,-0.006497,0.000000,0.006393 LLEG_JOINT4:0.996370,0.084504,0.000000,0.010306 RARM_JOINT2:0.735153,0.000000,0.435128,0.519821 RARM_JOINT3:0.927423,0.000000,0.332653,0.170966 RLEG_JOINT2:0.996827,0.052706,0.000000,-0.059649 RLEG_JOINT4:0.994042,0.078332,0.000000,0.075795 WAIST:0.982454,-0.000000,0.184623,0.026442 WAIST_JOINT0:0.972258,-0.000000,0.219867,0.079831 WAIST_JOINT1:0.998167,0.046507,-0.000000,0.038722 END:
KINECT_DATA_Sensor  AnkleLeft:-0.037983,-0.577816,0.075602,0.811770 AnkleRight:0.105913,0.816629,0.079878,0.561710 ElbowLeft:0.037494,0.724097,-0.233463,-0.647899 ElbowRight:-0.269020,0.952229,-0.135243,0.050974 FootLeft:0.000000,0.000000,0.000000,0.000000 FootRight:0.000000,0.000000,0.000000,0.000000 HandLeft:-0.098590,0.989352,-0.042393,-0.098317 HandRight:0.267856,0.523667,-0.499775,0.635807 HandTipLeft:0.000000,0.000000,0.000000,0.000000 HandTipRight:0.000000,0.000000,0.000000,0.000000 Head:0.000000,0.000000,0.000000,0.000000 HipLeft:0.012832,-0.674406,0.734797,-0.071312 HipRight:-0.260245,0.666206,0.649333,-0.258473 KneeLeft:0.027621,-0.565858,0.020365,0.823788 KneeRight:-0.000565,0.827491,0.058512,0.558422 Neck:-0.225723,0.060141,0.970061,-0.066432 ShoulderLeft:0.126534,0.725342,-0.670133,-0.093752 ShoulderRight:-0.170461,0.800578,0.519284,-0.245686 SpineBase:-0.184153,0.054030,0.980985,-0.028936 SpineMid:-0.204046,0.054607,0.977041,-0.027832 SpineShoulder:-0.225164,0.057250,0.971578,-0.045387 ThumbLeft:0.000000,0.000000,0.000000,0.000000 ThumbRight:0.000000,0.000000,0.000000,0.000000 WristLeft:-0.130688,0.982119,-0.092222,-0.099285 WristRight:0.231875,0.520719,-0.490001,0.659534 END:
KINECT_DATA POSITION:6.971214,0.309435,-6.334388 HEAD_JOINT1:0.988127,0.153213,0.000000,-0.011452 LARM_JOINT2:0.800648,0.000000,0.092318,-0.591980 LARM_JOINT3:0.954658,0.000000,-0.235956,-0.181532 LLEG_JOINT2:0.999957,-0.006520,0.000000,0.006573 LLEG_JOINT4:0.996143,0.087055,0.000000,0.010990 RARM_JOINT2:0.732228,0.000000,0.446398,0.514365 RARM_JOINT3:0.930293,0.000000,0.327239,0.165741 RLEG_JOINT2:0.996858,0.053074,0.000000,-0.058804 RLEG_JOINT4:0.994020,0.079167,0.000000,0.075217 WAIST:0.982590,-0.000000,0.183977,0.025861 WAIST_JOINT0:0.973646,-0.000000,0.214824,0.076576 WAIST_JOINT1:0.998155,0.046592,-0.000000,0.038931 END:
KINECT_DATA_Sensor  AnkleLeft:-0.040259,-0.580926,0.077184,0.809288 AnkleRight:0.106209,0.814334,0.081402,0.564760 ElbowLeft:0.037191,0.726582,-0.233398,-0.645152 ElbowRight:-0.275011,0.949269,-0.142562,0.054162 FootLeft:0.000000,0.000000,0.000000,0.000000 FootRight:0.000000,0.000000,0.000000,0.000000 HandLeft:-0.091843,0.989047,-0.044548,-0.106609 HandRight:0.263885,0.539417,-0.492953,0.629596 HandTipLeft:0.000000,0.000000,0.000000,0.000000 HandTipRight:0.000000,0.000000,0.000000,0.000000 Head:0.000000,0.000000,0.000000,0.000000 HipLeft:0.013103,-0.674912,0.734312,-0.071468 HipRight:-0.259687,0.666044,0.649847,-0.258161 KneeLeft:0.027330,-0.566413,0.020083,0.823423 KneeRight:-0.000017,0.827105,0.058758,0.558968 Neck:-0.220532,0.059538,0.971263,-0.066858 ShoulderLeft:0.126959,0.725713,-0.669747,-0.093065 ShoulderRight:-0.162742,0.799338,0.526643,-0.239207 SpineBase:-0.183490,0.053534,0.981135,-0.028978 SpineMid:-0.201170,0.054048,0.977663,-0.028007 SpineShoulder:-0.219972,0.056669,0.972783,-0.045760 ThumbLeft:0.000000,0.000000,0.000000,0.000000 ThumbRight:0.000000,0.000000,0.000000,0.000000 WristLeft:-0.131331,0.981524,-0.089958,-0.106165 WristRight:0.222186,0.524809,-0.498427,0.653283 END:
KINECT_DATA POSITION:7.086995,0.325117,-6.292117 HEAD_JOINT1:0.988052,0.153746,0.000000,-0.010741 LARM_JOINT2:0.800471,0.000000,0.091873,-0.592288 LARM_JOINT3:0.954894,0.000000,-0.232446,-0.184787 LLEG_JOINT2:0.999962,-0.006057,0.000000,0.006238 LLEG_JOINT4:0.996148,0.087317,0.000000,0.008024 RARM_JOINT2:0.730215,0.000000,0.447708,0.516085 RARM_JOINT3:0.929218,0.000000,0.326633,0.172813 RLEG_JOINT2:0.996847,0.052116,0.000000,-0.059825 RLEG_JOINT4:0.993873,0.079940,0.000000,0.076331 WAIST:0.982803,-0.000000,0.182835,0.025858 WAIST_JOINT0:0.972168,-0.000000,0.220509,0.079147 WAIST_JOINT1:0.998120,0.047270,-0.000000,0.039007 END:
KINECT_DATA_Sensor  AnkleLeft:0.056792,0.732754,-0.064777,-0.675019 AnkleRight:0.106758,0.816802,0.080487,0.561212 ElbowLeft:0.037721,0.728567,-0.233279,-0.642922 ElbowRight:-0.272810,0.949145,-0.145849,0.058533 FootLeft:0.000000,0.000000,0.000000,0.000000 FootRight:0.000000,0.000000,0.000000,0.000000 HandLeft:-0.084495,0.988835,-0.023247,-0.120521 HandRight:0.350550,0.458272,-0.434173,0.691805 HandTipLeft:0.000000,0.000000,0.000000,0.000000 HandTipRight:0.000000,0.000000,0.000000,0.000000 Head:0.000000,0.000000,0.000000,0.000000 HipLeft:0.013510,-0.674944,0.734189,-0.072351 HipRight:-0.258698,0.666184,0.650159,-0.258006 KneeLeft:0.026762,-0.567363,0.020055,0.822789 KneeRight:-0.001321,0.826385,0.058577,0.560048 Neck:-0.226177,0.060145,0.969903,-0.067199 ShoulderLeft:0.127364,0.725527,-0.669751,-0.093934 ShoulderRight:-0.170316,0.799451,0.520789,-0.246271 SpineBase:-0.182355,0.053211,0.981350,-0.029434 SpineMid:-0.203390,0.053831,0.977208,-0.028284 SpineShoulder:-0.225644,0.056989,0.971454,-0.045971 ThumbLeft:0.000000,0.000000,0.000000,0.000000 ThumbRight:0.000000,0.000000,0.000000,0.000000 WristLeft:-0.131421,0.980177,-0.086759,-0.120226 WristRight:0.290629,0.424709,-0.463448,0.721369 END:
KINECT_DATA POSITION:7.181141,0.355568,-6.282520 HEAD_JOINT1:0.987889,0.154754,0.000000,-0.011213 LARM_JOINT2:0.800160,0.000000,0.088444,-0.593230 LARM_JOINT3:0.955002,0.000000,-0.230414,-0.186763 LLEG_JOINT2:0.999962,-0.006187,0.000000,0.006069 LLEG_JOINT4:0.995965,0.089260,0.000000,0.009337 RARM_JOINT2:0.726090,0.000000,0.451681,0.518437 RARM_JOINT3:0.928796,0.000000,0.327434,0.173565 RLEG_JOINT2:0.996724,0.053082,0.000000,-0.061023 RLEG_JOINT4:0.993495,0.080695,0.000000,0.080350 WAIST:0.982593,-0.000000,0.184022,0.025431 WAIST_JOINT0:0.971193,-0.000000,0.224398,0.080186 WAIST_JOINT1:0.998070,0.047577,-0.000000,0.039909 END:
KINECT_DATA_Sensor  AnkleLeft:0.059127,0.739782,-0.065354,-0.667050 AnkleRight:0.109792,0.818124,0.080453,0.558700 ElbowLeft:0.036294,0.729756,-0.232233,-0.642033 ElbowRight:-0.270536,0.948647,-0.153034,0.058821 FootLeft:0.000000,0.000000,0.000000,0.000000 FootRight:0.000000,0.000000,0.000000,0.000000 HandLeft:-0.092739,0.991763,-0.008828,-0.087911 HandRight:0.291326,0.567295,-0.483503,0.599609 HandTipLeft:0.000000,0.000000,0.000000,0.000000 HandTipRight:0.000000,0.000000,0.000000,0.000000 Head:0.000000,0.000000,0.000000,0.000000 HipLeft:0.012895,-0.675291,0.733876,-0.072394 HipRight:-0.259589,0.665686,0.650029,-0.258724 KneeLeft:0.026468,-0.566448,0.019552,0.823441 KneeRight:-0.002138,0.827094,0.060335,0.558811 Neck:-0.230004,0.060761,0.968929,-0.067698 ShoulderLeft:0.127103,0.725547,-0.669772,-0.093973 ShoulderRight:-0.176302,0.798581,0.517683,-0.251378 SpineBase:-0.183493,0.053556,0.981110,-0.029748 SpineMid:-0.205843,0.054221,0.976665,-0.028518 SpineShoulder:-0.229479,0.057453,0.970515,-0.046243 ThumbLeft:0.000000,0.000000,0.000000,0.000000 ThumbRight:0.000000,0.000000,0.000000,0.000000 WristLeft:-0.127566,0.983459,-0.090883,-0.090975 WristRight:0.216543,0.533890,-0.506038,0.641869 END:
KINECT_DATA POSITION:7.221859,0.385404,-6.278372 HEAD_JOINT1:0.987967,0.154261,0.000000,-0.011181 LARM_JOINT2:0.799571,0.000000,0.085929,-0.594392 LARM_JOINT3:0.956111,0.000000,-0.228157,-0.183838 LLEG_JOINT2:0.999964,-0.005716,0.000000,0.006259 LLEG_JOINT4:0.996022,0.088627,0.000000,0.009273 RARM_JOINT2:0.722323,0.000000,0.456850,0.519170 RARM_JOINT3:0.931773,0.000000,0.322973,0.165791 RLEG_JOINT2:0.996655,0.053413,0.000000,-0.061849 RLEG_JOINT4:0.993714,0.080346,0.000000,0.077950 WAIST:0.982636,-0.000000,0.183849,0.025037 WAIST_JOINT0:0.970844,-0.000000,0.225863,0.080303 WAIST_JOINT1:0.998000,0.048197,-0.000000,0.040900 END:
KINECT_DATA_Sensor  AnkleLeft:0.058983,0.738468,-0.065222,-0.668530 AnkleRight:0.107033,0.819217,0.082338,0.557358 ElbowLeft:0.035038,0.730088,-0.231397,-0.642027 ElbowRight:-0.269905,0.947857,-0.159127,0.058289 FootLeft:0.000000,0.000000,0.000000,0.000000 FootRight:0.000000,0.000000,0.000000,0.000000 HandLeft:-0.077932,0.994402,-0.013343,-0.070090 HandRight:0.282706,0.559769,-0.482592,0.611425 HandTipLeft:0.000000,0.000000,0.000000,0.000000 HandTipRight:0.000000,0.000000,0.000000,0.000000 Head:0.000000,0.000000,0.000000,0.000000 HipLeft:0.012963,-0.675483,0.733609,-0.073298 HipRight:-0.259685,0.665410,0.650244,-0.258799 KneeLeft:0.025912,-0.566632,0.019696,0.823328 KneeRight:-0.002886,0.826996,0.061362,0.558842 Neck:-0.231466,0.061578,0.968468,-0.068568 ShoulderLeft:0.127923,0.725221,-0.669940,-0.094184 ShoulderRight:-0.177701,0.797742,0.517616,-0.253189 SpineBase:-0.183271,0.053937,0.981117,-0.030201 SpineMid:-0.206453,0.054637,0.976502,-0.028916 SpineShoulder:-0.230955,0.057984,0.970105,-0.046841 ThumbLeft:0.000000,0.000000,0.000000,0.000000 ThumbRight:0.000000,0.000000,0.000000,0.000000 WristLeft:-0.126154,0.985043,-0.093714,-0.070656 WristRight:0.221538,0.529441,-0.506024,0.643857 END:
KINECT_DATA POSITION:7.220300,0.409498,-6.273675 HEAD_JOINT1:0.988026,0.153876,0.000000,-0.011229 LARM_JOINT2:0.801839,0.000000,0.073352,-0.593020 LARM_JOINT3:0.958245,0.000000,-0.218692,-0.184231 LLEG_JOINT2:0.999961,-0.006217,0.000000,0.006246 LLEG_JOINT4:0.995802,0.091022,0.000000,0.009712 RARM_JOINT2:0.722405,0.000000,0.457287,0.518671 RARM_JOINT3:0.932036,0.000000,0.322682,0.164878 RLEG_JOINT2:0.996595,0.054569,0.000000,-0.061811 RLEG_JOINT4:0.993541,0.079676,0.000000,0.080794 WAIST:0.982464,-0.000000,0.184754,0.025110 WAIST_JOINT0:0.968875,-0.000000,0.232554,0.084853 WAIST_JOINT1:0.997996,0.048201,-0.000000,0.040990 END:
KINECT_DATA_Sensor  AnkleLeft:0.060755,0.739137,-0.066150,-0.667539 AnkleRight:0.098473,0.742439,0.094336,0.655888 ElbowLeft:0.027881,0.739456,-0.231138,-0.631667 ElbowRight:-0.269646,0.947548,-0.160492,0.060711 FootLeft:0.000000,0.000000,0.000000,0.000000 FootRight:0.000000,0.000000,0.000000,0.000000 HandLeft:-0.068796,0.993767,-0.000947,-0.087708 HandRight:0.294760,0.545794,-0.470060,0.627908 HandTipLeft:0.000000,0.000000,0.000000,0.000000 HandTipRight:0.000000,0.000000,0.000000,0.000000 Head:0.000000,0.000000,0.000000,0.000000 HipLeft:0.012713,-0.675237,0.733855,-0.073144 HipRight:-0.260436,0.665042,0.650066,-0.259433 KneeLeft:0.026365,-0.565907,0.019463,0.823818 KneeRight:-0.002211,0.827565,0.062222,0.557907 Neck:-0.237712,0.062089,0.966946,-0.068220 ShoulderLeft:0.136978,0.720014,-0.672657,-0.101729 ShoulderRight:-0.176442,0.797169,0.517903,-0.255278 SpineBase:-0.184177,0.053948,0.980945,-0.030265 SpineMid:-0.210018,0.054729,0.975739,-0.028829 SpineShoulder:-0.237217,0.058348,0.968584,-0.046578 ThumbLeft:0.000000,0.000000,0.000000,0.000000 ThumbRight:0.000000,0.000000,0.000000,0.000000 WristLeft:-0.127144,0.983819,-0.091534,-0.086921 WristRight:0.235274,0.510915,-0.501979,0.656985 END:
KINECT_DATA POSITION:7.207575,0.449628,-6.265175 HEAD_JOINT1:0.988072,0.153596,0.000000,-0.011028 LARM_JOINT2:0.800142,0.000000,0.080357,-0.594403 LARM_JOINT3:0.957268,0.000000,-0.223720,-0.183271 LLEG_JOINT2:0.999966,-0.005842,0.000000,0.005856 LLEG_JOINT4:0.995988,0.089016,0.000000,0.009155 RARM_JOINT2:0.718816,0.000000,0.468989,0.513179 RARM_JOINT3:0.932991,0.000000,0.319455,0.165758 RLEG_JOINT2:0.996624,0.054049,0.000000,-0.061794 RLEG_JOINT4:0.993654,0.080652,0.000000,0.078404 WAIST:0.982673,-0.000000,0.183641,0.025082 WAIST_JOINT0:0.973126,-0.000000,0.217027,0.076976 WAIST_JOINT1:0.997987,0.048414,-0.000000,0.040966 END:
KINECT_DATA_Sensor  AnkleLeft:-0.044137,-0.578653,0.076078,0.810817 AnkleRight:0.101710,0.776103,0.090424,0.615746 ElbowLeft:0.031896,0.734093,-0.230733,-0.637850 ElbowRight:-0.276949,0.944992,-0.165654,0.053370 FootLeft:0.000000,0.000000,0.000000,0.000000 FootRight:0.000000,0.000000,0.000000,0.000000 HandLeft:-0.051868,0.795627,-0.055014,0.601050 HandRight:0.306545,0.551221,-0.467832,0.619128 HandTipLeft:0.000000,0.000000,0.000000,0.000000 HandTipRight:0.000000,0.000000,0.000000,0.000000 Head:0.000000,0.000000,0.000000,0.000000 HipLeft:0.012704,-0.675175,0.733905,-0.073221 HipRight:-0.259204,0.665293,0.650629,-0.258613 KneeLeft:0.025819,-0.566830,0.019321,0.823203 KneeRight:-0.002428,0.826895,0.061827,0.558942 Neck:-0.222331,0.061050,0.970589,-0.069276 ShoulderLeft:0.133712,0.722777,-0.671130,-0.096431 ShoulderRight:-0.158326,0.796689,0.532155,-0.238809 SpineBase:-0.183068,0.053773,0.981156,-0.030438 SpineMid:-0.201882,0.054348,0.977459,-0.029399 SpineShoulder:-0.221796,0.057633,0.972223,-0.047611 ThumbLeft:0.000000,0.000000,0.000000,0.000000 ThumbRight:0.000000,0.000000,0.000000,0.000000 WristLeft:-0.034877,0.797064,-0.152414,0.583303 WristRight:0.235807,0.511191,-0.503132,0.655696 END:
KINECT_DATA POSITION:7.201953,0.438311,-6.303239 HEAD_JOINT1:0.987855,0.154898,0.000000,-0.012192 LARM_JOINT2:0.799491,0.000000,0.083664,-0.594824 LARM_JOINT3:0.956693,0.000000,-0.224059,-0.185840 LLEG_JOINT2:0.999972,-0.005206,0.000000,0.005439 LLEG_JOINT4:0.995688,0.092337,0.000000,0.008868 RARM_JOINT2:0.749535,0.000000,0.428473,0.504587 RARM_JOINT3:0.913070,0.000000,0.359558,0.192408 RLEG_JOINT2:0.996575,0.053909,0.000000,-0.062707 RLEG_JOINT4:0.993684,0.078130,0.000000,0.080547 WAIST:0.983015,-0.000000,0.181765,0.025371 WAIST_JOINT0:0.973678,-0.000000,0.214612,0.076766 WAIST_JOINT1:0.998022,0.048223,-0.000000,0.040335 END:
KINECT_DATA_Sensor  AnkleLeft:0.062135,0.729856,-0.066924,-0.677474 AnkleRight:0.099951,0.761837,0.089308,0.633749 ElbowLeft:0.034245,0.735280,-0.230315,-0.636511 ElbowRight:-0.276724,0.951266,-0.118182,0.067456 FootLeft:0.000000,0.000000,0.000000,0.000000 FootRight:0.000000,0.000000,0.000000,0.000000 HandLeft:-0.096619,0.990984,-0.003904,-0.092735 HandRight:0.271540,0.559083,-0.489831,0.611358 HandTipLeft:0.000000,0.000000,0.000000,0.000000 HandTipRight:0.000000,0.000000,0.000000,0.000000 Head:0.000000,0.000000,0.000000,0.000000 HipLeft:0.013244,-0.675070,0.733947,-0.073670 HipRight:-0.257494,0.666028,0.651001,-0.257489 KneeLeft:0.025267,-0.568343,0.019525,0.822172 KneeRight:-0.002903,0.825817,0.062066,0.560504 Neck:-0.220023,0.060761,0.971171,-0.068740 ShoulderLeft:0.130340,0.724374,-0.670447,-0.093774 ShoulderRight:-0.158635,0.798110,0.530321,-0.237941 SpineBase:-0.181222,0.053593,0.981508,-0.030484 SpineMid:-0.199808,0.054162,0.977893,-0.029462 SpineShoulder:-0.219487,0.057421,0.972772,-0.047352 ThumbLeft:0.000000,0.000000,0.000000,0.000000 ThumbRight:0.000000,0.000000,0.000000,0.000000 WristLeft:-0.123656,0.983553,-0.088858,-0.097139 WristRight:0.224480,0.530211,-0.515610,0.634532 END:
KINECT_DATA POSITION:7.202552,0.399136,-6.331456 HEAD_JOINT1:0.987843,0.154919,0.000000,-0.012860 LARM_JOINT2:0.800466,0.000000,0.075432,-0.594613 LARM_JOINT3:0.957753,0.000000,-0.224031,-0.180332 LLEG_JOINT2:0.999971,-0.005550,0.000000,0.005157 LLEG_JOINT4:0.995895,0.089442,0.000000,0.013932 RARM_JOINT2:0.742356,0.000000,0.439897,0.505370 RARM_JOINT3:0.921281,0.000000,0.346061,0.177436 RLEG_JOINT2:0.996567,0.053776,0.000000,-0.062947 RLEG_JOINT4:0.993225,0.081853,0.000000,0.082487 WAIST:0.983001,-0.000000,0.181841,0.025349 WAIST_JOINT0:0.971931,-0.000000,0.221090,0.080429 WAIST_JOINT1:0.998047,0.048039,-0.000000,0.039942 END:
KINECT_DATA_Sensor  AnkleLeft:0.059593,0.751307,-0.068266,-0.653702 AnkleRight:0.100587,0.743391,0.094413,0.654475 ElbowLeft:0.029527,0.741486,-0.228854,-0.630042 ElbowRight:-0.279018,0.949434,-0.129336,0.063217 FootLeft:0.000000,0.000000,0.000000,0.000000 FootRight:0.000000,0.000000,0.000000,0.000000 HandLeft:-0.109418,0.989869,-0.030385,-0.085229 HandRight:0.258825,0.548219,-0.487919,0.628013 HandTipLeft:0.000000,0.000000,0.000000,0.000000 HandTipRight:0.000000,0.000000,0.000000,0.000000 Head:0.000000,0.000000,0.000000,0.000000 HipLeft:0.013072,-0.675238,0.733797,-0.073646 HipRight:-0.257314,0.666072,0.650960,-0.257661 KneeLeft:0.025375,-0.568313,0.019084,0.822200 KneeRight:-0.003199,0.825844,0.062108,0.560459 Neck:-0.226343,0.060649,0.969777,-0.067997 ShoulderLeft:0.133779,0.722488,-0.671222,-0.097854 ShoulderRight:-0.163463,0.798713,0.525521,-0.243239 SpineBase:-0.181299,0.053451,0.981497,-0.030626 SpineMid:-0.202970,0.054116,0.977245,-0.029436 SpineShoulder:-0.225816,0.057388,0.971352,-0.046785 ThumbLeft:0.000000,0.000000,0.000000,0.000000 ThumbRight:0.000000,0.000000,0.000000,0.000000 WristLeft:-0.123719,0.984266,-0.088812,-0.089592 WristRight:0.226119,0.524675,-0.511930,0.641493 END:
KINECT_DATA POSITION:7.198078,0.406945,-6.378162 HEAD_JOINT1:0.988162,0.152769,0.000000,-0.014075 LARM_JOINT2:0.800381,0.000000,0.079977,-0.594133 LARM_JOINT3:0.958470,0.000000,-0.221841,-0.179225 LLEG_JOINT2:0.999962,-0.006784,0.000000,0.005519 LLEG_JOINT4:0.996056,0.088260,0.000000,0.009033 RARM_JOINT2:0.728445,0.000000,0.459044,0.508573 RARM_JOINT3:0.930584,0.000000,0.328471,0.161619 RLEG_JOINT2:0.996579,0.053851,0.000000,-0.062691 RLEG_JOINT4:0.993628,0.079252,0.000000,0.080140 WAIST:0.982900,-0.000000,0.182447,0.024925 WAIST_JOINT0:0.971116,-0.000000,0.224659,0.080391 WAIST_JOINT1:0.998025,0.048400,-0.000000,0.040032 END:
KINECT_DATA_Sensor  AnkleLeft:-0.042450,-0.573754,0.075051,0.814477 AnkleRight:0.107862,0.818621,0.080921,0.558281 ElbowLeft:0.032603,0.737800,-0.229925,-0.633816 ElbowRight:-0.278808,0.946112,-0.152272,0.062863 FootLeft:0.000000,0.000000,0.000000,0.000000 FootRight:0.000000,0.000000,0.000000,0.000000 HandLeft:-0.080989,0.992304,-0.032186,-0.087968 HandRight:0.344342,0.440313,-0.431629,0.707990 HandTipLeft:0.000000,0.000000,0.000000,0.000000 HandTipRight:0.000000,0.000000,0.000000,0.000000 Head:0.000000,0.000000,0.000000,0.000000 HipLeft:0.012728,-0.675612,0.733460,-0.073635 HipRight:-0.257480,0.665633,0.651102,-0.258269 KneeLeft:0.026296,-0.567907,0.018392,0.822467 KneeRight:-0.003294,0.826158,0.062312,0.559973 Neck:-0.230163,0.060389,0.968875,-0.068263 ShoulderLeft:0.130290,0.724401,-0.670186,-0.095486 ShoulderRight:-0.172992,0.798018,0.520126,-0.250420 SpineBase:-0.181885,0.053067,0.981399,-0.030948 SpineMid:-0.205138,0.053787,0.976803,-0.029679 SpineShoulder:-0.229648,0.057152,0.970457,-0.046984 ThumbLeft:0.000000,0.000000,0.000000,0.000000 ThumbRight:0.000000,0.000000,0.000000,0.000000 WristLeft:-0.123083,0.984442,-0.089514,-0.087819 WristRight:0.302704,0.407968,-0.467998,0.723126 END:
KINECT_DATA POSITION:7.187409,0.406129,-6.391895 HEAD_JOINT1:0.988306,0.151885,0.000000,-0.013506 LARM_JOINT2:0.800936,0.000000,0.081615,-0.593161 LARM_JOINT3:0.958717,0.000000,-0.220475,-0.179591 LLEG_JOINT2:0.999953,-0.007366,0.000000,0.006344 LLEG_JOINT4:0.995835,0.090597,0.000000,0.010269 RARM_JOINT2:0.728218,0.000000,0.464142,0.504252 RARM_JOINT3:0.932254,0.000000,0.321141,0.166647 RLEG_JOINT2:0.996594,0.054066,0.000000,-0.062264 RLEG_JOINT4:0.993733,0.076125,0.000000,0.081848 WAIST:0.982729,-0.000000,0.183428,0.024463 WAIST_JOINT0:0.970404,-0.000000,0.227674,0.080500 WAIST_JOINT1:0.998016,0.048634,-0.000000,0.039974 END:
KINECT_DATA_Sensor  AnkleLeft:0.059002,0.736865,-0.066051,-0.670213 AnkleRight:0.096638,0.740933,0.090917,0.658342 ElbowLeft:0.033967,0.736178,-0.230880,-0.635281 ElbowRight:-0.284710,0.945432,-0.150374,0.049855 FootLeft:0.000000,0.000000,0.000000,0.000000 FootRight:0.000000,0.000000,0.000000,0.000000 HandLeft:-0.064989,0.994471,-0.031207,-0.076357 HandRight:0.293223,0.523364,-0.455482,0.657759 HandTipLeft:0.000000,0.000000,0.000000,0.000000 HandTipRight:0.000000,0.000000,0.000000,0.000000 Head:0.000000,0.000000,0.000000,0.000000 HipLeft:0.012153,-0.676022,0.733140,-0.073164 HipRight:-0.257934,0.665124,0.651184,-0.258918 KneeLeft:0.026913,-0.567124,0.018428,0.822986 KneeRight:-0.003223,0.826697,0.062553,0.559151 Neck:-0.233169,0.059820,0.968172,-0.068539 ShoulderLeft:0.129623,0.725073,-0.669617,-0.095290 ShoulderRight:-0.178127,0.797148,0.517651,-0.254682 SpineBase:-0.182845,0.052703,0.981236,-0.031099 SpineMid:-0.207094,0.053457,0.976405,-0.029784 SpineShoulder:-0.232660,0.056686,0.969761,-0.047102 ThumbLeft:0.000000,0.000000,0.000000,0.000000 ThumbRight:0.000000,0.000000,0.000000,0.000000 WristLeft:-0.121837,0.985536,-0.091592,-0.074062 WristRight:0.250409,0.489730,-0.494108,0.673288 END:
KINECT_DATA POSITION:7.199980,0.410619,-6.403017 HEAD_JOINT1:0.988281,0.152149,0.000000,-0.012283 LARM_JOINT2:0.800986,0.000000,0.082800,-0.592930 LARM_JOINT3:0.956892,0.000000,-0.225552,-0.182986 LLEG_JOINT2:0.999948,-0.007491,0.000000,0.006944 LLEG_JOINT4:0.996130,0.087382,0.000000,0.009438 RARM_JOINT2:0.724998,0.000000,0.464484,0.508560 RARM_JOINT3:0.936300,0.000000,0.311808,0.161609 RLEG_JOINT2:0.996609,0.054267,0.000000,-0.061848 RLEG_JOINT4:0.993605,0.078282,0.000000,0.081371 WAIST:0.982687,-0.000000,0.183695,0.024134 WAIST_JOINT0:0.970528,-0.000000,0.227354,0.079905 WAIST_JOINT1:0.998032,0.048535,-0.000000,0.039694 END:
KINECT_DATA_Sensor  AnkleLeft:0.055071,0.725715,-0.065270,-0.682675 AnkleRight:0.108625,0.819715,0.079867,0.556676 ElbowLeft:0.034597,0.734715,-0.230778,-0.636975 ElbowRight:-0.280350,0.945500,-0.155885,0.055980 FootLeft:0.000000,0.000000,0.000000,0.000000 FootRight:0.000000,0.000000,0.000000,0.000000 HandLeft:-0.088688,0.992058,-0.019164,-0.087114 HandRight:0.300881,0.506914,-0.431370,0.682956 HandTipLeft:0.000000,0.000000,0.000000,0.000000 HandTipRight:0.000000,0.000000,0.000000,0.000000 Head:0.000000,0.000000,0.000000,0.000000 HipLeft:0.012370,-0.676233,0.732954,-0.073038 HipRight:-0.258178,0.664775,0.651331,-0.259203 KneeLeft:0.027123,-0.566879,0.018623,0.823144 KneeRight:-0.003019,0.826835,0.062708,0.558929 Neck:-0.232789,0.059215,0.968308,-0.068427 ShoulderLeft:0.128642,0.725748,-0.669186,-0.094510 ShoulderRight:-0.178723,0.796857,0.517823,-0.254827 SpineBase:-0.183113,0.052181,0.981217,-0.030978 SpineMid:-0.207050,0.052923,0.976446,-0.029693 SpineShoulder:-0.232296,0.056036,0.969889,-0.047043 ThumbLeft:0.000000,0.000000,0.000000,0.000000 ThumbRight:0.000000,0.000000,0.000000,0.000000 WristLeft:-0.124270,0.984166,-0.089723,-0.089014 WristRight:0.261680,0.466591,-0.486115,0.691020 END:
KINECT_DATA POSITION:7.236496,0.404639,-6.440544 HEAD_JOINT1:0.988160,0.153084,0.000000,-0.010273 LARM_JOINT2:0.801177,0.000000,0.082301,-0.592742 LARM_JOINT3:0.956677,0.000000,-0.227439,-0.181770 LLEG_JOINT2:0.999947,-0.007741,0.000000,0.006747 LLEG_JOINT4:0.995613,0.093168,0.000000,0.008661 RARM_JOINT2:0.732659,0.000000,0.459031,0.502496 RARM_JOINT3:0.930620,0.000000,0.320827,0.176117 RLEG_JOINT2:0.996591,0.054405,0.000000,-0.062027 RLEG_JOINT4:0.993515,0.077299,0.000000,0.083381 WAIST:0.982723,-0.000000,0.183495,0.024173 WAIST_JOINT0:0.970701,-0.000000,0.226657,0.079790 WAIST_JOINT1:0.998038,0.048638,-0.000000,0.039437 END:
KINECT_DATA_Sensor  AnkleLeft:0.060492,0.724871,-0.066523,-0.682991 AnkleRight:0.098864,0.742089,0.091394,0.656641 ElbowLeft:0.034512,0.735627,-0.230740,-0.635941 ElbowRight:-0.286466,0.946577,-0.141191,0.044659 FootLeft:0.000000,0.000000,0.000000,0.000000 FootRight:0.000000,0.000000,0.000000,0.000000 HandLeft:-0.047961,0.808380,-0.083634,0.580713 HandRight:0.325525,0.475244,-0.420785,0.700797 HandTipLeft:0.000000,0.000000,0.000000,0.000000 HandTipRight:0.000000,0.000000,0.000000,0.000000 Head:0.000000,0.000000,0.000000,0.000000 HipLeft:0.012778,-0.676182,0.732967,-0.073302 HipRight:-0.257999,0.664723,0.651378,-0.259396 KneeLeft:0.027247,-0.567042,0.018345,0.823033 KneeRight:-0.003045,0.826712,0.062900,0.559090 Neck:-0.231934,0.059004,0.968522,-0.068488 ShoulderLeft:0.127365,0.726424,-0.668873,-0.093246 ShoulderRight:-0.178994,0.796904,0.517714,-0.254709 SpineBase:-0.182933,0.051727,0.981274,-0.031005 SpineMid:-0.206550,0.052460,0.976576,-0.029748 SpineShoulder:-0.231452,0.055769,0.970101,-0.047151 ThumbLeft:0.000000,0.000000,0.000000,0.000000 ThumbRight:0.000000,0.000000,0.000000,0.000000 WristLeft:-0.038277,0.806996,-0.149091,0.570144 WristRight:0.288304,0.438677,-0.469408,0.710000 END:
KINECT_DATA POSITION:7.250772,0.407820,-6.446362 HEAD_JOINT1:0.988002,0.154173,0.000000,-0.009037 LARM_JOINT2:0.803260,0.000000,0.071938,-0.591268 LARM_JOINT3:0.958829,0.000000,-0.218852,-0.180972 LLEG_JOINT2:0.999942,-0.007816,0.000000,0.007375 LLEG_JOINT4:0.995883,0.090403,0.000000,0.006719 RARM_JOINT2:0.719527,0.000000,0.464533,0.516227 RARM_JOINT3:0.938112,0.000000,0.306217,0.161791 RLEG_JOINT2:0.996605,0.054179,0.000000,-0.061997 RLEG_JOINT4:0.993690,0.075791,0.000000,0.082681 WAIST:0.982805,-0.000000,0.183062,0.024135 WAIST_JOINT0:0.969158,-0.000000,0.232044,0.083001 WAIST_JOINT1:0.998068,0.048479,-0.000000,0.038860 END:
KINECT_DATA_Sensor  AnkleLeft:-0.043812,-0.568667,0.074914,0.817977 AnkleRight:0.108463,0.821769,0.076616,0.554131 ElbowLeft:0.028340,0.744120,-0.230228,-0.626480 ElbowRight:-0.273830,0.946072,-0.162496,0.059674 FootLeft:0.000000,0.000000,0.000000,0.000000 FootRight:0.000000,0.000000,0.000000,0.000000 HandLeft:-0.070617,0.993248,-0.025089,-0.088552 HandRight:0.285299,0.553229,-0.443711,0.644719 HandTipLeft:0.000000,0.000000,0.000000,0.000000 HandTipRight:0.000000,0.000000,0.000000,0.000000 Head:0.000000,0.000000,0.000000,0.000000 HipLeft:0.013604,-0.676247,0.732849,-0.073736 HipRight:-0.258030,0.664682,0.651345,-0.259552 KneeLeft:0.027636,-0.567358,0.018788,0.822793 KneeRight:-0.003143,0.826445,0.062732,0.559503 Neck:-0.236925,0.058834,0.967368,-0.067851 ShoulderLeft:0.134582,0.722613,-0.670657,-0.099690 ShoulderRight:-0.177873,0.796427,0.518135,-0.256128 SpineBase:-0.182522,0.051260,0.981380,-0.030834 SpineMid:-0.208827,0.052070,0.976121,-0.029445 SpineShoulder:-0.236467,0.055463,0.968935,-0.046613 ThumbLeft:0.000000,0.000000,0.000000,0.000000 ThumbRight:0.000000,0.000000,0.000000,0.000000 WristLeft:-0.126560,0.984216,-0.088065,-0.086864 WristRight:0.228895,0.508082,-0.498691,0.663903 END:
