EastLYD/RoboCupatHomeSim/InteractiveCleanUp/JapanOpen2016/Motion_Data/File65.dat
KINECT_DATA POSITION:-0.341691,0.808955,-12.866068 HEAD_JOINT1:0.982544,0.139284,-0.000000,0.123320 LARM_JOINT2:0.813657,0.000000,-0.069960,-0.577121 LARM_JOINT3:0.962173,0.000000,-0.211793,-0.171367 LLEG_JOINT2:0.997781,0.021867,0.000000,0.062895 LLEG_JOINT4:0.995249,0.087442,0.000000,-0.042812 RARM_JOINT2:0.779043,0.000000,-0.000006,0.626970 RARM_JOINT3:0.961000,0.000000,0.237481,0.141711 RLEG_JOINT2:0.999220,0.019621,0.000000,-0.034258 RLEG_JOINT4:0.995349,0.093049,0.000000,0.024938 WAIST:0.999997,0.000000,-0.000637,0.002280 WAIST_JOINT0:0.999708,0.000000,-0.015020,0.018919 WAIST_JOINT1:0.998189,0.057669,0.000000,-0.017104 END:
KINECT_DATA_Sensor  AnkleLeft:0.063223,0.712622,-0.091507,-0.692676 AnkleRight:0.080490,0.747718,0.078925,0.654378 ElbowLeft:-0.063614,0.901553,-0.135486,-0.405954 ElbowRight:-0.013565,0.852594,0.134189,0.504870 FootLeft:0.000000,0.000000,0.000000,0.000000 FootRight:0.000000,0.000000,0.000000,0.000000 HandLeft:0.005154,-0.573486,-0.193740,0.795960 HandRight:-0.139647,0.881200,-0.164936,0.420453 HandTipLeft:0.000000,0.000000,0.000000,0.000000 HandTipRight:0.000000,0.000000,0.000000,0.000000 Head:0.000000,0.000000,0.000000,0.000000 HipLeft:0.126518,-0.678901,0.705496,-0.159258 HipRight:-0.130769,0.676802,0.702442,-0.177240 KneeLeft:-0.030595,0.706573,-0.061557,-0.704294 KneeRight:-0.008674,0.706966,0.036503,0.706252 Neck:0.014106,-0.017343,0.997063,-0.073251 ShoulderLeft:0.000343,0.785598,-0.615167,0.066363 ShoulderRight:0.019324,0.801589,0.596141,-0.041204 SpineBase:0.000056,-0.012504,0.999348,-0.033882 SpineMid:0.006896,-0.012735,0.999324,-0.033795 SpineShoulder:0.013993,-0.015000,0.998416,-0.052387 ThumbLeft:0.000000,0.000000,0.000000,0.000000 ThumbRight:0.000000,0.000000,0.000000,0.000000 WristLeft:0.082701,-0.555606,-0.183271,0.806768 WristRight:-0.150335,0.885028,-0.084672,0.432382 END:
KINECT_DATA POSITION:-0.322501,0.811949,-12.898517 HEAD_JOINT1:0.982458,0.138966,-0.000000,0.124358 LARM_JOINT2:0.813538,0.000000,-0.069431,-0.577352 LARM_JOINT3:0.961645,0.000000,-0.214156,-0.171396 LLEG_JOINT2:0.997819,0.021677,0.000000,0.062357 LLEG_JOINT4:0.995448,0.086096,0.000000,-0.040870 RARM_JOINT2:0.778722,0.000000,0.000831,0.627369 RARM_JOINT3:0.961518,0.000000,0.234502,0.143149 RLEG_JOINT2:0.999167,0.020967,0.000000,-0.035024 RLEG_JOINT4:0.995212,0.094165,0.000000,0.026204 WAIST:0.999996,0.000000,-0.000519,0.002646 WAIST_JOINT0:0.999702,0.000000,-0.015543,0.018824 WAIST_JOINT1:0.998184,0.057648,0.000000,-0.017461 END:
KINECT_DATA_Sensor  AnkleLeft:0.060975,0.713274,-0.091676,-0.692184 AnkleRight:0.082555,0.744680,0.080238,0.657418 ElbowLeft:-0.063383,0.900734,-0.135375,-0.407840 ElbowRight:-0.013984,0.852397,0.133387,0.505403 FootLeft:0.000000,0.000000,0.000000,0.000000 FootRight:0.000000,0.000000,0.000000,0.000000 HandLeft:0.024977,-0.646961,-0.199905,0.735428 HandRight:-0.120800,0.871490,-0.171237,0.443386 HandTipLeft:0.000000,0.000000,0.000000,0.000000 HandTipRight:0.000000,0.000000,0.000000,0.000000 Head:0.000000,0.000000,0.000000,0.000000 HipLeft:0.126424,-0.678678,0.705776,-0.159038 HipRight:-0.130767,0.677023,0.702234,-0.177224 KneeLeft:-0.030602,0.706471,-0.061303,-0.704418 KneeRight:-0.008007,0.707048,0.037735,0.706113 Neck:0.014644,-0.017400,0.997055,-0.073239 ShoulderLeft:0.000427,0.785558,-0.615212,0.066421 ShoulderRight:0.020095,0.801305,0.596548,-0.040451 SpineBase:-0.000083,-0.012449,0.999350,-0.033824 SpineMid:0.007095,-0.012692,0.999325,-0.033734 SpineShoulder:0.014533,-0.015029,0.998410,-0.052347 ThumbLeft:0.000000,0.000000,0.000000,0.000000 ThumbRight:0.000000,0.000000,0.000000,0.000000 WristLeft:0.100278,-0.629239,-0.174631,0.750670 WristRight:-0.148509,0.873736,-0.088645,0.454612 END:
KINECT_DATA POSITION:-0.333549,0.821971,-12.946033 HEAD_JOINT1:0.982080,0.140782,-0.000000,0.125300 LARM_JOINT2:0.813533,0.000000,-0.069481,-0.577354 LARM_JOINT3:0.961814,0.000000,-0.213117,-0.171741 LLEG_JOINT2:0.997828,0.020966,0.000000,0.062440 LLEG_JOINT4:0.995341,0.088532,0.000000,-0.038178 RARM_JOINT2:0.778218,0.000000,0.001655,0.627992 RARM_JOINT3:0.962461,0.000000,0.232438,0.140149 RLEG_JOINT2:0.999169,0.020667,0.000000,-0.035137 RLEG_JOINT4:0.995364,0.092420,0.000000,0.026643 WAIST:0.999995,0.000000,-0.000918,0.002856 WAIST_JOINT0:0.999697,0.000000,-0.015905,0.018797 WAIST_JOINT1:0.998206,0.057230,0.000000,-0.017592 END:
KINECT_DATA_Sensor  AnkleLeft:0.060174,0.713668,-0.095002,-0.691398 AnkleRight:0.080764,0.739299,0.079121,0.663818 ElbowLeft:-0.063930,0.900694,-0.135200,-0.407902 ElbowRight:-0.014492,0.851902,0.132094,0.506561 FootLeft:0.000000,0.000000,0.000000,0.000000 FootRight:0.000000,0.000000,0.000000,0.000000 HandLeft:0.024746,-0.659958,-0.199863,0.723808 HandRight:-0.117427,0.862482,-0.165662,0.463564 HandTipLeft:0.000000,0.000000,0.000000,0.000000 HandTipRight:0.000000,0.000000,0.000000,0.000000 Head:0.000000,0.000000,0.000000,0.000000 HipLeft:0.126720,-0.678586,0.705828,-0.158965 HipRight:-0.130559,0.677338,0.702098,-0.176708 KneeLeft:-0.031338,0.706706,-0.060994,-0.704176 KneeRight:-0.008136,0.706771,0.037459,0.706403 Neck:0.014994,-0.017254,0.997084,-0.072809 ShoulderLeft:0.000809,0.785512,-0.615341,0.065774 ShoulderRight:0.020909,0.801142,0.596816,-0.039311 SpineBase:0.000310,-0.012379,0.999361,-0.033539 SpineMid:0.007467,-0.012619,0.999333,-0.033450 SpineShoulder:0.014881,-0.014932,0.998427,-0.051945 ThumbLeft:0.000000,0.000000,0.000000,0.000000 ThumbRight:0.000000,0.000000,0.000000,0.000000 WristLeft:0.103558,-0.641204,-0.172349,0.740560 WristRight:-0.146560,0.863579,-0.091244,0.473735 END:
KINECT_DATA POSITION:-0.336325,0.831176,-13.005102 HEAD_JOINT1:0.981858,0.141821,-0.000000,0.125860 LARM_JOINT2:0.813580,0.000000,-0.069903,-0.577236 LARM_JOINT3:0.962883,0.000000,-0.213167,-0.165581 LLEG_JOINT2:0.997853,0.020050,0.000000,0.062345 LLEG_JOINT4:0.995297,0.088093,0.000000,-0.040300 RARM_JOINT2:0.778052,0.000000,0.002450,0.628195 RARM_JOINT3:0.963473,0.000000,0.229257,0.138420 RLEG_JOINT2:0.999168,0.020305,0.000000,-0.035363 RLEG_JOINT4:0.995486,0.091982,0.000000,0.023381 WAIST:0.999995,0.000000,-0.000866,0.003131 WAIST_JOINT0:0.999693,0.000000,-0.016120,0.018816 WAIST_JOINT1:0.998194,0.057458,0.000000,-0.017540 END:
KINECT_DATA_Sensor  AnkleLeft:0.060537,0.713684,-0.092670,-0.691667 AnkleRight:0.080410,0.758906,0.078641,0.641413 ElbowLeft:-0.064394,0.900075,-0.135429,-0.409118 ElbowRight:-0.014674,0.851482,0.131371,0.507450 FootLeft:0.000000,0.000000,0.000000,0.000000 FootRight:0.000000,0.000000,0.000000,0.000000 HandLeft:0.034131,-0.625868,-0.189361,0.755822 HandRight:-0.103584,0.843558,-0.162378,0.501312 HandTipLeft:0.000000,0.000000,0.000000,0.000000 HandTipRight:0.000000,0.000000,0.000000,0.000000 Head:0.000000,0.000000,0.000000,0.000000 HipLeft:0.126576,-0.678362,0.706019,-0.159186 HipRight:-0.130572,0.677481,0.701902,-0.176926 KneeLeft:-0.032115,0.706605,-0.060472,-0.704288 KneeRight:-0.008360,0.706825,0.037170,0.706362 Neck:0.015172,-0.016892,0.997068,-0.073075 ShoulderLeft:0.001439,0.785318,-0.615601,0.065637 ShoulderRight:0.021766,0.800982,0.597026,-0.038917 SpineBase:0.000244,-0.012109,0.999356,-0.033767 SpineMid:0.007525,-0.012354,0.999328,-0.033678 SpineShoulder:0.015060,-0.014645,0.998418,-0.052162 ThumbLeft:0.000000,0.000000,0.000000,0.000000 ThumbRight:0.000000,0.000000,0.000000,0.000000 WristLeft:0.097768,-0.611379,-0.175925,0.765315 WristRight:-0.142322,0.842760,-0.096464,0.510094 END:
KINECT_DATA POSITION:-0.324929,0.838889,-13.047457 HEAD_JOINT1:0.981917,0.142210,-0.000000,0.124963 LARM_JOINT2:0.814862,0.000000,-0.069453,-0.575480 LARM_JOINT3:0.962698,0.000000,-0.217484,-0.160977 LLEG_JOINT2:0.997929,0.018759,0.000000,0.061526 LLEG_JOINT4:0.995388,0.088250,0.000000,-0.037621 RARM_JOINT2:0.777927,0.000000,0.002987,0.628348 RARM_JOINT3:0.961849,0.000000,0.235865,0.138613 RLEG_JOINT2:0.999124,0.020771,0.000000,-0.036327 RLEG_JOINT4:0.995294,0.093383,0.000000,0.025858 WAIST:0.999992,-0.000000,0.000366,0.003866 WAIST_JOINT0:0.999695,0.000000,-0.015534,0.019178 WAIST_JOINT1:0.998191,0.057512,0.000000,-0.017549 END:
KINECT_DATA_Sensor  AnkleLeft:0.058154,0.713750,-0.093619,-0.691675 AnkleRight:0.081588,0.746414,0.079866,0.655615 ElbowLeft:-0.065340,0.898755,-0.138186,-0.410943 ElbowRight:-0.015187,0.850265,0.130317,0.509742 FootLeft:0.000000,0.000000,0.000000,0.000000 FootRight:0.000000,0.000000,0.000000,0.000000 HandLeft:0.052063,-0.596195,-0.196289,0.776732 HandRight:-0.124353,0.844122,-0.187291,0.486741 HandTipLeft:0.000000,0.000000,0.000000,0.000000 HandTipRight:0.000000,0.000000,0.000000,0.000000 Head:0.000000,0.000000,0.000000,0.000000 HipLeft:0.125801,-0.677989,0.706666,-0.158520 HipRight:-0.131387,0.677778,0.701291,-0.177611 KneeLeft:-0.032906,0.705650,-0.059531,-0.705288 KneeRight:-0.008239,0.707715,0.037647,0.705446 Neck:0.014521,-0.016196,0.997084,-0.073143 ShoulderLeft:0.002364,0.784560,-0.616647,0.064860 ShoulderRight:0.021863,0.800833,0.597206,-0.039167 SpineBase:-0.001020,-0.011622,0.999362,-0.033758 SpineMid:0.006567,-0.011878,0.999341,-0.033669 SpineShoulder:0.014412,-0.014051,0.998435,-0.052183 ThumbLeft:0.000000,0.000000,0.000000,0.000000 ThumbRight:0.000000,0.000000,0.000000,0.000000 WristLeft:0.095223,-0.586867,-0.176440,0.784467 WristRight:-0.143645,0.849310,-0.092755,0.499435 END:
KINECT_DATA POSITION:-0.225541,0.838662,-13.089466 HEAD_JOINT1:0.982278,0.138076,-0.000000,0.126749 LARM_JOINT2:0.815476,0.000000,-0.070399,-0.574493 LARM_JOINT3:0.962334,0.000000,-0.217605,-0.162975 LLEG_JOINT2:0.998088,0.018738,0.000000,0.058893 LLEG_JOINT4:0.995274,0.089229,0.000000,-0.038321 RARM_JOINT2:0.776308,0.000000,0.019141,0.630063 RARM_JOINT3:0.947003,0.000000,0.296489,0.123613 RLEG_JOINT2:0.999071,0.019095,0.000000,-0.038634 RLEG_JOINT4:0.995206,0.094334,0.000000,0.025822 WAIST:0.999986,-0.000000,0.000942,0.005205 WAIST_JOINT0:0.999700,0.000000,-0.012895,0.020842 WAIST_JOINT1:0.998269,0.056304,0.000000,-0.016984 END:
KINECT_DATA_Sensor  AnkleLeft:0.060109,0.712041,-0.092909,-0.693363 AnkleRight:0.080766,0.750285,0.079760,0.651297 ElbowLeft:-0.067731,0.899873,-0.140339,-0.407366 ElbowRight:-0.027124,0.841111,0.118828,0.526951 FootLeft:0.000000,0.000000,0.000000,0.000000 FootRight:0.000000,0.000000,0.000000,0.000000 HandLeft:0.069274,-0.654464,-0.194468,0.727366 HandRight:-0.314203,0.867462,-0.211410,0.322633 HandTipLeft:0.000000,0.000000,0.000000,0.000000 HandTipRight:0.000000,0.000000,0.000000,0.000000 Head:0.000000,0.000000,0.000000,0.000000 HipLeft:0.125508,-0.677246,0.707515,-0.158143 HipRight:-0.132436,0.678847,0.700147,-0.177263 KneeLeft:-0.031976,0.705272,-0.058614,-0.705786 KneeRight:-0.010134,0.708138,0.037141,0.705024 Neck:0.011898,-0.013623,0.997264,-0.071672 ShoulderLeft:0.003632,0.783387,-0.618424,0.061991 ShoulderRight:0.019682,0.801543,0.596242,-0.040464 SpineBase:-0.001612,-0.009825,0.999400,-0.033166 SpineMid:0.004978,-0.010043,0.999389,-0.033101 SpineShoulder:0.011769,-0.012236,0.998548,-0.051118 ThumbLeft:0.000000,0.000000,0.000000,0.000000 ThumbRight:0.000000,0.000000,0.000000,0.000000 WristLeft:0.109814,-0.645824,-0.168656,0.736483 WristRight:-0.189811,0.907949,-0.092443,0.362015 END:
KINECT_DATA POSITION:-0.069229,0.852770,-13.118469 HEAD_JOINT1:0.982106,0.135633,-0.000000,0.130656 LARM_JOINT2:0.816747,0.000000,-0.069334,-0.572815 LARM_JOINT3:0.962025,0.000000,-0.216431,-0.166329 LLEG_JOINT2:0.998268,0.019029,0.000000,0.055666 LLEG_JOINT4:0.995097,0.092395,0.000000,-0.035278 RARM_JOINT2:0.777015,0.000000,0.045249,0.627853 RARM_JOINT3:0.932538,0.000000,0.343140,0.112371 RLEG_JOINT2:0.998976,0.018529,0.000000,-0.041265 RLEG_JOINT4:0.994998,0.096625,0.000000,0.025341 WAIST:0.999978,-0.000000,0.000948,0.006548 WAIST_JOINT0:0.999695,0.000000,-0.010065,0.022559 WAIST_JOINT1:0.998421,0.054043,0.000000,-0.015293 END:
KINECT_DATA_Sensor  AnkleLeft:0.061628,0.710386,-0.096242,-0.694472 AnkleRight:0.082600,0.763361,0.080522,0.635589 ElbowLeft:-0.070702,0.900539,-0.144687,-0.403851 ElbowRight:-0.046947,0.833308,0.104325,0.540842 FootLeft:0.000000,0.000000,0.000000,0.000000 FootRight:0.000000,0.000000,0.000000,0.000000 HandLeft:0.011459,-0.436699,-0.207278,0.875328 HandRight:-0.389660,0.838187,-0.242938,0.294259 HandTipLeft:0.000000,0.000000,0.000000,0.000000 HandTipRight:0.000000,0.000000,0.000000,0.000000 Head:0.000000,0.000000,0.000000,0.000000 HipLeft:0.125664,-0.676430,0.708301,-0.157988 HipRight:-0.133619,0.680136,0.698984,-0.176018 KneeLeft:-0.030438,0.705349,-0.057484,-0.705870 KneeRight:-0.011447,0.708119,0.037652,0.704996 Neck:0.009207,-0.009924,0.997505,-0.069285 ShoulderLeft:0.002343,0.782294,-0.620034,0.059741 ShoulderRight:0.014751,0.802718,0.594661,-0.042478 SpineBase:-0.001600,-0.007247,0.999457,-0.032103 SpineMid:0.003672,-0.007416,0.999452,-0.032064 SpineShoulder:0.009088,-0.009189,0.998716,-0.048985 ThumbLeft:0.000000,0.000000,0.000000,0.000000 ThumbRight:0.000000,0.000000,0.000000,0.000000 WristLeft:0.063908,-0.425104,-0.190439,0.882573 WristRight:-0.234369,0.900156,-0.116599,0.348130 END:
KINECT_DATA POSITION:0.060648,0.880659,-13.070250 HEAD_JOINT1:0.981963,0.136586,-0.000000,0.130743 LARM_JOINT2:0.816324,0.000000,-0.067621,-0.573622 LARM_JOINT3:0.961792,0.000000,-0.215901,-0.168355 LLEG_JOINT2:0.998408,0.019573,0.000000,0.052895 LLEG_JOINT4:0.995710,0.085824,0.000000,-0.034589 RARM_JOINT2:0.785429,0.000000,0.076074,0.614258 RARM_JOINT3:0.913039,0.000000,0.392988,0.109179 RLEG_JOINT2:0.998867,0.018646,0.000000,-0.043788 RLEG_JOINT4:0.995087,0.095348,0.000000,0.026650 WAIST:0.999973,-0.000000,0.001183,0.007263 WAIST_JOINT0:0.999710,0.000000,-0.006174,0.023259 WAIST_JOINT1:0.998573,0.051662,0.000000,-0.013554 END:
KINECT_DATA_Sensor  AnkleLeft:0.057937,0.708758,-0.091313,-0.697113 AnkleRight:0.080573,0.757225,0.080978,0.643087 ElbowLeft:-0.071909,0.900789,-0.146017,-0.402601 ElbowRight:-0.074648,0.839679,0.099428,0.528660 FootLeft:0.000000,0.000000,0.000000,0.000000 FootRight:0.000000,0.000000,0.000000,0.000000 HandLeft:0.070958,-0.672117,-0.196081,0.710476 HandRight:-0.494258,0.851269,-0.153506,0.086522 HandTipLeft:0.000000,0.000000,0.000000,0.000000 HandTipRight:0.000000,0.000000,0.000000,0.000000 Head:0.000000,0.000000,0.000000,0.000000 HipLeft:0.126129,-0.676168,0.708640,-0.157219 HipRight:-0.135255,0.681060,0.698152,-0.174488 KneeLeft:-0.028585,0.705301,-0.056420,-0.706081 KneeRight:-0.012656,0.708225,0.039010,0.704795 Neck:0.005515,-0.007117,0.997723,-0.066849 ShoulderLeft:0.001803,0.782100,-0.620595,0.056376 ShoulderRight:0.009330,0.803419,0.593635,-0.045028 SpineBase:-0.001778,-0.005131,0.999524,-0.030380 SpineMid:0.001777,-0.005239,0.999524,-0.030362 SpineShoulder:0.005427,-0.006597,0.998873,-0.046686 ThumbLeft:0.000000,0.000000,0.000000,0.000000 ThumbRight:0.000000,0.000000,0.000000,0.000000 WristLeft:0.117181,-0.661950,-0.163759,0.721993 WristRight:-0.305980,0.940579,-0.083351,0.121409 END:
KINECT_DATA POSITION:0.197451,0.921689,-12.915611 HEAD_JOINT1:0.982282,0.139257,-0.000000,0.125414 LARM_JOINT2:0.813781,0.000000,-0.066848,-0.577315 LARM_JOINT3:0.962822,0.000000,-0.213807,-0.165106 LLEG_JOINT2:0.998454,0.020226,0.000000,0.051775 LLEG_JOINT4:0.995560,0.087637,0.000000,-0.034357 RARM_JOINT2:0.794131,0.000000,0.095870,0.600137 RARM_JOINT3:0.879921,0.000000,0.459371,0.121316 RLEG_JOINT2:0.998787,0.019212,0.000000,-0.045340 RLEG_JOINT4:0.994820,0.097341,0.000000,0.029292 WAIST:0.999959,-0.000000,0.005923,0.006886 WAIST_JOINT0:0.999699,-0.000000,0.003768,0.024258 WAIST_JOINT1:0.998744,0.049069,0.000000,-0.010090 END:
KINECT_DATA_Sensor  AnkleLeft:0.060695,0.702934,-0.092006,-0.702663 AnkleRight:0.081402,0.750782,0.083587,0.650164 ElbowLeft:-0.072533,0.898057,-0.144346,-0.409141 ElbowRight:-0.100188,0.826189,0.095150,0.546187 FootLeft:0.000000,0.000000,0.000000,0.000000 FootRight:0.000000,0.000000,0.000000,0.000000 HandLeft:-0.083904,0.700495,0.183182,-0.684625 HandRight:0.187793,-0.011032,-0.515295,0.836112 HandTipLeft:0.000000,0.000000,0.000000,0.000000 HandTipRight:0.000000,0.000000,0.000000,0.000000 Head:0.000000,0.000000,0.000000,0.000000 HipLeft:0.125200,-0.677089,0.708559,-0.154339 HipRight:-0.141301,0.680616,0.697139,-0.175478 KneeLeft:0.026817,-0.702100,0.055928,0.709372 KneeRight:-0.013840,0.711442,0.040685,0.701429 Neck:-0.004252,-0.003633,0.997947,-0.063799 ShoulderLeft:0.003615,0.781908,-0.621432,0.049295 ShoulderRight:-0.001502,0.804740,0.591222,-0.053360 SpineBase:-0.006371,-0.002641,0.999593,-0.027679 SpineMid:-0.005361,-0.002669,0.999599,-0.027676 SpineShoulder:-0.004324,-0.003588,0.999005,-0.044238 ThumbLeft:0.000000,0.000000,0.000000,0.000000 ThumbRight:0.000000,0.000000,0.000000,0.000000 WristLeft:-0.127557,0.694321,0.158025,-0.690417 WristRight:0.093237,-0.061061,-0.401677,0.908974 END:
KINECT_DATA POSITION:0.544353,0.932097,-12.559402 HEAD_JOINT1:0.983175,0.140015,-0.000000,0.117318 LARM_JOINT2:0.810240,0.000000,-0.062358,-0.582772 LARM_JOINT3:0.962793,0.000000,-0.215904,-0.162528 LLEG_JOINT2:0.998753,0.022562,0.000000,0.044532 LLEG_JOINT4:0.996012,0.085424,0.000000,-0.025738 RARM_JOINT2:0.796457,0.000000,0.109472,0.594703 RARM_JOINT3:0.855055,0.000000,0.488702,0.173352 RLEG_JOINT2:0.998212,0.024715,0.000000,-0.054423 RLEG_JOINT4:0.994785,0.094846,0.000000,0.037512 WAIST:0.999838,-0.000000,0.014900,0.010069 WAIST_JOINT0:0.999393,-0.000000,0.019528,0.028858 WAIST_JOINT1:0.998875,0.046581,0.000000,-0.008837 END:
KINECT_DATA_Sensor  AnkleLeft:0.063510,0.734670,-0.091451,-0.669226 AnkleRight:0.084498,0.757332,0.084299,0.642029 ElbowLeft:-0.070508,0.890511,-0.143466,-0.425953 ElbowRight:-0.110875,0.838777,0.087602,0.525819 FootLeft:0.000000,0.000000,0.000000,0.000000 FootRight:0.000000,0.000000,0.000000,0.000000 HandLeft:-0.130266,0.825379,0.169465,-0.522554 HandRight:0.252885,0.089471,-0.495168,0.826349 HandTipLeft:0.000000,0.000000,0.000000,0.000000 HandTipRight:0.000000,0.000000,0.000000,0.000000 Head:0.000000,0.000000,0.000000,0.000000 HipLeft:0.123473,-0.676473,0.710779,-0.148091 HipRight:-0.152276,0.682606,0.692495,-0.176951 KneeLeft:0.021881,-0.695837,0.054799,0.715772 KneeRight:-0.014666,0.717725,0.048550,0.694477 Neck:-0.019814,0.001672,0.997964,-0.060597 ShoulderLeft:0.008577,0.781049,-0.623237,0.038263 ShoulderRight:-0.016609,0.808497,0.584481,-0.066618 SpineBase:-0.015267,0.003116,0.999633,-0.022160 SpineMid:-0.017481,0.003165,0.999597,-0.022153 SpineShoulder:-0.019905,0.000438,0.998924,-0.041886 ThumbLeft:0.000000,0.000000,0.000000,0.000000 ThumbRight:0.000000,0.000000,0.000000,0.000000 WristLeft:-0.161797,0.822784,0.120919,-0.531250 WristRight:0.116846,0.015204,-0.461574,0.879241 END:
KINECT_DATA POSITION:0.805226,0.888187,-12.301338 HEAD_JOINT1:0.983964,0.141115,-0.000000,0.109096 LARM_JOINT2:0.806747,0.000000,-0.057981,-0.588045 LARM_JOINT3:0.965728,0.000000,-0.211391,-0.150613 LLEG_JOINT2:0.998895,0.024101,0.000000,0.040339 LLEG_JOINT4:0.996352,0.080242,0.000000,-0.029050 RARM_JOINT2:0.795820,0.000000,0.120621,0.593399 RARM_JOINT3:0.849906,0.000000,0.486873,0.201529 RLEG_JOINT2:0.997731,0.029332,0.000000,-0.060596 RLEG_JOINT4:0.994985,0.091151,0.000000,0.041195 WAIST:0.999622,-0.000000,0.024295,0.012865 WAIST_JOINT0:0.998773,-0.000000,0.037821,0.031973 WAIST_JOINT1:0.998966,0.044793,0.000000,-0.007782 END:
KINECT_DATA_Sensor  AnkleLeft:-0.058920,-0.684322,0.088749,0.721356 AnkleRight:0.084294,0.762088,0.085502,0.636244 ElbowLeft:-0.068413,0.880641,-0.142110,-0.446762 ElbowRight:-0.114678,0.864606,0.081345,0.482379 FootLeft:0.000000,0.000000,0.000000,0.000000 FootRight:0.000000,0.000000,0.000000,0.000000 HandLeft:0.069562,-0.530457,-0.178262,0.825832 HandRight:0.284794,0.139563,-0.498070,0.807057 HandTipLeft:0.000000,0.000000,0.000000,0.000000 HandTipRight:0.000000,0.000000,0.000000,0.000000 Head:0.000000,0.000000,0.000000,0.000000 HipLeft:0.120947,-0.675612,0.713073,-0.142996 HipRight:-0.162117,0.683458,0.688402,-0.180849 KneeLeft:0.019401,-0.689057,0.054935,0.722362 KneeRight:-0.014476,0.724349,0.053975,0.687165 Neck:-0.037989,0.006068,0.997533,-0.058720 ShoulderLeft:0.015795,0.780570,-0.624360,0.025204 ShoulderRight:-0.032691,0.811115,0.578176,-0.082083 SpineBase:-0.024633,0.007163,0.999493,-0.018860 SpineMid:-0.031151,0.007286,0.999311,-0.018813 SpineShoulder:-0.038077,0.004094,0.998467,-0.039969 ThumbLeft:0.000000,0.000000,0.000000,0.000000 ThumbRight:0.000000,0.000000,0.000000,0.000000 WristLeft:0.104155,-0.522871,-0.172434,0.828266 WristRight:0.147351,0.065494,-0.466910,0.869479 END:
KINECT_DATA POSITION:0.904872,0.856405,-12.271059 HEAD_JOINT1:0.985214,0.140874,-0.000000,0.097504 LARM_JOINT2:0.804544,0.000000,-0.048410,-0.591917 LARM_JOINT3:0.965174,0.000000,-0.215895,-0.147742 LLEG_JOINT2:0.998961,0.024893,0.000000,0.038182 LLEG_JOINT4:0.996095,0.084605,0.000000,-0.025219 RARM_JOINT2:0.834935,0.000000,0.239679,0.495417 RARM_JOINT3:0.853487,0.000000,0.423313,0.303919 RLEG_JOINT2:0.997531,0.030483,0.000000,-0.063261 RLEG_JOINT4:0.994714,0.092414,0.000000,0.044752 WAIST:0.999468,-0.000000,0.029193,0.014546 WAIST_JOINT0:0.998164,-0.000000,0.049669,0.034651 WAIST_JOINT1:0.999025,0.043664,0.000000,-0.006468 END:
KINECT_DATA_Sensor  AnkleLeft:0.068183,0.736620,-0.089097,-0.666936 AnkleRight:0.084665,0.745355,0.088172,0.655366 ElbowLeft:-0.063659,0.870616,-0.143465,-0.466254 ElbowRight:-0.219654,0.938450,0.138714,0.227645 FootLeft:0.000000,0.000000,0.000000,0.000000 FootRight:0.000000,0.000000,0.000000,0.000000 HandLeft:0.084901,-0.578559,-0.176939,0.791678 HandRight:0.287132,0.204812,-0.484779,0.800373 HandTipLeft:0.000000,0.000000,0.000000,0.000000 HandTipRight:0.000000,0.000000,0.000000,0.000000 Head:0.000000,0.000000,0.000000,0.000000 HipLeft:0.118870,-0.674950,0.714436,-0.141044 HipRight:-0.166538,0.683782,0.686155,-0.184117 KneeLeft:0.018308,-0.685466,0.055145,0.725783 KneeRight:-0.014739,0.727786,0.055341,0.683409 Neck:-0.050040,0.009115,0.997039,-0.057675 ShoulderLeft:0.021126,0.778776,-0.626733,0.016347 ShoulderRight:-0.042808,0.812719,0.573761,-0.091938 SpineBase:-0.029553,0.008879,0.999354,-0.018447 SpineMid:-0.039583,0.009064,0.999007,-0.018357 SpineShoulder:-0.050079,0.007209,0.997970,-0.038683 ThumbLeft:0.000000,0.000000,0.000000,0.000000 ThumbRight:0.000000,0.000000,0.000000,0.000000 WristLeft:0.119960,-0.570540,-0.160375,0.796476 WristRight:0.220653,0.201550,-0.395985,0.868266 END:
KINECT_DATA POSITION:0.941277,0.848483,-12.331343 HEAD_JOINT1:0.985775,0.141073,-0.000000,0.091353 LARM_JOINT2:0.803162,0.000000,-0.051266,-0.593550 LARM_JOINT3:0.963028,0.000000,-0.225791,-0.146951 LLEG_JOINT2:0.998950,0.024211,0.000000,0.038886 LLEG_JOINT4:0.996302,0.081449,0.000000,-0.027360 RARM_JOINT2:0.836637,0.000000,0.230895,0.496715 RARM_JOINT3:0.847158,0.000000,0.427767,0.315181 RLEG_JOINT2:0.997516,0.032555,0.000000,-0.062459 RLEG_JOINT4:0.994952,0.091158,0.000000,0.041964 WAIST:0.999320,-0.000000,0.033994,0.014315 WAIST_JOINT0:0.997921,-0.000000,0.053831,0.035449 WAIST_JOINT1:0.999040,0.043479,0.000000,-0.005426 END:
KINECT_DATA_Sensor  AnkleLeft:-0.059245,-0.675266,0.090324,0.729622 AnkleRight:0.082864,0.746042,0.091005,0.654426 ElbowLeft:-0.064432,0.869080,-0.141456,-0.469616 ElbowRight:-0.214148,0.940079,0.141521,0.224420 FootLeft:0.000000,0.000000,0.000000,0.000000 FootRight:0.000000,0.000000,0.000000,0.000000 HandLeft:0.085890,-0.501046,-0.222496,0.831908 HandRight:0.319468,0.149609,-0.457644,0.816162 HandTipLeft:0.000000,0.000000,0.000000,0.000000 HandTipRight:0.000000,0.000000,0.000000,0.000000 Head:0.000000,0.000000,0.000000,0.000000 HipLeft:0.114946,-0.675476,0.715142,-0.138172 HipRight:-0.168377,0.682955,0.685998,-0.186087 KneeLeft:0.018910,-0.681955,0.055069,0.729073 KneeRight:-0.013209,0.731124,0.056350,0.679785 Neck:-0.054468,0.009234,0.996792,-0.057906 ShoulderLeft:0.022841,0.777440,-0.628394,0.013647 ShoulderRight:-0.046795,0.812869,0.572584,-0.095923 SpineBase:-0.034342,0.009381,0.999187,-0.018938 SpineMid:-0.044175,0.009567,0.998800,-0.018844 SpineShoulder:-0.054462,0.007947,0.997748,-0.038347 ThumbLeft:0.000000,0.000000,0.000000,0.000000 ThumbRight:0.000000,0.000000,0.000000,0.000000 WristLeft:0.106321,-0.496395,-0.171210,0.844379 WristRight:0.261474,0.149471,-0.380246,0.874473 END:
KINECT_DATA POSITION:0.981408,0.870682,-12.467670 HEAD_JOINT1:0.985932,0.142284,-0.000000,0.087715 LARM_JOINT2:0.802659,0.000000,-0.054789,-0.593916 LARM_JOINT3:0.964693,0.000000,-0.218684,-0.146784 LLEG_JOINT2:0.998971,0.022757,0.000000,0.039241 LLEG_JOINT4:0.996251,0.082921,0.000000,-0.024655 RARM_JOINT2:0.835117,0.000000,0.233195,0.498196 RARM_JOINT3:0.846163,0.000000,0.429648,0.315293 RLEG_JOINT2:0.997511,0.032699,0.000000,-0.062471 RLEG_JOINT4:0.995105,0.089178,0.000000,0.042591 WAIST:0.999208,-0.000000,0.037115,0.014350 WAIST_JOINT0:0.998186,-0.000000,0.050234,0.033196 WAIST_JOINT1:0.999048,0.043295,0.000000,-0.005421 END:
KINECT_DATA_Sensor  AnkleLeft:0.065399,0.735325,-0.086915,-0.668929 AnkleRight:0.081134,0.744128,0.090005,0.656955 ElbowLeft:-0.065793,0.869899,-0.139985,-0.468349 ElbowRight:-0.215583,0.940774,0.137477,0.222640 FootLeft:0.000000,0.000000,0.000000,0.000000 FootRight:0.000000,0.000000,0.000000,0.000000 HandLeft:0.084118,-0.525893,-0.202859,0.821711 HandRight:0.305472,0.187582,-0.467180,0.808235 HandTipLeft:0.000000,0.000000,0.000000,0.000000 HandTipRight:0.000000,0.000000,0.000000,0.000000 Head:0.000000,0.000000,0.000000,0.000000 HipLeft:0.112974,-0.675600,0.715627,-0.136670 HipRight:-0.169703,0.682332,0.685757,-0.188048 KneeLeft:0.020106,-0.679650,0.054392,0.731241 KneeRight:-0.013302,0.733247,0.056366,0.677492 Neck:-0.051119,0.008052,0.996969,-0.058085 ShoulderLeft:0.023247,0.776722,-0.629255,0.014156 ShoulderRight:-0.042011,0.810825,0.576595,-0.091298 SpineBase:-0.037477,0.009104,0.999068,-0.019387 SpineMid:-0.044089,0.009232,0.998798,-0.019327 SpineShoulder:-0.051049,0.007835,0.997939,-0.038089 ThumbLeft:0.000000,0.000000,0.000000,0.000000 ThumbRight:0.000000,0.000000,0.000000,0.000000 WristLeft:0.110957,-0.519602,-0.168344,0.830279 WristRight:0.250265,0.188476,-0.393159,0.864448 END:
KINECT_DATA POSITION:1.004727,0.863708,-12.627829 HEAD_JOINT1:0.985749,0.145926,-0.000000,0.083687 LARM_JOINT2:0.801700,0.000000,-0.054599,-0.595228 LARM_JOINT3:0.964656,0.000000,-0.218384,-0.147467 LLEG_JOINT2:0.998972,0.020108,0.000000,0.040621 LLEG_JOINT4:0.996484,0.079525,0.000000,-0.026359 RARM_JOINT2:0.835540,0.000000,0.225475,0.501033 RARM_JOINT3:0.837873,0.000000,0.440825,0.321936 RLEG_JOINT2:0.997609,0.031403,0.000000,-0.061562 RLEG_JOINT4:0.994898,0.091704,0.000000,0.042045 WAIST:0.999095,-0.000000,0.040384,0.013363 WAIST_JOINT0:0.998035,-0.000000,0.053162,0.033159 WAIST_JOINT1:0.999045,0.043467,0.000000,-0.004519 END:
KINECT_DATA_Sensor  AnkleLeft:-0.054753,-0.676192,0.086790,0.729544 AnkleRight:0.085585,0.776797,0.087537,0.617737 ElbowLeft:-0.064201,0.868910,-0.138872,-0.470731 ElbowRight:-0.210528,0.940769,0.137824,0.227237 FootLeft:0.000000,0.000000,0.000000,0.000000 FootRight:0.000000,0.000000,0.000000,0.000000 HandLeft:0.112212,-0.643451,-0.192495,0.732342 HandRight:0.317721,0.186590,-0.468680,0.802855 HandTipLeft:0.000000,0.000000,0.000000,0.000000 HandTipRight:0.000000,0.000000,0.000000,0.000000 Head:0.000000,0.000000,0.000000,0.000000 HipLeft:0.111134,-0.676396,0.715376,-0.135555 HipRight:-0.171497,0.680987,0.686008,-0.190364 KneeLeft:0.022154,-0.677243,0.052946,0.733518 KneeRight:-0.014431,0.735399,0.055416,0.675210 Neck:-0.054129,0.007428,0.996793,-0.058469 ShoulderLeft:0.024244,0.776296,-0.629772,0.012826 ShoulderRight:-0.044887,0.810367,0.576499,-0.094548 SpineBase:-0.040722,0.008658,0.998934,-0.019924 SpineMid:-0.047219,0.008788,0.998648,-0.019867 SpineShoulder:-0.054036,0.007719,0.997778,-0.038216 ThumbLeft:0.000000,0.000000,0.000000,0.000000 ThumbRight:0.000000,0.000000,0.000000,0.000000 WristLeft:0.134180,-0.638545,-0.148480,0.743108 WristRight:0.260713,0.186708,-0.396524,0.860196 END:
KINECT_DATA POSITION:0.994404,0.850099,-12.705016 HEAD_JOINT1:0.985654,0.147495,-0.000000,0.082040 LARM_JOINT2:0.801077,0.000000,-0.054139,-0.596108 LARM_JOINT3:0.963601,0.000000,-0.220848,-0.150665 LLEG_JOINT2:0.998944,0.019253,0.000000,0.041709 LLEG_JOINT4:0.996213,0.082422,0.000000,-0.027692 RARM_JOINT2:0.835353,0.000000,0.222475,0.502683 RARM_JOINT3:0.840313,0.000000,0.437592,0.319979 RLEG_JOINT2:0.997617,0.030355,0.000000,-0.061966 RLEG_JOINT4:0.994685,0.094165,0.000000,0.041654 WAIST:0.999039,-0.000000,0.041843,0.013064 WAIST_JOINT0:0.997889,-0.000000,0.055491,0.033743 WAIST_JOINT1:0.999037,0.043685,0.000000,-0.004071 END:
KINECT_DATA_Sensor  AnkleLeft:-0.056729,-0.674604,0.087675,0.730756 AnkleRight:0.084072,0.765862,0.090984,0.630958 ElbowLeft:-0.063343,0.867383,-0.138285,-0.473827 ElbowRight:-0.208007,0.941124,0.137386,0.228350 FootLeft:0.000000,0.000000,0.000000,0.000000 FootRight:0.000000,0.000000,0.000000,0.000000 HandLeft:-0.127217,0.720186,0.190072,-0.654997 HandRight:0.297914,0.193145,-0.465246,0.810856 HandTipLeft:0.000000,0.000000,0.000000,0.000000 HandTipRight:0.000000,0.000000,0.000000,0.000000 Head:0.000000,0.000000,0.000000,0.000000 HipLeft:0.110356,-0.676613,0.715375,-0.135110 HipRight:-0.172416,0.680418,0.686032,-0.191478 KneeLeft:0.023246,-0.676149,0.052977,0.734490 KneeRight:-0.015746,0.736341,0.055096,0.674180 Neck:-0.056520,0.007469,0.996640,-0.058812 ShoulderLeft:0.024810,0.776078,-0.630034,0.011989 ShoulderRight:-0.047411,0.810719,0.575339,-0.097323 SpineBase:-0.042173,0.008555,0.998870,-0.020166 SpineMid:-0.049137,0.008695,0.998552,-0.020106 SpineShoulder:-0.056420,0.007865,0.997638,-0.038395 ThumbLeft:0.000000,0.000000,0.000000,0.000000 ThumbRight:0.000000,0.000000,0.000000,0.000000 WristLeft:-0.151018,0.719624,0.133145,-0.664535 WristRight:0.257677,0.199459,-0.400685,0.856312 END:
KINECT_DATA POSITION:0.948581,0.841766,-12.741577 HEAD_JOINT1:0.985474,0.148885,-0.000000,0.081699 LARM_JOINT2:0.801388,0.000000,-0.054385,-0.595668 LARM_JOINT3:0.962778,0.000000,-0.222589,-0.153336 LLEG_JOINT2:0.998927,0.018725,0.000000,0.042354 LLEG_JOINT4:0.996364,0.081538,0.000000,-0.024708 RARM_JOINT2:0.835043,0.000000,0.222327,0.503263 RARM_JOINT3:0.841350,0.000000,0.438897,0.315436 RLEG_JOINT2:0.997686,0.030540,0.000000,-0.060746 RLEG_JOINT4:0.994838,0.091554,0.000000,0.043756 WAIST:0.999030,-0.000000,0.042215,0.012562 WAIST_JOINT0:0.998010,-0.000000,0.053863,0.032778 WAIST_JOINT1:0.999032,0.043857,0.000000,-0.003546 END:
KINECT_DATA_Sensor  AnkleLeft:0.060679,0.731550,-0.084397,-0.673818 AnkleRight:0.082251,0.751842,0.089225,0.648080 ElbowLeft:-0.063097,0.868697,-0.138986,-0.471240 ElbowRight:-0.207602,0.941150,0.136664,0.229041 FootLeft:0.000000,0.000000,0.000000,0.000000 FootRight:0.000000,0.000000,0.000000,0.000000 HandLeft:-0.128821,0.721324,0.193777,-0.652339 HandRight:0.322580,0.134161,-0.450364,0.821654 HandTipLeft:0.000000,0.000000,0.000000,0.000000 HandTipRight:0.000000,0.000000,0.000000,0.000000 Head:0.000000,0.000000,0.000000,0.000000 HipLeft:0.110264,-0.676902,0.715082,-0.135290 HipRight:-0.172791,0.679926,0.686281,-0.191998 KneeLeft:0.023700,-0.675879,0.052745,0.734741 KneeRight:-0.015103,0.736593,0.054750,0.673948 Neck:-0.054875,0.007278,0.996717,-0.059089 ShoulderLeft:0.024454,0.776145,-0.629947,0.012936 ShoulderRight:-0.045657,0.809813,0.577015,-0.095769 SpineBase:-0.042531,0.008397,0.998852,-0.020362 SpineMid:-0.048505,0.008518,0.998580,-0.020312 SpineShoulder:-0.054766,0.007814,0.997723,-0.038579 ThumbLeft:0.000000,0.000000,0.000000,0.000000 ThumbRight:0.000000,0.000000,0.000000,0.000000 WristLeft:-0.150604,0.721463,0.134619,-0.662334 WristRight:0.283019,0.141602,-0.382648,0.868003 END:
KINECT_DATA POSITION:0.905183,0.832464,-12.672174 HEAD_JOINT1:0.985301,0.150333,-0.000000,0.081133 LARM_JOINT2:0.801635,0.000000,-0.054739,-0.595302 LARM_JOINT3:0.962804,0.000000,-0.222705,-0.153009 LLEG_JOINT2:0.998896,0.018821,0.000000,0.043032 LLEG_JOINT4:0.996179,0.082780,0.000000,-0.027839 RARM_JOINT2:0.834087,0.000000,0.223296,0.504417 RARM_JOINT3:0.841455,0.000000,0.441812,0.311057 RLEG_JOINT2:0.997746,0.028297,0.000000,-0.060840 RLEG_JOINT4:0.994462,0.095209,0.000000,0.044499 WAIST:0.999065,-0.000000,0.041511,0.012042 WAIST_JOINT0:0.997906,-0.000000,0.055023,0.034008 WAIST_JOINT1:0.999014,0.044339,0.000000,-0.002283 END:
KINECT_DATA_Sensor  AnkleLeft:0.061735,0.717412,-0.084241,-0.688776 AnkleRight:0.083145,0.749006,0.090350,0.651086 ElbowLeft:-0.063324,0.869458,-0.140134,-0.469463 ElbowRight:-0.206747,0.941463,0.134527,0.229793 FootLeft:0.000000,0.000000,0.000000,0.000000 FootRight:0.000000,0.000000,0.000000,0.000000 HandLeft:-0.131730,0.725303,0.189797,-0.648506 HandRight:0.286628,0.188193,-0.483037,0.805670 HandTipLeft:0.000000,0.000000,0.000000,0.000000 HandTipRight:0.000000,0.000000,0.000000,0.000000 Head:0.000000,0.000000,0.000000,0.000000 HipLeft:0.110464,-0.677021,0.714781,-0.136120 HipRight:-0.172676,0.679611,0.686729,-0.191614 KneeLeft:0.023751,-0.676410,0.052930,0.734236 KneeRight:-0.017020,0.736047,0.053548,0.674595 Neck:-0.056103,0.008100,0.996602,-0.059765 ShoulderLeft:0.023766,0.775573,-0.630660,0.013761 ShoulderRight:-0.048034,0.810443,0.575520,-0.098242 SpineBase:-0.041798,0.008941,0.998874,-0.020581 SpineMid:-0.048731,0.009083,0.998560,-0.020519 SpineShoulder:-0.055976,0.008664,0.997631,-0.039040 ThumbLeft:0.000000,0.000000,0.000000,0.000000 ThumbRight:0.000000,0.000000,0.000000,0.000000 WristLeft:-0.151256,0.725278,0.133920,-0.658148 WristRight:0.254820,0.204242,-0.402514,0.855181 END:
KINECT_DATA POSITION:0.880735,0.820198,-12.609947 HEAD_JOINT1:0.985462,0.149672,-0.000000,0.080399 LARM_JOINT2:0.802096,0.000000,-0.057841,-0.594387 LARM_JOINT3:0.961673,0.000000,-0.226162,-0.155032 LLEG_JOINT2:0.998876,0.019230,0.000000,0.043315 LLEG_JOINT4:0.996043,0.084400,0.000000,-0.027854 RARM_JOINT2:0.836450,0.000000,0.220180,0.501868 RARM_JOINT3:0.840755,0.000000,0.443120,0.311088 RLEG_JOINT2:0.997768,0.029964,0.000000,-0.059677 RLEG_JOINT4:0.994657,0.093427,0.000000,0.043931 WAIST:0.999057,-0.000000,0.041762,0.011906 WAIST_JOINT0:0.997890,-0.000000,0.054719,0.034941 WAIST_JOINT1:0.998956,0.045649,0.000000,-0.001501 END:
KINECT_DATA_Sensor  AnkleLeft:-0.058065,-0.674844,0.089193,0.730246 AnkleRight:0.081625,0.736701,0.091555,0.665001 ElbowLeft:-0.064494,0.870990,-0.141165,-0.466143 ElbowRight:-0.205217,0.940728,0.138343,0.231899 FootLeft:0.000000,0.000000,0.000000,0.000000 FootRight:0.000000,0.000000,0.000000,0.000000 HandLeft:-0.173361,0.829752,0.177320,-0.500016 HandRight:0.280304,0.186671,-0.481109,0.809393 HandTipLeft:0.000000,0.000000,0.000000,0.000000 HandTipRight:0.000000,0.000000,0.000000,0.000000 Head:0.000000,0.000000,0.000000,0.000000 HipLeft:0.109373,-0.676952,0.714907,-0.136681 HipRight:-0.172295,0.679322,0.686958,-0.192159 KneeLeft:0.023532,-0.676231,0.053325,0.734380 KneeRight:-0.015141,0.736280,0.054076,0.674343 Neck:-0.055985,0.008643,0.996515,-0.061223 ShoulderLeft:0.023251,0.774945,-0.631401,0.015864 ShoulderRight:-0.048489,0.810942,0.574502,-0.099851 SpineBase:-0.042045,0.009430,0.998837,-0.021642 SpineMid:-0.048787,0.009576,0.998530,-0.021578 SpineShoulder:-0.055844,0.009258,0.997582,-0.040335 ThumbLeft:0.000000,0.000000,0.000000,0.000000 ThumbRight:0.000000,0.000000,0.000000,0.000000 WristLeft:-0.172936,0.833953,0.103234,-0.513768 WristRight:0.253520,0.204321,-0.402877,0.855378 END:
KINECT_DATA POSITION:0.880197,0.811150,-12.564384 HEAD_JOINT1:0.985263,0.150091,-0.000000,0.082039 LARM_JOINT2:0.802555,0.000000,-0.059325,-0.593621 LARM_JOINT3:0.961969,0.000000,-0.222489,-0.158477 LLEG_JOINT2:0.998871,0.019754,0.000000,0.043206 LLEG_JOINT4:0.996038,0.084329,0.000000,-0.028219 RARM_JOINT2:0.836928,0.000000,0.220225,0.501052 RARM_JOINT3:0.839185,0.000000,0.442405,0.316301 RLEG_JOINT2:0.997777,0.029095,0.000000,-0.059953 RLEG_JOINT4:0.994295,0.096994,0.000000,0.044375 WAIST:0.999099,-0.000000,0.040712,0.011993 WAIST_JOINT0:0.997956,-0.000000,0.053600,0.034784 WAIST_JOINT1:0.998937,0.046069,0.000000,-0.001715 END:
KINECT_DATA_Sensor  AnkleLeft:-0.058550,-0.675404,0.089290,0.729677 AnkleRight:0.085485,0.747808,0.091673,0.651975 ElbowLeft:-0.065178,0.872987,-0.141572,-0.462171 ElbowRight:-0.205202,0.940358,0.139574,0.232678 FootLeft:0.000000,0.000000,0.000000,0.000000 FootRight:0.000000,0.000000,0.000000,0.000000 HandLeft:-0.163772,0.852821,0.168171,-0.466469 HandRight:0.333189,0.114041,-0.444992,0.823384 HandTipLeft:0.000000,0.000000,0.000000,0.000000 HandTipRight:0.000000,0.000000,0.000000,0.000000 Head:0.000000,0.000000,0.000000,0.000000 HipLeft:0.109843,-0.676700,0.714918,-0.137492 HipRight:-0.171606,0.679429,0.687119,-0.191822 KneeLeft:0.023181,-0.677006,0.053645,0.733654 KneeRight:-0.015809,0.735550,0.053587,0.675163 Neck:-0.054907,0.008475,0.996548,-0.061696 ShoulderLeft:0.022017,0.775300,-0.630966,0.017512 ShoulderRight:-0.048362,0.811155,0.574231,-0.099741 SpineBase:-0.041002,0.009476,0.998873,-0.021936 SpineMid:-0.047719,0.009623,0.998575,-0.021871 SpineShoulder:-0.054759,0.009190,0.997626,-0.040731 ThumbLeft:0.000000,0.000000,0.000000,0.000000 ThumbRight:0.000000,0.000000,0.000000,0.000000 WristLeft:-0.176747,0.854275,0.098215,-0.478883 WristRight:0.291007,0.120116,-0.376835,0.871139 END:
KINECT_DATA POSITION:0.884369,0.800721,-12.453472 HEAD_JOINT1:0.985143,0.150811,-0.000000,0.082158 LARM_JOINT2:0.802304,0.000000,-0.058772,-0.594016 LARM_JOINT3:0.962552,0.000000,-0.220083,-0.158295 LLEG_JOINT2:0.998869,0.020587,0.000000,0.042862 LLEG_JOINT4:0.996150,0.083621,0.000000,-0.026332 RARM_JOINT2:0.834546,0.000000,0.226180,0.502370 RARM_JOINT3:0.841696,0.000000,0.442328,0.309668 RLEG_JOINT2:0.997757,0.030270,0.000000,-0.059710 RLEG_JOINT4:0.994334,0.095825,0.000000,0.046008 WAIST:0.999115,-0.000000,0.040328,0.011928 WAIST_JOINT0:0.998035,-0.000000,0.052663,0.033941 WAIST_JOINT1:0.998942,0.045943,0.000000,-0.001895 END:
KINECT_DATA_Sensor  AnkleLeft:0.062304,0.713182,-0.087338,-0.692720 AnkleRight:0.086044,0.742027,0.091109,0.658553 ElbowLeft:-0.064749,0.872892,-0.141035,-0.462575 ElbowRight:-0.208025,0.940865,0.134951,0.230839 FootLeft:0.000000,0.000000,0.000000,0.000000 FootRight:0.000000,0.000000,0.000000,0.000000 HandLeft:0.077700,-0.596564,-0.207898,0.771267 HandRight:0.322850,0.130196,-0.460101,0.816777 HandTipLeft:0.000000,0.000000,0.000000,0.000000 HandTipRight:0.000000,0.000000,0.000000,0.000000 Head:0.000000,0.000000,0.000000,0.000000 HipLeft:0.109943,-0.676716,0.714882,-0.137517 HipRight:-0.171190,0.679448,0.687290,-0.191509 KneeLeft:0.022305,-0.677309,0.053905,0.733382 KneeRight:-0.014852,0.735318,0.054341,0.675377 Neck:-0.054011,0.008168,0.996608,-0.061547 ShoulderLeft:0.021379,0.775741,-0.630431,0.018027 ShoulderRight:-0.047834,0.810938,0.574722,-0.098929 SpineBase:-0.040619,0.009306,0.998890,-0.021943 SpineMid:-0.047083,0.009448,0.998607,-0.021883 SpineShoulder:-0.053862,0.008961,0.997682,-0.040616 ThumbLeft:0.000000,0.000000,0.000000,0.000000 ThumbRight:0.000000,0.000000,0.000000,0.000000 WristLeft:0.121153,-0.586013,-0.163244,0.784387 WristRight:0.281773,0.139601,-0.383441,0.868383 END:
KINECT_DATA POSITION:0.876068,0.801320,-12.400842 HEAD_JOINT1:0.985074,0.151152,-0.000000,0.082350 LARM_JOINT2:0.802020,0.000000,-0.059021,-0.594373 LARM_JOINT3:0.963768,0.000000,-0.214758,-0.158211 LLEG_JOINT2:0.998866,0.019977,0.000000,0.043214 LLEG_JOINT4:0.996103,0.083988,0.000000,-0.026934 RARM_JOINT2:0.834172,0.000000,0.224842,0.503591 RARM_JOINT3:0.840464,0.000000,0.444545,0.309839 RLEG_JOINT2:0.997785,0.030770,0.000000,-0.058975 RLEG_JOINT4:0.994479,0.095129,0.000000,0.044304 WAIST:0.999081,-0.000000,0.041242,0.011636 WAIST_JOINT0:0.997988,-0.000000,0.053626,0.033833 WAIST_JOINT1:0.998952,0.045724,0.000000,-0.001989 END:
KINECT_DATA_Sensor  AnkleLeft:-0.057938,-0.675477,0.089850,0.729590 AnkleRight:0.086698,0.755418,0.090254,0.643181 ElbowLeft:-0.064186,0.874072,-0.140369,-0.460624 ElbowRight:-0.207131,0.940994,0.134488,0.231387 FootLeft:0.000000,0.000000,0.000000,0.000000 FootRight:0.000000,0.000000,0.000000,0.000000 HandLeft:-0.139754,0.849838,0.149657,-0.485640 HandRight:0.308000,0.163572,-0.476288,0.807174 HandTipLeft:0.000000,0.000000,0.000000,0.000000 HandTipRight:0.000000,0.000000,0.000000,0.000000 Head:0.000000,0.000000,0.000000,0.000000 HipLeft:0.109551,-0.676996,0.714811,-0.136820 HipRight:-0.171743,0.679102,0.687387,-0.191892 KneeLeft:0.022745,-0.676638,0.053557,0.734013 KneeRight:-0.014236,0.735942,0.054395,0.674706 Neck:-0.054910,0.007645,0.996579,-0.061293 ShoulderLeft:0.021512,0.776030,-0.630089,0.017385 ShoulderRight:-0.048833,0.810878,0.574586,-0.099718 SpineBase:-0.041524,0.009019,0.998860,-0.021766 SpineMid:-0.047986,0.009160,0.998570,-0.021707 SpineShoulder:-0.054761,0.008574,0.997645,-0.040406 ThumbLeft:0.000000,0.000000,0.000000,0.000000 ThumbRight:0.000000,0.000000,0.000000,0.000000 WristLeft:-0.173876,0.845809,0.104074,-0.493501 WristRight:0.266279,0.174545,-0.394488,0.861980 END:
KINECT_DATA POSITION:0.880603,0.796687,-12.397469 HEAD_JOINT1:0.984949,0.151987,-0.000000,0.082319 LARM_JOINT2:0.801672,0.000000,-0.057833,-0.594960 LARM_JOINT3:0.963730,0.000000,-0.213296,-0.160404 LLEG_JOINT2:0.998833,0.020122,0.000000,0.043899 LLEG_JOINT4:0.996204,0.082892,0.000000,-0.026564 RARM_JOINT2:0.833942,0.000000,0.230817,0.501262 RARM_JOINT3:0.839390,0.000000,0.466261,0.279328 RLEG_JOINT2:0.997811,0.030590,0.000000,-0.058632 RLEG_JOINT4:0.994452,0.095643,0.000000,0.043782 WAIST:0.999097,-0.000000,0.040994,0.011196 WAIST_JOINT0:0.997923,-0.000000,0.054670,0.034081 WAIST_JOINT1:0.999005,0.044540,0.000000,-0.002118 END:
KINECT_DATA_Sensor  AnkleLeft:-0.056731,-0.675096,0.089752,0.730049 AnkleRight:0.085087,0.744917,0.092277,0.655244 ElbowLeft:-0.064039,0.873841,-0.139188,-0.461441 ElbowRight:-0.215545,0.935877,0.129283,0.246903 FootLeft:0.000000,0.000000,0.000000,0.000000 FootRight:0.000000,0.000000,0.000000,0.000000 HandLeft:-0.122334,0.826666,0.161588,-0.524925 HandRight:0.264276,0.165761,-0.521889,0.793923 HandTipLeft:0.000000,0.000000,0.000000,0.000000 HandTipRight:0.000000,0.000000,0.000000,0.000000 Head:0.000000,0.000000,0.000000,0.000000 HipLeft:0.110005,-0.677409,0.714414,-0.136486 HipRight:-0.171877,0.679010,0.687596,-0.191350 KneeLeft:0.022802,-0.676832,0.053846,0.733811 KneeRight:-0.014401,0.735751,0.054346,0.674914 Neck:-0.055858,0.007123,0.996620,-0.059806 ShoulderLeft:0.020040,0.776298,-0.629820,0.016909 ShoulderRight:-0.051586,0.811198,0.573726,-0.100672 SpineBase:-0.041256,0.008770,0.998886,-0.021173 SpineMid:-0.048321,0.008920,0.998569,-0.021110 SpineShoulder:-0.055718,0.008121,0.997639,-0.039312 ThumbLeft:0.000000,0.000000,0.000000,0.000000 ThumbRight:0.000000,0.000000,0.000000,0.000000 WristLeft:-0.168760,0.821317,0.113061,-0.533081 WristRight:0.251923,0.199171,-0.422250,0.847685 END:
KINECT_DATA POSITION:0.974436,0.817850,-12.458849 HEAD_JOINT1:0.984928,0.152516,-0.000000,0.081586 LARM_JOINT2:0.800700,0.000000,-0.054894,-0.596546 LARM_JOINT3:0.964764,0.000000,-0.212392,-0.155308 LLEG_JOINT2:0.998919,0.019979,0.000000,0.041970 LLEG_JOINT4:0.996244,0.082855,0.000000,-0.025154 RARM_JOINT2:0.832708,0.000000,0.286201,0.474011 RARM_JOINT3:0.873967,0.000000,0.448884,0.186239 RLEG_JOINT2:0.997799,0.029999,0.000000,-0.059136 RLEG_JOINT4:0.994286,0.096490,0.000000,0.045672 WAIST:0.999019,-0.000000,0.042889,0.010988 WAIST_JOINT0:0.997943,-0.000000,0.054248,0.034176 WAIST_JOINT1:0.999101,0.042378,0.000000,-0.001452 END:
KINECT_DATA_Sensor  AnkleLeft:-0.057416,-0.675252,0.088882,0.729958 AnkleRight:0.085447,0.742588,0.092233,0.657841 ElbowLeft:-0.063398,0.871731,-0.138202,-0.465796 ElbowRight:-0.269244,0.918797,0.103028,0.269639 FootLeft:0.000000,0.000000,0.000000,0.000000 FootRight:0.000000,0.000000,0.000000,0.000000 HandLeft:-0.139593,0.848411,0.140521,-0.490883 HandRight:0.222649,0.134958,-0.577827,0.773518 HandTipLeft:0.000000,0.000000,0.000000,0.000000 HandTipRight:0.000000,0.000000,0.000000,0.000000 Head:0.000000,0.000000,0.000000,0.000000 HipLeft:0.108643,-0.678200,0.714421,-0.133585 HipRight:-0.173004,0.679201,0.687341,-0.190572 KneeLeft:0.021374,-0.675494,0.052208,0.735204 KneeRight:-0.015437,0.737000,0.054357,0.673526 Neck:-0.055433,0.007629,0.996777,-0.057479 ShoulderLeft:0.019053,0.776489,-0.629658,0.015227 ShoulderRight:-0.052018,0.812039,0.572878,-0.098477 SpineBase:-0.043119,0.009045,0.998834,-0.019737 SpineMid:-0.049058,0.009162,0.998560,-0.019683 SpineShoulder:-0.055299,0.008408,0.997739,-0.037252 ThumbLeft:0.000000,0.000000,0.000000,0.000000 ThumbRight:0.000000,0.000000,0.000000,0.000000 WristLeft:-0.174035,0.843547,0.104114,-0.497293 WristRight:0.202934,0.164918,-0.451148,0.853279 END:
KINECT_DATA POSITION:0.988236,0.856657,-12.586832 HEAD_JOINT1:0.984796,0.153753,-0.000000,0.080855 LARM_JOINT2:0.800156,0.000000,-0.052988,-0.597447 LARM_JOINT3:0.964170,0.000000,-0.214413,-0.156215 LLEG_JOINT2:0.998930,0.018698,0.000000,0.042300 LLEG_JOINT4:0.996305,0.083140,0.000000,-0.021556 RARM_JOINT2:0.830977,0.000000,0.324974,0.451519 RARM_JOINT3:0.897021,0.000000,0.428288,0.109190 RLEG_JOINT2:0.997940,0.029365,0.000000,-0.057043 RLEG_JOINT4:0.994734,0.092463,0.000000,0.044224 WAIST:0.999064,-0.000000,0.042131,0.009771 WAIST_JOINT0:0.997603,-0.000000,0.059101,0.035985 WAIST_JOINT1:0.999144,0.041369,0.000000,-0.000422 END:
KINECT_DATA_Sensor  AnkleLeft:-0.054482,-0.673036,0.090542,0.732022 AnkleRight:0.083634,0.755328,0.087675,0.644048 ElbowLeft:-0.062828,0.870994,-0.137256,-0.467529 ElbowRight:-0.308637,0.893879,0.072164,0.317040 FootLeft:0.000000,0.000000,0.000000,0.000000 FootRight:0.000000,0.000000,0.000000,0.000000 HandLeft:-0.123454,0.778789,0.172848,-0.590229 HandRight:0.169242,0.053634,-0.530491,0.828891 HandTipLeft:0.000000,0.000000,0.000000,0.000000 HandTipRight:0.000000,0.000000,0.000000,0.000000 Head:0.000000,0.000000,0.000000,0.000000 HipLeft:0.108514,-0.679211,0.713770,-0.132023 HipRight:-0.171976,0.679051,0.688487,-0.187879 KneeLeft:0.021718,-0.676092,0.050715,0.734749 KneeRight:-0.015143,0.736452,0.053349,0.674213 Neck:-0.060181,0.007832,0.996549,-0.056626 ShoulderLeft:0.017483,0.776345,-0.629913,0.013879 ShoulderRight:-0.059902,0.813183,0.569460,-0.104215 SpineBase:-0.042308,0.008835,0.998894,-0.018513 SpineMid:-0.051000,0.008996,0.998488,-0.018436 SpineShoulder:-0.060059,0.008483,0.997502,-0.036199 ThumbLeft:0.000000,0.000000,0.000000,0.000000 ThumbRight:0.000000,0.000000,0.000000,0.000000 WristLeft:-0.159181,0.775368,0.123057,-0.598600 WristRight:0.208130,0.088654,-0.494077,0.839470 END:
KINECT_DATA POSITION:0.923999,0.866322,-12.717915 HEAD_JOINT1:0.985099,0.150754,-0.000000,0.082781 LARM_JOINT2:0.800934,0.000000,-0.055175,-0.596205 LARM_JOINT3:0.962344,0.000000,-0.221434,-0.157672 LLEG_JOINT2:0.998873,0.018413,0.000000,0.043755 LLEG_JOINT4:0.996108,0.085083,0.000000,-0.023020 RARM_JOINT2:0.823116,0.000000,0.356872,0.441727 RARM_JOINT3:0.916304,0.000000,0.394375,0.069685 RLEG_JOINT2:0.998165,0.023947,0.000000,-0.055609 RLEG_JOINT4:0.994113,0.099200,0.000000,0.043574 WAIST:0.999262,-0.000000,0.037462,0.008515 WAIST_JOINT0:0.997562,-0.000000,0.059821,0.035927 WAIST_JOINT1:0.999134,0.041604,-0.000000,0.000002 END:
KINECT_DATA_Sensor  AnkleLeft:-0.055726,-0.672467,0.091335,0.732353 AnkleRight:0.084676,0.751495,0.088666,0.648246 ElbowLeft:-0.064910,0.873626,-0.136842,-0.462427 ElbowRight:-0.329441,0.879442,0.043766,0.340786 FootLeft:0.000000,0.000000,0.000000,0.000000 FootRight:0.000000,0.000000,0.000000,0.000000 HandLeft:-0.167918,0.862047,0.169469,-0.447166 HandRight:0.203599,-0.021774,-0.511504,0.834528 HandTipLeft:0.000000,0.000000,0.000000,0.000000 HandTipRight:0.000000,0.000000,0.000000,0.000000 Head:0.000000,0.000000,0.000000,0.000000 HipLeft:0.110134,-0.679690,0.712768,-0.133622 HipRight:-0.167677,0.679238,0.690441,-0.183881 KneeLeft:0.022232,-0.679546,0.050631,0.731546 KneeRight:-0.018403,0.733120,0.049389,0.678054 Neck:-0.060922,0.007396,0.996493,-0.056875 ShoulderLeft:0.015704,0.776387,-0.629874,0.015333 ShoulderRight:-0.062795,0.812942,0.569050,-0.106603 SpineBase:-0.037606,0.008204,0.999086,-0.018611 SpineMid:-0.048994,0.008416,0.998592,-0.018517 SpineShoulder:-0.060808,0.008075,0.997452,-0.036420 ThumbLeft:0.000000,0.000000,0.000000,0.000000 ThumbRight:0.000000,0.000000,0.000000,0.000000 WristLeft:-0.177897,0.864322,0.097497,-0.460212 WristRight:0.217723,-0.008471,-0.493246,0.842160 END:
KINECT_DATA POSITION:0.867021,0.863085,-12.746059 HEAD_JOINT1:0.985026,0.148736,-0.000000,0.087185 LARM_JOINT2:0.802181,0.000000,-0.058043,-0.594253 LARM_JOINT3:0.962345,0.000000,-0.222519,-0.156135 LLEG_JOINT2:0.998859,0.017894,0.000000,0.044268 LLEG_JOINT4:0.995970,0.086314,0.000000,-0.024370 RARM_JOINT2:0.825690,0.000000,0.363047,0.431778 RARM_JOINT3:0.912783,0.000000,0.400854,0.078378 RLEG_JOINT2:0.998226,0.024342,0.000000,-0.054339 RLEG_JOINT4:0.994066,0.099659,0.000000,0.043605 WAIST:0.999308,-0.000000,0.036264,0.008288 WAIST_JOINT0:0.997583,-0.000000,0.059293,0.036228 WAIST_JOINT1:0.999139,0.041494,-0.000000,0.000269 END:
KINECT_DATA_Sensor  AnkleLeft:0.063777,0.727996,-0.086424,-0.677116 AnkleRight:0.084374,0.737567,0.090118,0.663893 ElbowLeft:-0.067378,0.876796,-0.138097,-0.455650 ElbowRight:-0.338431,0.879619,0.049302,0.330612 FootLeft:0.000000,0.000000,0.000000,0.000000 FootRight:0.000000,0.000000,0.000000,0.000000 HandLeft:-0.194514,0.898532,0.145403,-0.365598 HandRight:0.236855,-0.015511,-0.509471,0.827102 HandTipLeft:0.000000,0.000000,0.000000,0.000000 HandTipRight:0.000000,0.000000,0.000000,0.000000 Head:0.000000,0.000000,0.000000,0.000000 HipLeft:0.110450,-0.679865,0.712516,-0.133811 HipRight:-0.166695,0.679449,0.690781,-0.182712 KneeLeft:0.022856,-0.680415,0.050473,0.730729 KneeRight:-0.017299,0.732331,0.049001,0.678963 Neck:-0.060455,0.007541,0.996526,-0.056783 ShoulderLeft:0.013580,0.776222,-0.630084,0.016987 ShoulderRight:-0.064475,0.813169,0.568405,-0.107308 SpineBase:-0.036400,0.008227,0.999133,-0.018462 SpineMid:-0.048151,0.008443,0.998636,-0.018364 SpineShoulder:-0.060340,0.008189,0.997484,-0.036308 ThumbLeft:0.000000,0.000000,0.000000,0.000000 ThumbRight:0.000000,0.000000,0.000000,0.000000 WristLeft:-0.186517,0.902898,0.082531,-0.378384 WristRight:0.226238,-0.017325,-0.490856,0.841176 END:
KINECT_DATA POSITION:0.838715,0.872119,-12.723028 HEAD_JOINT1:0.985091,0.148334,-0.000000,0.087133 LARM_JOINT2:0.802917,0.000000,-0.058850,-0.593179 LARM_JOINT3:0.963129,0.000000,-0.219268,-0.155896 LLEG_JOINT2:0.998856,0.017493,0.000000,0.044499 LLEG_JOINT4:0.996223,0.082951,0.000000,-0.025664 RARM_JOINT2:0.827983,0.000000,0.376474,0.415587 RARM_JOINT3:0.912990,0.000000,0.398756,0.086268 RLEG_JOINT2:0.998264,0.023533,0.000000,-0.054001 RLEG_JOINT4:0.994020,0.099682,0.000000,0.044578 WAIST:0.999301,-0.000000,0.036488,0.008082 WAIST_JOINT0:0.997652,-0.000000,0.058716,0.035261 WAIST_JOINT1:0.999132,0.041650,-0.000000,0.001253 END:
KINECT_DATA_Sensor  AnkleLeft:0.060384,0.717998,-0.084016,-0.688312 AnkleRight:0.085956,0.747849,0.087508,0.652438 ElbowLeft:-0.068284,0.877685,-0.139895,-0.453250 ElbowRight:-0.353452,0.881041,0.054699,0.309590 FootLeft:0.000000,0.000000,0.000000,0.000000 FootRight:0.000000,0.000000,0.000000,0.000000 HandLeft:0.066361,-0.489685,-0.219327,0.841249 HandRight:0.243633,0.000079,-0.508127,0.826105 HandTipLeft:0.000000,0.000000,0.000000,0.000000 HandTipRight:0.000000,0.000000,0.000000,0.000000 Head:0.000000,0.000000,0.000000,0.000000 HipLeft:0.110161,-0.680063,0.712363,-0.133859 HipRight:-0.167097,0.679389,0.690751,-0.182683 KneeLeft:0.023153,-0.680253,0.050228,0.730888 KneeRight:-0.017763,0.732463,0.048319,0.678858 Neck:-0.059922,0.008331,0.996537,-0.057049 ShoulderLeft:0.013047,0.775941,-0.630420,0.017761 ShoulderRight:-0.064413,0.812019,0.570060,-0.107270 SpineBase:-0.036604,0.008817,0.999121,-0.018433 SpineMid:-0.047984,0.009027,0.998639,-0.018332 SpineShoulder:-0.059795,0.008906,0.997505,-0.036462 ThumbLeft:0.000000,0.000000,0.000000,0.000000 ThumbRight:0.000000,0.000000,0.000000,0.000000 WristLeft:0.097418,-0.482522,-0.179358,0.851771 WristRight:0.227243,-0.005511,-0.491305,0.840803 END:
KINECT_DATA POSITION:0.816992,0.879900,-12.660563 HEAD_JOINT1:0.985189,0.148449,-0.000000,0.085824 LARM_JOINT2:0.803082,0.000000,-0.058256,-0.593015 LARM_JOINT3:0.962542,0.000000,-0.218531,-0.160488 LLEG_JOINT2:0.998869,0.017130,0.000000,0.044353 LLEG_JOINT4:0.996151,0.083795,0.000000,-0.025723 RARM_JOINT2:0.836402,0.000000,0.360723,0.412688 RARM_JOINT3:0.899943,0.000000,0.424537,0.099355 RLEG_JOINT2:0.998250,0.024240,0.000000,-0.053930 RLEG_JOINT4:0.993898,0.101302,0.000000,0.043635 WAIST:0.999250,-0.000000,0.037859,0.008191 WAIST_JOINT0:0.997764,-0.000000,0.057528,0.034012 WAIST_JOINT1:0.999146,0.041281,-0.000000,0.001467 END:
KINECT_DATA_Sensor  AnkleLeft:-0.055678,-0.673624,0.087709,0.731736 AnkleRight:0.088179,0.757570,0.088560,0.640679 ElbowLeft:-0.068197,0.877110,-0.140589,-0.454160 ElbowRight:-0.350273,0.879403,0.069349,0.314882 FootLeft:0.000000,0.000000,0.000000,0.000000 FootRight:0.000000,0.000000,0.000000,0.000000 HandLeft:-0.150475,0.828771,0.170029,-0.511455 HandRight:0.257161,0.006265,-0.504065,0.824468 HandTipLeft:0.000000,0.000000,0.000000,0.000000 HandTipRight:0.000000,0.000000,0.000000,0.000000 Head:0.000000,0.000000,0.000000,0.000000 HipLeft:0.109728,-0.680241,0.712446,-0.132863 HipRight:-0.168423,0.679392,0.690287,-0.183203 KneeLeft:0.023337,-0.679240,0.049975,0.731840 KneeRight:-0.017224,0.733422,0.048680,0.677809 Neck:-0.058767,0.008512,0.996622,-0.056739 ShoulderLeft:0.012849,0.775971,-0.630387,0.017797 ShoulderRight:-0.063112,0.811056,0.571872,-0.105671 SpineBase:-0.037972,0.009062,0.999078,-0.017881 SpineMid:-0.048103,0.009243,0.998641,-0.017788 SpineShoulder:-0.058635,0.009069,0.997585,-0.036106 ThumbLeft:0.000000,0.000000,0.000000,0.000000 ThumbRight:0.000000,0.000000,0.000000,0.000000 WristLeft:-0.171369,0.828174,0.111824,-0.521782 WristRight:0.240017,-0.001809,-0.495798,0.834610 END:
KINECT_DATA POSITION:0.771217,0.882985,-12.609423 HEAD_JOINT1:0.985427,0.147747,-0.000000,0.084285 LARM_JOINT2:0.802981,0.000000,-0.058228,-0.593154 LARM_JOINT3:0.963938,0.000000,-0.211078,-0.162081 LLEG_JOINT2:0.998855,0.016368,0.000000,0.044954 LLEG_JOINT4:0.995806,0.088585,0.000000,-0.022854 RARM_JOINT2:0.838682,0.000000,0.359810,0.408840 RARM_JOINT3:0.891057,0.000000,0.439096,0.114942 RLEG_JOINT2:0.998334,0.025548,0.000000,-0.051729 RLEG_JOINT4:0.994340,0.097886,0.000000,0.041308 WAIST:0.999132,-0.000000,0.040914,0.007824 WAIST_JOINT0:0.997636,-0.000000,0.060025,0.033443 WAIST_JOINT1:0.999167,0.040777,-0.000000,0.001740 END:
KINECT_DATA_Sensor  AnkleLeft:-0.056968,-0.672116,0.092424,0.732443 AnkleRight:0.084330,0.747474,0.089371,0.652828 ElbowLeft:-0.067831,0.876615,-0.140503,-0.455197 ElbowRight:-0.352665,0.881857,0.075136,0.303825 FootLeft:0.000000,0.000000,0.000000,0.000000 FootRight:0.000000,0.000000,0.000000,0.000000 HandLeft:-0.145369,0.888801,0.137292,-0.412373 HandRight:0.241794,0.082746,-0.514192,0.818716 HandTipLeft:0.000000,0.000000,0.000000,0.000000 HandTipRight:0.000000,0.000000,0.000000,0.000000 Head:0.000000,0.000000,0.000000,0.000000 HipLeft:0.108345,-0.680827,0.712463,-0.130892 HipRight:-0.170554,0.678726,0.690010,-0.184737 KneeLeft:0.023911,-0.676992,0.049694,0.733921 KneeRight:-0.015144,0.735543,0.048337,0.675581 Neck:-0.061152,0.008225,0.996512,-0.056181 ShoulderLeft:0.012933,0.776380,-0.629918,0.016437 ShoulderRight:-0.066131,0.810443,0.571948,-0.108095 SpineBase:-0.041014,0.008803,0.998968,-0.017425 SpineMid:-0.050826,0.008974,0.998517,-0.017338 SpineShoulder:-0.061024,0.008850,0.997460,-0.035646 ThumbLeft:0.000000,0.000000,0.000000,0.000000 ThumbRight:0.000000,0.000000,0.000000,0.000000 WristLeft:-0.183770,0.883865,0.091360,-0.420315 WristRight:0.219201,0.069875,-0.512175,0.827493 END:
KINECT_DATA POSITION:0.780852,0.868669,-12.612081 HEAD_JOINT1:0.985459,0.148248,-0.000000,0.083029 LARM_JOINT2:0.802731,0.000000,-0.056778,-0.593633 LARM_JOINT3:0.964274,0.000000,-0.210412,-0.160944 LLEG_JOINT2:0.998890,0.015994,0.000000,0.044313 LLEG_JOINT4:0.995865,0.087814,0.000000,-0.023264 RARM_JOINT2:0.843585,0.000000,0.351115,0.406304 RARM_JOINT3:0.883430,0.000000,0.454617,0.113466 RLEG_JOINT2:0.998274,0.026609,0.000000,-0.052354 RLEG_JOINT4:0.994444,0.096596,0.000000,0.041836 WAIST:0.999056,-0.000000,0.042663,0.008214 WAIST_JOINT0:0.997234,-0.000000,0.065452,0.035211 WAIST_JOINT1:0.999183,0.040386,-0.000000,0.001374 END:
KINECT_DATA_Sensor  AnkleLeft:-0.056471,-0.669056,0.091197,0.735430 AnkleRight:0.085362,0.757172,0.088011,0.641606 ElbowLeft:-0.066700,0.875848,-0.140567,-0.456817 ElbowRight:-0.351788,0.880515,0.083103,0.306647 FootLeft:0.000000,0.000000,0.000000,0.000000 FootRight:0.000000,0.000000,0.000000,0.000000 HandLeft:-0.140198,0.867416,0.138847,-0.456789 HandRight:0.258446,0.035893,-0.517590,0.814873 HandTipLeft:0.000000,0.000000,0.000000,0.000000 HandTipRight:0.000000,0.000000,0.000000,0.000000 Head:0.000000,0.000000,0.000000,0.000000 HipLeft:0.107248,-0.680956,0.712755,-0.129526 HipRight:-0.171485,0.678923,0.689373,-0.185528 KneeLeft:0.023953,-0.675696,0.049276,0.735141 KneeRight:-0.014701,0.736756,0.049229,0.674204 Neck:-0.066472,0.008384,0.996198,-0.055678 ShoulderLeft:0.013334,0.776585,-0.629714,0.014074 ShoulderRight:-0.072682,0.811761,0.568164,-0.113802 SpineBase:-0.042774,0.008839,0.998898,-0.017197 SpineMid:-0.054343,0.009038,0.998335,-0.017093 SpineShoulder:-0.066354,0.008939,0.997134,-0.035232 ThumbLeft:0.000000,0.000000,0.000000,0.000000 ThumbRight:0.000000,0.000000,0.000000,0.000000 WristLeft:-0.178479,0.862112,0.099495,-0.463691 WristRight:0.252027,0.035922,-0.505511,0.824409 END:
KINECT_DATA POSITION:0.797787,0.863834,-12.650681 HEAD_JOINT1:0.985564,0.148799,-0.000000,0.080760 LARM_JOINT2:0.802420,0.000000,-0.056376,-0.594090 LARM_JOINT3:0.963504,0.000000,-0.213006,-0.162134 LLEG_JOINT2:0.998883,0.015746,0.000000,0.044559 LLEG_JOINT4:0.996160,0.084855,0.000000,-0.021582 RARM_JOINT2:0.843321,0.000000,0.354144,0.404217 RARM_JOINT3:0.885687,0.000000,0.451522,0.108107 RLEG_JOINT2:0.998270,0.026712,0.000000,-0.052377 RLEG_JOINT4:0.994496,0.096354,0.000000,0.041152 WAIST:0.998997,-0.000000,0.044051,0.007985 WAIST_JOINT0:0.996990,-0.000000,0.068925,0.035500 WAIST_JOINT1:0.999210,0.039708,-0.000000,0.001444 END:
KINECT_DATA_Sensor  AnkleLeft:0.060263,0.726179,-0.085597,-0.679490 AnkleRight:0.083914,0.753989,0.089228,0.645367 ElbowLeft:-0.066260,0.876165,-0.140048,-0.456433 ElbowRight:-0.355566,0.878620,0.079622,0.308643 FootLeft:0.000000,0.000000,0.000000,0.000000 FootRight:0.000000,0.000000,0.000000,0.000000 HandLeft:-0.184286,0.959128,0.097261,-0.191449 HandRight:0.249131,0.027089,-0.513035,0.820972 HandTipLeft:0.000000,0.000000,0.000000,0.000000 HandTipRight:0.000000,0.000000,0.000000,0.000000 Head:0.000000,0.000000,0.000000,0.000000 HipLeft:0.106549,-0.681366,0.712686,-0.128324 HipRight:-0.172437,0.678726,0.689239,-0.185865 KneeLeft:0.024080,-0.674675,0.049155,0.736083 KneeRight:-0.014886,0.737687,0.049454,0.673165 Neck:-0.069856,0.008252,0.996007,-0.054966 ShoulderLeft:0.013914,0.776882,-0.629381,0.011798 ShoulderRight:-0.076480,0.811968,0.566757,-0.116814 SpineBase:-0.044152,0.008821,0.998846,-0.016743 SpineMid:-0.056710,0.009031,0.998211,-0.016630 SpineShoulder:-0.069744,0.008820,0.996927,-0.034552 ThumbLeft:0.000000,0.000000,0.000000,0.000000 ThumbRight:0.000000,0.000000,0.000000,0.000000 WristLeft:-0.199335,0.957957,0.046251,-0.201109 WristRight:0.256418,0.032753,-0.509461,0.820748 END:
KINECT_DATA POSITION:0.804538,0.864797,-12.701761 HEAD_JOINT1:0.985613,0.149391,-0.000000,0.079053 LARM_JOINT2:0.802305,0.000000,-0.056855,-0.594201 LARM_JOINT3:0.963179,0.000000,-0.214365,-0.162275 LLEG_JOINT2:0.998879,0.015125,0.000000,0.044849 LLEG_JOINT4:0.995712,0.089913,0.000000,-0.021768 RARM_JOINT2:0.843850,0.000000,0.352879,0.404219 RARM_JOINT3:0.886535,0.000000,0.449778,0.108422 RLEG_JOINT2:0.998198,0.028542,0.000000,-0.052783 RLEG_JOINT4:0.994289,0.096238,0.000000,0.046123 WAIST:0.998949,-0.000000,0.045181,0.007754 WAIST_JOINT0:0.996859,-0.000000,0.070749,0.035590 WAIST_JOINT1:0.999239,0.038955,-0.000000,0.001837 END:
KINECT_DATA_Sensor  AnkleLeft:-0.056435,-0.666074,0.093111,0.737896 AnkleRight:0.086203,0.740475,0.089340,0.660518 ElbowLeft:-0.066951,0.876195,-0.139752,-0.456365 ElbowRight:-0.355875,0.878183,0.079352,0.309597 FootLeft:0.000000,0.000000,0.000000,0.000000 FootRight:0.000000,0.000000,0.000000,0.000000 HandLeft:0.082717,-0.610984,-0.200861,0.761256 HandRight:0.267138,-0.011488,-0.497023,0.825514 HandTipLeft:0.000000,0.000000,0.000000,0.000000 HandTipRight:0.000000,0.000000,0.000000,0.000000 Head:0.000000,0.000000,0.000000,0.000000 HipLeft:0.106283,-0.681679,0.712582,-0.127452 HipRight:-0.173599,0.678507,0.689090,-0.186135 KneeLeft:0.024523,-0.673836,0.048806,0.736860 KneeRight:-0.014168,0.738479,0.051220,0.672179 Neck:-0.071603,0.008443,0.995924,-0.054198 ShoulderLeft:0.013553,0.776749,-0.629573,0.010738 ShoulderRight:-0.079188,0.811707,0.566423,-0.118437 SpineBase:-0.045269,0.008964,0.998804,-0.016167 SpineMid:-0.058137,0.009171,0.998137,-0.016050 SpineShoulder:-0.071492,0.008967,0.996827,-0.033817 ThumbLeft:0.000000,0.000000,0.000000,0.000000 ThumbRight:0.000000,0.000000,0.000000,0.000000 WristLeft:0.122755,-0.601457,-0.163900,0.772216 WristRight:0.279348,-0.004534,-0.498311,0.820750 END:
KINECT_DATA POSITION:0.790855,0.863655,-12.782585 HEAD_JOINT1:0.985692,0.148980,-0.000000,0.078843 LARM_JOINT2:0.802431,0.000000,-0.058592,-0.593862 LARM_JOINT3:0.963267,0.000000,-0.213721,-0.162606 LLEG_JOINT2:0.998882,0.014698,0.000000,0.044940 LLEG_JOINT4:0.996200,0.084653,0.000000,-0.020467 RARM_JOINT2:0.839254,0.000000,0.372484,0.396116 RARM_JOINT3:0.898138,0.000000,0.429297,0.095147 RLEG_JOINT2:0.998222,0.027769,0.000000,-0.052735 RLEG_JOINT4:0.994286,0.096252,0.000000,0.046169 WAIST:0.998892,-0.000000,0.046438,0.007647 WAIST_JOINT0:0.996759,-0.000000,0.071931,0.036017 WAIST_JOINT1:0.999245,0.038797,-0.000000,0.002090 END:
KINECT_DATA_Sensor  AnkleLeft:-0.051518,-0.666067,0.090161,0.738629 AnkleRight:0.085211,0.738781,0.089242,0.662554 ElbowLeft:-0.067655,0.877923,-0.139913,-0.452878 ElbowRight:-0.368621,0.878029,0.068803,0.297405 FootLeft:0.000000,0.000000,0.000000,0.000000 FootRight:0.000000,0.000000,0.000000,0.000000 HandLeft:0.069708,-0.545674,-0.210126,0.808225 HandRight:0.251455,0.002862,-0.510596,0.822225 HandTipLeft:0.000000,0.000000,0.000000,0.000000 HandTipRight:0.000000,0.000000,0.000000,0.000000 Head:0.000000,0.000000,0.000000,0.000000 HipLeft:0.105871,-0.681862,0.712592,-0.126759 HipRight:-0.174728,0.678248,0.688880,-0.186799 KneeLeft:0.024771,-0.672904,0.048534,0.737720 KneeRight:-0.014803,0.739305,0.050667,0.671298 Neck:-0.072721,0.008561,0.995847,-0.054100 ShoulderLeft:0.012963,0.776745,-0.629592,0.010671 ShoulderRight:-0.081309,0.811863,0.565569,-0.120001 SpineBase:-0.046519,0.009042,0.998750,-0.015889 SpineMid:-0.059320,0.009245,0.998072,-0.015772 SpineShoulder:-0.072612,0.009054,0.996751,-0.033651 ThumbLeft:0.000000,0.000000,0.000000,0.000000 ThumbRight:0.000000,0.000000,0.000000,0.000000 WristLeft:0.108094,-0.536653,-0.172795,0.818816 WristRight:0.258763,0.009921,-0.502629,0.824807 END:
KINECT_DATA POSITION:0.742070,0.873559,-12.890375 HEAD_JOINT1:0.985700,0.148350,-0.000000,0.079922 LARM_JOINT2:0.803350,0.000000,-0.059987,-0.592478 LARM_JOINT3:0.962490,0.000000,-0.217234,-0.162548 LLEG_JOINT2:0.998864,0.014029,0.000000,0.045534 LLEG_JOINT4:0.995912,0.087430,0.000000,-0.022703 RARM_JOINT2:0.838820,0.000000,0.376941,0.392807 RARM_JOINT3:0.899151,0.000000,0.428348,0.089701 RLEG_JOINT2:0.998249,0.025989,0.000000,-0.053134 RLEG_JOINT4:0.994221,0.096746,0.000000,0.046536 WAIST:0.998903,-0.000000,0.046215,0.007578 WAIST_JOINT0:0.996698,-0.000000,0.072515,0.036523 WAIST_JOINT1:0.999228,0.039231,-0.000000,0.002164 END:
KINECT_DATA_Sensor  AnkleLeft:-0.054137,-0.665330,0.090364,0.739080 AnkleRight:0.084345,0.739122,0.088311,0.662409 ElbowLeft:-0.068591,0.879135,-0.141218,-0.449971 ElbowRight:-0.372326,0.876428,0.066406,0.298058 FootLeft:0.000000,0.000000,0.000000,0.000000 FootRight:0.000000,0.000000,0.000000,0.000000 HandLeft:-0.187410,0.896748,0.139239,-0.375942 HandRight:0.244007,0.012338,-0.518197,0.819622 HandTipLeft:0.000000,0.000000,0.000000,0.000000 HandTipRight:0.000000,0.000000,0.000000,0.000000 Head:0.000000,0.000000,0.000000,0.000000 HipLeft:0.105779,-0.681813,0.712562,-0.127270 HipRight:-0.174444,0.678107,0.689006,-0.187113 KneeLeft:0.025628,-0.673048,0.048470,0.737564 KneeRight:-0.016339,0.739102,0.049674,0.671561 Neck:-0.073254,0.008647,0.995785,-0.054515 ShoulderLeft:0.012817,0.776754,-0.629575,0.011145 ShoulderRight:-0.082191,0.812103,0.564841,-0.121194 SpineBase:-0.046297,0.008980,0.998753,-0.016372 SpineMid:-0.059472,0.009195,0.998055,-0.016252 SpineShoulder:-0.073149,0.009073,0.996697,-0.034087 ThumbLeft:0.000000,0.000000,0.000000,0.000000 ThumbRight:0.000000,0.000000,0.000000,0.000000 WristLeft:-0.185604,0.899324,0.084742,-0.386764 WristRight:0.251432,0.019906,-0.509072,0.822941 END:
KINECT_DATA POSITION:0.720650,0.872510,-12.891901 HEAD_JOINT1:0.985777,0.148315,-0.000000,0.079029 LARM_JOINT2:0.803685,0.000000,-0.060511,-0.591970 LARM_JOINT3:0.962440,0.000000,-0.215742,-0.164818 LLEG_JOINT2:0.998884,0.013603,0.000000,0.045223 LLEG_JOINT4:0.996110,0.085501,0.000000,-0.021305 RARM_JOINT2:0.846161,0.000000,0.368221,0.385258 RARM_JOINT3:0.893687,0.000000,0.436469,0.104010 RLEG_JOINT2:0.998239,0.024329,0.000000,-0.054109 RLEG_JOINT4:0.993935,0.098749,0.000000,0.048390 WAIST:0.998890,-0.000000,0.046457,0.007845 WAIST_JOINT0:0.996692,-0.000000,0.072413,0.036886 WAIST_JOINT1:0.999211,0.039631,-0.000000,0.002644 END:
KINECT_DATA_Sensor  AnkleLeft:-0.051544,-0.665762,0.089738,0.738952 AnkleRight:0.087419,0.754400,0.085762,0.644890 ElbowLeft:-0.068807,0.879851,-0.142553,-0.448115 ElbowRight:-0.373486,0.875819,0.081376,0.294665 FootLeft:0.000000,0.000000,0.000000,0.000000 FootRight:0.000000,0.000000,0.000000,0.000000 HandLeft:-0.118512,0.706403,0.194320,-0.670216 HandRight:0.266562,-0.033698,-0.489280,0.829707 HandTipLeft:0.000000,0.000000,0.000000,0.000000 HandTipRight:0.000000,0.000000,0.000000,0.000000 Head:0.000000,0.000000,0.000000,0.000000 HipLeft:0.105396,-0.681619,0.712796,-0.127318 HipRight:-0.174536,0.678237,0.688810,-0.187279 KneeLeft:0.025912,-0.672860,0.048147,0.737747 KneeRight:-0.018006,0.739219,0.048911,0.671445 Neck:-0.073228,0.009470,0.995752,-0.055016 ShoulderLeft:0.012175,0.776513,-0.629868,0.012095 ShoulderRight:-0.082907,0.812291,0.564303,-0.121948 SpineBase:-0.046541,0.009402,0.998735,-0.016578 SpineMid:-0.059579,0.009618,0.998042,-0.016454 SpineShoulder:-0.073117,0.009757,0.996680,-0.034461 ThumbLeft:0.000000,0.000000,0.000000,0.000000 ThumbRight:0.000000,0.000000,0.000000,0.000000 WristLeft:-0.143701,0.705241,0.144998,-0.678941 WristRight:0.286008,-0.023103,-0.492543,0.821625 END:
KINECT_DATA POSITION:0.667495,0.865225,-12.775385 HEAD_JOINT1:0.985902,0.147875,-0.000000,0.078301 LARM_JOINT2:0.803781,0.000000,-0.060166,-0.591875 LARM_JOINT3:0.962025,0.000000,-0.213505,-0.170068 LLEG_JOINT2:0.998852,0.013836,0.000000,0.045857 LLEG_JOINT4:0.996113,0.086103,0.000000,-0.018578 RARM_JOINT2:0.841020,0.000000,0.377749,0.387286 RARM_JOINT3:0.900571,0.000000,0.422840,0.100890 RLEG_JOINT2:0.998272,0.025768,0.000000,-0.052813 RLEG_JOINT4:0.993988,0.098408,0.000000,0.048003 WAIST:0.998883,-0.000000,0.046644,0.007596 WAIST_JOINT0:0.996674,-0.000000,0.072466,0.037272 WAIST_JOINT1:0.999184,0.040247,-0.000000,0.003291 END:
KINECT_DATA_Sensor  AnkleLeft:0.060901,0.749835,-0.085866,-0.653197 AnkleRight:0.086942,0.741714,0.087825,0.659233 ElbowLeft:-0.068204,0.879603,-0.143384,-0.448429 ElbowRight:-0.374941,0.876674,0.070603,0.293047 FootLeft:0.000000,0.000000,0.000000,0.000000 FootRight:0.000000,0.000000,0.000000,0.000000 HandLeft:-0.165578,0.910199,0.147191,-0.349939 HandRight:0.268530,-0.028068,-0.478339,0.835641 HandTipLeft:0.000000,0.000000,0.000000,0.000000 HandTipRight:0.000000,0.000000,0.000000,0.000000 Head:0.000000,0.000000,0.000000,0.000000 HipLeft:0.104907,-0.681672,0.712761,-0.127630 HipRight:-0.174627,0.677944,0.689006,-0.187532 KneeLeft:0.025982,-0.672725,0.048600,0.737838 KneeRight:-0.016262,0.739399,0.049272,0.671265 Neck:-0.073489,0.009825,0.995689,-0.055727 ShoulderLeft:0.012668,0.775775,-0.630757,0.012576 ShoulderRight:-0.082826,0.812248,0.564227,-0.122644 SpineBase:-0.046714,0.009811,0.998715,-0.017006 SpineMid:-0.059788,0.010032,0.998018,-0.016876 SpineShoulder:-0.073369,0.010146,0.996636,-0.035072 ThumbLeft:0.000000,0.000000,0.000000,0.000000 ThumbRight:0.000000,0.000000,0.000000,0.000000 WristLeft:-0.187701,0.909667,0.079657,-0.361842 WristRight:0.279346,-0.026154,-0.492052,0.824116 END:
KINECT_DATA POSITION:0.668049,0.857642,-12.712324 HEAD_JOINT1:0.985944,0.147643,-0.000000,0.078203 LARM_JOINT2:0.803775,0.000000,-0.060144,-0.591886 LARM_JOINT3:0.962050,0.000000,-0.215254,-0.167709 LLEG_JOINT2:0.998882,0.013369,0.000000,0.045343 LLEG_JOINT4:0.995861,0.089238,0.000000,-0.017224 RARM_JOINT2:0.839577,0.000000,0.379998,0.388218 RARM_JOINT3:0.901399,0.000000,0.422158,0.096244 RLEG_JOINT2:0.998290,0.026423,0.000000,-0.052136 RLEG_JOINT4:0.994068,0.098539,0.000000,0.046037 WAIST:0.998831,-0.000000,0.047725,0.007662 WAIST_JOINT0:0.996636,-0.000000,0.072813,0.037623 WAIST_JOINT1:0.999164,0.040720,-0.000000,0.003594 END:
KINECT_DATA_Sensor  AnkleLeft:-0.051710,-0.665635,0.094896,0.738411 AnkleRight:0.087703,0.751399,0.088128,0.648029 ElbowLeft:-0.067561,0.879655,-0.144044,-0.448212 ElbowRight:-0.374750,0.876984,0.066609,0.293301 FootLeft:0.000000,0.000000,0.000000,0.000000 FootRight:0.000000,0.000000,0.000000,0.000000 HandLeft:-0.145395,0.821388,0.169246,-0.524917 HandRight:0.254791,0.006400,-0.494908,0.830726 HandTipLeft:0.000000,0.000000,0.000000,0.000000 HandTipRight:0.000000,0.000000,0.000000,0.000000 Head:0.000000,0.000000,0.000000,0.000000 HipLeft:0.103949,-0.681661,0.712966,-0.127330 HipRight:-0.175107,0.677767,0.688850,-0.188292 KneeLeft:0.025983,-0.671932,0.047974,0.738600 KneeRight:-0.015332,0.740157,0.049231,0.670454 Neck:-0.073888,0.010106,0.995628,-0.056248 ShoulderLeft:0.013299,0.775422,-0.631177,0.012638 ShoulderRight:-0.082730,0.812254,0.564101,-0.123244 SpineBase:-0.047793,0.010112,0.998655,-0.017392 SpineMid:-0.060526,0.010333,0.997964,-0.017262 SpineShoulder:-0.073763,0.010435,0.996587,-0.035548 ThumbLeft:0.000000,0.000000,0.000000,0.000000 ThumbRight:0.000000,0.000000,0.000000,0.000000 WristLeft:-0.167885,0.820266,0.115284,-0.534498 WristRight:0.258174,0.005917,-0.502761,0.824950 END:
KINECT_DATA POSITION:0.658263,0.861739,-12.683105 HEAD_JOINT1:0.985677,0.149498,-0.000000,0.078040 LARM_JOINT2:0.803274,0.000000,-0.060331,-0.592547 LARM_JOINT3:0.962226,0.000000,-0.213584,-0.168829 LLEG_JOINT2:0.998857,0.013844,0.000000,0.045742 LLEG_JOINT4:0.995534,0.091552,0.000000,-0.023044 RARM_JOINT2:0.837907,0.000000,0.382135,0.389724 RARM_JOINT3:0.901196,0.000000,0.422885,0.094945 RLEG_JOINT2:0.998289,0.027443,0.000000,-0.051637 RLEG_JOINT4:0.994078,0.097837,0.000000,0.047288 WAIST:0.998798,-0.000000,0.048449,0.007389 WAIST_JOINT0:0.996602,-0.000000,0.073306,0.037568 WAIST_JOINT1:0.999166,0.040644,-0.000000,0.003816 END:
KINECT_DATA_Sensor  AnkleLeft:-0.057606,-0.664349,0.092541,0.739431 AnkleRight:0.089559,0.756545,0.086742,0.641946 ElbowLeft:-0.067005,0.880354,-0.143346,-0.447146 ElbowRight:-0.374640,0.877239,0.062744,0.293530 FootLeft:0.000000,0.000000,0.000000,0.000000 FootRight:0.000000,0.000000,0.000000,0.000000 HandLeft:-0.157884,0.869372,0.158247,-0.440707 HandRight:0.266869,0.010146,-0.495686,0.826422 HandTipLeft:0.000000,0.000000,0.000000,0.000000 HandTipRight:0.000000,0.000000,0.000000,0.000000 Head:0.000000,0.000000,0.000000,0.000000 HipLeft:0.103642,-0.681916,0.712850,-0.126860 HipRight:-0.175672,0.677488,0.688892,-0.188620 KneeLeft:0.025674,-0.671406,0.048412,0.739061 KneeRight:-0.014505,0.740666,0.049827,0.669866 Neck:-0.074346,0.009975,0.995598,-0.056193 ShoulderLeft:0.013516,0.775555,-0.631017,0.012240 ShoulderRight:-0.083082,0.812218,0.564026,-0.123590 SpineBase:-0.048509,0.010031,0.998623,-0.017247 SpineMid:-0.061114,0.010248,0.997931,-0.017119 SpineShoulder:-0.074219,0.010361,0.996556,-0.035488 ThumbLeft:0.000000,0.000000,0.000000,0.000000 ThumbRight:0.000000,0.000000,0.000000,0.000000 WristLeft:-0.176907,0.869110,0.097837,-0.451420 WristRight:0.259207,0.003486,-0.502331,0.824902 END:
KINECT_DATA POSITION:0.673056,0.863852,-12.687338 HEAD_JOINT1:0.985569,0.150236,-0.000000,0.077994 LARM_JOINT2:0.802965,0.000000,-0.060564,-0.592942 LARM_JOINT3:0.963592,0.000000,-0.209963,-0.165546 LLEG_JOINT2:0.998868,0.014510,0.000000,0.045310 LLEG_JOINT4:0.995698,0.089928,0.000000,-0.022311 RARM_JOINT2:0.840840,0.000000,0.372953,0.392294 RARM_JOINT3:0.895777,0.000000,0.433084,0.100112 RLEG_JOINT2:0.998271,0.027970,0.000000,-0.051701 RLEG_JOINT4:0.994243,0.096800,0.000000,0.045947 WAIST:0.998785,-0.000000,0.048656,0.007822 WAIST_JOINT0:0.996512,-0.000000,0.074431,0.037743 WAIST_JOINT1:0.999183,0.040267,-0.000000,0.003330 END:
KINECT_DATA_Sensor  AnkleLeft:-0.056353,-0.663911,0.092449,0.739932 AnkleRight:0.086736,0.744012,0.088797,0.656535 ElbowLeft:-0.067445,0.879793,-0.142555,-0.448434 ElbowRight:-0.370098,0.877260,0.068547,0.297898 FootLeft:0.000000,0.000000,0.000000,0.000000 FootRight:0.000000,0.000000,0.000000,0.000000 HandLeft:0.093998,-0.667972,-0.187484,0.714022 HandRight:0.241324,0.044657,-0.505350,0.827278 HandTipLeft:0.000000,0.000000,0.000000,0.000000 HandTipRight:0.000000,0.000000,0.000000,0.000000 Head:0.000000,0.000000,0.000000,0.000000 HipLeft:0.103611,-0.681714,0.713100,-0.126570 HipRight:-0.175886,0.677782,0.688522,-0.188715 KneeLeft:0.025186,-0.671250,0.048849,0.739191 KneeRight:-0.013904,0.740834,0.049951,0.669684 Neck:-0.075401,0.009945,0.995549,-0.055660 ShoulderLeft:0.014321,0.775477,-0.631119,0.010922 ShoulderRight:-0.083603,0.812202,0.563887,-0.123976 SpineBase:-0.048729,0.010111,0.998615,-0.017073 SpineMid:-0.061745,0.010333,0.997895,-0.016939 SpineShoulder:-0.075275,0.010343,0.996490,-0.035121 ThumbLeft:0.000000,0.000000,0.000000,0.000000 ThumbRight:0.000000,0.000000,0.000000,0.000000 WristLeft:0.132730,-0.659018,-0.152575,0.724430 WristRight:0.243655,0.042950,-0.514763,0.820858 END:
KINECT_DATA POSITION:0.682838,0.865210,-12.731827 HEAD_JOINT1:0.985355,0.151456,-0.000000,0.078336 LARM_JOINT2:0.802841,0.000000,-0.061086,-0.593056 LARM_JOINT3:0.963661,0.000000,-0.209332,-0.165944 LLEG_JOINT2:0.998893,0.013738,0.000000,0.044997 LLEG_JOINT4:0.995703,0.090336,0.000000,-0.020360 RARM_JOINT2:0.841598,0.000000,0.370698,0.392806 RARM_JOINT3:0.895080,0.000000,0.433845,0.103007 RLEG_JOINT2:0.998208,0.029494,0.000000,-0.052072 RLEG_JOINT4:0.994485,0.094747,0.000000,0.044973 WAIST:0.998792,-0.000000,0.048472,0.008080 WAIST_JOINT0:0.996483,-0.000000,0.074704,0.037956 WAIST_JOINT1:0.999195,0.039995,-0.000000,0.002978 END:
KINECT_DATA_Sensor  AnkleLeft:-0.054788,-0.664050,0.093612,0.739778 AnkleRight:0.086642,0.751802,0.088108,0.647707 ElbowLeft:-0.067813,0.880496,-0.142106,-0.447140 ElbowRight:-0.369165,0.877338,0.070444,0.298383 FootLeft:0.000000,0.000000,0.000000,0.000000 FootRight:0.000000,0.000000,0.000000,0.000000 HandLeft:-0.138857,0.829987,0.159378,-0.516177 HandRight:0.269192,-0.010062,-0.484270,0.832417 HandTipLeft:0.000000,0.000000,0.000000,0.000000 HandTipRight:0.000000,0.000000,0.000000,0.000000 Head:0.000000,0.000000,0.000000,0.000000 HipLeft:0.103817,-0.681578,0.713215,-0.126483 HipRight:-0.175782,0.678029,0.688359,-0.188520 KneeLeft:0.025740,-0.671370,0.048276,0.739100 KneeRight:-0.012955,0.740750,0.051150,0.669706 Neck:-0.075646,0.009880,0.995548,-0.055352 ShoulderLeft:0.014373,0.775351,-0.631280,0.010519 ShoulderRight:-0.083873,0.812284,0.563735,-0.123947 SpineBase:-0.048553,0.010075,0.998627,-0.016899 SpineMid:-0.061778,0.010298,0.997896,-0.016764 SpineShoulder:-0.075522,0.010280,0.996482,-0.034835 ThumbLeft:0.000000,0.000000,0.000000,0.000000 ThumbRight:0.000000,0.000000,0.000000,0.000000 WristLeft:-0.167852,0.827173,0.112014,-0.524464 WristRight:0.278185,-0.009315,-0.497884,0.821363 END:
KINECT_DATA POSITION:0.679184,0.874299,-12.798489 HEAD_JOINT1:0.985289,0.151323,-0.000000,0.079414 LARM_JOINT2:0.803094,0.000000,-0.060963,-0.592726 LARM_JOINT3:0.963215,0.000000,-0.211960,-0.165198 LLEG_JOINT2:0.998872,0.014819,0.000000,0.045109 LLEG_JOINT4:0.995902,0.088115,0.000000,-0.020356 RARM_JOINT2:0.841280,0.000000,0.371248,0.392967 RARM_JOINT3:0.895868,0.000000,0.432934,0.099944 RLEG_JOINT2:0.998226,0.028873,0.000000,-0.052076 RLEG_JOINT4:0.994470,0.095416,0.000000,0.043866 WAIST:0.998808,-0.000000,0.048104,0.008236 WAIST_JOINT0:0.996538,-0.000000,0.073976,0.037946 WAIST_JOINT1:0.999199,0.039927,-0.000000,0.002655 END:
KINECT_DATA_Sensor  AnkleLeft:-0.053741,-0.664632,0.093056,0.739403 AnkleRight:0.086692,0.756468,0.088119,0.642243 ElbowLeft:-0.068120,0.880092,-0.142241,-0.447845 ElbowRight:-0.369434,0.876875,0.069606,0.299607 FootLeft:0.000000,0.000000,0.000000,0.000000 FootRight:0.000000,0.000000,0.000000,0.000000 HandLeft:0.089698,-0.630393,-0.200860,0.744456 HandRight:0.250224,0.012832,-0.496213,0.831261 HandTipLeft:0.000000,0.000000,0.000000,0.000000 HandTipRight:0.000000,0.000000,0.000000,0.000000 Head:0.000000,0.000000,0.000000,0.000000 HipLeft:0.104053,-0.681472,0.713261,-0.126601 HipRight:-0.175496,0.678210,0.688313,-0.188301 KneeLeft:0.025138,-0.671646,0.049190,0.738810 KneeRight:-0.013248,0.740493,0.050590,0.670026 Neck:-0.074914,0.009683,0.995610,-0.055281 ShoulderLeft:0.013686,0.775272,-0.631381,0.011195 ShoulderRight:-0.083650,0.812230,0.563959,-0.123434 SpineBase:-0.048192,0.010003,0.998646,-0.016861 SpineMid:-0.061233,0.010222,0.997931,-0.016729 SpineShoulder:-0.074789,0.010125,0.996542,-0.034758 ThumbLeft:0.000000,0.000000,0.000000,0.000000 ThumbRight:0.000000,0.000000,0.000000,0.000000 WristLeft:0.125184,-0.622269,-0.158679,0.756262 WristRight:0.261465,0.015827,-0.507278,0.821008 END:
KINECT_DATA POSITION:0.653031,0.885521,-12.840724 HEAD_JOINT1:0.985286,0.151372,-0.000000,0.079361 LARM_JOINT2:0.803567,0.000000,-0.061261,-0.592053 LARM_JOINT3:0.962501,0.000000,-0.214856,-0.165617 LLEG_JOINT2:0.998892,0.014076,0.000000,0.044897 LLEG_JOINT4:0.995848,0.089032,0.000000,-0.018996 RARM_JOINT2:0.842039,0.000000,0.370331,0.392206 RARM_JOINT3:0.894870,0.000000,0.434737,0.101048 RLEG_JOINT2:0.998217,0.028449,0.000000,-0.052470 RLEG_JOINT4:0.994542,0.093539,0.000000,0.046232 WAIST:0.998827,-0.000000,0.047687,0.008376 WAIST_JOINT0:0.996548,-0.000000,0.073755,0.038105 WAIST_JOINT1:0.999191,0.040136,-0.000000,0.002537 END:
KINECT_DATA_Sensor  AnkleLeft:-0.052969,-0.664907,0.094144,0.739074 AnkleRight:0.085090,0.744812,0.086503,0.656149 ElbowLeft:-0.068263,0.881091,-0.143071,-0.445588 ElbowRight:-0.369413,0.876664,0.071318,0.299846 FootLeft:0.000000,0.000000,0.000000,0.000000 FootRight:0.000000,0.000000,0.000000,0.000000 HandLeft:0.093364,-0.614084,-0.212385,0.754372 HandRight:0.238810,0.031525,-0.501497,0.830949 HandTipLeft:0.000000,0.000000,0.000000,0.000000 HandTipRight:0.000000,0.000000,0.000000,0.000000 Head:0.000000,0.000000,0.000000,0.000000 HipLeft:0.104059,-0.681346,0.713333,-0.126865 HipRight:-0.174997,0.678370,0.688334,-0.188115 KneeLeft:0.025665,-0.671943,0.048623,0.738559 KneeRight:-0.013703,0.740203,0.050451,0.670348 Neck:-0.074721,0.009734,0.995611,-0.055499 ShoulderLeft:0.013228,0.775099,-0.631590,0.011882 ShoulderRight:-0.083921,0.812215,0.563878,-0.123717 SpineBase:-0.047780,0.010028,0.998662,-0.017073 SpineMid:-0.060929,0.010252,0.997946,-0.016939 SpineShoulder:-0.074596,0.010165,0.996549,-0.034952 ThumbLeft:0.000000,0.000000,0.000000,0.000000 ThumbRight:0.000000,0.000000,0.000000,0.000000 WristLeft:0.121608,-0.607997,-0.160655,0.767945 WristRight:0.250786,0.034682,-0.513301,0.820016 END:
KINECT_DATA POSITION:0.623330,0.891839,-12.849438 HEAD_JOINT1:0.985321,0.151339,-0.000000,0.078992 LARM_JOINT2:0.803511,0.000000,-0.061686,-0.592085 LARM_JOINT3:0.962322,0.000000,-0.218843,-0.161383 LLEG_JOINT2:0.998883,0.014141,0.000000,0.045097 LLEG_JOINT4:0.995944,0.087015,0.000000,-0.022870 RARM_JOINT2:0.866443,0.000000,0.327714,0.376670 RARM_JOINT3:0.864075,0.000000,0.486780,0.128138 RLEG_JOINT2:0.998250,0.026835,0.000000,-0.052695 RLEG_JOINT4:0.994363,0.095544,0.000000,0.045966 WAIST:0.998848,-0.000000,0.047269,0.008277 WAIST_JOINT0:0.996648,-0.000000,0.072502,0.037906 WAIST_JOINT1:0.999154,0.040989,-0.000000,0.003221 END:
KINECT_DATA_Sensor  AnkleLeft:-0.054006,-0.665312,0.090089,0.739139 AnkleRight:0.084605,0.741602,0.087525,0.659703 ElbowLeft:-0.068098,0.881066,-0.143646,-0.445478 ElbowRight:-0.356308,0.884544,0.138028,0.267533 FootLeft:0.000000,0.000000,0.000000,0.000000 FootRight:0.000000,0.000000,0.000000,0.000000 HandLeft:-0.191265,0.869538,0.145904,-0.431317 HandRight:0.345151,-0.039284,-0.564451,0.748814 HandTipLeft:0.000000,0.000000,0.000000,0.000000 HandTipRight:0.000000,0.000000,0.000000,0.000000 Head:0.000000,0.000000,0.000000,0.000000 HipLeft:0.103917,-0.681248,0.713333,-0.127508 HipRight:-0.174591,0.678290,0.688549,-0.187992 KneeLeft:0.025698,-0.672257,0.048738,0.738265 KneeRight:-0.015007,0.739880,0.049486,0.670749 Neck:-0.073694,0.010334,0.995622,-0.056563 ShoulderLeft:0.013094,0.774865,-0.631853,0.013262 ShoulderRight:-0.082766,0.812183,0.564163,-0.123408 SpineBase:-0.047354,0.010414,0.998670,-0.017529 SpineMid:-0.060200,0.010638,0.997978,-0.017394 SpineShoulder:-0.073560,0.010711,0.996592,-0.035766 ThumbLeft:0.000000,0.000000,0.000000,0.000000 ThumbRight:0.000000,0.000000,0.000000,0.000000 WristLeft:-0.178097,0.874114,0.095361,-0.441716 WristRight:0.290256,-0.045723,-0.447593,0.844584 END:
KINECT_DATA POSITION:0.645301,0.983235,-12.843704 HEAD_JOINT1:0.984426,0.154969,-0.000000,0.083000 LARM_JOINT2:0.806509,0.000000,-0.058618,-0.588309 LARM_JOINT3:0.967556,0.000000,-0.212230,-0.137090 LLEG_JOINT2:0.998805,0.015888,0.000000,0.046228 LLEG_JOINT4:0.996143,0.084255,0.000000,-0.024487 RARM_JOINT2:0.911383,0.000000,0.168836,0.375334 RARM_JOINT3:0.809389,0.000000,0.537661,0.236241 RLEG_JOINT2:0.998351,0.024380,0.000000,-0.051980 RLEG_JOINT4:0.994093,0.099055,0.000000,0.044345 WAIST:0.999185,-0.000000,0.039758,0.006952 WAIST_JOINT0:0.998563,-0.000000,0.047762,0.024306 WAIST_JOINT1:0.998819,0.048589,0.000000,-0.000755 END:
KINECT_DATA_Sensor  AnkleLeft:-0.054848,-0.679028,0.087971,0.726756 AnkleRight:0.087674,0.760192,0.086117,0.637970 ElbowLeft:-0.064832,0.869637,-0.144474,-0.467605 ElbowRight:-0.273125,0.859714,0.256920,0.346824 FootLeft:0.000000,0.000000,0.000000,0.000000 FootRight:0.000000,0.000000,0.000000,0.000000 HandLeft:-0.137817,0.698537,0.127887,-0.690432 HandRight:0.181268,0.127346,-0.520054,0.824905 HandTipLeft:0.000000,0.000000,0.000000,0.000000 HandTipRight:0.000000,0.000000,0.000000,0.000000 Head:0.000000,0.000000,0.000000,0.000000 HipLeft:0.106211,-0.680200,0.712895,-0.133523 HipRight:-0.167267,0.676804,0.692127,-0.186863 KneeLeft:0.024562,-0.677854,0.049668,0.733105 KneeRight:-0.016677,0.734675,0.048288,0.676493 Neck:-0.048796,0.003509,0.996681,-0.065061 ShoulderLeft:0.022795,0.775686,-0.630329,0.021826 ShoulderRight:-0.039770,0.800100,0.590915,-0.095278 SpineBase:-0.039868,0.007474,0.998942,-0.021659 SpineMid:-0.044108,0.007566,0.998764,-0.021627 SpineShoulder:-0.048670,0.005055,0.997870,-0.043144 ThumbLeft:0.000000,0.000000,0.000000,0.000000 ThumbRight:0.000000,0.000000,0.000000,0.000000 WristLeft:-0.146958,0.696769,0.134683,-0.689040 WristRight:0.154042,0.119909,-0.486587,0.851543 END:
KINECT_DATA POSITION:0.784813,1.196576,-12.793839 HEAD_JOINT1:0.982244,0.162916,-0.000000,0.093029 LARM_JOINT2:0.813660,0.000000,-0.049617,-0.579220 LARM_JOINT3:0.965747,0.000000,-0.222194,-0.134022 LLEG_JOINT2:0.998774,0.018828,0.000000,0.045791 LLEG_JOINT4:0.995879,0.086211,0.000000,-0.028138 RARM_JOINT2:0.870486,0.000000,-0.053132,0.489316 RARM_JOINT3:0.857713,0.000000,0.439478,0.266810 RLEG_JOINT2:0.998379,0.020232,0.000000,-0.053197 RLEG_JOINT4:0.993845,0.102455,0.000000,0.042132 WAIST:0.999624,-0.000000,0.026589,0.006693 WAIST_JOINT0:0.999589,-0.000000,0.023632,0.016255 WAIST_JOINT1:0.998377,0.056614,0.000000,-0.006157 END:
KINECT_DATA_Sensor  AnkleLeft:0.065339,0.728570,-0.085235,-0.676500 AnkleRight:0.082553,0.727316,0.090275,0.675313 ElbowLeft:-0.060802,0.860632,-0.153766,-0.481635 ElbowRight:-0.067426,0.824679,0.277769,0.488060 FootLeft:0.000000,0.000000,0.000000,0.000000 FootRight:0.000000,0.000000,0.000000,0.000000 HandLeft:0.117341,-0.650253,-0.153071,0.734828 HandRight:0.202789,-0.200219,-0.285164,0.915134 HandTipLeft:0.000000,0.000000,0.000000,0.000000 HandTipRight:0.000000,0.000000,0.000000,0.000000 Head:0.000000,0.000000,0.000000,0.000000 HipLeft:0.111067,-0.677904,0.712135,-0.144823 HipRight:-0.154508,0.676465,0.695623,-0.186095 KneeLeft:0.022530,-0.687468,0.050927,0.724077 KneeRight:-0.019903,0.725597,0.046580,0.686253 Neck:-0.024431,-0.002506,0.997028,-0.073017 ShoulderLeft:0.026383,0.775269,-0.630072,0.035650 ShoulderRight:-0.004476,0.790893,0.607703,-0.071872 SpineBase:-0.026870,0.002528,0.999217,-0.028936 SpineMid:-0.025530,0.002489,0.999252,-0.028939 SpineShoulder:-0.024359,-0.000676,0.998397,-0.051083 ThumbLeft:0.000000,0.000000,0.000000,0.000000 ThumbRight:0.000000,0.000000,0.000000,0.000000 WristLeft:0.142762,-0.644336,-0.132535,0.739517 WristRight:0.117725,-0.228401,-0.330467,0.908166 END:
KINECT_DATA POSITION:0.784801,1.332577,-12.766706 HEAD_JOINT1:0.980502,0.165986,-0.000000,0.105189 LARM_JOINT2:0.820683,0.000000,-0.040500,-0.569946 LARM_JOINT3:0.968606,0.000000,-0.195587,-0.153453 LLEG_JOINT2:0.998611,0.020572,0.000000,0.048498 LLEG_JOINT4:0.995535,0.088901,0.000000,-0.031718 RARM_JOINT2:0.852003,0.000000,-0.091393,0.515497 RARM_JOINT3:0.924514,0.000000,0.263166,0.275714 RLEG_JOINT2:0.998497,0.018485,0.000000,-0.051590 RLEG_JOINT4:0.994134,0.100631,0.000000,0.039636 WAIST:0.999855,-0.000000,0.016118,0.005537 WAIST_JOINT0:0.999931,-0.000000,0.004585,0.010860 WAIST_JOINT1:0.998021,0.062150,0.000000,-0.009527 END:
KINECT_DATA_Sensor  AnkleLeft:0.064875,0.701679,-0.090508,-0.703737 AnkleRight:0.085044,0.762515,0.083181,0.635940 ElbowLeft:-0.052283,0.871555,-0.166262,-0.458274 ElbowRight:0.018019,0.876970,0.274423,0.394069 FootLeft:0.000000,0.000000,0.000000,0.000000 FootRight:0.000000,0.000000,0.000000,0.000000 HandLeft:0.012124,-0.561978,-0.102813,0.820648 HandRight:0.078288,-0.315904,-0.122923,0.937532 HandTipLeft:0.000000,0.000000,0.000000,0.000000 HandTipRight:0.000000,0.000000,0.000000,0.000000 Head:0.000000,0.000000,0.000000,0.000000 HipLeft:0.114675,-0.676967,0.710702,-0.153191 HipRight:-0.143970,0.676317,0.698634,-0.183789 KneeLeft:0.022822,-0.694979,0.053080,0.716705 KneeRight:-0.020243,0.718385,0.045279,0.693875 Neck:-0.005373,-0.007446,0.996857,-0.078690 ShoulderLeft:0.024241,0.774852,-0.629758,0.049208 ShoulderRight:0.018086,0.784611,0.617189,-0.056002 SpineBase:-0.016492,-0.000735,0.999285,-0.034008 SpineMid:-0.010845,-0.000927,0.999362,-0.034003 SpineShoulder:-0.005315,-0.005123,0.998374,-0.056526 ThumbLeft:0.000000,0.000000,0.000000,0.000000 ThumbRight:0.000000,0.000000,0.000000,0.000000 WristLeft:0.113209,-0.544705,-0.136357,0.819687 WristRight:0.072996,-0.317066,-0.138195,0.935437 END:
KINECT_DATA POSITION:0.669961,1.336729,-12.848436 HEAD_JOINT1:0.979047,0.170501,-0.000000,0.111341 LARM_JOINT2:0.821742,0.000000,-0.031232,-0.569003 LARM_JOINT3:0.977193,0.000000,-0.146787,-0.153449 LLEG_JOINT2:0.998520,0.019211,0.000000,0.050874 LLEG_JOINT4:0.995435,0.089244,0.000000,-0.033846 RARM_JOINT2:0.815916,0.000000,-0.096140,0.570122 RARM_JOINT3:0.957569,0.000000,0.223050,0.182511 RLEG_JOINT2:0.998660,0.018161,0.000000,-0.048463 RLEG_JOINT4:0.994438,0.098810,0.000000,0.036463 WAIST:0.999909,-0.000000,0.012451,0.005193 WAIST_JOINT0:0.999934,-0.000000,0.000082,0.011489 WAIST_JOINT1:0.997882,0.064098,0.000000,-0.011048 END:
KINECT_DATA_Sensor  AnkleLeft:0.065729,0.718535,-0.088650,-0.686679 AnkleRight:0.080305,0.735616,0.084935,0.667238 ElbowLeft:-0.036336,0.893274,-0.172185,-0.413634 ElbowRight:0.033038,0.853784,0.222581,0.469487 FootLeft:0.000000,0.000000,0.000000,0.000000 FootRight:0.000000,0.000000,0.000000,0.000000 HandLeft:-0.017646,-0.678061,-0.031448,0.734120 HandRight:0.026291,-0.257707,-0.080375,0.962515 HandTipLeft:0.000000,0.000000,0.000000,0.000000 HandTipRight:0.000000,0.000000,0.000000,0.000000 Head:0.000000,0.000000,0.000000,0.000000 HipLeft:0.114999,-0.677208,0.709901,-0.155581 HipRight:-0.138617,0.676841,0.699411,-0.183020 KneeLeft:0.025399,-0.697458,0.053516,0.714173 KneeRight:-0.018294,0.715946,0.043193,0.696578 Neck:-0.001100,-0.009452,0.996697,-0.080649 ShoulderLeft:0.024089,0.774539,-0.629855,0.052839 ShoulderRight:0.023622,0.784970,0.616833,-0.052742 SpineBase:-0.012914,-0.002987,0.999250,-0.036370 SpineMid:-0.006956,-0.003204,0.999310,-0.036352 SpineShoulder:-0.001035,-0.006755,0.998266,-0.058459 ThumbLeft:0.000000,0.000000,0.000000,0.000000 ThumbRight:0.000000,0.000000,0.000000,0.000000 WristLeft:0.103207,-0.663578,-0.080038,0.736618 WristRight:0.011095,-0.258497,-0.109368,0.959737 END:
KINECT_DATA POSITION:0.530387,1.312414,-12.937128 HEAD_JOINT1:0.978664,0.170334,-0.000000,0.114906 LARM_JOINT2:0.821896,0.000000,-0.014434,-0.569454 LARM_JOINT3:0.980867,0.000000,-0.128355,-0.146372 LLEG_JOINT2:0.998420,0.019207,0.000000,0.052799 LLEG_JOINT4:0.995289,0.088517,0.000000,-0.039543 RARM_JOINT2:0.798802,0.000000,-0.082075,0.595969 RARM_JOINT3:0.974016,0.000000,0.188397,0.125696 RLEG_JOINT2:0.998790,0.018129,0.000000,-0.045719 RLEG_JOINT4:0.994876,0.095569,0.000000,0.032985 WAIST:0.999945,-0.000000,0.008938,0.005577 WAIST_JOINT0:0.999908,0.000000,-0.003191,0.013204 WAIST_JOINT1:0.997866,0.064151,0.000000,-0.012206 END:
KINECT_DATA_Sensor  AnkleLeft:0.065273,0.705839,-0.087311,-0.699934 AnkleRight:0.079520,0.746296,0.081240,0.655834 ElbowLeft:-0.021156,0.900428,-0.177683,-0.396498 ElbowRight:0.028567,0.835315,0.193103,0.513949 FootLeft:0.000000,0.000000,0.000000,0.000000 FootRight:0.000000,0.000000,0.000000,0.000000 HandLeft:-0.013309,-0.613936,-0.013316,0.789131 HandRight:0.014774,-0.640464,-0.048337,0.766323 HandTipLeft:0.000000,0.000000,0.000000,0.000000 HandTipRight:0.000000,0.000000,0.000000,0.000000 Head:0.000000,0.000000,0.000000,0.000000 HipLeft:0.116339,-0.676929,0.709444,-0.157866 HipRight:-0.134728,0.677731,0.699447,-0.182493 KneeLeft:0.027199,-0.699814,0.055080,0.711679 KneeRight:-0.015923,0.713637,0.041051,0.699131 Neck:0.001933,-0.009802,0.996698,-0.080583 ShoulderLeft:0.022076,0.774757,-0.629450,0.055283 ShoulderRight:0.025589,0.787417,0.613840,-0.050204 SpineBase:-0.009524,-0.004807,0.999226,-0.037872 SpineMid:-0.003807,-0.005023,0.999264,-0.037844 SpineShoulder:0.001975,-0.007332,0.998253,-0.058587 ThumbLeft:0.000000,0.000000,0.000000,0.000000 ThumbRight:0.000000,0.000000,0.000000,0.000000 WristLeft:0.083861,-0.606883,-0.055252,0.788421 WristRight:0.019566,-0.639042,-0.088823,0.763776 END:
KINECT_DATA POSITION:0.470644,1.302416,-12.998974 HEAD_JOINT1:0.978926,0.168701,-0.000000,0.115079 LARM_JOINT2:0.821228,0.000000,-0.007394,-0.570552 LARM_JOINT3:0.982930,0.000000,-0.125660,-0.134383 LLEG_JOINT2:0.998414,0.018858,0.000000,0.053052 LLEG_JOINT4:0.995003,0.092617,0.000000,-0.037294 RARM_JOINT2:0.795730,0.000000,-0.080266,0.600310 RARM_JOINT3:0.978685,0.000000,0.166479,0.120250 RLEG_JOINT2:0.998821,0.018325,0.000000,-0.044946 RLEG_JOINT4:0.995029,0.094209,0.000000,0.032282 WAIST:0.999951,-0.000000,0.007996,0.005763 WAIST_JOINT0:0.999887,0.000000,-0.003541,0.014592 WAIST_JOINT1:0.997879,0.063863,0.000000,-0.012634 END:
KINECT_DATA_Sensor  AnkleLeft:0.066077,0.706016,-0.091879,-0.699095 AnkleRight:0.078188,0.740008,0.080909,0.663120 ElbowLeft:-0.018204,0.894869,-0.178367,-0.408734 ElbowRight:0.030799,0.838435,0.187781,0.510702 FootLeft:0.000000,0.000000,0.000000,0.000000 FootRight:0.000000,0.000000,0.000000,0.000000 HandLeft:0.003583,-0.594883,-0.002772,0.803799 HandRight:-0.010312,-0.628741,-0.009027,0.777494 HandTipLeft:0.000000,0.000000,0.000000,0.000000 HandTipRight:0.000000,0.000000,0.000000,0.000000 Head:0.000000,0.000000,0.000000,0.000000 HipLeft:0.116821,-0.676774,0.709311,-0.158770 HipRight:-0.133873,0.677955,0.699321,-0.182770 KneeLeft:0.027807,-0.700425,0.055124,0.711051 KneeRight:-0.015059,0.713029,0.040536,0.699800 Neck:0.002095,-0.009825,0.996741,-0.080040 ShoulderLeft:0.021668,0.774991,-0.629170,0.055347 ShoulderRight:0.025437,0.789503,0.611192,-0.049817 SpineBase:-0.008628,-0.005312,0.999210,-0.038437 SpineMid:-0.003295,-0.005517,0.999241,-0.038409 SpineShoulder:0.002124,-0.007491,0.998263,-0.058396 ThumbLeft:0.000000,0.000000,0.000000,0.000000 ThumbRight:0.000000,0.000000,0.000000,0.000000 WristLeft:0.085158,-0.590817,-0.044228,0.801079 WristRight:0.008673,-0.626909,-0.079297,0.774998 END:
KINECT_DATA POSITION:0.409459,1.279855,-13.031828 HEAD_JOINT1:0.979619,0.165705,-0.000000,0.113528 LARM_JOINT2:0.821299,0.000000,-0.004639,-0.570478 LARM_JOINT3:0.981845,0.000000,-0.129511,-0.138588 LLEG_JOINT2:0.998362,0.018059,0.000000,0.054290 LLEG_JOINT4:0.995012,0.091514,0.000000,-0.039701 RARM_JOINT2:0.795118,0.000000,-0.081531,0.600949 RARM_JOINT3:0.979547,0.000000,0.156935,0.125930 RLEG_JOINT2:0.998861,0.018210,0.000000,-0.044102 RLEG_JOINT4:0.994754,0.096854,0.000000,0.032919 WAIST:0.999955,-0.000000,0.007718,0.005597 WAIST_JOINT0:0.999877,0.000000,-0.003025,0.015375 WAIST_JOINT1:0.997885,0.063726,0.000000,-0.012823 END:
KINECT_DATA_Sensor  AnkleLeft:0.066633,0.714470,-0.088853,-0.690795 AnkleRight:0.081383,0.742951,0.081208,0.659398 ElbowLeft:-0.017237,0.892507,-0.178943,-0.413658 ElbowRight:0.035121,0.846873,0.187111,0.496549 FootLeft:0.000000,0.000000,0.000000,0.000000 FootRight:0.000000,0.000000,0.000000,0.000000 HandLeft:-0.008266,-0.515452,-0.031481,0.856300 HandRight:-0.002572,-0.355525,0.010574,0.934603 HandTipLeft:0.000000,0.000000,0.000000,0.000000 HandTipRight:0.000000,0.000000,0.000000,0.000000 Head:0.000000,0.000000,0.000000,0.000000 HipLeft:0.117165,-0.676898,0.709050,-0.159152 HipRight:-0.133666,0.677833,0.699374,-0.183172 KneeLeft:0.029145,-0.700551,0.055320,0.710857 KneeRight:-0.014644,0.712854,0.039984,0.700018 Neck:0.001484,-0.010024,0.996763,-0.079760 ShoulderLeft:0.021393,0.775143,-0.629000,0.055267 ShoulderRight:0.024405,0.790698,0.609626,-0.050558 SpineBase:-0.008363,-0.005886,0.999200,-0.038672 SpineMid:-0.003484,-0.006075,0.999229,-0.038643 SpineShoulder:0.001498,-0.007794,0.998267,-0.058313 ThumbLeft:0.000000,0.000000,0.000000,0.000000 ThumbRight:0.000000,0.000000,0.000000,0.000000 WristLeft:0.081813,-0.507920,-0.048212,0.856154 WristRight:-0.016489,-0.353270,-0.067783,0.932917 END:
KINECT_DATA POSITION:0.316291,1.230084,-13.039148 HEAD_JOINT1:0.980830,0.160309,-0.000000,0.110784 LARM_JOINT2:0.821022,0.000000,-0.004680,-0.570877 LARM_JOINT3:0.980201,0.000000,-0.143355,-0.136587 LLEG_JOINT2:0.998298,0.018193,0.000000,0.055406 LLEG_JOINT4:0.995114,0.090079,0.000000,-0.040417 RARM_JOINT2:0.794611,0.000000,-0.082656,0.601466 RARM_JOINT3:0.980099,0.000000,0.155395,0.123527 RLEG_JOINT2:0.998903,0.017603,0.000000,-0.043391 RLEG_JOINT4:0.994764,0.097257,0.000000,0.031400 WAIST:0.999956,-0.000000,0.007585,0.005584 WAIST_JOINT0:0.999868,0.000000,-0.003042,0.015989 WAIST_JOINT1:0.997862,0.064080,0.000000,-0.012858 END:
KINECT_DATA_Sensor  AnkleLeft:0.064287,0.705924,-0.089078,-0.699717 AnkleRight:0.080447,0.740922,0.081918,0.661704 ElbowLeft:-0.017546,0.890781,-0.178518,-0.417532 ElbowRight:0.037773,0.849904,0.186846,0.491249 FootLeft:0.000000,0.000000,0.000000,0.000000 FootRight:0.000000,0.000000,0.000000,0.000000 HandLeft:0.019043,-0.541845,-0.068377,0.837476 HandRight:0.015414,0.735339,0.004118,-0.677512 HandTipLeft:0.000000,0.000000,0.000000,0.000000 HandTipRight:0.000000,0.000000,0.000000,0.000000 Head:0.000000,0.000000,0.000000,0.000000 HipLeft:0.117101,-0.676835,0.709006,-0.159662 HipRight:-0.133471,0.677727,0.699377,-0.183691 KneeLeft:0.029830,-0.700608,0.056198,0.710705 KneeRight:-0.014568,0.712779,0.039063,0.700149 Neck:0.001327,-0.009903,0.996734,-0.080132 ShoulderLeft:0.022293,0.775171,-0.628964,0.054925 ShoulderRight:0.025147,0.791872,0.608088,-0.050353 SpineBase:-0.008242,-0.006024,0.999180,-0.039178 SpineMid:-0.003512,-0.006209,0.999208,-0.039149 SpineShoulder:0.001325,-0.007866,0.998246,-0.058667 ThumbLeft:0.000000,0.000000,0.000000,0.000000 ThumbRight:0.000000,0.000000,0.000000,0.000000 WristLeft:0.083916,-0.533188,-0.047831,0.840465 WristRight:-0.013897,0.734202,0.063742,-0.675789 END:
KINECT_DATA POSITION:0.260107,1.210067,-13.017118 HEAD_JOINT1:0.982197,0.152457,-0.000000,0.109753 LARM_JOINT2:0.821304,0.000000,-0.005648,-0.570463 LARM_JOINT3:0.982020,0.000000,-0.136867,-0.130020 LLEG_JOINT2:0.998295,0.018181,0.000000,0.055469 LLEG_JOINT4:0.994981,0.091442,0.000000,-0.040643 RARM_JOINT2:0.794264,0.000000,-0.082499,0.601945 RARM_JOINT3:0.981832,0.000000,0.149975,0.116243 RLEG_JOINT2:0.998905,0.016665,0.000000,-0.043710 RLEG_JOINT4:0.994645,0.098159,0.000000,0.032350 WAIST:0.999956,-0.000000,0.007332,0.005846 WAIST_JOINT0:0.999863,0.000000,-0.003861,0.016124 WAIST_JOINT1:0.997812,0.064905,0.000000,-0.012630 END:
KINECT_DATA_Sensor  AnkleLeft:0.065220,0.706243,-0.090053,-0.699184 AnkleRight:0.081434,0.743890,0.080826,0.658379 ElbowLeft:-0.018461,0.889711,-0.179337,-0.419418 ElbowRight:0.039493,0.851382,0.186157,0.488810 FootLeft:0.000000,0.000000,0.000000,0.000000 FootRight:0.000000,0.000000,0.000000,0.000000 HandLeft:0.025964,-0.566240,-0.027968,0.823357 HandRight:-0.042170,-0.705122,-0.012157,0.707727 HandTipLeft:0.000000,0.000000,0.000000,0.000000 HandTipRight:0.000000,0.000000,0.000000,0.000000 Head:0.000000,0.000000,0.000000,0.000000 HipLeft:0.116722,-0.676500,0.709199,-0.160498 HipRight:-0.133132,0.677840,0.699237,-0.184053 KneeLeft:0.030081,-0.700768,0.056413,0.710519 KneeRight:-0.015258,0.712603,0.038439,0.700347 Neck:0.001974,-0.009447,0.996668,-0.080987 ShoulderLeft:0.024335,0.775182,-0.628913,0.054483 ShoulderRight:0.028077,0.792484,0.607282,-0.048874 SpineBase:-0.008000,-0.005445,0.999155,-0.039943 SpineMid:-0.003055,-0.005643,0.999182,-0.039916 SpineShoulder:0.001985,-0.007400,0.998200,-0.059489 ThumbLeft:0.000000,0.000000,0.000000,0.000000 ThumbRight:0.000000,0.000000,0.000000,0.000000 WristLeft:0.087057,-0.561631,-0.045581,0.821531 WristRight:0.007464,-0.702561,-0.060952,0.708969 END:
KINECT_DATA POSITION:0.195584,1.200463,-12.978590 HEAD_JOINT1:0.983432,0.145575,-0.000000,0.108030 LARM_JOINT2:0.822204,0.000000,-0.007584,-0.569142 LARM_JOINT3:0.981810,0.000000,-0.136901,-0.131558 LLEG_JOINT2:0.998281,0.017903,0.000000,0.055801 LLEG_JOINT4:0.995064,0.090827,0.000000,-0.039979 RARM_JOINT2:0.794127,0.000000,-0.081592,0.602250 RARM_JOINT3:0.981103,0.000000,0.155920,0.114564 RLEG_JOINT2:0.998926,0.015505,0.000000,-0.043653 RLEG_JOINT4:0.994334,0.101151,0.000000,0.032683 WAIST:0.999959,-0.000000,0.006686,0.006069 WAIST_JOINT0:0.999856,0.000000,-0.004681,0.016289 WAIST_JOINT1:0.997684,0.066804,0.000000,-0.012797 END:
KINECT_DATA_Sensor  AnkleLeft:0.064640,0.714185,-0.089681,-0.691172 AnkleRight:0.081992,0.732962,0.082822,0.670213 ElbowLeft:-0.018249,0.891705,-0.180943,-0.414475 ElbowRight:0.040338,0.850062,0.186547,0.490884 FootLeft:0.000000,0.000000,0.000000,0.000000 FootRight:0.000000,0.000000,0.000000,0.000000 HandLeft:0.021093,-0.524400,-0.040005,0.850270 HandRight:-0.036963,-0.380103,-0.019064,0.924009 HandTipLeft:0.000000,0.000000,0.000000,0.000000 HandTipRight:0.000000,0.000000,0.000000,0.000000 Head:0.000000,0.000000,0.000000,0.000000 HipLeft:0.116068,-0.676067,0.709420,-0.161815 HipRight:-0.131903,0.677866,0.699305,-0.184585 KneeLeft:0.030705,-0.701173,0.056593,0.710078 KneeRight:-0.015849,0.712170,0.037430,0.700829 Neck:0.002548,-0.009464,0.996500,-0.083020 ShoulderLeft:0.028574,0.775369,-0.628584,0.053562 ShoulderRight:0.033197,0.793191,0.606249,-0.047002 SpineBase:-0.007385,-0.005162,0.999101,-0.041414 SpineMid:-0.002444,-0.005366,0.999126,-0.041388 SpineShoulder:0.002574,-0.007306,0.998086,-0.061356 ThumbLeft:0.000000,0.000000,0.000000,0.000000 ThumbRight:0.000000,0.000000,0.000000,0.000000 WristLeft:0.084609,-0.518624,-0.045965,0.849563 WristRight:-0.018020,-0.378610,-0.057999,0.923561 END:
