EastLYD/RoboCupatHomeSim/InteractiveCleanUp/JapanOpen2016/Motion_Data/File42.dat
KINECT_DATA POSITION:28.874203,-4.194985,-5.403388 HEAD_JOINT1:0.981471,0.159905,-0.000000,0.105568 LARM_JOINT2:0.820034,0.000000,-0.006025,-0.572282 LARM_JOINT3:0.974909,0.000000,-0.160196,-0.154562 LLEG_JOINT2:0.997106,0.031136,0.000000,0.069349 LLEG_JOINT4:0.993977,0.101475,0.000000,-0.041375 RARM_JOINT2:0.796531,0.000000,-0.043489,0.603032 RARM_JOINT3:0.973980,0.000000,0.186500,0.128765 RLEG_JOINT2:0.998560,-0.002571,-0.000000,-0.053587 RLEG_JOINT4:0.992904,0.115088,0.000000,0.029947 WAIST:0.999862,0.000000,-0.016489,-0.002190 WAIST_JOINT0:0.999519,0.000000,-0.028715,0.011744 WAIST_JOINT1:0.996992,0.076531,0.000000,-0.012233 END:
KINECT_DATA_Sensor  AnkleLeft:0.076287,0.723422,-0.110835,-0.677168 AnkleRight:0.064737,0.699027,0.095257,0.705760 ElbowLeft:-0.007956,0.902310,-0.174977,-0.393899 ElbowRight:0.021659,0.841171,0.184852,0.507732 FootLeft:0.000000,0.000000,0.000000,0.000000 FootRight:0.000000,0.000000,0.000000,0.000000 HandLeft:-0.066530,0.833779,0.017286,0.547803 HandRight:0.041635,-0.518783,-0.062619,0.851592 HandTipLeft:0.000000,0.000000,0.000000,0.000000 HandTipRight:0.000000,0.000000,0.000000,0.000000 Head:0.000000,0.000000,0.000000,0.000000 HipLeft:0.122978,-0.678783,0.701156,-0.180307 HipRight:-0.101099,0.677897,0.707801,-0.171036 KneeLeft:-0.026524,0.717945,-0.069099,-0.692153 KneeRight:-0.040616,0.695010,0.038311,0.716828 Neck:0.027461,-0.014915,0.995173,-0.093029 ShoulderLeft:0.005097,0.782337,-0.616367,0.089526 ShoulderRight:0.041517,0.793064,0.606149,-0.043692 SpineBase:0.016021,-0.012055,0.998448,-0.051963 SpineMid:0.021566,-0.012343,0.998343,-0.051895 SpineShoulder:0.027344,-0.013679,0.996989,-0.071261 ThumbLeft:0.000000,0.000000,0.000000,0.000000 ThumbRight:0.000000,0.000000,0.000000,0.000000 WristLeft:-0.076797,0.836470,-0.061866,0.539067 WristRight:0.009716,-0.519432,-0.092034,0.849485 END:
KINECT_DATA POSITION:28.870981,-4.204909,-5.395210 HEAD_JOINT1:0.981404,0.160115,-0.000000,0.105878 LARM_JOINT2:0.820185,0.000000,-0.007152,-0.572054 LARM_JOINT3:0.974701,0.000000,-0.161048,-0.154991 LLEG_JOINT2:0.997097,0.030627,0.000000,0.069715 LLEG_JOINT4:0.993841,0.102144,0.000000,-0.042976 RARM_JOINT2:0.796326,0.000000,-0.043320,0.603315 RARM_JOINT3:0.973447,0.000000,0.190397,0.127079 RLEG_JOINT2:0.998595,-0.001113,-0.000000,-0.052987 RLEG_JOINT4:0.993062,0.113608,0.000000,0.030349 WAIST:0.999855,0.000000,-0.016871,-0.002118 WAIST_JOINT0:0.999499,0.000000,-0.029316,0.011898 WAIST_JOINT1:0.996987,0.076591,0.000000,-0.012307 END:
KINECT_DATA_Sensor  AnkleLeft:0.077174,0.723594,-0.110141,-0.676997 AnkleRight:0.068170,0.718883,0.092516,0.685567 ElbowLeft:-0.008463,0.903524,-0.174838,-0.391159 ElbowRight:0.021875,0.841168,0.184506,0.507854 FootLeft:0.000000,0.000000,0.000000,0.000000 FootRight:0.000000,0.000000,0.000000,0.000000 HandLeft:-0.078720,0.803173,0.010791,0.590423 HandRight:0.011164,-0.185298,-0.089036,0.978577 HandTipLeft:0.000000,0.000000,0.000000,0.000000 HandTipRight:0.000000,0.000000,0.000000,0.000000 Head:0.000000,0.000000,0.000000,0.000000 HipLeft:0.123239,-0.678644,0.701179,-0.180561 HipRight:-0.100921,0.677954,0.707806,-0.170894 KneeLeft:-0.027223,0.718171,-0.069029,-0.691899 KneeRight:-0.039084,0.694802,0.038859,0.717086 Neck:0.028031,-0.014865,0.995155,-0.093054 ShoulderLeft:0.004787,0.782200,-0.616473,0.090012 ShoulderRight:0.041941,0.793174,0.606008,-0.043253 SpineBase:0.016395,-0.012032,0.998441,-0.051988 SpineMid:0.022036,-0.012325,0.998332,-0.051919 SpineShoulder:0.027911,-0.013678,0.996968,-0.071336 ThumbLeft:0.000000,0.000000,0.000000,0.000000 ThumbRight:0.000000,0.000000,0.000000,0.000000 WristLeft:-0.071928,0.808248,-0.065505,0.580750 WristRight:-0.022450,-0.187955,-0.090000,0.977788 END:
KINECT_DATA POSITION:28.868156,-4.211833,-5.380166 HEAD_JOINT1:0.981192,0.160988,-0.000000,0.106510 LARM_JOINT2:0.820243,0.000000,-0.007021,-0.571972 LARM_JOINT3:0.974641,0.000000,-0.161610,-0.154781 LLEG_JOINT2:0.997078,0.031327,0.000000,0.069674 LLEG_JOINT4:0.994134,0.099721,0.000000,-0.041884 RARM_JOINT2:0.796170,0.000000,-0.043129,0.603533 RARM_JOINT3:0.973114,0.000000,0.191882,0.127399 RLEG_JOINT2:0.998595,-0.001390,-0.000000,-0.052970 RLEG_JOINT4:0.992891,0.115073,0.000000,0.030435 WAIST:0.999849,0.000000,-0.017220,-0.002150 WAIST_JOINT0:0.999486,0.000000,-0.029687,0.012076 WAIST_JOINT1:0.996983,0.076633,0.000000,-0.012310 END:
KINECT_DATA_Sensor  AnkleLeft:0.075193,0.724129,-0.109700,-0.676719 AnkleRight:0.066367,0.697966,0.095213,0.706664 ElbowLeft:-0.008614,0.903216,-0.174949,-0.391815 ElbowRight:0.022140,0.841556,0.184227,0.507301 FootLeft:0.000000,0.000000,0.000000,0.000000 FootRight:0.000000,0.000000,0.000000,0.000000 HandLeft:-0.079616,0.788205,0.008273,0.610185 HandRight:0.027278,-0.331716,-0.092750,0.938412 HandTipLeft:0.000000,0.000000,0.000000,0.000000 HandTipRight:0.000000,0.000000,0.000000,0.000000 Head:0.000000,0.000000,0.000000,0.000000 HipLeft:0.123430,-0.678571,0.701144,-0.180838 HipRight:-0.100687,0.677948,0.707883,-0.170735 KneeLeft:-0.026703,0.718446,-0.069472,-0.691590 KneeRight:-0.039281,0.694543,0.038690,0.717335 Neck:0.028365,-0.014895,0.995145,-0.093063 ShoulderLeft:0.004603,0.782018,-0.616659,0.090324 ShoulderRight:0.042201,0.793248,0.605910,-0.043001 SpineBase:0.016747,-0.012008,0.998431,-0.052062 SpineMid:0.022383,-0.012302,0.998321,-0.051993 SpineShoulder:0.028250,-0.013677,0.996954,-0.071394 ThumbLeft:0.000000,0.000000,0.000000,0.000000 ThumbRight:0.000000,0.000000,0.000000,0.000000 WristLeft:-0.070428,0.793770,-0.067607,0.600332 WristRight:-0.007998,-0.334524,-0.092083,0.937844 END:
KINECT_DATA POSITION:28.866020,-4.229560,-5.336773 HEAD_JOINT1:0.981097,0.161170,-0.000000,0.107109 LARM_JOINT2:0.820237,0.000000,-0.006783,-0.571983 LARM_JOINT3:0.974215,0.000000,-0.162295,-0.156734 LLEG_JOINT2:0.997144,0.028914,0.000000,0.069772 LLEG_JOINT4:0.993598,0.104816,0.000000,-0.042157 RARM_JOINT2:0.795848,0.000000,-0.042272,0.604019 RARM_JOINT3:0.968497,0.000000,0.211286,0.131806 RLEG_JOINT2:0.998602,-0.001627,-0.000000,-0.052832 RLEG_JOINT4:0.992844,0.115887,0.000000,0.028812 WAIST:0.999846,0.000000,-0.017462,-0.002015 WAIST_JOINT0:0.999464,0.000000,-0.030318,0.012357 WAIST_JOINT1:0.996977,0.076717,0.000000,-0.012322 END:
KINECT_DATA_Sensor  AnkleLeft:0.075417,0.713441,-0.112702,-0.687468 AnkleRight:0.068273,0.715037,0.094913,0.689240 ElbowLeft:-0.008715,0.902686,-0.175158,-0.392939 ElbowRight:0.021495,0.840244,0.183410,0.509794 FootLeft:0.000000,0.000000,0.000000,0.000000 FootRight:0.000000,0.000000,0.000000,0.000000 HandLeft:-0.084943,0.813662,0.019389,0.574772 HandRight:0.025431,-0.100849,-0.160839,0.981485 HandTipLeft:0.000000,0.000000,0.000000,0.000000 HandTipRight:0.000000,0.000000,0.000000,0.000000 Head:0.000000,0.000000,0.000000,0.000000 HipLeft:0.123559,-0.678433,0.701196,-0.181069 HipRight:-0.100571,0.678072,0.707800,-0.170653 KneeLeft:-0.028580,0.718495,-0.067890,-0.691621 KneeRight:-0.039251,0.694376,0.038339,0.717518 Neck:0.028945,-0.014776,0.995123,-0.093132 ShoulderLeft:0.004396,0.781824,-0.616843,0.090759 ShoulderRight:0.042743,0.793441,0.605656,-0.042476 SpineBase:0.016980,-0.011861,0.998426,-0.052117 SpineMid:0.022792,-0.012164,0.998310,-0.052047 SpineShoulder:0.028833,-0.013564,0.996933,-0.071483 ThumbLeft:0.000000,0.000000,0.000000,0.000000 ThumbRight:0.000000,0.000000,0.000000,0.000000 WristLeft:-0.073332,0.820288,-0.064865,0.563509 WristRight:-0.025669,-0.111463,-0.093686,0.989009 END:
KINECT_DATA POSITION:28.856838,-4.261791,-5.284441 HEAD_JOINT1:0.980649,0.161158,-0.000000,0.111155 LARM_JOINT2:0.820379,0.000000,-0.007275,-0.571773 LARM_JOINT3:0.973936,0.000000,-0.166732,-0.153782 LLEG_JOINT2:0.997126,0.029894,0.000000,0.069607 LLEG_JOINT4:0.993729,0.103921,0.000000,-0.041278 RARM_JOINT2:0.795588,0.000000,-0.018718,0.605549 RARM_JOINT3:0.952845,0.000000,0.275295,0.127667 RLEG_JOINT2:0.998619,-0.001120,-0.000000,-0.052525 RLEG_JOINT4:0.992917,0.114787,0.000000,0.030650 WAIST:0.999828,0.000000,-0.018388,-0.002270 WAIST_JOINT0:0.999465,0.000000,-0.029876,0.013322 WAIST_JOINT1:0.996994,0.076506,0.000000,-0.012261 END:
KINECT_DATA_Sensor  AnkleLeft:0.076430,0.722587,-0.112218,-0.677815 AnkleRight:0.068657,0.710783,0.093414,0.693792 ElbowLeft:-0.009507,0.902989,-0.174919,-0.392331 ElbowRight:-0.001292,0.821660,0.173758,0.542845 FootLeft:0.000000,0.000000,0.000000,0.000000 FootRight:0.000000,0.000000,0.000000,0.000000 HandLeft:-0.094811,0.825976,0.003303,0.555664 HandRight:0.071007,-0.224906,-0.254091,0.937984 HandTipLeft:0.000000,0.000000,0.000000,0.000000 HandTipRight:0.000000,0.000000,0.000000,0.000000 Head:0.000000,0.000000,0.000000,0.000000 HipLeft:0.124540,-0.678438,0.700889,-0.181565 HipRight:-0.100490,0.678000,0.708019,-0.170077 KneeLeft:-0.027658,0.719211,-0.068275,-0.690875 KneeRight:-0.038819,0.693705,0.038684,0.718171 Neck:0.028460,-0.014788,0.995155,-0.092935 ShoulderLeft:0.004209,0.781532,-0.617245,0.090547 ShoulderRight:0.041961,0.794053,0.604879,-0.042895 SpineBase:0.017931,-0.011894,0.998427,-0.051766 SpineMid:0.023031,-0.012158,0.998323,-0.051704 SpineShoulder:0.028347,-0.013578,0.996959,-0.071303 ThumbLeft:0.000000,0.000000,0.000000,0.000000 ThumbRight:0.000000,0.000000,0.000000,0.000000 WristLeft:-0.075424,0.831550,-0.063631,0.546614 WristRight:0.011364,-0.243312,-0.162226,0.956218 END:
KINECT_DATA POSITION:28.922472,-4.329786,-5.093622 HEAD_JOINT1:0.979721,0.159540,-0.000000,0.121220 LARM_JOINT2:0.820893,0.000000,-0.005057,-0.571059 LARM_JOINT3:0.974573,0.000000,-0.165481,-0.151075 LLEG_JOINT2:0.997204,0.033667,0.000000,0.066707 LLEG_JOINT4:0.993976,0.102115,0.000000,-0.039812 RARM_JOINT2:0.800004,0.000000,0.010544,0.599902 RARM_JOINT3:0.928672,0.000000,0.349969,0.122839 RLEG_JOINT2:0.998527,-0.005290,-0.000000,-0.054007 RLEG_JOINT4:0.992248,0.121014,0.000000,0.028277 WAIST:0.999789,0.000000,-0.020516,-0.001304 WAIST_JOINT0:0.999480,0.000000,-0.028092,0.015838 WAIST_JOINT1:0.997093,0.075207,0.000000,-0.012262 END:
KINECT_DATA_Sensor  AnkleLeft:0.077710,0.722817,-0.113587,-0.677196 AnkleRight:0.070875,0.725736,0.095074,0.677676 ElbowLeft:-0.011052,0.901511,-0.176759,-0.394857 ElbowRight:-0.030536,0.804266,0.165133,0.570048 FootLeft:0.000000,0.000000,0.000000,0.000000 FootRight:0.000000,0.000000,0.000000,0.000000 HandLeft:-0.076094,0.826770,-0.002392,0.557365 HandRight:0.149766,-0.272007,-0.352635,0.882740 HandTipLeft:0.000000,0.000000,0.000000,0.000000 HandTipRight:0.000000,0.000000,0.000000,0.000000 Head:0.000000,0.000000,0.000000,0.000000 HipLeft:0.126819,-0.677724,0.701231,-0.181333 HipRight:-0.100735,0.679244,0.707507,-0.167077 KneeLeft:-0.023760,0.720878,-0.069608,-0.689148 KneeRight:-0.042104,0.691998,0.036258,0.719758 Neck:0.026725,-0.012816,0.995355,-0.091595 ShoulderLeft:0.003319,0.781162,-0.617900,0.089297 ShoulderRight:0.038705,0.796056,0.602363,-0.044229 SpineBase:0.020040,-0.010651,0.998514,-0.049550 SpineMid:0.023226,-0.010809,0.998445,-0.049516 SpineShoulder:0.026564,-0.012363,0.997108,-0.070128 ThumbLeft:0.000000,0.000000,0.000000,0.000000 ThumbRight:0.000000,0.000000,0.000000,0.000000 WristLeft:-0.076612,0.829148,-0.066549,0.549741 WristRight:0.055187,-0.310938,-0.239815,0.918020 END:
KINECT_DATA POSITION:28.952185,-4.373121,-4.778898 HEAD_JOINT1:0.979745,0.156317,-0.000000,0.125159 LARM_JOINT2:0.819912,0.000000,-0.002343,-0.572484 LARM_JOINT3:0.974535,0.000000,-0.165273,-0.151544 LLEG_JOINT2:0.997370,0.035652,0.000000,0.063108 LLEG_JOINT4:0.994315,0.099879,0.000000,-0.036893 RARM_JOINT2:0.808794,0.000000,0.044117,0.586436 RARM_JOINT3:0.913792,0.000000,0.393301,0.101487 RLEG_JOINT2:0.998361,-0.006818,-0.000000,-0.056830 RLEG_JOINT4:0.991576,0.126030,0.000000,0.029902 WAIST:0.999796,0.000000,-0.020210,0.000631 WAIST_JOINT0:0.999544,0.000000,-0.022607,0.020030 WAIST_JOINT1:0.997362,0.071864,0.000000,-0.010227 END:
KINECT_DATA_Sensor  AnkleLeft:0.076250,0.720088,-0.114618,-0.680090 AnkleRight:0.072560,0.715046,0.097900,0.688375 ElbowLeft:-0.014050,0.898124,-0.178270,-0.401741 ElbowRight:-0.065598,0.793112,0.155608,0.585198 FootLeft:0.000000,0.000000,0.000000,0.000000 FootRight:0.000000,0.000000,0.000000,0.000000 HandLeft:-0.076472,0.725082,-0.010470,0.684324 HandRight:0.147243,-0.269040,-0.388615,0.868859 HandTipLeft:0.000000,0.000000,0.000000,0.000000 HandTipRight:0.000000,0.000000,0.000000,0.000000 Head:0.000000,0.000000,0.000000,0.000000 HipLeft:0.128091,-0.676999,0.702307,-0.178970 HipRight:-0.103288,0.681165,0.705927,-0.164357 KneeLeft:-0.021122,0.720738,-0.069916,-0.689349 KneeRight:-0.043813,0.692030,0.035849,0.719645 Neck:0.021174,-0.007671,0.995926,-0.087322 ShoulderLeft:0.004540,0.778881,-0.621581,0.083436 ShoulderRight:0.032553,0.798474,0.599309,-0.046987 SpineBase:0.019705,-0.008308,0.998710,-0.046056 SpineMid:0.020268,-0.008333,0.998699,-0.046051 SpineShoulder:0.020988,-0.008383,0.997489,-0.067122 ThumbLeft:0.000000,0.000000,0.000000,0.000000 ThumbRight:0.000000,0.000000,0.000000,0.000000 WristLeft:-0.063709,0.731242,-0.083275,0.674011 WristRight:0.080116,-0.299744,-0.312806,0.897712 END:
KINECT_DATA POSITION:28.962460,-4.369343,-4.638302 HEAD_JOINT1:0.980745,0.155086,-0.000000,0.118689 LARM_JOINT2:0.818502,0.000000,0.001507,-0.574502 LARM_JOINT3:0.974128,0.000000,-0.163523,-0.155998 LLEG_JOINT2:0.997633,0.035682,0.000000,0.058789 LLEG_JOINT4:0.994368,0.099932,0.000000,-0.035294 RARM_JOINT2:0.816150,0.000000,0.069206,0.573680 RARM_JOINT3:0.909088,0.000000,0.410426,0.071484 RLEG_JOINT2:0.998222,-0.005622,-0.000000,-0.059344 RLEG_JOINT4:0.991314,0.127532,0.000000,0.032130 WAIST:0.999807,0.000000,-0.019535,0.002223 WAIST_JOINT0:0.999645,0.000000,-0.015337,0.021800 WAIST_JOINT1:0.997572,0.069271,0.000000,-0.007170 END:
KINECT_DATA_Sensor  AnkleLeft:0.076586,0.716031,-0.114290,-0.684377 AnkleRight:0.073285,0.700333,0.100326,0.702921 ElbowLeft:-0.014802,0.896029,-0.180517,-0.405371 ElbowRight:-0.091486,0.787149,0.147546,0.591826 FootLeft:0.000000,0.000000,0.000000,0.000000 FootRight:0.000000,0.000000,0.000000,0.000000 HandLeft:-0.067387,0.823481,0.016544,0.563085 HandRight:0.053191,-0.141416,-0.445294,0.882545 HandTipLeft:0.000000,0.000000,0.000000,0.000000 HandTipRight:0.000000,0.000000,0.000000,0.000000 Head:0.000000,0.000000,0.000000,0.000000 HipLeft:0.127644,-0.676197,0.703380,-0.178106 HipRight:-0.104902,0.682584,0.704597,-0.163147 KneeLeft:-0.019076,0.720284,-0.068074,-0.690068 KneeRight:-0.043598,0.692384,0.037331,0.719243 Neck:0.013935,-0.002961,0.996322,-0.084500 ShoulderLeft:0.006279,0.777895,-0.623604,0.077186 ShoulderRight:0.024782,0.799849,0.597418,-0.052146 SpineBase:0.019036,-0.005393,0.998802,-0.044755 SpineMid:0.016375,-0.005274,0.998849,-0.044769 SpineShoulder:0.013868,-0.003302,0.997813,-0.064551 ThumbLeft:0.000000,0.000000,0.000000,0.000000 ThumbRight:0.000000,0.000000,0.000000,0.000000 WristLeft:-0.077862,0.826871,-0.074720,0.551941 WristRight:0.033514,-0.154325,-0.360395,0.919334 END:
KINECT_DATA POSITION:28.950066,-4.367568,-4.593313 HEAD_JOINT1:0.981101,0.157055,-0.000000,0.113022 LARM_JOINT2:0.818229,0.000000,0.004818,-0.574872 LARM_JOINT3:0.973382,0.000000,-0.163269,-0.160843 LLEG_JOINT2:0.997689,0.036586,0.000000,0.057251 LLEG_JOINT4:0.994621,0.098714,0.000000,-0.031391 RARM_JOINT2:0.817755,0.000000,0.076909,0.570405 RARM_JOINT3:0.905257,0.000000,0.421908,0.050044 RLEG_JOINT2:0.998014,-0.005985,-0.000000,-0.062702 RLEG_JOINT4:0.991147,0.127492,0.000000,0.037074 WAIST:0.999856,0.000000,-0.016755,0.002872 WAIST_JOINT0:0.999692,0.000000,-0.008997,0.023111 WAIST_JOINT1:0.997725,0.067217,0.000000,-0.005190 END:
KINECT_DATA_Sensor  AnkleLeft:0.074321,0.712948,-0.116127,-0.687529 AnkleRight:0.077049,0.722150,0.096399,0.680640 ElbowLeft:-0.014042,0.895639,-0.182851,-0.405215 ElbowRight:-0.102741,0.773071,0.139840,0.610123 FootLeft:0.000000,0.000000,0.000000,0.000000 FootRight:0.000000,0.000000,0.000000,0.000000 HandLeft:-0.066739,0.777112,0.017040,0.625582 HandRight:-0.460703,0.878780,-0.037928,0.118571 HandTipLeft:0.000000,0.000000,0.000000,0.000000 HandTipRight:0.000000,0.000000,0.000000,0.000000 Head:0.000000,0.000000,0.000000,0.000000 HipLeft:0.126298,-0.676259,0.703882,-0.176842 HipRight:-0.107926,0.683045,0.703514,-0.163920 KneeLeft:-0.017611,0.718395,-0.068160,-0.692064 KneeRight:-0.045852,0.694102,0.038900,0.717361 Neck:0.007585,-0.000735,0.996559,-0.082538 ShoulderLeft:0.008254,0.777283,-0.625031,0.071414 ShoulderRight:0.018535,0.800759,0.596046,-0.056302 SpineBase:0.016319,-0.003089,0.998900,-0.043860 SpineMid:0.011914,-0.002895,0.998962,-0.043873 SpineShoulder:0.007604,-0.000550,0.998023,-0.062388 ThumbLeft:0.000000,0.000000,0.000000,0.000000 ThumbRight:0.000000,0.000000,0.000000,0.000000 WristLeft:-0.073301,0.782860,-0.080443,0.612606 WristRight:-0.387119,0.912299,-0.017916,0.132395 END:
KINECT_DATA POSITION:28.936327,-4.369210,-4.554546 HEAD_JOINT1:0.980940,0.158756,-0.000000,0.112044 LARM_JOINT2:0.818750,0.000000,0.005858,-0.574121 LARM_JOINT3:0.973078,0.000000,-0.165037,-0.160879 LLEG_JOINT2:0.997842,0.034901,0.000000,0.055613 LLEG_JOINT4:0.994516,0.100810,0.000000,-0.027857 RARM_JOINT2:0.817769,0.000000,0.081651,0.569725 RARM_JOINT3:0.896256,0.000000,0.443377,0.011923 RLEG_JOINT2:0.997976,-0.003803,-0.000000,-0.063484 RLEG_JOINT4:0.991447,0.124952,0.000000,0.037688 WAIST:0.999864,0.000000,-0.016038,0.003765 WAIST_JOINT0:0.999689,0.000000,-0.006558,0.024071 WAIST_JOINT1:0.997810,0.065975,0.000000,-0.004772 END:
KINECT_DATA_Sensor  AnkleLeft:0.072640,0.711875,-0.118385,-0.688435 AnkleRight:0.075655,0.711964,0.096889,0.691373 ElbowLeft:-0.014174,0.897205,-0.184746,-0.400862 ElbowRight:-0.111762,0.747740,0.131175,0.641239 FootLeft:0.000000,0.000000,0.000000,0.000000 FootRight:0.000000,0.000000,0.000000,0.000000 HandLeft:-0.068790,0.761534,-0.000637,0.644463 HandRight:-0.488421,0.854770,-0.038275,0.171311 HandTipLeft:0.000000,0.000000,0.000000,0.000000 HandTipRight:0.000000,0.000000,0.000000,0.000000 Head:0.000000,0.000000,0.000000,0.000000 HipLeft:0.125830,-0.675919,0.704511,-0.175965 HipRight:-0.109085,0.683881,0.702706,-0.163131 KneeLeft:-0.018203,0.717852,-0.066450,-0.692778 KneeRight:-0.044227,0.694633,0.040314,0.716871 Neck:0.005095,0.000362,0.996662,-0.081484 ShoulderLeft:0.007574,0.775899,-0.626937,0.069816 ShoulderRight:0.014610,0.800845,0.595831,-0.058475 SpineBase:0.015615,-0.001298,0.998956,-0.042905 SpineMid:0.010380,-0.001074,0.999024,-0.042911 SpineShoulder:0.005163,0.000870,0.998121,-0.061056 ThumbLeft:0.000000,0.000000,0.000000,0.000000 ThumbRight:0.000000,0.000000,0.000000,0.000000 WristLeft:-0.071123,0.765939,-0.081877,0.633700 WristRight:-0.423987,0.886775,-0.027574,0.181948 END:
KINECT_DATA POSITION:28.933027,-4.366574,-4.548728 HEAD_JOINT1:0.980692,0.158120,-0.000000,0.115072 LARM_JOINT2:0.819445,0.000000,0.005497,-0.573131 LARM_JOINT3:0.971929,0.000000,-0.171400,-0.161171 LLEG_JOINT2:0.997819,0.036395,0.000000,0.055066 LLEG_JOINT4:0.994466,0.101151,0.000000,-0.028396 RARM_JOINT2:0.817766,0.000000,0.082327,0.569633 RARM_JOINT3:0.886013,0.000000,0.463639,-0.004428 RLEG_JOINT2:0.997867,-0.003989,-0.000000,-0.065157 RLEG_JOINT4:0.991415,0.124903,0.000000,0.038670 WAIST:0.999865,0.000000,-0.015890,0.004090 WAIST_JOINT0:0.999687,0.000000,-0.006940,0.024048 WAIST_JOINT1:0.997834,0.065594,0.000000,-0.005066 END:
KINECT_DATA_Sensor  AnkleLeft:0.074518,0.711765,-0.119117,-0.688221 AnkleRight:0.076924,0.724053,0.095666,0.678733 ElbowLeft:-0.014976,0.897690,-0.185568,-0.399366 ElbowRight:-0.115348,0.733463,0.128025,0.657523 FootLeft:0.000000,0.000000,0.000000,0.000000 FootRight:0.000000,0.000000,0.000000,0.000000 HandLeft:-0.088876,0.787955,-0.014083,0.609122 HandRight:-0.509446,0.837717,-0.056610,0.188387 HandTipLeft:0.000000,0.000000,0.000000,0.000000 HandTipRight:0.000000,0.000000,0.000000,0.000000 Head:0.000000,0.000000,0.000000,0.000000 HipLeft:0.125827,-0.675739,0.704756,-0.175681 HipRight:-0.109436,0.684131,0.702472,-0.162853 KneeLeft:-0.016982,0.717769,-0.067373,-0.692806 KneeRight:-0.045303,0.694656,0.041150,0.716734 Neck:0.005543,0.000229,0.996682,-0.081202 ShoulderLeft:0.006276,0.775632,-0.627207,0.070480 ShoulderRight:0.013870,0.800528,0.596280,-0.058421 SpineBase:0.015464,-0.000835,0.998974,-0.042556 SpineMid:0.010548,-0.000625,0.999038,-0.042559 SpineShoulder:0.005623,0.000872,0.998143,-0.060648 ThumbLeft:0.000000,0.000000,0.000000,0.000000 ThumbRight:0.000000,0.000000,0.000000,0.000000 WristLeft:-0.075308,0.792638,-0.079181,0.599819 WristRight:-0.449084,0.868779,-0.036024,0.205543 END:
KINECT_DATA POSITION:28.928141,-4.367252,-4.533231 HEAD_JOINT1:0.980376,0.158845,-0.000000,0.116752 LARM_JOINT2:0.819685,0.000000,0.003907,-0.572801 LARM_JOINT3:0.971029,0.000000,-0.174101,-0.163680 LLEG_JOINT2:0.997801,0.037553,0.000000,0.054619 LLEG_JOINT4:0.994546,0.101296,0.000000,-0.024850 RARM_JOINT2:0.817864,0.000000,0.083441,0.569330 RARM_JOINT3:0.882996,0.000000,0.469025,-0.018285 RLEG_JOINT2:0.997870,-0.004469,-0.000000,-0.065079 RLEG_JOINT4:0.991230,0.126865,0.000000,0.036981 WAIST:0.999855,0.000000,-0.016476,0.004320 WAIST_JOINT0:0.999689,0.000000,-0.007737,0.023726 WAIST_JOINT1:0.997834,0.065556,0.000000,-0.005516 END:
KINECT_DATA_Sensor  AnkleLeft:0.073062,0.712432,-0.122378,-0.687114 AnkleRight:0.078277,0.730849,0.096780,0.671093 ElbowLeft:-0.016030,0.898736,-0.185161,-0.397155 ElbowRight:-0.117570,0.726298,0.126560,0.665320 FootLeft:0.000000,0.000000,0.000000,0.000000 FootRight:0.000000,0.000000,0.000000,0.000000 HandLeft:-0.103652,0.779537,-0.013285,0.617578 HandRight:-0.514554,0.848121,0.008666,0.125897 HandTipLeft:0.000000,0.000000,0.000000,0.000000 HandTipRight:0.000000,0.000000,0.000000,0.000000 Head:0.000000,0.000000,0.000000,0.000000 HipLeft:0.126248,-0.675556,0.704836,-0.175760 HipRight:-0.109119,0.684397,0.702384,-0.162332 KneeLeft:-0.016051,0.718184,-0.068048,-0.692331 KneeRight:-0.045406,0.694243,0.040625,0.717157 Neck:0.006415,0.000008,0.996675,-0.081226 ShoulderLeft:0.005146,0.775669,-0.627052,0.071533 ShoulderRight:0.013845,0.800170,0.596789,-0.058133 SpineBase:0.016030,-0.000824,0.998974,-0.042342 SpineMid:0.011272,-0.000623,0.999039,-0.042345 SpineShoulder:0.006495,0.000676,0.998140,-0.060607 ThumbLeft:0.000000,0.000000,0.000000,0.000000 ThumbRight:0.000000,0.000000,0.000000,0.000000 WristLeft:-0.076037,0.786898,-0.079767,0.607163 WristRight:-0.464501,0.876134,0.006091,0.128801 END:
KINECT_DATA POSITION:28.939596,-4.367833,-4.502559 HEAD_JOINT1:0.979982,0.160245,-0.000000,0.118143 LARM_JOINT2:0.819810,0.000000,0.002354,-0.572631 LARM_JOINT3:0.971627,0.000000,-0.171519,-0.162856 LLEG_JOINT2:0.997783,0.038872,0.000000,0.054017 LLEG_JOINT4:0.994494,0.100295,0.000000,-0.030383 RARM_JOINT2:0.817790,0.000000,0.107310,0.565424 RARM_JOINT3:0.881112,0.000000,0.470428,-0.048365 RLEG_JOINT2:0.997736,-0.007038,-0.000000,-0.066888 RLEG_JOINT4:0.990885,0.128351,0.000000,0.040897 WAIST:0.999845,0.000000,-0.016967,0.004611 WAIST_JOINT0:0.999688,0.000000,-0.008639,0.023455 WAIST_JOINT1:0.997821,0.065713,0.000000,-0.005955 END:
KINECT_DATA_Sensor  AnkleLeft:0.077293,0.712241,-0.118604,-0.687511 AnkleRight:0.076788,0.714207,0.096072,0.689044 ElbowLeft:-0.016831,0.899702,-0.184740,-0.395125 ElbowRight:-0.134285,0.716223,0.111809,0.675641 FootLeft:0.000000,0.000000,0.000000,0.000000 FootRight:0.000000,0.000000,0.000000,0.000000 HandLeft:-0.094899,0.744623,-0.015840,0.660515 HandRight:-0.531955,0.837480,0.020789,0.123361 HandTipLeft:0.000000,0.000000,0.000000,0.000000 HandTipRight:0.000000,0.000000,0.000000,0.000000 Head:0.000000,0.000000,0.000000,0.000000 HipLeft:0.126418,-0.675274,0.705075,-0.175764 HipRight:-0.108775,0.684636,0.702335,-0.161764 KneeLeft:-0.014933,0.718535,-0.068775,-0.691921 KneeRight:-0.048290,0.693703,0.039953,0.717529 Neck:0.007338,-0.000205,0.996644,-0.081528 ShoulderLeft:0.004436,0.775630,-0.626997,0.072487 ShoulderRight:0.014326,0.799870,0.597226,-0.057651 SpineBase:0.016507,-0.000609,0.998972,-0.042204 SpineMid:0.011985,-0.000418,0.999037,-0.042207 SpineShoulder:0.007425,0.000557,0.998126,-0.060731 ThumbLeft:0.000000,0.000000,0.000000,0.000000 ThumbRight:0.000000,0.000000,0.000000,0.000000 WristLeft:-0.071736,0.751838,-0.083759,0.650060 WristRight:-0.490824,0.862445,0.013443,0.122886 END:
KINECT_DATA POSITION:28.937590,-4.377801,-4.431546 HEAD_JOINT1:0.979657,0.161604,-0.000000,0.118982 LARM_JOINT2:0.819923,0.000000,0.002841,-0.572466 LARM_JOINT3:0.972129,0.000000,-0.168344,-0.163172 LLEG_JOINT2:0.997886,0.036660,0.000000,0.053670 LLEG_JOINT4:0.994156,0.104276,0.000000,-0.027927 RARM_JOINT2:0.817733,0.000000,0.113324,0.564332 RARM_JOINT3:0.877454,0.000000,0.476395,-0.055873 RLEG_JOINT2:0.997786,-0.005330,-0.000000,-0.066291 RLEG_JOINT4:0.991165,0.127388,0.000000,0.036940 WAIST:0.999828,0.000000,-0.017919,0.004819 WAIST_JOINT0:0.999684,0.000000,-0.009324,0.023361 WAIST_JOINT1:0.997806,0.065890,0.000000,-0.006491 END:
KINECT_DATA_Sensor  AnkleLeft:0.076799,0.712674,-0.121543,-0.686604 AnkleRight:0.074548,0.707962,0.099463,0.695226 ElbowLeft:-0.016555,0.899793,-0.184856,-0.394876 ElbowRight:-0.139258,0.707688,0.107296,0.684304 FootLeft:0.000000,0.000000,0.000000,0.000000 FootRight:0.000000,0.000000,0.000000,0.000000 HandLeft:-0.085152,0.809383,0.001422,0.581073 HandRight:-0.520625,0.843365,0.000485,0.132984 HandTipLeft:0.000000,0.000000,0.000000,0.000000 HandTipRight:0.000000,0.000000,0.000000,0.000000 Head:0.000000,0.000000,0.000000,0.000000 HipLeft:0.126770,-0.675002,0.705209,-0.176015 HipRight:-0.108107,0.684890,0.702380,-0.160938 KneeLeft:-0.016442,0.719151,-0.067079,-0.691413 KneeRight:-0.046454,0.693140,0.040616,0.718157 Neck:0.008007,-0.000494,0.996609,-0.081890 ShoulderLeft:0.004461,0.775466,-0.627156,0.072847 ShoulderRight:0.015237,0.799620,0.597604,-0.056966 SpineBase:0.017448,-0.000412,0.998960,-0.042112 SpineMid:0.012806,-0.000216,0.999031,-0.042113 SpineShoulder:0.008096,0.000328,0.998113,-0.060871 ThumbLeft:0.000000,0.000000,0.000000,0.000000 ThumbRight:0.000000,0.000000,0.000000,0.000000 WristLeft:-0.079454,0.814000,-0.075832,0.570387 WristRight:-0.510110,0.848925,0.007138,0.138068 END:
KINECT_DATA POSITION:28.929674,-4.393524,-4.364252 HEAD_JOINT1:0.979270,0.163539,-0.000000,0.119521 LARM_JOINT2:0.819797,0.000000,0.002433,-0.572649 LARM_JOINT3:0.972152,0.000000,-0.166659,-0.164759 LLEG_JOINT2:0.997827,0.038953,0.000000,0.053131 LLEG_JOINT4:0.994814,0.096731,0.000000,-0.031441 RARM_JOINT2:0.817690,0.000000,0.114078,0.564242 RARM_JOINT3:0.872325,0.000000,0.485342,-0.059089 RLEG_JOINT2:0.997758,-0.004259,-0.000000,-0.066793 RLEG_JOINT4:0.990714,0.129902,0.000000,0.040138 WAIST:0.999827,0.000000,-0.017911,0.004938 WAIST_JOINT0:0.999680,0.000000,-0.009330,0.023500 WAIST_JOINT1:0.997799,0.065987,0.000000,-0.006620 END:
KINECT_DATA_Sensor  AnkleLeft:0.075812,0.712855,-0.115158,-0.687625 AnkleRight:0.081626,0.725086,0.097688,0.676790 ElbowLeft:-0.016350,0.900512,-0.184573,-0.393375 ElbowRight:-0.139969,0.705436,0.106430,0.686615 FootLeft:0.000000,0.000000,0.000000,0.000000 FootRight:0.000000,0.000000,0.000000,0.000000 HandLeft:-0.083239,0.765381,0.002286,0.638168 HandRight:-0.532837,0.837011,-0.005767,0.124358 HandTipLeft:0.000000,0.000000,0.000000,0.000000 HandTipRight:0.000000,0.000000,0.000000,0.000000 Head:0.000000,0.000000,0.000000,0.000000 HipLeft:0.126655,-0.674967,0.705328,-0.175755 HipRight:-0.108095,0.685025,0.702325,-0.160609 KneeLeft:-0.014534,0.719183,-0.068436,-0.691289 KneeRight:-0.045947,0.693168,0.041639,0.718104 Neck:0.008018,-0.000495,0.996590,-0.082125 ShoulderLeft:0.004347,0.774998,-0.627710,0.073066 ShoulderRight:0.015143,0.799317,0.597994,-0.057148 SpineBase:0.017442,-0.000201,0.998969,-0.041925 SpineMid:0.012817,-0.000007,0.999039,-0.041925 SpineShoulder:0.008106,0.000314,0.998109,-0.060926 ThumbLeft:0.000000,0.000000,0.000000,0.000000 ThumbRight:0.000000,0.000000,0.000000,0.000000 WristLeft:-0.074255,0.771962,-0.080414,0.626175 WristRight:-0.518472,0.844451,0.007850,0.134269 END:
KINECT_DATA POSITION:28.925346,-4.402967,-4.341769 HEAD_JOINT1:0.979054,0.164553,-0.000000,0.119900 LARM_JOINT2:0.819817,0.000000,0.001908,-0.572623 LARM_JOINT3:0.972515,0.000000,-0.164370,-0.164916 LLEG_JOINT2:0.997873,0.038616,0.000000,0.052517 LLEG_JOINT4:0.994951,0.096684,0.000000,-0.026914 RARM_JOINT2:0.817567,0.000000,0.113726,0.564491 RARM_JOINT3:0.866287,0.000000,0.496225,-0.057512 RLEG_JOINT2:0.997721,-0.005084,-0.000000,-0.067277 RLEG_JOINT4:0.990929,0.128313,0.000000,0.039940 WAIST:0.999840,0.000000,-0.017148,0.005093 WAIST_JOINT0:0.999679,0.000000,-0.009598,0.023467 WAIST_JOINT1:0.997774,0.066346,0.000000,-0.006750 END:
KINECT_DATA_Sensor  AnkleLeft:0.075540,0.728755,-0.115900,-0.670654 AnkleRight:0.078922,0.722711,0.096961,0.679749 ElbowLeft:-0.016016,0.900846,-0.184624,-0.392598 ElbowRight:-0.139595,0.704736,0.106334,0.687425 FootLeft:0.000000,0.000000,0.000000,0.000000 FootRight:0.000000,0.000000,0.000000,0.000000 HandLeft:-0.076952,0.774949,0.007576,0.627276 HandRight:-0.539401,0.838110,-0.002012,0.081330 HandTipLeft:0.000000,0.000000,0.000000,0.000000 HandTipRight:0.000000,0.000000,0.000000,0.000000 Head:0.000000,0.000000,0.000000,0.000000 HipLeft:0.125913,-0.674938,0.705564,-0.175456 HipRight:-0.108302,0.685016,0.702184,-0.161125 KneeLeft:-0.014391,0.718645,-0.067885,-0.691906 KneeRight:-0.046803,0.693662,0.041264,0.717593 Neck:0.008240,-0.000638,0.996554,-0.082528 ShoulderLeft:0.004903,0.774787,-0.627958,0.073147 ShoulderRight:0.016016,0.799113,0.598270,-0.056876 SpineBase:0.016670,-0.000045,0.998970,-0.042209 SpineMid:0.012547,0.000129,0.999030,-0.042209 SpineShoulder:0.008334,0.000251,0.998087,-0.061268 ThumbLeft:0.000000,0.000000,0.000000,0.000000 ThumbRight:0.000000,0.000000,0.000000,0.000000 WristLeft:-0.074836,0.780763,-0.078900,0.615292 WristRight:-0.526787,0.843774,0.024963,0.099584 END:
KINECT_DATA POSITION:28.911949,-4.406213,-4.351723 HEAD_JOINT1:0.979098,0.164463,-0.000000,0.119665 LARM_JOINT2:0.819549,0.000000,0.002547,-0.573003 LARM_JOINT3:0.973001,0.000000,-0.162686,-0.163712 LLEG_JOINT2:0.997819,0.040608,0.000000,0.052050 LLEG_JOINT4:0.995022,0.096150,0.000000,-0.026211 RARM_JOINT2:0.817469,0.000000,0.109743,0.565421 RARM_JOINT3:0.864896,0.000000,0.498805,-0.056108 RLEG_JOINT2:0.997797,-0.002976,-0.000000,-0.066274 RLEG_JOINT4:0.991272,0.126403,0.000000,0.037442 WAIST:0.999839,0.000000,-0.017176,0.005176 WAIST_JOINT0:0.999684,0.000000,-0.009233,0.023367 WAIST_JOINT1:0.997775,0.066308,0.000000,-0.006987 END:
KINECT_DATA_Sensor  AnkleLeft:0.073654,0.713136,-0.118855,-0.686939 AnkleRight:0.076896,0.714205,0.099143,0.688600 ElbowLeft:-0.015106,0.901328,-0.184312,-0.391673 ElbowRight:-0.137098,0.704779,0.108564,0.687535 FootLeft:0.000000,0.000000,0.000000,0.000000 FootRight:0.000000,0.000000,0.000000,0.000000 HandLeft:-0.069991,0.793385,0.008174,0.604628 HandRight:-0.527415,0.841718,-0.011707,0.114921 HandTipLeft:0.000000,0.000000,0.000000,0.000000 HandTipRight:0.000000,0.000000,0.000000,0.000000 Head:0.000000,0.000000,0.000000,0.000000 HipLeft:0.125756,-0.674924,0.705647,-0.175285 HipRight:-0.108079,0.685109,0.702165,-0.160959 KneeLeft:-0.012722,0.718691,-0.069048,-0.691776 KneeRight:-0.044524,0.693795,0.041956,0.717569 Neck:0.007873,-0.000760,0.996562,-0.082472 ShoulderLeft:0.005530,0.774675,-0.628158,0.072561 ShoulderRight:0.016189,0.798852,0.598612,-0.056895 SpineBase:0.016691,-0.000075,0.998969,-0.042214 SpineMid:0.012376,0.000107,0.999032,-0.042214 SpineShoulder:0.007963,0.000121,0.998091,-0.061244 ThumbLeft:0.000000,0.000000,0.000000,0.000000 ThumbRight:0.000000,0.000000,0.000000,0.000000 WristLeft:-0.076282,0.797267,-0.075708,0.593982 WristRight:-0.530702,0.838213,0.006008,0.125375 END:
KINECT_DATA POSITION:28.910053,-4.406897,-4.357839 HEAD_JOINT1:0.979090,0.165068,-0.000000,0.118893 LARM_JOINT2:0.819326,0.000000,0.003578,-0.573317 LARM_JOINT3:0.972605,0.000000,-0.164366,-0.164388 LLEG_JOINT2:0.997801,0.040606,0.000000,0.052388 LLEG_JOINT4:0.995148,0.095023,0.000000,-0.025506 RARM_JOINT2:0.817313,0.000000,0.108355,0.565915 RARM_JOINT3:0.863434,0.000000,0.501351,-0.055941 RLEG_JOINT2:0.997728,-0.003858,-0.000000,-0.067259 RLEG_JOINT4:0.991085,0.126864,0.000000,0.040682 WAIST:0.999838,0.000000,-0.017244,0.005154 WAIST_JOINT0:0.999688,0.000000,-0.009184,0.023216 WAIST_JOINT1:0.997787,0.066147,0.000000,-0.006818 END:
KINECT_DATA_Sensor  AnkleLeft:0.072139,0.713381,-0.118772,-0.686861 AnkleRight:0.076506,0.703002,0.098418,0.700178 ElbowLeft:-0.014793,0.900461,-0.184376,-0.393646 ElbowRight:-0.136124,0.704213,0.108859,0.688262 FootLeft:0.000000,0.000000,0.000000,0.000000 FootRight:0.000000,0.000000,0.000000,0.000000 HandLeft:-0.078595,0.777596,0.007025,0.623794 HandRight:-0.526873,0.837144,-0.030133,0.143828 HandTipLeft:0.000000,0.000000,0.000000,0.000000 HandTipRight:0.000000,0.000000,0.000000,0.000000 Head:0.000000,0.000000,0.000000,0.000000 HipLeft:0.125773,-0.674959,0.705620,-0.175246 HipRight:-0.108081,0.685148,0.702170,-0.160774 KneeLeft:-0.012953,0.718735,-0.069267,-0.691704 KneeRight:-0.045858,0.693652,0.042068,0.717617 Neck:0.007824,-0.000573,0.996577,-0.082292 ShoulderLeft:0.005646,0.774424,-0.628497,0.072306 ShoulderRight:0.016231,0.798536,0.599045,-0.056759 SpineBase:0.016765,0.000039,0.998972,-0.042111 SpineMid:0.012389,0.000223,0.999036,-0.042111 SpineShoulder:0.007913,0.000268,0.998101,-0.061084 ThumbLeft:0.000000,0.000000,0.000000,0.000000 ThumbRight:0.000000,0.000000,0.000000,0.000000 WristLeft:-0.073729,0.783560,-0.077905,0.611988 WristRight:-0.532568,0.832203,-0.012816,0.153770 END:
KINECT_DATA POSITION:28.905886,-4.402052,-4.396641 HEAD_JOINT1:0.979163,0.165320,-0.000000,0.117933 LARM_JOINT2:0.818972,0.000000,0.004971,-0.573811 LARM_JOINT3:0.973091,0.000000,-0.162736,-0.163129 LLEG_JOINT2:0.997800,0.040373,0.000000,0.052583 LLEG_JOINT4:0.994927,0.097027,0.000000,-0.026591 RARM_JOINT2:0.817077,0.000000,0.107394,0.566438 RARM_JOINT3:0.862550,0.000000,0.502766,-0.056871 RLEG_JOINT2:0.997788,-0.003777,-0.000000,-0.066361 RLEG_JOINT4:0.991513,0.124662,0.000000,0.036890 WAIST:0.999835,0.000000,-0.017396,0.005143 WAIST_JOINT0:0.999695,0.000000,-0.008896,0.023040 WAIST_JOINT1:0.997798,0.065997,0.000000,-0.006633 END:
KINECT_DATA_Sensor  AnkleLeft:0.076995,0.730331,-0.117490,-0.668494 AnkleRight:0.076054,0.724786,0.096809,0.677886 ElbowLeft:-0.014361,0.899128,-0.184385,-0.396692 ElbowRight:-0.135200,0.704115,0.108925,0.688534 FootLeft:0.000000,0.000000,0.000000,0.000000 FootRight:0.000000,0.000000,0.000000,0.000000 HandLeft:-0.068553,0.785427,0.011059,0.615047 HandRight:-0.528571,0.837939,-0.019048,0.134567 HandTipLeft:0.000000,0.000000,0.000000,0.000000 HandTipRight:0.000000,0.000000,0.000000,0.000000 Head:0.000000,0.000000,0.000000,0.000000 HipLeft:0.125759,-0.674979,0.705601,-0.175254 HipRight:-0.108040,0.685227,0.702170,-0.160464 KneeLeft:-0.013258,0.718837,-0.069225,-0.691596 KneeRight:-0.045178,0.693568,0.041492,0.717775 Neck:0.007518,-0.000353,0.996593,-0.082130 ShoulderLeft:0.006358,0.773987,-0.629112,0.071563 ShoulderRight:0.016554,0.798014,0.599751,-0.056557 SpineBase:0.016931,0.000313,0.998974,-0.042004 SpineMid:0.012327,0.000507,0.999041,-0.042002 SpineShoulder:0.007610,0.000474,0.998113,-0.060932 ThumbLeft:0.000000,0.000000,0.000000,0.000000 ThumbRight:0.000000,0.000000,0.000000,0.000000 WristLeft:-0.074350,0.790029,-0.077730,0.603560 WristRight:-0.533788,0.833602,-0.006174,0.141915 END:
KINECT_DATA POSITION:28.906097,-4.403122,-4.408884 HEAD_JOINT1:0.979087,0.165889,-0.000000,0.117769 LARM_JOINT2:0.819308,0.000000,0.005863,-0.573324 LARM_JOINT3:0.972306,0.000000,-0.167462,-0.163027 LLEG_JOINT2:0.997817,0.040166,0.000000,0.052424 LLEG_JOINT4:0.994967,0.096759,0.000000,-0.026040 RARM_JOINT2:0.817181,0.000000,0.106248,0.566504 RARM_JOINT3:0.862212,0.000000,0.503461,-0.055832 RLEG_JOINT2:0.997754,-0.003599,-0.000000,-0.066882 RLEG_JOINT4:0.991537,0.123794,0.000000,0.039108 WAIST:0.999837,0.000000,-0.017296,0.005177 WAIST_JOINT0:0.999699,0.000000,-0.008639,0.022983 WAIST_JOINT1:0.997839,0.065371,0.000000,-0.006631 END:
KINECT_DATA_Sensor  AnkleLeft:0.073325,0.712889,-0.119389,-0.687138 AnkleRight:0.076625,0.724797,0.095069,0.678056 ElbowLeft:-0.014159,0.899707,-0.185020,-0.395089 ElbowRight:-0.135095,0.703881,0.109194,0.688750 FootLeft:0.000000,0.000000,0.000000,0.000000 FootRight:0.000000,0.000000,0.000000,0.000000 HandLeft:-0.083037,0.780737,-0.003732,0.619306 HandRight:-0.526352,0.838475,-0.022743,0.139267 HandTipLeft:0.000000,0.000000,0.000000,0.000000 HandTipRight:0.000000,0.000000,0.000000,0.000000 Head:0.000000,0.000000,0.000000,0.000000 HipLeft:0.125827,-0.675030,0.705613,-0.174964 HipRight:-0.108286,0.685307,0.702109,-0.160222 KneeLeft:-0.013306,0.718769,-0.068991,-0.691689 KneeRight:-0.045392,0.693615,0.041962,0.717689 Neck:0.007308,-0.000351,0.996654,-0.081412 ShoulderLeft:0.006053,0.773735,-0.629482,0.071060 ShoulderRight:0.015967,0.797670,0.600238,-0.056420 SpineBase:0.016839,0.000442,0.998990,-0.041668 SpineMid:0.012180,0.000636,0.999057,-0.041666 SpineShoulder:0.007401,0.000500,0.998151,-0.060336 ThumbLeft:0.000000,0.000000,0.000000,0.000000 ThumbRight:0.000000,0.000000,0.000000,0.000000 WristLeft:-0.073896,0.785899,-0.077781,0.608976 WristRight:-0.534693,0.832188,-0.009401,0.146552 END:
KINECT_DATA POSITION:28.896919,-4.406021,-4.442060 HEAD_JOINT1:0.979096,0.166286,-0.000000,0.117134 LARM_JOINT2:0.819720,0.000000,0.005818,-0.572735 LARM_JOINT3:0.972341,0.000000,-0.166164,-0.164141 LLEG_JOINT2:0.997810,0.040040,0.000000,0.052655 LLEG_JOINT4:0.995133,0.095247,0.000000,-0.025278 RARM_JOINT2:0.817493,0.000000,0.107918,0.565737 RARM_JOINT3:0.857557,0.000000,0.512598,-0.042886 RLEG_JOINT2:0.997831,-0.003320,-0.000000,-0.065749 RLEG_JOINT4:0.991598,0.123821,0.000000,0.037430 WAIST:0.999844,0.000000,-0.016875,0.005284 WAIST_JOINT0:0.999695,0.000000,-0.008642,0.023116 WAIST_JOINT1:0.997839,0.065374,0.000000,-0.006615 END:
KINECT_DATA_Sensor  AnkleLeft:0.071516,0.713206,-0.118929,-0.687080 AnkleRight:0.074161,0.708299,0.097493,0.695203 ElbowLeft:-0.014215,0.899995,-0.185771,-0.394076 ElbowRight:-0.136048,0.706998,0.109032,0.685389 FootLeft:0.000000,0.000000,0.000000,0.000000 FootRight:0.000000,0.000000,0.000000,0.000000 HandLeft:-0.078134,0.773784,-0.001611,0.628611 HandRight:-0.537337,0.828760,-0.080024,0.134245 HandTipLeft:0.000000,0.000000,0.000000,0.000000 HandTipRight:0.000000,0.000000,0.000000,0.000000 Head:0.000000,0.000000,0.000000,0.000000 HipLeft:0.125560,-0.675030,0.705737,-0.174655 HipRight:-0.108614,0.685350,0.701992,-0.160329 KneeLeft:-0.013607,0.718467,-0.069141,-0.691982 KneeRight:-0.044348,0.693978,0.041245,0.717445 Neck:0.007293,-0.000291,0.996651,-0.081442 ShoulderLeft:0.005756,0.773350,-0.629929,0.071318 ShoulderRight:0.015649,0.797543,0.600390,-0.056666 SpineBase:0.016419,0.000630,0.999001,-0.041563 SpineMid:0.011967,0.000815,0.999064,-0.041560 SpineShoulder:0.007389,0.000571,0.998151,-0.060324 ThumbLeft:0.000000,0.000000,0.000000,0.000000 ThumbRight:0.000000,0.000000,0.000000,0.000000 WristLeft:-0.073263,0.778741,-0.078620,0.618073 WristRight:-0.534620,0.827967,-0.027544,0.167013 END:
KINECT_DATA POSITION:28.880796,-4.405510,-4.458404 HEAD_JOINT1:0.978921,0.165987,-0.000000,0.119003 LARM_JOINT2:0.820132,0.000000,0.005301,-0.572149 LARM_JOINT3:0.972024,0.000000,-0.168472,-0.163665 LLEG_JOINT2:0.997836,0.039084,0.000000,0.052882 LLEG_JOINT4:0.994609,0.099833,0.000000,-0.028037 RARM_JOINT2:0.815421,0.000000,0.105314,0.569207 RARM_JOINT3:0.843088,0.000000,0.536431,-0.038008 RLEG_JOINT2:0.997802,-0.004006,-0.000000,-0.066151 RLEG_JOINT4:0.991334,0.125826,0.000000,0.037739 WAIST:0.999850,0.000000,-0.016430,0.005448 WAIST_JOINT0:0.999682,0.000000,-0.009166,0.023486 WAIST_JOINT1:0.997821,0.065649,0.000000,-0.006600 END:
KINECT_DATA_Sensor  AnkleLeft:0.078310,0.726648,-0.118162,-0.672227 AnkleRight:0.076656,0.718975,0.097182,0.683926 ElbowLeft:-0.014614,0.899830,-0.186501,-0.394094 ElbowRight:-0.130842,0.711775,0.108899,0.681467 FootLeft:0.000000,0.000000,0.000000,0.000000 FootRight:0.000000,0.000000,0.000000,0.000000 HandLeft:-0.085302,0.813132,-0.003553,0.575784 HandRight:-0.561431,0.805708,-0.114998,0.149680 HandTipLeft:0.000000,0.000000,0.000000,0.000000 HandTipRight:0.000000,0.000000,0.000000,0.000000 Head:0.000000,0.000000,0.000000,0.000000 HipLeft:0.125159,-0.674966,0.705911,-0.174488 HipRight:-0.108786,0.685399,0.701849,-0.160628 KneeLeft:-0.014527,0.718132,-0.068734,-0.692352 KneeRight:-0.045026,0.694254,0.040918,0.717154 Neck:0.007806,-0.000189,0.996618,-0.081797 ShoulderLeft:0.006011,0.773024,-0.630295,0.071593 ShoulderRight:0.016579,0.797525,0.600441,-0.056116 SpineBase:0.015967,0.000782,0.999002,-0.041700 SpineMid:0.011996,0.000948,0.999058,-0.041697 SpineShoulder:0.007904,0.000660,0.998132,-0.060569 ThumbLeft:0.000000,0.000000,0.000000,0.000000 ThumbRight:0.000000,0.000000,0.000000,0.000000 WristLeft:-0.077663,0.817255,-0.074449,0.566145 WristRight:-0.545129,0.814960,-0.060278,0.187191 END:
KINECT_DATA POSITION:28.869709,-4.410216,-4.463625 HEAD_JOINT1:0.978743,0.165571,-0.000000,0.121034 LARM_JOINT2:0.821024,0.000000,0.004796,-0.570873 LARM_JOINT3:0.971134,0.000000,-0.170625,-0.166690 LLEG_JOINT2:0.997831,0.039282,0.000000,0.052818 LLEG_JOINT4:0.994614,0.099130,0.000000,-0.030259 RARM_JOINT2:0.812582,0.000000,0.102095,0.573836 RARM_JOINT3:0.837955,0.000000,0.544085,-0.042461 RLEG_JOINT2:0.997805,-0.003301,-0.000000,-0.066131 RLEG_JOINT4:0.991411,0.125312,0.000000,0.037438 WAIST:0.999853,0.000000,-0.016174,0.005625 WAIST_JOINT0:0.999669,0.000000,-0.010022,0.023686 WAIST_JOINT1:0.997799,0.065966,0.000000,-0.006708 END:
KINECT_DATA_Sensor  AnkleLeft:0.076202,0.707657,-0.118434,-0.692379 AnkleRight:0.075033,0.707424,0.098698,0.695830 ElbowLeft:-0.014571,0.901214,-0.187951,-0.390225 ElbowRight:-0.125265,0.710650,0.107224,0.683951 FootLeft:0.000000,0.000000,0.000000,0.000000 FootRight:0.000000,0.000000,0.000000,0.000000 HandLeft:-0.095176,0.751819,-0.013922,0.652315 HandRight:-0.565987,0.807229,-0.093689,0.138793 HandTipLeft:0.000000,0.000000,0.000000,0.000000 HandTipRight:0.000000,0.000000,0.000000,0.000000 Head:0.000000,0.000000,0.000000,0.000000 HipLeft:0.124927,-0.674869,0.706053,-0.174455 HipRight:-0.108831,0.685468,0.701708,-0.160918 KneeLeft:-0.014450,0.717944,-0.068959,-0.692526 KneeRight:-0.044390,0.694489,0.041258,0.716946 Neck:0.008686,-0.000212,0.996579,-0.082189 ShoulderLeft:0.005982,0.772861,-0.630424,0.072222 ShoulderRight:0.017700,0.797404,0.600639,-0.055367 SpineBase:0.015695,0.000808,0.998999,-0.041870 SpineMid:0.012297,0.000951,0.999047,-0.041867 SpineShoulder:0.008787,0.000646,0.998107,-0.060861 ThumbLeft:0.000000,0.000000,0.000000,0.000000 ThumbRight:0.000000,0.000000,0.000000,0.000000 WristLeft:-0.070225,0.759040,-0.080853,0.642175 WristRight:-0.553674,0.814053,-0.053004,0.167194 END:
KINECT_DATA POSITION:28.822718,-4.412064,-4.449522 HEAD_JOINT1:0.978194,0.166648,-0.000000,0.123959 LARM_JOINT2:0.821562,0.000000,0.004300,-0.570103 LARM_JOINT3:0.971113,0.000000,-0.171257,-0.166163 LLEG_JOINT2:0.997828,0.038915,0.000000,0.053144 LLEG_JOINT4:0.994887,0.097124,0.000000,-0.027675 RARM_JOINT2:0.810161,0.000000,0.098337,0.577901 RARM_JOINT3:0.833471,0.000000,0.550453,-0.048245 RLEG_JOINT2:0.997848,-0.003066,-0.000000,-0.065504 RLEG_JOINT4:0.991635,0.123892,0.000000,0.036201 WAIST:0.999856,0.000000,-0.016000,0.005680 WAIST_JOINT0:0.999658,0.000000,-0.011167,0.023639 WAIST_JOINT1:0.997773,0.066330,0.000000,-0.007017 END:
KINECT_DATA_Sensor  AnkleLeft:0.073546,0.714227,-0.118128,-0.685942 AnkleRight:0.075206,0.717972,0.097237,0.685131 ElbowLeft:-0.014758,0.901353,-0.188540,-0.389612 ElbowRight:-0.120336,0.707784,0.106361,0.687931 FootLeft:0.000000,0.000000,0.000000,0.000000 FootRight:0.000000,0.000000,0.000000,0.000000 HandLeft:-0.095226,0.823099,-0.006861,0.559815 HandRight:-0.569805,0.805894,-0.079823,0.139591 HandTipLeft:0.000000,0.000000,0.000000,0.000000 HandTipRight:0.000000,0.000000,0.000000,0.000000 Head:0.000000,0.000000,0.000000,0.000000 HipLeft:0.124739,-0.674813,0.706132,-0.174486 HipRight:-0.108735,0.685400,0.701697,-0.161322 KneeLeft:-0.014968,0.717807,-0.068964,-0.692657 KneeRight:-0.043751,0.694677,0.040926,0.716823 Neck:0.009850,-0.000581,0.996534,-0.082596 ShoulderLeft:0.005796,0.772876,-0.630305,0.073109 ShoulderRight:0.019039,0.797216,0.600933,-0.054438 SpineBase:0.015503,0.000560,0.998990,-0.042158 SpineMid:0.012776,0.000675,0.999029,-0.042156 SpineShoulder:0.009949,0.000307,0.998075,-0.061219 ThumbLeft:0.000000,0.000000,0.000000,0.000000 ThumbRight:0.000000,0.000000,0.000000,0.000000 WristLeft:-0.079294,0.827902,-0.072381,0.550502 WristRight:-0.559967,0.811229,-0.049995,0.160765 END:
KINECT_DATA POSITION:28.815218,-4.411105,-4.438949 HEAD_JOINT1:0.978135,0.166326,-0.000000,0.124847 LARM_JOINT2:0.821328,0.000000,0.004035,-0.570442 LARM_JOINT3:0.971590,0.000000,-0.168570,-0.166124 LLEG_JOINT2:0.997835,0.038892,0.000000,0.053037 LLEG_JOINT4:0.995079,0.094096,0.000000,-0.031038 RARM_JOINT2:0.809215,0.000000,0.097266,0.579406 RARM_JOINT3:0.833122,0.000000,0.551016,-0.047833 RLEG_JOINT2:0.997839,-0.003616,-0.000000,-0.065600 RLEG_JOINT4:0.991623,0.123885,0.000000,0.036549 WAIST:0.999851,0.000000,-0.016249,0.005877 WAIST_JOINT0:0.999651,0.000000,-0.011789,0.023635 WAIST_JOINT1:0.997748,0.066677,0.000000,-0.007258 END:
KINECT_DATA_Sensor  AnkleLeft:0.074453,0.719355,-0.113207,-0.681300 AnkleRight:0.076375,0.726809,0.095527,0.675863 ElbowLeft:-0.014712,0.901064,-0.188170,-0.390461 ElbowRight:-0.118450,0.706414,0.105942,0.689728 FootLeft:0.000000,0.000000,0.000000,0.000000 FootRight:0.000000,0.000000,0.000000,0.000000 HandLeft:-0.087976,0.789351,-0.004327,0.607590 HandRight:-0.564140,0.814347,-0.066232,0.119154 HandTipLeft:0.000000,0.000000,0.000000,0.000000 HandTipRight:0.000000,0.000000,0.000000,0.000000 Head:0.000000,0.000000,0.000000,0.000000 HipLeft:0.124841,-0.674598,0.706261,-0.174723 HipRight:-0.108509,0.685506,0.701626,-0.161335 KneeLeft:-0.015063,0.717964,-0.069009,-0.692487 KneeRight:-0.044064,0.694492,0.040485,0.717008 Neck:0.010450,-0.000659,0.996493,-0.083019 ShoulderLeft:0.005873,0.772752,-0.630396,0.073623 ShoulderRight:0.019907,0.797099,0.601099,-0.054007 SpineBase:0.015732,0.000572,0.998980,-0.042315 SpineMid:0.013192,0.000679,0.999017,-0.042313 SpineShoulder:0.010554,0.000272,0.998048,-0.061548 ThumbLeft:0.000000,0.000000,0.000000,0.000000 ThumbRight:0.000000,0.000000,0.000000,0.000000 WristLeft:-0.074268,0.794915,-0.077024,0.597212 WristRight:-0.562968,0.813760,-0.035383,0.140036 END:
KINECT_DATA POSITION:28.798576,-4.411012,-4.421937 HEAD_JOINT1:0.978109,0.166591,-0.000000,0.124697 LARM_JOINT2:0.820940,0.000000,0.003378,-0.571005 LARM_JOINT3:0.971831,0.000000,-0.167521,-0.165777 LLEG_JOINT2:0.997869,0.037950,0.000000,0.053083 LLEG_JOINT4:0.995014,0.096809,0.000000,-0.023999 RARM_JOINT2:0.807943,0.000000,0.096041,0.581381 RARM_JOINT3:0.830748,0.000000,0.554711,-0.046405 RLEG_JOINT2:0.997879,-0.002958,-0.000000,-0.065033 RLEG_JOINT4:0.991910,0.122089,0.000000,0.034772 WAIST:0.999849,0.000000,-0.016326,0.005988 WAIST_JOINT0:0.999652,0.000000,-0.012117,0.023425 WAIST_JOINT1:0.997713,0.067160,0.000000,-0.007574 END:
KINECT_DATA_Sensor  AnkleLeft:0.069969,0.715343,-0.119936,-0.684838 AnkleRight:0.071955,0.706792,0.097785,0.696926 ElbowLeft:-0.014737,0.900545,-0.187327,-0.392058 ElbowRight:-0.115990,0.705883,0.105551,0.690749 FootLeft:0.000000,0.000000,0.000000,0.000000 FootRight:0.000000,0.000000,0.000000,0.000000 HandLeft:-0.085300,0.795675,0.001958,0.599684 HandRight:-0.558506,0.806542,-0.103468,0.163879 HandTipLeft:0.000000,0.000000,0.000000,0.000000 HandTipRight:0.000000,0.000000,0.000000,0.000000 Head:0.000000,0.000000,0.000000,0.000000 HipLeft:0.124695,-0.674458,0.706359,-0.174971 HipRight:-0.108239,0.685522,0.701597,-0.161573 KneeLeft:-0.015841,0.717993,-0.068443,-0.692496 KneeRight:-0.043113,0.694509,0.040463,0.717050 Neck:0.010705,-0.000922,0.996447,-0.083534 ShoulderLeft:0.006878,0.772711,-0.630449,0.073510 ShoulderRight:0.021286,0.796885,0.601380,-0.053511 SpineBase:0.015793,0.000522,0.998964,-0.042671 SpineMid:0.013355,0.000626,0.999000,-0.042670 SpineShoulder:0.010812,0.000088,0.998016,-0.062029 ThumbLeft:0.000000,0.000000,0.000000,0.000000 ThumbRight:0.000000,0.000000,0.000000,0.000000 WristLeft:-0.075186,0.801260,-0.076416,0.588634 WristRight:-0.562156,0.802771,-0.069288,0.186384 END:
KINECT_DATA POSITION:28.799307,-4.419640,-4.388177 HEAD_JOINT1:0.978389,0.165267,-0.000000,0.124266 LARM_JOINT2:0.820407,0.000000,0.002727,-0.571773 LARM_JOINT3:0.972257,0.000000,-0.166127,-0.164679 LLEG_JOINT2:0.997861,0.038568,0.000000,0.052775 LLEG_JOINT4:0.994902,0.097639,0.000000,-0.025224 RARM_JOINT2:0.806915,0.000000,0.095354,0.582920 RARM_JOINT3:0.830859,0.000000,0.554244,-0.049868 RLEG_JOINT2:0.997869,-0.002586,-0.000000,-0.065204 RLEG_JOINT4:0.991852,0.122343,0.000000,0.035516 WAIST:0.999853,0.000000,-0.016074,0.005946 WAIST_JOINT0:0.999654,0.000000,-0.012362,0.023222 WAIST_JOINT1:0.997683,0.067610,0.000000,-0.007545 END:
KINECT_DATA_Sensor  AnkleLeft:0.072145,0.715095,-0.119817,-0.684892 AnkleRight:0.072703,0.706566,0.097861,0.697067 ElbowLeft:-0.014720,0.899856,-0.186424,-0.394068 ElbowRight:-0.114130,0.705345,0.104908,0.691706 FootLeft:0.000000,0.000000,0.000000,0.000000 FootRight:0.000000,0.000000,0.000000,0.000000 HandLeft:-0.082143,0.791572,0.005086,0.605509 HandRight:-0.559799,0.812016,-0.078900,0.145016 HandTipLeft:0.000000,0.000000,0.000000,0.000000 HandTipRight:0.000000,0.000000,0.000000,0.000000 Head:0.000000,0.000000,0.000000,0.000000 HipLeft:0.124245,-0.674439,0.706425,-0.175097 HipRight:-0.108181,0.685385,0.701649,-0.161970 KneeLeft:-0.015141,0.717832,-0.068644,-0.692659 KneeRight:-0.043005,0.694693,0.040863,0.716856 Neck:0.010870,-0.000999,0.996408,-0.083971 ShoulderLeft:0.008279,0.772492,-0.630754,0.073055 ShoulderRight:0.022945,0.796513,0.601871,-0.052840 SpineBase:0.015543,0.000600,0.998951,-0.043077 SpineMid:0.013316,0.000696,0.998983,-0.043075 SpineShoulder:0.010981,0.000048,0.997986,-0.062481 ThumbLeft:0.000000,0.000000,0.000000,0.000000 ThumbRight:0.000000,0.000000,0.000000,0.000000 WristLeft:-0.074002,0.797349,-0.077294,0.593956 WristRight:-0.564522,0.807599,-0.052612,0.162266 END:
KINECT_DATA POSITION:28.794312,-4.415783,-4.387057 HEAD_JOINT1:0.978355,0.165404,-0.000000,0.124351 LARM_JOINT2:0.820093,0.000000,0.003394,-0.572220 LARM_JOINT3:0.972551,0.000000,-0.164522,-0.164553 LLEG_JOINT2:0.997803,0.039735,0.000000,0.053005 LLEG_JOINT4:0.994991,0.096476,0.000000,-0.026195 RARM_JOINT2:0.806081,0.000000,0.092913,0.584467 RARM_JOINT3:0.829175,0.000000,0.556728,-0.050225 RLEG_JOINT2:0.997888,-0.002650,-0.000000,-0.064897 RLEG_JOINT4:0.991641,0.123993,0.000000,0.035701 WAIST:0.999851,0.000000,-0.016204,0.005934 WAIST_JOINT0:0.999655,0.000000,-0.012484,0.023110 WAIST_JOINT1:0.997680,0.067636,0.000000,-0.007722 END:
KINECT_DATA_Sensor  AnkleLeft:0.077058,0.740231,-0.116508,-0.657683 AnkleRight:0.074210,0.706236,0.098564,0.697143 ElbowLeft:-0.014226,0.899280,-0.186004,-0.395595 ElbowRight:-0.111836,0.704444,0.105354,0.692930 FootLeft:0.000000,0.000000,0.000000,0.000000 FootRight:0.000000,0.000000,0.000000,0.000000 HandLeft:-0.076179,0.838574,0.015512,0.539213 HandRight:-0.561205,0.809847,-0.081142,0.150375 HandTipLeft:0.000000,0.000000,0.000000,0.000000 HandTipRight:0.000000,0.000000,0.000000,0.000000 Head:0.000000,0.000000,0.000000,0.000000 HipLeft:0.124313,-0.674410,0.706415,-0.175203 HipRight:-0.108039,0.685367,0.701689,-0.161964 KneeLeft:-0.014486,0.717933,-0.069633,-0.692469 KneeRight:-0.042840,0.694616,0.040612,0.716955 Neck:0.010986,-0.001229,0.996406,-0.083985 ShoulderLeft:0.008373,0.772441,-0.630814,0.073066 ShoulderRight:0.023206,0.796336,0.602110,-0.052675 SpineBase:0.015669,0.000512,0.998946,-0.043149 SpineMid:0.013440,0.000608,0.998978,-0.043148 SpineShoulder:0.011099,-0.000114,0.997982,-0.062517 ThumbLeft:0.000000,0.000000,0.000000,0.000000 ThumbRight:0.000000,0.000000,0.000000,0.000000 WristLeft:-0.079590,0.842340,-0.071085,0.528276 WristRight:-0.564973,0.806078,-0.055783,0.167131 END:
KINECT_DATA POSITION:28.768534,-4.412262,-4.432821 HEAD_JOINT1:0.978166,0.165987,-0.000000,0.125058 LARM_JOINT2:0.819730,0.000000,0.004018,-0.572737 LARM_JOINT3:0.972147,0.000000,-0.164528,-0.166914 LLEG_JOINT2:0.997794,0.039219,0.000000,0.053555 LLEG_JOINT4:0.994894,0.098010,0.000000,-0.024066 RARM_JOINT2:0.805448,0.000000,0.091118,0.585620 RARM_JOINT3:0.822228,0.000000,0.566854,-0.051152 RLEG_JOINT2:0.997901,-0.002189,-0.000000,-0.064715 RLEG_JOINT4:0.992058,0.120945,0.000000,0.034540 WAIST:0.999855,0.000000,-0.015998,0.005828 WAIST_JOINT0:0.999650,0.000000,-0.013054,0.023019 WAIST_JOINT1:0.997701,0.067307,0.000000,-0.007968 END:
KINECT_DATA_Sensor  AnkleLeft:0.071699,0.715544,-0.121735,-0.684132 AnkleRight:0.075147,0.732391,0.094898,0.670038 ElbowLeft:-0.014265,0.897843,-0.185176,-0.399229 ElbowRight:-0.110658,0.703314,0.105448,0.694252 FootLeft:0.000000,0.000000,0.000000,0.000000 FootRight:0.000000,0.000000,0.000000,0.000000 HandLeft:-0.083805,0.784332,0.022136,0.614256 HandRight:-0.579627,0.798813,-0.085850,0.136236 HandTipLeft:0.000000,0.000000,0.000000,0.000000 HandTipRight:0.000000,0.000000,0.000000,0.000000 Head:0.000000,0.000000,0.000000,0.000000 HipLeft:0.124273,-0.674564,0.706320,-0.175019 HipRight:-0.108111,0.685287,0.701711,-0.162158 KneeLeft:-0.015153,0.717781,-0.069573,-0.692618 KneeRight:-0.042464,0.694800,0.040869,0.716784 Neck:0.011554,-0.001705,0.996438,-0.083516 ShoulderLeft:0.008232,0.772741,-0.630461,0.072952 ShoulderRight:0.023815,0.796437,0.602038,-0.051682 SpineBase:0.015459,0.000199,0.998950,-0.043130 SpineMid:0.013613,0.000279,0.998977,-0.043130 SpineShoulder:0.011664,-0.000521,0.997993,-0.062237 ThumbLeft:0.000000,0.000000,0.000000,0.000000 ThumbRight:0.000000,0.000000,0.000000,0.000000 WristLeft:-0.073300,0.793318,-0.078559,0.599251 WristRight:-0.570666,0.803702,-0.052997,0.159982 END:
KINECT_DATA POSITION:28.746515,-4.407500,-4.536879 HEAD_JOINT1:0.977691,0.166444,-0.000000,0.128126 LARM_JOINT2:0.819524,0.000000,0.005440,-0.573020 LARM_JOINT3:0.972811,0.000000,-0.163371,-0.164158 LLEG_JOINT2:0.997767,0.039977,0.000000,0.053499 LLEG_JOINT4:0.995016,0.096516,0.000000,-0.025074 RARM_JOINT2:0.804156,0.000000,0.086449,0.588098 RARM_JOINT3:0.817000,0.000000,0.574352,-0.051295 RLEG_JOINT2:0.997931,-0.000375,-0.000000,-0.064293 RLEG_JOINT4:0.992185,0.119689,0.000000,0.035259 WAIST:0.999816,0.000000,-0.018265,0.005891 WAIST_JOINT0:0.999625,0.000000,-0.015131,0.022833 WAIST_JOINT1:0.997747,0.066509,0.000000,-0.008828 END:
KINECT_DATA_Sensor  AnkleLeft:0.071532,0.716713,-0.120740,-0.683101 AnkleRight:0.075718,0.724876,0.094857,0.678102 ElbowLeft:-0.014005,0.898418,-0.184303,-0.398349 ElbowRight:-0.107179,0.701261,0.106817,0.696661 FootLeft:0.000000,0.000000,0.000000,0.000000 FootRight:0.000000,0.000000,0.000000,0.000000 HandLeft:-0.076272,0.772450,0.016159,0.630271 HandRight:-0.579224,0.793472,-0.091757,0.162736 HandTipLeft:0.000000,0.000000,0.000000,0.000000 HandTipRight:0.000000,0.000000,0.000000,0.000000 Head:0.000000,0.000000,0.000000,0.000000 HipLeft:0.125939,-0.674375,0.706045,-0.175666 HipRight:-0.106827,0.685714,0.701867,-0.160524 KneeLeft:-0.014775,0.719359,-0.070099,-0.690934 KneeRight:-0.040712,0.693305,0.041889,0.718273 Neck:0.013692,-0.002398,0.996479,-0.082680 ShoulderLeft:0.006663,0.773229,-0.629786,0.073776 ShoulderRight:0.024997,0.796516,0.602094,-0.049193 SpineBase:0.017702,-0.000269,0.998936,-0.042592 SpineMid:0.015802,-0.000188,0.998968,-0.042593 SpineShoulder:0.013797,-0.001160,0.998011,-0.061496 ThumbLeft:0.000000,0.000000,0.000000,0.000000 ThumbRight:0.000000,0.000000,0.000000,0.000000 WristLeft:-0.071656,0.779889,-0.079298,0.616725 WristRight:-0.575608,0.794889,-0.068965,0.179083 END:
KINECT_DATA POSITION:28.718811,-4.402510,-4.659176 HEAD_JOINT1:0.977319,0.167493,-0.000000,0.129593 LARM_JOINT2:0.819526,0.000000,0.004689,-0.573023 LARM_JOINT3:0.973003,0.000000,-0.162968,-0.163420 LLEG_JOINT2:0.997837,0.038489,0.000000,0.053295 LLEG_JOINT4:0.994841,0.097820,0.000000,-0.026884 RARM_JOINT2:0.802997,0.000000,0.082620,0.590229 RARM_JOINT3:0.816429,0.000000,0.575201,-0.050874 RLEG_JOINT2:0.997916,-0.000011,-0.000000,-0.064526 RLEG_JOINT4:0.992601,0.117389,0.000000,0.031025 WAIST:0.999822,0.000000,-0.017727,0.006507 WAIST_JOINT0:0.999606,0.000000,-0.016607,0.022616 WAIST_JOINT1:0.997721,0.066799,0.000000,-0.009523 END:
KINECT_DATA_Sensor  AnkleLeft:0.072658,0.717329,-0.119473,-0.682558 AnkleRight:0.073428,0.737656,0.095265,0.664377 ElbowLeft:-0.013856,0.898897,-0.184118,-0.397358 ElbowRight:-0.103657,0.699794,0.107541,0.698555 FootLeft:0.000000,0.000000,0.000000,0.000000 FootRight:0.000000,0.000000,0.000000,0.000000 HandLeft:-0.073981,0.805340,0.018188,0.587897 HandRight:-0.569587,0.806487,-0.069946,0.142327 HandTipLeft:0.000000,0.000000,0.000000,0.000000 HandTipRight:0.000000,0.000000,0.000000,0.000000 Head:0.000000,0.000000,0.000000,0.000000 HipLeft:0.125521,-0.674022,0.706527,-0.175383 HipRight:-0.106864,0.685967,0.701463,-0.161179 KneeLeft:-0.016070,0.718919,-0.069326,-0.691441 KneeRight:-0.040199,0.693774,0.041856,0.717851 Neck:0.015148,-0.002618,0.996433,-0.082973 ShoulderLeft:0.006412,0.773147,-0.629777,0.074721 ShoulderRight:0.026636,0.796231,0.602506,-0.047888 SpineBase:0.017100,-0.000471,0.998933,-0.042891 SpineMid:0.016215,-0.000433,0.998948,-0.042892 SpineShoulder:0.015247,-0.001416,0.997972,-0.061791 ThumbLeft:0.000000,0.000000,0.000000,0.000000 ThumbRight:0.000000,0.000000,0.000000,0.000000 WristLeft:-0.075374,0.810827,-0.075006,0.575545 WristRight:-0.579718,0.798397,-0.051285,0.154466 END:
KINECT_DATA POSITION:28.692699,-4.393035,-4.770458 HEAD_JOINT1:0.977054,0.167644,-0.000000,0.131381 LARM_JOINT2:0.819785,0.000000,0.003891,-0.572659 LARM_JOINT3:0.972480,0.000000,-0.164608,-0.164884 LLEG_JOINT2:0.997854,0.037992,0.000000,0.053321 LLEG_JOINT4:0.994971,0.096571,0.000000,-0.026580 RARM_JOINT2:0.801457,0.000000,0.081303,0.592500 RARM_JOINT3:0.817677,0.000000,0.573310,-0.052156 RLEG_JOINT2:0.997893,0.000688,0.000000,-0.064873 RLEG_JOINT4:0.992776,0.114684,0.000000,0.035253 WAIST:0.999818,0.000000,-0.017914,0.006600 WAIST_JOINT0:0.999580,0.000000,-0.018639,0.022210 WAIST_JOINT1:0.997695,0.067174,0.000000,-0.009575 END:
KINECT_DATA_Sensor  AnkleLeft:0.071282,0.718660,-0.118457,-0.681479 AnkleRight:0.072953,0.727088,0.092107,0.676415 ElbowLeft:-0.013885,0.899982,-0.184450,-0.394738 ElbowRight:-0.100852,0.698582,0.106610,0.700318 FootLeft:0.000000,0.000000,0.000000,0.000000 FootRight:0.000000,0.000000,0.000000,0.000000 HandLeft:-0.083549,0.778469,0.014953,0.621918 HandRight:-0.558755,0.814127,-0.061807,0.145499 HandTipLeft:0.000000,0.000000,0.000000,0.000000 HandTipRight:0.000000,0.000000,0.000000,0.000000 Head:0.000000,0.000000,0.000000,0.000000 HipLeft:0.125388,-0.673877,0.706599,-0.175743 HipRight:-0.106527,0.685983,0.701444,-0.161418 KneeLeft:-0.016515,0.719029,-0.069051,-0.691344 KneeRight:-0.039860,0.693670,0.042535,0.717930 Neck:0.017171,-0.002645,0.996370,-0.083340 ShoulderLeft:0.006489,0.773140,-0.629673,0.075666 ShoulderRight:0.029326,0.795716,0.603226,-0.045760 SpineBase:0.017271,-0.000493,0.998912,-0.043311 SpineMid:0.017304,-0.000495,0.998912,-0.043311 SpineShoulder:0.017269,-0.001492,0.997915,-0.062168 ThumbLeft:0.000000,0.000000,0.000000,0.000000 ThumbRight:0.000000,0.000000,0.000000,0.000000 WristLeft:-0.072312,0.786490,-0.077360,0.608457 WristRight:-0.580415,0.798406,-0.049061,0.152511 END:
KINECT_DATA POSITION:28.658041,-4.390983,-4.814613 HEAD_JOINT1:0.976928,0.167618,-0.000000,0.132350 LARM_JOINT2:0.819994,0.000000,0.003485,-0.572362 LARM_JOINT3:0.972139,0.000000,-0.167220,-0.164265 LLEG_JOINT2:0.997856,0.037474,0.000000,0.053652 LLEG_JOINT4:0.994857,0.097570,0.000000,-0.027198 RARM_JOINT2:0.801283,0.000000,0.080111,0.592897 RARM_JOINT3:0.816227,0.000000,0.575166,-0.054393 RLEG_JOINT2:0.997923,0.000725,0.000000,-0.064421 RLEG_JOINT4:0.992843,0.114958,0.000000,0.032376 WAIST:0.999820,0.000000,-0.017799,0.006516 WAIST_JOINT0:0.999564,0.000000,-0.019399,0.022247 WAIST_JOINT1:0.997700,0.067131,0.000000,-0.009412 END:
KINECT_DATA_Sensor  AnkleLeft:0.071979,0.718953,-0.118471,-0.681095 AnkleRight:0.071806,0.728959,0.094028,0.674257 ElbowLeft:-0.014049,0.900656,-0.184700,-0.393074 ElbowRight:-0.099982,0.698252,0.106924,0.700724 FootLeft:0.000000,0.000000,0.000000,0.000000 FootRight:0.000000,0.000000,0.000000,0.000000 HandLeft:-0.089832,0.765286,0.001751,0.637389 HandRight:-0.567803,0.807597,-0.059672,0.147739 HandTipLeft:0.000000,0.000000,0.000000,0.000000 HandTipRight:0.000000,0.000000,0.000000,0.000000 Head:0.000000,0.000000,0.000000,0.000000 HipLeft:0.125388,-0.673937,0.706543,-0.175736 HipRight:-0.106651,0.685892,0.701478,-0.161573 KneeLeft:-0.017050,0.718941,-0.068851,-0.691442 KneeRight:-0.039584,0.693768,0.042289,0.717865 Neck:0.017924,-0.002581,0.996363,-0.083264 ShoulderLeft:0.005952,0.773132,-0.629620,0.076227 ShoulderRight:0.029748,0.795809,0.603129,-0.045137 SpineBase:0.017160,-0.000575,0.998914,-0.043324 SpineMid:0.017616,-0.000595,0.998906,-0.043323 SpineShoulder:0.018019,-0.001494,0.997904,-0.062129 ThumbLeft:0.000000,0.000000,0.000000,0.000000 ThumbRight:0.000000,0.000000,0.000000,0.000000 WristLeft:-0.071142,0.773069,-0.078574,0.625404 WristRight:-0.579721,0.798616,-0.049355,0.153948 END:
KINECT_DATA POSITION:28.644299,-4.389243,-4.835677 HEAD_JOINT1:0.976752,0.167603,-0.000000,0.133658 LARM_JOINT2:0.820453,0.000000,0.003205,-0.571705 LARM_JOINT3:0.972311,0.000000,-0.166893,-0.163577 LLEG_JOINT2:0.997828,0.037598,0.000000,0.054090 LLEG_JOINT4:0.994750,0.098375,0.000000,-0.028197 RARM_JOINT2:0.801903,0.000000,0.080396,0.592021 RARM_JOINT3:0.817069,0.000000,0.574234,-0.051505 RLEG_JOINT2:0.997942,0.000296,0.000000,-0.064127 RLEG_JOINT4:0.992601,0.116544,0.000000,0.034070 WAIST:0.999810,0.000000,-0.018466,0.006255 WAIST_JOINT0:0.999555,0.000000,-0.020064,0.022091 WAIST_JOINT1:0.997715,0.066916,0.000000,-0.009372 END:
KINECT_DATA_Sensor  AnkleLeft:0.073109,0.719121,-0.118604,-0.680774 AnkleRight:0.073776,0.727674,0.093481,0.675506 ElbowLeft:-0.014284,0.902035,-0.185047,-0.389725 ElbowRight:-0.100911,0.699203,0.107758,0.699514 FootLeft:0.000000,0.000000,0.000000,0.000000 FootRight:0.000000,0.000000,0.000000,0.000000 HandLeft:-0.089089,0.797062,0.000489,0.597290 HandRight:-0.566445,0.804574,-0.073786,0.162344 HandTipLeft:0.000000,0.000000,0.000000,0.000000 HandTipRight:0.000000,0.000000,0.000000,0.000000 Head:0.000000,0.000000,0.000000,0.000000 HipLeft:0.125800,-0.674044,0.706303,-0.175996 HipRight:-0.106239,0.685824,0.701721,-0.161075 KneeLeft:-0.017135,0.719417,-0.069053,-0.690925 KneeRight:-0.039843,0.693267,0.041992,0.718352 Neck:0.018651,-0.002819,0.996372,-0.082993 ShoulderLeft:0.004776,0.773247,-0.629384,0.077085 ShoulderRight:0.029497,0.795716,0.603285,-0.044857 SpineBase:0.017843,-0.000719,0.998906,-0.043229 SpineMid:0.018322,-0.000740,0.998897,-0.043229 SpineShoulder:0.018749,-0.001659,0.997902,-0.061938 ThumbLeft:0.000000,0.000000,0.000000,0.000000 ThumbRight:0.000000,0.000000,0.000000,0.000000 WristLeft:-0.074396,0.802977,-0.074349,0.586657 WristRight:-0.576749,0.796643,-0.061179,0.170229 END:
KINECT_DATA POSITION:28.646935,-4.388112,-4.844904 HEAD_JOINT1:0.976807,0.166891,-0.000000,0.134146 LARM_JOINT2:0.820895,0.000000,0.001692,-0.571076 LARM_JOINT3:0.972496,0.000000,-0.166644,-0.162732 LLEG_JOINT2:0.997827,0.037219,0.000000,0.054368 LLEG_JOINT4:0.994746,0.098626,0.000000,-0.027449 RARM_JOINT2:0.802676,0.000000,0.081063,0.590881 RARM_JOINT3:0.818841,0.000000,0.572285,-0.044604 RLEG_JOINT2:0.997972,0.000361,0.000000,-0.063646 RLEG_JOINT4:0.992563,0.117036,0.000000,0.033494 WAIST:0.999810,0.000000,-0.018439,0.006288 WAIST_JOINT0:0.999553,0.000000,-0.020260,0.021967 WAIST_JOINT1:0.997693,0.067216,0.000000,-0.009553 END:
KINECT_DATA_Sensor  AnkleLeft:0.072323,0.719360,-0.119228,-0.680497 AnkleRight:0.074543,0.730406,0.093590,0.672452 ElbowLeft:-0.014575,0.903790,-0.185237,-0.385537 ElbowRight:-0.101946,0.700446,0.108745,0.697967 FootLeft:0.000000,0.000000,0.000000,0.000000 FootRight:0.000000,0.000000,0.000000,0.000000 HandLeft:-0.085148,0.698169,-0.019906,0.710573 HandRight:-0.561046,0.818778,-0.053687,0.109307 HandTipLeft:0.000000,0.000000,0.000000,0.000000 HandTipRight:0.000000,0.000000,0.000000,0.000000 Head:0.000000,0.000000,0.000000,0.000000 HipLeft:0.125691,-0.674014,0.706335,-0.176061 HipRight:-0.106134,0.685826,0.701706,-0.161203 KneeLeft:-0.017621,0.719382,-0.068997,-0.690954 KneeRight:-0.039439,0.693315,0.041666,0.718347 Neck:0.018867,-0.003045,0.996333,-0.083393 ShoulderLeft:0.004423,0.773193,-0.629371,0.077749 ShoulderRight:0.029436,0.795526,0.603516,-0.045166 SpineBase:0.017809,-0.000760,0.998899,-0.043386 SpineMid:0.018417,-0.000786,0.998888,-0.043385 SpineShoulder:0.018970,-0.001800,0.997881,-0.062208 ThumbLeft:0.000000,0.000000,0.000000,0.000000 ThumbRight:0.000000,0.000000,0.000000,0.000000 WristLeft:-0.063130,0.708764,-0.083432,0.697644 WristRight:-0.577227,0.806473,-0.028863,0.124810 END:
KINECT_DATA POSITION:28.662004,-4.391134,-4.829419 HEAD_JOINT1:0.977123,0.166037,-0.000000,0.132900 LARM_JOINT2:0.820727,0.000000,0.001083,-0.571319 LARM_JOINT3:0.973009,0.000000,-0.161940,-0.164405 LLEG_JOINT2:0.997830,0.037392,0.000000,0.054190 LLEG_JOINT4:0.994841,0.097546,0.000000,-0.027876 RARM_JOINT2:0.806555,0.000000,0.115532,0.579760 RARM_JOINT3:0.851399,0.000000,0.521570,-0.055542 RLEG_JOINT2:0.997849,-0.003393,-0.000000,-0.065471 RLEG_JOINT4:0.991959,0.121253,0.000000,0.036255 WAIST:0.999813,0.000000,-0.018307,0.006289 WAIST_JOINT0:0.999590,0.000000,-0.018415,0.021943 WAIST_JOINT1:0.997684,0.067343,0.000000,-0.009556 END:
KINECT_DATA_Sensor  AnkleLeft:0.071953,0.718429,-0.118263,-0.681686 AnkleRight:0.075104,0.727215,0.093491,0.675853 ElbowLeft:-0.014709,0.903925,-0.184815,-0.385419 ElbowRight:-0.125817,0.712880,0.096238,0.683162 FootLeft:0.000000,0.000000,0.000000,0.000000 FootRight:0.000000,0.000000,0.000000,0.000000 HandLeft:-0.076477,0.650586,-0.005933,0.755548 HandRight:-0.541144,0.829457,-0.033960,0.134210 HandTipLeft:0.000000,0.000000,0.000000,0.000000 HandTipRight:0.000000,0.000000,0.000000,0.000000 Head:0.000000,0.000000,0.000000,0.000000 HipLeft:0.125587,-0.674028,0.706351,-0.176018 HipRight:-0.106243,0.685818,0.701684,-0.161261 KneeLeft:-0.017364,0.719298,-0.069000,-0.691049 KneeRight:-0.043424,0.693174,0.040363,0.718327 Neck:0.017096,-0.002917,0.996349,-0.083590 ShoulderLeft:0.004695,0.773174,-0.629460,0.077206 ShoulderRight:0.027414,0.795414,0.603589,-0.047391 SpineBase:0.017681,-0.000662,0.998902,-0.043388 SpineMid:0.017475,-0.000653,0.998905,-0.043388 SpineShoulder:0.017195,-0.001706,0.997907,-0.062315 ThumbLeft:0.000000,0.000000,0.000000,0.000000 ThumbRight:0.000000,0.000000,0.000000,0.000000 WristLeft:-0.056320,0.652238,-0.088017,0.750778 WristRight:-0.550377,0.823363,-0.032447,0.134558 END:
KINECT_DATA POSITION:28.684437,-4.393104,-4.792130 HEAD_JOINT1:0.977919,0.166477,-0.000000,0.126335 LARM_JOINT2:0.819561,0.000000,0.002418,-0.572987 LARM_JOINT3:0.973398,0.000000,-0.162059,-0.161968 LLEG_JOINT2:0.997860,0.036876,0.000000,0.054000 LLEG_JOINT4:0.994902,0.097296,0.000000,-0.026506 RARM_JOINT2:0.805504,0.000000,0.151687,0.572848 RARM_JOINT3:0.878369,0.000000,0.471252,-0.079932 RLEG_JOINT2:0.997782,-0.004112,-0.000000,-0.066446 RLEG_JOINT4:0.991892,0.121239,0.000000,0.038104 WAIST:0.999833,0.000000,-0.017277,0.006019 WAIST_JOINT0:0.999689,0.000000,-0.010903,0.022433 WAIST_JOINT1:0.997694,0.067363,0.000000,-0.008265 END:
KINECT_DATA_Sensor  AnkleLeft:0.070319,0.714597,-0.118629,-0.685808 AnkleRight:0.074872,0.728161,0.092590,0.674983 ElbowLeft:-0.014141,0.901294,-0.184347,-0.391773 ElbowRight:-0.146854,0.710128,0.073635,0.684638 FootLeft:0.000000,0.000000,0.000000,0.000000 FootRight:0.000000,0.000000,0.000000,0.000000 HandLeft:-0.068992,0.772296,0.005999,0.631476 HandRight:-0.520560,0.844200,-0.005822,0.127708 HandTipLeft:0.000000,0.000000,0.000000,0.000000 HandTipRight:0.000000,0.000000,0.000000,0.000000 Head:0.000000,0.000000,0.000000,0.000000 HipLeft:0.125037,-0.674288,0.706309,-0.175581 HipRight:-0.107327,0.685523,0.701725,-0.161619 KneeLeft:-0.017333,0.718608,-0.068320,-0.691834 KneeRight:-0.044861,0.693764,0.040702,0.717650 Neck:0.009672,-0.001117,0.996454,-0.083579 ShoulderLeft:0.005230,0.772726,-0.630289,0.074854 ShoulderRight:0.018238,0.795939,0.602455,-0.056534 SpineBase:0.016706,-0.000067,0.998929,-0.043157 SpineMid:0.013278,0.000081,0.998980,-0.043157 SpineShoulder:0.009737,-0.000451,0.998009,-0.062313 ThumbLeft:0.000000,0.000000,0.000000,0.000000 ThumbRight:0.000000,0.000000,0.000000,0.000000 WristLeft:-0.071339,0.776999,-0.077699,0.620602 WristRight:-0.536111,0.834813,-0.008342,0.124910 END:
KINECT_DATA POSITION:28.697947,-4.413069,-4.701388 HEAD_JOINT1:0.978334,0.169510,-0.000000,0.118862 LARM_JOINT2:0.817940,0.000000,0.004751,-0.575283 LARM_JOINT3:0.973167,0.000000,-0.162696,-0.162714 LLEG_JOINT2:0.997854,0.037008,0.000000,0.054014 LLEG_JOINT4:0.995006,0.096777,0.000000,-0.024438 RARM_JOINT2:0.806898,0.000000,0.151338,0.570976 RARM_JOINT3:0.882979,0.000000,0.462585,-0.079768 RLEG_JOINT2:0.997796,-0.004228,-0.000000,-0.066224 RLEG_JOINT4:0.991632,0.122323,0.000000,0.041262 WAIST:0.999857,0.000000,-0.015882,0.005759 WAIST_JOINT0:0.999717,0.000000,-0.006164,0.022984 WAIST_JOINT1:0.997710,0.067253,0.000000,-0.007158 END:
KINECT_DATA_Sensor  AnkleLeft:0.068658,0.712280,-0.119680,-0.688201 AnkleRight:0.075659,0.715333,0.092474,0.688493 ElbowLeft:-0.012989,0.897382,-0.183325,-0.401159 ElbowRight:-0.148065,0.710976,0.074477,0.683405 FootLeft:0.000000,0.000000,0.000000,0.000000 FootRight:0.000000,0.000000,0.000000,0.000000 HandLeft:-0.072911,0.781312,0.017937,0.619608 HandRight:-0.506473,0.857756,0.036263,0.080155 HandTipLeft:0.000000,0.000000,0.000000,0.000000 HandTipRight:0.000000,0.000000,0.000000,0.000000 Head:0.000000,0.000000,0.000000,0.000000 HipLeft:0.124233,-0.674625,0.706307,-0.174864 HipRight:-0.108599,0.685254,0.701711,-0.161973 KneeLeft:-0.016977,0.717673,-0.068259,-0.692818 KneeRight:-0.045040,0.694683,0.040572,0.716757 Neck:0.004800,-0.000042,0.996499,-0.083468 ShoulderLeft:0.007088,0.771974,-0.631519,0.072040 ShoulderRight:0.013769,0.796199,0.601771,-0.061226 SpineBase:0.015374,0.000668,0.998964,-0.042830 SpineMid:0.010194,0.000890,0.999030,-0.042825 SpineShoulder:0.004866,0.000507,0.998054,-0.062159 ThumbLeft:0.000000,0.000000,0.000000,0.000000 ThumbRight:0.000000,0.000000,0.000000,0.000000 WristLeft:-0.072195,0.787982,-0.078007,0.606455 WristRight:-0.529670,0.844627,0.027182,0.072914 END:
KINECT_DATA POSITION:28.714859,-4.421728,-4.641795 HEAD_JOINT1:0.978379,0.170065,-0.000000,0.117695 LARM_JOINT2:0.817540,0.000000,0.004422,-0.575855 LARM_JOINT3:0.971376,0.000000,-0.171822,-0.164029 LLEG_JOINT2:0.997850,0.037482,0.000000,0.053772 LLEG_JOINT4:0.995031,0.096352,0.000000,-0.025085 RARM_JOINT2:0.807035,0.000000,0.144310,0.572599 RARM_JOINT3:0.880860,0.000000,0.465709,-0.084853 RLEG_JOINT2:0.997690,-0.005573,-0.000000,-0.067700 RLEG_JOINT4:0.991062,0.125906,0.000000,0.044092 WAIST:0.999852,0.000000,-0.016299,0.005580 WAIST_JOINT0:0.999718,0.000000,-0.006236,0.022932 WAIST_JOINT1:0.997709,0.067304,0.000000,-0.006915 END:
KINECT_DATA_Sensor  AnkleLeft:0.075298,0.746315,-0.115356,-0.651181 AnkleRight:0.078151,0.714460,0.093036,0.689045 ElbowLeft:-0.013031,0.897544,-0.182663,-0.401097 ElbowRight:-0.144105,0.707409,0.077867,0.687563 FootLeft:0.000000,0.000000,0.000000,0.000000 FootRight:0.000000,0.000000,0.000000,0.000000 HandLeft:-0.109238,0.803879,0.007998,0.584621 HandRight:-0.515971,0.849811,0.047428,0.096674 HandTipLeft:0.000000,0.000000,0.000000,0.000000 HandTipRight:0.000000,0.000000,0.000000,0.000000 Head:0.000000,0.000000,0.000000,0.000000 HipLeft:0.124367,-0.674659,0.706178,-0.175158 HipRight:-0.108353,0.685200,0.701881,-0.161627 KneeLeft:-0.016371,0.717989,-0.068298,-0.692503 KneeRight:-0.047146,0.694221,0.040840,0.717054 Neck:0.004815,0.000011,0.996491,-0.083565 ShoulderLeft:0.007626,0.771778,-0.631791,0.071700 ShoulderRight:0.014345,0.796075,0.601959,-0.060870 SpineBase:0.015814,0.000858,0.998956,-0.042854 SpineMid:0.010433,0.001088,0.999026,-0.042849 SpineShoulder:0.004892,0.000650,0.998052,-0.062192 ThumbLeft:0.000000,0.000000,0.000000,0.000000 ThumbRight:0.000000,0.000000,0.000000,0.000000 WristLeft:-0.075809,0.813840,-0.074476,0.571289 WristRight:-0.528105,0.844706,0.026328,0.082971 END:
KINECT_DATA POSITION:28.715191,-4.427403,-4.590869 HEAD_JOINT1:0.978327,0.169764,-0.000000,0.118560 LARM_JOINT2:0.817621,0.000000,0.001597,-0.575754 LARM_JOINT3:0.972017,0.000000,-0.171312,-0.160736 LLEG_JOINT2:0.997829,0.037995,0.000000,0.053793 LLEG_JOINT4:0.994785,0.098483,0.000000,-0.026513 RARM_JOINT2:0.806596,0.000000,0.138380,0.574677 RARM_JOINT3:0.877658,0.000000,0.471278,-0.087259 RLEG_JOINT2:0.997779,-0.003907,-0.000000,-0.066501 RLEG_JOINT4:0.991552,0.122645,0.000000,0.042223 WAIST:0.999810,0.000000,-0.018757,0.005348 WAIST_JOINT0:0.999704,0.000000,-0.009793,0.022266 WAIST_JOINT1:0.997720,0.067106,0.000000,-0.007141 END:
KINECT_DATA_Sensor  AnkleLeft:0.072079,0.713687,-0.119927,-0.686348 AnkleRight:0.078834,0.729923,0.090569,0.672901 ElbowLeft:-0.015048,0.899944,-0.181262,-0.396256 ElbowRight:-0.140683,0.700705,0.080207,0.694829 FootLeft:0.000000,0.000000,0.000000,0.000000 FootRight:0.000000,0.000000,0.000000,0.000000 HandLeft:-0.103980,0.811850,-0.001557,0.574531 HandRight:-0.522859,0.844924,0.039600,0.105611 HandTipLeft:0.000000,0.000000,0.000000,0.000000 HandTipRight:0.000000,0.000000,0.000000,0.000000 Head:0.000000,0.000000,0.000000,0.000000 HipLeft:0.126289,-0.674496,0.705652,-0.176527 HipRight:-0.107265,0.685371,0.702190,-0.160279 KneeLeft:-0.016022,0.719712,-0.068487,-0.690701 KneeRight:-0.045162,0.692588,0.041424,0.718726 Neck:0.008359,-0.000502,0.996478,-0.083430 ShoulderLeft:0.005486,0.771922,-0.631367,0.074038 ShoulderRight:0.016789,0.795790,0.602582,-0.057716 SpineBase:0.018277,0.000625,0.998927,-0.042555 SpineMid:0.013440,0.000831,0.999004,-0.042552 SpineShoulder:0.008451,0.000325,0.998040,-0.062001 ThumbLeft:0.000000,0.000000,0.000000,0.000000 ThumbRight:0.000000,0.000000,0.000000,0.000000 WristLeft:-0.078497,0.819013,-0.073129,0.563656 WristRight:-0.529806,0.842171,0.026192,0.096791 END:
KINECT_DATA POSITION:28.722513,-4.435155,-4.556847 HEAD_JOINT1:0.978123,0.169849,-0.000000,0.120109 LARM_JOINT2:0.818079,0.000000,0.002048,-0.575103 LARM_JOINT3:0.973052,0.000000,-0.163604,-0.162494 LLEG_JOINT2:0.997805,0.038213,0.000000,0.054080 LLEG_JOINT4:0.994798,0.098675,0.000000,-0.025317 RARM_JOINT2:0.806381,0.000000,0.136671,0.575388 RARM_JOINT3:0.876121,0.000000,0.475491,-0.079500 RLEG_JOINT2:0.997944,-0.001419,-0.000000,-0.064082 RLEG_JOINT4:0.992014,0.120686,0.000000,0.036646 WAIST:0.999785,0.000000,-0.020126,0.005042 WAIST_JOINT0:0.999697,0.000000,-0.011470,0.021794 WAIST_JOINT1:0.997752,0.066596,0.000000,-0.007538 END:
KINECT_DATA_Sensor  AnkleLeft:0.071384,0.714727,-0.121127,-0.685126 AnkleRight:0.074025,0.706717,0.095943,0.697041 ElbowLeft:-0.015079,0.901309,-0.181298,-0.393123 ElbowRight:-0.140065,0.699789,0.081305,0.695749 FootLeft:0.000000,0.000000,0.000000,0.000000 FootRight:0.000000,0.000000,0.000000,0.000000 HandLeft:-0.081071,0.725520,0.006385,0.683379 HandRight:-0.520919,0.850277,0.033420,0.067495 HandTipLeft:0.000000,0.000000,0.000000,0.000000 HandTipRight:0.000000,0.000000,0.000000,0.000000 Head:0.000000,0.000000,0.000000,0.000000 HipLeft:0.127421,-0.674598,0.705209,-0.177092 HipRight:-0.106664,0.685422,0.702451,-0.159319 KneeLeft:-0.015949,0.720680,-0.068612,-0.689680 KneeRight:-0.041840,0.691805,0.041690,0.719665 Neck:0.010052,-0.001380,0.996514,-0.082807 ShoulderLeft:0.004096,0.772197,-0.630928,0.074994 ShoulderRight:0.017614,0.795604,0.602963,-0.056036 SpineBase:0.019662,0.000369,0.998916,-0.042188 SpineMid:0.014992,0.000566,0.998997,-0.042186 SpineShoulder:0.010160,-0.000245,0.998052,-0.061559 ThumbLeft:0.000000,0.000000,0.000000,0.000000 ThumbRight:0.000000,0.000000,0.000000,0.000000 WristLeft:-0.068290,0.734486,-0.082185,0.670159 WristRight:-0.529344,0.844247,0.042725,0.072225 END:
KINECT_DATA POSITION:28.750404,-4.440104,-4.543066 HEAD_JOINT1:0.978080,0.171215,-0.000000,0.118513 LARM_JOINT2:0.817582,0.000000,0.004313,-0.575797 LARM_JOINT3:0.974315,0.000000,-0.158355,-0.160106 LLEG_JOINT2:0.997787,0.039036,0.000000,0.053835 LLEG_JOINT4:0.994881,0.097649,0.000000,-0.025994 RARM_JOINT2:0.808195,0.000000,0.126477,0.575174 RARM_JOINT3:0.858371,0.000000,0.512645,-0.019838 RLEG_JOINT2:0.997914,-0.001166,-0.000000,-0.064552 RLEG_JOINT4:0.992206,0.119234,0.000000,0.036206 WAIST:0.999794,0.000000,-0.019657,0.005069 WAIST_JOINT0:0.999707,0.000000,-0.010690,0.021698 WAIST_JOINT1:0.997779,0.066163,0.000000,-0.007679 END:
KINECT_DATA_Sensor  AnkleLeft:0.071892,0.714234,-0.120350,-0.685724 AnkleRight:0.075825,0.731296,0.093220,0.671392 ElbowLeft:-0.014030,0.899462,-0.181038,-0.397488 ElbowRight:-0.133336,0.723902,0.093464,0.670411 FootLeft:0.000000,0.000000,0.000000,0.000000 FootRight:0.000000,0.000000,0.000000,0.000000 HandLeft:-0.056609,0.804858,0.021441,0.590372 HandRight:-0.533260,0.829987,-0.125198,0.105266 HandTipLeft:0.000000,0.000000,0.000000,0.000000 HandTipRight:0.000000,0.000000,0.000000,0.000000 Head:0.000000,0.000000,0.000000,0.000000 HipLeft:0.127146,-0.674770,0.705251,-0.176469 HipRight:-0.106918,0.685495,0.702362,-0.159223 KneeLeft:-0.015186,0.720371,-0.069058,-0.689975 KneeRight:-0.041985,0.692134,0.042165,0.719312 Neck:0.009324,-0.001545,0.996560,-0.082332 ShoulderLeft:0.004583,0.772452,-0.630742,0.073897 ShoulderRight:0.017165,0.795542,0.603050,-0.056124 SpineBase:0.019195,0.000349,0.998938,-0.041890 SpineMid:0.014397,0.000550,0.999018,-0.041888 SpineShoulder:0.009430,-0.000379,0.998085,-0.061140 ThumbLeft:0.000000,0.000000,0.000000,0.000000 ThumbRight:0.000000,0.000000,0.000000,0.000000 WristLeft:-0.076315,0.808035,-0.074145,0.579446 WristRight:-0.530970,0.832091,-0.047749,0.153023 END:
KINECT_DATA POSITION:28.764635,-4.442199,-4.528546 HEAD_JOINT1:0.978343,0.173080,-0.000000,0.113524 LARM_JOINT2:0.815708,0.000000,0.009686,-0.578382 LARM_JOINT3:0.974472,0.000000,-0.162826,-0.154571 LLEG_JOINT2:0.997773,0.039066,0.000000,0.054056 LLEG_JOINT4:0.994890,0.097545,0.000000,-0.026068 RARM_JOINT2:0.822126,0.000000,0.126525,0.555067 RARM_JOINT3:0.848260,0.000000,0.520107,0.099720 RLEG_JOINT2:0.997938,-0.001180,-0.000000,-0.064179 RLEG_JOINT4:0.992020,0.121172,0.000000,0.034841 WAIST:0.999829,0.000000,-0.017769,0.005155 WAIST_JOINT0:0.999734,0.000000,-0.007398,0.021866 WAIST_JOINT1:0.997790,0.066011,0.000000,-0.007553 END:
KINECT_DATA_Sensor  AnkleLeft:0.071810,0.712444,-0.120366,-0.687589 AnkleRight:0.076534,0.732284,0.095287,0.669942 ElbowLeft:-0.011848,0.891230,-0.180142,-0.416075 ElbowRight:-0.136099,0.801761,0.127479,0.567807 FootLeft:0.000000,0.000000,0.000000,0.000000 FootRight:0.000000,0.000000,0.000000,0.000000 HandLeft:-0.053585,0.784612,0.015043,0.617483 HandRight:-0.534852,0.835490,-0.117821,-0.044815 HandTipLeft:0.000000,0.000000,0.000000,0.000000 HandTipRight:0.000000,0.000000,0.000000,0.000000 Head:0.000000,0.000000,0.000000,0.000000 HipLeft:0.126318,-0.674933,0.705475,-0.175538 HipRight:-0.108522,0.685231,0.702070,-0.160558 KneeLeft:-0.015260,0.719060,-0.069316,-0.691314 KneeRight:-0.041762,0.693503,0.041740,0.718030 Neck:0.005958,-0.001310,0.996601,-0.082149 ShoulderLeft:0.008525,0.772332,-0.631315,0.069803 ShoulderRight:0.016811,0.795434,0.603085,-0.057362 SpineBase:0.017310,0.000418,0.998977,-0.041764 SpineMid:0.011771,0.000649,0.999058,-0.041761 SpineShoulder:0.006054,-0.000215,0.998121,-0.060980 ThumbLeft:0.000000,0.000000,0.000000,0.000000 ThumbRight:0.000000,0.000000,0.000000,0.000000 WristLeft:-0.073390,0.787752,-0.080359,0.606303 WristRight:-0.504867,0.861000,-0.060603,-0.010735 END:
KINECT_DATA POSITION:28.971424,-4.460195,-4.313445 HEAD_JOINT1:0.978983,0.173380,-0.000000,0.107390 LARM_JOINT2:0.813370,0.000000,0.012235,-0.581618 LARM_JOINT3:0.974740,0.000000,-0.165120,-0.150390 LLEG_JOINT2:0.997856,0.042280,0.000000,0.049955 LLEG_JOINT4:0.995525,0.091717,0.000000,-0.022749 RARM_JOINT2:0.818100,0.000000,0.040253,0.573666 RARM_JOINT3:0.808537,0.000000,0.562384,0.173185 RLEG_JOINT2:0.997627,0.003068,0.000000,-0.068786 RLEG_JOINT4:0.992090,0.119924,0.000000,0.037090 WAIST:0.999928,0.000000,-0.009425,0.007444 WAIST_JOINT0:0.999685,-0.000000,0.004408,0.024713 WAIST_JOINT1:0.997883,0.064609,0.000000,-0.007407 END:
KINECT_DATA_Sensor  AnkleLeft:0.069730,0.706326,-0.119080,-0.694306 AnkleRight:0.076761,0.729491,0.098791,0.672452 ElbowLeft:-0.011948,0.880493,-0.179014,-0.438797 ElbowRight:-0.082247,0.769893,0.153549,0.613940 FootLeft:0.000000,0.000000,0.000000,0.000000 FootRight:0.000000,0.000000,0.000000,0.000000 HandLeft:-0.055043,0.726838,0.007023,0.684564 HandRight:-0.349239,0.836518,-0.340319,0.249905 HandTipLeft:0.000000,0.000000,0.000000,0.000000 HandTipRight:0.000000,0.000000,0.000000,0.000000 Head:0.000000,0.000000,0.000000,0.000000 HipLeft:0.122843,-0.674890,0.707554,-0.169708 HipRight:-0.116266,0.686174,0.699234,-0.163459 KneeLeft:-0.011142,0.713208,-0.070441,-0.697315 KneeRight:-0.040711,0.699493,0.046013,0.711994 Neck:-0.005858,0.001100,0.996716,-0.080754 ShoulderLeft:0.018827,0.772068,-0.632711,0.056868 ShoulderRight:0.011927,0.797037,0.600518,-0.062993 SpineBase:0.008951,0.003283,0.999196,-0.038932 SpineMid:0.001740,0.003564,0.999235,-0.038907 SpineShoulder:-0.005782,0.001741,0.998212,-0.059465 ThumbLeft:0.000000,0.000000,0.000000,0.000000 ThumbRight:0.000000,0.000000,0.000000,0.000000 WristLeft:-0.064270,0.732961,-0.093244,0.670778 WristRight:-0.485059,0.782169,-0.245921,0.304060 END:
KINECT_DATA POSITION:29.523319,-4.466136,-4.316556 HEAD_JOINT1:0.980325,0.175030,-0.000000,0.091259 LARM_JOINT2:0.810319,0.000000,0.019531,-0.585664 LARM_JOINT3:0.975749,0.000000,-0.163138,-0.145942 LLEG_JOINT2:0.998315,0.042387,0.000000,0.039623 LLEG_JOINT4:0.995951,0.088223,0.000000,-0.017242 RARM_JOINT2:0.824731,0.000000,0.039167,0.564167 RARM_JOINT3:0.799788,0.000000,0.562194,0.210420 RLEG_JOINT2:0.996703,0.005495,0.000000,-0.080952 RLEG_JOINT4:0.991308,0.123422,0.000000,0.045551 WAIST:0.999904,-0.000000,0.005941,0.012495 WAIST_JOINT0:0.999281,-0.000000,0.025298,0.028232 WAIST_JOINT1:0.998078,0.061749,0.000000,-0.005258 END:
KINECT_DATA_Sensor  AnkleLeft:-0.068659,-0.694903,0.115868,0.706378 AnkleRight:0.078773,0.727937,0.103987,0.673119 ElbowLeft:-0.009535,0.867192,-0.182242,-0.463331 ElbowRight:-0.086902,0.788289,0.155441,0.588971 FootLeft:0.000000,0.000000,0.000000,0.000000 FootRight:0.000000,0.000000,0.000000,0.000000 HandLeft:-0.047068,0.837425,0.005874,0.544490 HandRight:-0.445313,0.849267,-0.241237,-0.149155 HandTipLeft:0.000000,0.000000,0.000000,0.000000 HandTipRight:0.000000,0.000000,0.000000,0.000000 Head:0.000000,0.000000,0.000000,0.000000 HipLeft:0.112686,-0.673267,0.712622,-0.161812 HipRight:-0.128167,0.687867,0.693813,-0.170400 KneeLeft:0.006409,-0.702130,0.066803,0.708879 KneeRight:-0.044882,0.710012,0.052021,0.700830 Neck:-0.026339,0.010308,0.996721,-0.075808 ShoulderLeft:0.033088,0.771088,-0.634779,0.037187 ShoulderRight:-0.000532,0.798588,0.597058,-0.076020 SpineBase:-0.006441,0.011455,0.999196,-0.037890 SpineMid:-0.016135,0.011822,0.999086,-0.037777 SpineShoulder:-0.026468,0.007343,0.997998,-0.056972 ThumbLeft:0.000000,0.000000,0.000000,0.000000 ThumbRight:0.000000,0.000000,0.000000,0.000000 WristLeft:-0.069444,0.837532,-0.089085,0.534585 WristRight:-0.540270,0.838301,-0.057592,-0.045195 END:
KINECT_DATA POSITION:29.958296,-4.479445,-4.388726 HEAD_JOINT1:0.981735,0.174685,-0.000000,0.075381 LARM_JOINT2:0.805728,0.000000,0.028594,-0.591596 LARM_JOINT3:0.975473,0.000000,-0.171109,-0.138472 LLEG_JOINT2:0.998577,0.041370,0.000000,0.033640 LLEG_JOINT4:0.996588,0.081953,0.000000,-0.009823 RARM_JOINT2:0.835647,0.000000,0.050221,0.546966 RARM_JOINT3:0.790647,0.000000,0.567125,0.230752 RLEG_JOINT2:0.995912,0.007887,0.000000,-0.089986 RLEG_JOINT4:0.991254,0.121584,0.000000,0.051319 WAIST:0.999588,-0.000000,0.024147,0.015501 WAIST_JOINT0:0.997896,-0.000000,0.055344,0.033778 WAIST_JOINT1:0.998183,0.060244,0.000000,-0.000875 END:
KINECT_DATA_Sensor  AnkleLeft:-0.061598,-0.678992,0.113011,0.722775 AnkleRight:0.076879,0.739953,0.105680,0.659842 ElbowLeft:-0.006291,0.843843,-0.184474,-0.503843 ElbowRight:-0.103254,0.810069,0.157878,0.555159 FootLeft:0.000000,0.000000,0.000000,0.000000 FootRight:0.000000,0.000000,0.000000,0.000000 HandLeft:-0.040597,0.844436,-0.005302,0.534090 HandRight:-0.438860,0.830348,-0.325686,-0.108874 HandTipLeft:0.000000,0.000000,0.000000,0.000000 HandTipRight:0.000000,0.000000,0.000000,0.000000 Head:0.000000,0.000000,0.000000,0.000000 HipLeft:0.101031,-0.673145,0.716508,-0.152593 HipRight:-0.141557,0.687394,0.689293,-0.179797 KneeLeft:0.004114,-0.688927,0.063838,0.722003 KneeRight:-0.048753,0.722371,0.056886,0.687436 Neck:-0.056186,0.018448,0.995522,-0.073753 ShoulderLeft:0.052149,0.767943,-0.638274,0.012249 ShoulderRight:-0.019943,0.800004,0.591609,-0.097957 SpineBase:-0.024591,0.017732,0.998841,-0.037378 SpineMid:-0.040058,0.018308,0.998341,-0.037098 SpineShoulder:-0.056353,0.013921,0.996784,-0.055244 ThumbLeft:0.000000,0.000000,0.000000,0.000000 ThumbRight:0.000000,0.000000,0.000000,0.000000 WristLeft:-0.066833,0.842684,-0.100141,0.524775 WristRight:-0.526483,0.840703,-0.126512,0.005369 END:
KINECT_DATA POSITION:30.051729,-4.462813,-4.634261 HEAD_JOINT1:0.983573,0.173101,-0.000000,0.051185 LARM_JOINT2:0.800624,0.000000,0.042904,-0.597629 LARM_JOINT3:0.974292,0.000000,-0.179292,-0.136416 LLEG_JOINT2:0.998577,0.039839,0.000000,0.035458 LLEG_JOINT4:0.997208,0.074086,0.000000,-0.009345 RARM_JOINT2:0.847367,0.000000,0.072083,0.526092 RARM_JOINT3:0.789744,0.000000,0.550263,0.271137 RLEG_JOINT2:0.995750,0.010598,0.000000,-0.091491 RLEG_JOINT4:0.991105,0.121832,0.000000,0.053560 WAIST:0.998683,-0.000000,0.048423,0.016973 WAIST_JOINT0:0.994726,-0.000000,0.094535,0.039801 WAIST_JOINT1:0.998163,0.060227,-0.000000,0.006611 END:
KINECT_DATA_Sensor  AnkleLeft:-0.053841,-0.657211,0.108016,0.743981 AnkleRight:0.078709,0.762077,0.106938,0.633725 ElbowLeft:0.002641,0.815360,-0.190087,-0.546852 ElbowRight:-0.115669,0.869783,0.164200,0.450707 FootLeft:0.000000,0.000000,0.000000,0.000000 FootRight:0.000000,0.000000,0.000000,0.000000 HandLeft:-0.038103,0.834168,-0.010437,0.550093 HandRight:0.369947,0.121403,-0.468361,0.793120 HandTipLeft:0.000000,0.000000,0.000000,0.000000 HandTipRight:0.000000,0.000000,0.000000,0.000000 Head:0.000000,0.000000,0.000000,0.000000 HipLeft:0.082396,-0.674564,0.720641,-0.137301 HipRight:-0.151751,0.685414,0.686558,-0.189254 KneeLeft:0.006222,-0.671106,0.065017,0.738479 KneeRight:-0.048632,0.738924,0.057403,0.669575 Neck:-0.095411,0.026703,0.992259,-0.074872 ShoulderLeft:0.078346,0.759904,-0.645015,-0.019070 ShoulderRight:-0.044499,0.797232,0.588369,-0.127522 SpineBase:-0.048798,0.021246,0.997846,-0.038337 SpineMid:-0.071768,0.022123,0.996458,-0.037837 SpineShoulder:-0.095463,0.022341,0.993690,-0.054474 ThumbLeft:0.000000,0.000000,0.000000,0.000000 ThumbRight:0.000000,0.000000,0.000000,0.000000 WristLeft:-0.055496,0.833080,-0.111184,0.539014 WristRight:0.207456,0.031009,-0.471628,0.856485 END:
KINECT_DATA POSITION:29.848108,-4.343930,-5.071473 HEAD_JOINT1:0.984539,0.173119,-0.000000,0.026714 LARM_JOINT2:0.797194,0.000000,0.055285,-0.601187 LARM_JOINT3:0.976211,0.000000,-0.173550,-0.129970 LLEG_JOINT2:0.998570,0.036815,0.000000,0.038754 LLEG_JOINT4:0.997593,0.068481,0.000000,-0.010933 RARM_JOINT2:0.857130,0.000000,0.095505,0.506170 RARM_JOINT3:0.792580,0.000000,0.532614,0.296882 RLEG_JOINT2:0.995460,0.013630,0.000000,-0.094197 RLEG_JOINT4:0.991104,0.119372,0.000000,0.058850 WAIST:0.997092,-0.000000,0.073676,0.019459 WAIST_JOINT0:0.990905,-0.000000,0.126260,0.046528 WAIST_JOINT1:0.997963,0.062851,-0.000000,0.010929 END:
KINECT_DATA_Sensor  AnkleLeft:-0.046928,-0.638928,0.103648,0.760806 AnkleRight:0.079557,0.777958,0.105387,0.614285 ElbowLeft:0.016452,0.796729,-0.196392,-0.571299 ElbowRight:-0.136540,0.895821,0.165312,0.389274 FootLeft:0.000000,0.000000,0.000000,0.000000 FootRight:0.000000,0.000000,0.000000,0.000000 HandLeft:-0.020558,0.841438,-0.026758,0.539299 HandRight:-0.502134,0.741303,-0.301892,-0.327403 HandTipLeft:0.000000,0.000000,0.000000,0.000000 HandTipRight:0.000000,0.000000,0.000000,0.000000 Head:0.000000,0.000000,0.000000,0.000000 HipLeft:0.068159,-0.675147,0.723245,-0.128248 HipRight:-0.168027,0.682799,0.680433,-0.206307 KneeLeft:0.011071,-0.652107,0.067137,0.755067 KneeRight:-0.048673,0.755768,0.058172,0.650431 Neck:-0.127704,0.031841,0.988221,-0.078085 ShoulderLeft:0.101344,0.750259,-0.652022,-0.041334 ShoulderRight:-0.063720,0.793887,0.584698,-0.154307 SpineBase:-0.074086,0.024137,0.996118,-0.040948 SpineMid:-0.100544,0.025217,0.993797,-0.040292 SpineShoulder:-0.127660,0.028125,0.989789,-0.056829 ThumbLeft:0.000000,0.000000,0.000000,0.000000 ThumbRight:0.000000,0.000000,0.000000,0.000000 WristLeft:-0.031190,0.839164,-0.107713,0.532192 WristRight:-0.489854,0.825334,-0.143657,-0.241307 END:
KINECT_DATA POSITION:29.399395,-4.211759,-5.429804 HEAD_JOINT1:0.985111,0.171919,0.000000,-0.000579 LARM_JOINT2:0.793611,0.000000,0.067685,-0.604649 LARM_JOINT3:0.975992,0.000000,-0.177428,-0.126327 LLEG_JOINT2:0.998502,0.029062,0.000000,0.046367 LLEG_JOINT4:0.997374,0.071447,0.000000,-0.011847 RARM_JOINT2:0.861904,0.000000,0.118899,0.492935 RARM_JOINT3:0.794520,0.000000,0.518466,0.316119 RLEG_JOINT2:0.995783,0.011801,0.000000,-0.090981 RLEG_JOINT4:0.990470,0.125147,0.000000,0.057505 WAIST:0.995786,-0.000000,0.090065,0.017306 WAIST_JOINT0:0.987396,-0.000000,0.149722,0.051316 WAIST_JOINT1:0.997660,0.065851,-0.000000,0.018405 END:
KINECT_DATA_Sensor  AnkleLeft:0.052308,0.702043,-0.098294,-0.703376 AnkleRight:0.074333,0.754496,0.113733,0.642087 ElbowLeft:0.027859,0.776232,-0.201668,-0.596673 ElbowRight:-0.152345,0.912927,0.161566,0.342420 FootLeft:0.000000,0.000000,0.000000,0.000000 FootRight:0.000000,0.000000,0.000000,0.000000 HandLeft:-0.015663,0.886088,-0.030524,0.462246 HandRight:-0.479378,0.727454,-0.325127,-0.367832 HandTipLeft:0.000000,0.000000,0.000000,0.000000 HandTipRight:0.000000,0.000000,0.000000,0.000000 Head:0.000000,0.000000,0.000000,0.000000 HipLeft:0.059858,-0.677476,0.722269,-0.125580 HipRight:-0.181498,0.677465,0.678095,-0.219743 KneeLeft:0.019484,-0.639892,0.066466,0.765337 KneeRight:-0.050102,0.765963,0.055154,0.638552 Neck:-0.152079,0.036182,0.984326,-0.081646 ShoulderLeft:0.122908,0.741153,-0.657295,-0.059568 ShoulderRight:-0.074007,0.791284,0.581782,-0.172982 SpineBase:-0.090101,0.027394,0.994609,-0.043413 SpineMid:-0.120680,0.028717,0.991363,-0.042549 SpineShoulder:-0.151963,0.032959,0.986013,-0.059992 ThumbLeft:0.000000,0.000000,0.000000,0.000000 ThumbRight:0.000000,0.000000,0.000000,0.000000 WristLeft:-0.026137,0.882760,-0.105338,0.457116 WristRight:-0.481374,0.813655,-0.162772,-0.282400 END:
KINECT_DATA POSITION:29.241228,-4.150688,-5.602396 HEAD_JOINT1:0.984839,0.173073,0.000000,-0.011726 LARM_JOINT2:0.790247,0.000000,0.071833,-0.608564 LARM_JOINT3:0.974117,0.000000,-0.189175,-0.123729 LLEG_JOINT2:0.998531,0.024437,0.000000,0.048362 LLEG_JOINT4:0.997310,0.072329,0.000000,-0.011906 RARM_JOINT2:0.861847,0.000000,0.124367,0.491683 RARM_JOINT3:0.794998,0.000000,0.513206,0.323417 RLEG_JOINT2:0.995721,0.012826,0.000000,-0.091516 RLEG_JOINT4:0.990346,0.123488,0.000000,0.062979 WAIST:0.994641,-0.000000,0.101828,0.017881 WAIST_JOINT0:0.984926,-0.000000,0.164516,0.053439 WAIST_JOINT1:0.997563,0.066380,-0.000000,0.021506 END:
KINECT_DATA_Sensor  AnkleLeft:-0.038402,-0.616294,0.102039,0.779933 AnkleRight:0.082689,0.796220,0.106011,0.589880 ElbowLeft:0.030418,0.757596,-0.201779,-0.620007 ElbowRight:-0.154481,0.921229,0.156165,0.321069 FootLeft:0.000000,0.000000,0.000000,0.000000 FootRight:0.000000,0.000000,0.000000,0.000000 HandLeft:-0.023130,0.841662,-0.045802,0.537561 HandRight:-0.201829,0.810741,-0.540982,0.096450 HandTipLeft:0.000000,0.000000,0.000000,0.000000 HandTipRight:0.000000,0.000000,0.000000,0.000000 Head:0.000000,0.000000,0.000000,0.000000 HipLeft:0.052562,-0.677650,0.723562,-0.120355 HipRight:-0.189023,0.675468,0.675906,-0.226196 KneeLeft:0.024093,-0.630862,0.065593,0.772742 KneeRight:-0.050257,0.773435,0.055138,0.629469 Neck:-0.166875,0.039431,0.981737,-0.082399 ShoulderLeft:0.132296,0.737674,-0.658390,-0.069690 ShoulderRight:-0.084294,0.788788,0.579943,-0.185404 SpineBase:-0.101767,0.029693,0.993388,-0.044063 SpineMid:-0.133894,0.031105,0.989570,-0.043078 SpineShoulder:-0.166753,0.035974,0.983473,-0.060664 ThumbLeft:0.000000,0.000000,0.000000,0.000000 ThumbRight:0.000000,0.000000,0.000000,0.000000 WristLeft:-0.016900,0.840012,-0.113609,0.530271 WristRight:-0.311712,0.843673,-0.401665,0.172384 END:
KINECT_DATA POSITION:29.122383,-4.109230,-5.725324 HEAD_JOINT1:0.984605,0.173567,0.000000,-0.020686 LARM_JOINT2:0.787027,0.000000,0.079190,-0.611814 LARM_JOINT3:0.973822,0.000000,-0.193257,-0.119678 LLEG_JOINT2:0.998473,0.023015,0.000000,0.050228 LLEG_JOINT4:0.997653,0.067865,0.000000,-0.009074 RARM_JOINT2:0.861431,0.000000,0.139808,0.488252 RARM_JOINT3:0.796443,0.000000,0.503173,0.335403 RLEG_JOINT2:0.995751,0.013621,0.000000,-0.091073 RLEG_JOINT4:0.990218,0.123535,0.000000,0.064861 WAIST:0.993645,-0.000000,0.111315,0.016671 WAIST_JOINT0:0.982417,-0.000000,0.178276,0.055445 WAIST_JOINT1:0.997456,0.066540,-0.000000,0.025584 END:
KINECT_DATA_Sensor  AnkleLeft:-0.044451,-0.699356,0.096015,0.706899 AnkleRight:0.083226,0.802692,0.106488,0.580878 ElbowLeft:0.036012,0.743285,-0.202485,-0.636578 ElbowRight:-0.162024,0.932165,0.149273,0.287288 FootLeft:0.000000,0.000000,0.000000,0.000000 FootRight:0.000000,0.000000,0.000000,0.000000 HandLeft:-0.018611,0.824352,-0.054833,0.563107 HandRight:-0.471083,0.710647,-0.330857,-0.404469 HandTipLeft:0.000000,0.000000,0.000000,0.000000 HandTipRight:0.000000,0.000000,0.000000,0.000000 Head:0.000000,0.000000,0.000000,0.000000 HipLeft:0.047051,-0.679116,0.723145,-0.116826 HipRight:-0.195692,0.673028,0.674719,-0.231284 KneeLeft:0.024996,-0.623632,0.065423,0.778574 KneeRight:-0.050920,0.779263,0.055727,0.622134 Neck:-0.180665,0.042047,0.979147,-0.082852 ShoulderLeft:0.141336,0.734432,-0.659005,-0.079658 ShoulderRight:-0.093484,0.786693,0.577723,-0.196496 SpineBase:-0.111013,0.031736,0.992314,-0.044521 SpineMid:-0.145376,0.033261,0.987865,-0.043393 SpineShoulder:-0.180537,0.038466,0.980916,-0.061084 ThumbLeft:0.000000,0.000000,0.000000,0.000000 ThumbRight:0.000000,0.000000,0.000000,0.000000 WristLeft:-0.006978,0.823062,-0.114113,0.556326 WristRight:-0.472835,0.792340,-0.188030,-0.336556 END:
KINECT_DATA POSITION:29.117022,-4.100177,-5.809224 HEAD_JOINT1:0.984605,0.172988,0.000000,-0.025077 LARM_JOINT2:0.786004,0.000000,0.078742,-0.613186 LARM_JOINT3:0.972036,0.000000,-0.200717,-0.121900 LLEG_JOINT2:0.998488,0.021248,0.000000,0.050698 LLEG_JOINT4:0.997609,0.068862,0.000000,-0.005904 RARM_JOINT2:0.860254,0.000000,0.156481,0.485259 RARM_JOINT3:0.800569,0.000000,0.493717,0.339608 RLEG_JOINT2:0.995679,0.011718,0.000000,-0.092120 RLEG_JOINT4:0.989429,0.127376,0.000000,0.069321 WAIST:0.992882,-0.000000,0.118074,0.015600 WAIST_JOINT0:0.980939,-0.000000,0.185890,0.056597 WAIST_JOINT1:0.997349,0.066699,-0.000000,0.029078 END:
KINECT_DATA_Sensor  AnkleLeft:-0.043614,-0.698148,0.097270,0.707973 AnkleRight:0.075937,0.752881,0.113957,0.643753 ElbowLeft:0.037387,0.740646,-0.202661,-0.639511 ElbowRight:-0.171083,0.938795,0.140411,0.263970 FootLeft:0.000000,0.000000,0.000000,0.000000 FootRight:0.000000,0.000000,0.000000,0.000000 HandLeft:-0.036189,0.833282,-0.071240,0.547043 HandRight:-0.465339,0.702910,-0.330297,-0.424595 HandTipLeft:0.000000,0.000000,0.000000,0.000000 HandTipRight:0.000000,0.000000,0.000000,0.000000 Head:0.000000,0.000000,0.000000,0.000000 HipLeft:0.042276,-0.680157,0.722946,-0.113792 HipRight:-0.199924,0.671018,0.674306,-0.234682 KneeLeft:0.025547,-0.618516,0.064039,0.782742 KneeRight:-0.054157,0.783064,0.055183,0.617117 Neck:-0.188220,0.044292,0.977575,-0.083422 ShoulderLeft:0.146479,0.733338,-0.658377,-0.085436 ShoulderRight:-0.098117,0.786296,0.575375,-0.202619 SpineBase:-0.117575,0.033106,0.991484,-0.045157 SpineMid:-0.152437,0.034677,0.986726,-0.043963 SpineShoulder:-0.188099,0.040416,0.979384,-0.061583 ThumbLeft:0.000000,0.000000,0.000000,0.000000 ThumbRight:0.000000,0.000000,0.000000,0.000000 WristLeft:-0.010150,0.833579,-0.114533,0.540300 WristRight:-0.470823,0.781393,-0.193791,-0.360828 END:
KINECT_DATA POSITION:29.103283,-4.085264,-5.820644 HEAD_JOINT1:0.984639,0.172298,0.000000,-0.028270 LARM_JOINT2:0.785211,0.000000,0.077015,-0.614420 LARM_JOINT3:0.970847,0.000000,-0.204861,-0.124450 LLEG_JOINT2:0.998463,0.019226,0.000000,0.051973 LLEG_JOINT4:0.997582,0.069414,0.000000,-0.003395 RARM_JOINT2:0.880073,0.000000,0.164755,0.445340 RARM_JOINT3:0.760820,0.000000,0.515262,0.394535 RLEG_JOINT2:0.995794,0.013602,0.000000,-0.090602 RLEG_JOINT4:0.989666,0.124590,0.000000,0.070976 WAIST:0.992294,-0.000000,0.123108,0.014029 WAIST_JOINT0:0.979932,-0.000000,0.190658,0.058170 WAIST_JOINT1:0.997299,0.066155,-0.000000,0.031905 END:
KINECT_DATA_Sensor  AnkleLeft:0.043093,0.703900,-0.097686,-0.702229 AnkleRight:0.074018,0.744041,0.114180,0.654131 ElbowLeft:0.037030,0.738411,-0.201554,-0.642459 ElbowRight:-0.195549,0.941798,0.176122,0.209186 FootLeft:0.000000,0.000000,0.000000,0.000000 FootRight:0.000000,0.000000,0.000000,0.000000 HandLeft:-0.053409,0.851063,-0.075297,0.516884 HandRight:-0.465378,0.697932,-0.340137,-0.424996 HandTipLeft:0.000000,0.000000,0.000000,0.000000 HandTipRight:0.000000,0.000000,0.000000,0.000000 Head:0.000000,0.000000,0.000000,0.000000 HipLeft:0.040513,-0.680699,0.722732,-0.112542 HipRight:-0.204924,0.668299,0.674460,-0.237668 KneeLeft:0.026542,-0.614730,0.062773,0.785787 KneeRight:-0.053238,0.786230,0.056518,0.613037 Neck:-0.193096,0.045205,0.976605,-0.083145 ShoulderLeft:0.148446,0.732435,-0.658572,-0.088240 ShoulderRight:-0.102481,0.786591,0.572563,-0.207229 SpineBase:-0.122405,0.034015,0.990872,-0.045091 SpineMid:-0.157274,0.035584,0.985938,-0.043863 SpineShoulder:-0.192965,0.041371,0.978404,-0.061470 ThumbLeft:0.000000,0.000000,0.000000,0.000000 ThumbRight:0.000000,0.000000,0.000000,0.000000 WristLeft:-0.016210,0.852724,-0.115427,0.509191 WristRight:-0.473034,0.750182,-0.252219,-0.387107 END:
KINECT_DATA POSITION:29.131334,-4.076394,-5.811858 HEAD_JOINT1:0.984558,0.172522,0.000000,-0.029694 LARM_JOINT2:0.784783,0.000000,0.075167,-0.615196 LARM_JOINT3:0.970916,0.000000,-0.206242,-0.121598 LLEG_JOINT2:0.998397,0.018345,0.000000,0.053535 LLEG_JOINT4:0.997407,0.071912,0.000000,-0.002967 RARM_JOINT2:0.882760,0.000000,0.162948,0.440662 RARM_JOINT3:0.754351,0.000000,0.520035,0.400646 RLEG_JOINT2:0.995804,0.014705,0.000000,-0.090326 RLEG_JOINT4:0.989541,0.123631,0.000000,0.074322 WAIST:0.991854,-0.000000,0.126720,0.012910 WAIST_JOINT0:0.979562,-0.000000,0.192250,0.059146 WAIST_JOINT1:0.997275,0.065520,-0.000000,0.033894 END:
KINECT_DATA_Sensor  AnkleLeft:-0.030742,-0.599915,0.104213,0.792652 AnkleRight:0.086902,0.808697,0.104893,0.572236 ElbowLeft:0.036312,0.737682,-0.200578,-0.643642 ElbowRight:-0.198208,0.941227,0.179619,0.206255 FootLeft:0.000000,0.000000,0.000000,0.000000 FootRight:0.000000,0.000000,0.000000,0.000000 HandLeft:-0.048325,0.841622,-0.088586,0.530557 HandRight:-0.462848,0.694535,-0.333811,-0.438136 HandTipLeft:0.000000,0.000000,0.000000,0.000000 HandTipRight:0.000000,0.000000,0.000000,0.000000 Head:0.000000,0.000000,0.000000,0.000000 HipLeft:0.039638,-0.681149,0.722474,-0.111788 HipRight:-0.209261,0.666294,0.674249,-0.240106 KneeLeft:0.027205,-0.611967,0.062744,0.787921 KneeRight:-0.053373,0.788434,0.057783,0.610069 Neck:-0.194789,0.045775,0.976271,-0.082805 ShoulderLeft:0.149830,0.731947,-0.658543,-0.090141 ShoulderRight:-0.103015,0.787667,0.570662,-0.208118 SpineBase:-0.125872,0.034780,0.990424,-0.044803 SpineMid:-0.159849,0.036300,0.985511,-0.043581 SpineShoulder:-0.194655,0.041901,0.978061,-0.061235 ThumbLeft:0.000000,0.000000,0.000000,0.000000 ThumbRight:0.000000,0.000000,0.000000,0.000000 WristLeft:-0.015007,0.843124,-0.116418,0.524751 WristRight:-0.481209,0.737399,-0.255034,-0.399548 END:
