EastLYD/RoboCupatHomeSim/InteractiveCleanUp/JapanOpen2016/Motion_Data/File79.dat
KINECT_DATA POSITION:20.377611,-1.889007,-11.792553 HEAD_JOINT1:0.977317,0.177651,-0.000000,0.115286 LARM_JOINT2:0.836785,0.000000,-0.025740,-0.546926 LARM_JOINT3:0.966020,0.000000,-0.181727,-0.183796 LLEG_JOINT2:0.997931,0.020515,0.000000,0.060933 LLEG_JOINT4:0.993789,0.100331,0.000000,-0.048145 RARM_JOINT2:0.774717,0.000000,-0.085742,0.626467 RARM_JOINT3:0.969208,0.000000,0.196623,0.148237 RLEG_JOINT2:0.999741,-0.004917,-0.000000,-0.022226 RLEG_JOINT4:0.994445,0.101681,0.000000,0.027198 WAIST:0.999088,0.000000,-0.041252,-0.011018 WAIST_JOINT0:0.997704,0.000000,-0.066312,-0.013747 WAIST_JOINT1:0.996803,0.077271,0.000000,-0.020301 END:
KINECT_DATA_Sensor  AnkleLeft:0.082238,0.741750,-0.087583,-0.659828 AnkleRight:0.071444,0.720328,0.064813,0.686894 ElbowLeft:-0.026744,0.924950,-0.179218,-0.334115 ElbowRight:0.060054,0.814797,0.184821,0.546205 FootLeft:0.000000,0.000000,0.000000,0.000000 FootRight:0.000000,0.000000,0.000000,0.000000 HandLeft:-0.133851,0.781663,0.021380,0.608794 HandRight:-0.108985,0.838342,0.002740,-0.534132 HandTipLeft:0.000000,0.000000,0.000000,0.000000 HandTipRight:0.000000,0.000000,0.000000,0.000000 Head:0.000000,0.000000,0.000000,0.000000 HipLeft:0.145764,-0.678664,0.692784,-0.195496 HipRight:-0.085196,0.672159,0.717519,-0.161591 KneeLeft:-0.023150,0.734826,-0.048590,-0.676117 KneeRight:-0.026420,0.678392,0.020859,0.733929 Neck:0.066478,-0.031298,0.992879,-0.093763 ShoulderLeft:-0.013621,0.783948,-0.609868,0.115334 ShoulderRight:0.073515,0.769182,0.634685,-0.011340 SpineBase:0.040827,-0.026590,0.997427,-0.052583 SpineMid:0.053234,-0.027242,0.996842,-0.052248 SpineShoulder:0.066163,-0.029542,0.994768,-0.072024 ThumbLeft:0.000000,0.000000,0.000000,0.000000 ThumbRight:0.000000,0.000000,0.000000,0.000000 WristLeft:-0.106614,0.793741,-0.058379,0.595987 WristRight:-0.037377,0.847870,0.057954,-0.525700 END:
KINECT_DATA POSITION:20.383541,-1.884802,-11.753631 HEAD_JOINT1:0.976962,0.179784,-0.000000,0.114987 LARM_JOINT2:0.836528,0.000000,-0.024321,-0.547384 LARM_JOINT3:0.966629,0.000000,-0.180082,-0.182206 LLEG_JOINT2:0.997904,0.020070,0.000000,0.061515 LLEG_JOINT4:0.993948,0.098584,0.000000,-0.048465 RARM_JOINT2:0.774688,0.000000,-0.085074,0.626594 RARM_JOINT3:0.970821,0.000000,0.190543,0.145599 RLEG_JOINT2:0.999751,-0.004954,-0.000000,-0.021772 RLEG_JOINT4:0.994160,0.104501,0.000000,0.026920 WAIST:0.999084,0.000000,-0.041201,-0.011592 WAIST_JOINT0:0.997706,0.000000,-0.066208,-0.014128 WAIST_JOINT1:0.996809,0.077297,0.000000,-0.019921 END:
KINECT_DATA_Sensor  AnkleLeft:0.082230,0.751981,-0.084535,-0.648550 AnkleRight:0.073526,0.721892,0.066654,0.684852 ElbowLeft:-0.025282,0.925120,-0.179161,-0.333788 ElbowRight:0.060097,0.816528,0.184509,0.543716 FootLeft:0.000000,0.000000,0.000000,0.000000 FootRight:0.000000,0.000000,0.000000,0.000000 HandLeft:-0.125645,0.790674,0.018707,0.598914 HandRight:-0.084404,0.826456,-0.000450,-0.556639 HandTipLeft:0.000000,0.000000,0.000000,0.000000 HandTipRight:0.000000,0.000000,0.000000,0.000000 Head:0.000000,0.000000,0.000000,0.000000 HipLeft:0.145582,-0.679043,0.692441,-0.195529 HipRight:-0.085048,0.671761,0.717899,-0.161632 KneeLeft:-0.023472,0.734791,-0.048252,-0.676168 KneeRight:-0.026546,0.678407,0.020905,0.733909 Neck:0.066426,-0.031446,0.992883,-0.093713 ShoulderLeft:-0.013416,0.784157,-0.609629,0.115194 ShoulderRight:0.073638,0.768860,0.635062,-0.011337 SpineBase:0.040822,-0.026838,0.997413,-0.052724 SpineMid:0.053199,-0.027490,0.996830,-0.052387 SpineShoulder:0.066102,-0.029749,0.994764,-0.072048 ThumbLeft:0.000000,0.000000,0.000000,0.000000 ThumbRight:0.000000,0.000000,0.000000,0.000000 WristLeft:-0.106032,0.800314,-0.056066,0.587461 WristRight:-0.035247,0.833120,0.057834,-0.548929 END:
KINECT_DATA POSITION:20.373705,-1.884572,-11.684931 HEAD_JOINT1:0.976521,0.182045,-0.000000,0.115183 LARM_JOINT2:0.836405,0.000000,-0.023303,-0.547617 LARM_JOINT3:0.966188,0.000000,-0.184933,-0.179668 LLEG_JOINT2:0.997856,0.020308,0.000000,0.062210 LLEG_JOINT4:0.993314,0.104793,0.000000,-0.048438 RARM_JOINT2:0.774390,0.000000,-0.090324,0.626228 RARM_JOINT3:0.970044,0.000000,0.192365,0.148358 RLEG_JOINT2:0.999756,-0.005440,-0.000000,-0.021398 RLEG_JOINT4:0.994123,0.104727,0.000000,0.027431 WAIST:0.999086,0.000000,-0.041074,-0.011807 WAIST_JOINT0:0.997889,0.000000,-0.063472,-0.013777 WAIST_JOINT1:0.996782,0.077508,0.000000,-0.020431 END:
KINECT_DATA_Sensor  AnkleLeft:0.086427,0.751074,-0.089408,-0.648401 AnkleRight:0.072076,0.704886,0.067776,0.702387 ElbowLeft:-0.024632,0.923794,-0.178676,-0.337748 ElbowRight:0.063278,0.814817,0.186951,0.545086 FootLeft:0.000000,0.000000,0.000000,0.000000 FootRight:0.000000,0.000000,0.000000,0.000000 HandLeft:-0.139320,0.827957,0.016662,0.542954 HandRight:-0.086485,0.846856,-0.006200,-0.524706 HandTipLeft:0.000000,0.000000,0.000000,0.000000 HandTipRight:0.000000,0.000000,0.000000,0.000000 Head:0.000000,0.000000,0.000000,0.000000 HipLeft:0.145466,-0.679221,0.692320,-0.195427 HipRight:-0.084791,0.671549,0.718061,-0.161929 KneeLeft:-0.023663,0.734691,-0.048750,-0.676234 KneeRight:-0.026803,0.678552,0.020452,0.733778 Neck:0.063828,-0.031983,0.993010,-0.093989 ShoulderLeft:-0.014107,0.784221,-0.609518,0.115263 ShoulderRight:0.069743,0.769158,0.635053,-0.015501 SpineBase:0.040683,-0.027441,0.997391,-0.052945 SpineMid:0.051826,-0.028031,0.996874,-0.052635 SpineShoulder:0.063488,-0.030283,0.994896,-0.072341 ThumbLeft:0.000000,0.000000,0.000000,0.000000 ThumbRight:0.000000,0.000000,0.000000,0.000000 WristLeft:-0.108978,0.837744,-0.049764,0.532758 WristRight:-0.036206,0.853706,0.055552,-0.516517 END:
KINECT_DATA POSITION:20.372053,-1.895307,-11.600267 HEAD_JOINT1:0.976457,0.182443,-0.000000,0.115095 LARM_JOINT2:0.836277,0.000000,-0.022638,-0.547839 LARM_JOINT3:0.965304,0.000000,-0.188925,-0.180264 LLEG_JOINT2:0.997824,0.020208,0.000000,0.062756 LLEG_JOINT4:0.993226,0.105028,0.000000,-0.049704 RARM_JOINT2:0.774111,0.000000,-0.091542,0.626396 RARM_JOINT3:0.968947,0.000000,0.195525,0.151368 RLEG_JOINT2:0.999751,-0.005971,-0.000000,-0.021512 RLEG_JOINT4:0.994294,0.103057,0.000000,0.027555 WAIST:0.999057,0.000000,-0.041650,-0.012243 WAIST_JOINT0:0.997919,0.000000,-0.062992,-0.013786 WAIST_JOINT1:0.996765,0.077724,0.000000,-0.020468 END:
KINECT_DATA_Sensor  AnkleLeft:0.085652,0.739548,-0.090287,-0.661499 AnkleRight:0.067413,0.675960,0.069387,0.730561 ElbowLeft:-0.023969,0.923672,-0.178331,-0.338310 ElbowRight:0.064269,0.814090,0.187508,0.545864 FootLeft:0.000000,0.000000,0.000000,0.000000 FootRight:0.000000,0.000000,0.000000,0.000000 HandLeft:-0.148029,0.508513,-0.054372,0.846490 HandRight:-0.105725,0.840854,-0.004788,-0.530814 HandTipLeft:0.000000,0.000000,0.000000,0.000000 HandTipRight:0.000000,0.000000,0.000000,0.000000 Head:0.000000,0.000000,0.000000,0.000000 HipLeft:0.145724,-0.679421,0.691943,-0.195874 HipRight:-0.084234,0.671307,0.718374,-0.161833 KneeLeft:-0.023857,0.735077,-0.048720,-0.675810 KneeRight:-0.027572,0.678131,0.020497,0.734137 Neck:0.063393,-0.032299,0.993004,-0.094244 ShoulderLeft:-0.013873,0.783931,-0.609899,0.115253 ShoulderRight:0.069484,0.768724,0.635589,-0.016215 SpineBase:0.041279,-0.027841,0.997342,-0.053191 SpineMid:0.051902,-0.028406,0.996846,-0.052892 SpineShoulder:0.063042,-0.030631,0.994896,-0.072590 ThumbLeft:0.000000,0.000000,0.000000,0.000000 ThumbRight:0.000000,0.000000,0.000000,0.000000 WristLeft:-0.075241,0.514385,-0.092403,0.849240 WristRight:-0.034790,0.850504,0.055412,-0.521883 END:
KINECT_DATA POSITION:20.294922,-1.973067,-11.390829 HEAD_JOINT1:0.976743,0.181688,-0.000000,0.113852 LARM_JOINT2:0.834971,0.000000,-0.026428,-0.549659 LARM_JOINT3:0.948931,0.000000,-0.244314,-0.199603 LLEG_JOINT2:0.997692,0.022642,0.000000,0.064012 LLEG_JOINT4:0.993909,0.099914,0.000000,-0.046504 RARM_JOINT2:0.774108,0.000000,-0.091198,0.626450 RARM_JOINT3:0.970167,0.000000,0.192036,0.147983 RLEG_JOINT2:0.999804,-0.003701,-0.000000,-0.019470 RLEG_JOINT4:0.994043,0.105404,0.000000,0.027731 WAIST:0.999032,0.000000,-0.041832,-0.013591 WAIST_JOINT0:0.997666,0.000000,-0.066510,-0.015469 WAIST_JOINT1:0.996813,0.077299,0.000000,-0.019710 END:
KINECT_DATA_Sensor  AnkleLeft:0.081729,0.742012,-0.090269,-0.659234 AnkleRight:0.075368,0.716092,0.067586,0.690626 ElbowLeft:-0.029830,0.916641,-0.173522,-0.358846 ElbowRight:0.063814,0.815172,0.187486,0.544308 FootLeft:0.000000,0.000000,0.000000,0.000000 FootRight:0.000000,0.000000,0.000000,0.000000 HandLeft:-0.308039,0.427413,-0.134652,0.839225 HandRight:-0.086465,0.849874,-0.000961,-0.519844 HandTipLeft:0.000000,0.000000,0.000000,0.000000 HandTipRight:0.000000,0.000000,0.000000,0.000000 Head:0.000000,0.000000,0.000000,0.000000 HipLeft:0.146080,-0.680350,0.691082,-0.195423 HipRight:-0.084140,0.670397,0.719353,-0.161302 KneeLeft:-0.022180,0.735416,-0.050413,-0.675374 KneeRight:-0.025469,0.677943,0.021481,0.734359 Neck:0.066959,-0.033109,0.992793,-0.093714 ShoulderLeft:-0.015750,0.784834,-0.608373,0.116921 ShoulderRight:0.072108,0.767964,0.636300,-0.012438 SpineBase:0.041555,-0.028828,0.997329,-0.052699 SpineMid:0.053783,-0.029472,0.996744,-0.052341 SpineShoulder:0.066593,-0.031473,0.994681,-0.072008 ThumbLeft:0.000000,0.000000,0.000000,0.000000 ThumbRight:0.000000,0.000000,0.000000,0.000000 WristLeft:-0.093028,0.451492,-0.113996,0.880060 WristRight:-0.034805,0.856248,0.054788,-0.512471 END:
KINECT_DATA POSITION:19.724543,-2.022829,-11.032618 HEAD_JOINT1:0.977187,0.179512,-0.000000,0.113495 LARM_JOINT2:0.834524,0.000000,-0.033168,-0.549972 LARM_JOINT3:0.921079,0.000000,-0.311933,-0.233047 LLEG_JOINT2:0.996584,0.026755,0.000000,0.078128 LLEG_JOINT4:0.993468,0.101680,0.000000,-0.051784 RARM_JOINT2:0.772821,0.000000,-0.092423,0.627858 RARM_JOINT3:0.969933,0.000000,0.192072,0.149461 RLEG_JOINT2:0.999992,0.000630,0.000000,-0.003859 RLEG_JOINT4:0.995004,0.098125,0.000000,0.018413 WAIST:0.998807,0.000000,-0.043907,-0.021367 WAIST_JOINT0:0.997148,0.000000,-0.072884,-0.019596 WAIST_JOINT1:0.996980,0.075923,0.000000,-0.016295 END:
KINECT_DATA_Sensor  AnkleLeft:0.086669,0.757140,-0.093164,-0.640741 AnkleRight:0.072305,0.719025,0.066171,0.688038 ElbowLeft:-0.036167,0.915029,-0.165204,-0.366226 ElbowRight:0.062975,0.814958,0.188697,0.544308 FootLeft:0.000000,0.000000,0.000000,0.000000 FootRight:0.000000,0.000000,0.000000,0.000000 HandLeft:-0.328745,0.114183,-0.306066,0.886122 HandRight:-0.084258,0.993733,-0.040002,-0.061598 HandTipLeft:0.000000,0.000000,0.000000,0.000000 HandTipRight:0.000000,0.000000,0.000000,0.000000 Head:0.000000,0.000000,0.000000,0.000000 HipLeft:-0.149737,0.685994,-0.685408,0.192894 HipRight:-0.082565,0.665413,0.724772,-0.158474 KneeLeft:-0.024405,0.737280,-0.057455,-0.672697 KneeRight:-0.017223,0.676347,0.018411,0.736152 Neck:0.073509,-0.037499,0.992255,-0.092846 ShoulderLeft:-0.022790,0.786977,-0.604519,0.121268 ShoulderRight:0.073531,0.766233,0.638304,-0.006892 SpineBase:0.044074,-0.035668,0.997125,-0.050274 SpineMid:0.058072,-0.036370,0.996408,-0.049768 SpineShoulder:0.073016,-0.035998,0.994221,-0.069987 ThumbLeft:0.000000,0.000000,0.000000,0.000000 ThumbRight:0.000000,0.000000,0.000000,0.000000 WristLeft:-0.121499,0.171271,-0.180039,0.960984 WristRight:-0.055524,0.996405,0.033993,-0.054215 END:
KINECT_DATA POSITION:19.038103,-2.045399,-10.573185 HEAD_JOINT1:0.978387,0.170447,-0.000000,0.117073 LARM_JOINT2:0.838750,0.000000,-0.034405,-0.543429 LARM_JOINT3:0.885061,0.000000,-0.382107,-0.265823 LLEG_JOINT2:0.994608,0.032895,0.000000,0.098348 LLEG_JOINT4:0.992993,0.099959,0.000000,-0.063025 RARM_JOINT2:0.769567,0.000000,-0.095382,0.631402 RARM_JOINT3:0.971081,0.000000,0.189556,0.145155 RLEG_JOINT2:0.999873,0.005686,0.000000,0.014867 RLEG_JOINT4:0.995264,0.096422,0.000000,0.012346 WAIST:0.998231,0.000000,-0.049381,-0.033121 WAIST_JOINT0:0.996306,0.000000,-0.082124,-0.025089 WAIST_JOINT1:0.997133,0.074655,0.000000,-0.012328 END:
KINECT_DATA_Sensor  AnkleLeft:0.087732,0.740196,-0.097017,-0.659546 AnkleRight:0.075280,0.715184,0.066728,0.691659 ElbowLeft:-0.043533,0.909743,-0.162464,-0.379577 ElbowRight:0.062232,0.808693,0.190815,0.552930 FootLeft:0.000000,0.000000,0.000000,0.000000 FootRight:0.000000,0.000000,0.000000,0.000000 HandLeft:-0.523392,0.605716,-0.024026,0.598825 HandRight:-0.066839,0.989325,-0.016485,-0.128439 HandTipLeft:0.000000,0.000000,0.000000,0.000000 HandTipRight:0.000000,0.000000,0.000000,0.000000 Head:0.000000,0.000000,0.000000,0.000000 HipLeft:-0.154518,0.692894,-0.676651,0.195360 HipRight:-0.079792,0.657754,0.732677,-0.155491 KneeLeft:-0.027293,0.741798,-0.067138,-0.666696 KneeRight:-0.009216,0.671786,0.016229,0.740510 Neck:0.082761,-0.045201,0.991353,-0.091256 ShoulderLeft:-0.028269,0.790239,-0.599176,0.125346 ShoulderRight:0.079932,0.763549,0.640774,0.003454 SpineBase:0.050327,-0.042860,0.996606,-0.049057 SpineMid:0.065683,-0.043611,0.995712,-0.048390 SpineShoulder:0.082125,-0.043526,0.993334,-0.068186 ThumbLeft:0.000000,0.000000,0.000000,0.000000 ThumbRight:0.000000,0.000000,0.000000,0.000000 WristLeft:-0.267387,0.641779,-0.098186,0.712028 WristRight:-0.053023,0.990011,0.042571,-0.123508 END:
KINECT_DATA POSITION:18.818052,-2.008620,-10.399210 HEAD_JOINT1:0.978812,0.167199,-0.000000,0.118204 LARM_JOINT2:0.841509,0.000000,-0.039980,-0.538762 LARM_JOINT3:0.869965,0.000000,-0.400249,-0.288032 LLEG_JOINT2:0.993939,0.036117,0.000000,0.103836 LLEG_JOINT4:0.993335,0.096130,0.000000,-0.063592 RARM_JOINT2:0.768548,0.000000,-0.096957,0.632402 RARM_JOINT3:0.970150,0.000000,0.190445,0.150132 RLEG_JOINT2:0.999815,0.006378,0.000000,0.018162 RLEG_JOINT4:0.995377,0.095240,0.000000,0.012418 WAIST:0.997940,0.000000,-0.053351,-0.035629 WAIST_JOINT0:0.995879,0.000000,-0.086584,-0.026992 WAIST_JOINT1:0.997170,0.074060,0.000000,-0.012936 END:
KINECT_DATA_Sensor  AnkleLeft:0.088744,0.768240,-0.094965,-0.626828 AnkleRight:0.070703,0.661905,0.070428,0.742915 ElbowLeft:-0.050273,0.911219,-0.161124,-0.375756 ElbowRight:0.062473,0.805789,0.192003,0.556720 FootLeft:0.000000,0.000000,0.000000,0.000000 FootRight:0.000000,0.000000,0.000000,0.000000 HandLeft:-0.370995,0.832877,0.410658,-0.006286 HandRight:-0.072885,0.996541,-0.037483,-0.013731 HandTipLeft:0.000000,0.000000,0.000000,0.000000 HandTipRight:0.000000,0.000000,0.000000,0.000000 Head:0.000000,0.000000,0.000000,0.000000 HipLeft:-0.157680,0.693747,-0.674345,0.197763 HipRight:-0.077864,0.656203,0.734576,-0.154053 KneeLeft:-0.027773,0.744746,-0.071261,-0.662951 KneeRight:-0.008302,0.668759,0.015955,0.743262 Neck:0.087179,-0.048112,0.990928,-0.090263 ShoulderLeft:-0.030445,0.790776,-0.597922,0.127421 ShoulderRight:0.083502,0.762011,0.642104,0.008291 SpineBase:0.054431,-0.044790,0.996309,-0.048981 SpineMid:0.069948,-0.045547,0.995340,-0.048277 SpineShoulder:0.086512,-0.046347,0.992869,-0.067668 ThumbLeft:0.000000,0.000000,0.000000,0.000000 ThumbRight:0.000000,0.000000,0.000000,0.000000 WristLeft:-0.254511,0.946851,0.176260,-0.087344 WristRight:-0.057353,0.997598,0.038092,-0.007569 END:
KINECT_DATA POSITION:18.695168,-2.011580,-10.304939 HEAD_JOINT1:0.978328,0.167871,-0.000000,0.121219 LARM_JOINT2:0.844128,0.000000,-0.037320,-0.534841 LARM_JOINT3:0.855055,0.000000,-0.425403,-0.296501 LLEG_JOINT2:0.993805,0.036551,0.000000,0.104960 LLEG_JOINT4:0.993001,0.097111,0.000000,-0.067221 RARM_JOINT2:0.768071,0.000000,-0.096922,0.632987 RARM_JOINT3:0.970153,0.000000,0.190228,0.150391 RLEG_JOINT2:0.999815,0.006737,0.000000,0.018007 RLEG_JOINT4:0.995541,0.093258,0.000000,0.014173 WAIST:0.997801,0.000000,-0.056068,-0.035353 WAIST_JOINT0:0.995585,0.000000,-0.089583,-0.028033 WAIST_JOINT1:0.997170,0.073677,0.000000,-0.014938 END:
KINECT_DATA_Sensor  AnkleLeft:0.087795,0.748358,-0.097532,-0.650184 AnkleRight:0.074547,0.700556,0.063638,0.706834 ElbowLeft:-0.051964,0.909190,-0.164115,-0.379131 ElbowRight:0.062534,0.805491,0.192273,0.557050 FootLeft:0.000000,0.000000,0.000000,0.000000 FootRight:0.000000,0.000000,0.000000,0.000000 HandLeft:-0.455186,0.059283,-0.363371,0.810711 HandRight:-0.078532,0.859989,0.008413,-0.504163 HandTipLeft:0.000000,0.000000,0.000000,0.000000 HandTipRight:0.000000,0.000000,0.000000,0.000000 Head:0.000000,0.000000,0.000000,0.000000 HipLeft:-0.159980,0.692860,-0.674247,0.199358 HipRight:-0.076575,0.656234,0.734809,-0.153456 KneeLeft:-0.028772,0.746508,-0.072392,-0.660800 KneeRight:-0.007968,0.666792,0.016070,0.745028 Neck:0.090167,-0.049703,0.990645,-0.089566 ShoulderLeft:-0.031772,0.791252,-0.596894,0.128951 ShoulderRight:0.086027,0.761178,0.642710,0.011470 SpineBase:0.057073,-0.045548,0.996118,-0.049159 SpineMid:0.072786,-0.046319,0.995093,-0.048434 SpineShoulder:0.089494,-0.047891,0.992544,-0.067486 ThumbLeft:0.000000,0.000000,0.000000,0.000000 ThumbRight:0.000000,0.000000,0.000000,0.000000 WristLeft:-0.211649,0.144731,-0.259089,0.931199 WristRight:-0.031358,0.865033,0.061598,-0.496930 END:
KINECT_DATA POSITION:18.651407,-2.017878,-10.254276 HEAD_JOINT1:0.977884,0.168969,-0.000000,0.123259 LARM_JOINT2:0.845911,0.000000,-0.035318,-0.532154 LARM_JOINT3:0.851234,0.000000,-0.429041,-0.302199 LLEG_JOINT2:0.993811,0.036765,0.000000,0.104824 LLEG_JOINT4:0.993017,0.095662,0.000000,-0.069029 RARM_JOINT2:0.767638,0.000000,-0.096267,0.633612 RARM_JOINT3:0.969315,0.000000,0.192260,0.153180 RLEG_JOINT2:0.999833,0.006653,0.000000,0.017029 RLEG_JOINT4:0.995144,0.097198,0.000000,0.015548 WAIST:0.997808,0.000000,-0.056359,-0.034684 WAIST_JOINT0:0.995581,0.000000,-0.089649,-0.027942 WAIST_JOINT1:0.997186,0.073267,0.000000,-0.015884 END:
KINECT_DATA_Sensor  AnkleLeft:0.086395,0.738589,-0.097140,-0.661503 AnkleRight:0.078148,0.698725,0.065345,0.708101 ElbowLeft:-0.052720,0.908239,-0.167226,-0.379944 ElbowRight:0.061915,0.805377,0.191485,0.557555 FootLeft:0.000000,0.000000,0.000000,0.000000 FootRight:0.000000,0.000000,0.000000,0.000000 HandLeft:-0.466809,0.100076,-0.327693,0.815286 HandRight:-0.096919,0.845617,0.008441,-0.524850 HandTipLeft:0.000000,0.000000,0.000000,0.000000 HandTipRight:0.000000,0.000000,0.000000,0.000000 Head:0.000000,0.000000,0.000000,0.000000 HipLeft:-0.160412,0.692448,-0.674613,0.199201 HipRight:-0.076681,0.656706,0.734410,-0.153296 KneeLeft:-0.029025,0.746668,-0.072919,-0.660551 KneeRight:-0.008208,0.666616,0.016265,0.745178 Neck:0.090222,-0.049971,0.990669,-0.089100 ShoulderLeft:-0.031658,0.791292,-0.596945,0.128498 ShoulderRight:0.086200,0.761092,0.642777,0.012041 SpineBase:0.057293,-0.045504,0.996122,-0.048865 SpineMid:0.072937,-0.046266,0.995099,-0.048144 SpineShoulder:0.089549,-0.048144,0.992548,-0.067172 ThumbLeft:0.000000,0.000000,0.000000,0.000000 ThumbRight:0.000000,0.000000,0.000000,0.000000 WristLeft:-0.232316,0.177748,-0.258894,0.920548 WristRight:-0.029887,0.853525,0.062491,-0.516426 END:
KINECT_DATA POSITION:18.630686,-2.018124,-10.248923 HEAD_JOINT1:0.977275,0.174622,-0.000000,0.120166 LARM_JOINT2:0.844984,0.000000,-0.040758,-0.533236 LARM_JOINT3:0.842380,0.000000,-0.466263,-0.270177 LLEG_JOINT2:0.993923,0.037683,0.000000,0.103426 LLEG_JOINT4:0.992304,0.101578,0.000000,-0.070817 RARM_JOINT2:0.768063,0.000000,-0.094458,0.633369 RARM_JOINT3:0.968296,0.000000,0.193775,0.157649 RLEG_JOINT2:0.999865,0.005968,0.000000,0.015282 RLEG_JOINT4:0.994978,0.099086,0.000000,0.014177 WAIST:0.997967,0.000000,-0.054475,-0.033078 WAIST_JOINT0:0.996263,0.000000,-0.082602,-0.025240 WAIST_JOINT1:0.997341,0.071195,0.000000,-0.015563 END:
KINECT_DATA_Sensor  AnkleLeft:0.093053,0.740218,-0.100453,-0.658276 AnkleRight:0.074660,0.663800,0.071343,0.740746 ElbowLeft:-0.060931,0.900671,-0.163283,-0.398016 ElbowRight:0.060291,0.810129,0.188670,0.551779 FootLeft:0.000000,0.000000,0.000000,0.000000 FootRight:0.000000,0.000000,0.000000,0.000000 HandLeft:-0.508929,0.275669,-0.319595,0.750238 HandRight:-0.120338,0.826855,0.007550,-0.549338 HandTipLeft:0.000000,0.000000,0.000000,0.000000 HandTipRight:0.000000,0.000000,0.000000,0.000000 Head:0.000000,0.000000,0.000000,0.000000 HipLeft:-0.159715,0.691964,-0.675759,0.197553 HipRight:-0.078655,0.657875,0.733087,-0.153614 KneeLeft:-0.028306,0.745433,-0.073902,-0.661866 KneeRight:-0.008733,0.668071,0.016005,0.743874 Neck:0.083151,-0.047687,0.991611,-0.086716 ShoulderLeft:-0.029357,0.791347,-0.598157,0.122948 ShoulderRight:0.079296,0.763571,0.640802,0.006676 SpineBase:0.055303,-0.044344,0.996337,-0.047826 SpineMid:0.068441,-0.044971,0.995521,-0.047237 SpineShoulder:0.082501,-0.046123,0.993363,-0.065542 ThumbLeft:0.000000,0.000000,0.000000,0.000000 ThumbRight:0.000000,0.000000,0.000000,0.000000 WristLeft:-0.283690,0.351952,-0.230503,0.861695 WristRight:-0.032034,0.838621,0.061752,-0.540255 END:
KINECT_DATA POSITION:18.678699,-2.031837,-10.256969 HEAD_JOINT1:0.977559,0.178755,-0.000000,0.111469 LARM_JOINT2:0.842337,0.000000,-0.048227,-0.536789 LARM_JOINT3:0.839529,0.000000,-0.492746,-0.228894 LLEG_JOINT2:0.994259,0.037967,0.000000,0.100036 LLEG_JOINT4:0.993369,0.093730,0.000000,-0.066575 RARM_JOINT2:0.769998,0.000000,-0.094591,0.630996 RARM_JOINT3:0.969077,0.000000,0.190567,0.156762 RLEG_JOINT2:0.999905,0.006510,0.000000,0.012148 RLEG_JOINT4:0.994995,0.098844,0.000000,0.014632 WAIST:0.998212,0.000000,-0.051513,-0.030307 WAIST_JOINT0:0.996767,0.000000,-0.076895,-0.023310 WAIST_JOINT1:0.997499,0.068916,0.000000,-0.015711 END:
KINECT_DATA_Sensor  AnkleLeft:0.086895,0.747285,-0.096286,-0.651723 AnkleRight:0.075021,0.667117,0.071736,0.737686 ElbowLeft:-0.070673,0.888012,-0.155499,-0.426920 ElbowRight:0.058738,0.814353,0.188205,0.545855 FootLeft:0.000000,0.000000,0.000000,0.000000 FootRight:0.000000,0.000000,0.000000,0.000000 HandLeft:-0.554695,0.783800,0.275455,0.045779 HandRight:-0.103301,0.840964,0.004104,-0.531124 HandTipLeft:0.000000,0.000000,0.000000,0.000000 HandTipRight:0.000000,0.000000,0.000000,0.000000 Head:0.000000,0.000000,0.000000,0.000000 HipLeft:-0.158142,0.691010,-0.677908,0.194772 HipRight:-0.081508,0.659678,0.730974,-0.154462 KneeLeft:-0.027262,0.743387,-0.073940,-0.664203 KneeRight:-0.008446,0.670292,0.016779,0.741860 Neck:0.077353,-0.044950,0.992408,-0.084393 ShoulderLeft:-0.027149,0.790704,-0.600228,0.117372 ShoulderRight:0.073909,0.765119,0.639625,0.003197 SpineBase:0.052153,-0.042697,0.996639,-0.046564 SpineMid:0.063994,-0.043247,0.995949,-0.046053 SpineShoulder:0.076717,-0.043677,0.994071,-0.063487 ThumbLeft:0.000000,0.000000,0.000000,0.000000 ThumbRight:0.000000,0.000000,0.000000,0.000000 WristLeft:-0.356188,0.919280,0.167367,0.006521 WristRight:-0.036378,0.849726,0.060497,-0.522477 END:
KINECT_DATA POSITION:18.738293,-2.018797,-10.312664 HEAD_JOINT1:0.977835,0.181783,-0.000000,0.103891 LARM_JOINT2:0.841616,0.000000,-0.039785,-0.538610 LARM_JOINT3:0.840523,0.000000,-0.510807,-0.180546 LLEG_JOINT2:0.994905,0.034491,0.000000,0.094730 LLEG_JOINT4:0.993470,0.095681,0.000000,-0.062153 RARM_JOINT2:0.771771,0.000000,-0.095200,0.628734 RARM_JOINT3:0.968672,0.000000,0.194170,0.154833 RLEG_JOINT2:0.999941,0.007134,0.000000,0.008211 RLEG_JOINT4:0.994879,0.099853,0.000000,0.015643 WAIST:0.998596,0.000000,-0.045657,-0.026876 WAIST_JOINT0:0.997404,0.000000,-0.068666,-0.021677 WAIST_JOINT1:0.997509,0.068565,0.000000,-0.016557 END:
KINECT_DATA_Sensor  AnkleLeft:0.084687,0.742520,-0.096805,-0.657359 AnkleRight:0.080912,0.716835,0.068081,0.689178 ElbowLeft:-0.073111,0.859293,-0.156930,-0.481293 ElbowRight:0.058562,0.819190,0.188904,0.538343 FootLeft:0.000000,0.000000,0.000000,0.000000 FootRight:0.000000,0.000000,0.000000,0.000000 HandLeft:-0.294366,0.083787,-0.534184,0.788020 HandRight:-0.107226,0.827571,0.026138,-0.550405 HandTipLeft:0.000000,0.000000,0.000000,0.000000 HandTipRight:0.000000,0.000000,0.000000,0.000000 Head:0.000000,0.000000,0.000000,0.000000 HipLeft:-0.153274,0.689625,-0.681938,0.189432 HipRight:-0.084181,0.661042,0.729181,-0.155670 KneeLeft:-0.027590,0.739087,-0.070474,-0.669345 KneeRight:-0.008181,0.674682,0.017757,0.737849 Neck:0.069149,-0.042423,0.993129,-0.084345 ShoulderLeft:-0.021743,0.791025,-0.601266,0.110846 ShoulderRight:0.068571,0.766829,0.638170,-0.003031 SpineBase:0.046081,-0.040853,0.997044,-0.045940 SpineMid:0.056862,-0.041348,0.996487,-0.045496 SpineShoulder:0.068508,-0.041443,0.994784,-0.063190 ThumbLeft:0.000000,0.000000,0.000000,0.000000 ThumbRight:0.000000,0.000000,0.000000,0.000000 WristLeft:-0.184881,0.136588,-0.364445,0.902409 WristRight:-0.035302,0.835431,0.059558,-0.545218 END:
KINECT_DATA POSITION:18.887320,-2.003364,-10.392797 HEAD_JOINT1:0.978179,0.184693,-0.000000,0.095159 LARM_JOINT2:0.838320,0.000000,-0.035835,-0.543999 LARM_JOINT3:0.834680,0.000000,-0.535763,-0.127544 LLEG_JOINT2:0.995698,0.031388,0.000000,0.087182 LLEG_JOINT4:0.993692,0.097301,0.000000,-0.055758 RARM_JOINT2:0.775207,0.000000,-0.091322,0.625072 RARM_JOINT3:0.968390,0.000000,0.195522,0.154895 RLEG_JOINT2:0.999976,0.006659,0.000000,0.002038 RLEG_JOINT4:0.994867,0.098616,0.000000,0.022664 WAIST:0.998949,0.000000,-0.039490,-0.023273 WAIST_JOINT0:0.997995,0.000000,-0.059917,-0.020384 WAIST_JOINT1:0.997515,0.068445,0.000000,-0.016680 END:
KINECT_DATA_Sensor  AnkleLeft:0.085214,0.755454,-0.095001,-0.642653 AnkleRight:0.081658,0.715394,0.064901,0.690892 ElbowLeft:-0.076329,0.827246,-0.153397,-0.535076 ElbowRight:0.054934,0.824999,0.189597,0.529539 FootLeft:0.000000,0.000000,0.000000,0.000000 FootRight:0.000000,0.000000,0.000000,0.000000 HandLeft:-0.121725,0.361875,0.611271,-0.693237 HandRight:-0.109297,0.821077,0.031221,-0.559386 HandTipLeft:0.000000,0.000000,0.000000,0.000000 HandTipRight:0.000000,0.000000,0.000000,0.000000 Head:0.000000,0.000000,0.000000,0.000000 HipLeft:-0.148199,0.688270,-0.685424,0.185782 HipRight:-0.087249,0.663090,0.726464,-0.157955 KneeLeft:-0.026184,0.734639,-0.065871,-0.674745 KneeRight:-0.010158,0.679276,0.019491,0.733554 Neck:0.060654,-0.038760,0.993832,-0.084354 ShoulderLeft:-0.017014,0.791325,-0.602066,0.105032 ShoulderRight:0.062185,0.767869,0.637492,-0.010702 SpineBase:0.039751,-0.037727,0.997431,-0.046128 SpineMid:0.049489,-0.038176,0.996995,-0.045758 SpineShoulder:0.060002,-0.038411,0.995459,-0.063127 ThumbLeft:0.000000,0.000000,0.000000,0.000000 ThumbRight:0.000000,0.000000,0.000000,0.000000 WristLeft:0.110996,-0.402337,-0.416544,0.807649 WristRight:-0.037640,0.828929,0.060786,-0.554765 END:
KINECT_DATA POSITION:18.962448,-2.004513,-10.398066 HEAD_JOINT1:0.978897,0.185062,-0.000000,0.086677 LARM_JOINT2:0.833893,0.000000,-0.049953,-0.549661 LARM_JOINT3:0.820876,0.000000,-0.566396,-0.073200 LLEG_JOINT2:0.996225,0.029681,0.000000,0.081575 LLEG_JOINT4:0.993644,0.097997,0.000000,-0.055391 RARM_JOINT2:0.778220,0.000000,-0.087426,0.621876 RARM_JOINT3:0.969415,0.000000,0.190232,0.155070 RLEG_JOINT2:0.999980,0.005293,0.000000,-0.003461 RLEG_JOINT4:0.994439,0.102035,0.000000,0.026089 WAIST:0.999172,0.000000,-0.035370,-0.020110 WAIST_JOINT0:0.998458,0.000000,-0.052560,-0.017862 WAIST_JOINT1:0.997498,0.068616,0.000000,-0.017039 END:
KINECT_DATA_Sensor  AnkleLeft:0.085176,0.743641,-0.093826,-0.656460 AnkleRight:0.080217,0.680321,0.070191,0.725122 ElbowLeft:-0.088826,0.795974,-0.138272,-0.582594 ElbowRight:0.050616,0.826362,0.190546,0.527499 FootLeft:0.000000,0.000000,0.000000,0.000000 FootRight:0.000000,0.000000,0.000000,0.000000 HandLeft:-0.186683,0.389398,0.629678,-0.645774 HandRight:-0.083378,0.807449,0.006077,-0.583984 HandTipLeft:0.000000,0.000000,0.000000,0.000000 HandTipRight:0.000000,0.000000,0.000000,0.000000 Head:0.000000,0.000000,0.000000,0.000000 HipLeft:0.145626,-0.687089,0.687402,-0.184877 HipRight:-0.090892,0.665402,0.723256,-0.160870 KneeLeft:-0.025159,0.731650,-0.063188,-0.678280 KneeRight:-0.012678,0.682391,0.020378,0.730593 Neck:0.053264,-0.035992,0.994329,-0.084722 ShoulderLeft:-0.011301,0.788731,-0.606573,0.099223 ShoulderRight:0.058470,0.767624,0.638015,-0.016457 SpineBase:0.035455,-0.035533,0.997687,-0.045827 SpineMid:0.043676,-0.035910,0.997361,-0.045533 SpineShoulder:0.052646,-0.035701,0.995960,-0.063390 ThumbLeft:0.000000,0.000000,0.000000,0.000000 ThumbRight:0.000000,0.000000,0.000000,0.000000 WristLeft:0.178792,-0.423701,-0.438799,0.771989 WristRight:-0.040453,0.813947,0.065774,-0.575784 END:
KINECT_DATA POSITION:18.992521,-2.027406,-10.387051 HEAD_JOINT1:0.979643,0.183344,-0.000000,0.081765 LARM_JOINT2:0.833783,0.000000,-0.055504,-0.549296 LARM_JOINT3:0.821382,0.000000,-0.568442,-0.046957 LLEG_JOINT2:0.996579,0.029019,0.000000,0.077381 LLEG_JOINT4:0.993495,0.101083,0.000000,-0.052432 RARM_JOINT2:0.779243,0.000000,-0.086725,0.620692 RARM_JOINT3:0.969802,0.000000,0.188443,0.154831 RLEG_JOINT2:0.999943,0.006092,0.000000,-0.008816 RLEG_JOINT4:0.994397,0.100646,0.000000,0.032327 WAIST:0.999295,0.000000,-0.033108,-0.017682 WAIST_JOINT0:0.998410,0.000000,-0.053447,-0.017914 WAIST_JOINT1:0.997440,0.069253,0.000000,-0.017800 END:
KINECT_DATA_Sensor  AnkleLeft:0.085693,0.737283,-0.096861,-0.663090 AnkleRight:0.081750,0.679459,0.067867,0.725979 ElbowLeft:-0.094868,0.784047,-0.135358,-0.598288 ElbowRight:0.050566,0.828113,0.190747,0.524678 FootLeft:0.000000,0.000000,0.000000,0.000000 FootRight:0.000000,0.000000,0.000000,0.000000 HandLeft:-0.301626,0.244220,-0.554894,0.735848 HandRight:-0.079165,0.816153,-0.000793,-0.572387 HandTipLeft:0.000000,0.000000,0.000000,0.000000 HandTipRight:0.000000,0.000000,0.000000,0.000000 Head:0.000000,0.000000,0.000000,0.000000 HipLeft:0.144513,-0.686175,0.688762,-0.184083 HipRight:-0.092689,0.667233,0.720953,-0.162588 KneeLeft:-0.024101,0.729993,-0.061632,-0.680243 KneeRight:-0.014043,0.684048,0.023119,0.728935 Neck:0.054366,-0.034865,0.994258,-0.085325 ShoulderLeft:-0.012751,0.788542,-0.606446,0.101299 ShoulderRight:0.058457,0.767055,0.638686,-0.017014 SpineBase:0.033043,-0.034147,0.997819,-0.045822 SpineMid:0.043030,-0.034604,0.997438,-0.045478 SpineShoulder:0.053792,-0.034385,0.995912,-0.063898 ThumbLeft:0.000000,0.000000,0.000000,0.000000 ThumbRight:0.000000,0.000000,0.000000,0.000000 WristLeft:-0.216219,0.302985,-0.448801,0.812421 WristRight:-0.040866,0.822414,0.064284,-0.563766 END:
KINECT_DATA POSITION:18.962952,-2.031645,-10.391558 HEAD_JOINT1:0.979970,0.182226,-0.000000,0.080330 LARM_JOINT2:0.859438,0.000000,-0.110272,-0.499206 LARM_JOINT3:0.844957,0.000000,-0.526487,-0.094127 LLEG_JOINT2:0.996685,0.027450,0.000000,0.076588 LLEG_JOINT4:0.993668,0.101024,0.000000,-0.049164 RARM_JOINT2:0.778830,0.000000,-0.086725,0.621211 RARM_JOINT3:0.969669,0.000000,0.186150,0.158396 RLEG_JOINT2:0.999942,0.005484,0.000000,-0.009282 RLEG_JOINT4:0.994262,0.102670,0.000000,0.030042 WAIST:0.999336,0.000000,-0.032241,-0.016956 WAIST_JOINT0:0.998373,0.000000,-0.054178,-0.017766 WAIST_JOINT1:0.997385,0.069862,0.000000,-0.018516 END:
KINECT_DATA_Sensor  AnkleLeft:0.084507,0.751163,-0.096103,-0.647593 AnkleRight:0.085530,0.723066,0.065307,0.682346 ElbowLeft:-0.147341,0.843348,-0.156435,-0.492527 ElbowRight:0.050914,0.827708,0.190589,0.525341 FootLeft:0.000000,0.000000,0.000000,0.000000 FootRight:0.000000,0.000000,0.000000,0.000000 HandLeft:-0.286678,0.234305,-0.572336,0.731675 HandRight:-0.082137,0.826805,-0.024361,-0.555927 HandTipLeft:0.000000,0.000000,0.000000,0.000000 HandTipRight:0.000000,0.000000,0.000000,0.000000 Head:0.000000,0.000000,0.000000,0.000000 HipLeft:0.143773,-0.685782,0.689365,-0.183870 HipRight:-0.092851,0.667677,0.720420,-0.163038 KneeLeft:-0.025057,0.729255,-0.060483,-0.681103 KneeRight:-0.014302,0.684731,0.022531,0.728307 Neck:0.055136,-0.035240,0.994151,-0.085917 ShoulderLeft:-0.013236,0.787707,-0.607310,0.102556 ShoulderRight:0.059101,0.766267,0.639570,-0.017111 SpineBase:0.032135,-0.033629,0.997852,-0.046134 SpineMid:0.042985,-0.034129,0.997443,-0.045766 SpineShoulder:0.054585,-0.034481,0.995830,-0.064447 ThumbLeft:0.000000,0.000000,0.000000,0.000000 ThumbRight:0.000000,0.000000,0.000000,0.000000 WristLeft:-0.239692,0.257243,-0.403829,0.844568 WristRight:-0.042401,0.835697,0.063143,-0.543898 END:
KINECT_DATA POSITION:18.923477,-2.037443,-10.427046 HEAD_JOINT1:0.979812,0.182719,-0.000000,0.081130 LARM_JOINT2:0.863312,0.000000,-0.118025,-0.490675 LARM_JOINT3:0.848901,0.000000,-0.518083,-0.104675 LLEG_JOINT2:0.996705,0.026436,0.000000,0.076682 LLEG_JOINT4:0.993299,0.103353,0.000000,-0.051726 RARM_JOINT2:0.778294,0.000000,-0.086506,0.621913 RARM_JOINT3:0.970075,0.000000,0.184223,0.158168 RLEG_JOINT2:0.999948,0.004749,0.000000,-0.009001 RLEG_JOINT4:0.994129,0.103997,0.000000,0.029863 WAIST:0.999373,0.000000,-0.031337,-0.016491 WAIST_JOINT0:0.998316,0.000000,-0.055146,-0.018025 WAIST_JOINT1:0.997334,0.070409,0.000000,-0.019163 END:
KINECT_DATA_Sensor  AnkleLeft:0.084027,0.730292,-0.098091,-0.670814 AnkleRight:0.085599,0.716234,0.066282,0.689411 ElbowLeft:-0.151273,0.859798,-0.164563,-0.459111 ElbowRight:0.050930,0.827019,0.190337,0.526515 FootLeft:0.000000,0.000000,0.000000,0.000000 FootRight:0.000000,0.000000,0.000000,0.000000 HandLeft:-0.272046,0.262499,-0.587741,0.715294 HandRight:-0.076995,0.824364,-0.033587,-0.559793 HandTipLeft:0.000000,0.000000,0.000000,0.000000 HandTipRight:0.000000,0.000000,0.000000,0.000000 Head:0.000000,0.000000,0.000000,0.000000 HipLeft:0.143053,-0.685500,0.689827,-0.183752 HipRight:-0.092997,0.667792,0.720090,-0.163937 KneeLeft:-0.026091,0.728513,-0.060168,-0.681886 KneeRight:-0.014326,0.685467,0.021494,0.727646 Neck:0.056156,-0.035657,0.994039,-0.086381 ShoulderLeft:-0.014051,0.787644,-0.607126,0.104009 ShoulderRight:0.059664,0.765914,0.639942,-0.017016 SpineBase:0.031191,-0.033580,0.997858,-0.046676 SpineMid:0.043027,-0.034131,0.997418,-0.046274 SpineShoulder:0.055606,-0.034845,0.995730,-0.064933 ThumbLeft:0.000000,0.000000,0.000000,0.000000 ThumbRight:0.000000,0.000000,0.000000,0.000000 WristLeft:-0.254549,0.258771,-0.379736,0.850907 WristRight:-0.041818,0.833887,0.063490,-0.546674 END:
KINECT_DATA POSITION:18.919792,-2.047729,-10.368145 HEAD_JOINT1:0.979550,0.183817,-0.000000,0.081810 LARM_JOINT2:0.840724,0.000000,-0.081812,-0.535248 LARM_JOINT3:0.854609,0.000000,-0.515790,-0.060033 LLEG_JOINT2:0.996779,0.026537,0.000000,0.075682 LLEG_JOINT4:0.993359,0.103695,0.000000,-0.049859 RARM_JOINT2:0.777381,0.000000,-0.086252,0.623089 RARM_JOINT3:0.970047,0.000000,0.185065,0.157353 RLEG_JOINT2:0.999937,0.004319,0.000000,-0.010397 RLEG_JOINT4:0.993825,0.105148,0.000000,0.035447 WAIST:0.999345,0.000000,-0.032555,-0.015788 WAIST_JOINT0:0.998247,0.000000,-0.056410,-0.017895 WAIST_JOINT1:0.997304,0.070560,0.000000,-0.020158 END:
KINECT_DATA_Sensor  AnkleLeft:0.083594,0.734444,-0.099185,-0.666157 AnkleRight:0.085873,0.677055,0.067614,0.727771 ElbowLeft:-0.114719,0.803561,-0.134112,-0.568456 ElbowRight:0.051367,0.825843,0.189272,0.528697 FootLeft:0.000000,0.000000,0.000000,0.000000 FootRight:0.000000,0.000000,0.000000,0.000000 HandLeft:-0.009870,-0.131751,-0.572531,0.809168 HandRight:-0.087365,0.806451,-0.027998,-0.584141 HandTipLeft:0.000000,0.000000,0.000000,0.000000 HandTipRight:0.000000,0.000000,0.000000,0.000000 Head:0.000000,0.000000,0.000000,0.000000 HipLeft:0.143871,-0.684841,0.690170,-0.184280 HipRight:-0.092308,0.668389,0.719796,-0.163187 KneeLeft:-0.025877,0.729320,-0.060006,-0.681044 KneeRight:-0.015083,0.684619,0.021727,0.728421 Neck:0.057384,-0.036020,0.993936,-0.086611 ShoulderLeft:-0.014697,0.786996,-0.607768,0.105065 ShoulderRight:0.060690,0.765496,0.640369,-0.016144 SpineBase:0.032349,-0.033385,0.997833,-0.046571 SpineMid:0.044238,-0.033937,0.997376,-0.046170 SpineShoulder:0.056849,-0.035007,0.995642,-0.065120 ThumbLeft:0.000000,0.000000,0.000000,0.000000 ThumbRight:0.000000,0.000000,0.000000,0.000000 WristLeft:0.013581,-0.122702,-0.468401,0.874849 WristRight:-0.038301,0.817745,0.064241,-0.570700 END:
KINECT_DATA POSITION:18.900766,-2.072924,-10.328674 HEAD_JOINT1:0.979230,0.185342,-0.000000,0.082203 LARM_JOINT2:0.836260,0.000000,-0.081704,-0.542211 LARM_JOINT3:0.874998,0.000000,-0.481890,-0.046478 LLEG_JOINT2:0.996767,0.026077,0.000000,0.075996 LLEG_JOINT4:0.993505,0.101937,0.000000,-0.050565 RARM_JOINT2:0.776336,0.000000,-0.086329,0.624380 RARM_JOINT3:0.969424,0.000000,0.188755,0.156810 RLEG_JOINT2:0.999939,0.004677,0.000000,-0.010007 RLEG_JOINT4:0.993966,0.104007,0.000000,0.034842 WAIST:0.999348,0.000000,-0.032674,-0.015358 WAIST_JOINT0:0.998175,0.000000,-0.057667,-0.017922 WAIST_JOINT1:0.997263,0.070868,0.000000,-0.021061 END:
KINECT_DATA_Sensor  AnkleLeft:0.082260,0.736432,-0.097446,-0.664384 AnkleRight:0.087056,0.694518,0.064837,0.711240 ElbowLeft:-0.110502,0.795273,-0.126435,-0.582532 ElbowRight:0.051514,0.823892,0.188567,0.531969 FootLeft:0.000000,0.000000,0.000000,0.000000 FootRight:0.000000,0.000000,0.000000,0.000000 HandLeft:-0.488667,0.867557,0.000561,0.092466 HandRight:-0.101387,0.829441,-0.024437,-0.548772 HandTipLeft:0.000000,0.000000,0.000000,0.000000 HandTipRight:0.000000,0.000000,0.000000,0.000000 Head:0.000000,0.000000,0.000000,0.000000 HipLeft:0.144077,-0.684510,0.690441,-0.184334 HipRight:-0.092111,0.668610,0.719579,-0.163347 KneeLeft:-0.026737,0.729313,-0.060183,-0.681004 KneeRight:-0.014250,0.684579,0.021382,0.728485 Neck:0.058626,-0.036828,0.993797,-0.087025 ShoulderLeft:-0.015919,0.786804,-0.607721,0.106587 ShoulderRight:0.061175,0.765367,0.640488,-0.015696 SpineBase:0.032415,-0.033631,0.997817,-0.046679 SpineMid:0.044898,-0.034212,0.997334,-0.046254 SpineShoulder:0.058112,-0.035469,0.995536,-0.065366 ThumbLeft:0.000000,0.000000,0.000000,0.000000 ThumbRight:0.000000,0.000000,0.000000,0.000000 WristLeft:-0.457912,0.884639,-0.011399,0.087185 WristRight:-0.040250,0.841429,0.063053,-0.535164 END:
KINECT_DATA POSITION:18.902536,-2.079343,-10.318065 HEAD_JOINT1:0.979152,0.185849,-0.000000,0.081980 LARM_JOINT2:0.834376,0.000000,-0.094245,-0.543079 LARM_JOINT3:0.882895,0.000000,-0.468328,-0.034127 LLEG_JOINT2:0.996761,0.026300,0.000000,0.076000 LLEG_JOINT4:0.993322,0.103654,0.000000,-0.050662 RARM_JOINT2:0.775953,0.000000,-0.086218,0.624871 RARM_JOINT3:0.969870,0.000000,0.187335,0.155749 RLEG_JOINT2:0.999938,0.004892,0.000000,-0.010044 RLEG_JOINT4:0.993972,0.104051,0.000000,0.034534 WAIST:0.999346,0.000000,-0.032794,-0.015202 WAIST_JOINT0:0.998135,0.000000,-0.058376,-0.017856 WAIST_JOINT1:0.997251,0.070964,0.000000,-0.021327 END:
KINECT_DATA_Sensor  AnkleLeft:0.085216,0.747285,-0.097452,-0.651771 AnkleRight:0.087738,0.701035,0.064325,0.704780 ElbowLeft:-0.116898,0.792287,-0.116493,-0.587406 ElbowRight:0.051676,0.823643,0.188142,0.532488 FootLeft:0.000000,0.000000,0.000000,0.000000 FootRight:0.000000,0.000000,0.000000,0.000000 HandLeft:-0.494520,0.866329,0.019377,0.067445 HandRight:-0.096579,0.827122,-0.025989,-0.553052 HandTipLeft:0.000000,0.000000,0.000000,0.000000 HandTipRight:0.000000,0.000000,0.000000,0.000000 Head:0.000000,0.000000,0.000000,0.000000 HipLeft:0.144148,-0.684402,0.690512,-0.184412 HipRight:-0.092011,0.668744,0.719475,-0.163316 KneeLeft:-0.026704,0.729396,-0.060456,-0.680892 KneeRight:-0.014006,0.684497,0.021446,0.728566 Neck:0.059325,-0.037021,0.993743,-0.087094 ShoulderLeft:-0.016756,0.786516,-0.607912,0.107498 ShoulderRight:0.061299,0.765283,0.640581,-0.015520 SpineBase:0.032520,-0.033606,0.997813,-0.046707 SpineMid:0.045304,-0.034202,0.997315,-0.046273 SpineShoulder:0.058816,-0.035596,0.995485,-0.065453 ThumbLeft:0.000000,0.000000,0.000000,0.000000 ThumbRight:0.000000,0.000000,0.000000,0.000000 WristLeft:-0.450409,0.891138,-0.005447,0.054539 WristRight:-0.039458,0.838670,0.063016,-0.539541 END:
KINECT_DATA POSITION:18.903143,-2.085625,-10.283625 HEAD_JOINT1:0.978892,0.186691,-0.000000,0.083169 LARM_JOINT2:0.834172,0.000000,-0.097118,-0.542886 LARM_JOINT3:0.886148,0.000000,-0.461971,-0.036407 LLEG_JOINT2:0.996740,0.026941,0.000000,0.076051 LLEG_JOINT4:0.993125,0.105461,0.000000,-0.050790 RARM_JOINT2:0.775623,0.000000,-0.086537,0.625236 RARM_JOINT3:0.970251,0.000000,0.186330,0.154579 RLEG_JOINT2:0.999933,0.005588,0.000000,-0.010089 RLEG_JOINT4:0.994122,0.103154,0.000000,0.032865 WAIST:0.999317,0.000000,-0.033704,-0.015167 WAIST_JOINT0:0.998079,0.000000,-0.059339,-0.017793 WAIST_JOINT1:0.997240,0.070969,0.000000,-0.021798 END:
KINECT_DATA_Sensor  AnkleLeft:0.085310,0.737149,-0.100551,-0.662739 AnkleRight:0.086559,0.700778,0.065323,0.705089 ElbowLeft:-0.118498,0.792121,-0.114075,-0.587783 ElbowRight:0.052032,0.822986,0.188133,0.533472 FootLeft:0.000000,0.000000,0.000000,0.000000 FootRight:0.000000,0.000000,0.000000,0.000000 HandLeft:-0.482643,0.869217,0.010835,0.106774 HandRight:-0.091165,0.823751,-0.023408,-0.559085 HandTipLeft:0.000000,0.000000,0.000000,0.000000 HandTipRight:0.000000,0.000000,0.000000,0.000000 Head:0.000000,0.000000,0.000000,0.000000 HipLeft:0.144665,-0.684255,0.690452,-0.184780 HipRight:-0.091329,0.668874,0.719577,-0.162717 KneeLeft:-0.026389,0.730052,-0.060950,-0.680156 KneeRight:-0.013493,0.683820,0.021931,0.729196 Neck:0.060287,-0.037549,0.993662,-0.087126 ShoulderLeft:-0.017727,0.786338,-0.607937,0.108497 ShoulderRight:0.061640,0.765171,0.640694,-0.015001 SpineBase:0.033417,-0.033755,0.997779,-0.046692 SpineMid:0.046244,-0.034352,0.997267,-0.046254 SpineShoulder:0.059791,-0.035921,0.995413,-0.065478 ThumbLeft:0.000000,0.000000,0.000000,0.000000 ThumbRight:0.000000,0.000000,0.000000,0.000000 WristLeft:-0.448430,0.889087,-0.024061,0.088633 WristRight:-0.038116,0.834310,0.063260,-0.546326 END:
KINECT_DATA POSITION:18.891153,-2.088764,-10.255742 HEAD_JOINT1:0.978840,0.186744,-0.000000,0.083656 LARM_JOINT2:0.834496,0.000000,-0.098384,-0.542160 LARM_JOINT3:0.886796,0.000000,-0.460891,-0.034232 LLEG_JOINT2:0.996768,0.026423,0.000000,0.075870 LLEG_JOINT4:0.993115,0.105375,0.000000,-0.051164 RARM_JOINT2:0.775384,0.000000,-0.086671,0.625514 RARM_JOINT3:0.970066,0.000000,0.188071,0.153625 RLEG_JOINT2:0.999938,0.005374,0.000000,-0.009766 RLEG_JOINT4:0.994146,0.103393,0.000000,0.031350 WAIST:0.999312,0.000000,-0.033943,-0.014967 WAIST_JOINT0:0.998022,0.000000,-0.060279,-0.017864 WAIST_JOINT1:0.997213,0.071212,0.000000,-0.022269 END:
KINECT_DATA_Sensor  AnkleLeft:0.084835,0.735477,-0.100137,-0.664718 AnkleRight:0.087120,0.713247,0.064514,0.692479 ElbowLeft:-0.119278,0.792967,-0.113858,-0.586526 ElbowRight:0.052409,0.822816,0.188187,0.533678 FootLeft:0.000000,0.000000,0.000000,0.000000 FootRight:0.000000,0.000000,0.000000,0.000000 HandLeft:-0.489291,0.865649,0.006983,0.105818 HandRight:-0.094991,0.828572,-0.016440,-0.551521 HandTipLeft:0.000000,0.000000,0.000000,0.000000 HandTipRight:0.000000,0.000000,0.000000,0.000000 Head:0.000000,0.000000,0.000000,0.000000 HipLeft:0.144797,-0.684049,0.690572,-0.184990 HipRight:-0.091074,0.668974,0.719500,-0.162784 KneeLeft:-0.026774,0.730156,-0.060578,-0.680062 KneeRight:-0.013285,0.683686,0.021409,0.729341 Neck:0.061221,-0.037900,0.993572,-0.087347 ShoulderLeft:-0.018194,0.786238,-0.607896,0.109368 ShoulderRight:0.062417,0.765021,0.640811,-0.014403 SpineBase:0.033630,-0.033859,0.997761,-0.046864 SpineMid:0.046819,-0.034476,0.997229,-0.046412 SpineShoulder:0.060727,-0.036209,0.995331,-0.065712 ThumbLeft:0.000000,0.000000,0.000000,0.000000 ThumbRight:0.000000,0.000000,0.000000,0.000000 WristLeft:-0.445382,0.890551,-0.024756,0.089113 WristRight:-0.038127,0.838629,0.062689,-0.539738 END:
KINECT_DATA POSITION:18.888559,-2.090675,-10.227478 HEAD_JOINT1:0.979014,0.186269,-0.000000,0.082672 LARM_JOINT2:0.834772,0.000000,-0.098043,-0.541796 LARM_JOINT3:0.886652,0.000000,-0.460973,-0.036760 LLEG_JOINT2:0.996774,0.026800,0.000000,0.075653 LLEG_JOINT4:0.992933,0.106116,0.000000,-0.053137 RARM_JOINT2:0.775740,0.000000,-0.086182,0.625140 RARM_JOINT3:0.970153,0.000000,0.188589,0.152438 RLEG_JOINT2:0.999937,0.004989,0.000000,-0.010066 RLEG_JOINT4:0.994159,0.103345,0.000000,0.031101 WAIST:0.999317,0.000000,-0.033930,-0.014664 WAIST_JOINT0:0.997964,0.000000,-0.061150,-0.018123 WAIST_JOINT1:0.997177,0.071743,0.000000,-0.022147 END:
KINECT_DATA_Sensor  AnkleLeft:0.087341,0.737744,-0.099287,-0.662002 AnkleRight:0.087311,0.720541,0.063519,0.684955 ElbowLeft:-0.119355,0.792566,-0.114975,-0.586835 ElbowRight:0.052140,0.821840,0.188497,0.535098 FootLeft:0.000000,0.000000,0.000000,0.000000 FootRight:0.000000,0.000000,0.000000,0.000000 HandLeft:-0.487277,0.864738,0.007153,0.121399 HandRight:-0.090973,0.833651,-0.016553,-0.544496 HandTipLeft:0.000000,0.000000,0.000000,0.000000 HandTipRight:0.000000,0.000000,0.000000,0.000000 Head:0.000000,0.000000,0.000000,0.000000 HipLeft:0.144601,-0.683725,0.690835,-0.185360 HipRight:-0.091007,0.669103,0.719334,-0.163027 KneeLeft:-0.026569,0.730154,-0.060921,-0.680043 KneeRight:-0.013557,0.683717,0.021153,0.729314 Neck:0.062089,-0.037489,0.993487,-0.087877 ShoulderLeft:-0.018396,0.785893,-0.608153,0.110384 ShoulderRight:0.063353,0.764665,0.641150,-0.014128 SpineBase:0.033605,-0.033456,0.997758,-0.047224 SpineMid:0.047242,-0.034099,0.997205,-0.046762 SpineShoulder:0.061600,-0.035862,0.995257,-0.066209 ThumbLeft:0.000000,0.000000,0.000000,0.000000 ThumbRight:0.000000,0.000000,0.000000,0.000000 WristLeft:-0.444559,0.889515,-0.031594,0.100665 WristRight:-0.039026,0.842937,0.063283,-0.532851 END:
KINECT_DATA POSITION:18.880337,-2.092818,-10.222589 HEAD_JOINT1:0.978960,0.185967,-0.000000,0.083988 LARM_JOINT2:0.836598,0.000000,-0.093493,-0.539781 LARM_JOINT3:0.876564,0.000000,-0.475634,-0.073544 LLEG_JOINT2:0.996805,0.027371,0.000000,0.075039 LLEG_JOINT4:0.992749,0.107764,0.000000,-0.053261 RARM_JOINT2:0.776293,0.000000,-0.086309,0.624436 RARM_JOINT3:0.970166,0.000000,0.188734,0.152173 RLEG_JOINT2:0.999930,0.005215,0.000000,-0.010644 RLEG_JOINT4:0.994154,0.103396,0.000000,0.031103 WAIST:0.999307,0.000000,-0.034283,-0.014498 WAIST_JOINT0:0.997899,0.000000,-0.062192,-0.018156 WAIST_JOINT1:0.997154,0.072164,0.000000,-0.021844 END:
KINECT_DATA_Sensor  AnkleLeft:0.085535,0.713012,-0.103679,-0.688149 AnkleRight:0.087574,0.723332,0.063583,0.681967 ElbowLeft:-0.117718,0.797574,-0.121372,-0.579040 ElbowRight:0.052247,0.820892,0.189174,0.536301 FootLeft:0.000000,0.000000,0.000000,0.000000 FootRight:0.000000,0.000000,0.000000,0.000000 HandLeft:-0.492059,0.851491,0.100471,0.150822 HandRight:-0.083399,0.829528,-0.016421,-0.551959 HandTipLeft:0.000000,0.000000,0.000000,0.000000 HandTipRight:0.000000,0.000000,0.000000,0.000000 Head:0.000000,0.000000,0.000000,0.000000 HipLeft:0.144380,-0.683538,0.690966,-0.185732 HipRight:-0.090476,0.669288,0.719276,-0.162817 KneeLeft:-0.025869,0.730434,-0.061022,-0.679759 KneeRight:-0.013664,0.683449,0.021611,0.729551 Neck:0.063170,-0.036974,0.993404,-0.088261 ShoulderLeft:-0.019605,0.786115,-0.607518,0.112071 ShoulderRight:0.063521,0.765069,0.640652,-0.014157 SpineBase:0.033954,-0.033119,0.997741,-0.047568 SpineMid:0.047954,-0.033783,0.997166,-0.047098 SpineShoulder:0.062686,-0.035440,0.995177,-0.066618 ThumbLeft:0.000000,0.000000,0.000000,0.000000 ThumbRight:0.000000,0.000000,0.000000,0.000000 WristLeft:-0.448688,0.889392,-0.014884,0.086257 WristRight:-0.039444,0.837847,0.064464,-0.540648 END:
KINECT_DATA POSITION:18.860252,-2.098323,-10.232676 HEAD_JOINT1:0.978787,0.185734,-0.000000,0.086479 LARM_JOINT2:0.837238,0.000000,-0.087679,-0.539764 LARM_JOINT3:0.868473,0.000000,-0.485332,-0.101027 LLEG_JOINT2:0.996786,0.027591,0.000000,0.075204 LLEG_JOINT4:0.992865,0.107269,0.000000,-0.052091 RARM_JOINT2:0.776605,0.000000,-0.085904,0.624104 RARM_JOINT3:0.969714,0.000000,0.188364,0.155479 RLEG_JOINT2:0.999928,0.005481,0.000000,-0.010684 RLEG_JOINT4:0.994339,0.101616,0.000000,0.031042 WAIST:0.999269,0.000000,-0.035364,-0.014522 WAIST_JOINT0:0.997872,0.000000,-0.062620,-0.018170 WAIST_JOINT1:0.997147,0.072332,0.000000,-0.021580 END:
KINECT_DATA_Sensor  AnkleLeft:0.086388,0.727805,-0.102689,-0.672526 AnkleRight:0.085434,0.712489,0.063900,0.693525 ElbowLeft:-0.110370,0.817982,-0.129486,-0.549506 ElbowRight:0.052517,0.821212,0.189184,0.535782 FootLeft:0.000000,0.000000,0.000000,0.000000 FootRight:0.000000,0.000000,0.000000,0.000000 HandLeft:-0.514769,0.837356,0.111155,0.146602 HandRight:-0.089420,0.823811,-0.025111,-0.559203 HandTipLeft:0.000000,0.000000,0.000000,0.000000 HandTipRight:0.000000,0.000000,0.000000,0.000000 Head:0.000000,0.000000,0.000000,0.000000 HipLeft:0.144745,-0.683368,0.690865,-0.186450 HipRight:-0.089632,0.669439,0.719401,-0.162112 KneeLeft:-0.025898,0.731182,-0.061241,-0.678934 KneeRight:-0.013501,0.682640,0.021843,0.730303 Neck:0.063616,-0.036573,0.993373,-0.088457 ShoulderLeft:-0.020119,0.786412,-0.606975,0.112839 ShoulderRight:0.063543,0.765462,0.640177,-0.014228 SpineBase:0.035044,-0.032865,0.997703,-0.047757 SpineMid:0.048727,-0.033517,0.997128,-0.047302 SpineShoulder:0.063137,-0.035087,0.995146,-0.066834 ThumbLeft:0.000000,0.000000,0.000000,0.000000 ThumbRight:0.000000,0.000000,0.000000,0.000000 WristLeft:-0.441446,0.892243,0.014663,0.093872 WristRight:-0.039757,0.834322,0.064427,-0.546055 END:
KINECT_DATA POSITION:18.846930,-2.102282,-10.231614 HEAD_JOINT1:0.978599,0.186158,-0.000000,0.087684 LARM_JOINT2:0.837116,0.000000,-0.084608,-0.540442 LARM_JOINT3:0.866227,0.000000,-0.489264,-0.101348 LLEG_JOINT2:0.996788,0.028132,0.000000,0.074987 LLEG_JOINT4:0.993387,0.103760,0.000000,-0.049158 RARM_JOINT2:0.776665,0.000000,-0.086147,0.623996 RARM_JOINT3:0.970205,0.000000,0.185865,0.155422 RLEG_JOINT2:0.999928,0.005633,0.000000,-0.010609 RLEG_JOINT4:0.994419,0.100474,0.000000,0.032186 WAIST:0.999225,0.000000,-0.036561,-0.014590 WAIST_JOINT0:0.997818,0.000000,-0.063451,-0.018276 WAIST_JOINT1:0.997167,0.072023,0.000000,-0.021688 END:
KINECT_DATA_Sensor  AnkleLeft:0.083935,0.739908,-0.101134,-0.659744 AnkleRight:0.085400,0.710930,0.062367,0.695267 ElbowLeft:-0.107814,0.821231,-0.130986,-0.544792 ElbowRight:0.052738,0.821208,0.189227,0.535751 FootLeft:0.000000,0.000000,0.000000,0.000000 FootRight:0.000000,0.000000,0.000000,0.000000 HandLeft:-0.532640,0.823224,0.074343,0.181852 HandRight:-0.081104,0.823004,-0.029897,-0.561420 HandTipLeft:0.000000,0.000000,0.000000,0.000000 HandTipRight:0.000000,0.000000,0.000000,0.000000 Head:0.000000,0.000000,0.000000,0.000000 HipLeft:0.145472,-0.683269,0.690660,-0.187003 HipRight:-0.088974,0.669574,0.719536,-0.161313 KneeLeft:-0.025404,0.732045,-0.061399,-0.678008 KneeRight:-0.013374,0.681755,0.021941,0.731129 Neck:0.064477,-0.036657,0.993351,-0.088052 ShoulderLeft:-0.021424,0.786805,-0.606251,0.113748 ShoulderRight:0.063338,0.765777,0.639831,-0.013793 SpineBase:0.036243,-0.032857,0.997666,-0.047637 SpineMid:0.049766,-0.033500,0.997083,-0.047187 SpineShoulder:0.064005,-0.035151,0.995104,-0.066604 ThumbLeft:0.000000,0.000000,0.000000,0.000000 ThumbRight:0.000000,0.000000,0.000000,0.000000 WristLeft:-0.439536,0.887111,-0.002864,0.140830 WristRight:-0.039374,0.832923,0.064334,-0.548224 END:
KINECT_DATA POSITION:18.827967,-2.112352,-10.221457 HEAD_JOINT1:0.978412,0.186720,-0.000000,0.088572 LARM_JOINT2:0.837126,0.000000,-0.082657,-0.540729 LARM_JOINT3:0.866585,0.000000,-0.489497,-0.097069 LLEG_JOINT2:0.996773,0.028374,0.000000,0.075095 LLEG_JOINT4:0.993555,0.101880,0.000000,-0.049694 RARM_JOINT2:0.776571,0.000000,-0.086136,0.624114 RARM_JOINT3:0.969551,0.000000,0.187982,0.156951 RLEG_JOINT2:0.999935,0.005225,0.000000,-0.010168 RLEG_JOINT4:0.994143,0.102909,0.000000,0.033012 WAIST:0.999184,0.000000,-0.037561,-0.014815 WAIST_JOINT0:0.997780,0.000000,-0.063995,-0.018456 WAIST_JOINT1:0.997177,0.071883,0.000000,-0.021685 END:
KINECT_DATA_Sensor  AnkleLeft:0.084756,0.751523,-0.098212,-0.646826 AnkleRight:0.087359,0.706569,0.063204,0.699381 ElbowLeft:-0.106589,0.821920,-0.131667,-0.543829 ElbowRight:0.052924,0.821180,0.189098,0.535821 FootLeft:0.000000,0.000000,0.000000,0.000000 FootRight:0.000000,0.000000,0.000000,0.000000 HandLeft:-0.530934,0.833102,0.091428,0.125260 HandRight:-0.092088,0.826901,-0.026280,-0.554133 HandTipLeft:0.000000,0.000000,0.000000,0.000000 HandTipRight:0.000000,0.000000,0.000000,0.000000 Head:0.000000,0.000000,0.000000,0.000000 HipLeft:0.146326,-0.683233,0.690348,-0.187620 HipRight:-0.088586,0.669514,0.719751,-0.160819 KneeLeft:-0.025230,0.732756,-0.061456,-0.677241 KneeRight:-0.013521,0.681031,0.021505,0.731814 Neck:0.065040,-0.036770,0.993319,-0.087948 ShoulderLeft:-0.022244,0.787130,-0.605685,0.114357 ShoulderRight:0.063229,0.765968,0.639618,-0.013534 SpineBase:0.037256,-0.032987,0.997630,-0.047526 SpineMid:0.050553,-0.033618,0.997044,-0.047082 SpineShoulder:0.064565,-0.035271,0.995071,-0.066494 ThumbLeft:0.000000,0.000000,0.000000,0.000000 ThumbRight:0.000000,0.000000,0.000000,0.000000 WristLeft:-0.438273,0.893990,0.023527,0.090246 WristRight:-0.040036,0.837807,0.063793,-0.540746 END:
KINECT_DATA POSITION:18.842438,-2.125648,-10.178911 HEAD_JOINT1:0.978260,0.187384,-0.000000,0.088855 LARM_JOINT2:0.837170,0.000000,-0.081819,-0.540789 LARM_JOINT3:0.866722,0.000000,-0.489344,-0.096618 LLEG_JOINT2:0.996769,0.029156,0.000000,0.074837 LLEG_JOINT4:0.993275,0.103757,0.000000,-0.051367 RARM_JOINT2:0.776246,0.000000,-0.086450,0.624474 RARM_JOINT3:0.969772,0.000000,0.186822,0.156969 RLEG_JOINT2:0.999930,0.004860,0.000000,-0.010758 RLEG_JOINT4:0.994052,0.103988,0.000000,0.032361 WAIST:0.999174,0.000000,-0.037945,-0.014574 WAIST_JOINT0:0.997774,0.000000,-0.064088,-0.018425 WAIST_JOINT1:0.997189,0.071680,0.000000,-0.021842 END:
KINECT_DATA_Sensor  AnkleLeft:0.085362,0.735436,-0.101000,-0.664565 AnkleRight:0.087493,0.708463,0.064115,0.697363 ElbowLeft:-0.106515,0.821306,-0.131918,-0.544710 ElbowRight:0.053370,0.821230,0.188551,0.535893 FootLeft:0.000000,0.000000,0.000000,0.000000 FootRight:0.000000,0.000000,0.000000,0.000000 HandLeft:-0.531107,0.831327,0.079920,0.142948 HandRight:-0.090112,0.805504,-0.025857,-0.585128 HandTipLeft:0.000000,0.000000,0.000000,0.000000 HandTipRight:0.000000,0.000000,0.000000,0.000000 Head:0.000000,0.000000,0.000000,0.000000 HipLeft:0.146733,-0.683029,0.690451,-0.187662 HipRight:-0.088685,0.669757,0.719621,-0.160331 KneeLeft:-0.024699,0.733072,-0.062013,-0.676867 KneeRight:-0.014017,0.680744,0.021523,0.732071 Neck:0.065115,-0.036652,0.993330,-0.087824 ShoulderLeft:-0.022362,0.787298,-0.605485,0.114237 ShoulderRight:0.063171,0.766204,0.639348,-0.013275 SpineBase:0.037635,-0.032651,0.997644,-0.047167 SpineMid:0.050790,-0.033270,0.997060,-0.046733 SpineShoulder:0.064642,-0.035139,0.995083,-0.066300 ThumbLeft:0.000000,0.000000,0.000000,0.000000 ThumbRight:0.000000,0.000000,0.000000,0.000000 WristLeft:-0.439230,0.891643,0.013605,0.108929 WristRight:-0.037829,0.817031,0.064637,-0.571709 END:
KINECT_DATA POSITION:18.842184,-2.124595,-10.152340 HEAD_JOINT1:0.978147,0.187958,-0.000000,0.088879 LARM_JOINT2:0.837260,0.000000,-0.080780,-0.540806 LARM_JOINT3:0.866192,0.000000,-0.490396,-0.096039 LLEG_JOINT2:0.996765,0.029107,0.000000,0.074922 LLEG_JOINT4:0.993246,0.103864,0.000000,-0.051717 RARM_JOINT2:0.775996,0.000000,-0.086501,0.624779 RARM_JOINT3:0.969684,0.000000,0.187206,0.157054 RLEG_JOINT2:0.999919,0.006331,0.000000,-0.011006 RLEG_JOINT4:0.994156,0.102428,0.000000,0.034106 WAIST:0.999155,0.000000,-0.038419,-0.014585 WAIST_JOINT0:0.997763,0.000000,-0.064247,-0.018452 WAIST_JOINT1:0.997202,0.071474,0.000000,-0.021887 END:
KINECT_DATA_Sensor  AnkleLeft:0.085241,0.733710,-0.101144,-0.666463 AnkleRight:0.088192,0.705785,0.063156,0.700072 ElbowLeft:-0.106244,0.820993,-0.132259,-0.545152 ElbowRight:0.053532,0.821229,0.188114,0.536032 FootLeft:0.000000,0.000000,0.000000,0.000000 FootRight:0.000000,0.000000,0.000000,0.000000 HandLeft:-0.535232,0.824161,0.056610,0.176296 HandRight:-0.092593,0.824817,-0.027350,-0.557096 HandTipLeft:0.000000,0.000000,0.000000,0.000000 HandTipRight:0.000000,0.000000,0.000000,0.000000 Head:0.000000,0.000000,0.000000,0.000000 HipLeft:0.147148,-0.683020,0.690357,-0.187721 HipRight:-0.088615,0.669859,0.719645,-0.159836 KneeLeft:-0.024822,0.733399,-0.062011,-0.676509 KneeRight:-0.013106,0.680327,0.022708,0.732439 Neck:0.065276,-0.036624,0.993335,-0.087651 ShoulderLeft:-0.022785,0.787407,-0.605303,0.114362 ShoulderRight:0.062942,0.766331,0.639220,-0.013155 SpineBase:0.038115,-0.032576,0.997642,-0.046861 SpineMid:0.051112,-0.033184,0.997061,-0.046433 SpineShoulder:0.064800,-0.035149,0.995085,-0.066112 ThumbLeft:0.000000,0.000000,0.000000,0.000000 ThumbRight:0.000000,0.000000,0.000000,0.000000 WristLeft:-0.439967,0.886121,-0.004659,0.145589 WristRight:-0.039905,0.835962,0.062980,-0.543699 END:
KINECT_DATA POSITION:18.847813,-2.135628,-10.067499 HEAD_JOINT1:0.977782,0.189412,-0.000000,0.089806 LARM_JOINT2:0.837499,0.000000,-0.079253,-0.540662 LARM_JOINT3:0.865529,0.000000,-0.493508,-0.085496 LLEG_JOINT2:0.996787,0.029613,0.000000,0.074416 LLEG_JOINT4:0.993341,0.103305,0.000000,-0.051003 RARM_JOINT2:0.775541,0.000000,-0.087060,0.625265 RARM_JOINT3:0.969448,0.000000,0.188214,0.157306 RLEG_JOINT2:0.999922,0.006367,0.000000,-0.010745 RLEG_JOINT4:0.994248,0.102709,0.000000,0.030358 WAIST:0.999163,0.000000,-0.038369,-0.014161 WAIST_JOINT0:0.997789,0.000000,-0.063978,-0.017978 WAIST_JOINT1:0.997230,0.070982,0.000000,-0.022229 END:
KINECT_DATA_Sensor  AnkleLeft:0.086191,0.743063,-0.100341,-0.656018 AnkleRight:0.083380,0.673241,0.069593,0.731404 ElbowLeft:-0.106572,0.818109,-0.132635,-0.549316 ElbowRight:0.053737,0.821039,0.187421,0.536545 FootLeft:0.000000,0.000000,0.000000,0.000000 FootRight:0.000000,0.000000,0.000000,0.000000 HandLeft:-0.538184,0.830412,0.051496,0.134622 HandRight:-0.100496,0.822582,-0.023977,-0.559182 HandTipLeft:0.000000,0.000000,0.000000,0.000000 HandTipRight:0.000000,0.000000,0.000000,0.000000 Head:0.000000,0.000000,0.000000,0.000000 HipLeft:0.147449,-0.682885,0.690582,-0.187146 HipRight:-0.089028,0.670250,0.719337,-0.159352 KneeLeft:-0.024397,0.733399,-0.062340,-0.676495 KneeRight:-0.012605,0.680368,0.022241,0.732424 Neck:0.065020,-0.036590,0.993380,-0.087354 ShoulderLeft:-0.023523,0.787544,-0.605130,0.114185 ShoulderRight:0.061857,0.766885,0.638657,-0.013340 SpineBase:0.038040,-0.032402,0.997683,-0.046166 SpineMid:0.050948,-0.032996,0.997107,-0.045743 SpineShoulder:0.064543,-0.035051,0.995140,-0.065584 ThumbLeft:0.000000,0.000000,0.000000,0.000000 ThumbRight:0.000000,0.000000,0.000000,0.000000 WristLeft:-0.443682,0.888829,0.007634,0.114326 WristRight:-0.039219,0.834631,0.062634,-0.545829 END:
KINECT_DATA POSITION:18.821066,-2.140828,-10.080374 HEAD_JOINT1:0.977719,0.190291,-0.000000,0.088633 LARM_JOINT2:0.838831,0.000000,-0.076644,-0.538970 LARM_JOINT3:0.872435,0.000000,-0.484119,-0.066977 LLEG_JOINT2:0.996771,0.028890,0.000000,0.074921 LLEG_JOINT4:0.992938,0.106387,0.000000,-0.052506 RARM_JOINT2:0.775951,0.000000,-0.086675,0.624810 RARM_JOINT3:0.968744,0.000000,0.192260,0.156751 RLEG_JOINT2:0.999908,0.006831,0.000000,-0.011684 RLEG_JOINT4:0.994411,0.100137,0.000000,0.033445 WAIST:0.999229,0.000000,-0.036656,-0.014043 WAIST_JOINT0:0.997938,0.000000,-0.061939,-0.016858 WAIST_JOINT1:0.997239,0.071014,0.000000,-0.021721 END:
KINECT_DATA_Sensor  AnkleLeft:0.087606,0.734575,-0.102169,-0.665046 AnkleRight:0.086073,0.705458,0.063006,0.700679 ElbowLeft:-0.109481,0.804828,-0.134148,-0.567688 ElbowRight:0.053451,0.822682,0.187373,0.534068 FootLeft:0.000000,0.000000,0.000000,0.000000 FootRight:0.000000,0.000000,0.000000,0.000000 HandLeft:-0.503583,0.855995,0.028263,0.113480 HandRight:-0.109716,0.818049,-0.008410,-0.564524 HandTipLeft:0.000000,0.000000,0.000000,0.000000 HandTipRight:0.000000,0.000000,0.000000,0.000000 Head:0.000000,0.000000,0.000000,0.000000 HipLeft:0.146435,-0.683000,0.690830,-0.186605 HipRight:-0.090074,0.670112,0.719057,-0.160607 KneeLeft:-0.025223,0.732167,-0.062296,-0.677801 KneeRight:-0.012840,0.681594,0.023157,0.731251 Neck:0.062912,-0.035947,0.993548,-0.087246 ShoulderLeft:-0.021728,0.787008,-0.606238,0.112345 ShoulderRight:0.060924,0.767395,0.638104,-0.014675 SpineBase:0.036331,-0.032176,0.997742,-0.046420 SpineMid:0.049036,-0.032764,0.997199,-0.046007 SpineShoulder:0.062432,-0.034556,0.995289,-0.065628 ThumbLeft:0.000000,0.000000,0.000000,0.000000 ThumbRight:0.000000,0.000000,0.000000,0.000000 WristLeft:-0.447791,0.888887,-0.005733,0.096594 WristRight:-0.039761,0.829655,0.062512,-0.553339 END:
KINECT_DATA POSITION:18.825388,-2.131886,-10.073912 HEAD_JOINT1:0.977732,0.191333,-0.000000,0.086208 LARM_JOINT2:0.844965,0.000000,-0.072080,-0.529941 LARM_JOINT3:0.874875,0.000000,-0.484348,-0.000925 LLEG_JOINT2:0.996890,0.028118,0.000000,0.073615 LLEG_JOINT4:0.993179,0.104111,0.000000,-0.052504 RARM_JOINT2:0.777091,0.000000,-0.085748,0.623520 RARM_JOINT3:0.969111,0.000000,0.190451,0.156690 RLEG_JOINT2:0.999879,0.007653,0.000000,-0.013516 RLEG_JOINT4:0.994300,0.100701,0.000000,0.035028 WAIST:0.999327,0.000000,-0.034340,-0.012923 WAIST_JOINT0:0.998247,0.000000,-0.057397,-0.014453 WAIST_JOINT1:0.997278,0.070506,0.000000,-0.021579 END:
KINECT_DATA_Sensor  AnkleLeft:0.085837,0.732965,-0.099781,-0.667411 AnkleRight:0.086994,0.700257,0.064305,0.705647 ElbowLeft:-0.122608,0.770862,-0.139327,-0.609366 ElbowRight:0.051938,0.824462,0.187432,0.531445 FootLeft:0.000000,0.000000,0.000000,0.000000 FootRight:0.000000,0.000000,0.000000,0.000000 HandLeft:-0.531058,0.842696,-0.061901,0.063322 HandRight:-0.102997,0.819108,-0.015040,-0.564117 HandTipLeft:0.000000,0.000000,0.000000,0.000000 HandTipRight:0.000000,0.000000,0.000000,0.000000 Head:0.000000,0.000000,0.000000,0.000000 HipLeft:0.144694,-0.682576,0.692095,-0.184818 HipRight:-0.091351,0.670537,0.718331,-0.161357 KneeLeft:-0.025426,0.730504,-0.061709,-0.679640 KneeRight:-0.012726,0.683272,0.024258,0.729650 Neck:0.058307,-0.034485,0.993943,-0.086531 ShoulderLeft:-0.017721,0.785614,-0.609005,0.107747 ShoulderRight:0.058970,0.767876,0.637650,-0.017108 SpineBase:0.033956,-0.031443,0.997860,-0.046204 SpineMid:0.045553,-0.031978,0.997397,-0.045835 SpineShoulder:0.057823,-0.033380,0.995632,-0.065260 ThumbLeft:0.000000,0.000000,0.000000,0.000000 ThumbRight:0.000000,0.000000,0.000000,0.000000 WristLeft:-0.453525,0.887089,-0.050903,0.069267 WristRight:-0.041244,0.830374,0.063016,-0.552094 END:
KINECT_DATA POSITION:18.828770,-2.113521,-10.120273 HEAD_JOINT1:0.978078,0.190383,-0.000000,0.084366 LARM_JOINT2:0.861735,0.000000,-0.068777,-0.502675 LARM_JOINT3:0.881587,0.000000,-0.469612,0.047641 LLEG_JOINT2:0.997066,0.025832,0.000000,0.072058 LLEG_JOINT4:0.993180,0.104855,0.000000,-0.050971 RARM_JOINT2:0.777837,0.000000,-0.087412,0.622358 RARM_JOINT3:0.969831,0.000000,0.190451,0.152170 RLEG_JOINT2:0.999846,0.008206,0.000000,-0.015504 RLEG_JOINT4:0.994321,0.099385,0.000000,0.038053 WAIST:0.999472,0.000000,-0.030424,-0.011444 WAIST_JOINT0:0.998457,0.000000,-0.054047,-0.012753 WAIST_JOINT1:0.997281,0.070490,0.000000,-0.021496 END:
KINECT_DATA_Sensor  AnkleLeft:0.084189,0.730433,-0.099436,-0.670442 AnkleRight:0.087504,0.698580,0.062866,0.707373 ElbowLeft:-0.148326,0.748112,-0.160617,-0.626523 ElbowRight:0.051622,0.823715,0.188311,0.532322 FootLeft:0.000000,0.000000,0.000000,0.000000 FootRight:0.000000,0.000000,0.000000,0.000000 HandLeft:-0.556895,0.814357,-0.162193,0.019589 HandRight:-0.085226,0.808293,-0.007047,-0.582537 HandTipLeft:0.000000,0.000000,0.000000,0.000000 HandTipRight:0.000000,0.000000,0.000000,0.000000 Head:0.000000,0.000000,0.000000,0.000000 HipLeft:0.141370,-0.682137,0.693937,-0.182087 HipRight:-0.093135,0.670967,0.717322,-0.163029 KneeLeft:-0.026645,0.727616,-0.060147,-0.682823 KneeRight:-0.012696,0.686144,0.025025,0.726925 Neck:0.054829,-0.033181,0.994191,-0.086469 ShoulderLeft:-0.014068,0.784632,-0.611005,0.104055 ShoulderRight:0.058086,0.768394,0.637062,-0.018686 SpineBase:0.029960,-0.030497,0.998009,-0.046366 SpineMid:0.041821,-0.031046,0.997583,-0.046000 SpineShoulder:0.054355,-0.032159,0.995873,-0.065173 ThumbLeft:0.000000,0.000000,0.000000,0.000000 ThumbRight:0.000000,0.000000,0.000000,0.000000 WristLeft:-0.442846,0.889506,-0.098335,0.054749 WristRight:-0.039902,0.816397,0.065093,-0.572422 END:
KINECT_DATA POSITION:18.873369,-2.101348,-10.180580 HEAD_JOINT1:0.979032,0.187873,-0.000000,0.078743 LARM_JOINT2:0.874620,0.000000,-0.020176,-0.484390 LARM_JOINT3:0.859177,0.000000,-0.490021,0.147289 LLEG_JOINT2:0.997230,0.023946,0.000000,0.070413 LLEG_JOINT4:0.993179,0.105867,0.000000,-0.048863 RARM_JOINT2:0.780675,0.000000,-0.085036,0.619125 RARM_JOINT3:0.967983,0.000000,0.196532,0.156157 RLEG_JOINT2:0.999815,0.008748,0.000000,-0.017119 RLEG_JOINT4:0.994550,0.097773,0.000000,0.036198 WAIST:0.999674,0.000000,-0.023544,-0.009920 WAIST_JOINT0:0.998872,0.000000,-0.046097,-0.011418 WAIST_JOINT1:0.997310,0.070607,0.000000,-0.019690 END:
KINECT_DATA_Sensor  AnkleLeft:0.086218,0.747931,-0.096900,-0.650981 AnkleRight:0.085896,0.712825,0.063139,0.693192 ElbowLeft:0.162452,-0.651483,0.191726,0.715835 ElbowRight:0.049800,0.831306,0.188674,0.520435 FootLeft:0.000000,0.000000,0.000000,0.000000 FootRight:0.000000,0.000000,0.000000,0.000000 HandLeft:-0.562510,0.783167,-0.255440,-0.070585 HandRight:-0.112009,0.826227,0.004420,-0.552072 HandTipLeft:0.000000,0.000000,0.000000,0.000000 HandTipRight:0.000000,0.000000,0.000000,0.000000 Head:0.000000,0.000000,0.000000,0.000000 HipLeft:0.135925,-0.682152,0.695999,-0.178266 HipRight:-0.096953,0.671223,0.715752,-0.166608 KneeLeft:-0.027375,0.722730,-0.058954,-0.688067 KneeRight:-0.012457,0.691112,0.025457,0.722192 Neck:0.046845,-0.029831,0.994703,-0.086499 ShoulderLeft:-0.006508,0.785208,-0.611652,0.096378 ShoulderRight:0.055018,0.769788,0.635494,-0.023400 SpineBase:0.023044,-0.028648,0.998228,-0.046791 SpineMid:0.034362,-0.029176,0.997902,-0.046463 SpineShoulder:0.046363,-0.029388,0.996360,-0.065214 ThumbLeft:0.000000,0.000000,0.000000,0.000000 ThumbRight:0.000000,0.000000,0.000000,0.000000 WristLeft:-0.488909,0.853910,-0.175539,-0.031481 WristRight:-0.044547,0.836145,0.061539,-0.543222 END:
KINECT_DATA POSITION:18.920584,-2.087160,-10.115421 HEAD_JOINT1:0.979452,0.189250,-0.000000,0.069703 LARM_JOINT2:0.884960,0.000000,-0.011178,-0.465533 LARM_JOINT3:0.847136,0.000000,-0.496635,0.188984 LLEG_JOINT2:0.997309,0.023456,0.000000,0.069458 LLEG_JOINT4:0.993058,0.106867,0.000000,-0.049148 RARM_JOINT2:0.782966,0.000000,-0.078163,0.617135 RARM_JOINT3:0.967463,0.000000,0.196968,0.158803 RLEG_JOINT2:0.999777,0.010742,0.000000,-0.018177 RLEG_JOINT4:0.994631,0.096823,0.000000,0.036543 WAIST:0.999835,0.000000,-0.015714,-0.009101 WAIST_JOINT0:0.999354,0.000000,-0.034843,-0.008810 WAIST_JOINT1:0.997481,0.069143,0.000000,-0.015819 END:
KINECT_DATA_Sensor  AnkleLeft:0.085931,0.730578,-0.097900,-0.670289 AnkleRight:0.086039,0.715267,0.064832,0.690498 ElbowLeft:0.187028,-0.606659,0.205011,0.744954 ElbowRight:0.043101,0.836446,0.184905,0.514111 FootLeft:0.000000,0.000000,0.000000,0.000000 FootRight:0.000000,0.000000,0.000000,0.000000 HandLeft:-0.583215,0.750082,-0.304564,-0.066916 HandRight:-0.131714,0.790199,-0.005934,-0.598499 HandTipLeft:0.000000,0.000000,0.000000,0.000000 HandTipRight:0.000000,0.000000,0.000000,0.000000 Head:0.000000,0.000000,0.000000,0.000000 HipLeft:0.133125,-0.682402,0.696959,-0.175654 HipRight:-0.104899,0.670806,0.713852,-0.171554 KneeLeft:-0.027086,0.717375,-0.058784,-0.693674 KneeRight:-0.011332,0.696540,0.026978,0.716922 Neck:0.035444,-0.025277,0.995460,-0.084645 ShoulderLeft:-0.000055,0.785538,-0.612691,0.086837 ShoulderRight:0.046515,0.773033,0.631875,-0.031475 SpineBase:0.015321,-0.025600,0.998508,-0.045731 SpineMid:0.024833,-0.026035,0.998317,-0.045485 SpineShoulder:0.035018,-0.025059,0.997030,-0.063848 ThumbLeft:0.000000,0.000000,0.000000,0.000000 ThumbRight:0.000000,0.000000,0.000000,0.000000 WristLeft:-0.509948,0.827591,-0.232011,-0.034885 WristRight:-0.047328,0.806000,0.066004,-0.586317 END:
KINECT_DATA POSITION:18.961895,-2.061516,-9.929729 HEAD_JOINT1:0.982364,0.179558,-0.000000,0.052152 LARM_JOINT2:0.883393,0.000000,-0.016892,-0.468328 LARM_JOINT3:0.851241,0.000000,-0.490118,0.187548 LLEG_JOINT2:0.997446,0.022465,0.000000,0.067795 LLEG_JOINT4:0.993456,0.105603,0.000000,-0.043519 RARM_JOINT2:0.790890,0.000000,-0.071745,0.607739 RARM_JOINT3:0.966968,0.000000,0.196548,0.162301 RLEG_JOINT2:0.999645,0.016522,0.000000,-0.020898 RLEG_JOINT4:0.994794,0.093081,0.000000,0.041490 WAIST:0.999967,0.000000,0.000182,-0.008086 WAIST_JOINT0:0.999861,0.000000,-0.015875,-0.005085 WAIST_JOINT1:0.997837,0.065187,0.000000,-0.008456 END:
KINECT_DATA_Sensor  AnkleLeft:0.084133,0.731111,-0.097398,-0.670010 AnkleRight:0.088858,0.726581,0.065160,0.678188 ElbowLeft:0.192922,-0.593248,0.203961,0.754479 ElbowRight:0.034666,0.855724,0.184441,0.482199 FootLeft:0.000000,0.000000,0.000000,0.000000 FootRight:0.000000,0.000000,0.000000,0.000000 HandLeft:-0.566574,0.758497,-0.309544,-0.088655 HandRight:-0.132817,0.738407,0.017715,-0.660909 HandTipLeft:0.000000,0.000000,0.000000,0.000000 HandTipRight:0.000000,0.000000,0.000000,0.000000 Head:0.000000,0.000000,0.000000,0.000000 HipLeft:0.127344,-0.683864,0.698190,-0.169246 HipRight:-0.120039,0.669963,0.710039,-0.180510 KneeLeft:-0.026278,0.706381,-0.058151,-0.704950 KneeRight:-0.008782,0.707465,0.032182,0.705961 Neck:0.016558,-0.017155,0.996532,-0.079722 ShoulderLeft:0.005871,0.787523,-0.611981,0.072473 ShoulderRight:0.027721,0.778893,0.624806,-0.046634 SpineBase:-0.000378,-0.020719,0.998859,-0.043033 SpineMid:0.007564,-0.021060,0.998830,-0.042867 SpineShoulder:0.016201,-0.017710,0.997901,-0.060137 ThumbLeft:0.000000,0.000000,0.000000,0.000000 ThumbRight:0.000000,0.000000,0.000000,0.000000 WristLeft:-0.516160,0.820977,-0.237930,-0.054454 WristRight:-0.051304,0.752025,0.067439,-0.653665 END:
KINECT_DATA POSITION:19.071405,-2.035814,-9.648073 HEAD_JOINT1:0.986063,0.163594,-0.000000,0.030292 LARM_JOINT2:0.881855,0.000000,-0.011685,-0.471375 LARM_JOINT3:0.842172,0.000000,-0.491150,0.222526 LLEG_JOINT2:0.997740,0.022248,0.000000,0.063409 LLEG_JOINT4:0.993887,0.103853,0.000000,-0.037467 RARM_JOINT2:0.803443,0.000000,-0.059226,0.592428 RARM_JOINT3:0.965961,0.000000,0.195775,0.169088 RLEG_JOINT2:0.999496,0.021177,0.000000,-0.023669 RLEG_JOINT4:0.994816,0.092541,0.000000,0.042169 WAIST:0.999811,0.000000,0.018478,-0.006112 WAIST_JOINT0:0.999876,-0.000000,0.015754,0.000683 WAIST_JOINT1:0.998187,0.060178,0.000000,-0.000533 END:
KINECT_DATA_Sensor  AnkleLeft:0.083754,0.730596,-0.095997,-0.670820 AnkleRight:0.089911,0.731888,0.070639,0.671764 ElbowLeft:0.200368,-0.553588,0.205662,0.781726 ElbowRight:0.017898,0.875425,0.186708,0.445478 FootLeft:0.000000,0.000000,0.000000,0.000000 FootRight:0.000000,0.000000,0.000000,0.000000 HandLeft:-0.583620,0.722178,-0.358503,-0.096549 HandRight:0.126856,-0.646873,-0.033460,0.751228 HandTipLeft:0.000000,0.000000,0.000000,0.000000 HandTipRight:0.000000,0.000000,0.000000,0.000000 Head:0.000000,0.000000,0.000000,0.000000 HipLeft:0.118573,-0.685486,0.700519,-0.159133 HipRight:-0.136086,0.670170,0.705145,-0.187413 KneeLeft:0.023600,-0.693566,0.056810,0.717762 KneeRight:-0.006641,0.719998,0.035997,0.693010 Neck:-0.014430,-0.007127,0.997082,-0.074622 ShoulderLeft:0.016246,0.789273,-0.611821,0.049584 ShoulderRight:-0.002014,0.784093,0.616393,-0.072480 SpineBase:-0.018492,-0.013709,0.998983,-0.038772 SpineMid:-0.016877,-0.013771,0.999011,-0.038750 SpineShoulder:-0.014689,-0.008220,0.998319,-0.055463 ThumbLeft:0.000000,0.000000,0.000000,0.000000 ThumbRight:0.000000,0.000000,0.000000,0.000000 WristLeft:-0.519136,0.804554,-0.281271,-0.063849 WristRight:0.056219,-0.649870,-0.080317,0.753696 END:
KINECT_DATA POSITION:19.029947,-2.023052,-9.432852 HEAD_JOINT1:0.989559,0.143400,-0.000000,0.014484 LARM_JOINT2:0.887465,0.000000,-0.020513,-0.460419 LARM_JOINT3:0.848632,0.000000,-0.484629,0.212033 LLEG_JOINT2:0.997959,0.022926,0.000000,0.059607 LLEG_JOINT4:0.994471,0.099587,0.000000,-0.033324 RARM_JOINT2:0.809536,0.000000,-0.057391,0.584259 RARM_JOINT3:0.963370,0.000000,0.193762,0.185402 RLEG_JOINT2:0.999476,0.020220,0.000000,-0.025280 RLEG_JOINT4:0.994325,0.096425,0.000000,0.044939 WAIST:0.999526,0.000000,0.030566,-0.003665 WAIST_JOINT0:0.999339,-0.000000,0.035977,0.005131 WAIST_JOINT1:0.998432,0.055705,-0.000000,0.005554 END:
KINECT_DATA_Sensor  AnkleLeft:0.080405,0.723238,-0.094857,-0.679312 AnkleRight:0.090389,0.709256,0.075372,0.695057 ElbowLeft:0.221297,-0.540571,0.209821,0.784083 ElbowRight:0.012292,0.886732,0.185512,0.423251 FootLeft:0.000000,0.000000,0.000000,0.000000 FootRight:0.000000,0.000000,0.000000,0.000000 HandLeft:-0.572750,0.737370,-0.348636,-0.081828 HandRight:0.152828,-0.654923,0.010825,0.740001 HandTipLeft:0.000000,0.000000,0.000000,0.000000 HandTipRight:0.000000,0.000000,0.000000,0.000000 Head:0.000000,0.000000,0.000000,0.000000 HipLeft:0.110360,-0.685987,0.703090,-0.151354 HipRight:-0.146986,0.671878,0.700907,-0.188953 KneeLeft:0.021477,-0.684980,0.056568,0.726045 KneeRight:-0.007133,0.728229,0.034643,0.684421 Neck:-0.034502,0.001016,0.996905,-0.070638 ShoulderLeft:0.017781,0.791835,-0.609408,0.036089 ShoulderRight:-0.026273,0.790687,0.604922,-0.090510 SpineBase:-0.030406,-0.004392,0.998910,-0.035146 SpineMid:-0.032641,-0.004314,0.998839,-0.035155 SpineShoulder:-0.034606,0.000239,0.998094,-0.051087 ThumbLeft:0.000000,0.000000,0.000000,0.000000 ThumbRight:0.000000,0.000000,0.000000,0.000000 WristLeft:-0.521834,0.795483,-0.300323,-0.068581 WristRight:0.070524,-0.658459,-0.077958,0.745239 END:
KINECT_DATA POSITION:18.767811,-2.004076,-9.084070 HEAD_JOINT1:0.991144,0.132594,-0.000000,0.007230 LARM_JOINT2:0.899630,0.000000,-0.049953,-0.433787 LARM_JOINT3:0.871276,0.000000,-0.454369,0.185546 LLEG_JOINT2:0.998110,0.025895,0.000000,0.055723 LLEG_JOINT4:0.995227,0.092960,0.000000,-0.029679 RARM_JOINT2:0.811791,0.000000,-0.055653,0.581290 RARM_JOINT3:0.965773,0.000000,0.190397,0.176159 RLEG_JOINT2:0.999450,0.018674,0.000000,-0.027399 RLEG_JOINT4:0.993682,0.102355,0.000000,0.046040 WAIST:0.999328,0.000000,0.036659,-0.000351 WAIST_JOINT0:0.999221,-0.000000,0.038943,0.006431 WAIST_JOINT1:0.998473,0.054944,-0.000000,0.005715 END:
KINECT_DATA_Sensor  AnkleLeft:0.075496,0.715085,-0.094914,-0.688437 AnkleRight:0.094977,0.717335,0.076994,0.685917 ElbowLeft:0.255195,-0.554707,0.213047,0.762749 ElbowRight:0.010008,0.891704,0.184787,0.413058 FootLeft:0.000000,0.000000,0.000000,0.000000 FootRight:0.000000,0.000000,0.000000,0.000000 HandLeft:-0.569352,0.743953,-0.347600,-0.039329 HandRight:0.095917,-0.556985,-0.024903,0.824589 HandTipLeft:0.000000,0.000000,0.000000,0.000000 HandTipRight:0.000000,0.000000,0.000000,0.000000 Head:0.000000,0.000000,0.000000,0.000000 HipLeft:0.104088,-0.684733,0.706679,-0.144604 HipRight:-0.150910,0.673945,0.698368,-0.187900 KneeLeft:0.018628,-0.680529,0.058227,0.730166 KneeRight:-0.007593,0.732440,0.032582,0.680009 Neck:-0.037365,0.003906,0.996820,-0.070278 ShoulderLeft:0.015865,0.792449,-0.608713,0.035234 ShoulderRight:-0.031922,0.792455,0.601774,-0.094151 SpineBase:-0.036547,0.000870,0.998787,-0.032997 SpineMid:-0.037036,0.000886,0.998769,-0.032997 SpineShoulder:-0.037409,0.003226,0.998032,-0.050232 ThumbLeft:0.000000,0.000000,0.000000,0.000000 ThumbRight:0.000000,0.000000,0.000000,0.000000 WristLeft:-0.495265,0.807277,-0.317260,-0.048604 WristRight:0.066215,-0.559882,-0.085487,0.821486 END:
KINECT_DATA POSITION:18.322853,-1.940296,-8.664274 HEAD_JOINT1:0.992229,0.123508,-0.000000,0.015063 LARM_JOINT2:0.922291,0.000000,-0.143206,-0.358986 LARM_JOINT3:0.935151,0.000000,-0.327584,0.134840 LLEG_JOINT2:0.998141,0.029776,0.000000,0.053183 LLEG_JOINT4:0.995532,0.089444,0.000000,-0.030271 RARM_JOINT2:0.811012,0.000000,-0.056212,0.582323 RARM_JOINT3:0.967318,0.000000,0.183726,0.174760 RLEG_JOINT2:0.999439,0.017900,0.000000,-0.028305 RLEG_JOINT4:0.993596,0.103059,0.000000,0.046319 WAIST:0.999377,-0.000000,0.035105,0.003664 WAIST_JOINT0:0.999585,-0.000000,0.027342,0.009079 WAIST_JOINT1:0.998566,0.053364,-0.000000,0.004306 END:
KINECT_DATA_Sensor  AnkleLeft:0.077705,0.735708,-0.093613,-0.666282 AnkleRight:0.098074,0.722280,0.073612,0.680642 ElbowLeft:0.348968,-0.601775,0.201474,0.689562 ElbowRight:0.011150,0.891947,0.180766,0.414283 FootLeft:0.000000,0.000000,0.000000,0.000000 FootRight:0.000000,0.000000,0.000000,0.000000 HandLeft:-0.485844,0.762836,-0.420985,0.069337 HandRight:0.080580,-0.564644,-0.005148,0.821375 HandTipLeft:0.000000,0.000000,0.000000,0.000000 HandTipRight:0.000000,0.000000,0.000000,0.000000 Head:0.000000,0.000000,0.000000,0.000000 HipLeft:0.104815,-0.681803,0.709670,-0.143273 HipRight:-0.151343,0.677138,0.696172,-0.184184 KneeLeft:0.016969,-0.681525,0.061818,0.728982 KneeRight:-0.005896,0.731506,0.029805,0.681158 Neck:-0.025601,0.005774,0.997286,-0.068784 ShoulderLeft:0.003524,0.790536,-0.610639,0.046471 ShoulderRight:-0.029414,0.793712,0.601406,-0.086416 SpineBase:-0.035133,0.004774,0.998902,-0.030618 SpineMid:-0.030387,0.004629,0.999058,-0.030640 SpineShoulder:-0.025552,0.005504,0.998475,-0.048632 ThumbLeft:0.000000,0.000000,0.000000,0.000000 ThumbRight:0.000000,0.000000,0.000000,0.000000 WristLeft:-0.400411,0.830060,-0.383701,0.058691 WristRight:0.068915,-0.567555,-0.083075,0.816229 END:
KINECT_DATA POSITION:17.900698,-1.914722,-8.400559 HEAD_JOINT1:0.992853,0.116770,-0.000000,0.024645 LARM_JOINT2:0.928942,0.000000,-0.177190,-0.325069 LARM_JOINT3:0.953174,0.000000,-0.277803,0.119524 LLEG_JOINT2:0.998243,0.031961,0.000000,0.049901 LLEG_JOINT4:0.995671,0.090440,0.000000,-0.021458 RARM_JOINT2:0.809109,0.000000,-0.061773,0.584403 RARM_JOINT3:0.967978,0.000000,0.184010,0.170762 RLEG_JOINT2:0.999404,0.019600,0.000000,-0.028420 RLEG_JOINT4:0.993833,0.103086,0.000000,0.040851 WAIST:0.999521,-0.000000,0.029951,0.007726 WAIST_JOINT0:0.999854,-0.000000,0.014379,0.009280 WAIST_JOINT1:0.998621,0.052441,-0.000000,0.002469 END:
KINECT_DATA_Sensor  AnkleLeft:0.067794,0.700156,-0.107411,-0.702601 AnkleRight:0.098035,0.715424,0.075869,0.687606 ElbowLeft:0.390633,-0.609314,0.193333,0.662394 ElbowRight:0.014953,0.883747,0.177950,0.432552 FootLeft:0.000000,0.000000,0.000000,0.000000 FootRight:0.000000,0.000000,0.000000,0.000000 HandLeft:-0.461024,0.775208,-0.426516,0.067772 HandRight:0.071609,-0.612331,0.011557,0.787267 HandTipLeft:0.000000,0.000000,0.000000,0.000000 HandTipRight:0.000000,0.000000,0.000000,0.000000 Head:0.000000,0.000000,0.000000,0.000000 HipLeft:0.107976,-0.678435,0.711997,-0.145351 HipRight:-0.149366,0.680704,0.694186,-0.180105 KneeLeft:0.016298,-0.685097,0.063717,0.725477 KneeRight:-0.001776,0.728144,0.028293,0.684838 Neck:-0.012816,0.007585,0.997580,-0.067914 ShoulderLeft:-0.006140,0.790243,-0.610149,0.056542 ShoulderRight:-0.022805,0.795065,0.601279,-0.076259 SpineBase:-0.030135,0.007880,0.999083,-0.029379 SpineMid:-0.021444,0.007625,0.999307,-0.029446 SpineShoulder:-0.012674,0.007717,0.998751,-0.047718 ThumbLeft:0.000000,0.000000,0.000000,0.000000 ThumbRight:0.000000,0.000000,0.000000,0.000000 WristLeft:-0.397068,0.825581,-0.396638,0.058580 WristRight:0.073229,-0.615591,-0.081128,0.780451 END:
KINECT_DATA POSITION:17.653196,-1.916561,-8.277988 HEAD_JOINT1:0.992954,0.115175,-0.000000,0.027873 LARM_JOINT2:0.930035,0.000000,-0.188945,-0.315174 LARM_JOINT3:0.966228,0.000000,-0.233357,0.109305 LLEG_JOINT2:0.998247,0.033228,0.000000,0.048977 LLEG_JOINT4:0.995628,0.091428,0.000000,-0.019105 RARM_JOINT2:0.808994,0.000000,-0.064925,0.584220 RARM_JOINT3:0.967332,0.000000,0.185584,0.172705 RLEG_JOINT2:0.999404,0.019298,0.000000,-0.028614 RLEG_JOINT4:0.993847,0.103505,0.000000,0.039436 WAIST:0.999580,-0.000000,0.027398,0.009419 WAIST_JOINT0:0.999927,-0.000000,0.008597,0.008548 WAIST_JOINT1:0.998588,0.053122,-0.000000,0.000872 END:
KINECT_DATA_Sensor  AnkleLeft:0.075175,0.751469,-0.106103,-0.646827 AnkleRight:0.098186,0.712334,0.075849,0.690787 ElbowLeft:0.402957,-0.610835,0.187512,0.655244 ElbowRight:0.017823,0.881279,0.179331,0.436888 FootLeft:0.000000,0.000000,0.000000,0.000000 FootRight:0.000000,0.000000,0.000000,0.000000 HandLeft:-0.407345,0.799645,-0.440432,0.025638 HandRight:0.080657,-0.621790,0.011684,0.778932 HandTipLeft:0.000000,0.000000,0.000000,0.000000 HandTipRight:0.000000,0.000000,0.000000,0.000000 Head:0.000000,0.000000,0.000000,0.000000 HipLeft:0.108871,-0.677079,0.712918,-0.146493 HipRight:-0.147337,0.682175,0.693511,-0.178808 KneeLeft:0.016081,-0.686870,0.065083,0.723682 KneeRight:-0.000841,0.726453,0.027028,0.686683 Neck:-0.007206,0.007488,0.997581,-0.068728 ShoulderLeft:-0.008667,0.790040,-0.609955,0.060963 ShoulderRight:-0.018155,0.794867,0.602238,-0.071877 SpineBase:-0.027674,0.008336,0.999141,-0.029712 SpineMid:-0.017401,0.008030,0.999372,-0.029796 SpineShoulder:-0.007042,0.007787,0.998776,-0.048330 ThumbLeft:0.000000,0.000000,0.000000,0.000000 ThumbRight:0.000000,0.000000,0.000000,0.000000 WristLeft:-0.390886,0.829826,-0.396095,0.041303 WristRight:0.071824,-0.625223,-0.079527,0.773054 END:
KINECT_DATA POSITION:17.501995,-1.905062,-8.191645 HEAD_JOINT1:0.992996,0.114971,-0.000000,0.027219 LARM_JOINT2:0.933631,0.000000,-0.180223,-0.309600 LARM_JOINT3:0.974591,0.000000,-0.179682,0.133741 LLEG_JOINT2:0.998242,0.033292,0.000000,0.049031 LLEG_JOINT4:0.995518,0.092879,0.000000,-0.017824 RARM_JOINT2:0.809543,0.000000,-0.067339,0.583185 RARM_JOINT3:0.967854,0.000000,0.186950,0.168249 RLEG_JOINT2:0.999417,0.018076,0.000000,-0.028965 RLEG_JOINT4:0.993259,0.107526,0.000000,0.043298 WAIST:0.999601,-0.000000,0.026577,0.009519 WAIST_JOINT0:0.999933,-0.000000,0.007972,0.008348 WAIST_JOINT1:0.998572,0.053415,-0.000000,0.000122 END:
KINECT_DATA_Sensor  AnkleLeft:0.074493,0.746162,-0.108861,-0.652566 AnkleRight:0.102804,0.711312,0.075360,0.691222 ElbowLeft:0.417935,-0.555021,0.165126,0.700011 ElbowRight:0.018371,0.878581,0.181926,0.441203 FootLeft:0.000000,0.000000,0.000000,0.000000 FootRight:0.000000,0.000000,0.000000,0.000000 HandLeft:-0.360257,0.786750,-0.500132,-0.033274 HandRight:0.070218,-0.603085,-0.002351,0.794577 HandTipLeft:0.000000,0.000000,0.000000,0.000000 HandTipRight:0.000000,0.000000,0.000000,0.000000 Head:0.000000,0.000000,0.000000,0.000000 HipLeft:0.109053,-0.677023,0.712932,-0.146545 HipRight:-0.146435,0.682368,0.693627,-0.178357 KneeLeft:0.016189,-0.687460,0.065229,0.723105 KneeRight:-0.001839,0.725885,0.026320,0.687310 Neck:-0.006777,0.006846,0.997567,-0.069047 ShoulderLeft:-0.007193,0.789308,-0.610968,0.060486 ShoulderRight:-0.016103,0.794329,0.603147,-0.070680 SpineBase:-0.026874,0.007883,0.999163,-0.029808 SpineMid:-0.016785,0.007582,0.999384,-0.029886 SpineShoulder:-0.006619,0.007202,0.998772,-0.048568 ThumbLeft:0.000000,0.000000,0.000000,0.000000 ThumbRight:0.000000,0.000000,0.000000,0.000000 WristLeft:-0.368404,0.824764,-0.428997,0.001950 WristRight:0.065446,-0.605365,-0.082658,0.788935 END:
KINECT_DATA POSITION:17.460400,-1.905392,-8.175528 HEAD_JOINT1:0.992760,0.117787,-0.000000,0.023528 LARM_JOINT2:0.939388,0.000000,-0.156981,-0.304806 LARM_JOINT3:0.974278,0.000000,-0.182497,0.132199 LLEG_JOINT2:0.998267,0.032873,0.000000,0.048806 LLEG_JOINT4:0.995513,0.093125,0.000000,-0.016802 RARM_JOINT2:0.811046,0.000000,-0.069389,0.580853 RARM_JOINT3:0.965358,0.000000,0.192258,0.176409 RLEG_JOINT2:0.999398,0.018884,0.000000,-0.029112 RLEG_JOINT4:0.993462,0.105252,0.000000,0.044210 WAIST:0.999561,-0.000000,0.027972,0.009714 WAIST_JOINT0:0.999907,-0.000000,0.010373,0.008860 WAIST_JOINT1:0.998545,0.053924,-0.000000,0.000412 END:
KINECT_DATA_Sensor  AnkleLeft:0.066817,0.702397,-0.113881,-0.699432 AnkleRight:0.102409,0.712605,0.073734,0.690123 ElbowLeft:0.416391,-0.539283,0.184223,0.708417 ElbowRight:0.019567,0.880098,0.184830,0.436900 FootLeft:0.000000,0.000000,0.000000,0.000000 FootRight:0.000000,0.000000,0.000000,0.000000 HandLeft:-0.363227,0.786609,-0.494808,-0.066919 HandRight:0.104259,-0.633123,-0.002219,0.766994 HandTipLeft:0.000000,0.000000,0.000000,0.000000 HandTipRight:0.000000,0.000000,0.000000,0.000000 Head:0.000000,0.000000,0.000000,0.000000 HipLeft:0.107917,-0.676982,0.713249,-0.146028 HipRight:-0.147068,0.682258,0.693365,-0.179274 KneeLeft:0.016398,-0.686437,0.064930,0.724099 KneeRight:-0.001298,0.726856,0.026856,0.686263 Neck:-0.009267,0.007325,0.997504,-0.069616 ShoulderLeft:-0.005873,0.788320,-0.612357,0.059472 ShoulderRight:-0.018006,0.794010,0.603179,-0.073478 SpineBase:-0.028273,0.008202,0.999111,-0.030163 SpineMid:-0.018721,0.007913,0.999336,-0.030240 SpineShoulder:-0.009107,0.007634,0.998725,-0.049066 ThumbLeft:0.000000,0.000000,0.000000,0.000000 ThumbRight:0.000000,0.000000,0.000000,0.000000 WristLeft:-0.368296,0.821853,-0.432955,-0.038288 WristRight:0.068258,-0.636358,-0.078509,0.764347 END:
KINECT_DATA POSITION:17.394012,-1.896731,-8.202505 HEAD_JOINT1:0.992607,0.119900,-0.000000,0.018833 LARM_JOINT2:0.943201,0.000000,-0.137709,-0.302338 LARM_JOINT3:0.973950,0.000000,-0.186993,0.128275 LLEG_JOINT2:0.998264,0.031993,0.000000,0.049446 LLEG_JOINT4:0.995552,0.092855,0.000000,-0.015915 RARM_JOINT2:0.811099,0.000000,-0.069809,0.580728 RARM_JOINT3:0.965461,0.000000,0.190913,0.177308 RLEG_JOINT2:0.999360,0.021013,0.000000,-0.028939 RLEG_JOINT4:0.993453,0.104976,0.000000,0.045069 WAIST:0.999487,-0.000000,0.030418,0.010064 WAIST_JOINT0:0.999862,-0.000000,0.013485,0.009668 WAIST_JOINT1:0.998540,0.054021,-0.000000,0.000713 END:
KINECT_DATA_Sensor  AnkleLeft:0.072327,0.745143,-0.109846,-0.653808 AnkleRight:0.104452,0.714005,0.074389,0.688297 ElbowLeft:0.412938,-0.528024,0.201222,0.714271 ElbowRight:0.019505,0.880673,0.184636,0.435826 FootLeft:0.000000,0.000000,0.000000,0.000000 FootRight:0.000000,0.000000,0.000000,0.000000 HandLeft:-0.347692,0.790540,-0.500075,-0.063888 HandRight:0.102735,-0.616042,0.007165,0.780953 HandTipLeft:0.000000,0.000000,0.000000,0.000000 HandTipRight:0.000000,0.000000,0.000000,0.000000 Head:0.000000,0.000000,0.000000,0.000000 HipLeft:0.106148,-0.676986,0.713793,-0.144646 HipRight:-0.148403,0.682161,0.692872,-0.180449 KneeLeft:0.017584,-0.684622,0.065064,0.725776 KneeRight:0.000453,0.728564,0.028021,0.684404 Neck:-0.012375,0.007891,0.997458,-0.069729 ShoulderLeft:-0.003094,0.787269,-0.613983,0.056772 ShoulderRight:-0.019233,0.793561,0.603471,-0.075582 SpineBase:-0.030721,0.008743,0.999032,-0.030250 SpineMid:-0.021488,0.008463,0.999273,-0.030330 SpineShoulder:-0.012211,0.008176,0.998682,-0.049173 ThumbLeft:0.000000,0.000000,0.000000,0.000000 ThumbRight:0.000000,0.000000,0.000000,0.000000 WristLeft:-0.351065,0.821193,-0.447982,-0.041322 WristRight:0.067348,-0.619529,-0.079709,0.778007 END:
KINECT_DATA POSITION:17.342285,-1.914452,-8.282399 HEAD_JOINT1:0.992329,0.122743,-0.000000,0.014736 LARM_JOINT2:0.943909,0.000000,-0.138407,-0.299800 LARM_JOINT3:0.969132,0.000000,-0.204928,0.137071 LLEG_JOINT2:0.998283,0.031664,0.000000,0.049287 LLEG_JOINT4:0.995569,0.092762,0.000000,-0.015418 RARM_JOINT2:0.810828,0.000000,-0.070613,0.581009 RARM_JOINT3:0.966868,0.000000,0.182506,0.178488 RLEG_JOINT2:0.999312,0.022674,0.000000,-0.029360 RLEG_JOINT4:0.993769,0.101884,0.000000,0.045195 WAIST:0.999429,-0.000000,0.032032,0.010712 WAIST_JOINT0:0.999832,-0.000000,0.015558,0.009729 WAIST_JOINT1:0.998510,0.054570,-0.000000,0.000821 END:
KINECT_DATA_Sensor  AnkleLeft:0.071321,0.742742,-0.110375,-0.656556 AnkleRight:0.103895,0.718189,0.072802,0.684186 ElbowLeft:0.416044,-0.523310,0.201321,0.715907 ElbowRight:0.020898,0.881735,0.184201,0.433793 FootLeft:0.000000,0.000000,0.000000,0.000000 FootRight:0.000000,0.000000,0.000000,0.000000 HandLeft:-0.397631,0.770494,-0.497489,-0.027082 HandRight:0.086134,-0.599151,0.037012,0.795128 HandTipLeft:0.000000,0.000000,0.000000,0.000000 HandTipRight:0.000000,0.000000,0.000000,0.000000 Head:0.000000,0.000000,0.000000,0.000000 HipLeft:0.104565,-0.676634,0.714509,-0.143905 HipRight:-0.149031,0.682249,0.692363,-0.181546 KneeLeft:0.018080,-0.683407,0.065197,0.726896 KneeRight:0.001686,0.729706,0.029051,0.683141 Neck:-0.014472,0.008627,0.997379,-0.070366 ShoulderLeft:-0.001094,0.786713,-0.614830,0.055362 ShoulderRight:-0.019958,0.793033,0.603902,-0.077479 SpineBase:-0.032360,0.009273,0.998960,-0.030766 SpineMid:-0.023349,0.008995,0.999211,-0.030848 SpineShoulder:-0.014304,0.008817,0.998623,-0.049705 ThumbLeft:0.000000,0.000000,0.000000,0.000000 ThumbRight:0.000000,0.000000,0.000000,0.000000 WristLeft:-0.348254,0.818568,-0.455490,-0.034563 WristRight:0.064872,-0.603684,-0.078680,0.790675 END:
KINECT_DATA POSITION:17.332817,-1.928155,-8.336126 HEAD_JOINT1:0.992236,0.123592,-0.000000,0.013846 LARM_JOINT2:0.945758,0.000000,-0.143850,-0.291289 LARM_JOINT3:0.966561,0.000000,-0.216224,0.137868 LLEG_JOINT2:0.998271,0.032195,0.000000,0.049170 LLEG_JOINT4:0.995448,0.093301,0.000000,-0.019425 RARM_JOINT2:0.810849,0.000000,-0.071601,0.580858 RARM_JOINT3:0.966667,0.000000,0.185045,0.176954 RLEG_JOINT2:0.999266,0.024519,0.000000,-0.029444 RLEG_JOINT4:0.993882,0.100779,0.000000,0.045187 WAIST:0.999410,-0.000000,0.032484,0.011168 WAIST_JOINT0:0.999826,-0.000000,0.016082,0.009441 WAIST_JOINT1:0.998494,0.054866,-0.000000,0.000387 END:
KINECT_DATA_Sensor  AnkleLeft:0.073114,0.734317,-0.108950,-0.666005 AnkleRight:0.104939,0.721559,0.072649,0.680487 ElbowLeft:0.423031,-0.527850,0.203889,0.707706 ElbowRight:0.022066,0.882636,0.184738,0.431669 FootLeft:0.000000,0.000000,0.000000,0.000000 FootRight:0.000000,0.000000,0.000000,0.000000 HandLeft:-0.431831,0.759775,-0.485770,-0.017085 HandRight:0.089538,-0.599904,0.018168,0.794838 HandTipLeft:0.000000,0.000000,0.000000,0.000000 HandTipRight:0.000000,0.000000,0.000000,0.000000 Head:0.000000,0.000000,0.000000,0.000000 HipLeft:0.103959,-0.676333,0.714901,-0.143813 HipRight:-0.148974,0.682398,0.692083,-0.182101 KneeLeft:0.017905,-0.683054,0.065802,0.727177 KneeRight:0.003193,0.730051,0.030128,0.682721 Neck:-0.014976,0.008596,0.997356,-0.070590 ShoulderLeft:-0.000113,0.786776,-0.614798,0.054830 ShoulderRight:-0.019617,0.792696,0.604314,-0.077794 SpineBase:-0.032842,0.009350,0.998930,-0.031196 SpineMid:-0.023839,0.009068,0.999185,-0.031279 SpineShoulder:-0.014808,0.008804,0.998600,-0.050003 ThumbLeft:0.000000,0.000000,0.000000,0.000000 ThumbRight:0.000000,0.000000,0.000000,0.000000 WristLeft:-0.362884,0.813407,-0.452981,-0.038629 WristRight:0.063451,-0.603400,-0.076807,0.791191 END:
KINECT_DATA POSITION:17.335394,-1.941577,-8.425844 HEAD_JOINT1:0.991808,0.127106,-0.000000,0.012679 LARM_JOINT2:0.946606,0.000000,-0.161496,-0.279027 LARM_JOINT3:0.965530,0.000000,-0.227704,0.126106 LLEG_JOINT2:0.998275,0.031298,0.000000,0.049681 LLEG_JOINT4:0.995651,0.091448,0.000000,-0.017769 RARM_JOINT2:0.809510,0.000000,-0.075057,0.582289 RARM_JOINT3:0.965791,0.000000,0.184245,0.182486 RLEG_JOINT2:0.999251,0.026141,0.000000,-0.028522 RLEG_JOINT4:0.994502,0.095692,0.000000,0.042533 WAIST:0.999383,-0.000000,0.033196,0.011499 WAIST_JOINT0:0.999833,-0.000000,0.015788,0.009243 WAIST_JOINT1:0.998481,0.055100,0.000000,-0.000513 END:
KINECT_DATA_Sensor  AnkleLeft:0.071171,0.744382,-0.108074,-0.655096 AnkleRight:0.100759,0.715719,0.072164,0.687304 ElbowLeft:0.433693,-0.544658,0.203529,0.688356 ElbowRight:0.024405,0.880688,0.184928,0.435425 FootLeft:0.000000,0.000000,0.000000,0.000000 FootRight:0.000000,0.000000,0.000000,0.000000 HandLeft:-0.429916,0.769411,-0.470946,0.037276 HandRight:0.102321,-0.596316,0.041489,0.795120 HandTipLeft:0.000000,0.000000,0.000000,0.000000 HandTipRight:0.000000,0.000000,0.000000,0.000000 Head:0.000000,0.000000,0.000000,0.000000 HipLeft:0.103175,-0.676183,0.715248,-0.143359 HipRight:-0.148787,0.682411,0.691917,-0.182834 KneeLeft:0.019104,-0.682497,0.065804,0.727669 KneeRight:0.005183,0.730563,0.030443,0.682147 Neck:-0.014709,0.007754,0.997359,-0.070703 ShoulderLeft:-0.000337,0.786854,-0.614652,0.055352 ShoulderRight:-0.019461,0.792590,0.604449,-0.077870 SpineBase:-0.033593,0.008903,0.998894,-0.031659 SpineMid:-0.024087,0.008601,0.999169,-0.031742 SpineShoulder:-0.014539,0.008184,0.998598,-0.050231 ThumbLeft:0.000000,0.000000,0.000000,0.000000 ThumbRight:0.000000,0.000000,0.000000,0.000000 WristLeft:-0.365407,0.808521,-0.461224,0.006674 WristRight:0.063395,-0.600709,-0.076531,0.793267 END:
KINECT_DATA POSITION:17.440283,-1.954430,-8.510101 HEAD_JOINT1:0.991364,0.130483,-0.000000,0.013117 LARM_JOINT2:0.945645,0.000000,-0.176436,-0.273177 LARM_JOINT3:0.969258,0.000000,-0.214819,0.119968 LLEG_JOINT2:0.998304,0.031052,0.000000,0.049242 LLEG_JOINT4:0.995251,0.094899,0.000000,-0.021657 RARM_JOINT2:0.808721,0.000000,-0.074676,0.583433 RARM_JOINT3:0.966886,0.000000,0.182684,0.178209 RLEG_JOINT2:0.999232,0.025787,0.000000,-0.029517 RLEG_JOINT4:0.994599,0.094501,0.000000,0.042925 WAIST:0.999411,-0.000000,0.032252,0.011707 WAIST_JOINT0:0.999867,-0.000000,0.013803,0.008638 WAIST_JOINT1:0.998462,0.055429,0.000000,-0.001467 END:
KINECT_DATA_Sensor  AnkleLeft:0.074533,0.734932,-0.107885,-0.665342 AnkleRight:0.099459,0.714781,0.071260,0.688562 ElbowLeft:0.440026,-0.557589,0.198496,0.675330 ElbowRight:0.025033,0.880783,0.184341,0.435446 FootLeft:0.000000,0.000000,0.000000,0.000000 FootRight:0.000000,0.000000,0.000000,0.000000 HandLeft:-0.397212,0.775350,-0.488180,0.052294 HandRight:0.087221,-0.605768,0.036079,0.790023 HandTipLeft:0.000000,0.000000,0.000000,0.000000 HandTipRight:0.000000,0.000000,0.000000,0.000000 Head:0.000000,0.000000,0.000000,0.000000 HipLeft:0.103912,-0.675945,0.715242,-0.143973 HipRight:-0.148050,0.682626,0.691915,-0.182636 KneeLeft:0.019187,-0.683176,0.065452,0.727062 KneeRight:0.004399,0.729933,0.030723,0.682814 Neck:-0.012681,0.006915,0.997368,-0.071056 ShoulderLeft:-0.001186,0.786400,-0.615075,0.057068 ShoulderRight:-0.017689,0.791514,0.606093,-0.076443 SpineBase:-0.032680,0.008437,0.998924,-0.031807 SpineMid:-0.022620,0.008117,0.999202,-0.031890 SpineShoulder:-0.012515,0.007434,0.998618,-0.050506 ThumbLeft:0.000000,0.000000,0.000000,0.000000 ThumbRight:0.000000,0.000000,0.000000,0.000000 WristLeft:-0.357432,0.807801,-0.466827,0.042100 WristRight:0.063315,-0.610016,-0.074763,0.786309 END:
KINECT_DATA POSITION:17.556902,-1.954686,-8.550346 HEAD_JOINT1:0.990559,0.136553,-0.000000,0.012116 LARM_JOINT2:0.944943,0.000000,-0.190492,-0.266076 LARM_JOINT3:0.968605,0.000000,-0.217378,0.120628 LLEG_JOINT2:0.998320,0.030293,0.000000,0.049382 LLEG_JOINT4:0.995256,0.094791,0.000000,-0.021929 RARM_JOINT2:0.808452,0.000000,-0.077194,0.583477 RARM_JOINT3:0.965223,0.000000,0.186955,0.182735 RLEG_JOINT2:0.999202,0.025842,0.000000,-0.030448 RLEG_JOINT4:0.994639,0.093440,0.000000,0.044288 WAIST:0.999471,-0.000000,0.030399,0.011551 WAIST_JOINT0:0.999898,-0.000000,0.011795,0.008053 WAIST_JOINT1:0.998399,0.056502,0.000000,-0.002761 END:
KINECT_DATA_Sensor  AnkleLeft:0.075247,0.744873,-0.106311,-0.654370 AnkleRight:0.099151,0.713675,0.070138,0.689868 ElbowLeft:0.447524,-0.566306,0.191438,0.665110 ElbowRight:0.027460,0.879309,0.186748,0.437249 FootLeft:0.000000,0.000000,0.000000,0.000000 FootRight:0.000000,0.000000,0.000000,0.000000 HandLeft:-0.434279,0.764776,-0.473186,0.051136 HandRight:0.102195,-0.663325,0.038847,0.740302 HandTipLeft:0.000000,0.000000,0.000000,0.000000 HandTipRight:0.000000,0.000000,0.000000,0.000000 Head:0.000000,0.000000,0.000000,0.000000 HipLeft:0.104796,-0.675845,0.714975,-0.145130 HipRight:-0.146234,0.682667,0.692385,-0.182166 KneeLeft:0.019836,-0.684518,0.064904,0.725830 KneeRight:0.003722,0.728675,0.031517,0.684124 Neck:-0.010873,0.005442,0.997314,-0.072229 ShoulderLeft:-0.001527,0.785357,-0.616198,0.059254 ShoulderRight:-0.015671,0.790423,0.607662,-0.075718 SpineBase:-0.030859,0.007455,0.998970,-0.032418 SpineMid:-0.020809,0.007129,0.999230,-0.032491 SpineShoulder:-0.010724,0.006061,0.998599,-0.051463 ThumbLeft:0.000000,0.000000,0.000000,0.000000 ThumbRight:0.000000,0.000000,0.000000,0.000000 WristLeft:-0.378504,0.805867,-0.454154,0.032517 WristRight:0.067773,-0.667793,-0.069247,0.738014 END:
KINECT_DATA POSITION:17.638277,-1.957130,-8.568180 HEAD_JOINT1:0.990118,0.139612,-0.000000,0.013235 LARM_JOINT2:0.942715,0.000000,-0.204224,-0.263783 LARM_JOINT3:0.969314,0.000000,-0.214497,0.120088 LLEG_JOINT2:0.998338,0.030121,0.000000,0.049126 LLEG_JOINT4:0.995114,0.095867,0.000000,-0.023610 RARM_JOINT2:0.807283,0.000000,-0.076430,0.585195 RARM_JOINT3:0.964827,0.000000,0.188248,0.183496 RLEG_JOINT2:0.999202,0.025266,0.000000,-0.030929 RLEG_JOINT4:0.994169,0.097249,0.000000,0.046581 WAIST:0.999506,-0.000000,0.029237,0.011519 WAIST_JOINT0:0.999900,-0.000000,0.011752,0.007871 WAIST_JOINT1:0.998345,0.057404,0.000000,-0.003344 END:
KINECT_DATA_Sensor  AnkleLeft:0.075691,0.737107,-0.106368,-0.663046 AnkleRight:0.102809,0.713064,0.071095,0.689867 ElbowLeft:0.452799,-0.570774,0.179930,0.660920 ElbowRight:0.028085,0.877905,0.185693,0.440469 FootLeft:0.000000,0.000000,0.000000,0.000000 FootRight:0.000000,0.000000,0.000000,0.000000 HandLeft:-0.447625,0.763026,-0.462234,0.061349 HandRight:0.110931,-0.638944,0.039527,0.760186 HandTipLeft:0.000000,0.000000,0.000000,0.000000 HandTipRight:0.000000,0.000000,0.000000,0.000000 Head:0.000000,0.000000,0.000000,0.000000 HipLeft:0.105278,-0.675643,0.714884,-0.146162 HipRight:-0.145033,0.682649,0.692672,-0.182103 KneeLeft:0.019831,-0.685362,0.064562,0.725064 KneeRight:0.003002,0.727884,0.031457,0.684972 Neck:-0.011039,0.004957,0.997245,-0.073187 ShoulderLeft:0.001241,0.784400,-0.617503,0.058363 ShoulderRight:-0.013094,0.789680,0.608771,-0.075049 SpineBase:-0.029722,0.006937,0.998987,-0.033081 SpineMid:-0.020324,0.006626,0.999222,-0.033144 SpineShoulder:-0.010903,0.005533,0.998556,-0.052304 ThumbLeft:0.000000,0.000000,0.000000,0.000000 ThumbRight:0.000000,0.000000,0.000000,0.000000 WristLeft:-0.385569,0.805095,-0.449238,0.036659 WristRight:0.066145,-0.643255,-0.071764,0.759406 END:
KINECT_DATA POSITION:17.695677,-1.969539,-8.527792 HEAD_JOINT1:0.989830,0.141355,-0.000000,0.015958 LARM_JOINT2:0.939639,0.000000,-0.221164,-0.261085 LARM_JOINT3:0.973428,0.000000,-0.198803,0.113642 LLEG_JOINT2:0.998295,0.030955,0.000000,0.049485 LLEG_JOINT4:0.995368,0.092978,0.000000,-0.024456 RARM_JOINT2:0.806174,0.000000,-0.075426,0.586851 RARM_JOINT3:0.965807,0.000000,0.187891,0.178642 RLEG_JOINT2:0.999260,0.023927,0.000000,-0.030113 RLEG_JOINT4:0.994542,0.094545,0.000000,0.044130 WAIST:0.999560,-0.000000,0.027516,0.011122 WAIST_JOINT0:0.999931,-0.000000,0.009446,0.006985 WAIST_JOINT1:0.998287,0.058382,0.000000,-0.003871 END:
KINECT_DATA_Sensor  AnkleLeft:0.074371,0.737975,-0.104636,-0.662505 AnkleRight:0.097356,0.698816,0.071282,0.705051 ElbowLeft:0.459376,-0.574371,0.163672,0.657483 ElbowRight:0.028169,0.875327,0.184982,0.445860 FootLeft:0.000000,0.000000,0.000000,0.000000 FootRight:0.000000,0.000000,0.000000,0.000000 HandLeft:-0.424017,0.779855,-0.455803,0.065419 HandRight:0.092743,-0.632645,0.034233,0.768106 HandTipLeft:0.000000,0.000000,0.000000,0.000000 HandTipRight:0.000000,0.000000,0.000000,0.000000 Head:0.000000,0.000000,0.000000,0.000000 HipLeft:0.106051,-0.675617,0.714479,-0.147694 HipRight:-0.143422,0.682446,0.693254,-0.181922 KneeLeft:0.019284,-0.686632,0.065095,0.723828 KneeRight:0.002459,0.726690,0.030216,0.686296 Neck:-0.008832,0.004040,0.997199,-0.074160 ShoulderLeft:0.001493,0.784091,-0.617730,0.060072 ShoulderRight:-0.009971,0.788802,0.610173,-0.073351 SpineBase:-0.028013,0.006199,0.999012,-0.033943 SpineMid:-0.018375,0.005871,0.999236,-0.034001 SpineShoulder:-0.008708,0.004640,0.998532,-0.053258 ThumbLeft:0.000000,0.000000,0.000000,0.000000 ThumbRight:0.000000,0.000000,0.000000,0.000000 WristLeft:-0.386483,0.804306,-0.448571,0.050065 WristRight:0.066046,-0.636918,-0.074076,0.764517 END:
KINECT_DATA POSITION:17.713362,-1.993680,-8.455133 HEAD_JOINT1:0.989785,0.141526,-0.000000,0.017207 LARM_JOINT2:0.940012,0.000000,-0.218910,-0.261640 LARM_JOINT3:0.973453,0.000000,-0.199160,0.112801 LLEG_JOINT2:0.998249,0.031278,0.000000,0.050212 LLEG_JOINT4:0.995286,0.093557,0.000000,-0.025531 RARM_JOINT2:0.806366,0.000000,-0.076986,0.586385 RARM_JOINT3:0.965724,0.000000,0.187466,0.179538 RLEG_JOINT2:0.999242,0.024390,0.000000,-0.030324 RLEG_JOINT4:0.994510,0.094478,0.000000,0.044981 WAIST:0.999610,-0.000000,0.025907,0.010443 WAIST_JOINT0:0.999971,-0.000000,0.004397,0.006263 WAIST_JOINT1:0.998256,0.058904,0.000000,-0.003823 END:
KINECT_DATA_Sensor  AnkleLeft:0.070306,0.705324,-0.108141,-0.697051 AnkleRight:0.099827,0.718397,0.068503,0.685016 ElbowLeft:0.456069,-0.582287,0.169599,0.651290 ElbowRight:0.029121,0.873231,0.186761,0.449155 FootLeft:0.000000,0.000000,0.000000,0.000000 FootRight:0.000000,0.000000,0.000000,0.000000 HandLeft:-0.421708,0.776400,-0.464294,0.061612 HandRight:-0.082444,0.719103,-0.050562,-0.688141 HandTipLeft:0.000000,0.000000,0.000000,0.000000 HandTipRight:0.000000,0.000000,0.000000,0.000000 Head:0.000000,0.000000,0.000000,0.000000 HipLeft:0.106819,-0.675840,0.713899,-0.148927 HipRight:-0.142098,0.682136,0.693961,-0.181429 KneeLeft:0.019160,-0.687828,0.065348,0.722672 KneeRight:0.002207,0.725569,0.031185,0.687439 Neck:-0.003693,0.003206,0.997196,-0.074673 ShoulderLeft:-0.003739,0.784271,-0.616875,0.066117 ShoulderRight:-0.008583,0.788455,0.610875,-0.071390 SpineBase:-0.026387,0.005620,0.999042,-0.034460 SpineMid:-0.015013,0.005227,0.999277,-0.034522 SpineShoulder:-0.003568,0.003896,0.998538,-0.053799 ThumbLeft:0.000000,0.000000,0.000000,0.000000 ThumbRight:0.000000,0.000000,0.000000,0.000000 WristLeft:-0.384322,0.807122,-0.444938,0.053671 WristRight:-0.074677,0.734780,0.065595,-0.670984 END:
