EastLYD/RoboCupatHomeSim/InteractiveCleanUp/JapanOpen2016/Motion_Data/File70.dat
KINECT_DATA POSITION:7.507270,1.130466,-16.181267 HEAD_JOINT1:0.979392,0.176405,-0.000000,0.098354 LARM_JOINT2:0.828029,0.000000,0.004571,-0.560666 LARM_JOINT3:0.968417,0.000000,-0.199819,-0.149131 LLEG_JOINT2:0.997512,0.021553,0.000000,0.067125 LLEG_JOINT4:0.995060,0.093128,0.000000,-0.034378 RARM_JOINT2:0.803114,0.000000,-0.062323,0.592557 RARM_JOINT3:0.966052,0.000000,0.213425,0.145577 RLEG_JOINT2:0.998839,0.005930,0.000000,-0.047803 RLEG_JOINT4:0.994248,0.101135,0.000000,0.035249 WAIST:0.999979,0.000000,-0.002624,-0.005854 WAIST_JOINT0:0.999895,0.000000,-0.014204,0.002748 WAIST_JOINT1:0.997682,0.067043,0.000000,-0.011644 END:
KINECT_DATA_Sensor  AnkleLeft:0.065037,0.722715,-0.097787,-0.681096 AnkleRight:0.068123,0.738104,0.084314,0.665923 ElbowLeft:-0.023791,0.864324,-0.183471,-0.467672 ElbowRight:0.015348,0.840199,0.200497,0.503619 FootLeft:0.000000,0.000000,0.000000,0.000000 FootRight:0.000000,0.000000,0.000000,0.000000 HandLeft:-0.048278,0.750050,0.109279,-0.650502 HandRight:-0.098693,0.740711,0.076243,-0.660147 HandTipLeft:0.000000,0.000000,0.000000,0.000000 HandTipRight:0.000000,0.000000,0.000000,0.000000 Head:0.000000,0.000000,0.000000,0.000000 HipLeft:0.123078,-0.682728,0.700527,-0.167318 HipRight:-0.118033,0.672144,0.709305,-0.176567 KneeLeft:-0.028200,0.708258,-0.058518,-0.702959 KneeRight:-0.033598,0.704951,0.042242,0.707199 Neck:0.013088,-0.018860,0.996283,-0.083030 ShoulderLeft:0.032220,0.775306,-0.628448,0.054000 ShoulderRight:0.050148,0.775235,0.628845,-0.032406 SpineBase:0.002419,-0.016288,0.998940,-0.042985 SpineMid:0.007479,-0.016506,0.998915,-0.042902 SpineShoulder:0.012837,-0.017685,0.997856,-0.061687 ThumbLeft:0.000000,0.000000,0.000000,0.000000 ThumbRight:0.000000,0.000000,0.000000,0.000000 WristLeft:-0.124206,0.744679,0.063425,-0.652689 WristRight:-0.049157,0.747070,0.099327,-0.655441 END:
KINECT_DATA POSITION:7.496792,1.129235,-16.217209 HEAD_JOINT1:0.979292,0.176877,-0.000000,0.098500 LARM_JOINT2:0.827983,0.000000,0.004488,-0.560735 LARM_JOINT3:0.968163,0.000000,-0.200725,-0.149564 LLEG_JOINT2:0.997523,0.020607,0.000000,0.067253 LLEG_JOINT4:0.994986,0.093240,0.000000,-0.036194 RARM_JOINT2:0.803232,0.000000,-0.062412,0.592388 RARM_JOINT3:0.966302,0.000000,0.211879,0.146176 RLEG_JOINT2:0.998864,0.005698,0.000000,-0.047308 RLEG_JOINT4:0.994344,0.099992,0.000000,0.035792 WAIST:0.999978,0.000000,-0.002824,-0.006036 WAIST_JOINT0:0.999891,0.000000,-0.014532,0.002710 WAIST_JOINT1:0.997691,0.066941,0.000000,-0.011445 END:
KINECT_DATA_Sensor  AnkleLeft:0.064534,0.714692,-0.096653,-0.689717 AnkleRight:0.068038,0.741099,0.082456,0.662831 ElbowLeft:-0.024158,0.863893,-0.183299,-0.468516 ElbowRight:0.015254,0.840009,0.200637,0.503882 FootLeft:0.000000,0.000000,0.000000,0.000000 FootRight:0.000000,0.000000,0.000000,0.000000 HandLeft:0.012118,-0.524866,-0.122906,0.842178 HandRight:-0.101558,0.736376,0.072074,-0.665013 HandTipLeft:0.000000,0.000000,0.000000,0.000000 HandTipRight:0.000000,0.000000,0.000000,0.000000 Head:0.000000,0.000000,0.000000,0.000000 HipLeft:0.123251,-0.682821,0.700395,-0.167367 HipRight:-0.118038,0.672074,0.709441,-0.176286 KneeLeft:-0.028847,0.708367,-0.057802,-0.702882 KneeRight:-0.033536,0.704801,0.041861,0.707375 Neck:0.013402,-0.018856,0.996286,-0.082939 ShoulderLeft:0.032239,0.775178,-0.628610,0.053936 ShoulderRight:0.050572,0.775091,0.629016,-0.031860 SpineBase:0.002639,-0.016210,0.998947,-0.042830 SpineMid:0.007749,-0.016429,0.998921,-0.042747 SpineShoulder:0.013154,-0.017653,0.997859,-0.061581 ThumbLeft:0.000000,0.000000,0.000000,0.000000 ThumbRight:0.000000,0.000000,0.000000,0.000000 WristLeft:0.099263,-0.508260,-0.098713,0.849750 WristRight:-0.046441,0.743683,0.099425,-0.659464 END:
KINECT_DATA POSITION:7.489032,1.127262,-16.252649 HEAD_JOINT1:0.979349,0.176482,-0.000000,0.098633 LARM_JOINT2:0.827998,0.000000,0.004732,-0.560712 LARM_JOINT3:0.965674,0.000000,-0.215235,-0.145421 LLEG_JOINT2:0.997519,0.019830,0.000000,0.067540 LLEG_JOINT4:0.994861,0.094503,0.000000,-0.036347 RARM_JOINT2:0.803212,0.000000,-0.063868,0.592260 RARM_JOINT3:0.965485,0.000000,0.214285,0.148057 RLEG_JOINT2:0.998870,0.005165,0.000000,-0.047251 RLEG_JOINT4:0.994445,0.099291,0.000000,0.034939 WAIST:0.999978,0.000000,-0.002552,-0.006131 WAIST_JOINT0:0.999889,0.000000,-0.014657,0.002624 WAIST_JOINT1:0.997712,0.066619,0.000000,-0.011506 END:
KINECT_DATA_Sensor  AnkleLeft:0.064895,0.714456,-0.096990,-0.689880 AnkleRight:0.062315,0.707448,0.085553,0.698795 ElbowLeft:-0.024479,0.862904,-0.183098,-0.470396 ElbowRight:0.015497,0.839059,0.201230,0.505219 FootLeft:0.000000,0.000000,0.000000,0.000000 FootRight:0.000000,0.000000,0.000000,0.000000 HandLeft:-0.099059,0.753114,0.146281,-0.633726 HandRight:-0.111308,0.707372,0.076311,-0.693838 HandTipLeft:0.000000,0.000000,0.000000,0.000000 HandTipRight:0.000000,0.000000,0.000000,0.000000 Head:0.000000,0.000000,0.000000,0.000000 HipLeft:0.123255,-0.682998,0.700303,-0.167026 HipRight:-0.118350,0.672049,0.709415,-0.176276 KneeLeft:-0.029518,0.708136,-0.057394,-0.703120 KneeRight:-0.033953,0.704981,0.041504,0.707196 Neck:0.013542,-0.019097,0.996310,-0.082578 ShoulderLeft:0.031791,0.775269,-0.628522,0.053923 ShoulderRight:0.050303,0.774999,0.629162,-0.031636 SpineBase:0.002372,-0.016290,0.998959,-0.042555 SpineMid:0.007687,-0.016516,0.998932,-0.042468 SpineShoulder:0.013296,-0.017840,0.997874,-0.061257 ThumbLeft:0.000000,0.000000,0.000000,0.000000 ThumbRight:0.000000,0.000000,0.000000,0.000000 WristLeft:-0.126412,0.755114,0.060216,-0.640467 WristRight:-0.041778,0.716974,0.101621,-0.688387 END:
KINECT_DATA POSITION:7.475896,1.137184,-16.250479 HEAD_JOINT1:0.979628,0.176534,-0.000000,0.095728 LARM_JOINT2:0.829329,0.000000,0.005312,-0.558736 LARM_JOINT3:0.955601,0.000000,-0.275711,-0.103973 LLEG_JOINT2:0.997472,0.018737,0.000000,0.068551 LLEG_JOINT4:0.994499,0.097344,0.000000,-0.038674 RARM_JOINT2:0.803461,0.000000,-0.065221,0.591774 RARM_JOINT3:0.964919,0.000000,0.217152,0.147566 RLEG_JOINT2:0.998925,0.004702,0.000000,-0.046116 RLEG_JOINT4:0.994325,0.100835,0.000000,0.033902 WAIST:0.999975,0.000000,-0.002297,-0.006646 WAIST_JOINT0:0.999895,0.000000,-0.014375,0.001840 WAIST_JOINT1:0.997744,0.066090,0.000000,-0.011806 END:
KINECT_DATA_Sensor  AnkleLeft:0.066620,0.708047,-0.097426,-0.696232 AnkleRight:0.062789,0.707554,0.086617,0.698515 ElbowLeft:-0.037525,0.829204,-0.182315,-0.527043 ElbowRight:0.015323,0.838888,0.202591,0.504964 FootLeft:0.000000,0.000000,0.000000,0.000000 FootRight:0.000000,0.000000,0.000000,0.000000 HandLeft:0.044914,-0.056001,-0.325730,0.942734 HandRight:-0.116978,0.703347,0.089133,-0.695467 HandTipLeft:0.000000,0.000000,0.000000,0.000000 HandTipRight:0.000000,0.000000,0.000000,0.000000 Head:0.000000,0.000000,0.000000,0.000000 HipLeft:0.123219,-0.683417,0.700010,-0.166564 HipRight:-0.118465,0.671702,0.709764,-0.176115 KneeLeft:-0.030631,0.707906,-0.056977,-0.703338 KneeRight:-0.033855,0.705162,0.040727,0.707066 Neck:0.013323,-0.020172,0.996347,-0.081901 ShoulderLeft:0.031379,0.776253,-0.627358,0.053560 ShoulderRight:0.049602,0.774916,0.629321,-0.031616 SpineBase:0.002147,-0.016687,0.998964,-0.042279 SpineMid:0.007479,-0.016912,0.998938,-0.042189 SpineShoulder:0.013089,-0.018587,0.997893,-0.060760 ThumbLeft:0.000000,0.000000,0.000000,0.000000 ThumbRight:0.000000,0.000000,0.000000,0.000000 WristLeft:0.063457,-0.040903,-0.161885,0.983917 WristRight:-0.039969,0.713552,0.102279,-0.691943 END:
KINECT_DATA POSITION:7.422389,1.141132,-16.170227 HEAD_JOINT1:0.980652,0.173399,-0.000000,0.090855 LARM_JOINT2:0.834041,0.000000,-0.003208,-0.551693 LARM_JOINT3:0.945307,0.000000,-0.318083,-0.072228 LLEG_JOINT2:0.997376,0.018886,0.000000,0.069893 LLEG_JOINT4:0.994852,0.094721,0.000000,-0.036030 RARM_JOINT2:0.803204,0.000000,-0.064520,0.592200 RARM_JOINT3:0.963626,0.000000,0.222867,0.147499 RLEG_JOINT2:0.998980,0.004477,0.000000,-0.044941 RLEG_JOINT4:0.994085,0.103163,0.000000,0.033945 WAIST:0.999972,0.000000,-0.002066,-0.007232 WAIST_JOINT0:0.999877,0.000000,-0.015661,0.000242 WAIST_JOINT1:0.997755,0.065873,0.000000,-0.012036 END:
KINECT_DATA_Sensor  AnkleLeft:0.064343,0.721236,-0.096921,-0.682850 AnkleRight:0.068448,0.736990,0.084758,0.667066 ElbowLeft:-0.056680,0.802490,-0.181954,-0.565412 ElbowRight:0.014071,0.838133,0.202524,0.506279 FootLeft:0.000000,0.000000,0.000000,0.000000 FootRight:0.000000,0.000000,0.000000,0.000000 HandLeft:0.114005,-0.074610,-0.389139,0.911047 HandRight:-0.137632,0.731447,0.096698,-0.660827 HandTipLeft:0.000000,0.000000,0.000000,0.000000 HandTipRight:0.000000,0.000000,0.000000,0.000000 Head:0.000000,0.000000,0.000000,0.000000 HipLeft:0.123822,-0.683986,0.699543,-0.165742 HipRight:-0.118929,0.671334,0.710079,-0.175938 KneeLeft:-0.031046,0.707742,-0.057626,-0.703432 KneeRight:-0.033608,0.705349,0.040143,0.706924 Neck:0.014735,-0.021318,0.996318,-0.081722 ShoulderLeft:0.029794,0.777192,-0.626166,0.054791 ShoulderRight:0.049811,0.774173,0.630263,-0.030714 SpineBase:0.001925,-0.017683,0.998982,-0.041467 SpineMid:0.008052,-0.017937,0.998951,-0.041358 SpineShoulder:0.014507,-0.019451,0.997875,-0.060472 ThumbLeft:0.000000,0.000000,0.000000,0.000000 ThumbRight:0.000000,0.000000,0.000000,0.000000 WristLeft:0.087508,-0.074089,-0.201690,0.972715 WristRight:-0.045622,0.744206,0.102046,-0.658531 END:
KINECT_DATA POSITION:7.375129,1.119106,-15.902662 HEAD_JOINT1:0.981144,0.170871,-0.000000,0.090335 LARM_JOINT2:0.841026,0.000000,-0.008200,-0.540933 LARM_JOINT3:0.936199,0.000000,-0.349602,-0.036178 LLEG_JOINT2:0.997271,0.020715,0.000000,0.070855 LLEG_JOINT4:0.994827,0.094383,0.000000,-0.037562 RARM_JOINT2:0.802735,0.000000,-0.064423,0.592845 RARM_JOINT3:0.963389,0.000000,0.223335,0.148335 RLEG_JOINT2:0.999031,0.007279,0.000000,-0.043405 RLEG_JOINT4:0.994292,0.101349,0.000000,0.033333 WAIST:0.999965,0.000000,-0.002617,-0.007902 WAIST_JOINT0:0.999835,0.000000,-0.018164,-0.000752 WAIST_JOINT1:0.997803,0.065060,0.000000,-0.012499 END:
KINECT_DATA_Sensor  AnkleLeft:0.065835,0.718845,-0.097323,-0.685169 AnkleRight:0.068806,0.732056,0.085651,0.672327 ElbowLeft:-0.076245,0.775369,-0.184754,-0.599045 ElbowRight:0.012674,0.836373,0.202373,0.509278 FootLeft:0.000000,0.000000,0.000000,0.000000 FootRight:0.000000,0.000000,0.000000,0.000000 HandLeft:0.137344,-0.011554,-0.426287,0.894026 HandRight:0.135831,-0.692669,-0.099963,0.701261 HandTipLeft:0.000000,0.000000,0.000000,0.000000 HandTipRight:0.000000,0.000000,0.000000,0.000000 Head:0.000000,0.000000,0.000000,0.000000 HipLeft:0.125166,-0.684580,0.698854,-0.165186 HipRight:-0.119135,0.671044,0.710475,-0.175303 KneeLeft:-0.029989,0.708243,-0.059114,-0.702850 KneeRight:-0.030988,0.705012,0.041519,0.707301 Neck:0.017340,-0.022468,0.996310,-0.080996 ShoulderLeft:0.026677,0.778449,-0.624570,0.056732 ShoulderRight:0.049998,0.774153,0.630369,-0.028667 SpineBase:0.002484,-0.018918,0.999002,-0.040388 SpineMid:0.009595,-0.019205,0.998959,-0.040252 SpineShoulder:0.017078,-0.020690,0.997864,-0.059569 ThumbLeft:0.000000,0.000000,0.000000,0.000000 ThumbRight:0.000000,0.000000,0.000000,0.000000 WristLeft:0.100217,-0.010908,-0.237347,0.966180 WristRight:-0.040112,0.706150,0.106726,-0.698822 END:
KINECT_DATA POSITION:7.366755,1.103371,-15.652573 HEAD_JOINT1:0.981224,0.170683,-0.000000,0.089810 LARM_JOINT2:0.848080,0.000000,-0.014854,-0.529661 LARM_JOINT3:0.914656,0.000000,-0.403850,-0.017614 LLEG_JOINT2:0.997218,0.021132,0.000000,0.071481 LLEG_JOINT4:0.994902,0.093656,0.000000,-0.037405 RARM_JOINT2:0.801817,0.000000,-0.063952,0.594138 RARM_JOINT3:0.962981,0.000000,0.223640,0.150506 RLEG_JOINT2:0.999003,0.007267,0.000000,-0.044055 RLEG_JOINT4:0.994132,0.102535,0.000000,0.034457 WAIST:0.999969,0.000000,-0.001343,-0.007748 WAIST_JOINT0:0.999820,0.000000,-0.018998,0.000148 WAIST_JOINT1:0.997781,0.065373,0.000000,-0.012641 END:
KINECT_DATA_Sensor  AnkleLeft:0.065887,0.723524,-0.097177,-0.680242 AnkleRight:0.070150,0.733938,0.085931,0.670097 ElbowLeft:-0.096099,0.748898,-0.187651,-0.628254 ElbowRight:0.012816,0.836475,0.201038,0.509637 FootLeft:0.000000,0.000000,0.000000,0.000000 FootRight:0.000000,0.000000,0.000000,0.000000 HandLeft:-0.039303,0.258639,-0.495370,0.828354 HandRight:0.145508,-0.686409,-0.091728,0.706581 HandTipLeft:0.000000,0.000000,0.000000,0.000000 HandTipRight:0.000000,0.000000,0.000000,0.000000 Head:0.000000,0.000000,0.000000,0.000000 HipLeft:0.124090,-0.684583,0.699181,-0.164604 HipRight:-0.119487,0.670872,0.710338,-0.176279 KneeLeft:-0.030161,0.707329,-0.060006,-0.703687 KneeRight:-0.031391,0.705917,0.041831,0.706361 Neck:0.018042,-0.022524,0.996275,-0.081261 ShoulderLeft:0.026927,0.778054,-0.625025,0.057012 ShoulderRight:0.051196,0.774696,0.629646,-0.027768 SpineBase:0.001193,-0.019060,0.998984,-0.040822 SpineMid:0.009285,-0.019390,0.998941,-0.040666 SpineShoulder:0.017761,-0.020942,0.997831,-0.059822 ThumbLeft:0.000000,0.000000,0.000000,0.000000 ThumbRight:0.000000,0.000000,0.000000,0.000000 WristLeft:0.017881,0.319638,-0.305331,0.896819 WristRight:0.039052,-0.691772,-0.107143,0.713054 END:
KINECT_DATA POSITION:7.383223,1.064127,-15.355515 HEAD_JOINT1:0.981319,0.170409,-0.000000,0.089299 LARM_JOINT2:0.850668,0.000000,-0.018283,-0.525385 LARM_JOINT3:0.900412,0.000000,-0.433889,-0.031605 LLEG_JOINT2:0.997121,0.023113,0.000000,0.072222 LLEG_JOINT4:0.994833,0.093698,0.000000,-0.039089 RARM_JOINT2:0.800562,0.000000,-0.064853,0.595730 RARM_JOINT3:0.961806,0.000000,0.229252,0.149578 RLEG_JOINT2:0.998977,0.009904,0.000000,-0.044125 RLEG_JOINT4:0.994100,0.102062,0.000000,0.036719 WAIST:0.999966,0.000000,-0.000778,-0.008219 WAIST_JOINT0:0.999783,0.000000,-0.020827,-0.000444 WAIST_JOINT1:0.997857,0.064210,0.000000,-0.012562 END:
KINECT_DATA_Sensor  AnkleLeft:0.067709,0.718275,-0.097942,-0.685495 AnkleRight:0.072949,0.734812,0.086039,0.668825 ElbowLeft:-0.103031,0.744923,-0.187758,-0.631840 ElbowRight:0.012790,0.835911,0.199393,0.511206 FootLeft:0.000000,0.000000,0.000000,0.000000 FootRight:0.000000,0.000000,0.000000,0.000000 HandLeft:-0.072401,0.217985,-0.505082,0.831945 HandRight:-0.163236,0.771573,0.086192,-0.608770 HandTipLeft:0.000000,0.000000,0.000000,0.000000 HandTipRight:0.000000,0.000000,0.000000,0.000000 Head:0.000000,0.000000,0.000000,0.000000 HipLeft:0.124785,-0.685138,0.698813,-0.163322 HipRight:-0.120639,0.670599,0.710505,-0.175857 KneeLeft:-0.028901,0.707073,-0.061625,-0.703858 KneeRight:-0.029924,0.706285,0.044060,0.705921 Neck:0.019997,-0.023059,0.996319,-0.080107 ShoulderLeft:0.023524,0.778925,-0.623929,0.058598 ShoulderRight:0.050250,0.774704,0.629772,-0.026393 SpineBase:0.000648,-0.019667,0.999028,-0.039441 SpineMid:0.009963,-0.020034,0.998979,-0.039256 SpineShoulder:0.019700,-0.021523,0.997857,-0.058565 ThumbLeft:0.000000,0.000000,0.000000,0.000000 ThumbRight:0.000000,0.000000,0.000000,0.000000 WristLeft:0.015646,0.292705,-0.330455,0.897150 WristRight:-0.058149,0.787897,0.100589,-0.604747 END:
KINECT_DATA POSITION:7.403259,1.052553,-15.101730 HEAD_JOINT1:0.981667,0.170266,-0.000000,0.085668 LARM_JOINT2:0.849762,0.000000,-0.006852,-0.527121 LARM_JOINT3:0.879877,0.000000,-0.472414,-0.051403 LLEG_JOINT2:0.997054,0.022206,0.000000,0.073420 LLEG_JOINT4:0.994260,0.099354,0.000000,-0.039703 RARM_JOINT2:0.800063,0.000000,-0.066850,0.596179 RARM_JOINT3:0.962764,0.000000,0.226159,0.148116 RLEG_JOINT2:0.999048,0.012723,0.000000,-0.041727 RLEG_JOINT4:0.993999,0.103662,0.000000,0.034921 WAIST:0.999955,0.000000,-0.001030,-0.009425 WAIST_JOINT0:0.999774,0.000000,-0.021096,-0.002619 WAIST_JOINT1:0.997896,0.063356,0.000000,-0.013777 END:
KINECT_DATA_Sensor  AnkleLeft:0.071457,0.717076,-0.100810,-0.685954 AnkleRight:0.075595,0.732332,0.089615,0.670779 ElbowLeft:-0.091725,0.751227,-0.191594,-0.624929 ElbowRight:0.012259,0.834302,0.201144,0.513159 FootLeft:0.000000,0.000000,0.000000,0.000000 FootRight:0.000000,0.000000,0.000000,0.000000 HandLeft:-0.077967,0.153724,-0.537293,0.825595 HandRight:-0.142112,0.735989,0.091739,-0.655521 HandTipLeft:0.000000,0.000000,0.000000,0.000000 HandTipRight:0.000000,0.000000,0.000000,0.000000 Head:0.000000,0.000000,0.000000,0.000000 HipLeft:0.125892,-0.686097,0.697856,-0.162539 HipRight:-0.120647,0.669847,0.711314,-0.175446 KneeLeft:-0.029561,0.707235,-0.060970,-0.703724 KneeRight:-0.027074,0.706132,0.045211,0.706116 Neck:0.020402,-0.025714,0.996329,-0.079062 ShoulderLeft:0.022719,0.780977,-0.621424,0.058231 ShoulderRight:0.049932,0.774055,0.630633,-0.025441 SpineBase:0.000923,-0.021550,0.999025,-0.038533 SpineMid:0.010285,-0.021910,0.998972,-0.038329 SpineShoulder:0.020086,-0.023828,0.997846,-0.057718 ThumbLeft:0.000000,0.000000,0.000000,0.000000 ThumbRight:0.000000,0.000000,0.000000,0.000000 WristLeft:0.011107,0.233030,-0.343452,0.909733 WristRight:-0.051081,0.749485,0.105880,-0.651500 END:
KINECT_DATA POSITION:7.450202,1.055052,-14.910316 HEAD_JOINT1:0.981951,0.171225,-0.000000,0.080335 LARM_JOINT2:0.847404,0.000000,0.012317,-0.530805 LARM_JOINT3:0.848203,0.000000,-0.526188,-0.060634 LLEG_JOINT2:0.996967,0.023168,0.000000,0.074298 LLEG_JOINT4:0.994363,0.098753,0.000000,-0.038613 RARM_JOINT2:0.800112,0.000000,-0.068414,0.595937 RARM_JOINT3:0.963327,0.000000,0.222977,0.149273 RLEG_JOINT2:0.999061,0.014053,0.000000,-0.040988 RLEG_JOINT4:0.994188,0.102024,0.000000,0.034374 WAIST:0.999940,0.000000,-0.001160,-0.010902 WAIST_JOINT0:0.999783,0.000000,-0.020137,-0.005332 WAIST_JOINT1:0.997900,0.063104,0.000000,-0.014611 END:
KINECT_DATA_Sensor  AnkleLeft:0.070700,0.712767,-0.101893,-0.690349 AnkleRight:0.070643,0.703356,0.093399,0.701125 ElbowLeft:-0.075485,0.750060,-0.197136,-0.626777 ElbowRight:0.011784,0.833332,0.203692,0.513740 FootLeft:0.000000,0.000000,0.000000,0.000000 FootRight:0.000000,0.000000,0.000000,0.000000 HandLeft:-0.101479,0.140547,-0.594132,0.785465 HandRight:-0.132071,0.737471,0.082186,-0.657220 HandTipLeft:0.000000,0.000000,0.000000,0.000000 HandTipRight:0.000000,0.000000,0.000000,0.000000 Head:0.000000,0.000000,0.000000,0.000000 HipLeft:0.126331,-0.687147,0.696824,-0.162192 HipRight:-0.120155,0.668808,0.712358,-0.175511 KneeLeft:-0.028464,0.707442,-0.061226,-0.703539 KneeRight:-0.026646,0.706000,0.046674,0.706170 Neck:0.019627,-0.027942,0.996310,-0.078739 ShoulderLeft:0.024060,0.782298,-0.619854,0.056665 ShoulderRight:0.050209,0.772129,0.632977,-0.025223 SpineBase:0.001093,-0.023459,0.998985,-0.038433 SpineMid:0.009956,-0.023800,0.998936,-0.038223 SpineShoulder:0.019263,-0.026059,0.997821,-0.057473 ThumbLeft:0.000000,0.000000,0.000000,0.000000 ThumbRight:0.000000,0.000000,0.000000,0.000000 WristLeft:-0.016456,0.227489,-0.368787,0.901096 WristRight:-0.048739,0.749939,0.107317,-0.650922 END:
KINECT_DATA POSITION:7.495404,1.061253,-14.849079 HEAD_JOINT1:0.981779,0.172437,-0.000000,0.079849 LARM_JOINT2:0.846401,0.000000,0.022689,-0.532062 LARM_JOINT3:0.833102,0.000000,-0.548588,-0.070660 LLEG_JOINT2:0.996906,0.022406,0.000000,0.075346 LLEG_JOINT4:0.993907,0.103549,0.000000,-0.037774 RARM_JOINT2:0.799857,0.000000,-0.068547,0.596263 RARM_JOINT3:0.963556,0.000000,0.220226,0.151857 RLEG_JOINT2:0.999072,0.014069,0.000000,-0.040701 RLEG_JOINT4:0.994355,0.100313,0.000000,0.034563 WAIST:0.999932,0.000000,-0.000880,-0.011600 WAIST_JOINT0:0.999805,0.000000,-0.018773,-0.006076 WAIST_JOINT1:0.997890,0.063223,0.000000,-0.014783 END:
KINECT_DATA_Sensor  AnkleLeft:0.074151,0.720641,-0.104566,-0.681355 AnkleRight:0.069326,0.704294,0.092339,0.700455 ElbowLeft:-0.065966,0.752524,-0.201383,-0.623539 ElbowRight:0.011533,0.832970,0.204185,0.514136 FootLeft:0.000000,0.000000,0.000000,0.000000 FootRight:0.000000,0.000000,0.000000,0.000000 HandLeft:-0.600704,0.779927,0.099903,-0.144527 HandRight:0.131855,-0.689390,-0.075970,0.708226 HandTipLeft:0.000000,0.000000,0.000000,0.000000 HandTipRight:0.000000,0.000000,0.000000,0.000000 Head:0.000000,0.000000,0.000000,0.000000 HipLeft:0.126167,-0.687618,0.696425,-0.162036 HipRight:-0.119860,0.668179,0.712882,-0.175982 KneeLeft:-0.029237,0.707197,-0.060944,-0.703778 KneeRight:-0.026933,0.706189,0.046969,0.705950 Neck:0.018326,-0.028581,0.996307,-0.078868 ShoulderLeft:0.025597,0.782467,-0.619704,0.055287 ShoulderRight:0.050044,0.771346,0.633916,-0.025925 SpineBase:0.000827,-0.024503,0.998949,-0.038737 SpineMid:0.009145,-0.024824,0.998907,-0.038532 SpineShoulder:0.017923,-0.026936,0.997815,-0.057601 ThumbLeft:0.000000,0.000000,0.000000,0.000000 ThumbRight:0.000000,0.000000,0.000000,0.000000 WristLeft:-0.390124,0.895614,0.036503,-0.210584 WristRight:-0.039311,0.704441,0.110425,-0.700017 END:
KINECT_DATA POSITION:7.503247,1.063456,-14.850437 HEAD_JOINT1:0.981769,0.173715,-0.000000,0.077153 LARM_JOINT2:0.843890,0.000000,0.030497,-0.535649 LARM_JOINT3:0.833759,0.000000,-0.549646,-0.052305 LLEG_JOINT2:0.996917,0.023098,0.000000,0.074982 LLEG_JOINT4:0.993938,0.103355,0.000000,-0.037486 RARM_JOINT2:0.800183,0.000000,-0.068832,0.595793 RARM_JOINT3:0.964381,0.000000,0.220034,0.146814 RLEG_JOINT2:0.999043,0.015947,0.000000,-0.040718 RLEG_JOINT4:0.994112,0.102274,0.000000,0.035801 WAIST:0.999932,0.000000,-0.000145,-0.011645 WAIST_JOINT0:0.999834,0.000000,-0.017271,-0.005736 WAIST_JOINT1:0.997868,0.063764,0.000000,-0.013928 END:
KINECT_DATA_Sensor  AnkleLeft:0.074920,0.721712,-0.104595,-0.680131 AnkleRight:0.072854,0.704586,0.094195,0.699556 ElbowLeft:-0.059392,0.747418,-0.202850,-0.629834 ElbowRight:0.012074,0.833063,0.204397,0.513889 FootLeft:0.000000,0.000000,0.000000,0.000000 FootRight:0.000000,0.000000,0.000000,0.000000 HandLeft:-0.606524,0.775408,0.057192,-0.166136 HandRight:-0.124684,0.766034,0.074987,-0.626117 HandTipLeft:0.000000,0.000000,0.000000,0.000000 HandTipRight:0.000000,0.000000,0.000000,0.000000 Head:0.000000,0.000000,0.000000,0.000000 HipLeft:0.125493,-0.687671,0.696543,-0.161824 HipRight:-0.120236,0.668000,0.712867,-0.176467 KneeLeft:-0.028404,0.706740,-0.061172,-0.704251 KneeRight:-0.025675,0.706684,0.048326,0.705410 Neck:0.016822,-0.027447,0.996303,-0.079647 ShoulderLeft:0.027699,0.781905,-0.620447,0.053885 ShoulderRight:0.050165,0.771377,0.633828,-0.026900 SpineBase:0.000106,-0.024253,0.998946,-0.038968 SpineMid:0.008009,-0.024560,0.998914,-0.038775 SpineShoulder:0.016391,-0.026236,0.997832,-0.058096 ThumbLeft:0.000000,0.000000,0.000000,0.000000 ThumbRight:0.000000,0.000000,0.000000,0.000000 WristLeft:-0.395658,0.894949,0.034119,-0.203362 WristRight:-0.050459,0.776804,0.104930,-0.618885 END:
KINECT_DATA POSITION:7.452344,1.091213,-14.878035 HEAD_JOINT1:0.981767,0.175770,-0.000000,0.072382 LARM_JOINT2:0.844651,0.000000,0.042651,-0.533615 LARM_JOINT3:0.843831,0.000000,-0.532712,0.064555 LLEG_JOINT2:0.996997,0.022203,0.000000,0.074196 LLEG_JOINT4:0.994118,0.102454,0.000000,-0.035119 RARM_JOINT2:0.803046,0.000000,-0.066671,0.592176 RARM_JOINT3:0.964495,0.000000,0.219999,0.146115 RLEG_JOINT2:0.998970,0.017309,0.000000,-0.041944 RLEG_JOINT4:0.994447,0.098819,0.000000,0.036203 WAIST:0.999940,0.000000,0.001911,-0.010834 WAIST_JOINT0:0.999900,0.000000,-0.013539,-0.004158 WAIST_JOINT1:0.997847,0.064295,0.000000,-0.012976 END:
KINECT_DATA_Sensor  AnkleLeft:0.072845,0.724571,-0.104565,-0.677316 AnkleRight:0.071244,0.706875,0.092851,0.697589 ElbowLeft:-0.067982,0.697511,-0.208258,-0.682265 ElbowRight:0.011279,0.839165,0.206295,0.503108 FootLeft:0.000000,0.000000,0.000000,0.000000 FootRight:0.000000,0.000000,0.000000,0.000000 HandLeft:0.644987,-0.692631,0.033985,0.321091 HandRight:-0.117771,0.751856,0.094018,-0.641875 HandTipLeft:0.000000,0.000000,0.000000,0.000000 HandTipRight:0.000000,0.000000,0.000000,0.000000 Head:0.000000,0.000000,0.000000,0.000000 HipLeft:0.123745,-0.687225,0.697488,-0.160997 HipRight:-0.121225,0.668181,0.712251,-0.177586 KneeLeft:-0.028919,0.705205,-0.060628,-0.705814 KneeRight:-0.025088,0.708131,0.049547,0.703894 Neck:0.013011,-0.025528,0.996362,-0.080260 ShoulderLeft:0.031222,0.780274,-0.622581,0.050900 ShoulderRight:0.048799,0.771757,0.633341,-0.029807 SpineBase:-0.001971,-0.023293,0.998950,-0.039396 SpineMid:0.005063,-0.023569,0.998939,-0.039231 SpineShoulder:0.012587,-0.024566,0.997897,-0.058656 ThumbLeft:0.000000,0.000000,0.000000,0.000000 ThumbRight:0.000000,0.000000,0.000000,0.000000 WristLeft:-0.409924,0.853189,0.022228,-0.321771 WristRight:-0.048144,0.761070,0.103890,-0.638484 END:
KINECT_DATA POSITION:7.353149,1.144862,-14.913427 HEAD_JOINT1:0.981965,0.177886,-0.000000,0.064034 LARM_JOINT2:0.851667,0.000000,0.052366,-0.521461 LARM_JOINT3:0.846680,0.000000,-0.511779,0.145655 LLEG_JOINT2:0.997110,0.021907,0.000000,0.072746 LLEG_JOINT4:0.994138,0.102078,0.000000,-0.035643 RARM_JOINT2:0.806792,0.000000,-0.063681,0.587393 RARM_JOINT3:0.963128,0.000000,0.222092,0.151855 RLEG_JOINT2:0.998897,0.016973,0.000000,-0.043777 RLEG_JOINT4:0.994234,0.099961,0.000000,0.038821 WAIST:0.999932,0.000000,0.006132,-0.009916 WAIST_JOINT0:0.999986,0.000000,-0.005246,-0.000744 WAIST_JOINT1:0.997817,0.065073,0.000000,-0.011228 END:
KINECT_DATA_Sensor  AnkleLeft:0.072130,0.712549,-0.104039,-0.690106 AnkleRight:0.072856,0.711182,0.092365,0.693095 ElbowLeft:0.096333,-0.611567,0.216915,0.754754 ElbowRight:0.009318,0.845966,0.208568,0.490668 FootLeft:0.000000,0.000000,0.000000,0.000000 FootRight:0.000000,0.000000,0.000000,0.000000 HandLeft:0.648414,-0.644016,0.053370,0.402436 HandRight:-0.130545,0.705238,0.103047,-0.689187 HandTipLeft:0.000000,0.000000,0.000000,0.000000 HandTipRight:0.000000,0.000000,0.000000,0.000000 Head:0.000000,0.000000,0.000000,0.000000 HipLeft:0.120266,-0.686919,0.698750,-0.159459 HipRight:-0.123583,0.668200,0.711255,-0.179869 KneeLeft:0.028472,-0.702208,0.060189,0.708852 KneeRight:-0.026156,0.711070,0.049875,0.700862 Neck:0.004569,-0.022758,0.996435,-0.081114 ShoulderLeft:0.037370,0.777156,-0.626575,0.045128 ShoulderRight:0.044150,0.772262,0.632685,-0.037043 SpineBase:-0.006176,-0.021294,0.998948,-0.040133 SpineMid:-0.001230,-0.021492,0.998967,-0.040027 SpineShoulder:0.004172,-0.021958,0.997977,-0.059516 ThumbLeft:0.000000,0.000000,0.000000,0.000000 ThumbRight:0.000000,0.000000,0.000000,0.000000 WristLeft:-0.463926,0.773963,-0.009673,-0.430882 WristRight:-0.041852,0.717330,0.105243,-0.687467 END:
KINECT_DATA POSITION:7.305115,1.163135,-14.928317 HEAD_JOINT1:0.982566,0.177697,-0.000000,0.054651 LARM_JOINT2:0.852914,0.000000,0.060566,-0.518527 LARM_JOINT3:0.832540,0.000000,-0.533443,0.149383 LLEG_JOINT2:0.997155,0.021067,0.000000,0.072376 LLEG_JOINT4:0.994731,0.096478,0.000000,-0.034683 RARM_JOINT2:0.810442,0.000000,-0.058934,0.582847 RARM_JOINT3:0.962897,0.000000,0.219616,0.156837 RLEG_JOINT2:0.998878,0.018335,0.000000,-0.043653 RLEG_JOINT4:0.994519,0.096765,0.000000,0.039615 WAIST:0.999903,0.000000,0.010308,-0.009402 WAIST_JOINT0:0.999999,-0.000000,0.001076,0.000963 WAIST_JOINT1:0.997802,0.065668,0.000000,-0.008903 END:
KINECT_DATA_Sensor  AnkleLeft:0.067418,0.712561,-0.100040,-0.691161 AnkleRight:0.077021,0.750979,0.086323,0.650112 ElbowLeft:0.097801,-0.596342,0.225295,0.764234 ElbowRight:0.006320,0.853197,0.209756,0.477511 FootLeft:0.000000,0.000000,0.000000,0.000000 FootRight:0.000000,0.000000,0.000000,0.000000 HandLeft:0.676943,-0.641741,0.057326,0.355853 HandRight:-0.136666,0.715551,0.090371,-0.679075 HandTipLeft:0.000000,0.000000,0.000000,0.000000 HandTipRight:0.000000,0.000000,0.000000,0.000000 Head:0.000000,0.000000,0.000000,0.000000 HipLeft:0.117025,-0.686786,0.699811,-0.157781 HipRight:-0.126024,0.667931,0.710607,-0.181727 KneeLeft:0.028897,-0.699209,0.059846,0.711822 KneeRight:-0.024932,0.713972,0.050315,0.697919 Neck:-0.001761,-0.019863,0.996451,-0.081773 ShoulderLeft:0.041972,0.775721,-0.628358,0.040755 ShoulderRight:0.040559,0.773157,0.631489,-0.042488 SpineBase:-0.010305,-0.019350,0.998936,-0.040564 SpineMid:-0.006445,-0.019506,0.998969,-0.040488 SpineShoulder:-0.002136,-0.019330,0.998000,-0.060145 ThumbLeft:0.000000,0.000000,0.000000,0.000000 ThumbRight:0.000000,0.000000,0.000000,0.000000 WristLeft:-0.478479,0.776981,-0.033089,-0.407755 WristRight:-0.046413,0.728456,0.103409,-0.675650 END:
KINECT_DATA POSITION:7.278141,1.176178,-14.927042 HEAD_JOINT1:0.982723,0.178442,-0.000000,0.049126 LARM_JOINT2:0.853629,0.000000,0.062253,-0.517149 LARM_JOINT3:0.837811,0.000000,-0.531168,0.126230 LLEG_JOINT2:0.997143,0.021560,0.000000,0.072393 LLEG_JOINT4:0.994722,0.096432,0.000000,-0.035071 RARM_JOINT2:0.811293,0.000000,-0.057651,0.581790 RARM_JOINT3:0.963205,0.000000,0.215353,0.160811 RLEG_JOINT2:0.998889,0.017331,0.000000,-0.043827 RLEG_JOINT4:0.994086,0.099903,0.000000,0.042570 WAIST:0.999865,0.000000,0.013544,-0.009286 WAIST_JOINT0:0.999982,-0.000000,0.005490,0.002358 WAIST_JOINT1:0.997817,0.065592,0.000000,-0.007696 END:
KINECT_DATA_Sensor  AnkleLeft:0.068091,0.709085,-0.100067,-0.694657 AnkleRight:0.078510,0.739296,0.087479,0.663043 ElbowLeft:0.096847,-0.598064,0.229007,0.761902 ElbowRight:0.005110,0.855889,0.209327,0.472875 FootLeft:0.000000,0.000000,0.000000,0.000000 FootRight:0.000000,0.000000,0.000000,0.000000 HandLeft:0.637733,-0.667338,0.023712,0.383919 HandRight:0.129796,-0.668180,-0.075996,0.728638 HandTipLeft:0.000000,0.000000,0.000000,0.000000 HandTipRight:0.000000,0.000000,0.000000,0.000000 Head:0.000000,0.000000,0.000000,0.000000 HipLeft:0.114908,-0.686965,0.700261,-0.156556 HipRight:-0.128294,0.667597,0.710096,-0.183354 KneeLeft:0.028416,-0.696959,0.060401,0.713997 KneeRight:-0.025820,0.716190,0.049575,0.695664 Neck:-0.006247,-0.018721,0.996467,-0.081637 ShoulderLeft:0.044957,0.774762,-0.629550,0.037283 ShoulderRight:0.037794,0.773974,0.630419,-0.045901 SpineBase:-0.013488,-0.018066,0.998918,-0.040685 SpineMid:-0.010248,-0.018198,0.998956,-0.040626 SpineShoulder:-0.006598,-0.018120,0.998005,-0.060110 ThumbLeft:0.000000,0.000000,0.000000,0.000000 ThumbRight:0.000000,0.000000,0.000000,0.000000 WristLeft:-0.477618,0.763527,-0.016147,-0.434335 WristRight:0.040477,-0.671971,-0.106504,0.731761 END:
KINECT_DATA POSITION:7.270442,1.187567,-14.933014 HEAD_JOINT1:0.982680,0.178910,-0.000000,0.048286 LARM_JOINT2:0.853825,0.000000,0.061309,-0.516938 LARM_JOINT3:0.834899,0.000000,-0.537957,0.116384 LLEG_JOINT2:0.997166,0.021452,0.000000,0.072109 LLEG_JOINT4:0.994659,0.097753,0.000000,-0.033148 RARM_JOINT2:0.810883,0.000000,-0.058741,0.582253 RARM_JOINT3:0.964055,0.000000,0.211331,0.161053 RLEG_JOINT2:0.998902,0.018934,0.000000,-0.042849 RLEG_JOINT4:0.994368,0.097517,0.000000,0.041505 WAIST:0.999845,0.000000,0.015105,-0.009038 WAIST_JOINT0:0.999976,-0.000000,0.006464,0.002410 WAIST_JOINT1:0.997810,0.065690,0.000000,-0.007755 END:
KINECT_DATA_Sensor  AnkleLeft:0.067256,0.703558,-0.102583,-0.699971 AnkleRight:0.074846,0.717130,0.089620,0.687089 ElbowLeft:0.095319,-0.603591,0.229794,0.757488 ElbowRight:0.005604,0.855607,0.209109,0.473475 FootLeft:0.000000,0.000000,0.000000,0.000000 FootRight:0.000000,0.000000,0.000000,0.000000 HandLeft:0.639360,-0.678749,0.014666,0.360975 HandRight:-0.122974,0.731483,0.050648,-0.668764 HandTipLeft:0.000000,0.000000,0.000000,0.000000 HandTipRight:0.000000,0.000000,0.000000,0.000000 Head:0.000000,0.000000,0.000000,0.000000 HipLeft:0.113817,-0.687023,0.700552,-0.155793 HipRight:-0.129206,0.667542,0.709709,-0.184409 KneeLeft:0.028367,-0.695828,0.060351,0.715106 KneeRight:-0.023893,0.717314,0.049837,0.694554 Neck:-0.007222,-0.018676,0.996457,-0.081686 ShoulderLeft:0.045814,0.774658,-0.629663,0.036473 ShoulderRight:0.037397,0.773960,0.630410,-0.046597 SpineBase:-0.015060,-0.017891,0.998892,-0.040850 SpineMid:-0.011518,-0.018036,0.998939,-0.040786 SpineShoulder:-0.007573,-0.018077,0.997994,-0.060192 ThumbLeft:0.000000,0.000000,0.000000,0.000000 ThumbRight:0.000000,0.000000,0.000000,0.000000 WristLeft:-0.471542,0.773710,-0.020690,-0.422601 WristRight:-0.050926,0.744060,0.101400,-0.658406 END:
KINECT_DATA POSITION:7.278942,1.197170,-14.943647 HEAD_JOINT1:0.982535,0.179506,-0.000000,0.049010 LARM_JOINT2:0.854849,0.000000,0.059852,-0.515413 LARM_JOINT3:0.830481,0.000000,-0.545791,0.111412 LLEG_JOINT2:0.997195,0.020449,0.000000,0.071998 LLEG_JOINT4:0.994339,0.101144,0.000000,-0.032553 RARM_JOINT2:0.809650,0.000000,-0.062188,0.583610 RARM_JOINT3:0.964282,0.000000,0.210962,0.160174 RLEG_JOINT2:0.998880,0.018725,0.000000,-0.043442 RLEG_JOINT4:0.994553,0.095528,0.000000,0.041705 WAIST:0.999839,0.000000,0.015660,-0.008739 WAIST_JOINT0:0.999976,-0.000000,0.006292,0.002906 WAIST_JOINT1:0.997812,0.065616,0.000000,-0.008086 END:
KINECT_DATA_Sensor  AnkleLeft:0.071860,0.724832,-0.102473,-0.677462 AnkleRight:0.073117,0.717280,0.088230,0.687298 ElbowLeft:0.095552,-0.609300,0.230834,0.752555 ElbowRight:0.007581,0.852995,0.208823,0.478262 FootLeft:0.000000,0.000000,0.000000,0.000000 FootRight:0.000000,0.000000,0.000000,0.000000 HandLeft:0.650492,-0.679115,0.012335,0.339867 HandRight:0.113566,-0.662894,-0.055951,0.737932 HandTipLeft:0.000000,0.000000,0.000000,0.000000 HandTipRight:0.000000,0.000000,0.000000,0.000000 Head:0.000000,0.000000,0.000000,0.000000 HipLeft:0.113271,-0.686987,0.700760,-0.155416 HipRight:-0.129491,0.667715,0.709390,-0.184810 KneeLeft:0.029191,-0.695356,0.059801,0.715578 KneeRight:-0.024277,0.717705,0.049879,0.694134 Neck:-0.007114,-0.018848,0.996467,-0.081538 ShoulderLeft:0.045475,0.774348,-0.630057,0.036687 ShoulderRight:0.037244,0.774256,0.630056,-0.046579 SpineBase:-0.015631,-0.017757,0.998882,-0.040927 SpineMid:-0.011741,-0.017917,0.998935,-0.040858 SpineShoulder:-0.007459,-0.018168,0.997998,-0.060111 ThumbLeft:0.000000,0.000000,0.000000,0.000000 ThumbRight:0.000000,0.000000,0.000000,0.000000 WristLeft:-0.470567,0.782393,-0.023145,-0.407298 WristRight:0.038482,-0.664769,-0.106259,0.738451 END:
KINECT_DATA POSITION:7.273985,1.201808,-14.949286 HEAD_JOINT1:0.982068,0.181140,-0.000000,0.052260 LARM_JOINT2:0.856168,0.000000,0.055936,-0.513661 LARM_JOINT3:0.835065,0.000000,-0.544660,0.077537 LLEG_JOINT2:0.997209,0.020296,0.000000,0.071852 LLEG_JOINT4:0.994370,0.100469,0.000000,-0.033676 RARM_JOINT2:0.808346,0.000000,-0.063463,0.585278 RARM_JOINT3:0.964355,0.000000,0.213088,0.156888 RLEG_JOINT2:0.998893,0.019063,0.000000,-0.043000 RLEG_JOINT4:0.994661,0.095003,0.000000,0.040303 WAIST:0.999845,0.000000,0.015410,-0.008552 WAIST_JOINT0:0.999980,-0.000000,0.005059,0.003791 WAIST_JOINT1:0.997818,0.065528,0.000000,-0.008096 END:
KINECT_DATA_Sensor  AnkleLeft:0.070345,0.714579,-0.102229,-0.688461 AnkleRight:0.072395,0.716730,0.088676,0.687891 ElbowLeft:0.095736,-0.622654,0.231546,0.741298 ElbowRight:0.008712,0.851003,0.207317,0.482430 FootLeft:0.000000,0.000000,0.000000,0.000000 FootRight:0.000000,0.000000,0.000000,0.000000 HandLeft:-0.615647,0.715263,0.019435,-0.330152 HandRight:0.118065,-0.700509,-0.057360,0.701468 HandTipLeft:0.000000,0.000000,0.000000,0.000000 HandTipRight:0.000000,0.000000,0.000000,0.000000 Head:0.000000,0.000000,0.000000,0.000000 HipLeft:0.113376,-0.686920,0.700783,-0.155532 HipRight:-0.129452,0.667946,0.709204,-0.184713 KneeLeft:0.029348,-0.695519,0.059713,0.715421 KneeRight:-0.023581,0.717552,0.049686,0.694330 Neck:-0.005992,-0.018691,0.996487,-0.081408 ShoulderLeft:0.044669,0.774133,-0.630332,0.037482 ShoulderRight:0.037940,0.775131,0.629013,-0.045559 SpineBase:-0.015391,-0.017594,0.998890,-0.040885 SpineMid:-0.011059,-0.017771,0.998948,-0.040809 SpineShoulder:-0.006334,-0.018039,0.998014,-0.060019 ThumbLeft:0.000000,0.000000,0.000000,0.000000 ThumbRight:0.000000,0.000000,0.000000,0.000000 WristLeft:-0.465105,0.789948,-0.014868,-0.399299 WristRight:-0.045763,0.713186,0.103260,-0.691816 END:
KINECT_DATA POSITION:7.265993,1.194328,-14.923800 HEAD_JOINT1:0.981650,0.182668,-0.000000,0.054737 LARM_JOINT2:0.855355,0.000000,0.055643,-0.515045 LARM_JOINT3:0.835862,0.000000,-0.546643,0.050160 LLEG_JOINT2:0.997215,0.020310,0.000000,0.071761 LLEG_JOINT4:0.994502,0.099429,0.000000,-0.032843 RARM_JOINT2:0.807925,0.000000,-0.064047,0.585794 RARM_JOINT3:0.963099,0.000000,0.218465,0.157202 RLEG_JOINT2:0.998884,0.019012,0.000000,-0.043225 RLEG_JOINT4:0.994544,0.095953,0.000000,0.040927 WAIST:0.999853,0.000000,0.015012,-0.008266 WAIST_JOINT0:0.999981,-0.000000,0.003717,0.004890 WAIST_JOINT1:0.997797,0.065884,0.000000,-0.007730 END:
KINECT_DATA_Sensor  AnkleLeft:0.070229,0.724221,-0.101398,-0.678447 AnkleRight:0.077127,0.743992,0.085699,0.658166 ElbowLeft:0.088506,-0.643855,0.233561,0.723233 ElbowRight:0.009917,0.850354,0.206601,0.483856 FootLeft:0.000000,0.000000,0.000000,0.000000 FootRight:0.000000,0.000000,0.000000,0.000000 HandLeft:-0.600296,0.736236,0.018722,-0.311851 HandRight:-0.133285,0.704614,0.069403,-0.693497 HandTipLeft:0.000000,0.000000,0.000000,0.000000 HandTipRight:0.000000,0.000000,0.000000,0.000000 Head:0.000000,0.000000,0.000000,0.000000 HipLeft:0.113259,-0.686649,0.700948,-0.156068 HipRight:-0.129226,0.668205,0.709028,-0.184613 KneeLeft:0.029502,-0.695797,0.059846,0.715133 KneeRight:-0.023559,0.717277,0.049610,0.694620 Neck:-0.004791,-0.018094,0.996473,-0.081801 ShoulderLeft:0.043933,0.773319,-0.631302,0.038809 ShoulderRight:0.038820,0.775866,0.628098,-0.044918 SpineBase:-0.014990,-0.016963,0.998895,-0.041188 SpineMid:-0.010247,-0.017158,0.998955,-0.041107 SpineShoulder:-0.005116,-0.017419,0.998011,-0.060363 ThumbLeft:0.000000,0.000000,0.000000,0.000000 ThumbRight:0.000000,0.000000,0.000000,0.000000 WristLeft:-0.451697,0.811473,-0.009835,-0.370654 WristRight:-0.047044,0.718223,0.102161,-0.686662 END:
KINECT_DATA POSITION:7.213645,1.204700,-14.898539 HEAD_JOINT1:0.981542,0.183295,-0.000000,0.054575 LARM_JOINT2:0.853618,0.000000,0.053074,-0.518189 LARM_JOINT3:0.829939,0.000000,-0.554594,0.060220 LLEG_JOINT2:0.997215,0.019953,0.000000,0.071856 LLEG_JOINT4:0.994190,0.101960,0.000000,-0.034491 RARM_JOINT2:0.807741,0.000000,-0.063807,0.586074 RARM_JOINT3:0.963676,0.000000,0.219017,0.152839 RLEG_JOINT2:0.998909,0.017704,0.000000,-0.043221 RLEG_JOINT4:0.994351,0.098745,0.000000,0.038942 WAIST:0.999851,0.000000,0.015232,-0.008113 WAIST_JOINT0:0.999983,-0.000000,0.003200,0.004847 WAIST_JOINT1:0.997797,0.065863,0.000000,-0.007992 END:
KINECT_DATA_Sensor  AnkleLeft:0.071778,0.716844,-0.102464,-0.685918 AnkleRight:0.073196,0.715694,0.091213,0.688553 ElbowLeft:0.086261,-0.648175,0.230028,0.720774 ElbowRight:0.009749,0.850429,0.206312,0.483851 FootLeft:0.000000,0.000000,0.000000,0.000000 FootRight:0.000000,0.000000,0.000000,0.000000 HandLeft:-0.628383,0.719648,0.002258,-0.295358 HandRight:-0.126035,0.751862,0.075136,-0.642786 HandTipLeft:0.000000,0.000000,0.000000,0.000000 HandTipRight:0.000000,0.000000,0.000000,0.000000 Head:0.000000,0.000000,0.000000,0.000000 HipLeft:0.112908,-0.686709,0.700994,-0.155855 HipRight:-0.129313,0.668382,0.708809,-0.184755 KneeLeft:0.029920,-0.695606,0.059780,0.715306 KneeRight:-0.024371,0.717439,0.048558,0.694499 Neck:-0.004284,-0.018304,0.996475,-0.081760 ShoulderLeft:0.043326,0.773119,-0.631554,0.039378 ShoulderRight:0.038883,0.775750,0.628254,-0.044676 SpineBase:-0.015218,-0.016845,0.998892,-0.041220 SpineMid:-0.010100,-0.017056,0.998957,-0.041134 SpineShoulder:-0.004608,-0.017578,0.998014,-0.060321 ThumbLeft:0.000000,0.000000,0.000000,0.000000 ThumbRight:0.000000,0.000000,0.000000,0.000000 WristLeft:-0.452087,0.819384,-0.011314,-0.352278 WristRight:-0.054045,0.762167,0.098851,-0.637503 END:
KINECT_DATA POSITION:7.191001,1.212704,-14.871561 HEAD_JOINT1:0.981444,0.183689,-0.000000,0.055000 LARM_JOINT2:0.853300,0.000000,0.051749,-0.518847 LARM_JOINT3:0.833123,0.000000,-0.550050,0.057878 LLEG_JOINT2:0.997228,0.019534,0.000000,0.071803 LLEG_JOINT4:0.994275,0.101572,0.000000,-0.033167 RARM_JOINT2:0.807698,0.000000,-0.063798,0.586135 RARM_JOINT3:0.964234,0.000000,0.214361,0.155892 RLEG_JOINT2:0.998894,0.018316,0.000000,-0.043296 RLEG_JOINT4:0.994492,0.097060,0.000000,0.039570 WAIST:0.999854,0.000000,0.015122,-0.007986 WAIST_JOINT0:0.999985,-0.000000,0.002116,0.005000 WAIST_JOINT1:0.997791,0.065929,0.000000,-0.008188 END:
KINECT_DATA_Sensor  AnkleLeft:0.070332,0.717636,-0.102917,-0.685172 AnkleRight:0.076381,0.742072,0.087056,0.660239 ElbowLeft:0.085994,-0.650120,0.228945,0.719397 ElbowRight:0.009796,0.850326,0.206336,0.484020 FootLeft:0.000000,0.000000,0.000000,0.000000 FootRight:0.000000,0.000000,0.000000,0.000000 HandLeft:-0.616247,0.720750,0.011173,-0.317229 HandRight:-0.114803,0.705952,0.061832,-0.696153 HandTipLeft:0.000000,0.000000,0.000000,0.000000 HandTipRight:0.000000,0.000000,0.000000,0.000000 Head:0.000000,0.000000,0.000000,0.000000 HipLeft:0.112970,-0.686644,0.701039,-0.155893 HipRight:-0.129261,0.668493,0.708712,-0.184759 KneeLeft:0.030283,-0.695652,0.059535,0.715267 KneeRight:-0.023904,0.717371,0.048963,0.694558 Neck:-0.003221,-0.018473,0.996468,-0.081851 ShoulderLeft:0.042044,0.772868,-0.631863,0.040711 ShoulderRight:0.038993,0.775665,0.628377,-0.044327 SpineBase:-0.015117,-0.016856,0.998893,-0.041223 SpineMid:-0.009517,-0.017087,0.998962,-0.041128 SpineShoulder:-0.003541,-0.017693,0.998014,-0.060354 ThumbLeft:0.000000,0.000000,0.000000,0.000000 ThumbRight:0.000000,0.000000,0.000000,0.000000 WristLeft:-0.452172,0.812559,0.000409,-0.367815 WristRight:-0.047235,0.716805,0.102361,-0.688100 END:
KINECT_DATA POSITION:7.188339,1.212986,-14.863062 HEAD_JOINT1:0.981478,0.183389,-0.000000,0.055405 LARM_JOINT2:0.853660,0.000000,0.051316,-0.518296 LARM_JOINT3:0.831150,0.000000,-0.552839,0.059651 LLEG_JOINT2:0.997203,0.019982,0.000000,0.072020 LLEG_JOINT4:0.994425,0.100183,0.000000,-0.032890 RARM_JOINT2:0.807566,0.000000,-0.063576,0.586340 RARM_JOINT3:0.964267,0.000000,0.215323,0.154355 RLEG_JOINT2:0.998905,0.018031,0.000000,-0.043172 RLEG_JOINT4:0.994421,0.098312,0.000000,0.038223 WAIST:0.999861,0.000000,0.014709,-0.007888 WAIST_JOINT0:0.999986,-0.000000,0.000320,0.005328 WAIST_JOINT1:0.997760,0.066377,0.000000,-0.008260 END:
KINECT_DATA_Sensor  AnkleLeft:0.067519,0.706895,-0.103871,-0.696385 AnkleRight:0.078527,0.757844,0.086580,0.641879 ElbowLeft:0.086002,-0.652128,0.229632,0.717357 ElbowRight:0.010023,0.849697,0.206257,0.485152 FootLeft:0.000000,0.000000,0.000000,0.000000 FootRight:0.000000,0.000000,0.000000,0.000000 HandLeft:-0.624407,0.722198,-0.006229,-0.297503 HandRight:0.112137,-0.680687,-0.070868,0.720464 HandTipLeft:0.000000,0.000000,0.000000,0.000000 HandTipRight:0.000000,0.000000,0.000000,0.000000 Head:0.000000,0.000000,0.000000,0.000000 HipLeft:0.113033,-0.686484,0.701086,-0.156339 HipRight:-0.128890,0.668567,0.708715,-0.184736 KneeLeft:0.030207,-0.695956,0.060059,0.714931 KneeRight:-0.023925,0.717096,0.048609,0.694866 Neck:-0.001483,-0.018571,0.996430,-0.082340 ShoulderLeft:0.040512,0.772284,-0.632533,0.042884 ShoulderRight:0.039748,0.775538,0.628528,-0.043738 SpineBase:-0.014710,-0.016760,0.998889,-0.041512 SpineMid:-0.008442,-0.017020,0.998962,-0.041406 SpineShoulder:-0.001796,-0.017721,0.997993,-0.060760 ThumbLeft:0.000000,0.000000,0.000000,0.000000 ThumbRight:0.000000,0.000000,0.000000,0.000000 WristLeft:-0.453017,0.822464,-0.009227,-0.343865 WristRight:0.041922,-0.683628,-0.104554,0.721085 END:
KINECT_DATA POSITION:7.179339,1.213066,-14.826751 HEAD_JOINT1:0.981474,0.183016,-0.000000,0.056698 LARM_JOINT2:0.853906,0.000000,0.050945,-0.517928 LARM_JOINT3:0.834476,0.000000,-0.547755,0.060128 LLEG_JOINT2:0.997191,0.021371,0.000000,0.071786 LLEG_JOINT4:0.994341,0.099772,0.000000,-0.036492 RARM_JOINT2:0.807051,0.000000,-0.063655,0.587041 RARM_JOINT3:0.963849,0.000000,0.216252,0.155660 RLEG_JOINT2:0.998915,0.018488,0.000000,-0.042753 RLEG_JOINT4:0.994425,0.098380,0.000000,0.037959 WAIST:0.999880,0.000000,0.013432,-0.007760 WAIST_JOINT0:0.999985,0.000000,-0.000620,0.005508 WAIST_JOINT1:0.997765,0.066245,0.000000,-0.008703 END:
KINECT_DATA_Sensor  AnkleLeft:0.071445,0.713506,-0.101282,-0.689599 AnkleRight:0.077913,0.747387,0.087775,0.653940 ElbowLeft:0.086503,-0.653701,0.229372,0.715947 ElbowRight:0.010115,0.848257,0.205741,0.487881 FootLeft:0.000000,0.000000,0.000000,0.000000 FootRight:0.000000,0.000000,0.000000,0.000000 HandLeft:-0.616922,0.719988,-0.001663,-0.317839 HandRight:-0.124084,0.737137,0.057473,-0.661762 HandTipLeft:0.000000,0.000000,0.000000,0.000000 HandTipRight:0.000000,0.000000,0.000000,0.000000 Head:0.000000,0.000000,0.000000,0.000000 HipLeft:0.113880,-0.686308,0.700983,-0.156956 HipRight:-0.128198,0.668877,0.708728,-0.184047 KneeLeft:0.029215,-0.696937,0.060906,0.713944 KneeRight:-0.023161,0.716232,0.048577,0.695785 Neck:-0.000582,-0.018830,0.996436,-0.082227 ShoulderLeft:0.039704,0.772095,-0.632765,0.043597 ShoulderRight:0.040132,0.775595,0.628483,-0.043017 SpineBase:-0.013451,-0.016832,0.998910,-0.041411 SpineMid:-0.007356,-0.017084,0.998973,-0.041308 SpineShoulder:-0.000892,-0.017908,0.997999,-0.060636 ThumbLeft:0.000000,0.000000,0.000000,0.000000 ThumbRight:0.000000,0.000000,0.000000,0.000000 WristLeft:-0.452358,0.816566,0.000218,-0.358597 WristRight:-0.051836,0.748967,0.100789,-0.652842 END:
KINECT_DATA POSITION:7.166739,1.212786,-14.830435 HEAD_JOINT1:0.981463,0.183026,-0.000000,0.056842 LARM_JOINT2:0.853819,0.000000,0.051014,-0.518064 LARM_JOINT3:0.835075,0.000000,-0.547173,0.057028 LLEG_JOINT2:0.997173,0.021819,0.000000,0.071902 LLEG_JOINT4:0.994521,0.098974,0.000000,-0.033636 RARM_JOINT2:0.806800,0.000000,-0.064221,0.587324 RARM_JOINT3:0.964054,0.000000,0.214921,0.156235 RLEG_JOINT2:0.998909,0.019771,0.000000,-0.042317 RLEG_JOINT4:0.994657,0.096149,0.000000,0.037597 WAIST:0.999879,0.000000,0.013490,-0.007704 WAIST_JOINT0:0.999985,0.000000,-0.000715,0.005497 WAIST_JOINT1:0.997769,0.066168,0.000000,-0.008881 END:
KINECT_DATA_Sensor  AnkleLeft:0.069878,0.718291,-0.102809,-0.684548 AnkleRight:0.075258,0.732289,0.088815,0.670970 ElbowLeft:0.086158,-0.654117,0.229226,0.715656 ElbowRight:0.010400,0.847862,0.205696,0.488581 FootLeft:0.000000,0.000000,0.000000,0.000000 FootRight:0.000000,0.000000,0.000000,0.000000 HandLeft:-0.614921,0.736275,-0.027537,-0.281091 HandRight:-0.120608,0.740868,0.050565,-0.658795 HandTipLeft:0.000000,0.000000,0.000000,0.000000 HandTipRight:0.000000,0.000000,0.000000,0.000000 Head:0.000000,0.000000,0.000000,0.000000 HipLeft:0.113788,-0.686323,0.701006,-0.156854 HipRight:-0.128120,0.668931,0.708678,-0.184099 KneeLeft:0.029007,-0.696908,0.061344,0.713943 KneeRight:-0.021914,0.716288,0.049150,0.695727 Neck:-0.000494,-0.018975,0.996444,-0.082092 ShoulderLeft:0.039655,0.772169,-0.632680,0.043567 ShoulderRight:0.040203,0.775648,0.628425,-0.042844 SpineBase:-0.013518,-0.016943,0.998906,-0.041442 SpineMid:-0.007346,-0.017198,0.998970,-0.041336 SpineShoulder:-0.000804,-0.018038,0.998001,-0.060567 ThumbLeft:0.000000,0.000000,0.000000,0.000000 ThumbRight:0.000000,0.000000,0.000000,0.000000 WristLeft:-0.450801,0.833789,-0.022104,-0.317939 WristRight:-0.052611,0.752533,0.100524,-0.648707 END:
KINECT_DATA POSITION:7.155271,1.212665,-14.859474 HEAD_JOINT1:0.981221,0.184224,-0.000000,0.057158 LARM_JOINT2:0.853946,0.000000,0.051900,-0.517767 LARM_JOINT3:0.834188,0.000000,-0.549237,0.049690 LLEG_JOINT2:0.997180,0.021645,0.000000,0.071861 LLEG_JOINT4:0.994477,0.099253,0.000000,-0.034116 RARM_JOINT2:0.806535,0.000000,-0.065374,0.587561 RARM_JOINT3:0.964264,0.000000,0.214047,0.156135 RLEG_JOINT2:0.998890,0.019443,0.000000,-0.042909 RLEG_JOINT4:0.994500,0.097060,0.000000,0.039363 WAIST:0.999877,0.000000,0.013724,-0.007608 WAIST_JOINT0:0.999983,0.000000,-0.000562,0.005886 WAIST_JOINT1:0.997776,0.066069,0.000000,-0.008838 END:
KINECT_DATA_Sensor  AnkleLeft:0.070492,0.719627,-0.102387,-0.683143 AnkleRight:0.076910,0.735163,0.087985,0.667741 ElbowLeft:0.085129,-0.656279,0.230305,0.713449 ElbowRight:0.010973,0.847043,0.205672,0.489998 FootLeft:0.000000,0.000000,0.000000,0.000000 FootRight:0.000000,0.000000,0.000000,0.000000 HandLeft:-0.612336,0.738057,-0.014872,-0.283010 HandRight:-0.117366,0.761692,0.042555,-0.635798 HandTipLeft:0.000000,0.000000,0.000000,0.000000 HandTipRight:0.000000,0.000000,0.000000,0.000000 Head:0.000000,0.000000,0.000000,0.000000 HipLeft:0.113541,-0.686322,0.701086,-0.156681 HipRight:-0.128218,0.668999,0.708574,-0.184183 KneeLeft:0.029157,-0.696727,0.061269,0.714120 KneeRight:-0.022509,0.716442,0.049257,0.695541 Neck:-0.000681,-0.018832,0.996459,-0.081941 ShoulderLeft:0.039749,0.772269,-0.632569,0.043331 ShoulderRight:0.040068,0.776158,0.627802,-0.042874 SpineBase:-0.013755,-0.016839,0.998904,-0.041453 SpineMid:-0.007556,-0.017096,0.998970,-0.041347 SpineShoulder:-0.000990,-0.017921,0.998008,-0.060483 ThumbLeft:0.000000,0.000000,0.000000,0.000000 ThumbRight:0.000000,0.000000,0.000000,0.000000 WristLeft:-0.450347,0.831993,-0.016093,-0.323599 WristRight:-0.055876,0.772601,0.098854,-0.624654 END:
KINECT_DATA POSITION:7.120115,1.219542,-14.951491 HEAD_JOINT1:0.981111,0.184279,-0.000000,0.058839 LARM_JOINT2:0.854192,0.000000,0.052678,-0.517281 LARM_JOINT3:0.828176,0.000000,-0.558810,0.043093 LLEG_JOINT2:0.997185,0.021387,0.000000,0.071862 LLEG_JOINT4:0.994579,0.096660,0.000000,-0.038344 RARM_JOINT2:0.805896,0.000000,-0.065442,0.588429 RARM_JOINT3:0.964053,0.000000,0.214816,0.156383 RLEG_JOINT2:0.998851,0.019907,0.000000,-0.043588 RLEG_JOINT4:0.994797,0.093708,0.000000,0.039966 WAIST:0.999891,0.000000,0.012885,-0.007150 WAIST_JOINT0:0.999978,0.000000,-0.001303,0.006515 WAIST_JOINT1:0.997757,0.066288,0.000000,-0.009289 END:
KINECT_DATA_Sensor  AnkleLeft:0.068253,0.702928,-0.099511,-0.700951 AnkleRight:0.072375,0.713335,0.088009,0.691498 ElbowLeft:0.084123,-0.659642,0.231554,0.710055 ElbowRight:0.011835,0.846618,0.204874,0.491044 FootLeft:0.000000,0.000000,0.000000,0.000000 FootRight:0.000000,0.000000,0.000000,0.000000 HandLeft:-0.621824,0.716073,0.039803,-0.314627 HandRight:-0.117611,0.707082,0.052344,-0.695315 HandTipLeft:0.000000,0.000000,0.000000,0.000000 HandTipRight:0.000000,0.000000,0.000000,0.000000 Head:0.000000,0.000000,0.000000,0.000000 HipLeft:0.113754,-0.685913,0.701316,-0.157286 HipRight:-0.127470,0.669406,0.708393,-0.183921 KneeLeft:0.029723,-0.697271,0.061383,0.713556 KneeRight:-0.022309,0.715879,0.049755,0.696092 Neck:-0.000038,-0.018788,0.996445,-0.082126 ShoulderLeft:0.039714,0.772092,-0.632754,0.043805 ShoulderRight:0.040913,0.776723,0.627088,-0.042280 SpineBase:-0.012949,-0.016674,0.998904,-0.041782 SpineMid:-0.006823,-0.016930,0.998964,-0.041679 SpineShoulder:-0.000341,-0.017847,0.997995,-0.060722 ThumbLeft:0.000000,0.000000,0.000000,0.000000 ThumbRight:0.000000,0.000000,0.000000,0.000000 WristLeft:-0.451135,0.810339,0.017393,-0.373530 WristRight:-0.047883,0.719362,0.102366,-0.685381 END:
KINECT_DATA POSITION:7.086222,1.218016,-14.995205 HEAD_JOINT1:0.980794,0.184086,-0.000000,0.064465 LARM_JOINT2:0.854769,0.000000,0.053989,-0.516193 LARM_JOINT3:0.829320,0.000000,-0.557944,0.030448 LLEG_JOINT2:0.997208,0.021635,0.000000,0.071474 LLEG_JOINT4:0.994573,0.097449,0.000000,-0.036452 RARM_JOINT2:0.804598,0.000000,-0.064978,0.590254 RARM_JOINT3:0.964737,0.000000,0.214037,0.153204 RLEG_JOINT2:0.998872,0.019688,0.000000,-0.043216 RLEG_JOINT4:0.994813,0.094375,0.000000,0.037941 WAIST:0.999913,0.000000,0.011305,-0.006797 WAIST_JOINT0:0.999973,0.000000,-0.004313,0.005993 WAIST_JOINT1:0.997773,0.065962,0.000000,-0.009884 END:
KINECT_DATA_Sensor  AnkleLeft:0.068702,0.711647,-0.100906,-0.691850 AnkleRight:0.075745,0.741990,0.085879,0.660559 ElbowLeft:0.082817,-0.665769,0.233251,0.703908 ElbowRight:0.012190,0.845372,0.202825,0.494023 FootLeft:0.000000,0.000000,0.000000,0.000000 FootRight:0.000000,0.000000,0.000000,0.000000 HandLeft:-0.607427,0.730990,0.039277,-0.308454 HandRight:0.102454,-0.565507,-0.075984,0.814820 HandTipLeft:0.000000,0.000000,0.000000,0.000000 HandTipRight:0.000000,0.000000,0.000000,0.000000 Head:0.000000,0.000000,0.000000,0.000000 HipLeft:0.114687,-0.685594,0.701364,-0.157784 HipRight:-0.126446,0.669961,0.708341,-0.182800 KneeLeft:0.029628,-0.698389,0.061473,0.712457 KneeRight:-0.021877,0.714816,0.049117,0.697242 Neck:0.003003,-0.019098,0.996467,-0.081732 ShoulderLeft:0.037281,0.772510,-0.632234,0.046037 ShoulderRight:0.042383,0.776386,0.627568,-0.039836 SpineBase:-0.011406,-0.016731,0.998931,-0.041550 SpineMid:-0.004526,-0.017017,0.998986,-0.041434 SpineShoulder:0.002711,-0.018052,0.998008,-0.060392 ThumbLeft:0.000000,0.000000,0.000000,0.000000 ThumbRight:0.000000,0.000000,0.000000,0.000000 WristLeft:-0.450384,0.816958,0.018572,-0.359707 WristRight:0.026403,-0.568686,-0.109546,0.814800 END:
KINECT_DATA POSITION:7.064666,1.214946,-15.015591 HEAD_JOINT1:0.980605,0.183848,-0.000000,0.067930 LARM_JOINT2:0.855046,0.000000,0.051708,-0.515968 LARM_JOINT3:0.831840,0.000000,-0.554129,0.031373 LLEG_JOINT2:0.997233,0.020877,0.000000,0.071342 LLEG_JOINT4:0.994554,0.097841,0.000000,-0.035921 RARM_JOINT2:0.803693,0.000000,-0.065152,0.591467 RARM_JOINT3:0.965701,0.000000,0.211672,0.150390 RLEG_JOINT2:0.998883,0.018625,0.000000,-0.043432 RLEG_JOINT4:0.994702,0.095391,0.000000,0.038333 WAIST:0.999923,0.000000,0.010461,-0.006627 WAIST_JOINT0:0.999966,0.000000,-0.005982,0.005752 WAIST_JOINT1:0.997792,0.065565,0.000000,-0.010600 END:
KINECT_DATA_Sensor  AnkleLeft:0.068122,0.713347,-0.101021,-0.690138 AnkleRight:0.072085,0.710868,0.088863,0.693955 ElbowLeft:-0.083387,0.670260,-0.231888,-0.700019 ElbowRight:0.012186,0.844015,0.201860,0.496732 FootLeft:0.000000,0.000000,0.000000,0.000000 FootRight:0.000000,0.000000,0.000000,0.000000 HandLeft:-0.608913,0.731278,0.025077,-0.306314 HandRight:0.102541,-0.698822,-0.055473,0.705731 HandTipLeft:0.000000,0.000000,0.000000,0.000000 HandTipRight:0.000000,0.000000,0.000000,0.000000 Head:0.000000,0.000000,0.000000,0.000000 HipLeft:0.115399,-0.685477,0.701324,-0.157954 HipRight:-0.125986,0.670247,0.708292,-0.182261 KneeLeft:0.030259,-0.698931,0.060937,0.711946 KneeRight:-0.022618,0.714245,0.048403,0.697854 Neck:0.004645,-0.019775,0.996487,-0.081241 ShoulderLeft:0.036363,0.772878,-0.631791,0.046653 ShoulderRight:0.043598,0.776298,0.627714,-0.037899 SpineBase:-0.010590,-0.017022,0.998946,-0.041290 SpineMid:-0.003291,-0.017323,0.998997,-0.041164 SpineShoulder:0.004363,-0.018541,0.998017,-0.059998 ThumbLeft:0.000000,0.000000,0.000000,0.000000 ThumbRight:0.000000,0.000000,0.000000,0.000000 WristLeft:-0.449581,0.822590,0.017640,-0.347723 WristRight:-0.045713,0.708974,0.103250,-0.696136 END:
KINECT_DATA POSITION:7.056628,1.209483,-15.029883 HEAD_JOINT1:0.980461,0.184291,-0.000000,0.068790 LARM_JOINT2:0.855154,0.000000,0.051237,-0.515836 LARM_JOINT3:0.833551,0.000000,-0.551518,0.031949 LLEG_JOINT2:0.997233,0.020896,0.000000,0.071341 LLEG_JOINT4:0.994577,0.097323,0.000000,-0.036671 RARM_JOINT2:0.803468,0.000000,-0.065831,0.591697 RARM_JOINT3:0.965024,0.000000,0.214009,0.151423 RLEG_JOINT2:0.998875,0.018257,0.000000,-0.043755 RLEG_JOINT4:0.994733,0.094706,0.000000,0.039206 WAIST:0.999934,0.000000,0.009551,-0.006371 WAIST_JOINT0:0.999960,0.000000,-0.006755,0.005788 WAIST_JOINT1:0.997796,0.065432,0.000000,-0.011020 END:
KINECT_DATA_Sensor  AnkleLeft:0.067340,0.709554,-0.100814,-0.694144 AnkleRight:0.076185,0.743518,0.083852,0.659049 ElbowLeft:-0.083667,0.671915,-0.231569,-0.698503 ElbowRight:0.012755,0.843387,0.201889,0.497771 FootLeft:0.000000,0.000000,0.000000,0.000000 FootRight:0.000000,0.000000,0.000000,0.000000 HandLeft:-0.607293,0.726256,0.033084,-0.320393 HandRight:0.114223,-0.688103,-0.062172,0.713864 HandTipLeft:0.000000,0.000000,0.000000,0.000000 HandTipRight:0.000000,0.000000,0.000000,0.000000 Head:0.000000,0.000000,0.000000,0.000000 HipLeft:0.115981,-0.685268,0.701348,-0.158325 HipRight:-0.125402,0.670600,0.708195,-0.181741 KneeLeft:0.030486,-0.699554,0.061099,0.711309 KneeRight:-0.022886,0.713625,0.048204,0.698492 Neck:0.005404,-0.019866,0.996492,-0.081114 ShoulderLeft:0.035774,0.772898,-0.631765,0.047144 ShoulderRight:0.043993,0.776365,0.627644,-0.037206 SpineBase:-0.009706,-0.017099,0.998957,-0.041214 SpineMid:-0.002469,-0.017397,0.999001,-0.041089 SpineShoulder:0.005121,-0.018635,0.998019,-0.059874 ThumbLeft:0.000000,0.000000,0.000000,0.000000 ThumbRight:0.000000,0.000000,0.000000,0.000000 WristLeft:-0.446470,0.817701,0.025357,-0.362472 WristRight:0.041792,-0.690461,-0.104037,0.714628 END:
KINECT_DATA POSITION:7.050515,1.201601,-15.044308 HEAD_JOINT1:0.980641,0.182811,-0.000000,0.070161 LARM_JOINT2:0.856309,0.000000,0.048955,-0.514139 LARM_JOINT3:0.826917,0.000000,-0.561311,0.033723 LLEG_JOINT2:0.997245,0.020913,0.000000,0.071167 LLEG_JOINT4:0.994504,0.098461,0.000000,-0.035589 RARM_JOINT2:0.803268,0.000000,-0.065474,0.592008 RARM_JOINT3:0.964343,0.000000,0.217759,0.150412 RLEG_JOINT2:0.998882,0.018616,0.000000,-0.043453 RLEG_JOINT4:0.994717,0.095345,0.000000,0.038053 WAIST:0.999940,0.000000,0.008921,-0.006290 WAIST_JOINT0:0.999956,0.000000,-0.007297,0.005966 WAIST_JOINT1:0.997787,0.065547,0.000000,-0.011164 END:
KINECT_DATA_Sensor  AnkleLeft:0.068373,0.716100,-0.101740,-0.687150 AnkleRight:0.076198,0.741027,0.085270,0.661666 ElbowLeft:-0.085941,0.674242,-0.231876,-0.695877 ElbowRight:0.012800,0.842979,0.201552,0.498598 FootLeft:0.000000,0.000000,0.000000,0.000000 FootRight:0.000000,0.000000,0.000000,0.000000 HandLeft:-0.630821,0.719618,0.028801,-0.288765 HandRight:0.125972,-0.698628,-0.073510,0.700461 HandTipLeft:0.000000,0.000000,0.000000,0.000000 HandTipRight:0.000000,0.000000,0.000000,0.000000 Head:0.000000,0.000000,0.000000,0.000000 HipLeft:0.116314,-0.685133,0.701350,-0.158656 HipRight:-0.124962,0.670728,0.708234,-0.181420 KneeLeft:0.030451,-0.699999,0.061020,0.710880 KneeRight:-0.022333,0.713200,0.048202,0.698944 Neck:0.005928,-0.019854,0.996477,-0.081269 ShoulderLeft:0.035370,0.772807,-0.631855,0.047730 ShoulderRight:0.044274,0.776425,0.627565,-0.036966 SpineBase:-0.009086,-0.017139,0.998960,-0.041261 SpineMid:-0.001899,-0.017435,0.999000,-0.041137 SpineShoulder:0.005641,-0.018662,0.998009,-0.059985 ThumbLeft:0.000000,0.000000,0.000000,0.000000 ThumbRight:0.000000,0.000000,0.000000,0.000000 WristLeft:-0.450304,0.826073,0.017542,-0.338412 WristRight:-0.044527,0.710951,0.102815,-0.694259 END:
KINECT_DATA POSITION:7.015388,1.179998,-15.015721 HEAD_JOINT1:0.981099,0.172142,-0.000000,0.088388 LARM_JOINT2:0.874164,0.000000,0.006470,-0.485588 LARM_JOINT3:0.810672,0.000000,-0.583444,0.049043 LLEG_JOINT2:0.997233,0.020811,0.000000,0.071362 LLEG_JOINT4:0.994182,0.100898,0.000000,-0.037718 RARM_JOINT2:0.801228,0.000000,-0.058067,0.595535 RARM_JOINT3:0.965608,0.000000,0.218498,0.140928 RLEG_JOINT2:0.998884,0.019111,0.000000,-0.043198 RLEG_JOINT4:0.995002,0.092800,0.000000,0.036878 WAIST:0.999957,0.000000,0.007186,-0.005890 WAIST_JOINT0:0.999766,0.000000,-0.020584,0.006673 WAIST_JOINT1:0.997865,0.064370,0.000000,-0.011022 END:
KINECT_DATA_Sensor  AnkleLeft:0.071043,0.717590,-0.102203,-0.685253 AnkleRight:0.075950,0.751841,0.082812,0.649699 ElbowLeft:-0.134694,0.683925,-0.230096,-0.679087 ElbowRight:0.008280,0.841292,0.194365,0.504362 FootLeft:0.000000,0.000000,0.000000,0.000000 FootRight:0.000000,0.000000,0.000000,0.000000 HandLeft:0.696869,-0.687378,-0.019913,0.203686 HandRight:-0.125869,0.769308,0.077718,-0.621516 HandTipLeft:0.000000,0.000000,0.000000,0.000000 HandTipRight:0.000000,0.000000,0.000000,0.000000 Head:0.000000,0.000000,0.000000,0.000000 HipLeft:0.118353,-0.684612,0.701298,-0.159622 HipRight:-0.124858,0.671212,0.708035,-0.180477 KneeLeft:0.031057,-0.701196,0.061310,0.709648 KneeRight:-0.021445,0.712010,0.048122,0.700190 Neck:0.019000,-0.019957,0.996451,-0.079542 ShoulderLeft:0.026672,0.774399,-0.629637,0.056143 ShoulderRight:0.052384,0.777583,0.626092,-0.025072 SpineBase:-0.007380,-0.016999,0.999005,-0.040563 SpineMid:0.005471,-0.017519,0.999017,-0.040341 SpineShoulder:0.018750,-0.018697,0.997922,-0.058742 ThumbLeft:0.000000,0.000000,0.000000,0.000000 ThumbRight:0.000000,0.000000,0.000000,0.000000 WristLeft:-0.509749,0.823411,0.011643,-0.249027 WristRight:-0.060160,0.778773,0.100552,-0.616265 END:
KINECT_DATA POSITION:6.898431,1.130721,-14.883924 HEAD_JOINT1:0.980848,0.156052,-0.000000,0.116555 LARM_JOINT2:0.887215,0.000000,-0.017937,-0.461007 LARM_JOINT3:0.825844,0.000000,-0.561498,0.051976 LLEG_JOINT2:0.997188,0.024273,0.000000,0.070899 LLEG_JOINT4:0.994167,0.100072,0.000000,-0.040226 RARM_JOINT2:0.796240,0.000000,-0.067427,0.601212 RARM_JOINT3:0.965353,0.000000,0.220354,0.139778 RLEG_JOINT2:0.998881,0.017944,0.000000,-0.043769 RLEG_JOINT4:0.994920,0.094887,0.000000,0.033632 WAIST:0.999991,0.000000,-0.001712,-0.003924 WAIST_JOINT0:0.999202,0.000000,-0.038937,0.008953 WAIST_JOINT1:0.998004,0.061979,0.000000,-0.012135 END:
KINECT_DATA_Sensor  AnkleLeft:0.071161,0.713234,-0.104880,-0.689372 AnkleRight:0.069406,0.693070,0.089750,0.711886 ElbowLeft:-0.170659,0.695498,-0.232464,-0.658118 ElbowRight:0.013833,0.823328,0.189633,0.534770 FootLeft:0.000000,0.000000,0.000000,0.000000 FootRight:0.000000,0.000000,0.000000,0.000000 HandLeft:-0.681866,0.709139,0.003108,-0.179362 HandRight:0.106610,-0.686896,-0.064844,0.715963 HandTipLeft:0.000000,0.000000,0.000000,0.000000 HandTipRight:0.000000,0.000000,0.000000,0.000000 Head:0.000000,0.000000,0.000000,0.000000 HipLeft:0.126806,-0.681793,0.701328,-0.164977 HipRight:-0.122585,0.673414,0.707483,-0.175939 KneeLeft:-0.030229,0.707557,-0.064515,-0.703056 KneeRight:-0.020898,0.705846,0.046468,0.706531 Neck:0.037132,-0.019211,0.996167,-0.076836 ShoulderLeft:0.011019,0.777716,-0.624606,0.070027 ShoulderRight:0.059830,0.782339,0.619885,-0.010403 SpineBase:0.001387,-0.016120,0.999120,-0.038708 SpineMid:0.018916,-0.016797,0.998941,-0.038420 SpineShoulder:0.036952,-0.017757,0.997565,-0.056414 ThumbLeft:0.000000,0.000000,0.000000,0.000000 ThumbRight:0.000000,0.000000,0.000000,0.000000 WristLeft:-0.514435,0.829490,-0.003130,-0.217467 WristRight:0.048806,-0.689055,-0.113315,0.714130 END:
KINECT_DATA POSITION:6.624135,1.101725,-14.686405 HEAD_JOINT1:0.980704,0.142603,-0.000000,0.133729 LARM_JOINT2:0.894849,0.000000,-0.178499,-0.409125 LARM_JOINT3:0.893919,0.000000,-0.434721,0.109211 LLEG_JOINT2:0.997181,0.026359,0.000000,0.070251 LLEG_JOINT4:0.994046,0.099886,0.000000,-0.043545 RARM_JOINT2:0.791028,0.000000,-0.076184,0.607018 RARM_JOINT3:0.964848,0.000000,0.227762,0.131124 RLEG_JOINT2:0.998893,0.015740,0.000000,-0.044337 RLEG_JOINT4:0.995167,0.093926,0.000000,0.028636 WAIST:0.999918,0.000000,-0.012796,-0.001025 WAIST_JOINT0:0.998287,0.000000,-0.057919,0.008225 WAIST_JOINT1:0.998080,0.059736,0.000000,-0.016383 END:
KINECT_DATA_Sensor  AnkleLeft:0.072362,0.722175,-0.105995,-0.679700 AnkleRight:0.065936,0.682930,0.088933,0.722046 ElbowLeft:-0.287638,0.741609,-0.156522,-0.585475 ElbowRight:0.019939,0.806957,0.186289,0.560107 FootLeft:0.000000,0.000000,0.000000,0.000000 FootRight:0.000000,0.000000,0.000000,0.000000 HandLeft:-0.673424,0.709991,-0.202780,0.035971 HandRight:-0.104956,0.749834,0.078112,-0.648561 HandTipLeft:0.000000,0.000000,0.000000,0.000000 HandTipRight:0.000000,0.000000,0.000000,0.000000 Head:0.000000,0.000000,0.000000,0.000000 HipLeft:0.135958,-0.678676,0.701608,-0.169295 HipRight:-0.118330,0.676773,0.706617,-0.169321 KneeLeft:-0.031080,0.715240,-0.067238,-0.694942 KneeRight:-0.020342,0.698140,0.043487,0.714350 Neck:0.056026,-0.020558,0.995410,-0.074819 ShoulderLeft:-0.004369,0.780903,-0.618951,0.084088 ShoulderRight:0.068331,0.784530,0.616291,0.005380 SpineBase:0.012255,-0.016340,0.999142,-0.036033 SpineMid:0.033783,-0.017113,0.998646,-0.035673 SpineShoulder:0.055876,-0.018778,0.996793,-0.054112 ThumbLeft:0.000000,0.000000,0.000000,0.000000 ThumbRight:0.000000,0.000000,0.000000,0.000000 WristLeft:-0.491577,0.854992,-0.153812,0.060679 WristRight:-0.058650,0.756633,0.111256,-0.641630 END:
KINECT_DATA POSITION:6.301891,1.076379,-14.552176 HEAD_JOINT1:0.980864,0.135748,-0.000000,0.139562 LARM_JOINT2:0.908949,0.000000,-0.312550,-0.275908 LARM_JOINT3:0.954272,0.000000,-0.294633,0.050553 LLEG_JOINT2:0.996849,0.030301,0.000000,0.073306 LLEG_JOINT4:0.993873,0.100274,0.000000,-0.046485 RARM_JOINT2:0.788652,0.000000,-0.082952,0.609219 RARM_JOINT3:0.965543,0.000000,0.227936,0.125586 RLEG_JOINT2:0.999054,0.010163,0.000000,-0.042288 RLEG_JOINT4:0.994628,0.100219,0.000000,0.025906 WAIST:0.999708,0.000000,-0.024145,-0.000913 WAIST_JOINT0:0.996426,0.000000,-0.084363,0.004293 WAIST_JOINT1:0.998377,0.053504,0.000000,-0.019532 END:
KINECT_DATA_Sensor  AnkleLeft:0.073266,0.724446,-0.110470,-0.676466 AnkleRight:0.076330,0.749674,0.081309,0.652343 ElbowLeft:-0.436847,0.755752,-0.127943,-0.470781 ElbowRight:0.019266,0.792556,0.185157,0.580689 FootLeft:0.000000,0.000000,0.000000,0.000000 FootRight:0.000000,0.000000,0.000000,0.000000 HandLeft:-0.590338,0.760375,-0.215214,0.164359 HandRight:-0.103913,0.798173,0.081033,-0.587839 HandTipLeft:0.000000,0.000000,0.000000,0.000000 HandTipRight:0.000000,0.000000,0.000000,0.000000 Head:0.000000,0.000000,0.000000,0.000000 HipLeft:0.146642,-0.677955,0.699340,-0.172617 HipRight:-0.114162,0.678783,0.707184,-0.161590 KneeLeft:-0.031367,0.723274,-0.071931,-0.686088 KneeRight:-0.022412,0.690038,0.038299,0.722411 Neck:0.082853,-0.024657,0.993995,-0.067098 ShoulderLeft:-0.030895,0.784875,-0.609986,0.104560 ShoulderRight:0.075577,0.784399,0.615033,0.027218 SpineBase:0.023556,-0.019060,0.999035,-0.031808 SpineMid:0.052782,-0.019982,0.997917,-0.031237 SpineShoulder:0.082786,-0.021520,0.995173,-0.048110 ThumbLeft:0.000000,0.000000,0.000000,0.000000 ThumbRight:0.000000,0.000000,0.000000,0.000000 WristLeft:-0.509454,0.817482,-0.228157,0.141860 WristRight:-0.062314,0.803711,0.113935,-0.580676 END:
KINECT_DATA POSITION:6.256174,1.050127,-14.582050 HEAD_JOINT1:0.980362,0.139775,-0.000000,0.139115 LARM_JOINT2:0.902376,0.000000,-0.381444,-0.200547 LARM_JOINT3:0.967426,0.000000,-0.246448,0.057877 LLEG_JOINT2:0.996843,0.030435,0.000000,0.073328 LLEG_JOINT4:0.993994,0.099127,0.000000,-0.046367 RARM_JOINT2:0.788817,0.000000,-0.089489,0.608079 RARM_JOINT3:0.963188,0.000000,0.233779,0.132725 RLEG_JOINT2:0.999083,0.008126,0.000000,-0.042028 RLEG_JOINT4:0.994260,0.104139,0.000000,0.024555 WAIST:0.999614,0.000000,-0.027794,-0.000579 WAIST_JOINT0:0.995627,0.000000,-0.093403,0.001757 WAIST_JOINT1:0.998485,0.050303,0.000000,-0.022290 END:
KINECT_DATA_Sensor  AnkleLeft:0.071624,0.725846,-0.110482,-0.675138 AnkleRight:0.077762,0.747819,0.082694,0.654126 ElbowLeft:-0.494006,0.793434,-0.164851,-0.315031 ElbowRight:0.020693,0.791184,0.188434,0.581457 FootLeft:0.000000,0.000000,0.000000,0.000000 FootRight:0.000000,0.000000,0.000000,0.000000 HandLeft:-0.655125,0.672531,-0.274597,0.207630 HandRight:0.082382,-0.484205,-0.137035,0.860221 HandTipLeft:0.000000,0.000000,0.000000,0.000000 HandTipRight:0.000000,0.000000,0.000000,0.000000 Head:0.000000,0.000000,0.000000,0.000000 HipLeft:0.149412,-0.678183,0.698776,-0.171627 HipRight:-0.112213,0.680272,0.707125,-0.156884 KneeLeft:-0.031781,0.725830,-0.072167,-0.683340 KneeRight:-0.023344,0.687381,0.036553,0.725001 Neck:0.092556,-0.027358,0.993245,-0.064412 ShoulderLeft:-0.046397,0.786458,-0.605140,0.114619 ShoulderRight:0.072299,0.784120,0.615537,0.032283 SpineBase:0.027210,-0.019795,0.999009,-0.029142 SpineMid:0.059437,-0.020725,0.997610,-0.028488 SpineShoulder:0.092459,-0.023867,0.994432,-0.044563 ThumbLeft:0.000000,0.000000,0.000000,0.000000 ThumbRight:0.000000,0.000000,0.000000,0.000000 WristLeft:-0.473511,0.816978,-0.268521,0.190345 WristRight:0.007116,-0.492579,-0.128767,0.860659 END:
KINECT_DATA POSITION:6.231459,1.040264,-14.652228 HEAD_JOINT1:0.980948,0.139709,-0.000000,0.134987 LARM_JOINT2:0.898554,0.000000,-0.405065,-0.168887 LARM_JOINT3:0.979989,0.000000,-0.192962,0.048865 LLEG_JOINT2:0.996800,0.031059,0.000000,0.073655 LLEG_JOINT4:0.993927,0.098532,0.000000,-0.049004 RARM_JOINT2:0.789314,0.000000,-0.090374,0.607302 RARM_JOINT3:0.963315,0.000000,0.231803,0.135245 RLEG_JOINT2:0.999108,0.007125,0.000000,-0.041617 RLEG_JOINT4:0.993912,0.107362,0.000000,0.024729 WAIST:0.999509,0.000000,-0.031327,-0.000532 WAIST_JOINT0:0.995499,0.000000,-0.094765,0.000867 WAIST_JOINT1:0.998525,0.049197,0.000000,-0.022979 END:
KINECT_DATA_Sensor  AnkleLeft:0.071963,0.722611,-0.109772,-0.678679 AnkleRight:0.069656,0.661220,0.092274,0.741230 ElbowLeft:-0.538620,0.744098,-0.094107,-0.383863 ElbowRight:0.021259,0.791897,0.189279,0.580190 FootLeft:0.000000,0.000000,0.000000,0.000000 FootRight:0.000000,0.000000,0.000000,0.000000 HandLeft:-0.583835,0.741716,-0.288634,0.160263 HandRight:-0.115992,0.714571,0.105145,-0.681820 HandTipLeft:0.000000,0.000000,0.000000,0.000000 HandTipRight:0.000000,0.000000,0.000000,0.000000 Head:0.000000,0.000000,0.000000,0.000000 HipLeft:0.151814,-0.678101,0.698299,-0.171785 HipRight:-0.110451,0.681079,0.707438,-0.153181 KneeLeft:-0.031869,0.728311,-0.072768,-0.680627 KneeRight:-0.023633,0.684789,0.035615,0.727487 Neck:0.094385,-0.027623,0.993113,-0.063682 ShoulderLeft:-0.053223,0.786816,-0.603291,0.118860 ShoulderRight:0.067829,0.784274,0.615930,0.030734 SpineBase:0.030765,-0.019993,0.998948,-0.027497 SpineMid:0.062119,-0.020847,0.997490,-0.026855 SpineShoulder:0.094266,-0.024240,0.994302,-0.043479 ThumbLeft:0.000000,0.000000,0.000000,0.000000 ThumbRight:0.000000,0.000000,0.000000,0.000000 WristLeft:-0.537495,0.780295,-0.275554,0.162199 WristRight:-0.044266,0.724881,0.120170,-0.676866 END:
KINECT_DATA POSITION:6.248501,1.067662,-14.801825 HEAD_JOINT1:0.981370,0.142919,-0.000000,0.128399 LARM_JOINT2:0.873827,0.000000,-0.463794,-0.146023 LARM_JOINT3:0.986055,0.000000,-0.166151,0.009438 LLEG_JOINT2:0.996760,0.031224,0.000000,0.074123 LLEG_JOINT4:0.993796,0.099507,0.000000,-0.049670 RARM_JOINT2:0.794241,0.000000,-0.091895,0.600613 RARM_JOINT3:0.961041,0.000000,0.240063,0.137007 RLEG_JOINT2:0.999178,0.006443,0.000000,-0.040028 RLEG_JOINT4:0.993920,0.107439,0.000000,0.024067 WAIST:0.999571,0.000000,-0.029247,-0.001728 WAIST_JOINT0:0.996583,0.000000,-0.082597,-0.000613 WAIST_JOINT1:0.998578,0.048921,0.000000,-0.021159 END:
KINECT_DATA_Sensor  AnkleLeft:0.071957,0.708633,-0.110782,-0.693101 AnkleRight:0.069508,0.668323,0.091653,0.734924 ElbowLeft:-0.526217,0.815506,-0.211283,-0.115783 ElbowRight:0.020095,0.798295,0.196075,0.569101 FootLeft:0.000000,0.000000,0.000000,0.000000 FootRight:0.000000,0.000000,0.000000,0.000000 HandLeft:-0.607713,0.687733,-0.279703,0.281912 HandRight:-0.123029,0.712481,0.143193,-0.675818 HandTipLeft:0.000000,0.000000,0.000000,0.000000 HandTipRight:0.000000,0.000000,0.000000,0.000000 Head:0.000000,0.000000,0.000000,0.000000 HipLeft:0.150344,-0.679410,0.697803,-0.169912 HipRight:-0.112075,0.680336,0.707901,-0.153159 KneeLeft:-0.031098,0.726987,-0.072434,-0.682112 KneeRight:-0.023963,0.686229,0.034786,0.726158 Neck:0.082474,-0.026266,0.994206,-0.063732 ShoulderLeft:-0.048478,0.786633,-0.605297,0.111690 ShoulderRight:0.057574,0.783807,0.618046,0.018728 SpineBase:0.028781,-0.019591,0.999039,-0.026610 SpineMid:0.055205,-0.020289,0.997928,-0.026083 SpineShoulder:0.082322,-0.023334,0.995390,-0.043334 ThumbLeft:0.000000,0.000000,0.000000,0.000000 ThumbRight:0.000000,0.000000,0.000000,0.000000 WristLeft:-0.459245,0.799800,-0.300447,0.243201 WristRight:-0.043891,0.724541,0.120259,-0.677238 END:
KINECT_DATA POSITION:5.954740,1.054320,-15.009367 HEAD_JOINT1:0.981826,0.143907,-0.000000,0.123730 LARM_JOINT2:0.888597,0.000000,-0.434775,-0.146169 LARM_JOINT3:0.990583,0.000000,-0.100027,0.093484 LLEG_JOINT2:0.996587,0.032352,0.000000,0.075942 LLEG_JOINT4:0.994108,0.095702,0.000000,-0.050886 RARM_JOINT2:0.790957,0.000000,-0.087281,0.605614 RARM_JOINT3:0.966595,0.000000,0.220072,0.131385 RLEG_JOINT2:0.999286,0.002524,0.000000,-0.037710 RLEG_JOINT4:0.993428,0.112763,0.000000,0.019627 WAIST:0.999379,0.000000,-0.035222,-0.000999 WAIST_JOINT0:0.994243,0.000000,-0.107019,-0.005321 WAIST_JOINT1:0.998515,0.049571,0.000000,-0.022602 END:
KINECT_DATA_Sensor  AnkleLeft:0.069493,0.719158,-0.109525,-0.682632 AnkleRight:0.080706,0.746862,0.084268,0.654662 ElbowLeft:0.564080,-0.666120,-0.029049,0.487087 ElbowRight:0.019836,0.792538,0.190329,0.579021 FootLeft:0.000000,0.000000,0.000000,0.000000 FootRight:0.000000,0.000000,0.000000,0.000000 HandLeft:-0.597736,0.748127,-0.288112,-0.002861 HandRight:-0.085318,0.752321,0.084800,-0.647721 HandTipLeft:0.000000,0.000000,0.000000,0.000000 HandTipRight:0.000000,0.000000,0.000000,0.000000 Head:0.000000,0.000000,0.000000,0.000000 HipLeft:0.153724,-0.678047,0.697520,-0.173457 HipRight:-0.108255,0.681358,0.708086,-0.150486 KneeLeft:-0.032593,0.730997,-0.074827,-0.677482 KneeRight:-0.024538,0.682021,0.030041,0.730303 Neck:0.108374,-0.027973,0.991652,-0.064029 ShoulderLeft:-0.071639,0.790555,-0.592561,0.136978 ShoulderRight:0.067337,0.780619,0.620462,0.033570 SpineBase:0.034690,-0.019858,0.998830,-0.027205 SpineMid:0.071003,-0.020835,0.996907,-0.026465 SpineShoulder:0.108265,-0.024664,0.992858,-0.043624 ThumbLeft:0.000000,0.000000,0.000000,0.000000 ThumbRight:0.000000,0.000000,0.000000,0.000000 WristLeft:-0.589258,0.769081,-0.245985,0.027945 WristRight:-0.045826,0.757248,0.117671,-0.640804 END:
KINECT_DATA POSITION:5.738236,1.162890,-15.162253 HEAD_JOINT1:0.982043,0.140517,-0.000000,0.125883 LARM_JOINT2:0.910898,0.000000,-0.394054,-0.122418 LARM_JOINT3:0.991846,0.000000,-0.078486,0.100404 LLEG_JOINT2:0.996359,0.034022,0.000000,0.078174 LLEG_JOINT4:0.994239,0.093782,0.000000,-0.051894 RARM_JOINT2:0.791608,0.000000,-0.087690,0.604705 RARM_JOINT3:0.965373,0.000000,0.227491,0.127683 RLEG_JOINT2:0.999342,-0.000204,-0.000000,-0.036259 RLEG_JOINT4:0.993338,0.113207,0.000000,0.021541 WAIST:0.999088,0.000000,-0.042612,-0.002541 WAIST_JOINT0:0.993196,0.000000,-0.116290,-0.006224 WAIST_JOINT1:0.998365,0.053072,0.000000,-0.021216 END:
KINECT_DATA_Sensor  AnkleLeft:0.068943,0.725895,-0.109428,-0.675536 AnkleRight:0.080778,0.744222,0.080565,0.658117 ElbowLeft:0.578182,-0.606468,-0.036738,0.544566 ElbowRight:0.022932,0.785237,0.193283,0.587808 FootLeft:0.000000,0.000000,0.000000,0.000000 FootRight:0.000000,0.000000,0.000000,0.000000 HandLeft:-0.554188,0.731378,-0.396439,0.028248 HandRight:0.043540,-0.395277,-0.148743,0.905393 HandTipLeft:0.000000,0.000000,0.000000,0.000000 HandTipRight:0.000000,0.000000,0.000000,0.000000 Head:0.000000,0.000000,0.000000,0.000000 HipLeft:0.156040,-0.677603,0.696034,-0.179006 HipRight:-0.101922,0.680764,0.710165,-0.147776 KneeLeft:-0.032562,0.736051,-0.076236,-0.671831 KneeRight:-0.026436,0.676661,0.028395,0.735272 Neck:0.116771,-0.027968,0.990387,-0.068677 ShoulderLeft:-0.070617,0.784490,-0.599414,0.142446 ShoulderRight:0.079760,0.776339,0.623912,0.040866 SpineBase:0.042082,-0.020554,0.998453,-0.029960 SpineMid:0.078913,-0.021646,0.996219,-0.029181 SpineShoulder:0.116688,-0.024599,0.991757,-0.046865 ThumbLeft:0.000000,0.000000,0.000000,0.000000 ThumbRight:0.000000,0.000000,0.000000,0.000000 WristLeft:-0.549218,0.755594,-0.351811,0.060551 WristRight:-0.018465,-0.404520,-0.121086,0.906289 END:
KINECT_DATA POSITION:5.694021,1.177001,-15.194094 HEAD_JOINT1:0.982239,0.139449,-0.000000,0.125544 LARM_JOINT2:0.917753,0.000000,-0.380395,-0.114145 LARM_JOINT3:0.990587,0.000000,-0.097036,0.096548 LLEG_JOINT2:0.996324,0.034003,0.000000,0.078628 LLEG_JOINT4:0.994385,0.093573,0.000000,-0.049412 RARM_JOINT2:0.794588,0.000000,-0.092968,0.599990 RARM_JOINT3:0.962644,0.000000,0.236474,0.131897 RLEG_JOINT2:0.999341,-0.002528,-0.000000,-0.036210 RLEG_JOINT4:0.993399,0.112700,0.000000,0.021402 WAIST:0.999082,0.000000,-0.042756,-0.002766 WAIST_JOINT0:0.993560,0.000000,-0.113062,-0.007392 WAIST_JOINT1:0.998288,0.054445,0.000000,-0.021392 END:
KINECT_DATA_Sensor  AnkleLeft:0.068340,0.735524,-0.110149,-0.664982 AnkleRight:0.077073,0.733969,0.080353,0.669995 ElbowLeft:0.584476,-0.621048,0.001209,0.522193 ElbowRight:0.025364,0.784800,0.200825,0.585761 FootLeft:0.000000,0.000000,0.000000,0.000000 FootRight:0.000000,0.000000,0.000000,0.000000 HandLeft:-0.551645,0.727203,-0.404574,0.056423 HandRight:0.107026,-0.664919,-0.149879,0.723854 HandTipLeft:0.000000,0.000000,0.000000,0.000000 HandTipRight:0.000000,0.000000,0.000000,0.000000 Head:0.000000,0.000000,0.000000,0.000000 HipLeft:0.155822,-0.677569,0.695899,-0.179845 HipRight:-0.101566,0.680457,0.710326,-0.148659 KneeLeft:-0.032764,0.736126,-0.076366,-0.671724 KneeRight:-0.028271,0.676583,0.026954,0.735329 Neck:0.113773,-0.028280,0.990628,-0.070080 ShoulderLeft:-0.071667,0.784477,-0.598964,0.143879 ShoulderRight:0.075182,0.776357,0.624843,0.034465 SpineBase:0.042216,-0.020771,0.998416,-0.030866 SpineMid:0.077491,-0.021850,0.996299,-0.030113 SpineShoulder:0.113692,-0.024849,0.992030,-0.048307 ThumbLeft:0.000000,0.000000,0.000000,0.000000 ThumbRight:0.000000,0.000000,0.000000,0.000000 WristLeft:-0.540475,0.751863,-0.369101,0.079707 WristRight:0.018432,-0.675483,-0.120885,0.727166 END:
KINECT_DATA POSITION:5.709268,1.168027,-15.196824 HEAD_JOINT1:0.982063,0.140402,-0.000000,0.125851 LARM_JOINT2:0.919980,0.000000,-0.376235,-0.109924 LARM_JOINT3:0.988222,0.000000,-0.117629,0.097881 LLEG_JOINT2:0.996324,0.034528,0.000000,0.078404 LLEG_JOINT4:0.994653,0.090701,0.000000,-0.049373 RARM_JOINT2:0.796589,0.000000,-0.096319,0.596799 RARM_JOINT3:0.960472,0.000000,0.238651,0.143317 RLEG_JOINT2:0.999358,-0.002304,-0.000000,-0.035746 RLEG_JOINT4:0.993458,0.112530,0.000000,0.019466 WAIST:0.999079,0.000000,-0.042837,-0.002582 WAIST_JOINT0:0.993833,0.000000,-0.110591,-0.008137 WAIST_JOINT1:0.998196,0.055933,0.000000,-0.021815 END:
KINECT_DATA_Sensor  AnkleLeft:0.066741,0.736064,-0.108466,-0.664823 AnkleRight:0.066551,0.652623,0.089602,0.749417 ElbowLeft:0.586479,-0.626535,0.015019,0.513099 ElbowRight:0.027556,0.784996,0.206080,0.583570 FootLeft:0.000000,0.000000,0.000000,0.000000 FootRight:0.000000,0.000000,0.000000,0.000000 HandLeft:-0.588604,0.721154,-0.361161,0.055180 HandRight:0.084401,-0.457765,-0.154761,0.871422 HandTipLeft:0.000000,0.000000,0.000000,0.000000 HandTipRight:0.000000,0.000000,0.000000,0.000000 Head:0.000000,0.000000,0.000000,0.000000 HipLeft:0.155232,-0.677320,0.696109,-0.180477 HipRight:-0.100992,0.680497,0.710250,-0.149228 KneeLeft:-0.032377,0.736179,-0.076727,-0.671644 KneeRight:-0.027660,0.676569,0.026636,0.735377 Neck:0.111530,-0.028474,0.990772,-0.071563 ShoulderLeft:-0.072998,0.784160,-0.598736,0.145874 ShoulderRight:0.071320,0.776277,0.625688,0.028682 SpineBase:0.042273,-0.020592,0.998388,-0.031787 SpineMid:0.076417,-0.021668,0.996356,-0.031064 SpineShoulder:0.111456,-0.024986,0.992202,-0.049878 ThumbLeft:0.000000,0.000000,0.000000,0.000000 ThumbRight:0.000000,0.000000,0.000000,0.000000 WristLeft:-0.556529,0.752400,-0.348370,0.052991 WristRight:-0.012691,-0.470848,-0.122220,0.873615 END:
KINECT_DATA POSITION:5.696101,1.166216,-15.203751 HEAD_JOINT1:0.981813,0.142281,-0.000000,0.125694 LARM_JOINT2:0.922377,0.000000,-0.372669,-0.101680 LARM_JOINT3:0.986260,0.000000,-0.130024,0.101906 LLEG_JOINT2:0.996238,0.034717,0.000000,0.079397 LLEG_JOINT4:0.994590,0.090768,0.000000,-0.050510 RARM_JOINT2:0.794032,0.000000,-0.088635,0.601379 RARM_JOINT3:0.964640,0.000000,0.225187,0.136965 RLEG_JOINT2:0.999362,-0.003429,-0.000000,-0.035546 RLEG_JOINT4:0.993315,0.113615,0.000000,0.020404 WAIST:0.999052,0.000000,-0.043461,-0.002688 WAIST_JOINT0:0.992733,0.000000,-0.119894,-0.010355 WAIST_JOINT1:0.998131,0.057076,0.000000,-0.021824 END:
KINECT_DATA_Sensor  AnkleLeft:0.066955,0.735980,-0.108549,-0.664882 AnkleRight:0.076422,0.728761,0.081063,0.675644 ElbowLeft:0.591279,-0.634212,0.032857,0.497076 ElbowRight:0.025675,0.786664,0.199712,0.583623 FootLeft:0.000000,0.000000,0.000000,0.000000 FootRight:0.000000,0.000000,0.000000,0.000000 HandLeft:-0.593828,0.712017,-0.368790,0.066290 HandRight:-0.101466,0.732190,0.090531,-0.667388 HandTipLeft:0.000000,0.000000,0.000000,0.000000 HandTipRight:0.000000,0.000000,0.000000,0.000000 Head:0.000000,0.000000,0.000000,0.000000 HipLeft:0.155103,-0.677046,0.696087,-0.181700 HipRight:-0.100340,0.680300,0.710438,-0.149671 KneeLeft:-0.032953,0.736557,-0.077444,-0.671118 KneeRight:-0.028413,0.676128,0.025821,0.735784 Neck:0.121241,-0.029319,0.989551,-0.072320 ShoulderLeft:-0.077853,0.784092,-0.596279,0.153588 ShoulderRight:0.079064,0.773238,0.628152,0.035743 SpineBase:0.042892,-0.020325,0.998335,-0.032772 SpineMid:0.081567,-0.021581,0.995922,-0.031959 SpineShoulder:0.121204,-0.025538,0.990996,-0.050835 ThumbLeft:0.000000,0.000000,0.000000,0.000000 ThumbRight:0.000000,0.000000,0.000000,0.000000 WristLeft:-0.562463,0.744991,-0.352056,0.068408 WristRight:-0.030672,0.741474,0.117057,-0.659979 END:
KINECT_DATA POSITION:5.657865,1.155994,-15.196991 HEAD_JOINT1:0.981278,0.146659,-0.000000,0.124842 LARM_JOINT2:0.923173,0.000000,-0.372206,-0.095992 LARM_JOINT3:0.986725,0.000000,-0.131740,0.094962 LLEG_JOINT2:0.996214,0.034597,0.000000,0.079750 LLEG_JOINT4:0.994552,0.090600,0.000000,-0.051559 RARM_JOINT2:0.793164,0.000000,-0.085719,0.602945 RARM_JOINT3:0.965769,0.000000,0.220181,0.137155 RLEG_JOINT2:0.999365,-0.002856,-0.000000,-0.035526 RLEG_JOINT4:0.993426,0.112694,0.000000,0.020115 WAIST:0.999010,0.000000,-0.044417,-0.002374 WAIST_JOINT0:0.992016,0.000000,-0.125573,-0.011616 WAIST_JOINT1:0.998032,0.058596,0.000000,-0.022322 END:
KINECT_DATA_Sensor  AnkleLeft:0.072599,0.770908,-0.104428,-0.624120 AnkleRight:0.066255,0.643826,0.089139,0.757069 ElbowLeft:0.594141,-0.638002,0.040212,0.488193 ElbowRight:0.026420,0.788419,0.198051,0.581785 FootLeft:0.000000,0.000000,0.000000,0.000000 FootRight:0.000000,0.000000,0.000000,0.000000 HandLeft:-0.582295,0.721260,-0.367749,0.074015 HandRight:0.075627,-0.540478,-0.101467,0.831786 HandTipLeft:0.000000,0.000000,0.000000,0.000000 HandTipRight:0.000000,0.000000,0.000000,0.000000 Head:0.000000,0.000000,0.000000,0.000000 HipLeft:0.155307,-0.676366,0.696272,-0.183342 HipRight:-0.099439,0.680332,0.710401,-0.150302 KneeLeft:-0.033594,0.737125,-0.077781,-0.670424 KneeRight:-0.027731,0.675475,0.025998,0.736402 Neck:0.127017,-0.029944,0.988704,-0.073714 ShoulderLeft:-0.080440,0.783973,-0.594691,0.158929 ShoulderRight:0.083972,0.771963,0.628868,0.039324 SpineBase:0.043809,-0.020133,0.998258,-0.033993 SpineMid:0.084909,-0.021517,0.995605,-0.033134 SpineShoulder:0.127007,-0.025953,0.990184,-0.052260 ThumbLeft:0.000000,0.000000,0.000000,0.000000 ThumbRight:0.000000,0.000000,0.000000,0.000000 WristLeft:-0.562446,0.742611,-0.355399,0.076648 WristRight:-0.001261,-0.544331,-0.117869,0.830548 END:
KINECT_DATA POSITION:5.605454,1.147681,-15.173758 HEAD_JOINT1:0.981327,0.147712,-0.000000,0.123203 LARM_JOINT2:0.923241,0.000000,-0.372542,-0.094012 LARM_JOINT3:0.987426,0.000000,-0.128777,0.091687 LLEG_JOINT2:0.996148,0.034762,0.000000,0.080501 LLEG_JOINT4:0.994338,0.091838,0.000000,-0.053458 RARM_JOINT2:0.794777,0.000000,-0.090903,0.600055 RARM_JOINT3:0.964160,0.000000,0.223774,0.142550 RLEG_JOINT2:0.999361,-0.003278,-0.000000,-0.035598 RLEG_JOINT4:0.993185,0.114819,0.000000,0.020027 WAIST:0.998967,0.000000,-0.045380,-0.002381 WAIST_JOINT0:0.992205,0.000000,-0.124102,-0.011301 WAIST_JOINT1:0.997969,0.059528,0.000000,-0.022659 END:
KINECT_DATA_Sensor  AnkleLeft:0.067709,0.731310,-0.108994,-0.669867 AnkleRight:0.067644,0.644522,0.090231,0.756224 ElbowLeft:0.594737,-0.640540,0.042615,0.483922 ElbowRight:0.030953,0.791178,0.203090,0.576051 FootLeft:0.000000,0.000000,0.000000,0.000000 FootRight:0.000000,0.000000,0.000000,0.000000 HandLeft:-0.563929,0.724305,-0.386078,0.091165 HandRight:0.081112,-0.572099,-0.109393,0.808800 HandTipLeft:0.000000,0.000000,0.000000,0.000000 HandTipRight:0.000000,0.000000,0.000000,0.000000 Head:0.000000,0.000000,0.000000,0.000000 HipLeft:0.155428,-0.675945,0.696234,-0.184927 HipRight:-0.098486,0.680211,0.710541,-0.150814 KneeLeft:-0.034107,0.737725,-0.078372,-0.669669 KneeRight:-0.028072,0.674795,0.025798,0.737020 Neck:0.125388,-0.030125,0.988838,-0.074626 ShoulderLeft:-0.080383,0.783472,-0.595221,0.159442 ShoulderRight:0.082092,0.772886,0.628162,0.036355 SpineBase:0.044751,-0.020016,0.998178,-0.035176 SpineMid:0.084589,-0.021405,0.995594,-0.034348 SpineShoulder:0.125381,-0.026120,0.990331,-0.053303 ThumbLeft:0.000000,0.000000,0.000000,0.000000 ThumbRight:0.000000,0.000000,0.000000,0.000000 WristLeft:-0.552407,0.740118,-0.370332,0.099628 WristRight:0.002521,-0.577159,-0.113837,0.808654 END:
KINECT_DATA POSITION:5.578288,1.135677,-15.161240 HEAD_JOINT1:0.981274,0.149158,-0.000000,0.121874 LARM_JOINT2:0.923474,0.000000,-0.372128,-0.093362 LARM_JOINT3:0.987968,0.000000,-0.126537,0.088928 LLEG_JOINT2:0.996153,0.034310,0.000000,0.080631 LLEG_JOINT4:0.994245,0.093158,0.000000,-0.052893 RARM_JOINT2:0.794664,0.000000,-0.091636,0.600094 RARM_JOINT3:0.964944,0.000000,0.220041,0.143056 RLEG_JOINT2:0.999373,-0.002825,-0.000000,-0.035293 RLEG_JOINT4:0.993128,0.115003,0.000000,0.021686 WAIST:0.998939,0.000000,-0.046001,-0.002325 WAIST_JOINT0:0.992162,0.000000,-0.124404,-0.011762 WAIST_JOINT1:0.997941,0.059936,0.000000,-0.022845 END:
KINECT_DATA_Sensor  AnkleLeft:0.069080,0.740036,-0.109301,-0.660021 AnkleRight:0.069552,0.643966,0.089189,0.756648 ElbowLeft:0.594884,-0.640947,0.043199,0.483149 ElbowRight:0.032352,0.791880,0.203467,0.574874 FootLeft:0.000000,0.000000,0.000000,0.000000 FootRight:0.000000,0.000000,0.000000,0.000000 HandLeft:-0.577176,0.732217,-0.357690,0.052763 HandRight:0.084527,-0.686656,-0.087136,0.716775 HandTipLeft:0.000000,0.000000,0.000000,0.000000 HandTipRight:0.000000,0.000000,0.000000,0.000000 Head:0.000000,0.000000,0.000000,0.000000 HipLeft:0.155463,-0.675704,0.696268,-0.185653 HipRight:-0.097759,0.680218,0.710620,-0.150884 KneeLeft:-0.034603,0.738091,-0.078141,-0.669267 KneeRight:-0.027476,0.674369,0.025855,0.737430 Neck:0.125745,-0.030192,0.988760,-0.075033 ShoulderLeft:-0.080812,0.782940,-0.595625,0.160328 ShoulderRight:0.082288,0.772177,0.629037,0.035828 SpineBase:0.045354,-0.020033,0.998129,-0.035775 SpineMid:0.085077,-0.021443,0.995530,-0.034948 SpineShoulder:0.125737,-0.026222,0.990260,-0.053738 ThumbLeft:0.000000,0.000000,0.000000,0.000000 ThumbRight:0.000000,0.000000,0.000000,0.000000 WristLeft:-0.569401,0.744725,-0.342512,0.062075 WristRight:0.018676,-0.688847,-0.110613,0.716174 END:
KINECT_DATA POSITION:5.566748,1.129879,-15.155482 HEAD_JOINT1:0.981080,0.151127,-0.000000,0.121004 LARM_JOINT2:0.923799,0.000000,-0.371336,-0.093299 LARM_JOINT3:0.988255,0.000000,-0.124100,0.089169 LLEG_JOINT2:0.996130,0.035713,0.000000,0.080308 LLEG_JOINT4:0.994222,0.092576,0.000000,-0.054335 RARM_JOINT2:0.793777,0.000000,-0.090112,0.601497 RARM_JOINT3:0.965279,0.000000,0.220950,0.139347 RLEG_JOINT2:0.999365,-0.003338,-0.000000,-0.035466 RLEG_JOINT4:0.993253,0.113937,0.000000,0.021608 WAIST:0.998909,0.000000,-0.046661,-0.002077 WAIST_JOINT0:0.991964,0.000000,-0.125977,-0.011693 WAIST_JOINT1:0.997925,0.060193,0.000000,-0.022877 END:
KINECT_DATA_Sensor  AnkleLeft:0.068897,0.729597,-0.110031,-0.671442 AnkleRight:0.068424,0.643146,0.088106,0.757574 ElbowLeft:0.594826,-0.641660,0.044499,0.482157 ElbowRight:0.032387,0.791659,0.201488,0.575874 FootLeft:0.000000,0.000000,0.000000,0.000000 FootRight:0.000000,0.000000,0.000000,0.000000 HandLeft:-0.585745,0.732780,-0.345200,0.027791 HandRight:0.062185,-0.518534,-0.111384,0.845487 HandTipLeft:0.000000,0.000000,0.000000,0.000000 HandTipRight:0.000000,0.000000,0.000000,0.000000 Head:0.000000,0.000000,0.000000,0.000000 HipLeft:0.155633,-0.675353,0.696390,-0.186326 HipRight:-0.097238,0.680371,0.710542,-0.150898 KneeLeft:-0.033633,0.738592,-0.079114,-0.668649 KneeRight:-0.027780,0.673905,0.025481,0.737856 Neck:0.127341,-0.029961,0.988544,-0.075279 ShoulderLeft:-0.080820,0.782469,-0.596012,0.161182 ShoulderRight:0.084345,0.771602,0.629377,0.037420 SpineBase:0.045990,-0.019894,0.998088,-0.036200 SpineMid:0.086195,-0.021337,0.995422,-0.035369 SpineShoulder:0.127337,-0.026049,0.990045,-0.054010 ThumbLeft:0.000000,0.000000,0.000000,0.000000 ThumbRight:0.000000,0.000000,0.000000,0.000000 WristLeft:-0.578175,0.746804,-0.326148,0.040301 WristRight:-0.004134,-0.523512,-0.111669,0.844659 END:
KINECT_DATA POSITION:5.548097,1.128390,-15.150142 HEAD_JOINT1:0.980811,0.152263,-0.000000,0.121761 LARM_JOINT2:0.924346,0.000000,-0.370275,-0.092089 LARM_JOINT3:0.990411,0.000000,-0.113449,0.078834 LLEG_JOINT2:0.996160,0.035574,0.000000,0.079998 LLEG_JOINT4:0.994198,0.092947,0.000000,-0.054146 RARM_JOINT2:0.794238,0.000000,-0.092210,0.600569 RARM_JOINT3:0.964968,0.000000,0.219103,0.144327 RLEG_JOINT2:0.999344,-0.003811,-0.000000,-0.036025 RLEG_JOINT4:0.993300,0.113606,0.000000,0.021169 WAIST:0.998872,0.000000,-0.047446,-0.001676 WAIST_JOINT0:0.992050,0.000000,-0.125310,-0.011548 WAIST_JOINT1:0.997883,0.060719,0.000000,-0.023290 END:
KINECT_DATA_Sensor  AnkleLeft:0.068283,0.727075,-0.110757,-0.674116 AnkleRight:0.067641,0.643702,0.087838,0.757203 ElbowLeft:0.594908,-0.646041,0.051157,0.475498 ElbowRight:0.034765,0.792848,0.203174,0.573502 FootLeft:0.000000,0.000000,0.000000,0.000000 FootRight:0.000000,0.000000,0.000000,0.000000 HandLeft:0.296858,0.045861,-0.602380,0.739534 HandRight:0.076935,-0.574029,-0.096670,0.809461 HandTipLeft:0.000000,0.000000,0.000000,0.000000 HandTipRight:0.000000,0.000000,0.000000,0.000000 Head:0.000000,0.000000,0.000000,0.000000 HipLeft:0.155642,-0.674871,0.696640,-0.187129 HipRight:-0.096313,0.680638,0.710411,-0.150905 KneeLeft:-0.033847,0.739069,-0.079055,-0.668118 KneeRight:-0.028204,0.673359,0.025315,0.738343 Neck:0.126576,-0.029845,0.988600,-0.075877 ShoulderLeft:-0.079941,0.782499,-0.596137,0.161017 ShoulderRight:0.084225,0.772044,0.628906,0.036491 SpineBase:0.046734,-0.019775,0.998030,-0.036893 SpineMid:0.086197,-0.021220,0.995398,-0.036082 SpineShoulder:0.126576,-0.025945,0.990112,-0.054618 ThumbLeft:0.000000,0.000000,0.000000,0.000000 ThumbRight:0.000000,0.000000,0.000000,0.000000 WristLeft:0.277161,0.033133,-0.595339,0.753429 WristRight:0.002381,-0.577675,-0.109050,0.808946 END:
KINECT_DATA POSITION:5.520242,1.127046,-15.142738 HEAD_JOINT1:0.980733,0.153418,-0.000000,0.120937 LARM_JOINT2:0.924842,0.000000,-0.369168,-0.091557 LARM_JOINT3:0.991297,0.000000,-0.111148,0.070542 LLEG_JOINT2:0.996124,0.036296,0.000000,0.080118 LLEG_JOINT4:0.994294,0.092494,0.000000,-0.053148 RARM_JOINT2:0.792951,0.000000,-0.088470,0.602828 RARM_JOINT3:0.965145,0.000000,0.217597,0.145422 RLEG_JOINT2:0.999338,-0.004808,-0.000000,-0.036060 RLEG_JOINT4:0.993310,0.113541,0.000000,0.021071 WAIST:0.998854,0.000000,-0.047832,-0.001696 WAIST_JOINT0:0.991714,0.000000,-0.127900,-0.012001 WAIST_JOINT1:0.997845,0.061321,0.000000,-0.023352 END:
KINECT_DATA_Sensor  AnkleLeft:0.067193,0.724840,-0.111969,-0.676428 AnkleRight:0.066669,0.642311,0.087293,0.758533 ElbowLeft:0.594027,-0.652819,0.060917,0.466099 ElbowRight:0.033877,0.793638,0.200086,0.573547 FootLeft:0.000000,0.000000,0.000000,0.000000 FootRight:0.000000,0.000000,0.000000,0.000000 HandLeft:0.310697,0.021658,-0.586905,0.747356 HandRight:0.087053,-0.554701,-0.092217,0.822329 HandTipLeft:0.000000,0.000000,0.000000,0.000000 HandTipRight:0.000000,0.000000,0.000000,0.000000 Head:0.000000,0.000000,0.000000,0.000000 HipLeft:0.155543,-0.674719,0.696644,-0.187745 HipRight:-0.095859,0.680572,0.710488,-0.151129 KneeLeft:-0.033461,0.739350,-0.079645,-0.667756 KneeRight:-0.028971,0.673087,0.024698,0.738583 Neck:0.129082,-0.030127,0.988223,-0.076456 ShoulderLeft:-0.078228,0.782094,-0.596826,0.161270 ShoulderRight:0.089129,0.770519,0.629878,0.040120 SpineBase:0.047111,-0.019711,0.997993,-0.037448 SpineMid:0.087649,-0.021217,0.995252,-0.036616 SpineShoulder:0.129094,-0.026130,0.989752,-0.055157 ThumbLeft:0.000000,0.000000,0.000000,0.000000 ThumbRight:0.000000,0.000000,0.000000,0.000000 WristLeft:0.296244,0.013479,-0.579465,0.759130 WristRight:0.001230,-0.558340,-0.108753,0.822452 END:
KINECT_DATA POSITION:5.479359,1.129381,-15.177834 HEAD_JOINT1:0.980982,0.152682,-0.000000,0.119848 LARM_JOINT2:0.925004,0.000000,-0.368932,-0.090873 LARM_JOINT3:0.991571,0.000000,-0.109343,0.069512 LLEG_JOINT2:0.996105,0.035726,0.000000,0.080609 LLEG_JOINT4:0.994199,0.092723,0.000000,-0.054513 RARM_JOINT2:0.792938,0.000000,-0.087790,0.602944 RARM_JOINT3:0.964920,0.000000,0.215672,0.149720 RLEG_JOINT2:0.999326,-0.005035,-0.000000,-0.036355 RLEG_JOINT4:0.992840,0.117303,0.000000,0.022535 WAIST:0.998850,0.000000,-0.047921,-0.001261 WAIST_JOINT0:0.991626,0.000000,-0.128556,-0.012284 WAIST_JOINT1:0.997798,0.061870,0.000000,-0.023893 END:
KINECT_DATA_Sensor  AnkleLeft:0.066603,0.720634,-0.111848,-0.680985 AnkleRight:0.081014,0.732785,0.078971,0.670989 ElbowLeft:0.594065,-0.653200,0.061921,0.465383 ElbowRight:0.034515,0.795496,0.200045,0.570944 FootLeft:0.000000,0.000000,0.000000,0.000000 FootRight:0.000000,0.000000,0.000000,0.000000 HandLeft:0.286061,0.056388,-0.598633,0.746075 HandRight:0.097925,-0.579123,-0.078053,0.805565 HandTipLeft:0.000000,0.000000,0.000000,0.000000 HandTipRight:0.000000,0.000000,0.000000,0.000000 Head:0.000000,0.000000,0.000000,0.000000 HipLeft:0.155284,-0.674347,0.696963,-0.188113 HipRight:-0.095284,0.680739,0.710265,-0.151785 KneeLeft:-0.034528,0.739305,-0.079857,-0.667727 KneeRight:-0.029025,0.673094,0.024461,0.738582 Neck:0.129660,-0.030289,0.988094,-0.077077 ShoulderLeft:-0.076790,0.782032,-0.597150,0.161061 ShoulderRight:0.091284,0.769918,0.630232,0.041241 SpineBase:0.047138,-0.020034,0.997957,-0.038192 SpineMid:0.087947,-0.021580,0.995191,-0.037340 SpineShoulder:0.129673,-0.026280,0.989643,-0.055690 ThumbLeft:0.000000,0.000000,0.000000,0.000000 ThumbRight:0.000000,0.000000,0.000000,0.000000 WristLeft:0.271196,0.048160,-0.590662,0.758454 WristRight:0.005380,-0.581287,-0.107586,0.806537 END:
KINECT_DATA POSITION:5.451977,1.126789,-15.213358 HEAD_JOINT1:0.981085,0.152307,-0.000000,0.119477 LARM_JOINT2:0.924672,0.000000,-0.369823,-0.090621 LARM_JOINT3:0.991584,0.000000,-0.109655,0.068824 LLEG_JOINT2:0.996086,0.035587,0.000000,0.080907 LLEG_JOINT4:0.994242,0.091215,0.000000,-0.056233 RARM_JOINT2:0.795777,0.000000,-0.094287,0.598204 RARM_JOINT3:0.963092,0.000000,0.218080,0.157779 RLEG_JOINT2:0.999346,-0.004278,-0.000000,-0.035892 RLEG_JOINT4:0.993197,0.114553,0.000000,0.020899 WAIST:0.998862,0.000000,-0.047680,-0.001078 WAIST_JOINT0:0.992096,0.000000,-0.124924,-0.011771 WAIST_JOINT1:0.997775,0.062128,0.000000,-0.024183 END:
KINECT_DATA_Sensor  AnkleLeft:0.067318,0.725941,-0.109272,-0.675676 AnkleRight:0.068384,0.643835,0.087821,0.757025 ElbowLeft:0.593893,-0.654866,0.063191,0.463087 ElbowRight:0.037836,0.796812,0.206928,0.566427 FootLeft:0.000000,0.000000,0.000000,0.000000 FootRight:0.000000,0.000000,0.000000,0.000000 HandLeft:0.338020,-0.014499,-0.571079,0.747931 HandRight:0.098756,-0.561506,-0.076852,0.817956 HandTipLeft:0.000000,0.000000,0.000000,0.000000 HandTipRight:0.000000,0.000000,0.000000,0.000000 Head:0.000000,0.000000,0.000000,0.000000 HipLeft:0.154834,-0.674203,0.697188,-0.188165 HipRight:-0.094994,0.680741,0.710192,-0.152301 KneeLeft:-0.034952,0.739095,-0.080092,-0.667909 KneeRight:-0.028029,0.673329,0.024491,0.738405 Neck:0.125920,-0.030034,0.988558,-0.077429 ShoulderLeft:-0.076582,0.782247,-0.597167,0.160050 ShoulderRight:0.086721,0.771725,0.628955,0.036553 SpineBase:0.046863,-0.020234,0.997946,-0.038709 SpineMid:0.085936,-0.021735,0.995343,-0.037886 SpineShoulder:0.125911,-0.026250,0.990109,-0.056042 ThumbLeft:0.000000,0.000000,0.000000,0.000000 ThumbRight:0.000000,0.000000,0.000000,0.000000 WristLeft:0.323887,-0.021843,-0.562307,0.760547 WristRight:0.002323,-0.563599,-0.106782,0.819115 END:
KINECT_DATA POSITION:5.411316,1.115409,-15.208376 HEAD_JOINT1:0.981029,0.153108,-0.000000,0.118908 LARM_JOINT2:0.927135,0.000000,-0.362190,-0.096116 LARM_JOINT3:0.987439,0.000000,-0.135361,0.081494 LLEG_JOINT2:0.996096,0.034849,0.000000,0.081101 LLEG_JOINT4:0.994223,0.092453,0.000000,-0.054529 RARM_JOINT2:0.793865,0.000000,-0.091763,0.601131 RARM_JOINT3:0.962706,0.000000,0.221039,0.156012 RLEG_JOINT2:0.999351,-0.004113,-0.000000,-0.035785 RLEG_JOINT4:0.993240,0.114271,0.000000,0.020410 WAIST:0.998907,0.000000,-0.046735,-0.000845 WAIST_JOINT0:0.991927,0.000000,-0.126274,-0.011647 WAIST_JOINT1:0.997773,0.062032,0.000000,-0.024513 END:
KINECT_DATA_Sensor  AnkleLeft:0.067937,0.735772,-0.109949,-0.664783 AnkleRight:0.067949,0.643123,0.088054,0.757643 ElbowLeft:0.588751,-0.656766,0.072962,0.465518 ElbowRight:0.037288,0.798190,0.203164,0.565885 FootLeft:0.000000,0.000000,0.000000,0.000000 FootRight:0.000000,0.000000,0.000000,0.000000 HandLeft:0.387200,-0.116511,-0.561622,0.721861 HandRight:0.110959,-0.557506,-0.091388,0.817633 HandTipLeft:0.000000,0.000000,0.000000,0.000000 HandTipRight:0.000000,0.000000,0.000000,0.000000 Head:0.000000,0.000000,0.000000,0.000000 HipLeft:0.154528,-0.674227,0.697361,-0.187689 HipRight:-0.095739,0.680770,0.709881,-0.153149 KneeLeft:-0.035687,0.738393,-0.079873,-0.668672 KneeRight:-0.027692,0.674058,0.024333,0.737758 Neck:0.127310,-0.030314,0.988391,-0.077175 ShoulderLeft:-0.075870,0.782353,-0.597181,0.159818 ShoulderRight:0.089130,0.771108,0.629229,0.038992 SpineBase:0.045896,-0.020417,0.997988,-0.038676 SpineMid:0.086136,-0.021961,0.995323,-0.037821 SpineShoulder:0.127296,-0.026552,0.989933,-0.055890 ThumbLeft:0.000000,0.000000,0.000000,0.000000 ThumbRight:0.000000,0.000000,0.000000,0.000000 WristLeft:0.380965,-0.108002,-0.526462,0.752355 WristRight:0.004343,-0.561870,-0.105950,0.820401 END:
KINECT_DATA POSITION:5.359761,1.136854,-15.006399 HEAD_JOINT1:0.978378,0.157695,-0.000000,0.133824 LARM_JOINT2:0.967922,0.000000,-0.105030,-0.228247 LARM_JOINT3:0.843848,0.000000,-0.506480,0.177198 LLEG_JOINT2:0.996276,0.030618,0.000000,0.080598 LLEG_JOINT4:0.993930,0.095980,0.000000,-0.053775 RARM_JOINT2:0.789090,0.000000,-0.091389,0.607442 RARM_JOINT3:0.963437,0.000000,0.222045,0.149950 RLEG_JOINT2:0.999313,0.002058,0.000000,-0.036994 RLEG_JOINT4:0.993584,0.110437,0.000000,0.024392 WAIST:0.999476,0.000000,-0.032372,0.000725 WAIST_JOINT0:0.995097,0.000000,-0.098878,0.002208 WAIST_JOINT1:0.997921,0.061233,0.000000,-0.020082 END:
KINECT_DATA_Sensor  AnkleLeft:0.066679,0.719187,-0.110410,-0.682740 AnkleRight:0.082264,0.746194,0.077522,0.656062 ElbowLeft:0.429450,-0.606145,0.259161,0.617249 ElbowRight:0.036343,0.796890,0.192003,0.571647 FootLeft:0.000000,0.000000,0.000000,0.000000 FootRight:0.000000,0.000000,0.000000,0.000000 HandLeft:-0.333870,0.222130,0.673747,-0.620689 HandRight:0.122225,-0.548031,-0.075470,0.824031 HandTipLeft:0.000000,0.000000,0.000000,0.000000 HandTipRight:0.000000,0.000000,0.000000,0.000000 Head:0.000000,0.000000,0.000000,0.000000 HipLeft:0.147244,-0.675518,0.699296,-0.181606 HipRight:-0.106889,0.680813,0.706356,-0.161645 KneeLeft:-0.038204,0.728380,-0.078052,-0.679640 KneeRight:-0.023245,0.684425,0.027920,0.728177 Neck:0.098145,-0.023417,0.991971,-0.076247 ShoulderLeft:-0.042598,0.776593,-0.615752,0.126249 ShoulderRight:0.084716,0.776512,0.623743,0.028215 SpineBase:0.031604,-0.016875,0.998641,-0.037836 SpineMid:0.064500,-0.018112,0.997057,-0.037260 SpineShoulder:0.098103,-0.020769,0.993410,-0.055506 ThumbLeft:0.000000,0.000000,0.000000,0.000000 ThumbRight:0.000000,0.000000,0.000000,0.000000 WristLeft:0.362431,-0.166765,-0.586289,0.705052 WristRight:0.011612,-0.550971,-0.107772,0.827455 END:
KINECT_DATA POSITION:5.436571,1.183695,-14.828277 HEAD_JOINT1:0.975230,0.170387,-0.000000,0.141047 LARM_JOINT2:0.934459,0.000000,0.010568,-0.355914 LARM_JOINT3:0.821199,0.000000,-0.570514,0.012069 LLEG_JOINT2:0.996805,0.027843,0.000000,0.074865 LLEG_JOINT4:0.994089,0.097166,0.000000,-0.048425 RARM_JOINT2:0.787568,0.000000,-0.080831,0.610904 RARM_JOINT3:0.964713,0.000000,0.219774,0.145015 RLEG_JOINT2:0.999105,0.011237,0.000000,-0.040767 RLEG_JOINT4:0.994326,0.102868,0.000000,0.027093 WAIST:0.999815,0.000000,-0.018612,0.004888 WAIST_JOINT0:0.998197,0.000000,-0.058062,0.015229 WAIST_JOINT1:0.997825,0.063435,0.000000,-0.017905 END:
KINECT_DATA_Sensor  AnkleLeft:0.068925,0.737515,-0.108309,-0.663016 AnkleRight:0.075564,0.681383,0.085871,0.722934 ElbowLeft:-0.231593,0.688157,-0.328843,-0.603877 ElbowRight:0.034771,0.811764,0.181392,0.554010 FootLeft:0.000000,0.000000,0.000000,0.000000 FootRight:0.000000,0.000000,0.000000,0.000000 HandLeft:0.283594,-0.230387,-0.635193,0.680460 HandRight:0.153372,-0.579706,-0.082000,0.796049 HandTipLeft:0.000000,0.000000,0.000000,0.000000 HandTipRight:0.000000,0.000000,0.000000,0.000000 Head:0.000000,0.000000,0.000000,0.000000 HipLeft:0.138095,-0.674345,0.703844,-0.175474 HipRight:-0.115906,0.681741,0.702084,-0.169923 KneeLeft:-0.037910,0.718674,-0.075504,-0.690195 KneeRight:-0.016691,0.694408,0.033725,0.718597 Neck:0.055284,-0.015200,0.995201,-0.079294 ShoulderLeft:0.001747,0.768462,-0.634389,0.083749 ShoulderRight:0.074547,0.781204,0.619794,0.004243 SpineBase:0.017715,-0.012329,0.999020,-0.038647 SpineMid:0.036239,-0.013044,0.998520,-0.038411 SpineShoulder:0.055204,-0.013875,0.996687,-0.058103 ThumbLeft:0.000000,0.000000,0.000000,0.000000 ThumbRight:0.000000,0.000000,0.000000,0.000000 WristLeft:0.286392,-0.195450,-0.417731,0.839809 WristRight:0.021874,-0.584514,-0.097359,0.805224 END:
