EastLYD/RoboCupatHomeSim/InteractiveCleanUp/JapanOpen2016/Motion_Data/File46.dat
KINECT_DATA POSITION:6.569716,0.460364,-14.587820 HEAD_JOINT1:0.981940,0.157793,-0.000000,0.104382 LARM_JOINT2:0.834379,0.000000,0.021287,-0.550780 LARM_JOINT3:0.970922,0.000000,-0.186464,-0.150136 LLEG_JOINT2:0.998652,0.017780,0.000000,0.048764 LLEG_JOINT4:0.995455,0.089277,0.000000,-0.033161 RARM_JOINT2:0.794193,0.000000,-0.056698,0.605015 RARM_JOINT3:0.967230,0.000000,0.217417,0.131135 RLEG_JOINT2:0.999520,0.013867,0.000000,-0.027705 RLEG_JOINT4:0.995411,0.092428,0.000000,0.024798 WAIST:0.999942,0.000000,-0.010315,-0.003242 WAIST_JOINT0:0.999733,0.000000,-0.021952,0.007162 WAIST_JOINT1:0.997817,0.063528,0.000000,-0.018069 END:
KINECT_DATA_Sensor  AnkleLeft:0.069431,0.734759,-0.082113,-0.669750 AnkleRight:0.072495,0.701458,0.077763,0.704737 ElbowLeft:-0.015837,0.875072,-0.195492,-0.442471 ElbowRight:0.009995,0.823655,0.187025,0.535270 FootLeft:0.000000,0.000000,0.000000,0.000000 FootRight:0.000000,0.000000,0.000000,0.000000 HandLeft:-0.065358,0.759695,0.099900,-0.639227 HandRight:-0.122560,0.932468,-0.049911,0.336142 HandTipLeft:0.000000,0.000000,0.000000,0.000000 HandTipRight:0.000000,0.000000,0.000000,0.000000 Head:0.000000,0.000000,0.000000,0.000000 HipLeft:0.130012,-0.680379,0.701566,-0.167292 HipRight:-0.114469,0.674605,0.708958,-0.170835 KneeLeft:-0.020097,0.713660,-0.044539,-0.698786 KneeRight:-0.011734,0.700211,0.031801,0.713131 Neck:0.020654,-0.022423,0.996371,-0.079471 ShoulderLeft:0.011878,0.779223,-0.623007,0.067324 ShoulderRight:0.039716,0.785161,0.617133,-0.033029 SpineBase:0.009788,-0.019118,0.998987,-0.039552 SpineMid:0.014912,-0.019320,0.998923,-0.039454 SpineShoulder:0.020376,-0.020913,0.997869,-0.058349 ThumbLeft:0.000000,0.000000,0.000000,0.000000 ThumbRight:0.000000,0.000000,0.000000,0.000000 WristLeft:-0.109650,0.758581,0.035757,-0.641290 WristRight:-0.122497,0.931710,0.004891,0.341887 END:
KINECT_DATA POSITION:6.555589,0.465859,-14.643097 HEAD_JOINT1:0.982097,0.156351,-0.000000,0.105074 LARM_JOINT2:0.835074,0.000000,0.015255,-0.549926 LARM_JOINT3:0.967614,0.000000,-0.207151,-0.144261 LLEG_JOINT2:0.998686,0.017232,0.000000,0.048273 LLEG_JOINT4:0.995228,0.092089,0.000000,-0.032249 RARM_JOINT2:0.791374,0.000000,-0.049292,0.609342 RARM_JOINT3:0.967084,0.000000,0.220136,0.127625 RLEG_JOINT2:0.999529,0.013305,0.000000,-0.027667 RLEG_JOINT4:0.995148,0.095259,0.000000,0.024607 WAIST:0.999942,0.000000,-0.010294,-0.003035 WAIST_JOINT0:0.999630,0.000000,-0.026542,0.005963 WAIST_JOINT1:0.997824,0.063362,0.000000,-0.018243 END:
KINECT_DATA_Sensor  AnkleLeft:0.068839,0.719977,-0.085607,-0.685248 AnkleRight:0.078092,0.736022,0.075436,0.668193 ElbowLeft:-0.023982,0.868438,-0.193708,-0.455760 ElbowRight:0.006460,0.822483,0.179827,0.539576 FootLeft:0.000000,0.000000,0.000000,0.000000 FootRight:0.000000,0.000000,0.000000,0.000000 HandLeft:-0.120836,0.783446,0.139885,-0.593332 HandRight:-0.138956,0.931385,-0.067183,0.329698 HandTipLeft:0.000000,0.000000,0.000000,0.000000 HandTipRight:0.000000,0.000000,0.000000,0.000000 Head:0.000000,0.000000,0.000000,0.000000 HipLeft:0.130063,-0.680261,0.701674,-0.167280 HipRight:-0.114513,0.674742,0.708800,-0.170916 KneeLeft:-0.020278,0.713616,-0.043949,-0.698863 KneeRight:-0.011964,0.700247,0.031235,0.713116 Neck:0.025297,-0.022763,0.996282,-0.079141 ShoulderLeft:0.011582,0.779311,-0.622775,0.068490 ShoulderRight:0.045341,0.783188,0.619535,-0.027157 SpineBase:0.009752,-0.019111,0.998988,-0.039540 SpineMid:0.017210,-0.019406,0.998887,-0.039396 SpineShoulder:0.025032,-0.021156,0.997772,-0.058106 ThumbLeft:0.000000,0.000000,0.000000,0.000000 ThumbRight:0.000000,0.000000,0.000000,0.000000 WristLeft:-0.122506,0.788232,0.031801,-0.602222 WristRight:-0.125028,0.932518,0.003578,0.338770 END:
KINECT_DATA POSITION:6.484934,0.436828,-14.654982 HEAD_JOINT1:0.982016,0.156366,-0.000000,0.105807 LARM_JOINT2:0.835635,0.000000,0.005268,-0.549260 LARM_JOINT3:0.963742,0.000000,-0.221288,-0.149109 LLEG_JOINT2:0.998653,0.016742,0.000000,0.049107 LLEG_JOINT4:0.995361,0.090707,0.000000,-0.032082 RARM_JOINT2:0.791907,0.000000,-0.053107,0.608327 RARM_JOINT3:0.966789,0.000000,0.221862,0.126874 RLEG_JOINT2:0.999525,0.012910,0.000000,-0.027988 RLEG_JOINT4:0.995310,0.092793,0.000000,0.027356 WAIST:0.999947,0.000000,-0.009815,-0.003044 WAIST_JOINT0:0.999661,0.000000,-0.025412,0.005673 WAIST_JOINT1:0.997862,0.062719,0.000000,-0.018403 END:
KINECT_DATA_Sensor  AnkleLeft:0.068343,0.731794,-0.083782,-0.672895 AnkleRight:0.077864,0.740173,0.071361,0.664070 ElbowLeft:-0.034199,0.863766,-0.189582,-0.465616 ElbowRight:0.007625,0.821650,0.182030,0.540091 FootLeft:0.000000,0.000000,0.000000,0.000000 FootRight:0.000000,0.000000,0.000000,0.000000 HandLeft:0.086806,-0.664615,-0.199834,0.714715 HandRight:-0.135053,0.897066,-0.068486,0.415141 HandTipLeft:0.000000,0.000000,0.000000,0.000000 HandTipRight:0.000000,0.000000,0.000000,0.000000 Head:0.000000,0.000000,0.000000,0.000000 HipLeft:0.130199,-0.680414,0.701662,-0.166597 HipRight:-0.115053,0.674695,0.708734,-0.171014 KneeLeft:-0.021188,0.713241,-0.044188,-0.699203 KneeRight:-0.012490,0.700592,0.031189,0.712771 Neck:0.024340,-0.022901,0.996364,-0.078375 ShoulderLeft:0.009339,0.780107,-0.621737,0.069194 ShoulderRight:0.041824,0.783682,0.619056,-0.029380 SpineBase:0.009267,-0.019490,0.999004,-0.039043 SpineMid:0.016478,-0.019772,0.998911,-0.038902 SpineShoulder:0.024069,-0.021329,0.997827,-0.057504 ThumbLeft:0.000000,0.000000,0.000000,0.000000 ThumbRight:0.000000,0.000000,0.000000,0.000000 WristLeft:0.125406,-0.654686,-0.070590,0.742076 WristRight:-0.125474,0.897603,-0.007970,0.422494 END:
KINECT_DATA POSITION:6.301337,0.324938,-14.530050 HEAD_JOINT1:0.982230,0.155733,-0.000000,0.104746 LARM_JOINT2:0.845450,0.000000,-0.032282,-0.533079 LARM_JOINT3:0.949025,0.000000,-0.274865,-0.154274 LLEG_JOINT2:0.998601,0.016473,0.000000,0.050236 LLEG_JOINT4:0.994960,0.095697,0.000000,-0.029936 RARM_JOINT2:0.794928,0.000000,-0.062261,0.603501 RARM_JOINT3:0.964295,0.000000,0.226075,0.137932 RLEG_JOINT2:0.999536,0.014743,0.000000,-0.026651 RLEG_JOINT4:0.995652,0.088863,0.000000,0.027941 WAIST:0.999939,0.000000,-0.010476,-0.003602 WAIST_JOINT0:0.999562,0.000000,-0.029205,0.004798 WAIST_JOINT1:0.997917,0.061843,0.000000,-0.018366 END:
KINECT_DATA_Sensor  AnkleLeft:0.068498,0.721510,-0.090054,-0.683097 AnkleRight:0.077105,0.739195,0.069006,0.665495 ElbowLeft:-0.067650,0.873317,-0.189275,-0.443753 ElbowRight:0.011606,0.823440,0.190112,0.534481 FootLeft:0.000000,0.000000,0.000000,0.000000 FootRight:0.000000,0.000000,0.000000,0.000000 HandLeft:0.139858,-0.554394,-0.302816,0.762489 HandRight:-0.084287,0.609270,-0.125290,0.778452 HandTipLeft:0.000000,0.000000,0.000000,0.000000 HandTipRight:0.000000,0.000000,0.000000,0.000000 Head:0.000000,0.000000,0.000000,0.000000 HipLeft:0.131468,-0.680870,0.701153,-0.165884 HipRight:-0.115439,0.674505,0.709142,-0.169808 KneeLeft:-0.021818,0.713722,-0.044376,-0.698682 KneeRight:-0.010622,0.700057,0.031914,0.713295 Neck:0.029151,-0.023617,0.996282,-0.077552 ShoulderLeft:-0.004331,0.784064,-0.615570,0.079364 ShoulderRight:0.034152,0.785004,0.617708,-0.032251 SpineBase:0.009966,-0.020080,0.999039,-0.037664 SpineMid:0.019195,-0.020427,0.998904,-0.037477 SpineShoulder:0.028867,-0.022064,0.997741,-0.056497 ThumbLeft:0.000000,0.000000,0.000000,0.000000 ThumbRight:0.000000,0.000000,0.000000,0.000000 WristLeft:0.131766,-0.561217,-0.144102,0.804306 WristRight:-0.106854,0.603778,-0.065477,0.787240 END:
KINECT_DATA POSITION:6.210445,0.265858,-14.366638 HEAD_JOINT1:0.982617,0.154244,-0.000000,0.103306 LARM_JOINT2:0.848015,0.000000,-0.090452,-0.522196 LARM_JOINT3:0.944302,0.000000,-0.296480,-0.142805 LLEG_JOINT2:0.998545,0.017328,0.000000,0.051061 LLEG_JOINT4:0.995258,0.092090,0.000000,-0.031319 RARM_JOINT2:0.794209,0.000000,-0.061034,0.604571 RARM_JOINT3:0.964895,0.000000,0.225290,0.134987 RLEG_JOINT2:0.999529,0.016779,0.000000,-0.025700 RLEG_JOINT4:0.995776,0.087281,0.000000,0.028507 WAIST:0.999949,0.000000,-0.009235,-0.003978 WAIST_JOINT0:0.999526,0.000000,-0.030461,0.004463 WAIST_JOINT1:0.997978,0.060883,0.000000,-0.018230 END:
KINECT_DATA_Sensor  AnkleLeft:0.067449,0.722244,-0.087265,-0.682788 AnkleRight:0.073605,0.696455,0.073339,0.710038 ElbowLeft:-0.113684,0.876546,-0.170094,-0.435674 ElbowRight:0.009614,0.822627,0.188319,0.536403 FootLeft:0.000000,0.000000,0.000000,0.000000 FootRight:0.000000,0.000000,0.000000,0.000000 HandLeft:-0.198567,0.645353,0.313826,-0.667536 HandRight:-0.102615,0.723959,-0.104874,0.674058 HandTipLeft:0.000000,0.000000,0.000000,0.000000 HandTipRight:0.000000,0.000000,0.000000,0.000000 Head:0.000000,0.000000,0.000000,0.000000 HipLeft:0.131771,-0.681474,0.700925,-0.164114 HipRight:-0.117142,0.674213,0.709172,-0.169676 KneeLeft:-0.021478,0.712932,-0.045332,-0.699437 KneeRight:-0.008807,0.700864,0.032916,0.712481 Neck:0.030316,-0.024046,0.996307,-0.076647 ShoulderLeft:-0.003758,0.782917,-0.617201,0.078045 ShoulderRight:0.036236,0.783570,0.619557,-0.029214 SpineBase:0.008760,-0.020548,0.999097,-0.036136 SpineMid:0.019149,-0.020923,0.998952,-0.035921 SpineShoulder:0.030017,-0.022523,0.997758,-0.055411 ThumbLeft:0.000000,0.000000,0.000000,0.000000 ThumbRight:0.000000,0.000000,0.000000,0.000000 WristLeft:0.178084,-0.656878,-0.175471,0.711342 WristRight:-0.118126,0.723442,-0.048754,0.678454 END:
KINECT_DATA POSITION:6.120679,0.213858,-14.209831 HEAD_JOINT1:0.983011,0.152629,-0.000000,0.101955 LARM_JOINT2:0.847221,0.000000,-0.146105,-0.510754 LARM_JOINT3:0.950637,0.000000,-0.286078,-0.120202 LLEG_JOINT2:0.998432,0.019209,0.000000,0.052580 LLEG_JOINT4:0.995674,0.086959,0.000000,-0.032723 RARM_JOINT2:0.791958,0.000000,-0.054207,0.608164 RARM_JOINT3:0.967028,0.000000,0.217788,0.132006 RLEG_JOINT2:0.999549,0.016578,0.000000,-0.025045 RLEG_JOINT4:0.995510,0.090084,0.000000,0.029070 WAIST:0.999926,0.000000,-0.011417,-0.004219 WAIST_JOINT0:0.999226,0.000000,-0.039182,0.003477 WAIST_JOINT1:0.998050,0.059505,0.000000,-0.018869 END:
KINECT_DATA_Sensor  AnkleLeft:0.065380,0.727114,-0.084761,-0.678119 AnkleRight:0.080994,0.739657,0.069133,0.664506 ElbowLeft:-0.156485,0.880196,-0.146915,-0.423301 ElbowRight:0.005273,0.821149,0.182228,0.540814 FootLeft:0.000000,0.000000,0.000000,0.000000 FootRight:0.000000,0.000000,0.000000,0.000000 HandLeft:-0.332416,0.676455,-0.199725,0.626114 HandRight:-0.075294,0.680522,-0.100126,0.721939 HandTipLeft:0.000000,0.000000,0.000000,0.000000 HandTipRight:0.000000,0.000000,0.000000,0.000000 Head:0.000000,0.000000,0.000000,0.000000 HipLeft:0.134843,-0.681584,0.700236,-0.164105 HipRight:-0.117196,0.674412,0.709407,-0.167857 KneeLeft:-0.021173,0.714557,-0.047520,-0.697640 KneeRight:-0.008599,0.699284,0.032489,0.714053 Neck:0.038832,-0.025374,0.996100,-0.075056 ShoulderLeft:-0.006428,0.782836,-0.616950,0.080624 ShoulderRight:0.044465,0.782211,0.621149,-0.018546 SpineBase:0.010944,-0.021604,0.999120,-0.034241 SpineMid:0.024464,-0.022065,0.998881,-0.033945 SpineShoulder:0.038548,-0.023564,0.997521,-0.053946 ThumbLeft:0.000000,0.000000,0.000000,0.000000 ThumbRight:0.000000,0.000000,0.000000,0.000000 WristLeft:-0.204376,0.720761,-0.194759,0.633090 WristRight:-0.117316,0.672117,-0.060364,0.728595 END:
KINECT_DATA POSITION:6.053563,0.163195,-14.104843 HEAD_JOINT1:0.983677,0.149477,-0.000000,0.100184 LARM_JOINT2:0.846996,0.000000,-0.178036,-0.500899 LARM_JOINT3:0.957843,0.000000,-0.265521,-0.109703 LLEG_JOINT2:0.998282,0.020507,0.000000,0.054888 LLEG_JOINT4:0.995273,0.091245,0.000000,-0.033261 RARM_JOINT2:0.795785,0.000000,-0.068512,0.601691 RARM_JOINT3:0.964773,0.000000,0.221741,0.141577 RLEG_JOINT2:0.999588,0.016607,0.000000,-0.023404 RLEG_JOINT4:0.995483,0.090684,0.000000,0.028109 WAIST:0.999880,0.000000,-0.014463,-0.005487 WAIST_JOINT0:0.999265,0.000000,-0.038233,0.002586 WAIST_JOINT1:0.998131,0.058226,0.000000,-0.018575 END:
KINECT_DATA_Sensor  AnkleLeft:0.068444,0.726230,-0.089395,-0.678169 AnkleRight:0.082005,0.744501,0.068867,0.658977 ElbowLeft:-0.181182,0.885936,-0.135384,-0.404922 ElbowRight:0.010599,0.817086,0.193888,0.542831 FootLeft:0.000000,0.000000,0.000000,0.000000 FootRight:0.000000,0.000000,0.000000,0.000000 HandLeft:-0.301441,0.630175,-0.222757,0.679994 HandRight:-0.063180,0.634297,-0.092851,0.764888 HandTipLeft:0.000000,0.000000,0.000000,0.000000 HandTipRight:0.000000,0.000000,0.000000,0.000000 Head:0.000000,0.000000,0.000000,0.000000 HipLeft:0.137661,-0.682227,0.698856,-0.164974 HipRight:-0.116291,0.674107,0.710412,-0.165442 KneeLeft:-0.021172,0.716799,-0.049096,-0.695227 KneeRight:-0.008244,0.697035,0.032244,0.716264 Neck:0.038065,-0.026025,0.996214,-0.073698 ShoulderLeft:-0.014264,0.783858,-0.614948,0.084860 ShoulderRight:0.035672,0.784086,0.619164,-0.023913 SpineBase:0.014059,-0.022411,0.999108,-0.032911 SpineMid:0.025634,-0.022791,0.998878,-0.032649 SpineShoulder:0.037781,-0.024080,0.997596,-0.052861 ThumbLeft:0.000000,0.000000,0.000000,0.000000 ThumbRight:0.000000,0.000000,0.000000,0.000000 WristLeft:-0.193441,0.659243,-0.221191,0.692137 WristRight:-0.115573,0.624596,-0.065246,0.769588 END:
KINECT_DATA POSITION:6.009874,0.148460,-14.123464 HEAD_JOINT1:0.983999,0.148767,-0.000000,0.098057 LARM_JOINT2:0.847887,0.000000,-0.203932,-0.489387 LARM_JOINT3:0.960246,0.000000,-0.269914,-0.071227 LLEG_JOINT2:0.998223,0.020126,0.000000,0.056081 LLEG_JOINT4:0.995262,0.091480,0.000000,-0.032927 RARM_JOINT2:0.793890,0.000000,-0.065167,0.604559 RARM_JOINT3:0.965228,0.000000,0.222354,0.137452 RLEG_JOINT2:0.999625,0.015422,0.000000,-0.022641 RLEG_JOINT4:0.995401,0.091862,0.000000,0.027185 WAIST:0.999864,0.000000,-0.015372,-0.006031 WAIST_JOINT0:0.998966,0.000000,-0.045441,-0.001133 WAIST_JOINT1:0.998209,0.056547,0.000000,-0.019499 END:
KINECT_DATA_Sensor  AnkleLeft:0.067995,0.730075,-0.089718,-0.674031 AnkleRight:0.075717,0.687972,0.075715,0.717794 ElbowLeft:-0.207563,0.874110,-0.120482,-0.422296 ElbowRight:0.007878,0.817028,0.190101,0.544303 FootLeft:0.000000,0.000000,0.000000,0.000000 FootRight:0.000000,0.000000,0.000000,0.000000 HandLeft:-0.256981,0.506506,-0.340330,0.749392 HandRight:-0.095606,0.774957,-0.081443,0.619410 HandTipLeft:0.000000,0.000000,0.000000,0.000000 HandTipRight:0.000000,0.000000,0.000000,0.000000 Head:0.000000,0.000000,0.000000,0.000000 HipLeft:0.138317,-0.682591,0.698379,-0.164939 HipRight:-0.115586,0.673943,0.710899,-0.164506 KneeLeft:-0.021957,0.717418,-0.049247,-0.694553 KneeRight:-0.008924,0.696395,0.031262,0.716922 Neck:0.045552,-0.028320,0.995994,-0.071543 ShoulderLeft:-0.020258,0.784856,-0.612875,0.089300 ShoulderRight:0.039331,0.780856,0.623237,-0.017088 SpineBase:0.014985,-0.023061,0.999092,-0.032539 SpineMid:0.029858,-0.023543,0.998758,-0.032192 SpineShoulder:0.045300,-0.025685,0.997335,-0.051102 ThumbLeft:0.000000,0.000000,0.000000,0.000000 ThumbRight:0.000000,0.000000,0.000000,0.000000 WristLeft:-0.163424,0.544176,-0.275592,0.775380 WristRight:-0.127672,0.771695,-0.039991,0.621761 END:
KINECT_DATA POSITION:5.941491,0.143965,-14.187586 HEAD_JOINT1:0.983621,0.152910,-0.000000,0.095433 LARM_JOINT2:0.858148,0.000000,-0.230338,-0.458831 LARM_JOINT3:0.973127,0.000000,-0.230245,-0.003224 LLEG_JOINT2:0.998095,0.019226,0.000000,0.058625 LLEG_JOINT4:0.994929,0.093863,0.000000,-0.036132 RARM_JOINT2:0.794753,0.000000,-0.071624,0.602692 RARM_JOINT3:0.966349,0.000000,0.216289,0.139243 RLEG_JOINT2:0.999652,0.014999,0.000000,-0.021703 RLEG_JOINT4:0.995184,0.093830,0.000000,0.028381 WAIST:0.999837,0.000000,-0.016605,-0.007115 WAIST_JOINT0:0.998765,0.000000,-0.049409,-0.005260 WAIST_JOINT1:0.998298,0.054658,0.000000,-0.020320 END:
KINECT_DATA_Sensor  AnkleLeft:0.070299,0.731763,-0.089434,-0.671999 AnkleRight:0.084640,0.753426,0.068023,0.648505 ElbowLeft:-0.253166,0.830231,-0.103095,-0.485793 ElbowRight:0.008403,0.813170,0.194718,0.548423 FootLeft:0.000000,0.000000,0.000000,0.000000 FootRight:0.000000,0.000000,0.000000,0.000000 HandLeft:-0.399649,0.684707,0.196635,-0.576881 HandRight:-0.065092,0.677605,-0.077230,0.728457 HandTipLeft:0.000000,0.000000,0.000000,0.000000 HandTipRight:0.000000,0.000000,0.000000,0.000000 Head:0.000000,0.000000,0.000000,0.000000 HipLeft:0.139508,-0.683324,0.697518,-0.164542 HipRight:-0.114855,0.673452,0.711823,-0.163027 KneeLeft:-0.023713,0.718240,-0.049572,-0.693622 KneeRight:-0.009310,0.695477,0.031064,0.717816 Neck:0.050088,-0.030466,0.995853,-0.069574 ShoulderLeft:-0.028877,0.787510,-0.608344,0.094399 ShoulderRight:0.036550,0.778906,0.625878,-0.015668 SpineBase:0.016256,-0.024310,0.999072,-0.031628 SpineMid:0.032746,-0.024829,0.998667,-0.031222 SpineShoulder:0.049813,-0.027616,0.997169,-0.049089 ThumbLeft:0.000000,0.000000,0.000000,0.000000 ThumbRight:0.000000,0.000000,0.000000,0.000000 WristLeft:-0.322082,0.711185,0.151535,-0.606232 WristRight:-0.122209,0.667275,-0.053187,0.732789 END:
KINECT_DATA POSITION:5.914407,0.114411,-14.243174 HEAD_JOINT1:0.983710,0.154792,-0.000000,0.091404 LARM_JOINT2:0.867471,0.000000,-0.250445,-0.429850 LARM_JOINT3:0.979059,0.000000,-0.203041,0.014761 LLEG_JOINT2:0.998065,0.019184,0.000000,0.059149 LLEG_JOINT4:0.994999,0.093276,0.000000,-0.035743 RARM_JOINT2:0.794012,0.000000,-0.069593,0.603906 RARM_JOINT3:0.965654,0.000000,0.218724,0.140258 RLEG_JOINT2:0.999657,0.015264,0.000000,-0.021265 RLEG_JOINT4:0.995163,0.093786,0.000000,0.029242 WAIST:0.999816,0.000000,-0.017584,-0.007673 WAIST_JOINT0:0.998306,0.000000,-0.057413,-0.009383 WAIST_JOINT1:0.998338,0.053841,0.000000,-0.020536 END:
KINECT_DATA_Sensor  AnkleLeft:0.069954,0.735918,-0.088957,-0.667547 AnkleRight:0.084490,0.744695,0.068531,0.658478 ElbowLeft:-0.288550,0.804419,-0.095339,-0.510451 ElbowRight:0.006813,0.813081,0.192990,0.549188 FootLeft:0.000000,0.000000,0.000000,0.000000 FootRight:0.000000,0.000000,0.000000,0.000000 HandLeft:-0.180126,0.629082,-0.399397,0.642100 HandRight:-0.068882,0.678656,-0.091144,0.725516 HandTipLeft:0.000000,0.000000,0.000000,0.000000 HandTipRight:0.000000,0.000000,0.000000,0.000000 Head:0.000000,0.000000,0.000000,0.000000 HipLeft:0.140562,-0.683729,0.696947,-0.164381 HipRight:-0.114542,0.673296,0.712257,-0.161994 KneeLeft:-0.023778,0.718949,-0.049485,-0.692891 KneeRight:-0.009185,0.694736,0.031332,0.718523 Neck:0.058559,-0.031568,0.995422,-0.068627 ShoulderLeft:-0.038405,0.791296,-0.601578,0.102369 ShoulderRight:0.037780,0.778228,0.626751,-0.010853 SpineBase:0.017257,-0.024990,0.999062,-0.030867 SpineMid:0.037433,-0.025609,0.998510,-0.030356 SpineShoulder:0.058271,-0.028722,0.996731,-0.048023 ThumbLeft:0.000000,0.000000,0.000000,0.000000 ThumbRight:0.000000,0.000000,0.000000,0.000000 WristLeft:-0.161051,0.646049,-0.350857,0.658470 WristRight:-0.123394,0.667753,-0.054612,0.732050 END:
KINECT_DATA POSITION:5.889988,0.102051,-14.290619 HEAD_JOINT1:0.984043,0.154391,-0.000000,0.088450 LARM_JOINT2:0.870978,0.000000,-0.265809,-0.413210 LARM_JOINT3:0.979866,0.000000,-0.198627,0.020234 LLEG_JOINT2:0.998027,0.019151,0.000000,0.059798 LLEG_JOINT4:0.995045,0.093279,0.000000,-0.034404 RARM_JOINT2:0.796544,0.000000,-0.077525,0.599589 RARM_JOINT3:0.964919,0.000000,0.219249,0.144437 RLEG_JOINT2:0.999673,0.014715,0.000000,-0.020917 RLEG_JOINT4:0.995148,0.093872,0.000000,0.029488 WAIST:0.999792,0.000000,-0.018799,-0.007905 WAIST_JOINT0:0.998221,0.000000,-0.058158,-0.013131 WAIST_JOINT1:0.998309,0.054117,0.000000,-0.021206 END:
KINECT_DATA_Sensor  AnkleLeft:0.068566,0.736494,-0.090296,-0.666875 AnkleRight:0.077890,0.680654,0.075272,0.724553 ElbowLeft:-0.310450,0.781384,-0.080387,-0.535348 ElbowRight:0.010426,0.811919,0.200875,0.548023 FootLeft:0.000000,0.000000,0.000000,0.000000 FootRight:0.000000,0.000000,0.000000,0.000000 HandLeft:-0.181139,0.609430,-0.394472,0.663457 HandRight:-0.064240,0.632782,-0.086115,0.766841 HandTipLeft:0.000000,0.000000,0.000000,0.000000 HandTipRight:0.000000,0.000000,0.000000,0.000000 Head:0.000000,0.000000,0.000000,0.000000 HipLeft:0.141212,-0.683751,0.696674,-0.164893 HipRight:-0.113380,0.673240,0.712621,-0.161446 KneeLeft:-0.024171,0.719771,-0.049712,-0.692007 KneeRight:-0.009470,0.693891,0.030869,0.719356 Neck:0.059456,-0.032503,0.995304,-0.069124 ShoulderLeft:-0.045556,0.794230,-0.596257,0.107709 ShoulderRight:0.031926,0.778521,0.626620,-0.015255 SpineBase:0.018458,-0.025741,0.999016,-0.031057 SpineMid:0.038460,-0.026358,0.998446,-0.030535 SpineShoulder:0.059159,-0.029510,0.996645,-0.048244 ThumbLeft:0.000000,0.000000,0.000000,0.000000 ThumbRight:0.000000,0.000000,0.000000,0.000000 WristLeft:-0.149514,0.625187,-0.380604,0.664776 WristRight:-0.119603,0.622392,-0.056922,0.771416 END:
KINECT_DATA POSITION:5.896303,0.096921,-14.339697 HEAD_JOINT1:0.984508,0.151000,-0.000000,0.089121 LARM_JOINT2:0.873633,0.000000,-0.271192,-0.404005 LARM_JOINT3:0.979064,0.000000,-0.203475,0.005522 LLEG_JOINT2:0.997907,0.019347,0.000000,0.061698 LLEG_JOINT4:0.994766,0.093884,0.000000,-0.040329 RARM_JOINT2:0.797483,0.000000,-0.082385,0.597690 RARM_JOINT3:0.961559,0.000000,0.228615,0.152120 RLEG_JOINT2:0.999720,0.013763,0.000000,-0.019251 RLEG_JOINT4:0.995375,0.092265,0.000000,0.026756 WAIST:0.999760,0.000000,-0.020109,-0.008650 WAIST_JOINT0:0.998111,0.000000,-0.059767,-0.014225 WAIST_JOINT1:0.998235,0.055229,0.000000,-0.021842 END:
KINECT_DATA_Sensor  AnkleLeft:0.072264,0.736773,-0.087533,-0.666545 AnkleRight:0.080414,0.733963,0.068675,0.670907 ElbowLeft:-0.317202,0.787360,-0.084686,-0.521801 ElbowRight:0.013520,0.810487,0.206010,0.548167 FootLeft:0.000000,0.000000,0.000000,0.000000 FootRight:0.000000,0.000000,0.000000,0.000000 HandLeft:-0.154177,0.517276,-0.396060,0.742826 HandRight:-0.083471,0.709341,-0.101767,0.692468 HandTipLeft:0.000000,0.000000,0.000000,0.000000 HandTipRight:0.000000,0.000000,0.000000,0.000000 Head:0.000000,0.000000,0.000000,0.000000 HipLeft:0.141678,-0.684022,0.696117,-0.165716 HipRight:-0.112003,0.672763,0.713368,-0.161097 KneeLeft:-0.024951,0.720662,-0.050607,-0.690986 KneeRight:-0.009498,0.692987,0.029541,0.720282 Neck:0.061142,-0.033861,0.995055,-0.070575 ShoulderLeft:-0.049769,0.794237,-0.595091,0.112149 ShoulderRight:0.030131,0.778081,0.627203,-0.017297 SpineBase:0.019777,-0.026652,0.998949,-0.031608 SpineMid:0.039939,-0.027285,0.998346,-0.031063 SpineShoulder:0.060817,-0.030853,0.996457,-0.049214 ThumbLeft:0.000000,0.000000,0.000000,0.000000 ThumbRight:0.000000,0.000000,0.000000,0.000000 WristLeft:-0.104644,0.536609,-0.398718,0.736291 WristRight:-0.125188,0.699471,-0.043800,0.702247 END:
KINECT_DATA POSITION:5.930561,0.095516,-14.286757 HEAD_JOINT1:0.985344,0.145226,-0.000000,0.089478 LARM_JOINT2:0.883957,0.000000,-0.211829,-0.416832 LARM_JOINT3:0.951723,0.000000,-0.306900,-0.005994 LLEG_JOINT2:0.997918,0.019327,0.000000,0.061532 LLEG_JOINT4:0.994783,0.094340,0.000000,-0.038813 RARM_JOINT2:0.795507,0.000000,-0.074435,0.601355 RARM_JOINT3:0.961228,0.000000,0.232530,0.148225 RLEG_JOINT2:0.999731,0.013558,0.000000,-0.018838 RLEG_JOINT4:0.995302,0.093291,0.000000,0.025914 WAIST:0.999759,0.000000,-0.020207,-0.008566 WAIST_JOINT0:0.997990,0.000000,-0.062010,-0.013101 WAIST_JOINT1:0.998069,0.058345,0.000000,-0.021329 END:
KINECT_DATA_Sensor  AnkleLeft:0.071747,0.738104,-0.088731,-0.664968 AnkleRight:0.075116,0.678812,0.075603,0.726537 ElbowLeft:-0.283814,0.778602,-0.124953,-0.545542 ElbowRight:0.012247,0.810477,0.200897,0.550107 FootLeft:0.000000,0.000000,0.000000,0.000000 FootRight:0.000000,0.000000,0.000000,0.000000 HandLeft:-0.330654,0.691463,-0.313453,0.560620 HandRight:-0.118549,0.852787,-0.092110,0.500216 HandTipLeft:0.000000,0.000000,0.000000,0.000000 HandTipRight:0.000000,0.000000,0.000000,0.000000 Head:0.000000,0.000000,0.000000,0.000000 HipLeft:0.140650,-0.683659,0.696348,-0.167118 HipRight:-0.110904,0.672530,0.713454,-0.162444 KneeLeft:-0.024913,0.720677,-0.050531,-0.690978 KneeRight:-0.009296,0.692983,0.029044,0.720309 Neck:0.063306,-0.033112,0.994712,-0.073787 ShoulderLeft:-0.042445,0.793214,-0.597164,0.111376 ShoulderRight:0.040019,0.777401,0.627601,-0.012776 SpineBase:0.019849,-0.026600,0.998887,-0.033524 SpineMid:0.041032,-0.027305,0.998241,-0.032952 SpineShoulder:0.062968,-0.030538,0.996180,-0.052234 ThumbLeft:0.000000,0.000000,0.000000,0.000000 ThumbRight:0.000000,0.000000,0.000000,0.000000 WristLeft:-0.262604,0.724392,-0.348435,0.533750 WristRight:-0.132374,0.851914,-0.013426,0.506498 END:
KINECT_DATA POSITION:5.960957,0.090881,-14.132619 HEAD_JOINT1:0.984312,0.149417,-0.000000,0.093832 LARM_JOINT2:0.884391,0.000000,-0.196070,-0.423567 LARM_JOINT3:0.950177,0.000000,-0.311689,0.003616 LLEG_JOINT2:0.997962,0.020167,0.000000,0.060539 LLEG_JOINT4:0.995123,0.091159,0.000000,-0.037684 RARM_JOINT2:0.794630,0.000000,-0.077718,0.602099 RARM_JOINT3:0.961656,0.000000,0.230890,0.148013 RLEG_JOINT2:0.999698,0.014928,0.000000,-0.019532 RLEG_JOINT4:0.995281,0.092948,0.000000,0.027853 WAIST:0.999759,0.000000,-0.020392,-0.008173 WAIST_JOINT0:0.998275,0.000000,-0.057873,-0.009939 WAIST_JOINT1:0.997977,0.059960,0.000000,-0.021136 END:
KINECT_DATA_Sensor  AnkleLeft:0.069388,0.736364,-0.087750,-0.667274 AnkleRight:0.077235,0.680732,0.074902,0.724589 ElbowLeft:-0.271608,0.776400,-0.133258,-0.552878 ElbowRight:0.016258,0.808604,0.201467,0.552545 FootLeft:0.000000,0.000000,0.000000,0.000000 FootRight:0.000000,0.000000,0.000000,0.000000 HandLeft:-0.393662,0.684626,0.223096,-0.571442 HandRight:-0.070810,0.627014,-0.117441,0.766843 HandTipLeft:0.000000,0.000000,0.000000,0.000000 HandTipRight:0.000000,0.000000,0.000000,0.000000 Head:0.000000,0.000000,0.000000,0.000000 HipLeft:0.139410,-0.683060,0.696865,-0.168445 HipRight:-0.109516,0.672546,0.713429,-0.163424 KneeLeft:-0.023904,0.720807,-0.050720,-0.690864 KneeRight:-0.008504,0.692870,0.030214,0.720379 Neck:0.059062,-0.032145,0.994884,-0.075387 ShoulderLeft:-0.036947,0.791919,-0.599798,0.108358 ShoulderRight:0.040058,0.778901,0.625663,-0.015961 SpineBase:0.019996,-0.026227,0.998827,-0.035466 SpineMid:0.039009,-0.026898,0.998265,-0.034960 SpineShoulder:0.058729,-0.029761,0.996365,-0.054065 ThumbLeft:0.000000,0.000000,0.000000,0.000000 ThumbRight:0.000000,0.000000,0.000000,0.000000 WristLeft:0.394888,-0.679292,-0.181981,0.591193 WristRight:-0.116747,0.616514,-0.058314,0.776454 END:
KINECT_DATA POSITION:5.961718,0.062805,-14.032149 HEAD_JOINT1:0.984101,0.153133,-0.000000,0.089980 LARM_JOINT2:0.873151,0.000000,-0.251914,-0.417309 LARM_JOINT3:0.971978,0.000000,-0.234755,0.012174 LLEG_JOINT2:0.997936,0.021179,0.000000,0.060618 LLEG_JOINT4:0.994944,0.092933,0.000000,-0.038076 RARM_JOINT2:0.794347,0.000000,-0.072258,0.603152 RARM_JOINT3:0.962394,0.000000,0.233444,0.138933 RLEG_JOINT2:0.999726,0.014136,0.000000,-0.018683 RLEG_JOINT4:0.995227,0.094196,0.000000,0.025485 WAIST:0.999729,0.000000,-0.021515,-0.008867 WAIST_JOINT0:0.997884,0.000000,-0.063750,-0.012784 WAIST_JOINT1:0.997973,0.060033,0.000000,-0.021097 END:
KINECT_DATA_Sensor  AnkleLeft:0.072247,0.738955,-0.088799,-0.663958 AnkleRight:0.082374,0.739460,0.069913,0.664474 ElbowLeft:-0.297721,0.783615,-0.091090,-0.537599 ElbowRight:0.013047,0.809293,0.199238,0.552429 FootLeft:0.000000,0.000000,0.000000,0.000000 FootRight:0.000000,0.000000,0.000000,0.000000 HandLeft:-0.426414,0.893938,-0.036688,-0.133039 HandRight:-0.099998,0.613617,-0.115606,0.774667 HandTipLeft:0.000000,0.000000,0.000000,0.000000 HandTipRight:0.000000,0.000000,0.000000,0.000000 Head:0.000000,0.000000,0.000000,0.000000 HipLeft:0.140161,-0.683308,0.696232,-0.169428 HipRight:-0.108756,0.672151,0.713971,-0.163188 KneeLeft:-0.022829,0.721672,-0.050984,-0.689978 KneeRight:-0.008952,0.692073,0.029547,0.721167 Neck:0.065173,-0.033153,0.994482,-0.075232 ShoulderLeft:-0.042290,0.792898,-0.597116,0.113915 ShoulderRight:0.042638,0.777142,0.627758,-0.012350 SpineBase:0.021145,-0.026719,0.998779,-0.035774 SpineMid:0.042622,-0.027482,0.998093,-0.035191 SpineShoulder:0.064849,-0.030602,0.995963,-0.054005 ThumbLeft:0.000000,0.000000,0.000000,0.000000 ThumbRight:0.000000,0.000000,0.000000,0.000000 WristLeft:-0.412527,0.896227,-0.066902,-0.148738 WristRight:-0.117473,0.608479,-0.059572,0.782563 END:
KINECT_DATA POSITION:5.960448,0.050659,-13.946545 HEAD_JOINT1:0.984404,0.151641,-0.000000,0.089185 LARM_JOINT2:0.868659,0.000000,-0.265081,-0.418526 LARM_JOINT3:0.979054,0.000000,-0.203513,0.006042 LLEG_JOINT2:0.997837,0.023459,0.000000,0.061416 LLEG_JOINT4:0.995207,0.090162,0.000000,-0.037870 RARM_JOINT2:0.794226,0.000000,-0.066607,0.603961 RARM_JOINT3:0.964782,0.000000,0.223966,0.137966 RLEG_JOINT2:0.999739,0.014459,0.000000,-0.017679 RLEG_JOINT4:0.995189,0.094560,0.000000,0.025642 WAIST:0.999656,0.000000,-0.024128,-0.010246 WAIST_JOINT0:0.997395,0.000000,-0.070278,-0.016257 WAIST_JOINT1:0.997928,0.060623,0.000000,-0.021548 END:
KINECT_DATA_Sensor  AnkleLeft:0.072064,0.742332,-0.088192,-0.660282 AnkleRight:0.083930,0.747319,0.069034,0.655519 ElbowLeft:-0.299544,0.790161,-0.078837,-0.528871 ElbowRight:0.009929,0.809652,0.198385,0.552275 FootLeft:0.000000,0.000000,0.000000,0.000000 FootRight:0.000000,0.000000,0.000000,0.000000 HandLeft:-0.392504,0.910004,-0.050452,-0.123642 HandRight:-0.074985,0.577858,-0.097557,0.806809 HandTipLeft:0.000000,0.000000,0.000000,0.000000 HandTipRight:0.000000,0.000000,0.000000,0.000000 Head:0.000000,0.000000,0.000000,0.000000 HipLeft:0.141797,-0.683816,0.694925,-0.171374 HipRight:-0.106858,0.671452,0.715095,-0.162399 KneeLeft:-0.020998,0.723649,-0.052139,-0.687876 KneeRight:-0.008940,0.690156,0.030026,0.722982 Neck:0.071907,-0.035341,0.993909,-0.075672 ShoulderLeft:-0.046137,0.793909,-0.594451,0.119193 ShoulderRight:0.047551,0.774503,0.630736,-0.007486 SpineBase:0.023802,-0.027895,0.998666,-0.036340 SpineMid:0.047304,-0.028743,0.997829,-0.035674 SpineShoulder:0.071586,-0.032441,0.995418,-0.054452 ThumbLeft:0.000000,0.000000,0.000000,0.000000 ThumbRight:0.000000,0.000000,0.000000,0.000000 WristLeft:-0.400525,0.903750,-0.073513,-0.131952 WristRight:-0.116349,0.569602,-0.064824,0.811057 END:
KINECT_DATA POSITION:5.999383,0.041775,-13.907087 HEAD_JOINT1:0.984568,0.151082,-0.000000,0.088320 LARM_JOINT2:0.870492,0.000000,-0.253494,-0.421882 LARM_JOINT3:0.975935,0.000000,-0.217967,0.006507 LLEG_JOINT2:0.997812,0.024487,0.000000,0.061416 LLEG_JOINT4:0.994976,0.092619,0.000000,-0.038000 RARM_JOINT2:0.793557,0.000000,-0.062883,0.605237 RARM_JOINT3:0.963290,0.000000,0.226770,0.143691 RLEG_JOINT2:0.999717,0.015509,0.000000,-0.018052 RLEG_JOINT4:0.995416,0.092285,0.000000,0.025096 WAIST:0.999644,0.000000,-0.024624,-0.010286 WAIST_JOINT0:0.997241,0.000000,-0.072323,-0.016726 WAIST_JOINT1:0.997924,0.060684,0.000000,-0.021557 END:
KINECT_DATA_Sensor  AnkleLeft:0.074735,0.743028,-0.090424,-0.658899 AnkleRight:0.074596,0.673091,0.077355,0.731711 ElbowLeft:-0.292562,0.791399,-0.087217,-0.529611 ElbowRight:0.008211,0.810238,0.195916,0.552326 FootLeft:0.000000,0.000000,0.000000,0.000000 FootRight:0.000000,0.000000,0.000000,0.000000 HandLeft:-0.403260,0.900446,-0.029719,-0.160296 HandRight:-0.067629,0.605608,-0.127187,0.782617 HandTipLeft:0.000000,0.000000,0.000000,0.000000 HandTipRight:0.000000,0.000000,0.000000,0.000000 Head:0.000000,0.000000,0.000000,0.000000 HipLeft:0.141919,-0.683669,0.694975,-0.171655 HipRight:-0.106363,0.671368,0.715309,-0.162125 KneeLeft:-0.020285,0.724047,-0.052842,-0.687424 KneeRight:-0.008452,0.689765,0.031048,0.723318 Neck:0.073983,-0.035451,0.993754,-0.075655 ShoulderLeft:-0.045077,0.793745,-0.594748,0.119212 ShoulderRight:0.051206,0.773334,0.631913,-0.004290 SpineBase:0.024297,-0.027953,0.998646,-0.036519 SpineMid:0.048590,-0.028833,0.997760,-0.035828 SpineShoulder:0.073664,-0.032558,0.995261,-0.054481 ThumbLeft:0.000000,0.000000,0.000000,0.000000 ThumbRight:0.000000,0.000000,0.000000,0.000000 WristLeft:-0.402427,0.897856,-0.053563,-0.170408 WristRight:-0.118518,0.593431,-0.062543,0.793651 END:
KINECT_DATA POSITION:6.034635,0.037175,-13.907909 HEAD_JOINT1:0.984058,0.153723,-0.000000,0.089442 LARM_JOINT2:0.876854,0.000000,-0.153068,-0.455738 LARM_JOINT3:0.938933,0.000000,-0.344099,0.000137 LLEG_JOINT2:0.997960,0.021728,0.000000,0.060026 LLEG_JOINT4:0.994712,0.095296,0.000000,-0.038301 RARM_JOINT2:0.795022,0.000000,-0.066695,0.602902 RARM_JOINT3:0.962071,0.000000,0.229836,0.146953 RLEG_JOINT2:0.999677,0.016063,0.000000,-0.019687 RLEG_JOINT4:0.995312,0.092686,0.000000,0.027625 WAIST:0.999752,0.000000,-0.020396,-0.008907 WAIST_JOINT0:0.998358,0.000000,-0.056226,-0.010955 WAIST_JOINT1:0.998010,0.059450,0.000000,-0.021002 END:
KINECT_DATA_Sensor  AnkleLeft:0.077214,0.753888,-0.088265,-0.646452 AnkleRight:0.082843,0.735599,0.069975,0.668681 ElbowLeft:-0.230228,0.764372,-0.137756,-0.586306 ElbowRight:0.009594,0.814564,0.197397,0.545370 FootLeft:0.000000,0.000000,0.000000,0.000000 FootRight:0.000000,0.000000,0.000000,0.000000 HandLeft:-0.443995,0.893651,-0.063480,0.015029 HandRight:-0.103624,0.780605,-0.109457,0.606578 HandTipLeft:0.000000,0.000000,0.000000,0.000000 HandTipRight:0.000000,0.000000,0.000000,0.000000 Head:0.000000,0.000000,0.000000,0.000000 HipLeft:0.139071,-0.683462,0.696485,-0.168664 HipRight:-0.109118,0.671806,0.714012,-0.164184 KneeLeft:-0.021929,0.720930,-0.050974,-0.690782 KneeRight:-0.008309,0.692833,0.031629,0.720356 Neck:0.057772,-0.032220,0.995030,-0.074422 ShoulderLeft:-0.033106,0.791973,-0.600563,0.104910 ShoulderRight:0.042194,0.776212,0.628883,-0.014878 SpineBase:0.020012,-0.027139,0.998778,-0.036142 SpineMid:0.038360,-0.027799,0.998241,-0.035638 SpineShoulder:0.057391,-0.030409,0.996441,-0.053723 ThumbLeft:0.000000,0.000000,0.000000,0.000000 ThumbRight:0.000000,0.000000,0.000000,0.000000 WristLeft:-0.408742,0.905745,-0.111256,-0.013324 WristRight:-0.129041,0.780002,-0.033153,0.611430 END:
KINECT_DATA POSITION:6.048116,0.027945,-13.905334 HEAD_JOINT1:0.983685,0.155940,-0.000000,0.089701 LARM_JOINT2:0.872645,0.000000,-0.171968,-0.457074 LARM_JOINT3:0.949586,0.000000,-0.313505,-0.000798 LLEG_JOINT2:0.998068,0.021068,0.000000,0.058448 LLEG_JOINT4:0.994993,0.092742,0.000000,-0.037254 RARM_JOINT2:0.794759,0.000000,-0.064587,0.603479 RARM_JOINT3:0.962488,0.000000,0.229060,0.145428 RLEG_JOINT2:0.999639,0.016788,0.000000,-0.020984 RLEG_JOINT4:0.995406,0.091796,0.000000,0.027204 WAIST:0.999822,0.000000,-0.017273,-0.007545 WAIST_JOINT0:0.998616,0.000000,-0.051815,-0.009055 WAIST_JOINT1:0.998048,0.058645,0.000000,-0.021458 END:
KINECT_DATA_Sensor  AnkleLeft:0.073633,0.744961,-0.087342,-0.657254 AnkleRight:0.081405,0.729219,0.071473,0.675651 ElbowLeft:-0.236817,0.770861,-0.125671,-0.577839 ElbowRight:0.007957,0.817731,0.194991,0.541508 FootLeft:0.000000,0.000000,0.000000,0.000000 FootRight:0.000000,0.000000,0.000000,0.000000 HandLeft:0.011088,0.120465,-0.428610,0.895354 HandRight:-0.115990,0.844408,-0.095082,0.514277 HandTipLeft:0.000000,0.000000,0.000000,0.000000 HandTipRight:0.000000,0.000000,0.000000,0.000000 Head:0.000000,0.000000,0.000000,0.000000 HipLeft:0.137493,-0.683038,0.697757,-0.166403 HipRight:-0.111220,0.672379,0.712840,-0.165517 KneeLeft:-0.022039,0.718696,-0.050450,-0.693141 KneeRight:-0.007803,0.695095,0.032096,0.718159 Neck:0.053323,-0.031381,0.995368,-0.073589 ShoulderLeft:-0.030313,0.791294,-0.602325,0.100696 ShoulderRight:0.039240,0.777113,0.627893,-0.017467 SpineBase:0.016824,-0.026628,0.998871,-0.035561 SpineMid:0.034550,-0.027255,0.998415,-0.035083 SpineShoulder:0.052946,-0.029613,0.996753,-0.052942 ThumbLeft:0.000000,0.000000,0.000000,0.000000 ThumbRight:0.000000,0.000000,0.000000,0.000000 WristLeft:0.055206,0.143368,-0.407517,0.900182 WristRight:-0.132300,0.843433,-0.022039,0.520222 END:
KINECT_DATA POSITION:6.057890,0.031052,-13.916122 HEAD_JOINT1:0.983747,0.156655,-0.000000,0.087750 LARM_JOINT2:0.864294,0.000000,-0.222176,-0.451258 LARM_JOINT3:0.973013,0.000000,-0.230748,0.001309 LLEG_JOINT2:0.998097,0.021145,0.000000,0.057917 LLEG_JOINT4:0.995037,0.093115,0.000000,-0.035080 RARM_JOINT2:0.793501,0.000000,-0.057876,0.605810 RARM_JOINT3:0.966288,0.000000,0.218547,0.136104 RLEG_JOINT2:0.999626,0.017182,0.000000,-0.021294 RLEG_JOINT4:0.995602,0.089610,0.000000,0.027323 WAIST:0.999832,0.000000,-0.016701,-0.007581 WAIST_JOINT0:0.998302,0.000000,-0.057228,-0.010875 WAIST_JOINT1:0.998101,0.057787,0.000000,-0.021329 END:
KINECT_DATA_Sensor  AnkleLeft:0.071713,0.735642,-0.089761,-0.667556 AnkleRight:0.080704,0.737852,0.069561,0.666500 ElbowLeft:-0.259992,0.789775,-0.096330,-0.547157 ElbowRight:0.003649,0.818876,0.189845,0.541653 FootLeft:0.000000,0.000000,0.000000,0.000000 FootRight:0.000000,0.000000,0.000000,0.000000 HandLeft:0.332845,-0.641030,-0.210504,0.658774 HandRight:-0.078666,0.679421,-0.088817,0.724093 HandTipLeft:0.000000,0.000000,0.000000,0.000000 HandTipRight:0.000000,0.000000,0.000000,0.000000 Head:0.000000,0.000000,0.000000,0.000000 HipLeft:0.137660,-0.683231,0.697709,-0.165672 HipRight:-0.112048,0.672394,0.712730,-0.165367 KneeLeft:-0.021546,0.718339,-0.050126,-0.693550 KneeRight:-0.007777,0.695467,0.032616,0.717775 Neck:0.058746,-0.031820,0.995122,-0.072579 ShoulderLeft:-0.032407,0.792065,-0.600873,0.102639 ShoulderRight:0.043989,0.775703,0.629466,-0.011083 SpineBase:0.016266,-0.026595,0.998907,-0.034824 SpineMid:0.036972,-0.027311,0.998355,-0.034265 SpineShoulder:0.058386,-0.029826,0.996499,-0.051878 ThumbLeft:0.000000,0.000000,0.000000,0.000000 ThumbRight:0.000000,0.000000,0.000000,0.000000 WristLeft:0.338804,-0.634589,-0.177136,0.671663 WristRight:-0.122521,0.670913,-0.058184,0.729026 END:
KINECT_DATA POSITION:6.058406,0.033624,-13.925970 HEAD_JOINT1:0.983936,0.155829,-0.000000,0.087109 LARM_JOINT2:0.863444,0.000000,-0.220890,-0.453511 LARM_JOINT3:0.980819,0.000000,-0.193337,0.024813 LLEG_JOINT2:0.998074,0.021263,0.000000,0.058284 LLEG_JOINT4:0.994994,0.092273,0.000000,-0.038380 RARM_JOINT2:0.792599,0.000000,-0.057413,0.607034 RARM_JOINT3:0.965772,0.000000,0.217272,0.141697 RLEG_JOINT2:0.999610,0.018054,0.000000,-0.021291 RLEG_JOINT4:0.995506,0.090519,0.000000,0.027841 WAIST:0.999826,0.000000,-0.016996,-0.007728 WAIST_JOINT0:0.998130,0.000000,-0.059924,-0.012102 WAIST_JOINT1:0.998105,0.057673,0.000000,-0.021437 END:
KINECT_DATA_Sensor  AnkleLeft:0.073401,0.736742,-0.086965,-0.666528 AnkleRight:0.082966,0.743567,0.069624,0.659831 ElbowLeft:-0.259967,0.776139,-0.088878,-0.567562 ElbowRight:0.003456,0.817619,0.188540,0.544004 FootLeft:0.000000,0.000000,0.000000,0.000000 FootRight:0.000000,0.000000,0.000000,0.000000 HandLeft:-0.343779,0.922408,-0.176000,0.001723 HandRight:-0.042971,0.583845,-0.115736,0.802424 HandTipLeft:0.000000,0.000000,0.000000,0.000000 HandTipRight:0.000000,0.000000,0.000000,0.000000 Head:0.000000,0.000000,0.000000,0.000000 HipLeft:0.137975,-0.683275,0.697591,-0.165724 HipRight:-0.111971,0.672324,0.712882,-0.165052 KneeLeft:-0.021639,0.718557,-0.050355,-0.693305 KneeRight:-0.007244,0.695217,0.033325,0.717991 Neck:0.061457,-0.032359,0.994954,-0.072410 ShoulderLeft:-0.033436,0.792791,-0.599626,0.103981 ShoulderRight:0.046387,0.774993,0.630212,-0.008255 SpineBase:0.016571,-0.026667,0.998906,-0.034642 SpineMid:0.038479,-0.027421,0.998303,-0.034049 SpineShoulder:0.061111,-0.030146,0.996336,-0.051680 ThumbLeft:0.000000,0.000000,0.000000,0.000000 ThumbRight:0.000000,0.000000,0.000000,0.000000 WristLeft:-0.342600,0.927631,-0.148274,0.011873 WristRight:-0.114054,0.569050,-0.072817,0.811093 END:
KINECT_DATA POSITION:6.076880,0.023490,-13.916039 HEAD_JOINT1:0.983925,0.156023,-0.000000,0.086885 LARM_JOINT2:0.866364,0.000000,-0.208901,-0.453622 LARM_JOINT3:0.983421,0.000000,-0.176870,0.040006 LLEG_JOINT2:0.998067,0.021214,0.000000,0.058409 LLEG_JOINT4:0.995006,0.093088,0.000000,-0.036013 RARM_JOINT2:0.794592,0.000000,-0.059318,0.604240 RARM_JOINT3:0.962327,0.000000,0.228861,0.146797 RLEG_JOINT2:0.999635,0.016805,0.000000,-0.021142 RLEG_JOINT4:0.995361,0.092130,0.000000,0.027711 WAIST:0.999840,0.000000,-0.016144,-0.007653 WAIST_JOINT0:0.998476,0.000000,-0.053995,-0.011401 WAIST_JOINT1:0.998113,0.057694,0.000000,-0.021033 END:
KINECT_DATA_Sensor  AnkleLeft:0.071974,0.733929,-0.089520,-0.669443 AnkleRight:0.082332,0.735386,0.070946,0.668877 ElbowLeft:-0.260117,0.744895,-0.086289,-0.608296 ElbowRight:0.004979,0.822553,0.191734,0.535369 FootLeft:0.000000,0.000000,0.000000,0.000000 FootRight:0.000000,0.000000,0.000000,0.000000 HandLeft:-0.161990,0.780561,-0.348986,0.492638 HandRight:-0.066554,0.549020,-0.157081,0.818213 HandTipLeft:0.000000,0.000000,0.000000,0.000000 HandTipRight:0.000000,0.000000,0.000000,0.000000 Head:0.000000,0.000000,0.000000,0.000000 HipLeft:0.137565,-0.683335,0.697708,-0.165324 HipRight:-0.112751,0.672314,0.712683,-0.165424 KneeLeft:-0.021768,0.717967,-0.050483,-0.693903 KneeRight:-0.008009,0.695857,0.032296,0.717409 Neck:0.055697,-0.031440,0.995307,-0.072615 ShoulderLeft:-0.033009,0.792937,-0.599792,0.102035 ShoulderRight:0.039508,0.776163,0.629105,-0.015407 SpineBase:0.015731,-0.026283,0.998936,-0.034482 SpineMid:0.035185,-0.026950,0.998440,-0.033963 SpineShoulder:0.055332,-0.029503,0.996685,-0.051833 ThumbLeft:0.000000,0.000000,0.000000,0.000000 ThumbRight:0.000000,0.000000,0.000000,0.000000 WristLeft:-0.180328,0.779565,-0.325308,0.503919 WristRight:-0.108175,0.538354,-0.076848,0.832207 END:
KINECT_DATA POSITION:6.100363,0.030620,-13.903963 HEAD_JOINT1:0.983800,0.157018,-0.000000,0.086504 LARM_JOINT2:0.869067,0.000000,-0.204165,-0.450599 LARM_JOINT3:0.987222,0.000000,-0.150914,0.051173 LLEG_JOINT2:0.998133,0.020911,0.000000,0.057387 LLEG_JOINT4:0.994967,0.092636,0.000000,-0.038211 RARM_JOINT2:0.794083,0.000000,-0.049233,0.605812 RARM_JOINT3:0.965954,0.000000,0.216633,0.141429 RLEG_JOINT2:0.999613,0.016297,0.000000,-0.022558 RLEG_JOINT4:0.995110,0.093933,0.000000,0.030543 WAIST:0.999880,0.000000,-0.013778,-0.007071 WAIST_JOINT0:0.998542,0.000000,-0.052805,-0.011162 WAIST_JOINT1:0.998116,0.057665,0.000000,-0.020960 END:
KINECT_DATA_Sensor  AnkleLeft:0.071706,0.718640,-0.088419,-0.686000 AnkleRight:0.083605,0.728610,0.071486,0.676038 ElbowLeft:-0.264111,0.722094,-0.084769,-0.633751 ElbowRight:0.000348,0.830328,0.186218,0.525241 FootLeft:0.000000,0.000000,0.000000,0.000000 FootRight:0.000000,0.000000,0.000000,0.000000 HandLeft:-0.159764,0.817118,-0.362450,0.418835 HandRight:-0.081845,0.702763,-0.107690,0.698447 HandTipLeft:0.000000,0.000000,0.000000,0.000000 HandTipRight:0.000000,0.000000,0.000000,0.000000 Head:0.000000,0.000000,0.000000,0.000000 HipLeft:0.136478,-0.683195,0.698334,-0.164158 HipRight:-0.114663,0.672343,0.712003,-0.166909 KneeLeft:-0.021526,0.716304,-0.050028,-0.695660 KneeRight:-0.009013,0.697569,0.032541,0.715722 Neck:0.054595,-0.030897,0.995392,-0.072525 ShoulderLeft:-0.030698,0.792702,-0.600567,0.100001 ShoulderRight:0.040351,0.775453,0.629932,-0.015153 SpineBase:0.013351,-0.025797,0.998990,-0.034290 SpineMid:0.033444,-0.026481,0.998519,-0.033764 SpineShoulder:0.054227,-0.029090,0.996763,-0.051736 ThumbLeft:0.000000,0.000000,0.000000,0.000000 ThumbRight:0.000000,0.000000,0.000000,0.000000 WristLeft:-0.171699,0.824613,-0.319176,0.434349 WristRight:-0.119767,0.694697,-0.059129,0.706793 END:
KINECT_DATA POSITION:6.096837,0.024876,-13.854086 HEAD_JOINT1:0.983497,0.158944,-0.000000,0.086433 LARM_JOINT2:0.874179,0.000000,-0.197185,-0.443768 LARM_JOINT3:0.989040,0.000000,-0.139296,0.048951 LLEG_JOINT2:0.998141,0.021028,0.000000,0.057201 LLEG_JOINT4:0.994937,0.094001,0.000000,-0.035553 RARM_JOINT2:0.795092,0.000000,-0.053281,0.604144 RARM_JOINT3:0.965363,0.000000,0.217748,0.143738 RLEG_JOINT2:0.999593,0.017141,0.000000,-0.022781 RLEG_JOINT4:0.995252,0.092491,0.000000,0.030305 WAIST:0.999913,0.000000,-0.011420,-0.006616 WAIST_JOINT0:0.998683,0.000000,-0.050025,-0.011415 WAIST_JOINT1:0.998060,0.058656,0.000000,-0.020899 END:
KINECT_DATA_Sensor  AnkleLeft:0.072908,0.731752,-0.089798,-0.671685 AnkleRight:0.082510,0.725703,0.071871,0.679251 ElbowLeft:-0.268916,0.706179,-0.091321,-0.648580 ElbowRight:0.002246,0.829095,0.189421,0.526038 FootLeft:0.000000,0.000000,0.000000,0.000000 FootRight:0.000000,0.000000,0.000000,0.000000 HandLeft:-0.249661,0.899715,-0.309181,0.180526 HandRight:-0.094159,0.824129,-0.092315,0.550839 HandTipLeft:0.000000,0.000000,0.000000,0.000000 HandTipRight:0.000000,0.000000,0.000000,0.000000 Head:0.000000,0.000000,0.000000,0.000000 HipLeft:0.135039,-0.683152,0.698852,-0.163323 HipRight:-0.115975,0.672345,0.711393,-0.168591 KneeLeft:-0.021504,0.714638,-0.050365,-0.697348 KneeRight:-0.008307,0.699256,0.032958,0.714063 Neck:0.051799,-0.030579,0.995462,-0.073739 ShoulderLeft:-0.029019,0.792560,-0.601003,0.099000 ShoulderRight:0.038499,0.775371,0.630058,-0.018581 SpineBase:0.010972,-0.025469,0.999015,-0.034646 SpineMid:0.030856,-0.026154,0.998598,-0.034132 SpineShoulder:0.051435,-0.028694,0.996876,-0.052626 ThumbLeft:0.000000,0.000000,0.000000,0.000000 ThumbRight:0.000000,0.000000,0.000000,0.000000 WristLeft:-0.226201,0.915680,-0.275423,0.185754 WristRight:-0.128665,0.821616,-0.032245,0.554394 END:
KINECT_DATA POSITION:6.096297,0.025020,-13.840199 HEAD_JOINT1:0.983362,0.159783,-0.000000,0.086422 LARM_JOINT2:0.874977,0.000000,-0.196552,-0.442473 LARM_JOINT3:0.986433,0.000000,-0.157144,0.047490 LLEG_JOINT2:0.998168,0.020609,0.000000,0.056887 LLEG_JOINT4:0.994961,0.093915,0.000000,-0.035109 RARM_JOINT2:0.794870,0.000000,-0.051077,0.604627 RARM_JOINT3:0.964467,0.000000,0.222767,0.142047 RLEG_JOINT2:0.999575,0.018126,0.000000,-0.022843 RLEG_JOINT4:0.995251,0.093080,0.000000,0.028482 WAIST:0.999929,0.000000,-0.010174,-0.006159 WAIST_JOINT0:0.998699,0.000000,-0.049698,-0.011448 WAIST_JOINT1:0.997994,0.059718,0.000000,-0.021022 END:
KINECT_DATA_Sensor  AnkleLeft:0.072356,0.731656,-0.089718,-0.671859 AnkleRight:0.084226,0.740853,0.072298,0.662432 ElbowLeft:-0.268717,0.708647,-0.095301,-0.645390 ElbowRight:0.001815,0.830146,0.188448,0.524730 FootLeft:0.000000,0.000000,0.000000,0.000000 FootRight:0.000000,0.000000,0.000000,0.000000 HandLeft:0.143710,0.211579,-0.388168,0.885385 HandRight:-0.072471,0.589552,-0.135845,0.792920 HandTipLeft:0.000000,0.000000,0.000000,0.000000 HandTipRight:0.000000,0.000000,0.000000,0.000000 Head:0.000000,0.000000,0.000000,0.000000 HipLeft:0.134081,-0.682957,0.699272,-0.163125 HipRight:-0.116458,0.672437,0.710933,-0.169826 KneeLeft:-0.021830,0.713706,-0.050199,-0.698303 KneeRight:-0.007358,0.700156,0.033362,0.713172 Neck:0.051428,-0.030440,0.995397,-0.074922 ShoulderLeft:-0.026787,0.791932,-0.602018,0.098489 ShoulderRight:0.040277,0.774596,0.630897,-0.018654 SpineBase:0.009694,-0.025302,0.999012,-0.035218 SpineMid:0.030030,-0.026014,0.998608,-0.034695 SpineShoulder:0.051070,-0.028505,0.996848,-0.053596 ThumbLeft:0.000000,0.000000,0.000000,0.000000 ThumbRight:0.000000,0.000000,0.000000,0.000000 WristLeft:0.149408,0.229260,-0.325966,0.904911 WristRight:-0.109055,0.581097,-0.074387,0.803056 END:
KINECT_DATA POSITION:6.086085,0.037231,-13.752472 HEAD_JOINT1:0.983526,0.157609,-0.000000,0.088524 LARM_JOINT2:0.886368,0.000000,-0.186035,-0.423961 LARM_JOINT3:0.948461,0.000000,-0.308216,0.073655 LLEG_JOINT2:0.998253,0.019806,0.000000,0.055665 LLEG_JOINT4:0.995026,0.094152,0.000000,-0.032531 RARM_JOINT2:0.798848,0.000000,-0.059188,0.598613 RARM_JOINT3:0.962889,0.000000,0.225109,0.148900 RLEG_JOINT2:0.999538,0.019746,0.000000,-0.023089 RLEG_JOINT4:0.995363,0.092291,0.000000,0.027122 WAIST:0.999968,0.000000,-0.006149,-0.005183 WAIST_JOINT0:0.999118,0.000000,-0.041485,-0.006542 WAIST_JOINT1:0.998101,0.058802,0.000000,-0.018351 END:
KINECT_DATA_Sensor  AnkleLeft:0.070555,0.727646,-0.090904,-0.676232 AnkleRight:0.078188,0.690027,0.079995,0.715088 ElbowLeft:-0.280471,0.716707,-0.125696,-0.625993 ElbowRight:0.004098,0.830474,0.194042,0.522153 FootLeft:0.000000,0.000000,0.000000,0.000000 FootRight:0.000000,0.000000,0.000000,0.000000 HandLeft:0.116353,0.100721,-0.528932,0.834594 HandRight:-0.057845,0.565363,-0.135539,0.811571 HandTipLeft:0.000000,0.000000,0.000000,0.000000 HandTipRight:0.000000,0.000000,0.000000,0.000000 Head:0.000000,0.000000,0.000000,0.000000 HipLeft:0.131678,-0.682905,0.700246,-0.161114 HipRight:-0.119508,0.672859,0.709611,-0.171555 KneeLeft:-0.021998,0.710854,-0.049561,-0.701247 KneeRight:-0.005807,0.702974,0.033971,0.710380 Neck:0.042738,-0.026171,0.996016,-0.073761 ShoulderLeft:-0.025347,0.790290,-0.604929,0.094134 ShoulderRight:0.030464,0.779838,0.624642,-0.027333 SpineBase:0.005679,-0.023481,0.999102,-0.034794 SpineMid:0.023672,-0.024104,0.998838,-0.034365 SpineShoulder:0.042389,-0.024984,0.997383,-0.052968 ThumbLeft:0.000000,0.000000,0.000000,0.000000 ThumbRight:0.000000,0.000000,0.000000,0.000000 WristLeft:0.135673,0.136380,-0.425270,0.884386 WristRight:-0.106646,0.554558,-0.078848,0.821508 END:
KINECT_DATA POSITION:6.057069,0.037870,-13.688957 HEAD_JOINT1:0.983398,0.155136,-0.000000,0.094137 LARM_JOINT2:0.890537,0.000000,-0.223313,-0.396327 LARM_JOINT3:0.948058,0.000000,-0.305354,0.089133 LLEG_JOINT2:0.998320,0.018756,0.000000,0.054823 LLEG_JOINT4:0.994883,0.095632,0.000000,-0.032604 RARM_JOINT2:0.800085,0.000000,-0.062296,0.596643 RARM_JOINT3:0.961891,0.000000,0.228224,0.150599 RLEG_JOINT2:0.999528,0.019380,0.000000,-0.023822 RLEG_JOINT4:0.995248,0.093209,0.000000,0.028180 WAIST:0.999981,0.000000,-0.004429,-0.004363 WAIST_JOINT0:0.999157,0.000000,-0.040949,-0.002977 WAIST_JOINT1:0.998286,0.056530,0.000000,-0.015139 END:
KINECT_DATA_Sensor  AnkleLeft:0.071226,0.727275,-0.090917,-0.676559 AnkleRight:0.085049,0.743062,0.073520,0.659712 ElbowLeft:-0.322023,0.707174,-0.109692,-0.619818 ElbowRight:0.004671,0.830528,0.192627,0.522587 FootLeft:0.000000,0.000000,0.000000,0.000000 FootRight:0.000000,0.000000,0.000000,0.000000 HandLeft:0.106343,0.124703,-0.545972,0.821617 HandRight:-0.103285,0.802467,-0.116859,0.575955 HandTipLeft:0.000000,0.000000,0.000000,0.000000 HandTipRight:0.000000,0.000000,0.000000,0.000000 Head:0.000000,0.000000,0.000000,0.000000 HipLeft:0.130382,-0.682720,0.700971,-0.159790 HipRight:-0.121567,0.673684,0.708655,-0.170820 KneeLeft:-0.022627,0.709640,-0.048847,-0.702505 KneeRight:-0.006058,0.704157,0.033651,0.709221 Neck:0.041594,-0.022219,0.996344,-0.071233 ShoulderLeft:-0.027313,0.788583,-0.607252,0.092933 ShoulderRight:0.026847,0.783746,0.619895,-0.027405 SpineBase:0.004018,-0.020677,0.999212,-0.033655 SpineMid:0.022309,-0.021289,0.998971,-0.033271 SpineShoulder:0.041328,-0.021021,0.997627,-0.050891 ThumbLeft:0.000000,0.000000,0.000000,0.000000 ThumbRight:0.000000,0.000000,0.000000,0.000000 WristLeft:0.120086,0.148472,-0.481652,0.855305 WristRight:-0.127591,0.802344,-0.040769,0.581638 END:
KINECT_DATA POSITION:5.904946,0.034925,-13.624883 HEAD_JOINT1:0.983120,0.152201,-0.000000,0.101538 LARM_JOINT2:0.895420,0.000000,-0.278972,-0.346982 LARM_JOINT3:0.963006,0.000000,-0.259012,0.074375 LLEG_JOINT2:0.998343,0.019425,0.000000,0.054170 LLEG_JOINT4:0.994760,0.097532,0.000000,-0.030648 RARM_JOINT2:0.802194,0.000000,-0.073857,0.592478 RARM_JOINT3:0.963427,0.000000,0.220544,0.152211 RLEG_JOINT2:0.999518,0.020232,0.000000,-0.023563 RLEG_JOINT4:0.995240,0.093804,0.000000,0.026424 WAIST:0.999974,0.000000,-0.006641,-0.002784 WAIST_JOINT0:0.998997,0.000000,-0.044762,0.000712 WAIST_JOINT1:0.998471,0.053395,0.000000,-0.014298 END:
KINECT_DATA_Sensor  AnkleLeft:0.071058,0.729356,-0.094810,-0.673797 AnkleRight:0.080311,0.687859,0.080724,0.716857 ElbowLeft:-0.381121,0.717511,-0.095312,-0.575187 ElbowRight:0.009870,0.828411,0.197019,0.524234 FootLeft:0.000000,0.000000,0.000000,0.000000 FootRight:0.000000,0.000000,0.000000,0.000000 HandLeft:0.083608,0.154596,-0.547373,0.818225 HandRight:-0.069708,0.712274,-0.091939,0.692353 HandTipLeft:0.000000,0.000000,0.000000,0.000000 HandTipRight:0.000000,0.000000,0.000000,0.000000 Head:0.000000,0.000000,0.000000,0.000000 HipLeft:0.131915,-0.681743,0.701710,-0.159459 HipRight:-0.122389,0.675864,0.707522,-0.166258 KneeLeft:-0.022912,0.711267,-0.049927,-0.700772 KneeRight:-0.004092,0.702518,0.032954,0.710891 Neck:0.044467,-0.020170,0.996470,-0.068283 ShoulderLeft:-0.039760,0.785211,-0.609916,0.099321 ShoulderRight:0.018125,0.788062,0.614663,-0.028626 SpineBase:0.006289,-0.016618,0.999367,-0.030816 SpineMid:0.024988,-0.017192,0.999075,-0.030500 SpineShoulder:0.044303,-0.018256,0.997705,-0.047839 ThumbLeft:0.000000,0.000000,0.000000,0.000000 ThumbRight:0.000000,0.000000,0.000000,0.000000 WristLeft:0.102300,0.175494,-0.509199,0.836333 WristRight:-0.118231,0.708054,-0.057064,0.693847 END:
KINECT_DATA POSITION:5.832947,0.037798,-13.637697 HEAD_JOINT1:0.983067,0.150533,-0.000000,0.104490 LARM_JOINT2:0.892322,0.000000,-0.316383,-0.321967 LARM_JOINT3:0.966348,0.000000,-0.249802,0.061407 LLEG_JOINT2:0.998360,0.019957,0.000000,0.053649 LLEG_JOINT4:0.994947,0.095229,0.000000,-0.031823 RARM_JOINT2:0.802671,0.000000,-0.078999,0.591167 RARM_JOINT3:0.961567,0.000000,0.227237,0.154117 RLEG_JOINT2:0.999515,0.020091,0.000000,-0.023778 RLEG_JOINT4:0.995117,0.094274,0.000000,0.029239 WAIST:0.999968,0.000000,-0.007769,-0.002063 WAIST_JOINT0:0.998897,0.000000,-0.046912,0.002028 WAIST_JOINT1:0.998513,0.052421,0.000000,-0.014933 END:
KINECT_DATA_Sensor  AnkleLeft:0.073579,0.753716,-0.090423,-0.646778 AnkleRight:0.087612,0.729408,0.073333,0.674470 ElbowLeft:-0.408508,0.738829,-0.089262,-0.528475 ElbowRight:0.011645,0.825186,0.199413,0.528362 FootLeft:0.000000,0.000000,0.000000,0.000000 FootRight:0.000000,0.000000,0.000000,0.000000 HandLeft:0.095401,0.102083,-0.554740,0.820208 HandRight:-0.092817,0.783577,-0.091992,0.607395 HandTipLeft:0.000000,0.000000,0.000000,0.000000 HandTipRight:0.000000,0.000000,0.000000,0.000000 Head:0.000000,0.000000,0.000000,0.000000 HipLeft:0.132882,-0.681325,0.701984,-0.159239 HipRight:-0.122370,0.676778,0.707063,-0.164494 KneeLeft:-0.022730,0.712082,-0.050423,-0.699915 KneeRight:-0.003800,0.701716,0.032500,0.711705 Neck:0.046425,-0.020182,0.996444,-0.067362 ShoulderLeft:-0.045791,0.784384,-0.609942,0.103038 ShoulderRight:0.014627,0.789573,0.612794,-0.029050 SpineBase:0.007412,-0.015724,0.999409,-0.029659 SpineMid:0.026548,-0.016289,0.999084,-0.029352 SpineShoulder:0.046276,-0.018084,0.997665,-0.046861 ThumbLeft:0.000000,0.000000,0.000000,0.000000 ThumbRight:0.000000,0.000000,0.000000,0.000000 WristLeft:0.102192,0.112399,-0.526038,0.836784 WristRight:-0.125295,0.780882,-0.042997,0.610472 END:
KINECT_DATA POSITION:5.781878,0.040960,-13.657438 HEAD_JOINT1:0.982775,0.151073,-0.000000,0.106448 LARM_JOINT2:0.887525,0.000000,-0.346515,-0.303690 LARM_JOINT3:0.972603,0.000000,-0.226967,0.050284 LLEG_JOINT2:0.998360,0.020895,0.000000,0.053295 LLEG_JOINT4:0.995081,0.093902,0.000000,-0.031569 RARM_JOINT2:0.799379,0.000000,-0.072415,0.596447 RARM_JOINT3:0.962439,0.000000,0.226344,0.149932 RLEG_JOINT2:0.999487,0.020958,0.000000,-0.024239 RLEG_JOINT4:0.995291,0.092526,0.000000,0.028878 WAIST:0.999959,0.000000,-0.008974,-0.001299 WAIST_JOINT0:0.998421,0.000000,-0.055941,0.005147 WAIST_JOINT1:0.998566,0.051195,0.000000,-0.015678 END:
KINECT_DATA_Sensor  AnkleLeft:0.070064,0.735386,-0.092837,-0.667593 AnkleRight:0.088973,0.747056,0.070268,0.655021 ElbowLeft:-0.428135,0.758712,-0.086861,-0.483230 ElbowRight:0.008307,0.823772,0.191172,0.533652 FootLeft:0.000000,0.000000,0.000000,0.000000 FootRight:0.000000,0.000000,0.000000,0.000000 HandLeft:0.095301,0.066963,-0.578266,0.807492 HandRight:-0.094802,0.819728,-0.092880,0.557164 HandTipLeft:0.000000,0.000000,0.000000,0.000000 HandTipRight:0.000000,0.000000,0.000000,0.000000 Head:0.000000,0.000000,0.000000,0.000000 HipLeft:0.134253,-0.680852,0.702231,-0.159020 HipRight:-0.122378,0.677657,0.706594,-0.162878 KneeLeft:-0.022417,0.712956,-0.051356,-0.698966 KneeRight:-0.002927,0.700844,0.032899,0.712550 Neck:0.055801,-0.020689,0.996045,-0.065977 ShoulderLeft:-0.050813,0.783332,-0.610056,0.107886 ShoulderRight:0.021525,0.791040,0.611095,-0.018832 SpineBase:0.008601,-0.015274,0.999443,-0.028406 SpineMid:0.031814,-0.015930,0.998973,-0.028043 SpineShoulder:0.055677,-0.018320,0.997242,-0.045520 ThumbLeft:0.000000,0.000000,0.000000,0.000000 ThumbRight:0.000000,0.000000,0.000000,0.000000 WristLeft:0.110264,0.089692,-0.515791,0.844842 WristRight:-0.130942,0.816685,-0.040008,0.560607 END:
KINECT_DATA POSITION:5.727644,0.057832,-13.751019 HEAD_JOINT1:0.982932,0.150741,-0.000000,0.105462 LARM_JOINT2:0.886266,0.000000,-0.360409,-0.290926 LARM_JOINT3:0.968792,0.000000,-0.242889,0.049461 LLEG_JOINT2:0.998353,0.021453,0.000000,0.053213 LLEG_JOINT4:0.995253,0.091488,0.000000,-0.033190 RARM_JOINT2:0.801457,0.000000,-0.078191,0.592919 RARM_JOINT3:0.962800,0.000000,0.224842,0.149877 RLEG_JOINT2:0.999550,0.017567,0.000000,-0.024316 RLEG_JOINT4:0.995212,0.093920,0.000000,0.027058 WAIST:0.999911,0.000000,-0.013316,-0.000688 WAIST_JOINT0:0.998223,0.000000,-0.059442,0.004268 WAIST_JOINT1:0.998518,0.051739,0.000000,-0.016869 END:
KINECT_DATA_Sensor  AnkleLeft:0.068901,0.737358,-0.091196,-0.665762 AnkleRight:0.085772,0.733451,0.071039,0.670556 ElbowLeft:-0.439942,0.765636,-0.084533,-0.461636 ElbowRight:0.011773,0.821079,0.197390,0.535470 FootLeft:0.000000,0.000000,0.000000,0.000000 FootRight:0.000000,0.000000,0.000000,0.000000 HandLeft:0.086113,0.003119,-0.602303,0.793603 HandRight:-0.095148,0.849706,-0.061492,0.514942 HandTipLeft:0.000000,0.000000,0.000000,0.000000 HandTipRight:0.000000,0.000000,0.000000,0.000000 Head:0.000000,0.000000,0.000000,0.000000 HipLeft:0.135910,-0.680021,0.702244,-0.161101 HipRight:-0.118704,0.678703,0.706819,-0.160245 KneeLeft:-0.022625,0.715960,-0.052028,-0.695832 KneeRight:-0.004840,0.697843,0.030166,0.715599 Neck:0.059148,-0.020987,0.995790,-0.066809 ShoulderLeft:-0.057584,0.782672,-0.609138,0.114274 ShoulderRight:0.019219,0.790877,0.611344,-0.020069 SpineBase:0.012892,-0.015396,0.999379,-0.028961 SpineMid:0.035633,-0.016051,0.998827,-0.028603 SpineShoulder:0.059020,-0.018660,0.997018,-0.046080 ThumbLeft:0.000000,0.000000,0.000000,0.000000 ThumbRight:0.000000,0.000000,0.000000,0.000000 WristLeft:0.118161,0.040437,-0.525231,0.841745 WristRight:-0.132315,0.845486,-0.029586,0.516499 END:
KINECT_DATA POSITION:5.762003,0.136083,-14.210093 HEAD_JOINT1:0.983408,0.147903,-0.000000,0.105044 LARM_JOINT2:0.874949,0.000000,-0.409164,-0.258936 LARM_JOINT3:0.990658,0.000000,-0.135768,0.012819 LLEG_JOINT2:0.998171,0.023119,0.000000,0.055860 LLEG_JOINT4:0.995252,0.089629,0.000000,-0.037942 RARM_JOINT2:0.799881,0.000000,-0.065571,0.596566 RARM_JOINT3:0.964079,0.000000,0.220657,0.147859 RLEG_JOINT2:0.999673,0.010056,0.000000,-0.023524 RLEG_JOINT4:0.994787,0.099009,0.000000,0.024418 WAIST:0.999626,0.000000,-0.027233,-0.002381 WAIST_JOINT0:0.996677,0.000000,-0.081446,-0.001532 WAIST_JOINT1:0.998204,0.056730,0.000000,-0.019228 END:
KINECT_DATA_Sensor  AnkleLeft:0.070325,0.748414,-0.089047,-0.653453 AnkleRight:0.083883,0.736363,0.069475,0.667762 ElbowLeft:-0.466981,0.792978,-0.071330,-0.384742 ElbowRight:0.010313,0.817250,0.195413,0.542042 FootLeft:0.000000,0.000000,0.000000,0.000000 FootRight:0.000000,0.000000,0.000000,0.000000 HandLeft:0.071161,0.139029,-0.510963,0.845295 HandRight:-0.069139,0.684259,-0.085671,0.720882 HandTipLeft:0.000000,0.000000,0.000000,0.000000 HandTipRight:0.000000,0.000000,0.000000,0.000000 Head:0.000000,0.000000,0.000000,0.000000 HipLeft:0.140415,-0.678305,0.700265,-0.172667 HipRight:-0.106598,0.678179,0.710065,-0.156583 KneeLeft:-0.022933,0.725547,-0.053536,-0.685704 KneeRight:-0.010531,0.688028,0.025689,0.725153 Neck:0.081502,-0.026403,0.993554,-0.074235 ShoulderLeft:-0.068041,0.782182,-0.604844,0.133138 ShoulderRight:0.038197,0.785047,0.618239,-0.004682 SpineBase:0.026759,-0.016687,0.998884,-0.035169 SpineMid:0.053807,-0.017634,0.997792,-0.034704 SpineShoulder:0.081477,-0.022076,0.995165,-0.050198 ThumbLeft:0.000000,0.000000,0.000000,0.000000 ThumbRight:0.000000,0.000000,0.000000,0.000000 WristLeft:0.074461,0.141006,-0.510489,0.844969 WristRight:-0.121180,0.674622,-0.059833,0.725686 END:
KINECT_DATA POSITION:5.758035,0.135045,-14.272380 HEAD_JOINT1:0.983913,0.144950,-0.000000,0.104429 LARM_JOINT2:0.884652,0.000000,-0.379228,-0.271250 LARM_JOINT3:0.981640,0.000000,-0.189538,0.021396 LLEG_JOINT2:0.998134,0.022989,0.000000,0.056562 LLEG_JOINT4:0.995307,0.088633,0.000000,-0.038825 RARM_JOINT2:0.804251,0.000000,-0.083636,0.588375 RARM_JOINT3:0.959784,0.000000,0.232277,0.157679 RLEG_JOINT2:0.999703,0.008467,0.000000,-0.022860 RLEG_JOINT4:0.994724,0.099720,0.000000,0.024084 WAIST:0.999573,0.000000,-0.029033,-0.003298 WAIST_JOINT0:0.997006,0.000000,-0.077267,-0.002809 WAIST_JOINT1:0.998153,0.056794,0.000000,-0.021584 END:
KINECT_DATA_Sensor  AnkleLeft:0.069637,0.746358,-0.087953,-0.656022 AnkleRight:0.084051,0.745966,0.067860,0.657165 ElbowLeft:-0.453687,0.769082,-0.063568,-0.445690 ElbowRight:0.017214,0.810698,0.212216,0.545378 FootLeft:0.000000,0.000000,0.000000,0.000000 FootRight:0.000000,0.000000,0.000000,0.000000 HandLeft:0.079626,0.026398,-0.519755,0.850187 HandRight:-0.099076,0.795029,-0.071638,0.594122 HandTipLeft:0.000000,0.000000,0.000000,0.000000 HandTipRight:0.000000,0.000000,0.000000,0.000000 Head:0.000000,0.000000,0.000000,0.000000 HipLeft:0.142307,-0.678791,0.699355,-0.172897 HipRight:-0.105298,0.677696,0.710947,-0.155548 KneeLeft:-0.022986,0.726800,-0.053231,-0.684398 KneeRight:-0.011835,0.686762,0.024780,0.726363 Neck:0.077251,-0.029116,0.993886,-0.073314 ShoulderLeft:-0.073912,0.783201,-0.602210,0.135932 ShoulderRight:0.027298,0.785820,0.617685,-0.014341 SpineBase:0.028552,-0.018798,0.998815,-0.034652 SpineMid:0.052557,-0.019625,0.997840,-0.034190 SpineShoulder:0.077158,-0.024934,0.995417,-0.050697 ThumbLeft:0.000000,0.000000,0.000000,0.000000 ThumbRight:0.000000,0.000000,0.000000,0.000000 WristLeft:0.127367,0.056726,-0.511623,0.847822 WristRight:-0.131466,0.791443,-0.029904,0.596189 END:
KINECT_DATA POSITION:5.795685,0.123579,-14.256501 HEAD_JOINT1:0.984011,0.145032,-0.000000,0.103388 LARM_JOINT2:0.902511,0.000000,-0.298987,-0.309968 LARM_JOINT3:0.943724,0.000000,-0.327983,0.042573 LLEG_JOINT2:0.998196,0.022087,0.000000,0.055834 LLEG_JOINT4:0.995089,0.091484,0.000000,-0.037787 RARM_JOINT2:0.804641,0.000000,-0.087700,0.587249 RARM_JOINT3:0.955202,0.000000,0.242386,0.169817 RLEG_JOINT2:0.999687,0.009097,0.000000,-0.023288 RLEG_JOINT4:0.994784,0.098934,0.000000,0.024851 WAIST:0.999666,0.000000,-0.025670,-0.003130 WAIST_JOINT0:0.997830,0.000000,-0.065829,-0.001581 WAIST_JOINT1:0.998238,0.055467,0.000000,-0.021085 END:
KINECT_DATA_Sensor  AnkleLeft:0.070532,0.740354,-0.089803,-0.662447 AnkleRight:0.083287,0.741065,0.068557,0.662711 ElbowLeft:-0.406735,0.753532,-0.108724,-0.504910 ElbowRight:0.017475,0.810249,0.213432,0.545562 FootLeft:0.000000,0.000000,0.000000,0.000000 FootRight:0.000000,0.000000,0.000000,0.000000 HandLeft:0.068165,-0.054005,-0.570326,0.816802 HandRight:-0.043154,0.471739,-0.156373,0.866688 HandTipLeft:0.000000,0.000000,0.000000,0.000000 HandTipRight:0.000000,0.000000,0.000000,0.000000 Head:0.000000,0.000000,0.000000,0.000000 HipLeft:0.141392,-0.679413,0.699546,-0.170413 HipRight:-0.108586,0.677529,0.710202,-0.157409 KneeLeft:-0.023015,0.724481,-0.052279,-0.686924 KneeRight:-0.011629,0.689172,0.025373,0.724060 Neck:0.065803,-0.027384,0.994917,-0.071133 ShoulderLeft:-0.062879,0.784173,-0.604783,0.123923 ShoulderRight:0.023203,0.786545,0.616771,-0.020047 SpineBase:0.025195,-0.019048,0.998942,-0.033437 SpineMid:0.045151,-0.019712,0.998239,-0.033050 SpineShoulder:0.065639,-0.024229,0.996303,-0.049845 ThumbLeft:0.000000,0.000000,0.000000,0.000000 ThumbRight:0.000000,0.000000,0.000000,0.000000 WristLeft:0.128314,-0.007113,-0.537297,0.833545 WristRight:-0.106215,0.455988,-0.085670,0.879463 END:
KINECT_DATA POSITION:5.865263,0.106936,-14.248360 HEAD_JOINT1:0.983814,0.148028,-0.000000,0.100982 LARM_JOINT2:0.899597,0.000000,-0.307926,-0.309689 LARM_JOINT3:0.944741,0.000000,-0.323806,0.051136 LLEG_JOINT2:0.998329,0.021015,0.000000,0.053831 LLEG_JOINT4:0.995155,0.091413,0.000000,-0.036187 RARM_JOINT2:0.805731,0.000000,-0.083342,0.586389 RARM_JOINT3:0.954490,0.000000,0.243767,0.171832 RLEG_JOINT2:0.999626,0.011552,0.000000,-0.024790 RLEG_JOINT4:0.994861,0.098539,0.000000,0.023265 WAIST:0.999799,0.000000,-0.019953,-0.001878 WAIST_JOINT0:0.998409,0.000000,-0.056377,0.000954 WAIST_JOINT1:0.998348,0.054100,0.000000,-0.019329 END:
KINECT_DATA_Sensor  AnkleLeft:0.069530,0.735635,-0.089360,-0.667849 AnkleRight:0.084680,0.756774,0.070210,0.644354 ElbowLeft:-0.412094,0.748433,-0.102300,-0.509472 ElbowRight:0.014514,0.818534,0.209931,0.534528 FootLeft:0.000000,0.000000,0.000000,0.000000 FootRight:0.000000,0.000000,0.000000,0.000000 HandLeft:0.033817,0.043422,-0.565315,0.823037 HandRight:-0.120227,0.837113,-0.122310,0.519450 HandTipLeft:0.000000,0.000000,0.000000,0.000000 HandTipRight:0.000000,0.000000,0.000000,0.000000 Head:0.000000,0.000000,0.000000,0.000000 HipLeft:0.138618,-0.679585,0.700764,-0.166972 HipRight:-0.113325,0.677887,0.708425,-0.160499 KneeLeft:-0.022890,0.720494,-0.051142,-0.691193 KneeRight:-0.010147,0.693253,0.027216,0.720109 Neck:0.056350,-0.023365,0.995732,-0.069261 ShoulderLeft:-0.055767,0.783241,-0.608436,0.115020 ShoulderRight:0.017819,0.787584,0.615409,-0.025808 SpineBase:0.019460,-0.017874,0.999124,-0.032455 SpineMid:0.037530,-0.018458,0.998608,-0.032126 SpineShoulder:0.056123,-0.021667,0.997000,-0.048699 ThumbLeft:0.000000,0.000000,0.000000,0.000000 ThumbRight:0.000000,0.000000,0.000000,0.000000 WristLeft:0.064436,0.063893,-0.567441,0.818399 WristRight:-0.135238,0.838231,-0.029054,0.527480 END:
KINECT_DATA POSITION:5.845903,0.121519,-14.259779 HEAD_JOINT1:0.983235,0.148980,-0.000000,0.105133 LARM_JOINT2:0.882374,0.000000,-0.379510,-0.278188 LARM_JOINT3:0.971899,0.000000,-0.233120,0.032678 LLEG_JOINT2:0.998379,0.020516,0.000000,0.053087 LLEG_JOINT4:0.995222,0.090939,0.000000,-0.035550 RARM_JOINT2:0.797807,0.000000,-0.067090,0.599169 RARM_JOINT3:0.962519,0.000000,0.226818,0.148698 RLEG_JOINT2:0.999608,0.010990,0.000000,-0.025742 RLEG_JOINT4:0.994760,0.099257,0.000000,0.024493 WAIST:0.999817,0.000000,-0.019112,-0.000866 WAIST_JOINT0:0.997483,0.000000,-0.070891,0.001186 WAIST_JOINT1:0.998301,0.055096,0.000000,-0.018974 END:
KINECT_DATA_Sensor  AnkleLeft:0.069368,0.743169,-0.088457,-0.659594 AnkleRight:0.076500,0.673547,0.079251,0.730891 ElbowLeft:-0.450549,0.771727,-0.073224,-0.442811 ElbowRight:0.008977,0.816593,0.190967,0.544635 FootLeft:0.000000,0.000000,0.000000,0.000000 FootRight:0.000000,0.000000,0.000000,0.000000 HandLeft:0.004280,0.097257,-0.559949,0.822788 HandRight:-0.062013,0.680232,-0.099974,0.723494 HandTipLeft:0.000000,0.000000,0.000000,0.000000 HandTipRight:0.000000,0.000000,0.000000,0.000000 Head:0.000000,0.000000,0.000000,0.000000 HipLeft:0.138423,-0.678749,0.701652,-0.166800 HipRight:-0.113943,0.678268,0.707846,-0.161009 KneeLeft:-0.023375,0.719847,-0.051000,-0.691862 KneeRight:-0.010518,0.693897,0.026791,0.719499 Neck:0.071886,-0.023213,0.994669,-0.070190 ShoulderLeft:-0.059104,0.782977,-0.606908,0.122948 ShoulderRight:0.034379,0.785334,0.618042,-0.009660 SpineBase:0.018573,-0.017285,0.999150,-0.032495 SpineMid:0.044799,-0.018132,0.998318,-0.032030 SpineShoulder:0.071717,-0.021187,0.995981,-0.049284 ThumbLeft:0.000000,0.000000,0.000000,0.000000 ThumbRight:0.000000,0.000000,0.000000,0.000000 WristLeft:0.048503,0.129500,-0.539363,0.830641 WristRight:-0.123159,0.668160,-0.070034,0.730403 END:
KINECT_DATA POSITION:5.754033,0.142956,-14.235234 HEAD_JOINT1:0.982610,0.148937,-0.000000,0.110881 LARM_JOINT2:0.871158,0.000000,-0.411801,-0.267401 LARM_JOINT3:0.983170,0.000000,-0.182286,0.012213 LLEG_JOINT2:0.998314,0.020961,0.000000,0.054128 LLEG_JOINT4:0.995251,0.090178,0.000000,-0.036641 RARM_JOINT2:0.793744,0.000000,-0.060424,0.605243 RARM_JOINT3:0.964251,0.000000,0.224345,0.141032 RLEG_JOINT2:0.999605,0.009205,0.000000,-0.026571 RLEG_JOINT4:0.994526,0.101619,0.000000,0.024337 WAIST:0.999740,0.000000,-0.022790,0.000048 WAIST_JOINT0:0.996020,0.000000,-0.089123,0.000976 WAIST_JOINT1:0.998231,0.055944,0.000000,-0.020118 END:
KINECT_DATA_Sensor  AnkleLeft:0.069181,0.752504,-0.088379,-0.648953 AnkleRight:0.076343,0.663152,0.080238,0.740246 ElbowLeft:-0.463851,0.783936,-0.055636,-0.408891 ElbowRight:0.007872,0.812360,0.183006,0.553641 FootLeft:0.000000,0.000000,0.000000,0.000000 FootRight:0.000000,0.000000,0.000000,0.000000 HandLeft:0.002160,0.110884,-0.527953,0.842001 HandRight:-0.062024,0.691878,-0.098892,0.712515 HandTipLeft:0.000000,0.000000,0.000000,0.000000 HandTipRight:0.000000,0.000000,0.000000,0.000000 Head:0.000000,0.000000,0.000000,0.000000 HipLeft:0.141998,-0.677101,0.701751,-0.170047 HipRight:-0.112435,0.678834,0.707749,-0.160103 KneeLeft:-0.024653,0.722311,-0.052600,-0.689124 KneeRight:-0.011638,0.691327,0.025549,0.721997 Neck:0.090389,-0.024608,0.993075,-0.070890 ShoulderLeft:-0.073884,0.781194,-0.603984,0.139569 ShoulderRight:0.043670,0.784697,0.618334,0.002618 SpineBase:0.022177,-0.017351,0.999065,-0.032799 SpineMid:0.055794,-0.018445,0.997753,-0.032196 SpineShoulder:0.090288,-0.021908,0.994426,-0.049859 ThumbLeft:0.000000,0.000000,0.000000,0.000000 ThumbRight:0.000000,0.000000,0.000000,0.000000 WristLeft:0.053036,0.141882,-0.524429,0.837873 WristRight:-0.124925,0.679361,-0.068465,0.719844 END:
KINECT_DATA POSITION:5.697318,0.137047,-14.158154 HEAD_JOINT1:0.982547,0.148029,-0.000000,0.112648 LARM_JOINT2:0.867167,0.000000,-0.419244,-0.268805 LARM_JOINT3:0.987244,0.000000,-0.158339,0.016657 LLEG_JOINT2:0.998260,0.023431,0.000000,0.054108 LLEG_JOINT4:0.995173,0.089962,0.000000,-0.039214 RARM_JOINT2:0.797030,0.000000,-0.068304,0.600065 RARM_JOINT3:0.962771,0.000000,0.225539,0.149008 RLEG_JOINT2:0.999595,0.009197,0.000000,-0.026935 RLEG_JOINT4:0.994245,0.104396,0.000000,0.024063 WAIST:0.999644,0.000000,-0.026672,0.000242 WAIST_JOINT0:0.996003,0.000000,-0.089324,-0.000052 WAIST_JOINT1:0.998178,0.056550,0.000000,-0.021037 END:
KINECT_DATA_Sensor  AnkleLeft:0.071764,0.752208,-0.088719,-0.648970 AnkleRight:0.087183,0.740564,0.072723,0.662325 ElbowLeft:-0.462974,0.793187,-0.052344,-0.392135 ElbowRight:0.012486,0.811973,0.191858,0.551121 FootLeft:0.000000,0.000000,0.000000,0.000000 FootRight:0.000000,0.000000,0.000000,0.000000 HandLeft:0.021613,0.145938,-0.522145,0.840000 HandRight:-0.056711,0.654119,-0.102262,0.747298 HandTipLeft:0.000000,0.000000,0.000000,0.000000 HandTipRight:0.000000,0.000000,0.000000,0.000000 Head:0.000000,0.000000,0.000000,0.000000 HipLeft:0.144588,-0.676349,0.701325,-0.172597 HipRight:-0.110370,0.679267,0.707987,-0.158646 KneeLeft:-0.023267,0.725073,-0.054422,-0.686124 KneeRight:-0.011658,0.688544,0.025718,0.724644 Neck:0.090130,-0.025058,0.993032,-0.071671 ShoulderLeft:-0.079407,0.780831,-0.602714,0.143987 ShoulderRight:0.038125,0.785665,0.617473,-0.002252 SpineBase:0.026026,-0.017604,0.998958,-0.033088 SpineMid:0.057598,-0.018642,0.997636,-0.032515 SpineShoulder:0.090040,-0.022169,0.994404,-0.050615 ThumbLeft:0.000000,0.000000,0.000000,0.000000 ThumbRight:0.000000,0.000000,0.000000,0.000000 WristLeft:0.034073,0.153458,-0.521173,0.838849 WristRight:-0.119684,0.641642,-0.069000,0.754460 END:
KINECT_DATA POSITION:5.630902,0.110765,-14.060783 HEAD_JOINT1:0.982655,0.148672,-0.000000,0.110840 LARM_JOINT2:0.866347,0.000000,-0.420053,-0.270180 LARM_JOINT3:0.989812,0.000000,-0.140583,0.022533 LLEG_JOINT2:0.998160,0.024719,0.000000,0.055372 LLEG_JOINT4:0.995581,0.085671,0.000000,-0.038459 RARM_JOINT2:0.802917,0.000000,-0.080987,0.590564 RARM_JOINT3:0.957419,0.000000,0.239025,0.161915 RLEG_JOINT2:0.999627,0.009346,0.000000,-0.025661 RLEG_JOINT4:0.994405,0.102661,0.000000,0.024902 WAIST:0.999626,0.000000,-0.027340,-0.000815 WAIST_JOINT0:0.996634,0.000000,-0.081981,-0.000471 WAIST_JOINT1:0.998182,0.056665,0.000000,-0.020562 END:
KINECT_DATA_Sensor  AnkleLeft:0.068285,0.748956,-0.087830,-0.653214 AnkleRight:0.078747,0.666943,0.079503,0.736658 ElbowLeft:-0.463021,0.783240,-0.037620,-0.413197 ElbowRight:0.017824,0.812975,0.206183,0.544282 FootLeft:0.000000,0.000000,0.000000,0.000000 FootRight:0.000000,0.000000,0.000000,0.000000 HandLeft:0.048272,0.133498,-0.518371,0.843291 HandRight:-0.076402,0.605242,-0.133891,0.780973 HandTipLeft:0.000000,0.000000,0.000000,0.000000 HandTipRight:0.000000,0.000000,0.000000,0.000000 Head:0.000000,0.000000,0.000000,0.000000 HipLeft:0.144409,-0.677127,0.700647,-0.172449 HipRight:-0.109470,0.678788,0.708797,-0.157702 KneeLeft:-0.022580,0.725629,-0.055468,-0.685475 KneeRight:-0.011403,0.688025,0.025648,0.725144 Neck:0.082021,-0.025039,0.993713,-0.071969 ShoulderLeft:-0.081436,0.780831,-0.602701,0.142906 ShoulderRight:0.025931,0.787305,0.615862,-0.013838 SpineBase:0.026748,-0.018056,0.998933,-0.033034 SpineMid:0.053919,-0.018948,0.997835,-0.032530 SpineShoulder:0.081910,-0.022237,0.995091,-0.050898 ThumbLeft:0.000000,0.000000,0.000000,0.000000 ThumbRight:0.000000,0.000000,0.000000,0.000000 WristLeft:0.060118,0.140732,-0.516612,0.842432 WristRight:-0.114823,0.596010,-0.070402,0.791601 END:
KINECT_DATA POSITION:5.616251,0.099976,-14.034224 HEAD_JOINT1:0.983005,0.148075,-0.000000,0.108517 LARM_JOINT2:0.867153,0.000000,-0.419898,-0.267827 LARM_JOINT3:0.989971,0.000000,-0.139371,0.023090 LLEG_JOINT2:0.998137,0.025245,0.000000,0.055539 LLEG_JOINT4:0.995532,0.085901,0.000000,-0.039213 RARM_JOINT2:0.801877,0.000000,-0.076185,0.592612 RARM_JOINT3:0.958233,0.000000,0.237173,0.159809 RLEG_JOINT2:0.999643,0.009477,0.000000,-0.024967 RLEG_JOINT4:0.994439,0.102306,0.000000,0.025004 WAIST:0.999648,0.000000,-0.026520,-0.001018 WAIST_JOINT0:0.996591,0.000000,-0.082504,-0.000580 WAIST_JOINT1:0.998160,0.057116,0.000000,-0.020342 END:
KINECT_DATA_Sensor  AnkleLeft:0.069538,0.749040,-0.087647,-0.653009 AnkleRight:0.087377,0.746741,0.069532,0.655674 ElbowLeft:-0.464169,0.784756,-0.042267,-0.408557 ElbowRight:0.015621,0.814271,0.202843,0.543667 FootLeft:0.000000,0.000000,0.000000,0.000000 FootRight:0.000000,0.000000,0.000000,0.000000 HandLeft:0.078440,0.083180,-0.521210,0.845735 HandRight:-0.059181,0.528330,-0.139893,0.835341 HandTipLeft:0.000000,0.000000,0.000000,0.000000 HandTipRight:0.000000,0.000000,0.000000,0.000000 Head:0.000000,0.000000,0.000000,0.000000 HipLeft:0.143461,-0.677400,0.700689,-0.171998 HipRight:-0.109437,0.678612,0.708896,-0.158041 KneeLeft:-0.022147,0.725092,-0.055840,-0.686027 KneeRight:-0.010996,0.688622,0.025369,0.724593 Neck:0.082780,-0.025196,0.993617,-0.072380 ShoulderLeft:-0.079824,0.780592,-0.603305,0.142575 ShoulderRight:0.028541,0.786378,0.616961,-0.012413 SpineBase:0.025936,-0.018100,0.998944,-0.033340 SpineMid:0.053891,-0.019026,0.997826,-0.032820 SpineShoulder:0.082672,-0.022360,0.995005,-0.051282 ThumbLeft:0.000000,0.000000,0.000000,0.000000 ThumbRight:0.000000,0.000000,0.000000,0.000000 WristLeft:0.095687,0.095866,-0.507789,0.850767 WristRight:-0.107418,0.517216,-0.083279,0.844993 END:
KINECT_DATA POSITION:5.621666,0.086768,-14.021087 HEAD_JOINT1:0.983254,0.146863,-0.000000,0.107904 LARM_JOINT2:0.867409,0.000000,-0.421244,-0.264868 LARM_JOINT3:0.990810,0.000000,-0.133410,0.022314 LLEG_JOINT2:0.998134,0.025585,0.000000,0.055446 LLEG_JOINT4:0.995613,0.085391,0.000000,-0.038264 RARM_JOINT2:0.804094,0.000000,-0.079186,0.589205 RARM_JOINT3:0.957823,0.000000,0.236511,0.163213 RLEG_JOINT2:0.999649,0.009383,0.000000,-0.024795 RLEG_JOINT4:0.994318,0.103187,0.000000,0.026143 WAIST:0.999642,0.000000,-0.026734,-0.001024 WAIST_JOINT0:0.996790,0.000000,-0.080055,-0.000549 WAIST_JOINT1:0.998157,0.057208,0.000000,-0.020232 END:
KINECT_DATA_Sensor  AnkleLeft:0.068632,0.747926,-0.088297,-0.654293 AnkleRight:0.087866,0.737487,0.070176,0.665934 ElbowLeft:-0.465432,0.793965,-0.053998,-0.387397 ElbowRight:0.016664,0.814868,0.207267,0.541067 FootLeft:0.000000,0.000000,0.000000,0.000000 FootRight:0.000000,0.000000,0.000000,0.000000 HandLeft:0.074179,0.120914,-0.526347,0.838353 HandRight:-0.070130,0.612989,-0.124963,0.776988 HandTipLeft:0.000000,0.000000,0.000000,0.000000 HandTipRight:0.000000,0.000000,0.000000,0.000000 Head:0.000000,0.000000,0.000000,0.000000 HipLeft:0.143296,-0.677435,0.700684,-0.172021 HipRight:-0.109130,0.678707,0.708914,-0.157759 KneeLeft:-0.021852,0.725256,-0.056016,-0.685849 KneeRight:-0.010945,0.688468,0.025186,0.724747 Neck:0.080025,-0.024866,0.993838,-0.072548 ShoulderLeft:-0.079850,0.780693,-0.603338,0.141866 ShoulderRight:0.024986,0.787110,0.616100,-0.015938 SpineBase:0.026153,-0.017962,0.998938,-0.033401 SpineMid:0.052632,-0.018842,0.997894,-0.032913 SpineShoulder:0.079914,-0.022092,0.995228,-0.051450 ThumbLeft:0.000000,0.000000,0.000000,0.000000 ThumbRight:0.000000,0.000000,0.000000,0.000000 WristLeft:0.073541,0.123444,-0.509425,0.848434 WristRight:-0.115789,0.602716,-0.070748,0.786334 END:
KINECT_DATA POSITION:5.619865,0.082464,-14.014280 HEAD_JOINT1:0.983528,0.145481,-0.000000,0.107279 LARM_JOINT2:0.867422,0.000000,-0.421784,-0.263965 LARM_JOINT3:0.990673,0.000000,-0.134539,0.021585 LLEG_JOINT2:0.998153,0.026048,0.000000,0.054874 LLEG_JOINT4:0.995576,0.086218,0.000000,-0.037361 RARM_JOINT2:0.805127,0.000000,-0.080424,0.587624 RARM_JOINT3:0.957617,0.000000,0.235593,0.165730 RLEG_JOINT2:0.999664,0.009046,0.000000,-0.024297 RLEG_JOINT4:0.994406,0.102973,0.000000,0.023527 WAIST:0.999641,0.000000,-0.026758,-0.001173 WAIST_JOINT0:0.996850,0.000000,-0.079309,-0.000405 WAIST_JOINT1:0.998152,0.057343,0.000000,-0.020107 END:
KINECT_DATA_Sensor  AnkleLeft:0.069374,0.747444,-0.089361,-0.654621 AnkleRight:0.086549,0.742523,0.070952,0.660405 ElbowLeft:-0.465672,0.796768,-0.057541,-0.380788 ElbowRight:0.017162,0.815405,0.209368,0.539430 FootLeft:0.000000,0.000000,0.000000,0.000000 FootRight:0.000000,0.000000,0.000000,0.000000 HandLeft:0.042219,0.169416,-0.532179,0.828433 HandRight:-0.057388,0.564699,-0.125422,0.813690 HandTipLeft:0.000000,0.000000,0.000000,0.000000 HandTipRight:0.000000,0.000000,0.000000,0.000000 Head:0.000000,0.000000,0.000000,0.000000 HipLeft:0.142976,-0.677571,0.700642,-0.171919 HipRight:-0.108847,0.678672,0.709045,-0.157517 KneeLeft:-0.021012,0.725314,-0.055851,-0.685827 KneeRight:-0.010952,0.688452,0.024698,0.724779 Neck:0.079139,-0.024843,0.993899,-0.072701 ShoulderLeft:-0.079895,0.780645,-0.603418,0.141762 ShoulderRight:0.023812,0.787475,0.615647,-0.017152 SpineBase:0.026188,-0.017892,0.998936,-0.033483 SpineMid:0.052212,-0.018758,0.997914,-0.033005 SpineShoulder:0.079028,-0.022065,0.995291,-0.051601 ThumbLeft:0.000000,0.000000,0.000000,0.000000 ThumbRight:0.000000,0.000000,0.000000,0.000000 WristLeft:0.041667,0.172456,-0.512418,0.840208 WristRight:-0.111187,0.553068,-0.077508,0.822038 END:
KINECT_DATA POSITION:5.621797,0.085457,-13.970184 HEAD_JOINT1:0.983511,0.145925,-0.000000,0.106830 LARM_JOINT2:0.889210,0.000000,-0.346630,-0.298586 LARM_JOINT3:0.964430,0.000000,-0.263156,0.024986 LLEG_JOINT2:0.998199,0.024430,0.000000,0.054784 LLEG_JOINT4:0.995344,0.089648,0.000000,-0.035416 RARM_JOINT2:0.804534,0.000000,-0.078678,0.588672 RARM_JOINT3:0.958081,0.000000,0.237434,0.160329 RLEG_JOINT2:0.999640,0.010051,0.000000,-0.024864 RLEG_JOINT4:0.994319,0.103647,0.000000,0.024212 WAIST:0.999678,0.000000,-0.025358,-0.001287 WAIST_JOINT0:0.996896,0.000000,-0.078731,0.000380 WAIST_JOINT1:0.998159,0.057421,0.000000,-0.019507 END:
KINECT_DATA_Sensor  AnkleLeft:0.069721,0.747112,-0.091678,-0.654643 AnkleRight:0.088972,0.754308,0.070604,0.646620 ElbowLeft:-0.426480,0.770277,-0.084909,-0.466454 ElbowRight:0.016171,0.815843,0.207428,0.539549 FootLeft:0.000000,0.000000,0.000000,0.000000 FootRight:0.000000,0.000000,0.000000,0.000000 HandLeft:-0.004018,0.075917,-0.537757,0.839665 HandRight:-0.110910,0.812697,-0.089559,0.564980 HandTipLeft:0.000000,0.000000,0.000000,0.000000 HandTipRight:0.000000,0.000000,0.000000,0.000000 Head:0.000000,0.000000,0.000000,0.000000 HipLeft:0.141995,-0.677831,0.700772,-0.171173 HipRight:-0.109737,0.678474,0.708966,-0.158105 KneeLeft:-0.021912,0.724295,-0.054564,-0.686978 KneeRight:-0.010727,0.689424,0.025867,0.723817 Neck:0.078614,-0.024443,0.993947,-0.072744 ShoulderLeft:-0.076672,0.780522,-0.604508,0.139561 ShoulderRight:0.026195,0.787626,0.615399,-0.015593 SpineBase:0.024811,-0.017535,0.998979,-0.033438 SpineMid:0.051266,-0.018415,0.997971,-0.032961 SpineShoulder:0.078504,-0.021723,0.995338,-0.051639 ThumbLeft:0.000000,0.000000,0.000000,0.000000 ThumbRight:0.000000,0.000000,0.000000,0.000000 WristLeft:0.054182,0.112569,-0.533290,0.836657 WristRight:-0.131934,0.810720,-0.033646,0.569381 END:
KINECT_DATA POSITION:5.492689,0.169586,-13.684177 HEAD_JOINT1:0.980912,0.149667,-0.000000,0.124144 LARM_JOINT2:0.920025,0.000000,-0.192811,-0.341143 LARM_JOINT3:0.872371,0.000000,-0.471733,-0.128203 LLEG_JOINT2:0.998278,0.024117,0.000000,0.053464 LLEG_JOINT4:0.995207,0.091946,0.000000,-0.033300 RARM_JOINT2:0.791695,0.000000,-0.065697,0.607374 RARM_JOINT3:0.964528,0.000000,0.228322,0.132494 RLEG_JOINT2:0.999568,0.015048,0.000000,-0.025237 RLEG_JOINT4:0.994871,0.097985,0.000000,0.025097 WAIST:0.999771,0.000000,-0.021391,0.000753 WAIST_JOINT0:0.996901,0.000000,-0.078636,0.002334 WAIST_JOINT1:0.998130,0.057769,0.000000,-0.019970 END:
KINECT_DATA_Sensor  AnkleLeft:0.070023,0.747040,-0.094528,-0.654288 AnkleRight:0.087903,0.739915,0.070901,0.663153 ElbowLeft:-0.317906,0.805418,-0.231624,-0.443382 ElbowRight:0.012552,0.806244,0.182804,0.562490 FootLeft:0.000000,0.000000,0.000000,0.000000 FootRight:0.000000,0.000000,0.000000,0.000000 HandLeft:0.012684,-0.378444,-0.512976,0.770373 HandRight:-0.088615,0.760032,-0.079090,0.638940 HandTipLeft:0.000000,0.000000,0.000000,0.000000 HandTipRight:0.000000,0.000000,0.000000,0.000000 Head:0.000000,0.000000,0.000000,0.000000 HipLeft:0.139578,-0.677095,0.702394,-0.169419 HipRight:-0.112454,0.679431,0.706971,-0.160994 KneeLeft:-0.022399,0.721450,-0.054955,-0.689919 KneeRight:-0.006032,0.692291,0.028107,0.721045 Neck:0.079080,-0.023369,0.993920,-0.072958 ShoulderLeft:-0.055634,0.782307,-0.607507,0.125840 ShoulderRight:0.046951,0.785880,0.616594,-0.000710 SpineBase:0.020749,-0.016343,0.999083,-0.033700 SpineMid:0.049513,-0.017307,0.998071,-0.033215 SpineShoulder:0.078994,-0.020652,0.995308,-0.051915 ThumbLeft:0.000000,0.000000,0.000000,0.000000 ThumbRight:0.000000,0.000000,0.000000,0.000000 WristLeft:0.159926,-0.276807,-0.479613,0.817174 WristRight:-0.130194,0.755397,-0.050644,0.640203 END:
KINECT_DATA POSITION:5.501352,0.407160,-13.356268 HEAD_JOINT1:0.976372,0.165451,-0.000000,0.139007 LARM_JOINT2:0.906422,0.000000,0.116515,-0.405984 LARM_JOINT3:0.828814,0.000000,-0.444743,-0.339516 LLEG_JOINT2:0.998497,0.021893,0.000000,0.050247 LLEG_JOINT4:0.995305,0.091188,0.000000,-0.032447 RARM_JOINT2:0.787498,0.000000,-0.064167,0.612968 RARM_JOINT3:0.971306,0.000000,0.208847,0.113786 RLEG_JOINT2:0.999378,0.021939,0.000000,-0.027616 RLEG_JOINT4:0.995443,0.091055,0.000000,0.028320 WAIST:0.999936,0.000000,-0.010816,0.003216 WAIST_JOINT0:0.998826,0.000000,-0.045743,0.015945 WAIST_JOINT1:0.997820,0.063314,0.000000,-0.018596 END:
KINECT_DATA_Sensor  AnkleLeft:0.067409,0.730429,-0.092876,-0.673279 AnkleRight:0.082821,0.686787,0.076805,0.718029 ElbowLeft:-0.032352,0.804975,-0.370909,-0.461947 ElbowRight:0.017021,0.804603,0.176573,0.566697 FootLeft:0.000000,0.000000,0.000000,0.000000 FootRight:0.000000,0.000000,0.000000,0.000000 HandLeft:-0.209082,0.717374,0.320362,-0.582260 HandRight:-0.067742,0.783864,-0.046742,0.615454 HandTipLeft:0.000000,0.000000,0.000000,0.000000 HandTipRight:0.000000,0.000000,0.000000,0.000000 Head:0.000000,0.000000,0.000000,0.000000 HipLeft:0.130908,-0.676132,0.705644,-0.166660 HipRight:-0.117361,0.679148,0.704424,-0.169619 KneeLeft:-0.022840,0.713867,-0.053074,-0.697894 KneeRight:-0.001325,0.699906,0.032812,0.713479 Neck:0.043743,-0.018122,0.995704,-0.079573 ShoulderLeft:-0.001968,0.769153,-0.633612,0.083278 ShoulderRight:0.055978,0.784666,0.617257,-0.012622 SpineBase:0.010036,-0.013773,0.999155,-0.037414 SpineMid:0.026623,-0.014392,0.998850,-0.037180 SpineShoulder:0.043615,-0.016371,0.997249,-0.057647 ThumbLeft:0.000000,0.000000,0.000000,0.000000 ThumbRight:0.000000,0.000000,0.000000,0.000000 WristLeft:-0.226785,0.734053,0.172066,-0.616545 WristRight:-0.117589,0.779207,-0.030818,0.614865 END:
KINECT_DATA POSITION:5.655409,0.566193,-13.409901 HEAD_JOINT1:0.975397,0.174125,-0.000000,0.135209 LARM_JOINT2:0.891077,0.000000,0.132380,-0.434117 LARM_JOINT3:0.902064,0.000000,-0.312918,-0.297258 LLEG_JOINT2:0.998760,0.019935,0.000000,0.045628 LLEG_JOINT4:0.994924,0.095744,0.000000,-0.030966 RARM_JOINT2:0.789832,0.000000,-0.054546,0.610893 RARM_JOINT3:0.971825,0.000000,0.203640,0.118685 RLEG_JOINT2:0.999233,0.022794,0.000000,-0.031843 RLEG_JOINT4:0.995346,0.091851,0.000000,0.029152 WAIST:0.999976,0.000000,-0.002344,0.006593 WAIST_JOINT0:0.999454,0.000000,-0.023761,0.022969 WAIST_JOINT1:0.997591,0.066777,0.000000,-0.018808 END:
KINECT_DATA_Sensor  AnkleLeft:0.075046,0.760928,-0.090200,-0.638138 AnkleRight:0.088144,0.736713,0.073198,0.666429 ElbowLeft:0.017739,0.828865,-0.353532,-0.433225 ElbowRight:0.015422,0.821736,0.174544,0.542260 FootLeft:0.000000,0.000000,0.000000,0.000000 FootRight:0.000000,0.000000,0.000000,0.000000 HandLeft:-0.186856,0.746391,-0.125005,0.626386 HandRight:-0.048548,0.566059,-0.108653,0.815730 HandTipLeft:0.000000,0.000000,0.000000,0.000000 HandTipRight:0.000000,0.000000,0.000000,0.000000 Head:0.000000,0.000000,0.000000,0.000000 HipLeft:0.122498,-0.674485,0.709722,-0.162354 HipRight:-0.119989,0.679906,0.702086,-0.174373 KneeLeft:-0.022922,0.707706,-0.050978,-0.704292 KneeRight:-0.001604,0.706087,0.033992,0.707307 Neck:0.020715,-0.013627,0.996169,-0.083858 ShoulderLeft:0.023299,0.760015,-0.646500,0.062227 ShoulderRight:0.052115,0.783667,0.618389,-0.027290 SpineBase:0.001372,-0.011081,0.999146,-0.039787 SpineMid:0.010808,-0.011456,0.999088,-0.039681 SpineShoulder:0.020494,-0.013221,0.997838,-0.061022 ThumbLeft:0.000000,0.000000,0.000000,0.000000 ThumbRight:0.000000,0.000000,0.000000,0.000000 WristLeft:-0.077907,0.767408,-0.136703,0.621552 WristRight:-0.091959,0.557691,-0.054969,0.823106 END:
KINECT_DATA POSITION:5.882564,0.640702,-13.586020 HEAD_JOINT1:0.978074,0.171107,-0.000000,0.118717 LARM_JOINT2:0.856740,0.000000,0.081359,-0.509291 LARM_JOINT3:0.959408,0.000000,-0.217792,-0.179171 LLEG_JOINT2:0.998844,0.018839,0.000000,0.044215 LLEG_JOINT4:0.995496,0.090613,0.000000,-0.027879 RARM_JOINT2:0.793340,0.000000,-0.050485,0.606682 RARM_JOINT3:0.975695,0.000000,0.187881,0.112787 RLEG_JOINT2:0.999233,0.021340,0.000000,-0.032846 RLEG_JOINT4:0.995159,0.093674,0.000000,0.029734 WAIST:0.999982,-0.000000,0.001351,0.005851 WAIST_JOINT0:0.999721,0.000000,-0.011396,0.020705 WAIST_JOINT1:0.997626,0.066341,0.000000,-0.018475 END:
KINECT_DATA_Sensor  AnkleLeft:0.063737,0.712703,-0.091385,-0.692561 AnkleRight:0.088017,0.744827,0.073835,0.657293 ElbowLeft:0.002564,0.840145,-0.266422,-0.472409 ElbowRight:0.010946,0.830899,0.177544,0.527224 FootLeft:0.000000,0.000000,0.000000,0.000000 FootRight:0.000000,0.000000,0.000000,0.000000 HandLeft:-0.108383,0.817335,-0.067990,0.561778 HandRight:-0.056662,0.686836,-0.041470,0.723413 HandTipLeft:0.000000,0.000000,0.000000,0.000000 HandTipRight:0.000000,0.000000,0.000000,0.000000 Head:0.000000,0.000000,0.000000,0.000000 HipLeft:0.119305,-0.675536,0.709427,-0.161650 HipRight:-0.121371,0.679216,0.701874,-0.176940 KneeLeft:0.022010,-0.705140,0.048745,0.707048 KneeRight:-0.004007,0.708677,0.034174,0.704693 Neck:0.008333,-0.014365,0.996434,-0.082721 ShoulderLeft:0.036252,0.761939,-0.644786,0.048839 ShoulderRight:0.049073,0.783110,0.619050,-0.033292 SpineBase:-0.002257,-0.010415,0.999099,-0.041091 SpineMid:0.002895,-0.010627,0.999097,-0.041037 SpineShoulder:0.008173,-0.013072,0.998027,-0.060857 ThumbLeft:0.000000,0.000000,0.000000,0.000000 ThumbRight:0.000000,0.000000,0.000000,0.000000 WristLeft:-0.023035,0.828156,-0.124063,0.546109 WristRight:-0.099236,0.681839,-0.038142,0.723735 END:
KINECT_DATA POSITION:5.976640,0.552181,-13.653779 HEAD_JOINT1:0.979514,0.165682,-0.000000,0.114462 LARM_JOINT2:0.836649,0.000000,0.042615,-0.546079 LARM_JOINT3:0.980049,0.000000,-0.152905,-0.126984 LLEG_JOINT2:0.998652,0.020221,0.000000,0.047813 LLEG_JOINT4:0.995300,0.091320,0.000000,-0.032218 RARM_JOINT2:0.801139,0.000000,-0.066223,0.594803 RARM_JOINT3:0.973961,0.000000,0.183858,0.132649 RLEG_JOINT2:0.999378,0.019157,0.000000,-0.029604 RLEG_JOINT4:0.995047,0.093731,0.000000,0.033103 WAIST:0.999996,0.000000,-0.002544,0.001291 WAIST_JOINT0:0.999822,0.000000,-0.015111,0.011264 WAIST_JOINT1:0.997724,0.064236,0.000000,-0.020485 END:
KINECT_DATA_Sensor  AnkleLeft:0.068380,0.713928,-0.089415,-0.691112 AnkleRight:0.083925,0.703507,0.075443,0.701671 ElbowLeft:-0.007218,0.854666,-0.209977,-0.474767 ElbowRight:0.014402,0.835455,0.199473,0.511876 FootLeft:0.000000,0.000000,0.000000,0.000000 FootRight:0.000000,0.000000,0.000000,0.000000 HandLeft:-0.083086,0.838642,-0.019640,0.537950 HandRight:-0.039383,0.726488,-0.030596,0.685367 HandTipLeft:0.000000,0.000000,0.000000,0.000000 HandTipRight:0.000000,0.000000,0.000000,0.000000 Head:0.000000,0.000000,0.000000,0.000000 HipLeft:0.123309,-0.678807,0.705360,-0.162740 HipRight:-0.119130,0.677094,0.704823,-0.174862 KneeLeft:-0.020528,0.708111,-0.048976,-0.704101 KneeRight:-0.006345,0.705796,0.033594,0.707590 Neck:0.013018,-0.021327,0.996471,-0.080136 ShoulderLeft:0.025421,0.772245,-0.632352,0.055881 ShoulderRight:0.043878,0.783774,0.618604,-0.033191 SpineBase:0.001834,-0.015073,0.999088,-0.039916 SpineMid:0.007254,-0.015290,0.999063,-0.039833 SpineShoulder:0.012811,-0.019179,0.997997,-0.058907 ThumbLeft:0.000000,0.000000,0.000000,0.000000 ThumbRight:0.000000,0.000000,0.000000,0.000000 WristLeft:0.002933,0.848259,-0.106715,0.518710 WristRight:-0.100893,0.722488,-0.019838,0.683694 END:
KINECT_DATA POSITION:6.065012,0.437898,-13.601124 HEAD_JOINT1:0.981124,0.160949,-0.000000,0.107194 LARM_JOINT2:0.826005,0.000000,0.039876,-0.562251 LARM_JOINT3:0.984189,0.000000,-0.121121,-0.129238 LLEG_JOINT2:0.998437,0.021779,0.000000,0.051464 LLEG_JOINT4:0.995301,0.091698,0.000000,-0.031106 RARM_JOINT2:0.797802,0.000000,-0.070292,0.598808 RARM_JOINT3:0.972095,0.000000,0.191608,0.135342 RLEG_JOINT2:0.999508,0.018899,0.000000,-0.025023 RLEG_JOINT4:0.995032,0.093930,0.000000,0.032989 WAIST:0.999966,0.000000,-0.007613,-0.003253 WAIST_JOINT0:0.999727,0.000000,-0.023144,0.003291 WAIST_JOINT1:0.997813,0.063298,0.000000,-0.019047 END:
KINECT_DATA_Sensor  AnkleLeft:0.069225,0.718135,-0.091182,-0.686422 AnkleRight:0.084106,0.699034,0.075104,0.706142 ElbowLeft:0.008063,0.880451,-0.189044,-0.434745 ElbowRight:0.017278,0.829234,0.198561,0.522156 FootLeft:0.000000,0.000000,0.000000,0.000000 FootRight:0.000000,0.000000,0.000000,0.000000 HandLeft:-0.068954,0.814896,0.030390,0.574688 HandRight:-0.038980,0.590487,-0.071340,0.802942 HandTipLeft:0.000000,0.000000,0.000000,0.000000 HandTipRight:0.000000,0.000000,0.000000,0.000000 Head:0.000000,0.000000,0.000000,0.000000 HipLeft:0.127749,-0.681464,0.701357,-0.165481 HipRight:-0.116400,0.674912,0.708005,-0.172260 KneeLeft:-0.019059,0.711929,-0.049343,-0.700257 KneeRight:-0.006356,0.702039,0.033395,0.711326 Neck:0.021861,-0.024183,0.996332,-0.079118 ShoulderLeft:0.017278,0.778888,-0.623742,0.063093 ShoulderRight:0.046674,0.780626,0.622655,-0.027292 SpineBase:0.007124,-0.018470,0.999031,-0.039296 SpineMid:0.014235,-0.018749,0.998955,-0.039164 SpineShoulder:0.021594,-0.022207,0.997837,-0.057973 ThumbLeft:0.000000,0.000000,0.000000,0.000000 ThumbRight:0.000000,0.000000,0.000000,0.000000 WristLeft:0.016591,0.827251,-0.077002,0.556283 WristRight:-0.095530,0.581387,-0.035735,0.807209 END:
KINECT_DATA POSITION:6.223271,0.313093,-13.356865 HEAD_JOINT1:0.980736,0.162209,-0.000000,0.108837 LARM_JOINT2:0.822672,0.000000,0.045605,-0.566685 LARM_JOINT3:0.984633,0.000000,-0.125972,-0.120950 LLEG_JOINT2:0.998351,0.025020,0.000000,0.051674 LLEG_JOINT4:0.995261,0.090752,0.000000,-0.034930 RARM_JOINT2:0.798530,0.000000,-0.071213,0.597728 RARM_JOINT3:0.972853,0.000000,0.183870,0.140528 RLEG_JOINT2:0.999599,0.014428,0.000000,-0.024385 RLEG_JOINT4:0.994597,0.099633,0.000000,0.029143 WAIST:0.999911,0.000000,-0.012251,-0.005347 WAIST_JOINT0:0.999701,0.000000,-0.024375,0.001841 WAIST_JOINT1:0.997875,0.062746,0.000000,-0.017541 END:
KINECT_DATA_Sensor  AnkleLeft:0.076067,0.734084,-0.087594,-0.669076 AnkleRight:0.086625,0.740035,0.073896,0.662860 ElbowLeft:0.013843,0.883109,-0.185415,-0.430753 ElbowRight:0.018751,0.829794,0.199989,0.520668 FootLeft:0.000000,0.000000,0.000000,0.000000 FootRight:0.000000,0.000000,0.000000,0.000000 HandLeft:-0.076401,0.845391,0.000824,0.528656 HandRight:-0.023285,0.678940,-0.057401,0.731576 HandTipLeft:0.000000,0.000000,0.000000,0.000000 HandTipRight:0.000000,0.000000,0.000000,0.000000 Head:0.000000,0.000000,0.000000,0.000000 HipLeft:0.131207,-0.681880,0.699805,-0.167623 HipRight:-0.113810,0.673796,0.710292,-0.168914 KneeLeft:-0.015690,0.715441,-0.050234,-0.696688 KneeRight:-0.010450,0.698717,0.031319,0.714636 Neck:0.023292,-0.024128,0.996330,-0.078756 ShoulderLeft:0.015539,0.780455,-0.621708,0.064245 ShoulderRight:0.046637,0.780318,0.623083,-0.026387 SpineBase:0.011874,-0.019659,0.998989,-0.038657 SpineMid:0.017290,-0.019868,0.998910,-0.038550 SpineShoulder:0.023009,-0.022328,0.997828,-0.057546 ThumbLeft:0.000000,0.000000,0.000000,0.000000 ThumbRight:0.000000,0.000000,0.000000,0.000000 WristLeft:0.015691,0.853608,-0.070705,0.515856 WristRight:-0.097375,0.667390,-0.022676,0.737967 END:
KINECT_DATA POSITION:6.452985,0.203620,-12.800431 HEAD_JOINT1:0.979834,0.164225,-0.000000,0.113822 LARM_JOINT2:0.824649,0.000000,0.047283,-0.563665 LARM_JOINT3:0.984803,0.000000,-0.126218,-0.119299 LLEG_JOINT2:0.998412,0.029665,0.000000,0.047886 LLEG_JOINT4:0.995450,0.090181,0.000000,-0.030774 RARM_JOINT2:0.796015,0.000000,-0.071818,0.601002 RARM_JOINT3:0.975385,0.000000,0.177984,0.130177 RLEG_JOINT2:0.999438,0.018275,0.000000,-0.028111 RLEG_JOINT4:0.994265,0.102377,0.000000,0.030936 WAIST:0.999889,0.000000,-0.014418,-0.003627 WAIST_JOINT0:0.999601,0.000000,-0.028131,0.002538 WAIST_JOINT1:0.997908,0.062069,0.000000,-0.018072 END:
KINECT_DATA_Sensor  AnkleLeft:0.076622,0.729768,-0.092712,-0.673032 AnkleRight:0.086776,0.696130,0.083501,0.707744 ElbowLeft:0.014983,0.889904,-0.189707,-0.414557 ElbowRight:0.020620,0.826725,0.195353,0.527198 FootLeft:0.000000,0.000000,0.000000,0.000000 FootRight:0.000000,0.000000,0.000000,0.000000 HandLeft:-0.064849,0.869628,-0.021739,0.488946 HandRight:-0.029115,0.661417,-0.034253,0.748670 HandTipLeft:0.000000,0.000000,0.000000,0.000000 HandTipRight:0.000000,0.000000,0.000000,0.000000 Head:0.000000,0.000000,0.000000,0.000000 HipLeft:0.133321,-0.680178,0.700911,-0.168248 HipRight:-0.113379,0.674997,0.709677,-0.166984 KneeLeft:-0.011051,0.717106,-0.052098,-0.694926 KneeRight:-0.009005,0.697122,0.035470,0.716018 Neck:0.026965,-0.022927,0.996305,-0.078254 ShoulderLeft:0.015579,0.778695,-0.623896,0.064390 ShoulderRight:0.051378,0.778569,0.625101,-0.020950 SpineBase:0.013954,-0.018701,0.999019,-0.037638 SpineMid:0.020176,-0.018935,0.998913,-0.037521 SpineShoulder:0.026712,-0.021109,0.997802,-0.056844 ThumbLeft:0.000000,0.000000,0.000000,0.000000 ThumbRight:0.000000,0.000000,0.000000,0.000000 WristLeft:0.012736,0.874246,-0.069852,0.480264 WristRight:-0.094177,0.653552,-0.021221,0.750700 END:
KINECT_DATA POSITION:6.597980,0.146854,-12.324357 HEAD_JOINT1:0.979071,0.165858,-0.000000,0.117946 LARM_JOINT2:0.827903,0.000000,0.048087,-0.558806 LARM_JOINT3:0.983315,0.000000,-0.132761,-0.124360 LLEG_JOINT2:0.998349,0.033335,0.000000,0.046768 LLEG_JOINT4:0.995402,0.089914,0.000000,-0.033034 RARM_JOINT2:0.793168,0.000000,-0.073118,0.604597 RARM_JOINT3:0.975409,0.000000,0.180701,0.126193 RLEG_JOINT2:0.999304,0.023341,0.000000,-0.029081 RLEG_JOINT4:0.994899,0.097136,0.000000,0.027212 WAIST:0.999863,0.000000,-0.016318,-0.002772 WAIST_JOINT0:0.999497,0.000000,-0.031508,0.003639 WAIST_JOINT1:0.997943,0.061328,0.000000,-0.018650 END:
KINECT_DATA_Sensor  AnkleLeft:0.079318,0.721227,-0.094522,-0.681620 AnkleRight:0.088771,0.733022,0.081219,0.669479 ElbowLeft:0.011614,0.889127,-0.195107,-0.413826 ElbowRight:0.022086,0.821926,0.191365,0.536031 FootLeft:0.000000,0.000000,0.000000,0.000000 FootRight:0.000000,0.000000,0.000000,0.000000 HandLeft:-0.074465,0.818918,-0.031827,0.568168 HandRight:-0.041756,0.676864,-0.052735,0.733028 HandTipLeft:0.000000,0.000000,0.000000,0.000000 HandTipRight:0.000000,0.000000,0.000000,0.000000 Head:0.000000,0.000000,0.000000,0.000000 HipLeft:0.135074,-0.679318,0.701258,-0.168876 HipRight:-0.112713,0.675759,0.709385,-0.165584 KneeLeft:-0.008385,0.718528,-0.054535,-0.693306 KneeRight:-0.005368,0.695689,0.039094,0.717258 Neck:0.030220,-0.022613,0.996279,-0.077488 ShoulderLeft:0.012773,0.777335,-0.625427,0.066539 ShoulderRight:0.052822,0.778681,0.624934,-0.017975 SpineBase:0.015802,-0.018535,0.999019,-0.036975 SpineMid:0.022726,-0.018791,0.998886,-0.036845 SpineShoulder:0.029977,-0.020809,0.997756,-0.056134 ThumbLeft:0.000000,0.000000,0.000000,0.000000 ThumbRight:0.000000,0.000000,0.000000,0.000000 WristLeft:0.016460,0.825477,-0.073281,0.559416 WristRight:-0.092768,0.669028,-0.015053,0.737272 END:
