EastLYD/RoboCupatHomeSim/InteractiveCleanUp/JapanOpen2016/Motion_Data/File67.dat
KINECT_DATA POSITION:2.828015,-0.504073,-8.380508 HEAD_JOINT1:0.979521,0.165053,-0.000000,0.115312 LARM_JOINT2:0.839076,0.000000,-0.028197,-0.543284 LARM_JOINT3:0.972282,0.000000,-0.190130,-0.136084 LLEG_JOINT2:0.998991,0.024830,0.000000,0.037415 LLEG_JOINT4:0.995811,0.085148,0.000000,-0.033315 RARM_JOINT2:0.807863,0.000000,-0.038831,0.588090 RARM_JOINT3:0.974031,0.000000,0.200841,0.104530 RLEG_JOINT2:0.999485,0.026783,0.000000,-0.017651 RLEG_JOINT4:0.995575,0.087175,0.000000,0.035072 WAIST:0.999987,-0.000000,0.003719,0.003342 WAIST_JOINT0:0.999770,0.000000,-0.017143,0.012915 WAIST_JOINT1:0.997327,0.072050,0.000000,-0.012152 END:
KINECT_DATA_Sensor  AnkleLeft:0.074501,0.712019,-0.080935,-0.693490 AnkleRight:0.094674,0.700833,0.066465,0.703883 ElbowLeft:-0.054553,0.863480,-0.197453,-0.460910 ElbowRight:-0.003569,0.829987,0.192572,0.523474 FootLeft:0.000000,0.000000,0.000000,0.000000 FootRight:0.000000,0.000000,0.000000,0.000000 HandLeft:0.038310,-0.512287,-0.139593,0.846527 HandRight:-0.128401,0.989917,0.044478,-0.039998 HandTipLeft:0.000000,0.000000,0.000000,0.000000 HandTipRight:0.000000,0.000000,0.000000,0.000000 Head:0.000000,0.000000,0.000000,0.000000 HipLeft:0.111686,-0.677426,0.708179,-0.164631 HipRight:-0.121451,0.676897,0.702681,-0.182482 KneeLeft:0.011075,-0.703936,0.046412,0.708659 KneeRight:0.008728,0.710103,0.029073,0.703443 Neck:0.015074,-0.011948,0.995928,-0.088080 ShoulderLeft:0.026721,0.770767,-0.633231,0.064982 ShoulderRight:0.047625,0.784187,0.617454,-0.039159 SpineBase:-0.004369,-0.007341,0.998849,-0.047191 SpineMid:0.005274,-0.007796,0.998845,-0.047118 SpineShoulder:0.015067,-0.009976,0.997618,-0.066565 ThumbLeft:0.000000,0.000000,0.000000,0.000000 ThumbRight:0.000000,0.000000,0.000000,0.000000 WristLeft:0.130377,-0.488974,-0.078909,0.858883 WristRight:-0.093006,0.992563,0.070702,-0.034201 END:
KINECT_DATA POSITION:2.822903,-0.505747,-8.366537 HEAD_JOINT1:0.979222,0.166466,-0.000000,0.115819 LARM_JOINT2:0.838884,0.000000,-0.027809,-0.543599 LARM_JOINT3:0.973259,0.000000,-0.188187,-0.131730 LLEG_JOINT2:0.998973,0.025037,0.000000,0.037772 LLEG_JOINT4:0.995552,0.086618,0.000000,-0.037058 RARM_JOINT2:0.806597,0.000000,-0.039495,0.589781 RARM_JOINT3:0.974380,0.000000,0.199945,0.102984 RLEG_JOINT2:0.999508,0.026384,0.000000,-0.016988 RLEG_JOINT4:0.995335,0.090134,0.000000,0.034412 WAIST:0.999989,-0.000000,0.003362,0.003251 WAIST_JOINT0:0.999771,0.000000,-0.017198,0.012729 WAIST_JOINT1:0.997344,0.071785,0.000000,-0.012289 END:
KINECT_DATA_Sensor  AnkleLeft:0.080523,0.733259,-0.077119,-0.670746 AnkleRight:0.097906,0.715649,0.066183,0.688390 ElbowLeft:-0.054649,0.862840,-0.196877,-0.462341 ElbowRight:-0.003064,0.827717,0.191123,0.527587 FootLeft:0.000000,0.000000,0.000000,0.000000 FootRight:0.000000,0.000000,0.000000,0.000000 HandLeft:0.047578,-0.513122,-0.128393,0.847324 HandRight:-0.131705,0.929675,-0.007355,0.343954 HandTipLeft:0.000000,0.000000,0.000000,0.000000 HandTipRight:0.000000,0.000000,0.000000,0.000000 Head:0.000000,0.000000,0.000000,0.000000 HipLeft:0.112060,-0.677452,0.708070,-0.164738 HipRight:-0.121389,0.676883,0.702764,-0.182256 KneeLeft:0.011129,-0.704194,0.046744,0.708380 KneeRight:0.008864,0.709851,0.028384,0.703724 Neck:0.015193,-0.012199,0.995955,-0.087714 ShoulderLeft:0.026297,0.770752,-0.633257,0.065079 ShoulderRight:0.047346,0.783676,0.618126,-0.039113 SpineBase:-0.004009,-0.007451,0.998858,-0.047030 SpineMid:0.005518,-0.007899,0.998850,-0.046957 SpineShoulder:0.015191,-0.010131,0.997630,-0.066338 ThumbLeft:0.000000,0.000000,0.000000,0.000000 ThumbRight:0.000000,0.000000,0.000000,0.000000 WristLeft:0.131087,-0.493077,-0.077823,0.856525 WristRight:-0.112974,0.929705,0.029831,0.349280 END:
KINECT_DATA POSITION:2.828367,-0.509103,-8.348358 HEAD_JOINT1:0.979297,0.166203,-0.000000,0.115559 LARM_JOINT2:0.838557,0.000000,-0.028145,-0.544087 LARM_JOINT3:0.973494,0.000000,-0.186302,-0.132666 LLEG_JOINT2:0.998965,0.025087,0.000000,0.037938 LLEG_JOINT4:0.995602,0.087568,0.000000,-0.033284 RARM_JOINT2:0.805805,0.000000,-0.039926,0.590834 RARM_JOINT3:0.974443,0.000000,0.200114,0.102052 RLEG_JOINT2:0.999502,0.026528,0.000000,-0.017103 RLEG_JOINT4:0.995332,0.089820,0.000000,0.035311 WAIST:0.999988,-0.000000,0.003678,0.003234 WAIST_JOINT0:0.999776,0.000000,-0.016891,0.012725 WAIST_JOINT1:0.997342,0.071824,0.000000,-0.012250 END:
KINECT_DATA_Sensor  AnkleLeft:0.080569,0.748669,-0.078795,-0.653295 AnkleRight:0.096841,0.700654,0.067674,0.703652 ElbowLeft:-0.054750,0.862240,-0.196223,-0.463726 ElbowRight:-0.002632,0.826452,0.190200,0.529900 FootLeft:0.000000,0.000000,0.000000,0.000000 FootRight:0.000000,0.000000,0.000000,0.000000 HandLeft:0.034113,-0.476773,-0.127010,0.869133 HandRight:-0.124391,0.989283,0.045055,-0.061767 HandTipLeft:0.000000,0.000000,0.000000,0.000000 HandTipRight:0.000000,0.000000,0.000000,0.000000 Head:0.000000,0.000000,0.000000,0.000000 HipLeft:0.111806,-0.677501,0.708102,-0.164571 HipRight:-0.121526,0.676833,0.702752,-0.182395 KneeLeft:0.011185,-0.703973,0.046889,0.708589 KneeRight:0.008862,0.710068,0.028582,0.703497 Neck:0.014873,-0.012226,0.995954,-0.087777 ShoulderLeft:0.027021,0.770666,-0.633394,0.064464 ShoulderRight:0.047669,0.783515,0.618312,-0.039009 SpineBase:-0.004319,-0.007404,0.998855,-0.047063 SpineMid:0.005206,-0.007853,0.998851,-0.046990 SpineShoulder:0.014874,-0.010124,0.997633,-0.066363 ThumbLeft:0.000000,0.000000,0.000000,0.000000 ThumbRight:0.000000,0.000000,0.000000,0.000000 WristLeft:0.127876,-0.455309,-0.083025,0.877182 WristRight:-0.090904,0.991606,0.072972,-0.055938 END:
KINECT_DATA POSITION:2.849227,-0.528651,-8.268929 HEAD_JOINT1:0.980081,0.165016,-0.000000,0.110500 LARM_JOINT2:0.838108,0.000000,-0.028030,-0.544784 LARM_JOINT3:0.974209,0.000000,-0.186418,-0.127142 LLEG_JOINT2:0.998972,0.024686,0.000000,0.038031 LLEG_JOINT4:0.995419,0.086668,0.000000,-0.040372 RARM_JOINT2:0.807701,0.000000,-0.000322,0.589592 RARM_JOINT3:0.965182,0.000000,0.236899,0.110915 RLEG_JOINT2:0.999505,0.026350,0.000000,-0.017212 RLEG_JOINT4:0.995317,0.090260,0.000000,0.034604 WAIST:0.999973,-0.000000,0.006533,0.003436 WAIST_JOINT0:0.999848,0.000000,-0.010373,0.014018 WAIST_JOINT1:0.997529,0.069187,0.000000,-0.012189 END:
KINECT_DATA_Sensor  AnkleLeft:0.079809,0.707331,-0.077315,-0.698095 AnkleRight:0.097668,0.715847,0.066721,0.688166 ElbowLeft:-0.056609,0.859618,-0.194608,-0.469020 ElbowRight:-0.027522,0.848392,0.174219,0.499120 FootLeft:0.000000,0.000000,0.000000,0.000000 FootRight:0.000000,0.000000,0.000000,0.000000 HandLeft:-0.097143,0.795366,0.085293,-0.592183 HandRight:-0.236754,0.964845,-0.005745,0.113965 HandTipLeft:0.000000,0.000000,0.000000,0.000000 HandTipRight:0.000000,0.000000,0.000000,0.000000 Head:0.000000,0.000000,0.000000,0.000000 HipLeft:0.111210,-0.677857,0.708369,-0.162343 HipRight:-0.124405,0.676713,0.702128,-0.183301 KneeLeft:0.011549,-0.701954,0.046841,0.710586 KneeRight:0.008713,0.712058,0.028409,0.701491 Neck:0.008450,-0.011691,0.996358,-0.084039 ShoulderLeft:0.028475,0.770952,-0.633523,0.058912 ShoulderRight:0.040779,0.784904,0.616747,-0.043425 SpineBase:-0.007153,-0.007146,0.998906,-0.045662 SpineMid:0.000584,-0.007499,0.998931,-0.045605 SpineShoulder:0.008430,-0.009804,0.997861,-0.064088 ThumbLeft:0.000000,0.000000,0.000000,0.000000 ThumbRight:0.000000,0.000000,0.000000,0.000000 WristLeft:-0.154349,0.789691,0.021225,-0.593392 WristRight:-0.149096,0.980763,0.021941,0.124071 END:
KINECT_DATA POSITION:2.940066,-0.572536,-8.174276 HEAD_JOINT1:0.983964,0.156149,-0.000000,0.086215 LARM_JOINT2:0.834033,0.000000,-0.021521,-0.551295 LARM_JOINT3:0.974069,0.000000,-0.186836,-0.127596 LLEG_JOINT2:0.999082,0.024129,0.000000,0.035397 LLEG_JOINT4:0.995810,0.084470,0.000000,-0.035045 RARM_JOINT2:0.815549,0.000000,0.136790,0.562288 RARM_JOINT3:0.964707,0.000000,0.235752,0.117306 RLEG_JOINT2:0.999447,0.026714,0.000000,-0.019808 RLEG_JOINT4:0.995120,0.091326,0.000000,0.037363 WAIST:0.999919,-0.000000,0.011891,0.004467 WAIST_JOINT0:0.999661,-0.000000,0.016601,0.020050 WAIST_JOINT1:0.998233,0.059093,0.000000,-0.006292 END:
KINECT_DATA_Sensor  AnkleLeft:-0.074476,-0.693449,0.078834,0.712297 AnkleRight:0.097707,0.704739,0.069437,0.699267 ElbowLeft:-0.062055,0.848540,-0.191660,-0.489281 ElbowRight:-0.123954,0.901469,0.129271,0.394053 FootLeft:0.000000,0.000000,0.000000,0.000000 FootRight:0.000000,0.000000,0.000000,0.000000 HandLeft:-0.089131,0.805293,0.082876,-0.580251 HandRight:-0.263614,0.854890,0.119859,-0.430469 HandTipLeft:0.000000,0.000000,0.000000,0.000000 HandTipRight:0.000000,0.000000,0.000000,0.000000 Head:0.000000,0.000000,0.000000,0.000000 HipLeft:0.111166,-0.678342,0.708992,-0.157557 HipRight:-0.132284,0.677493,0.699907,-0.183398 KneeLeft:0.010595,-0.698232,0.045344,0.714355 KneeRight:0.007671,0.715737,0.029789,0.697692 Neck:-0.018179,-0.002388,0.997107,-0.073770 ShoulderLeft:0.032632,0.768685,-0.637718,0.037072 ShoulderRight:0.010028,0.790228,0.609473,-0.063100 SpineBase:-0.012391,-0.004060,0.999082,-0.040799 SpineMid:-0.015367,-0.003939,0.999041,-0.040811 SpineShoulder:-0.018229,-0.002107,0.998358,-0.054271 ThumbLeft:0.000000,0.000000,0.000000,0.000000 ThumbRight:0.000000,0.000000,0.000000,0.000000 WristLeft:-0.165637,0.797442,0.020317,-0.579861 WristRight:-0.226626,0.864389,0.093202,-0.439074 END:
KINECT_DATA POSITION:3.087960,-0.633199,-8.175993 HEAD_JOINT1:0.986031,0.154202,-0.000000,0.062961 LARM_JOINT2:0.831965,0.000000,-0.005948,-0.554796 LARM_JOINT3:0.974537,0.000000,-0.184374,-0.127610 LLEG_JOINT2:0.999295,0.022871,0.000000,0.029774 LLEG_JOINT4:0.995848,0.086337,0.000000,-0.028866 RARM_JOINT2:0.811339,0.000000,0.267053,0.520012 RARM_JOINT3:0.968094,0.000000,0.228761,0.102291 RLEG_JOINT2:0.999268,0.028631,0.000000,-0.025360 RLEG_JOINT4:0.995072,0.089847,0.000000,0.041940 WAIST:0.999726,-0.000000,0.022246,0.007263 WAIST_JOINT0:0.997642,-0.000000,0.060428,0.032527 WAIST_JOINT1:0.998481,0.055093,-0.000000,0.000942 END:
KINECT_DATA_Sensor  AnkleLeft:0.079240,0.738435,-0.075080,-0.665431 AnkleRight:0.101435,0.740973,0.065091,0.660631 ElbowLeft:-0.055872,0.838957,-0.201902,-0.502260 ElbowRight:-0.219109,0.917980,0.079539,0.320902 FootLeft:0.000000,0.000000,0.000000,0.000000 FootRight:0.000000,0.000000,0.000000,0.000000 HandLeft:0.071121,-0.555459,-0.094323,0.823110 HandRight:-0.342542,0.768314,0.126731,-0.525640 HandTipLeft:0.000000,0.000000,0.000000,0.000000 HandTipRight:0.000000,0.000000,0.000000,0.000000 Head:0.000000,0.000000,0.000000,0.000000 HipLeft:0.106743,-0.678705,0.711072,-0.149475 HipRight:-0.144054,0.679491,0.695242,-0.184873 KneeLeft:0.009159,-0.690853,0.042461,0.721690 KneeRight:0.006621,0.722927,0.033081,0.690100 Neck:-0.062447,0.009885,0.995498,-0.070620 ShoulderLeft:0.043083,0.763778,-0.643915,0.012651 ShoulderRight:-0.037433,0.798167,0.591811,-0.106246 SpineBase:-0.022616,0.002875,0.999118,-0.035251 SpineMid:-0.042462,0.003575,0.998472,-0.035187 SpineShoulder:-0.062437,0.008928,0.996772,-0.049665 ThumbLeft:0.000000,0.000000,0.000000,0.000000 ThumbRight:0.000000,0.000000,0.000000,0.000000 WristLeft:0.151442,-0.537520,-0.061284,0.827274 WristRight:-0.293386,0.786255,0.130279,-0.527973 END:
KINECT_DATA POSITION:3.217314,-0.665136,-8.225203 HEAD_JOINT1:0.986001,0.157285,-0.000000,0.055357 LARM_JOINT2:0.830469,0.000000,0.001108,-0.557064 LARM_JOINT3:0.973918,0.000000,-0.188184,-0.126767 LLEG_JOINT2:0.999428,0.022868,0.000000,0.024929 LLEG_JOINT4:0.996103,0.084721,0.000000,-0.024514 RARM_JOINT2:0.802054,0.000000,0.324537,0.501383 RARM_JOINT3:0.974751,0.000000,0.209265,0.077901 RLEG_JOINT2:0.999085,0.030602,0.000000,-0.029877 RLEG_JOINT4:0.994889,0.090175,0.000000,0.045434 WAIST:0.999487,-0.000000,0.030429,0.009979 WAIST_JOINT0:0.996220,-0.000000,0.077815,0.038599 WAIST_JOINT1:0.998552,0.053741,-0.000000,0.002506 END:
KINECT_DATA_Sensor  AnkleLeft:0.078744,0.748004,-0.073340,-0.654913 AnkleRight:0.101626,0.726518,0.069218,0.676057 ElbowLeft:-0.052518,0.830116,-0.205509,-0.515669 ElbowRight:-0.258962,0.914593,0.043315,0.307542 FootLeft:0.000000,0.000000,0.000000,0.000000 FootRight:0.000000,0.000000,0.000000,0.000000 HandLeft:0.078967,-0.555106,-0.098298,0.822168 HandRight:-0.341888,0.739407,0.150495,-0.560126 HandTipLeft:0.000000,0.000000,0.000000,0.000000 HandTipRight:0.000000,0.000000,0.000000,0.000000 Head:0.000000,0.000000,0.000000,0.000000 HipLeft:0.101474,-0.677936,0.713832,-0.143350 HipRight:-0.150439,0.680650,0.692271,-0.186668 KneeLeft:0.007458,-0.684887,0.040882,0.727463 KneeRight:0.006293,0.728654,0.035704,0.683922 Neck:-0.080236,0.014352,0.994277,-0.069067 ShoulderLeft:0.048397,0.759757,-0.648397,0.002866 ShoulderRight:-0.055662,0.800029,0.584554,-0.123095 SpineBase:-0.030802,0.007187,0.998950,-0.033146 SpineMid:-0.055330,0.007999,0.997892,-0.032960 SpineShoulder:-0.080179,0.013195,0.995533,-0.048068 ThumbLeft:0.000000,0.000000,0.000000,0.000000 ThumbRight:0.000000,0.000000,0.000000,0.000000 WristLeft:0.154522,-0.536778,-0.054999,0.827627 WristRight:-0.319193,0.748609,0.155634,-0.559892 END:
KINECT_DATA POSITION:3.449569,-0.703262,-8.183408 HEAD_JOINT1:0.986239,0.158178,-0.000000,0.048089 LARM_JOINT2:0.827588,0.000000,0.002168,-0.561332 LARM_JOINT3:0.973522,0.000000,-0.189975,-0.127139 LLEG_JOINT2:0.999576,0.022761,0.000000,0.018179 LLEG_JOINT4:0.996109,0.086065,0.000000,-0.018940 RARM_JOINT2:0.798207,0.000000,0.361998,0.481480 RARM_JOINT3:0.976366,0.000000,0.205447,0.067087 RLEG_JOINT2:0.998691,0.034483,0.000000,-0.037777 RLEG_JOINT4:0.995028,0.086591,0.000000,0.049212 WAIST:0.999096,-0.000000,0.039921,0.014610 WAIST_JOINT0:0.994159,-0.000000,0.098227,0.044710 WAIST_JOINT1:0.998671,0.051477,-0.000000,0.002659 END:
KINECT_DATA_Sensor  AnkleLeft:-0.067462,-0.648155,0.085544,0.753675 AnkleRight:0.104112,0.759696,0.065607,0.638528 ElbowLeft:-0.052635,0.822486,-0.204749,-0.528038 ElbowRight:-0.288944,0.909220,0.017879,0.299184 FootLeft:0.000000,0.000000,0.000000,0.000000 FootRight:0.000000,0.000000,0.000000,0.000000 HandLeft:0.081281,-0.558974,-0.109886,0.817843 HandRight:-0.361311,0.737455,0.142408,-0.552571 HandTipLeft:0.000000,0.000000,0.000000,0.000000 HandTipRight:0.000000,0.000000,0.000000,0.000000 Head:0.000000,0.000000,0.000000,0.000000 HipLeft:0.098504,-0.675805,0.717044,-0.139401 HipRight:-0.160171,0.682519,0.686777,-0.191964 KneeLeft:0.005918,-0.677816,0.039123,0.734166 KneeRight:0.006004,0.735360,0.040631,0.676431 Neck:-0.100378,0.019740,0.992560,-0.066028 ShoulderLeft:0.053095,0.757026,-0.651170,-0.008372 ShoulderRight:-0.077865,0.801163,0.576068,-0.142201 SpineBase:-0.040397,0.012084,0.998628,-0.031058 SpineMid:-0.070064,0.013002,0.996986,-0.030685 SpineShoulder:-0.100311,0.017773,0.993755,-0.045537 ThumbLeft:0.000000,0.000000,0.000000,0.000000 ThumbRight:0.000000,0.000000,0.000000,0.000000 WristLeft:0.158164,-0.537991,-0.051141,0.826399 WristRight:-0.353820,0.742301,0.157939,-0.546677 END:
KINECT_DATA POSITION:3.844233,-0.721563,-8.029890 HEAD_JOINT1:0.986378,0.158828,-0.000000,0.042814 LARM_JOINT2:0.825126,0.000000,0.004389,-0.564932 LARM_JOINT3:0.973454,0.000000,-0.188947,-0.129179 LLEG_JOINT2:0.999701,0.023173,0.000000,0.007858 LLEG_JOINT4:0.996544,0.082062,0.000000,-0.012852 RARM_JOINT2:0.779928,0.000000,0.446204,0.438878 RARM_JOINT3:0.985803,0.000000,0.139998,0.092694 RLEG_JOINT2:0.998078,0.037960,0.000000,-0.048987 RLEG_JOINT4:0.994616,0.087586,0.000000,0.055382 WAIST:0.998394,-0.000000,0.052777,0.020587 WAIST_JOINT0:0.992474,-0.000000,0.113071,0.047009 WAIST_JOINT1:0.998810,0.048754,-0.000000,0.001038 END:
KINECT_DATA_Sensor  AnkleLeft:0.074171,0.728122,-0.074526,-0.677335 AnkleRight:0.101138,0.717327,0.076960,0.685048 ElbowLeft:-0.050745,0.815959,-0.204913,-0.538189 ElbowRight:-0.348411,0.930151,0.020102,0.114124 FootLeft:0.000000,0.000000,0.000000,0.000000 FootRight:0.000000,0.000000,0.000000,0.000000 HandLeft:0.079362,-0.525365,-0.109837,0.840017 HandRight:-0.348756,0.719690,0.113941,-0.589434 HandTipLeft:0.000000,0.000000,0.000000,0.000000 HandTipRight:0.000000,0.000000,0.000000,0.000000 Head:0.000000,0.000000,0.000000,0.000000 HipLeft:0.094113,-0.672905,0.721619,-0.132692 HipRight:-0.172538,0.684988,0.679885,-0.196922 KneeLeft:0.002577,-0.668133,0.035888,0.743171 KneeRight:0.003586,0.744368,0.046435,0.666144 Neck:-0.114711,0.024217,0.991135,-0.062493 ShoulderLeft:0.057322,0.756574,-0.651111,-0.019105 ShoulderRight:-0.092570,0.801297,0.570725,-0.153713 SpineBase:-0.053334,0.018727,0.998024,-0.027428 SpineMid:-0.083552,0.019550,0.995950,-0.026848 SpineShoulder:-0.114655,0.021250,0.992263,-0.042632 ThumbLeft:0.000000,0.000000,0.000000,0.000000 ThumbRight:0.000000,0.000000,0.000000,0.000000 WristLeft:0.157729,-0.504481,-0.054739,0.847127 WristRight:-0.356043,0.721563,0.146229,-0.575498 END:
KINECT_DATA POSITION:4.335573,-0.744820,-7.813859 HEAD_JOINT1:0.986608,0.158528,-0.000000,0.038382 LARM_JOINT2:0.822607,0.000000,0.003824,-0.568598 LARM_JOINT3:0.973872,0.000000,-0.187030,-0.128811 LLEG_JOINT2:0.999698,0.023289,0.000000,-0.007785 LLEG_JOINT4:0.996483,0.083525,0.000000,-0.006710 RARM_JOINT2:0.769946,0.000000,0.448141,0.454260 RARM_JOINT3:0.984373,0.000000,0.152029,0.088863 RLEG_JOINT2:0.996439,0.049606,0.000000,-0.068179 RLEG_JOINT4:0.994896,0.076185,0.000000,0.066166 WAIST:0.996927,-0.000000,0.071464,0.032090 WAIST_JOINT0:0.989099,-0.000000,0.138359,0.050392 WAIST_JOINT1:0.998829,0.048042,0.000000,-0.005764 END:
KINECT_DATA_Sensor  AnkleLeft:0.076129,0.728236,-0.073502,-0.677107 AnkleRight:0.102259,0.738116,0.074921,0.662657 ElbowLeft:-0.047325,0.809689,-0.205394,-0.547703 ElbowRight:-0.339581,0.929399,-0.022739,0.142780 FootLeft:0.000000,0.000000,0.000000,0.000000 FootRight:0.000000,0.000000,0.000000,0.000000 HandLeft:0.013498,0.090798,-0.131377,0.987073 HandRight:0.334296,-0.696072,-0.101878,0.627177 HandTipLeft:0.000000,0.000000,0.000000,0.000000 HandTipRight:0.000000,0.000000,0.000000,0.000000 Head:0.000000,0.000000,0.000000,0.000000 HipLeft:0.088160,-0.667048,0.729366,-0.123696 HipRight:-0.189011,0.689644,0.667494,-0.207650 KneeLeft:0.000001,-0.653712,0.032044,0.756065 KneeRight:0.003755,0.757521,0.059471,0.650086 Neck:-0.139023,0.029155,0.987986,-0.060886 ShoulderLeft:0.061628,0.754330,-0.652919,-0.029763 ShoulderRight:-0.121658,0.797129,0.563627,-0.179188 SpineBase:-0.072314,0.025975,0.996766,-0.023529 SpineMid:-0.104979,0.026733,0.993857,-0.022664 SpineShoulder:-0.139003,0.024957,0.989127,-0.041017 ThumbLeft:0.000000,0.000000,0.000000,0.000000 ThumbRight:0.000000,0.000000,0.000000,0.000000 WristLeft:0.095790,0.100012,-0.136308,0.980939 WristRight:0.386446,-0.680030,-0.130778,0.609193 END:
KINECT_DATA POSITION:4.683915,-0.773996,-7.725191 HEAD_JOINT1:0.987018,0.157112,-0.000000,0.033337 LARM_JOINT2:0.820291,0.000000,0.006357,-0.571911 LARM_JOINT3:0.974192,0.000000,-0.185824,-0.128135 LLEG_JOINT2:0.999518,0.024174,0.000000,-0.019469 LLEG_JOINT4:0.996549,0.082952,0.000000,0.002929 RARM_JOINT2:0.768057,0.000000,0.476737,0.427562 RARM_JOINT3:0.983932,0.000000,0.128066,0.124403 RLEG_JOINT2:0.995173,0.058149,0.000000,-0.079054 RLEG_JOINT4:0.995206,0.067421,0.000000,0.070843 WAIST:0.995789,-0.000000,0.082585,0.039788 WAIST_JOINT0:0.987534,-0.000000,0.149280,0.049918 WAIST_JOINT1:0.998813,0.047789,0.000000,-0.009428 END:
KINECT_DATA_Sensor  AnkleLeft:-0.061825,-0.618310,0.086382,0.778722 AnkleRight:0.099105,0.723071,0.077656,0.679203 ElbowLeft:-0.043888,0.803715,-0.206307,-0.556375 ElbowRight:-0.367249,0.929005,0.026876,-0.036807 FootLeft:0.000000,0.000000,0.000000,0.000000 FootRight:0.000000,0.000000,0.000000,0.000000 HandLeft:0.023534,0.094808,-0.126792,0.987108 HandRight:0.345234,-0.657692,-0.110059,0.660410 HandTipLeft:0.000000,0.000000,0.000000,0.000000 HandTipRight:0.000000,0.000000,0.000000,0.000000 Head:0.000000,0.000000,0.000000,0.000000 HipLeft:0.082637,-0.662176,0.735442,-0.117558 HipRight:-0.196663,0.692281,0.660698,-0.213422 KneeLeft:-0.002872,-0.644947,0.028887,0.763676 KneeRight:0.005542,0.765335,0.067367,0.640073 Neck:-0.149754,0.032680,0.986320,-0.060650 ShoulderLeft:0.065898,0.752518,-0.654221,-0.037006 ShoulderRight:-0.132105,0.793349,0.563707,-0.188096 SpineBase:-0.083649,0.030241,0.995786,-0.022317 SpineMid:-0.115929,0.030950,0.992546,-0.021324 SpineShoulder:-0.149679,0.028382,0.987520,-0.039926 ThumbLeft:0.000000,0.000000,0.000000,0.000000 ThumbRight:0.000000,0.000000,0.000000,0.000000 WristLeft:0.097912,0.102482,-0.133700,0.980834 WristRight:0.365177,-0.650621,-0.111781,0.656386 END:
KINECT_DATA POSITION:5.102836,-0.785156,-7.694757 HEAD_JOINT1:0.987155,0.157094,-0.000000,0.029089 LARM_JOINT2:0.817866,0.000000,0.006343,-0.575374 LARM_JOINT3:0.973294,0.000000,-0.189533,-0.129518 LLEG_JOINT2:0.999224,0.025283,0.000000,-0.030195 LLEG_JOINT4:0.996759,0.079926,0.000000,0.009180 RARM_JOINT2:0.761442,0.000000,0.495220,0.418287 RARM_JOINT3:0.983462,0.000000,0.125069,0.130994 RLEG_JOINT2:0.993954,0.063140,0.000000,-0.089826 RLEG_JOINT4:0.995144,0.063639,0.000000,0.075096 WAIST:0.994845,-0.000000,0.090870,0.045013 WAIST_JOINT0:0.988032,-0.000000,0.146244,0.049055 WAIST_JOINT1:0.998831,0.047273,0.000000,-0.010080 END:
KINECT_DATA_Sensor  AnkleLeft:-0.060883,-0.620168,0.084001,0.777579 AnkleRight:0.098536,0.736839,0.078427,0.664235 ElbowLeft:-0.042401,0.801533,-0.206615,-0.559515 ElbowRight:-0.380706,0.920906,0.023304,-0.080316 FootLeft:0.000000,0.000000,0.000000,0.000000 FootRight:0.000000,0.000000,0.000000,0.000000 HandLeft:0.113313,-0.555381,-0.097397,0.818062 HandRight:0.361066,-0.636027,-0.100009,0.674610 HandTipLeft:0.000000,0.000000,0.000000,0.000000 HandTipRight:0.000000,0.000000,0.000000,0.000000 Head:0.000000,0.000000,0.000000,0.000000 HipLeft:0.077100,-0.658260,0.740249,-0.113050 HipRight:-0.200866,0.693609,0.656789,-0.217228 KneeLeft:-0.006889,-0.638312,0.024789,0.769348 KneeRight:0.003405,0.771103,0.074238,0.632359 Neck:-0.147240,0.034464,0.986645,-0.060532 ShoulderLeft:0.069734,0.751275,-0.655002,-0.041175 ShoulderRight:-0.124001,0.793874,0.567196,-0.180767 SpineBase:-0.092112,0.033441,0.994932,-0.022511 SpineMid:-0.118892,0.034036,0.992089,-0.021601 SpineShoulder:-0.146903,0.032668,0.987835,-0.039177 ThumbLeft:0.000000,0.000000,0.000000,0.000000 ThumbRight:0.000000,0.000000,0.000000,0.000000 WristLeft:0.160023,-0.541129,-0.038941,0.824655 WristRight:0.373517,-0.632375,-0.103907,0.670664 END:
KINECT_DATA POSITION:5.200075,-0.750014,-7.704031 HEAD_JOINT1:0.986967,0.158789,-0.000000,0.026111 LARM_JOINT2:0.817913,0.000000,0.003581,-0.575331 LARM_JOINT3:0.972503,0.000000,-0.192256,-0.131440 LLEG_JOINT2:0.999217,0.024648,0.000000,-0.030936 LLEG_JOINT4:0.996702,0.079712,0.000000,0.015213 RARM_JOINT2:0.767620,0.000000,0.487933,0.415549 RARM_JOINT3:0.982395,0.000000,0.134327,0.129830 RLEG_JOINT2:0.993696,0.065910,0.000000,-0.090683 RLEG_JOINT4:0.994857,0.062901,0.000000,0.079391 WAIST:0.994349,-0.000000,0.096624,0.043972 WAIST_JOINT0:0.986856,-0.000000,0.155376,0.044423 WAIST_JOINT1:0.998860,0.047162,0.000000,-0.007358 END:
KINECT_DATA_Sensor  AnkleLeft:-0.057752,-0.614979,0.086290,0.781678 AnkleRight:0.099956,0.730743,0.080437,0.670487 ElbowLeft:-0.042720,0.802260,-0.207675,-0.558055 ElbowRight:-0.379492,0.922466,0.022722,-0.067276 FootLeft:0.000000,0.000000,0.000000,0.000000 FootRight:0.000000,0.000000,0.000000,0.000000 HandLeft:0.113812,-0.488932,-0.114756,0.857219 HandRight:0.365305,-0.613420,-0.116987,0.690349 HandTipLeft:0.000000,0.000000,0.000000,0.000000 HandTipRight:0.000000,0.000000,0.000000,0.000000 Head:0.000000,0.000000,0.000000,0.000000 HipLeft:0.074447,-0.658556,0.740563,-0.111035 HipRight:-0.205730,0.691008,0.656750,-0.221048 KneeLeft:-0.007566,-0.633914,0.022855,0.773028 KneeRight:0.003197,0.774826,0.077497,0.627398 Neck:-0.156803,0.035880,0.985128,-0.060393 ShoulderLeft:0.071349,0.749391,-0.656781,-0.044279 ShoulderRight:-0.136515,0.785568,0.572424,-0.191251 SpineBase:-0.097811,0.033815,0.994372,-0.022686 SpineMid:-0.126510,0.034457,0.991129,-0.021699 SpineShoulder:-0.156432,0.034312,0.986320,-0.039031 ThumbLeft:0.000000,0.000000,0.000000,0.000000 ThumbRight:0.000000,0.000000,0.000000,0.000000 WristLeft:0.156892,-0.474731,-0.052240,0.864457 WristRight:0.373390,-0.609943,-0.114700,0.689488 END:
KINECT_DATA POSITION:5.156118,-0.708848,-7.724965 HEAD_JOINT1:0.986976,0.158870,-0.000000,0.025266 LARM_JOINT2:0.818362,0.000000,-0.001033,-0.574703 LARM_JOINT3:0.972328,0.000000,-0.191340,-0.134040 LLEG_JOINT2:0.999333,0.021631,0.000000,-0.029408 LLEG_JOINT4:0.996367,0.083224,0.000000,0.018058 RARM_JOINT2:0.768209,0.000000,0.487106,0.415430 RARM_JOINT3:0.979772,0.000000,0.146136,0.136712 RLEG_JOINT2:0.993577,0.067480,0.000000,-0.090836 RLEG_JOINT4:0.994943,0.059831,0.000000,0.080681 WAIST:0.993887,-0.000000,0.101398,0.043663 WAIST_JOINT0:0.986749,-0.000000,0.156662,0.042233 WAIST_JOINT1:0.998834,0.047855,0.000000,-0.006292 END:
KINECT_DATA_Sensor  AnkleLeft:-0.056187,-0.614551,0.089064,0.781817 AnkleRight:0.099389,0.735504,0.078882,0.665532 ElbowLeft:-0.043489,0.804589,-0.208300,-0.554397 ElbowRight:-0.379044,0.923597,0.014715,-0.055485 FootLeft:0.000000,0.000000,0.000000,0.000000 FootRight:0.000000,0.000000,0.000000,0.000000 HandLeft:0.125163,-0.573532,-0.109050,0.802186 HandRight:0.372732,-0.619339,-0.084270,0.685849 HandTipLeft:0.000000,0.000000,0.000000,0.000000 HandTipRight:0.000000,0.000000,0.000000,0.000000 Head:0.000000,0.000000,0.000000,0.000000 HipLeft:0.072251,-0.658659,0.740931,-0.109404 HipRight:-0.207681,0.689486,0.656623,-0.224329 KneeLeft:-0.004443,-0.630379,0.021732,0.775971 KneeRight:0.003342,0.777815,0.078894,0.623513 Neck:-0.158205,0.036134,0.984832,-0.061421 ShoulderLeft:0.072634,0.748639,-0.657486,-0.044453 ShoulderRight:-0.137568,0.782062,0.576388,-0.192956 SpineBase:-0.102633,0.032656,0.993907,-0.023422 SpineMid:-0.129693,0.033282,0.990739,-0.022523 SpineShoulder:-0.157820,0.034688,0.986056,-0.039797 ThumbLeft:0.000000,0.000000,0.000000,0.000000 ThumbRight:0.000000,0.000000,0.000000,0.000000 WristLeft:0.160988,-0.559877,-0.035340,0.812017 WristRight:0.385611,-0.618343,-0.098931,0.677620 END:
KINECT_DATA POSITION:4.345803,-0.683815,-7.989562 HEAD_JOINT1:0.987115,0.157956,-0.000000,0.025565 LARM_JOINT2:0.821000,0.000000,-0.000925,-0.570927 LARM_JOINT3:0.971163,0.000000,-0.193937,-0.138678 LLEG_JOINT2:0.999878,0.013086,0.000000,-0.008505 LLEG_JOINT4:0.995542,0.094146,0.000000,0.005701 RARM_JOINT2:0.762894,0.000000,0.502092,0.407304 RARM_JOINT3:0.979697,0.000000,0.140365,0.143148 RLEG_JOINT2:0.995544,0.063510,0.000000,-0.069699 RLEG_JOINT4:0.995594,0.061263,0.000000,0.070986 WAIST:0.993201,-0.000000,0.111153,0.034595 WAIST_JOINT0:0.988672,-0.000000,0.143585,0.043717 WAIST_JOINT1:0.998775,0.049470,0.000000,-0.000426 END:
KINECT_DATA_Sensor  AnkleLeft:0.076472,0.751169,-0.076228,-0.651219 AnkleRight:0.098416,0.733335,0.078235,0.668142 ElbowLeft:-0.039495,0.800595,-0.210901,-0.559471 ElbowRight:-0.388272,0.917917,0.011165,-0.080918 FootLeft:0.000000,0.000000,0.000000,0.000000 FootRight:0.000000,0.000000,0.000000,0.000000 HandLeft:0.121686,-0.589293,-0.104027,0.791900 HandRight:0.345457,-0.602641,-0.086020,0.714202 HandTipLeft:0.000000,0.000000,0.000000,0.000000 HandTipRight:0.000000,0.000000,0.000000,0.000000 Head:0.000000,0.000000,0.000000,0.000000 HipLeft:0.066101,-0.665602,0.735740,-0.106261 HipRight:-0.210327,0.680788,0.661626,-0.233541 KneeLeft:0.008945,-0.623262,0.025977,0.781531 KneeRight:0.009809,0.783124,0.068674,0.617984 Neck:-0.145604,0.033057,0.986729,-0.063815 ShoulderLeft:0.069309,0.750027,-0.656875,-0.034199 ShoulderRight:-0.123761,0.787113,0.575459,-0.184345 SpineBase:-0.112281,0.024358,0.993001,-0.027349 SpineMid:-0.128648,0.024806,0.991014,-0.026943 SpineShoulder:-0.145487,0.029331,0.987988,-0.043050 ThumbLeft:0.000000,0.000000,0.000000,0.000000 ThumbRight:0.000000,0.000000,0.000000,0.000000 WristLeft:0.161705,-0.575098,-0.033301,0.801252 WristRight:0.391686,-0.589094,-0.098785,0.699852 END:
KINECT_DATA POSITION:4.295350,-0.699616,-8.038128 HEAD_JOINT1:0.987134,0.157790,-0.000000,0.025845 LARM_JOINT2:0.822305,0.000000,-0.004644,-0.569029 LARM_JOINT3:0.971590,0.000000,-0.193169,-0.136746 LLEG_JOINT2:0.999878,0.013283,0.000000,-0.008209 LLEG_JOINT4:0.996126,0.087792,0.000000,0.005061 RARM_JOINT2:0.758560,0.000000,0.499618,0.418291 RARM_JOINT3:0.982858,0.000000,0.131901,0.128809 RLEG_JOINT2:0.995574,0.063321,0.000000,-0.069443 RLEG_JOINT4:0.995565,0.062274,0.000000,0.070515 WAIST:0.993265,-0.000000,0.110563,0.034652 WAIST_JOINT0:0.988001,-0.000000,0.147910,0.044449 WAIST_JOINT1:0.998731,0.050354,0.000000,-0.001339 END:
KINECT_DATA_Sensor  AnkleLeft:-0.056459,-0.619455,0.084993,0.778373 AnkleRight:0.096778,0.715664,0.081432,0.686897 ElbowLeft:-0.041254,0.803494,-0.211501,-0.554944 ElbowRight:-0.380301,0.922755,-0.002352,-0.062366 FootLeft:0.000000,0.000000,0.000000,0.000000 FootRight:0.000000,0.000000,0.000000,0.000000 HandLeft:0.120018,-0.521722,-0.113200,0.837011 HandRight:0.319801,-0.611991,-0.117642,0.713691 HandTipLeft:0.000000,0.000000,0.000000,0.000000 HandTipRight:0.000000,0.000000,0.000000,0.000000 Head:0.000000,0.000000,0.000000,0.000000 HipLeft:0.066509,-0.665324,0.735833,-0.107100 HipRight:-0.210276,0.680621,0.661738,-0.233757 KneeLeft:0.009018,-0.623713,0.026380,0.781156 KneeRight:0.009984,0.782761,0.068335,0.618479 Neck:-0.149968,0.032675,0.986060,-0.064251 ShoulderLeft:0.072364,0.748440,-0.658262,-0.035945 ShoulderRight:-0.126870,0.785412,0.575657,-0.188817 SpineBase:-0.111705,0.024427,0.993055,-0.027704 SpineMid:-0.130517,0.024948,0.990758,-0.027235 SpineShoulder:-0.149903,0.028598,0.987317,-0.043784 ThumbLeft:0.000000,0.000000,0.000000,0.000000 ThumbRight:0.000000,0.000000,0.000000,0.000000 WristLeft:0.158580,-0.507956,-0.045464,0.845439 WristRight:0.391221,-0.579818,-0.104626,0.706973 END:
KINECT_DATA POSITION:4.411370,-0.681271,-8.006895 HEAD_JOINT1:0.987180,0.157343,-0.000000,0.026824 LARM_JOINT2:0.823089,0.000000,0.005192,-0.567889 LARM_JOINT3:0.968662,0.000000,-0.202424,-0.143940 LLEG_JOINT2:0.999813,0.015311,0.000000,-0.011801 LLEG_JOINT4:0.996122,0.087661,0.000000,0.007535 RARM_JOINT2:0.755639,0.000000,0.497545,0.425979 RARM_JOINT3:0.983273,0.000000,0.134070,0.123284 RLEG_JOINT2:0.995322,0.064074,0.000000,-0.072306 RLEG_JOINT4:0.995575,0.059987,0.000000,0.072338 WAIST:0.993562,-0.000000,0.107550,0.035599 WAIST_JOINT0:0.988721,-0.000000,0.144002,0.041165 WAIST_JOINT1:0.998719,0.050533,0.000000,-0.002513 END:
KINECT_DATA_Sensor  AnkleLeft:-0.057769,-0.621750,0.086234,0.776308 AnkleRight:0.097071,0.722118,0.078729,0.680386 ElbowLeft:-0.036569,0.799357,-0.215285,-0.559771 ElbowRight:-0.374752,0.925850,-0.010465,-0.047470 FootLeft:0.000000,0.000000,0.000000,0.000000 FootRight:0.000000,0.000000,0.000000,0.000000 HandLeft:0.121860,-0.569314,-0.125581,0.803281 HandRight:0.328480,-0.639748,-0.111864,0.685791 HandTipLeft:0.000000,0.000000,0.000000,0.000000 HandTipRight:0.000000,0.000000,0.000000,0.000000 Head:0.000000,0.000000,0.000000,0.000000 HipLeft:0.067942,-0.664459,0.736335,-0.108119 HipRight:-0.209491,0.682011,0.661449,-0.231213 KneeLeft:0.005861,-0.626037,0.025570,0.779352 KneeRight:0.009194,0.781009,0.070096,0.620506 Neck:-0.146110,0.032145,0.986650,-0.064344 ShoulderLeft:0.063584,0.751012,-0.656605,-0.028407 ShoulderRight:-0.131369,0.783491,0.576877,-0.189991 SpineBase:-0.108669,0.026229,0.993367,-0.026934 SpineMid:-0.126978,0.026721,0.991193,-0.026445 SpineShoulder:-0.146004,0.028593,0.987896,-0.043891 ThumbLeft:0.000000,0.000000,0.000000,0.000000 ThumbRight:0.000000,0.000000,0.000000,0.000000 WristLeft:0.160888,-0.553607,-0.037441,0.816231 WristRight:0.397117,-0.605362,-0.088336,0.684129 END:
KINECT_DATA POSITION:4.488685,-0.678278,-7.947743 HEAD_JOINT1:0.987259,0.156661,-0.000000,0.027889 LARM_JOINT2:0.823208,0.000000,0.006559,-0.567702 LARM_JOINT3:0.968542,0.000000,-0.202600,-0.144500 LLEG_JOINT2:0.999778,0.016681,0.000000,-0.012847 LLEG_JOINT4:0.996249,0.085979,0.000000,0.009727 RARM_JOINT2:0.759838,0.000000,0.494773,0.421718 RARM_JOINT3:0.982742,0.000000,0.136511,0.124829 RLEG_JOINT2:0.995130,0.065620,0.000000,-0.073559 RLEG_JOINT4:0.995582,0.058742,0.000000,0.073252 WAIST:0.993571,-0.000000,0.107307,0.036085 WAIST_JOINT0:0.988865,-0.000000,0.143357,0.039931 WAIST_JOINT1:0.998734,0.050222,0.000000,-0.002689 END:
KINECT_DATA_Sensor  AnkleLeft:-0.056500,-0.622467,0.087258,0.775712 AnkleRight:0.098738,0.733961,0.077082,0.667540 ElbowLeft:-0.036235,0.798932,-0.216030,-0.560112 ElbowRight:-0.376542,0.924686,-0.000102,-0.056319 FootLeft:0.000000,0.000000,0.000000,0.000000 FootRight:0.000000,0.000000,0.000000,0.000000 HandLeft:0.117739,-0.551217,-0.126689,0.816240 HandRight:0.341980,-0.654798,-0.115264,0.664081 HandTipLeft:0.000000,0.000000,0.000000,0.000000 HandTipRight:0.000000,0.000000,0.000000,0.000000 Head:0.000000,0.000000,0.000000,0.000000 HipLeft:0.068362,-0.664201,0.736569,-0.107841 HipRight:-0.210016,0.682672,0.660928,-0.230276 KneeLeft:0.004484,-0.626187,0.025962,0.779227 KneeRight:0.009570,0.780937,0.071746,0.620401 Neck:-0.145406,0.032197,0.986767,-0.064114 ShoulderLeft:0.062101,0.751648,-0.656046,-0.027800 ShoulderRight:-0.131983,0.782697,0.577946,-0.189590 SpineBase:-0.108393,0.027256,0.993392,-0.026084 SpineMid:-0.126443,0.027726,0.991256,-0.025584 SpineShoulder:-0.145265,0.028998,0.988009,-0.043535 ThumbLeft:0.000000,0.000000,0.000000,0.000000 ThumbRight:0.000000,0.000000,0.000000,0.000000 WristLeft:0.160304,-0.534846,-0.041407,0.828570 WristRight:0.395056,-0.624074,-0.079271,0.669461 END:
KINECT_DATA POSITION:4.583565,-0.658073,-7.922530 HEAD_JOINT1:0.987176,0.157039,-0.000000,0.028671 LARM_JOINT2:0.822346,0.000000,-0.003433,-0.568977 LARM_JOINT3:0.970920,0.000000,-0.192496,-0.142338 LLEG_JOINT2:0.999725,0.016818,0.000000,-0.016351 LLEG_JOINT4:0.995945,0.088735,0.000000,0.014791 RARM_JOINT2:0.757356,0.000000,0.502628,0.416865 RARM_JOINT3:0.983285,0.000000,0.129222,0.128264 RLEG_JOINT2:0.994912,0.066174,0.000000,-0.075968 RLEG_JOINT4:0.995489,0.058658,0.000000,0.074571 WAIST:0.993608,-0.000000,0.106530,0.037335 WAIST_JOINT0:0.988597,-0.000000,0.143887,0.044412 WAIST_JOINT1:0.998727,0.050341,0.000000,-0.003170 END:
KINECT_DATA_Sensor  AnkleLeft:-0.056769,-0.622321,0.091284,0.775346 AnkleRight:0.104714,0.782089,0.069444,0.610368 ElbowLeft:-0.041981,0.804584,-0.212435,-0.552950 ElbowRight:-0.382360,0.921144,0.002184,-0.072724 FootLeft:0.000000,0.000000,0.000000,0.000000 FootRight:0.000000,0.000000,0.000000,0.000000 HandLeft:0.110893,-0.591280,-0.116121,0.790321 HandRight:0.320839,-0.559199,-0.149129,0.749746 HandTipLeft:0.000000,0.000000,0.000000,0.000000 HandTipRight:0.000000,0.000000,0.000000,0.000000 Head:0.000000,0.000000,0.000000,0.000000 HipLeft:0.068275,-0.663193,0.737504,-0.107710 HipRight:-0.209510,0.683808,0.660379,-0.228934 KneeLeft:0.003062,-0.626773,0.024221,0.778819 KneeRight:0.009012,0.780574,0.072823,0.620741 Neck:-0.145870,0.033035,0.986665,-0.064215 ShoulderLeft:0.070381,0.748001,-0.659090,-0.033777 ShoulderRight:-0.123426,0.785538,0.577589,-0.184625 SpineBase:-0.107634,0.028615,0.993445,-0.025739 SpineMid:-0.126266,0.029093,0.991249,-0.025198 SpineShoulder:-0.145708,0.029859,0.987919,-0.043511 ThumbLeft:0.000000,0.000000,0.000000,0.000000 ThumbRight:0.000000,0.000000,0.000000,0.000000 WristLeft:0.162095,-0.573305,-0.032594,0.802486 WristRight:0.380184,-0.531067,-0.131554,0.745735 END:
KINECT_DATA POSITION:4.737526,-0.666177,-7.841814 HEAD_JOINT1:0.987103,0.157556,-0.000000,0.028352 LARM_JOINT2:0.821358,0.000000,0.007149,-0.570368 LARM_JOINT3:0.969259,0.000000,-0.198957,-0.144751 LLEG_JOINT2:0.999625,0.019054,0.000000,-0.019686 LLEG_JOINT4:0.996243,0.085341,0.000000,0.014747 RARM_JOINT2:0.758319,0.000000,0.501784,0.416132 RARM_JOINT3:0.984659,0.000000,0.117761,0.128762 RLEG_JOINT2:0.994642,0.067138,0.000000,-0.078606 RLEG_JOINT4:0.995633,0.063545,0.000000,0.068392 WAIST:0.993694,-0.000000,0.105394,0.038260 WAIST_JOINT0:0.989542,-0.000000,0.138202,0.041305 WAIST_JOINT1:0.998732,0.050254,0.000000,-0.002849 END:
KINECT_DATA_Sensor  AnkleLeft:0.072427,0.753962,-0.076794,-0.648381 AnkleRight:0.102323,0.779981,0.079019,0.612303 ElbowLeft:-0.036420,0.798456,-0.214897,-0.561214 ElbowRight:-0.382380,0.920738,0.005661,-0.077433 FootLeft:0.000000,0.000000,0.000000,0.000000 FootRight:0.000000,0.000000,0.000000,0.000000 HandLeft:0.009855,0.052332,-0.161017,0.985514 HandRight:0.297486,-0.606407,-0.137540,0.724469 HandTipLeft:0.000000,0.000000,0.000000,0.000000 HandTipRight:0.000000,0.000000,0.000000,0.000000 Head:0.000000,0.000000,0.000000,0.000000 HipLeft:0.068265,-0.662600,0.738066,-0.107519 HipRight:-0.209167,0.685152,0.659828,-0.226812 KneeLeft:-0.000119,-0.627564,0.023712,0.778204 KneeRight:0.008356,0.780019,0.074603,0.621237 Neck:-0.140442,0.034005,0.987400,-0.064502 ShoulderLeft:0.061912,0.751129,-0.656697,-0.026839 ShoulderRight:-0.125098,0.785520,0.577682,-0.183282 SpineBase:-0.106463,0.030645,0.993530,-0.024987 SpineMid:-0.122913,0.031055,0.991629,-0.024476 SpineShoulder:-0.140235,0.030989,0.988677,-0.043482 ThumbLeft:0.000000,0.000000,0.000000,0.000000 ThumbRight:0.000000,0.000000,0.000000,0.000000 WristLeft:0.103567,0.070479,-0.128651,0.983746 WristRight:0.381057,-0.567002,-0.117584,0.720749 END:
KINECT_DATA POSITION:5.025284,-0.678086,-7.720459 HEAD_JOINT1:0.986724,0.159805,-0.000000,0.028935 LARM_JOINT2:0.819796,0.000000,0.010447,-0.572560 LARM_JOINT3:0.969477,0.000000,-0.198179,-0.144361 LLEG_JOINT2:0.999434,0.021404,0.000000,-0.025970 LLEG_JOINT4:0.996404,0.082914,0.000000,0.017471 RARM_JOINT2:0.759415,0.000000,0.498235,0.418390 RARM_JOINT3:0.985422,0.000000,0.115146,0.125238 RLEG_JOINT2:0.994085,0.067004,0.000000,-0.085473 RLEG_JOINT4:0.995002,0.062038,0.000000,0.078249 WAIST:0.993839,-0.000000,0.103175,0.040490 WAIST_JOINT0:0.989610,-0.000000,0.137794,0.041035 WAIST_JOINT1:0.998773,0.049415,0.000000,-0.003256 END:
KINECT_DATA_Sensor  AnkleLeft:-0.057749,-0.625793,0.087623,0.772897 AnkleRight:0.105423,0.779165,0.073898,0.613455 ElbowLeft:-0.035820,0.797123,-0.214567,-0.563270 ElbowRight:-0.380268,0.921534,0.008109,-0.078140 FootLeft:0.000000,0.000000,0.000000,0.000000 FootRight:0.000000,0.000000,0.000000,0.000000 HandLeft:0.099050,-0.531663,-0.124164,0.831930 HandRight:0.293878,-0.551361,-0.165274,0.763100 HandTipLeft:0.000000,0.000000,0.000000,0.000000 HandTipRight:0.000000,0.000000,0.000000,0.000000 Head:0.000000,0.000000,0.000000,0.000000 HipLeft:0.068998,-0.660960,0.739403,-0.107958 HipRight:-0.208443,0.687623,0.658554,-0.223680 KneeLeft:-0.004332,-0.629118,0.021952,0.776988 KneeRight:0.004780,0.778885,0.077319,0.622364 Neck:-0.140005,0.035591,0.987446,-0.063894 ShoulderLeft:0.059404,0.751297,-0.656752,-0.026465 ShoulderRight:-0.127180,0.785430,0.577489,-0.182844 SpineBase:-0.104234,0.033846,0.993689,-0.023926 SpineMid:-0.121461,0.034257,0.991730,-0.023336 SpineShoulder:-0.139695,0.033216,0.988729,-0.042378 ThumbLeft:0.000000,0.000000,0.000000,0.000000 ThumbRight:0.000000,0.000000,0.000000,0.000000 WristLeft:0.158776,-0.511852,-0.043461,0.843154 WristRight:0.365599,-0.518373,-0.147971,0.758770 END:
KINECT_DATA POSITION:5.102203,-0.686467,-7.685232 HEAD_JOINT1:0.986591,0.160466,-0.000000,0.029815 LARM_JOINT2:0.819053,0.000000,0.012718,-0.573577 LARM_JOINT3:0.968281,0.000000,-0.202664,-0.146149 LLEG_JOINT2:0.999366,0.021904,0.000000,-0.028067 LLEG_JOINT4:0.996569,0.081113,0.000000,0.016434 RARM_JOINT2:0.757476,0.000000,0.499813,0.420021 RARM_JOINT3:0.985108,0.000000,0.116210,0.126716 RLEG_JOINT2:0.993902,0.067477,0.000000,-0.087213 RLEG_JOINT4:0.994977,0.060288,0.000000,0.079908 WAIST:0.993892,-0.000000,0.102297,0.041402 WAIST_JOINT0:0.990387,-0.000000,0.131927,0.041567 WAIST_JOINT1:0.998782,0.049227,0.000000,-0.003346 END:
KINECT_DATA_Sensor  AnkleLeft:-0.058287,-0.629118,0.084911,0.770457 AnkleRight:0.104970,0.776336,0.072667,0.617254 ElbowLeft:-0.034907,0.795948,-0.214679,-0.564944 ElbowRight:-0.380180,0.922249,0.001620,-0.070129 FootLeft:0.000000,0.000000,0.000000,0.000000 FootRight:0.000000,0.000000,0.000000,0.000000 HandLeft:0.106984,-0.558304,-0.133178,0.811859 HandRight:0.307138,-0.625491,-0.122131,0.706761 HandTipLeft:0.000000,0.000000,0.000000,0.000000 HandTipRight:0.000000,0.000000,0.000000,0.000000 Head:0.000000,0.000000,0.000000,0.000000 HipLeft:0.069187,-0.660261,0.739946,-0.108395 HipRight:-0.207712,0.688417,0.658162,-0.223069 KneeLeft:-0.005403,-0.629739,0.021315,0.776496 KneeRight:0.004473,0.778411,0.078166,0.622853 Neck:-0.134249,0.035958,0.988233,-0.063874 ShoulderLeft:0.057370,0.752001,-0.656222,-0.023993 ShoulderRight:-0.121119,0.788142,0.576961,-0.176858 SpineBase:-0.103392,0.034440,0.993754,-0.024031 SpineMid:-0.118170,0.034794,0.992105,-0.023516 SpineShoulder:-0.133889,0.033942,0.989510,-0.042320 ThumbLeft:0.000000,0.000000,0.000000,0.000000 ThumbRight:0.000000,0.000000,0.000000,0.000000 WristLeft:0.160088,-0.538674,-0.038869,0.826251 WristRight:0.383439,-0.591229,-0.108830,0.701127 END:
KINECT_DATA POSITION:5.194283,-0.683935,-7.644415 HEAD_JOINT1:0.986406,0.161402,-0.000000,0.030856 LARM_JOINT2:0.818626,0.000000,0.003216,-0.574318 LARM_JOINT3:0.971073,0.000000,-0.193247,-0.140257 LLEG_JOINT2:0.999254,0.022803,0.000000,-0.031165 LLEG_JOINT4:0.996486,0.081724,0.000000,0.018329 RARM_JOINT2:0.760905,0.000000,0.496646,0.417573 RARM_JOINT3:0.983560,0.000000,0.123190,0.132040 RLEG_JOINT2:0.993613,0.068333,0.000000,-0.089804 RLEG_JOINT4:0.995045,0.056145,0.000000,0.082053 WAIST:0.994007,-0.000000,0.100502,0.043002 WAIST_JOINT0:0.989984,-0.000000,0.133758,0.045168 WAIST_JOINT1:0.998788,0.049052,0.000000,-0.004164 END:
KINECT_DATA_Sensor  AnkleLeft:-0.058725,-0.628121,0.086396,0.771072 AnkleRight:0.098795,0.731147,0.076163,0.670718 ElbowLeft:-0.040463,0.803412,-0.211795,-0.555009 ElbowRight:-0.380376,0.922385,0.006717,-0.066899 FootLeft:0.000000,0.000000,0.000000,0.000000 FootRight:0.000000,0.000000,0.000000,0.000000 HandLeft:0.111313,-0.574511,-0.118959,0.802119 HandRight:0.316638,-0.639273,-0.110804,0.691949 HandTipLeft:0.000000,0.000000,0.000000,0.000000 HandTipRight:0.000000,0.000000,0.000000,0.000000 Head:0.000000,0.000000,0.000000,0.000000 HipLeft:0.070265,-0.658931,0.740888,-0.109353 HipRight:-0.206547,0.689741,0.657512,-0.221975 KneeLeft:-0.006939,-0.631021,0.020677,0.775459 KneeRight:0.004339,0.777397,0.079387,0.623965 Neck:-0.135927,0.036712,0.987994,-0.063588 ShoulderLeft:0.064382,0.748563,-0.659258,-0.029800 ShoulderRight:-0.115761,0.789528,0.577122,-0.173711 SpineBase:-0.101660,0.035129,0.993910,-0.023947 SpineMid:-0.118116,0.035521,0.992089,-0.023362 SpineShoulder:-0.135516,0.035078,0.989267,-0.041896 ThumbLeft:0.000000,0.000000,0.000000,0.000000 ThumbRight:0.000000,0.000000,0.000000,0.000000 WristLeft:0.160203,-0.556907,-0.034181,0.814261 WristRight:0.386795,-0.607936,-0.098302,0.686397 END:
KINECT_DATA POSITION:5.113856,-0.708395,-7.586050 HEAD_JOINT1:0.986318,0.161682,-0.000000,0.032182 LARM_JOINT2:0.818393,0.000000,0.013173,-0.574508 LARM_JOINT3:0.968525,0.000000,-0.202178,-0.145203 LLEG_JOINT2:0.999283,0.022957,0.000000,-0.030116 LLEG_JOINT4:0.996503,0.081564,0.000000,0.018121 RARM_JOINT2:0.755270,0.000000,0.500207,0.423509 RARM_JOINT3:0.983731,0.000000,0.124364,0.129644 RLEG_JOINT2:0.993776,0.069152,0.000000,-0.087334 RLEG_JOINT4:0.995397,0.054530,0.000000,0.078817 WAIST:0.994078,-0.000000,0.099957,0.042626 WAIST_JOINT0:0.991210,-0.000000,0.125729,0.041162 WAIST_JOINT1:0.998786,0.049100,0.000000,-0.004053 END:
KINECT_DATA_Sensor  AnkleLeft:-0.058917,-0.632873,0.086489,0.767151 AnkleRight:0.098146,0.736860,0.075365,0.664624 ElbowLeft:-0.034615,0.798166,-0.214184,-0.562012 ElbowRight:-0.378443,0.923437,-0.003331,-0.063514 FootLeft:0.000000,0.000000,0.000000,0.000000 FootRight:0.000000,0.000000,0.000000,0.000000 HandLeft:0.105162,-0.532407,-0.133626,0.829233 HandRight:0.335269,-0.650969,-0.084770,0.675757 HandTipLeft:0.000000,0.000000,0.000000,0.000000 HandTipRight:0.000000,0.000000,0.000000,0.000000 Head:0.000000,0.000000,0.000000,0.000000 HipLeft:0.070445,-0.659234,0.740615,-0.109260 HipRight:-0.205388,0.689649,0.658070,-0.221686 KneeLeft:-0.006666,-0.631450,0.021341,0.775094 KneeRight:0.006551,0.776991,0.078723,0.624535 Neck:-0.128196,0.035857,0.989049,-0.063740 ShoulderLeft:0.055458,0.753262,-0.655018,-0.021731 ShoulderRight:-0.114451,0.790506,0.577046,-0.170351 SpineBase:-0.101132,0.034031,0.993998,-0.024106 SpineMid:-0.114034,0.034342,0.992601,-0.023661 SpineShoulder:-0.127765,0.034579,0.990299,-0.042279 ThumbLeft:0.000000,0.000000,0.000000,0.000000 ThumbRight:0.000000,0.000000,0.000000,0.000000 WristLeft:0.157414,-0.513448,-0.044860,0.842366 WristRight:0.391780,-0.628980,-0.084348,0.666166 END:
KINECT_DATA POSITION:5.091722,-0.723850,-7.546723 HEAD_JOINT1:0.986367,0.161325,-0.000000,0.032462 LARM_JOINT2:0.818794,0.000000,0.007754,-0.574036 LARM_JOINT3:0.969954,0.000000,-0.197201,-0.142484 LLEG_JOINT2:0.999288,0.022894,0.000000,-0.029973 LLEG_JOINT4:0.996177,0.085080,0.000000,0.019815 RARM_JOINT2:0.756936,0.000000,0.496717,0.424642 RARM_JOINT3:0.984584,0.000000,0.119544,0.127683 RLEG_JOINT2:0.993810,0.069181,0.000000,-0.086927 RLEG_JOINT4:0.995557,0.055342,0.000000,0.076181 WAIST:0.994139,-0.000000,0.099251,0.042869 WAIST_JOINT0:0.990586,-0.000000,0.130121,0.042526 WAIST_JOINT1:0.998767,0.049467,0.000000,-0.004263 END:
KINECT_DATA_Sensor  AnkleLeft:-0.059901,-0.630247,0.090538,0.768768 AnkleRight:0.097260,0.737711,0.076988,0.663624 ElbowLeft:-0.037144,0.803156,-0.213435,-0.554983 ElbowRight:-0.376014,0.924480,-0.000262,-0.062854 FootLeft:0.000000,0.000000,0.000000,0.000000 FootRight:0.000000,0.000000,0.000000,0.000000 HandLeft:0.112306,-0.560632,-0.121206,0.811411 HandRight:0.316678,-0.641023,-0.107295,0.690863 HandTipLeft:0.000000,0.000000,0.000000,0.000000 HandTipRight:0.000000,0.000000,0.000000,0.000000 Head:0.000000,0.000000,0.000000,0.000000 HipLeft:0.070682,-0.659035,0.740680,-0.109861 HipRight:-0.204619,0.689852,0.658089,-0.221708 KneeLeft:-0.006360,-0.631992,0.021610,0.774648 KneeRight:0.007126,0.776542,0.078329,0.625138 Neck:-0.132391,0.036148,0.988486,-0.063723 ShoulderLeft:0.059237,0.751102,-0.657057,-0.024754 ShoulderRight:-0.116450,0.788998,0.577797,-0.173411 SpineBase:-0.100465,0.033771,0.994065,-0.024517 SpineMid:-0.115791,0.034146,0.992396,-0.023993 SpineShoulder:-0.131968,0.034851,0.989728,-0.042516 ThumbLeft:0.000000,0.000000,0.000000,0.000000 ThumbRight:0.000000,0.000000,0.000000,0.000000 WristLeft:0.158059,-0.544066,-0.038546,0.823118 WristRight:0.385432,-0.611034,-0.096832,0.684619 END:
KINECT_DATA POSITION:5.022946,-0.753343,-7.507896 HEAD_JOINT1:0.986423,0.160791,-0.000000,0.033405 LARM_JOINT2:0.818298,0.000000,0.007524,-0.574745 LARM_JOINT3:0.967638,0.000000,-0.206369,-0.145216 LLEG_JOINT2:0.999303,0.023651,0.000000,-0.028873 LLEG_JOINT4:0.996516,0.081341,0.000000,0.018444 RARM_JOINT2:0.763272,0.000000,0.470343,0.442937 RARM_JOINT3:0.980500,0.000000,0.165413,0.106102 RLEG_JOINT2:0.993675,0.070764,0.000000,-0.087189 RLEG_JOINT4:0.995275,0.053382,0.000000,0.081102 WAIST:0.994424,-0.000000,0.096550,0.042414 WAIST_JOINT0:0.991552,-0.000000,0.122176,0.043556 WAIST_JOINT1:0.998761,0.049579,0.000000,-0.004288 END:
KINECT_DATA_Sensor  AnkleLeft:-0.058238,-0.635235,0.088155,0.765058 AnkleRight:0.100755,0.736208,0.073910,0.665119 ElbowLeft:-0.038253,0.801977,-0.211973,-0.557169 ElbowRight:-0.353216,0.934072,-0.027366,0.044715 FootLeft:0.000000,0.000000,0.000000,0.000000 FootRight:0.000000,0.000000,0.000000,0.000000 HandLeft:0.109956,-0.515792,-0.155375,0.835301 HandRight:-0.409604,0.788604,-0.031392,-0.457541 HandTipLeft:0.000000,0.000000,0.000000,0.000000 HandTipRight:0.000000,0.000000,0.000000,0.000000 Head:0.000000,0.000000,0.000000,0.000000 HipLeft:0.072143,-0.659224,0.740159,-0.111288 HipRight:-0.202588,0.690062,0.658935,-0.220403 KneeLeft:-0.006590,-0.634062,0.022717,0.772921 KneeRight:0.007918,0.774825,0.080100,0.627030 Neck:-0.124625,0.035425,0.989505,-0.063981 ShoulderLeft:0.056577,0.752380,-0.655966,-0.020762 ShoulderRight:-0.108232,0.793076,0.576011,-0.165913 SpineBase:-0.097774,0.033031,0.994352,-0.024779 SpineMid:-0.110598,0.033348,0.993007,-0.024351 SpineShoulder:-0.124192,0.034292,0.990739,-0.042860 ThumbLeft:0.000000,0.000000,0.000000,0.000000 ThumbRight:0.000000,0.000000,0.000000,0.000000 WristLeft:0.156815,-0.496483,-0.050982,0.852241 WristRight:-0.410477,0.792552,-0.014387,-0.450737 END:
KINECT_DATA POSITION:4.582241,-0.758991,-7.575643 HEAD_JOINT1:0.986478,0.159987,-0.000000,0.035559 LARM_JOINT2:0.819558,0.000000,0.006815,-0.572956 LARM_JOINT3:0.967813,0.000000,-0.206700,-0.143575 LLEG_JOINT2:0.999529,0.023066,0.000000,-0.020220 LLEG_JOINT4:0.996605,0.081169,0.000000,0.013807 RARM_JOINT2:0.770970,0.000000,0.442540,0.457999 RARM_JOINT3:0.969918,0.000000,0.225448,0.091832 RLEG_JOINT2:0.994656,0.067109,0.000000,-0.078458 RLEG_JOINT4:0.995739,0.052632,0.000000,0.075720 WAIST:0.995354,-0.000000,0.088174,0.038677 WAIST_JOINT0:0.992190,-0.000000,0.116525,0.044517 WAIST_JOINT1:0.998725,0.050341,0.000000,-0.003643 END:
KINECT_DATA_Sensor  AnkleLeft:-0.056945,-0.638896,0.089020,0.762000 AnkleRight:0.098024,0.722857,0.071536,0.680259 ElbowLeft:-0.040606,0.802713,-0.210902,-0.556348 ElbowRight:-0.330555,0.931212,-0.039475,0.148392 FootLeft:0.000000,0.000000,0.000000,0.000000 FootRight:0.000000,0.000000,0.000000,0.000000 HandLeft:0.114662,-0.595237,-0.140031,0.782903 HandRight:-0.468219,0.814412,-0.147343,-0.309507 HandTipLeft:0.000000,0.000000,0.000000,0.000000 HandTipRight:0.000000,0.000000,0.000000,0.000000 Head:0.000000,0.000000,0.000000,0.000000 HipLeft:0.075320,-0.661381,0.737379,-0.114777 HipRight:-0.194655,0.689061,0.663677,-0.216420 KneeLeft:-0.003292,-0.640689,0.026642,0.767331 KneeRight:0.010488,0.769037,0.074494,0.634762 Neck:-0.119189,0.033664,0.990200,-0.064537 ShoulderLeft:0.055877,0.752767,-0.655680,-0.017444 ShoulderRight:-0.101450,0.795699,0.574993,-0.161100 SpineBase:-0.089402,0.028427,0.995238,-0.026465 SpineMid:-0.103832,0.028808,0.993836,-0.026050 SpineShoulder:-0.118886,0.031465,0.991441,-0.043825 ThumbLeft:0.000000,0.000000,0.000000,0.000000 ThumbRight:0.000000,0.000000,0.000000,0.000000 WristLeft:0.162847,-0.576471,-0.039603,0.799746 WristRight:-0.421434,0.855834,-0.081667,-0.288568 END:
KINECT_DATA POSITION:3.783957,-0.658525,-7.778156 HEAD_JOINT1:0.986367,0.160146,-0.000000,0.037870 LARM_JOINT2:0.821765,0.000000,-0.001284,-0.569825 LARM_JOINT3:0.969744,0.000000,-0.200307,-0.139546 LLEG_JOINT2:0.999830,0.018394,0.000000,-0.001541 LLEG_JOINT4:0.996129,0.087889,0.000000,-0.001676 RARM_JOINT2:0.796752,0.000000,0.366776,0.480272 RARM_JOINT3:0.928899,0.000000,0.351582,0.116347 RLEG_JOINT2:0.996601,0.057275,0.000000,-0.059204 RLEG_JOINT4:0.995907,0.063318,0.000000,0.064504 WAIST:0.996255,-0.000000,0.080942,0.030394 WAIST_JOINT0:0.992194,-0.000000,0.116021,0.045716 WAIST_JOINT1:0.998641,0.052101,0.000000,-0.001154 END:
KINECT_DATA_Sensor  AnkleLeft:0.073923,0.747030,-0.077551,-0.656100 AnkleRight:0.099159,0.714175,0.072902,0.689062 ElbowLeft:-0.044718,0.808918,-0.207232,-0.548368 ElbowRight:-0.287509,0.908154,-0.020818,0.303580 FootLeft:0.000000,0.000000,0.000000,0.000000 FootRight:0.000000,0.000000,0.000000,0.000000 HandLeft:0.094795,-0.547418,-0.138739,0.819816 HandRight:-0.467328,0.804882,-0.244683,-0.271845 HandTipLeft:0.000000,0.000000,0.000000,0.000000 HandTipRight:0.000000,0.000000,0.000000,0.000000 Head:0.000000,0.000000,0.000000,0.000000 HipLeft:0.078443,-0.666922,0.731495,-0.118229 HipRight:-0.187703,0.684492,0.670904,-0.214772 KneeLeft:0.006487,-0.646603,0.032217,0.762119 KneeRight:0.013573,0.763522,0.060485,0.642799 Neck:-0.118757,0.030405,0.990298,-0.065432 ShoulderLeft:0.062483,0.750873,-0.657225,-0.018466 ShoulderRight:-0.094028,0.795568,0.576844,-0.159629 SpineBase:-0.082024,0.020277,0.996008,-0.028784 SpineMid:-0.100175,0.020799,0.994347,-0.028410 SpineShoulder:-0.118762,0.025721,0.991515,-0.046165 ThumbLeft:0.000000,0.000000,0.000000,0.000000 ThumbRight:0.000000,0.000000,0.000000,0.000000 WristLeft:0.158851,-0.525770,-0.051651,0.834065 WristRight:-0.470606,0.850414,-0.115812,-0.204729 END:
KINECT_DATA POSITION:3.462484,-0.537817,-7.914031 HEAD_JOINT1:0.986174,0.160843,-0.000000,0.039882 LARM_JOINT2:0.823230,0.000000,0.003812,-0.567695 LARM_JOINT3:0.967652,0.000000,-0.208011,-0.142761 LLEG_JOINT2:0.999838,0.015303,0.000000,0.009427 LLEG_JOINT4:0.995737,0.092075,0.000000,-0.005451 RARM_JOINT2:0.804622,0.000000,0.408623,0.430826 RARM_JOINT3:0.882578,0.000000,0.418817,0.213655 RLEG_JOINT2:0.997488,0.051222,0.000000,-0.048919 RLEG_JOINT4:0.995446,0.072170,0.000000,0.062285 WAIST:0.996702,-0.000000,0.077833,0.022968 WAIST_JOINT0:0.993088,-0.000000,0.109645,0.041880 WAIST_JOINT1:0.998585,0.053097,-0.000000,0.002979 END:
KINECT_DATA_Sensor  AnkleLeft:0.074807,0.744722,-0.078998,-0.658447 AnkleRight:0.102550,0.716051,0.074235,0.686472 ElbowLeft:-0.041706,0.805901,-0.208601,-0.552513 ElbowRight:-0.335724,0.932292,0.040553,0.128365 FootLeft:0.000000,0.000000,0.000000,0.000000 FootRight:0.000000,0.000000,0.000000,0.000000 HandLeft:0.091301,-0.552063,-0.148214,0.815428 HandRight:-0.513643,0.725180,-0.338368,-0.309502 HandTipLeft:0.000000,0.000000,0.000000,0.000000 HandTipRight:0.000000,0.000000,0.000000,0.000000 Head:0.000000,0.000000,0.000000,0.000000 HipLeft:0.079095,-0.671594,0.726803,-0.120259 HipRight:-0.185315,0.680204,0.676570,-0.212683 KneeLeft:0.010733,-0.649276,0.033346,0.759745 KneeRight:0.012442,0.761078,0.054473,0.646250 Neck:-0.112338,0.027367,0.991057,-0.066607 ShoulderLeft:0.057848,0.755241,-0.652777,-0.012143 ShoulderRight:-0.089980,0.795802,0.577978,-0.156665 SpineBase:-0.078577,0.017715,0.996302,-0.029893 SpineMid:-0.095299,0.018215,0.994842,-0.029591 SpineShoulder:-0.112434,0.022317,0.992258,-0.047802 ThumbLeft:0.000000,0.000000,0.000000,0.000000 ThumbRight:0.000000,0.000000,0.000000,0.000000 WristLeft:0.159149,-0.528660,-0.054451,0.832001 WristRight:-0.448931,0.814963,-0.234083,-0.281960 END:
KINECT_DATA POSITION:3.351019,-0.367133,-7.919264 HEAD_JOINT1:0.986039,0.161166,-0.000000,0.041866 LARM_JOINT2:0.825472,0.000000,-0.003389,-0.564432 LARM_JOINT3:0.968870,0.000000,-0.199868,-0.146092 LLEG_JOINT2:0.999787,0.013481,0.000000,0.015632 LLEG_JOINT4:0.996085,0.088225,0.000000,-0.005499 RARM_JOINT2:0.810339,0.000000,0.374772,0.450440 RARM_JOINT3:0.844758,0.000000,0.482496,0.231478 RLEG_JOINT2:0.997914,0.048198,0.000000,-0.042957 RLEG_JOINT4:0.995283,0.075130,0.000000,0.061384 WAIST:0.996712,-0.000000,0.078971,0.018121 WAIST_JOINT0:0.992976,-0.000000,0.109954,0.043678 WAIST_JOINT1:0.998581,0.052858,-0.000000,0.006419 END:
KINECT_DATA_Sensor  AnkleLeft:-0.057939,-0.642443,0.086387,0.759241 AnkleRight:0.108031,0.765057,0.066685,0.631324 ElbowLeft:-0.045321,0.812359,-0.208886,-0.542573 ElbowRight:-0.310770,0.934172,0.044128,0.169700 FootLeft:0.000000,0.000000,0.000000,0.000000 FootRight:0.000000,0.000000,0.000000,0.000000 HandLeft:0.079141,-0.573101,-0.141684,0.803254 HandRight:-0.522862,0.708305,-0.386655,-0.274621 HandTipLeft:0.000000,0.000000,0.000000,0.000000 HandTipRight:0.000000,0.000000,0.000000,0.000000 Head:0.000000,0.000000,0.000000,0.000000 HipLeft:0.078655,-0.675157,0.723583,-0.120013 HipRight:-0.187035,0.677135,0.679103,-0.212897 KneeLeft:0.012692,-0.648628,0.033451,0.760264 KneeRight:0.011501,0.761586,0.051726,0.645894 Neck:-0.112140,0.025211,0.991086,-0.067369 ShoulderLeft:0.062722,0.753934,-0.653759,-0.015753 ShoulderRight:-0.084269,0.795993,0.579558,-0.152991 SpineBase:-0.079425,0.017328,0.996254,-0.029477 SpineMid:-0.095597,0.017805,0.994833,-0.029191 SpineShoulder:-0.112195,0.021015,0.992318,-0.047701 ThumbLeft:0.000000,0.000000,0.000000,0.000000 ThumbRight:0.000000,0.000000,0.000000,0.000000 WristLeft:0.159841,-0.546828,-0.050623,0.820285 WristRight:-0.464770,0.793594,-0.297757,-0.256004 END:
KINECT_DATA POSITION:3.298199,-0.277128,-7.890821 HEAD_JOINT1:0.985719,0.162793,-0.000000,0.043093 LARM_JOINT2:0.824784,0.000000,0.001757,-0.565446 LARM_JOINT3:0.966896,0.000000,-0.207762,-0.148145 LLEG_JOINT2:0.999758,0.012416,0.000000,0.018183 LLEG_JOINT4:0.995745,0.091987,0.000000,-0.005542 RARM_JOINT2:0.808644,0.000000,0.353576,0.470190 RARM_JOINT3:0.822733,0.000000,0.509889,0.251244 RLEG_JOINT2:0.998107,0.046060,0.000000,-0.040756 RLEG_JOINT4:0.995018,0.077840,0.000000,0.062297 WAIST:0.996541,-0.000000,0.081491,0.016282 WAIST_JOINT0:0.993407,-0.000000,0.106595,0.042185 WAIST_JOINT1:0.998621,0.051938,-0.000000,0.007599 END:
KINECT_DATA_Sensor  AnkleLeft:0.073816,0.758321,-0.077309,-0.643058 AnkleRight:0.103889,0.716329,0.074733,0.685926 ElbowLeft:-0.042373,0.807033,-0.208524,-0.550835 ElbowRight:-0.290262,0.937699,0.041222,0.186463 FootLeft:0.000000,0.000000,0.000000,0.000000 FootRight:0.000000,0.000000,0.000000,0.000000 HandLeft:0.087490,-0.590453,-0.148706,0.788414 HandRight:0.354647,0.326155,-0.546533,0.684945 HandTipLeft:0.000000,0.000000,0.000000,0.000000 HandTipRight:0.000000,0.000000,0.000000,0.000000 Head:0.000000,0.000000,0.000000,0.000000 HipLeft:0.077525,-0.676902,0.722387,-0.118112 HipRight:-0.189252,0.675973,0.679515,-0.213316 KneeLeft:0.013800,-0.646786,0.033410,0.761815 KneeRight:0.010327,0.763134,0.049970,0.644222 Neck:-0.108416,0.023259,0.991569,-0.067054 ShoulderLeft:0.058362,0.757141,-0.650505,-0.013214 ShoulderRight:-0.083419,0.797058,0.578958,-0.150159 SpineBase:-0.081821,0.017413,0.996087,-0.028518 SpineMid:-0.094902,0.017786,0.994926,-0.028287 SpineShoulder:-0.108393,0.020234,0.992793,-0.046935 ThumbLeft:0.000000,0.000000,0.000000,0.000000 ThumbRight:0.000000,0.000000,0.000000,0.000000 WristLeft:0.161883,-0.565049,-0.050955,0.807414 WristRight:0.296904,0.321236,-0.503746,0.744913 END:
KINECT_DATA POSITION:3.300330,-0.218730,-7.857561 HEAD_JOINT1:0.985641,0.163440,-0.000000,0.042428 LARM_JOINT2:0.823467,0.000000,-0.000138,-0.567363 LARM_JOINT3:0.969180,0.000000,-0.200933,-0.142532 LLEG_JOINT2:0.999772,0.012143,0.000000,0.017591 LLEG_JOINT4:0.995759,0.091554,0.000000,-0.009101 RARM_JOINT2:0.807411,0.000000,0.328776,0.489892 RARM_JOINT3:0.800223,0.000000,0.535488,0.269991 RLEG_JOINT2:0.998160,0.044175,0.000000,-0.041527 RLEG_JOINT4:0.994752,0.080727,0.000000,0.062870 WAIST:0.996319,-0.000000,0.084059,0.016785 WAIST_JOINT0:0.992949,-0.000000,0.110161,0.043781 WAIST_JOINT1:0.998675,0.050946,-0.000000,0.007319 END:
KINECT_DATA_Sensor  AnkleLeft:-0.062216,-0.641676,0.084835,0.759727 AnkleRight:0.101768,0.693417,0.079187,0.708905 ElbowLeft:-0.044435,0.802935,-0.205423,-0.557783 ElbowRight:-0.267917,0.940171,0.039093,0.206809 FootLeft:0.000000,0.000000,0.000000,0.000000 FootRight:0.000000,0.000000,0.000000,0.000000 HandLeft:0.072537,-0.540793,-0.133535,0.827315 HandRight:0.393831,0.300052,-0.534764,0.684757 HandTipLeft:0.000000,0.000000,0.000000,0.000000 HandTipRight:0.000000,0.000000,0.000000,0.000000 Head:0.000000,0.000000,0.000000,0.000000 HipLeft:0.076478,-0.676848,0.722863,-0.116174 HipRight:-0.191359,0.676005,0.678612,-0.214208 KneeLeft:0.013926,-0.644810,0.033142,0.763497 KneeRight:0.008714,0.764812,0.048671,0.642353 Neck:-0.111646,0.022888,0.991283,-0.066100 ShoulderLeft:0.061607,0.756830,-0.650454,-0.017957 ShoulderRight:-0.084019,0.797783,0.577754,-0.150611 SpineBase:-0.084393,0.017884,0.995887,-0.027681 SpineMid:-0.097766,0.018254,0.994664,-0.027438 SpineShoulder:-0.111567,0.020587,0.992483,-0.045896 ThumbLeft:0.000000,0.000000,0.000000,0.000000 ThumbRight:0.000000,0.000000,0.000000,0.000000 WristLeft:0.160887,-0.514127,-0.059430,0.840391 WristRight:0.340574,0.290039,-0.507771,0.736243 END:
KINECT_DATA POSITION:3.308126,-0.168297,-7.890594 HEAD_JOINT1:0.985665,0.163490,-0.000000,0.041669 LARM_JOINT2:0.822271,0.000000,-0.002707,-0.569090 LARM_JOINT3:0.969769,0.000000,-0.200066,-0.139720 LLEG_JOINT2:0.999787,0.011403,0.000000,0.017175 LLEG_JOINT4:0.995436,0.095388,0.000000,-0.002880 RARM_JOINT2:0.797096,0.000000,0.332199,0.504263 RARM_JOINT3:0.815216,0.000000,0.522895,0.249006 RLEG_JOINT2:0.998179,0.043393,0.000000,-0.041891 RLEG_JOINT4:0.994557,0.083086,0.000000,0.062876 WAIST:0.996016,-0.000000,0.087521,0.017109 WAIST_JOINT0:0.992601,-0.000000,0.112867,0.044778 WAIST_JOINT1:0.998702,0.050399,-0.000000,0.007311 END:
KINECT_DATA_Sensor  AnkleLeft:-0.061146,-0.640605,0.091083,0.759993 AnkleRight:0.103167,0.703229,0.079686,0.698911 ElbowLeft:-0.045612,0.800860,-0.202783,-0.561625 ElbowRight:-0.259990,0.942468,0.020574,0.209134 FootLeft:0.000000,0.000000,0.000000,0.000000 FootRight:0.000000,0.000000,0.000000,0.000000 HandLeft:0.085230,-0.576705,-0.132878,0.801555 HandRight:0.395419,0.258348,-0.524195,0.708604 HandTipLeft:0.000000,0.000000,0.000000,0.000000 HandTipRight:0.000000,0.000000,0.000000,0.000000 Head:0.000000,0.000000,0.000000,0.000000 HipLeft:0.074083,-0.677033,0.723353,-0.113568 HipRight:-0.193258,0.675868,0.677840,-0.215374 KneeLeft:0.014381,-0.642160,0.032585,0.765743 KneeRight:0.007949,0.767059,0.048067,0.639724 Neck:-0.114222,0.022673,0.991015,-0.065796 ShoulderLeft:0.064341,0.756288,-0.650713,-0.021461 ShoulderRight:-0.084415,0.798031,0.577201,-0.151196 SpineBase:-0.087851,0.018413,0.995590,-0.027282 SpineMid:-0.100762,0.018766,0.994366,-0.027041 SpineShoulder:-0.114108,0.020823,0.992216,-0.045306 ThumbLeft:0.000000,0.000000,0.000000,0.000000 ThumbRight:0.000000,0.000000,0.000000,0.000000 WristLeft:0.164023,-0.551539,-0.050130,0.816326 WristRight:0.357763,0.258406,-0.493690,0.749334 END:
KINECT_DATA POSITION:3.284241,-0.130294,-7.972300 HEAD_JOINT1:0.985570,0.164286,-0.000000,0.040778 LARM_JOINT2:0.821572,0.000000,-0.001137,-0.570104 LARM_JOINT3:0.968916,0.000000,-0.205293,-0.138044 LLEG_JOINT2:0.999799,0.010255,0.000000,0.017216 LLEG_JOINT4:0.995336,0.096421,0.000000,-0.003077 RARM_JOINT2:0.801503,0.000000,0.326205,0.501182 RARM_JOINT3:0.813948,0.000000,0.528964,0.240178 RLEG_JOINT2:0.998113,0.044805,0.000000,-0.041991 RLEG_JOINT4:0.994694,0.081106,0.000000,0.063294 WAIST:0.995830,-0.000000,0.089590,0.017230 WAIST_JOINT0:0.992709,-0.000000,0.112119,0.044257 WAIST_JOINT1:0.998732,0.049863,-0.000000,0.006926 END:
KINECT_DATA_Sensor  AnkleLeft:-0.061473,-0.640967,0.090666,0.759712 AnkleRight:0.104857,0.721192,0.076663,0.680449 ElbowLeft:-0.044454,0.798219,-0.201756,-0.565832 ElbowRight:-0.260449,0.941813,0.027128,0.210755 FootLeft:0.000000,0.000000,0.000000,0.000000 FootRight:0.000000,0.000000,0.000000,0.000000 HandLeft:0.096218,-0.556089,-0.145578,0.812597 HandRight:0.370183,0.250962,-0.541383,0.711960 HandTipLeft:0.000000,0.000000,0.000000,0.000000 HandTipRight:0.000000,0.000000,0.000000,0.000000 Head:0.000000,0.000000,0.000000,0.000000 HipLeft:0.073143,-0.677462,0.723278,-0.112087 HipRight:-0.194711,0.675971,0.677070,-0.216163 KneeLeft:0.015333,-0.640576,0.031970,0.767076 KneeRight:0.008744,0.768411,0.049118,0.638009 Neck:-0.113518,0.021800,0.991135,-0.065494 ShoulderLeft:0.061138,0.757258,-0.649954,-0.019544 ShoulderRight:-0.086800,0.798353,0.576228,-0.151853 SpineBase:-0.089913,0.018609,0.995417,-0.026718 SpineMid:-0.101423,0.018917,0.994310,-0.026501 SpineShoulder:-0.113371,0.020478,0.992333,-0.044750 ThumbLeft:0.000000,0.000000,0.000000,0.000000 ThumbRight:0.000000,0.000000,0.000000,0.000000 WristLeft:0.162857,-0.532872,-0.053710,0.828637 WristRight:0.352303,0.268397,-0.499649,0.744444 END:
KINECT_DATA POSITION:3.259928,-0.092570,-8.036840 HEAD_JOINT1:0.985562,0.164411,-0.000000,0.040444 LARM_JOINT2:0.822139,0.000000,-0.003166,-0.569278 LARM_JOINT3:0.968466,0.000000,-0.206936,-0.138746 LLEG_JOINT2:0.999806,0.010090,0.000000,0.016904 LLEG_JOINT4:0.995451,0.095255,0.000000,-0.002021 RARM_JOINT2:0.807011,0.000000,0.302254,0.507323 RARM_JOINT3:0.798976,0.000000,0.548544,0.246446 RLEG_JOINT2:0.998090,0.045181,0.000000,-0.042128 RLEG_JOINT4:0.994728,0.079476,0.000000,0.064810 WAIST:0.995919,-0.000000,0.088563,0.017352 WAIST_JOINT0:0.992586,-0.000000,0.112877,0.045081 WAIST_JOINT1:0.998774,0.049098,-0.000000,0.006309 END:
KINECT_DATA_Sensor  AnkleLeft:-0.059675,-0.640783,0.090651,0.760012 AnkleRight:0.110322,0.766092,0.067166,0.629620 ElbowLeft:-0.046257,0.801112,-0.201296,-0.561747 ElbowRight:-0.247572,0.938495,0.036183,0.237963 FootLeft:0.000000,0.000000,0.000000,0.000000 FootRight:0.000000,0.000000,0.000000,0.000000 HandLeft:0.095104,-0.519232,-0.160312,0.834059 HandRight:0.368330,0.260596,-0.553039,0.700407 HandTipLeft:0.000000,0.000000,0.000000,0.000000 HandTipRight:0.000000,0.000000,0.000000,0.000000 Head:0.000000,0.000000,0.000000,0.000000 HipLeft:0.074390,-0.677520,0.723039,-0.112463 HipRight:-0.194685,0.676442,0.676829,-0.215469 KneeLeft:0.015366,-0.641361,0.031709,0.766430 KneeRight:0.009030,0.767762,0.049412,0.638763 Neck:-0.114225,0.021256,0.991119,-0.064676 ShoulderLeft:0.060004,0.757236,-0.650079,-0.019760 ShoulderRight:-0.088887,0.799001,0.574823,-0.152564 SpineBase:-0.088888,0.018624,0.995527,-0.026057 SpineMid:-0.101238,0.018946,0.994347,-0.025824 SpineShoulder:-0.114060,0.020248,0.992297,-0.043896 ThumbLeft:0.000000,0.000000,0.000000,0.000000 ThumbRight:0.000000,0.000000,0.000000,0.000000 WristLeft:0.160131,-0.495414,-0.062040,0.851513 WristRight:0.341277,0.267612,-0.519006,0.736577 END:
KINECT_DATA POSITION:3.170128,-0.042699,-8.243525 HEAD_JOINT1:0.985238,0.166029,-0.000000,0.041721 LARM_JOINT2:0.820514,0.000000,0.010063,-0.571538 LARM_JOINT3:0.965885,0.000000,-0.216938,-0.141436 LLEG_JOINT2:0.999785,0.009209,0.000000,0.018584 LLEG_JOINT4:0.995505,0.094448,0.000000,-0.006985 RARM_JOINT2:0.808070,0.000000,0.292217,0.511500 RARM_JOINT3:0.797151,0.000000,0.556841,0.233407 RLEG_JOINT2:0.998317,0.042224,0.000000,-0.039743 RLEG_JOINT4:0.994733,0.080392,0.000000,0.063591 WAIST:0.996334,-0.000000,0.084133,0.015491 WAIST_JOINT0:0.994537,-0.000000,0.097171,0.038142 WAIST_JOINT1:0.998776,0.049001,-0.000000,0.006696 END:
KINECT_DATA_Sensor  AnkleLeft:-0.062007,-0.649436,0.085638,0.753030 AnkleRight:0.102356,0.701326,0.075606,0.701391 ElbowLeft:-0.039168,0.792738,-0.201378,-0.574002 ElbowRight:-0.241002,0.935665,0.040283,0.254609 FootLeft:0.000000,0.000000,0.000000,0.000000 FootRight:0.000000,0.000000,0.000000,0.000000 HandLeft:0.095916,-0.555787,-0.156263,0.810853 HandRight:0.315638,0.281787,-0.592301,0.685674 HandTipLeft:0.000000,0.000000,0.000000,0.000000 HandTipRight:0.000000,0.000000,0.000000,0.000000 Head:0.000000,0.000000,0.000000,0.000000 HipLeft:0.076630,-0.678639,0.721434,-0.114495 HipRight:-0.191650,0.676278,0.678771,-0.212576 KneeLeft:0.015893,-0.644825,0.031095,0.763532 KneeRight:0.007893,0.764794,0.046945,0.642514 Neck:-0.099211,0.019104,0.992768,-0.064842 ShoulderLeft:0.045334,0.762097,-0.645852,-0.005291 ShoulderRight:-0.084259,0.798763,0.578063,-0.143950 SpineBase:-0.084388,0.017725,0.995935,-0.026039 SpineMid:-0.091515,0.017911,0.995305,-0.025912 SpineShoulder:-0.099022,0.018607,0.993935,-0.044054 ThumbLeft:0.000000,0.000000,0.000000,0.000000 ThumbRight:0.000000,0.000000,0.000000,0.000000 WristLeft:0.162571,-0.532120,-0.060835,0.828685 WristRight:0.300249,0.303149,-0.544629,0.722032 END:
KINECT_DATA POSITION:3.041865,-0.059337,-8.370125 HEAD_JOINT1:0.985245,0.165645,-0.000000,0.043064 LARM_JOINT2:0.823106,0.000000,-0.000833,-0.567887 LARM_JOINT3:0.967347,0.000000,-0.210230,-0.141574 LLEG_JOINT2:0.999754,0.009457,0.000000,0.020039 LLEG_JOINT4:0.995783,0.091572,0.000000,-0.005532 RARM_JOINT2:0.811819,0.000000,0.273900,0.515684 RARM_JOINT3:0.791847,0.000000,0.565491,0.230648 RLEG_JOINT2:0.998395,0.042120,0.000000,-0.037853 RLEG_JOINT4:0.995213,0.076877,0.000000,0.060345 WAIST:0.996857,-0.000000,0.077757,0.015194 WAIST_JOINT0:0.994258,-0.000000,0.099569,0.039203 WAIST_JOINT1:0.998765,0.049395,-0.000000,0.005300 END:
KINECT_DATA_Sensor  AnkleLeft:0.070571,0.762705,-0.076417,-0.638327 AnkleRight:0.100655,0.708981,0.071454,0.694340 ElbowLeft:-0.046025,0.806039,-0.200506,-0.554960 ElbowRight:-0.230559,0.931349,0.050916,0.277200 FootLeft:0.000000,0.000000,0.000000,0.000000 FootRight:0.000000,0.000000,0.000000,0.000000 HandLeft:0.089040,-0.534324,-0.164190,0.824386 HandRight:0.337925,0.215899,-0.573590,0.714275 HandTipLeft:0.000000,0.000000,0.000000,0.000000 HandTipRight:0.000000,0.000000,0.000000,0.000000 Head:0.000000,0.000000,0.000000,0.000000 HipLeft:0.079838,-0.678473,0.720783,-0.117358 HipRight:-0.186894,0.677179,0.680244,-0.209209 KneeLeft:0.016569,-0.649651,0.032119,0.759373 KneeRight:0.009415,0.760608,0.045863,0.647521 Neck:-0.101254,0.018136,0.992574,-0.064934 ShoulderLeft:0.049205,0.761333,-0.646436,-0.008398 ShoulderRight:-0.082843,0.798378,0.578752,-0.144134 SpineBase:-0.078043,0.016325,0.996468,-0.026350 SpineMid:-0.089351,0.016623,0.995518,-0.026163 SpineShoulder:-0.101090,0.017621,0.993738,-0.044207 ThumbLeft:0.000000,0.000000,0.000000,0.000000 ThumbRight:0.000000,0.000000,0.000000,0.000000 WristLeft:0.158715,-0.509659,-0.066137,0.843020 WristRight:0.330684,0.238361,-0.530497,0.743239 END:
KINECT_DATA POSITION:2.931367,-0.097147,-8.447897 HEAD_JOINT1:0.984920,0.166356,-0.000000,0.047531 LARM_JOINT2:0.824298,0.000000,-0.003794,-0.566143 LARM_JOINT3:0.967086,0.000000,-0.209758,-0.144036 LLEG_JOINT2:0.999728,0.009822,0.000000,0.021158 LLEG_JOINT4:0.995866,0.090164,0.000000,-0.011051 RARM_JOINT2:0.813397,0.000000,0.267373,0.516620 RARM_JOINT3:0.795727,0.000000,0.566175,0.215092 RLEG_JOINT2:0.998455,0.041330,0.000000,-0.037131 RLEG_JOINT4:0.995336,0.075887,0.000000,0.059568 WAIST:0.997257,-0.000000,0.072499,0.014898 WAIST_JOINT0:0.994640,-0.000000,0.095958,0.038526 WAIST_JOINT1:0.998821,0.048415,-0.000000,0.003474 END:
KINECT_DATA_Sensor  AnkleLeft:-0.058824,-0.650596,0.083171,0.752561 AnkleRight:0.100526,0.713316,0.068679,0.690187 ElbowLeft:-0.048425,0.813687,-0.199173,-0.543966 ElbowRight:-0.228427,0.929164,0.057360,0.284931 FootLeft:0.000000,0.000000,0.000000,0.000000 FootRight:0.000000,0.000000,0.000000,0.000000 HandLeft:0.091645,-0.551772,-0.171968,0.810910 HandRight:0.292790,0.223654,-0.613710,0.698293 HandTipLeft:0.000000,0.000000,0.000000,0.000000 HandTipRight:0.000000,0.000000,0.000000,0.000000 Head:0.000000,0.000000,0.000000,0.000000 HipLeft:0.083560,-0.678466,0.719990,-0.119650 HipRight:-0.183599,0.678028,0.681204,-0.206231 KneeLeft:0.016928,-0.653602,0.032962,0.755930 KneeRight:0.009529,0.757133,0.045010,0.651639 Neck:-0.097505,0.015986,0.993071,-0.063617 ShoulderLeft:0.047683,0.761464,-0.646409,-0.007390 ShoulderRight:-0.079335,0.798104,0.580766,-0.139451 SpineBase:-0.072809,0.014945,0.996900,-0.025807 SpineMid:-0.084856,0.015256,0.995947,-0.025625 SpineShoulder:-0.097331,0.016020,0.994186,-0.043176 ThumbLeft:0.000000,0.000000,0.000000,0.000000 ThumbRight:0.000000,0.000000,0.000000,0.000000 WristLeft:0.157619,-0.527761,-0.066073,0.832021 WristRight:0.288145,0.265454,-0.538089,0.746303 END:
KINECT_DATA POSITION:2.794764,-0.126030,-8.436728 HEAD_JOINT1:0.984933,0.164463,-0.000000,0.053464 LARM_JOINT2:0.825054,0.000000,-0.007160,-0.565009 LARM_JOINT3:0.967627,0.000000,-0.207295,-0.143971 LLEG_JOINT2:0.999667,0.011223,0.000000,0.023247 LLEG_JOINT4:0.995777,0.091222,0.000000,-0.010344 RARM_JOINT2:0.809448,0.000000,0.282504,0.514767 RARM_JOINT3:0.802011,0.000000,0.561113,0.204770 RLEG_JOINT2:0.998595,0.039713,0.000000,-0.035072 RLEG_JOINT4:0.995277,0.079056,0.000000,0.056346 WAIST:0.997618,-0.000000,0.067524,0.014125 WAIST_JOINT0:0.995609,-0.000000,0.086482,0.035815 WAIST_JOINT1:0.998897,0.046883,-0.000000,0.002589 END:
KINECT_DATA_Sensor  AnkleLeft:0.071011,0.756049,-0.077164,-0.646060 AnkleRight:0.102526,0.730961,0.067555,0.671283 ElbowLeft:-0.051578,0.820640,-0.197201,-0.533855 ElbowRight:-0.238845,0.922788,0.045986,0.298831 FootLeft:0.000000,0.000000,0.000000,0.000000 FootRight:0.000000,0.000000,0.000000,0.000000 HandLeft:0.096510,-0.577039,-0.164933,0.794046 HandRight:0.312113,0.214161,-0.589890,0.713267 HandTipLeft:0.000000,0.000000,0.000000,0.000000 HandTipRight:0.000000,0.000000,0.000000,0.000000 Head:0.000000,0.000000,0.000000,0.000000 HipLeft:0.088221,-0.678680,0.718807,-0.122172 HipRight:-0.181495,0.678405,0.682200,-0.203540 KneeLeft:0.016811,-0.657330,0.034880,0.752608 KneeRight:0.009739,0.753796,0.042988,0.655629 Neck:-0.087934,0.014085,0.994102,-0.061885 ShoulderLeft:0.045561,0.762371,-0.645512,-0.005318 ShoulderRight:-0.068599,0.797622,0.585555,-0.127349 SpineBase:-0.067827,0.013507,0.997300,-0.024706 SpineMid:-0.077615,0.013749,0.996586,-0.024573 SpineShoulder:-0.087744,0.014569,0.995160,-0.041766 ThumbLeft:0.000000,0.000000,0.000000,0.000000 ThumbRight:0.000000,0.000000,0.000000,0.000000 WristLeft:0.158260,-0.555250,-0.066673,0.813760 WristRight:0.300138,0.232632,-0.545060,0.747468 END:
KINECT_DATA POSITION:2.685876,-0.144874,-8.417261 HEAD_JOINT1:0.984727,0.164810,-0.000000,0.056131 LARM_JOINT2:0.825147,0.000000,-0.008738,-0.564851 LARM_JOINT3:0.968670,0.000000,-0.201992,-0.144490 LLEG_JOINT2:0.999629,0.011718,0.000000,0.024577 LLEG_JOINT4:0.995857,0.090154,0.000000,-0.011862 RARM_JOINT2:0.811704,0.000000,0.274244,0.515681 RARM_JOINT3:0.795520,0.000000,0.564702,0.219681 RLEG_JOINT2:0.998625,0.040036,0.000000,-0.033844 RLEG_JOINT4:0.995252,0.078929,0.000000,0.056953 WAIST:0.997817,-0.000000,0.064597,0.013705 WAIST_JOINT0:0.995246,-0.000000,0.090050,0.037107 WAIST_JOINT1:0.998910,0.046629,-0.000000,0.002034 END:
KINECT_DATA_Sensor  AnkleLeft:0.070265,0.754436,-0.076972,-0.648046 AnkleRight:0.102766,0.716740,0.068399,0.686327 ElbowLeft:-0.052998,0.822870,-0.195727,-0.530818 ElbowRight:-0.234697,0.923717,0.054483,0.297818 FootLeft:0.000000,0.000000,0.000000,0.000000 FootRight:0.000000,0.000000,0.000000,0.000000 HandLeft:0.081132,-0.570216,-0.157545,0.802154 HandRight:0.312900,0.229615,-0.599365,0.700095 HandTipLeft:0.000000,0.000000,0.000000,0.000000 HandTipRight:0.000000,0.000000,0.000000,0.000000 Head:0.000000,0.000000,0.000000,0.000000 HipLeft:0.091056,-0.678728,0.718125,-0.123832 HipRight:-0.180604,0.678509,0.682704,-0.202296 KneeLeft:0.017091,-0.659518,0.035889,0.750637 KneeRight:0.010730,0.751829,0.042718,0.657885 Neck:-0.091430,0.013783,0.993807,-0.061627 ShoulderLeft:0.044047,0.762827,-0.645078,-0.005428 ShoulderRight:-0.074835,0.798621,0.582308,-0.132372 SpineBase:-0.064895,0.012718,0.997520,-0.024115 SpineMid:-0.077883,0.013031,0.996590,-0.023947 SpineShoulder:-0.091275,0.013975,0.994868,-0.041372 ThumbLeft:0.000000,0.000000,0.000000,0.000000 ThumbRight:0.000000,0.000000,0.000000,0.000000 WristLeft:0.156845,-0.545624,-0.069429,0.820289 WristRight:0.290354,0.246104,-0.545416,0.746759 END:
KINECT_DATA POSITION:2.614662,-0.148220,-8.342779 HEAD_JOINT1:0.984319,0.166945,-0.000000,0.056970 LARM_JOINT2:0.825306,0.000000,-0.009349,-0.564609 LARM_JOINT3:0.969589,0.000000,-0.201444,-0.138985 LLEG_JOINT2:0.999617,0.012290,0.000000,0.024808 LLEG_JOINT4:0.996041,0.088360,0.000000,-0.009728 RARM_JOINT2:0.812800,0.000000,0.265883,0.518326 RARM_JOINT3:0.787792,0.000000,0.570342,0.232580 RLEG_JOINT2:0.998677,0.039482,0.000000,-0.032950 RLEG_JOINT4:0.995244,0.079665,0.000000,0.056057 WAIST:0.997885,-0.000000,0.063560,0.013610 WAIST_JOINT0:0.995151,-0.000000,0.091144,0.036971 WAIST_JOINT1:0.998906,0.046727,-0.000000,0.001777 END:
KINECT_DATA_Sensor  AnkleLeft:-0.055943,-0.654040,0.087267,0.749324 AnkleRight:0.104275,0.730010,0.066388,0.672164 ElbowLeft:-0.053626,0.823216,-0.195410,-0.530335 ElbowRight:-0.229046,0.923785,0.059037,0.301121 FootLeft:0.000000,0.000000,0.000000,0.000000 FootRight:0.000000,0.000000,0.000000,0.000000 HandLeft:0.086564,-0.524623,-0.153835,0.832834 HandRight:0.339460,0.206374,-0.579550,0.711547 HandTipLeft:0.000000,0.000000,0.000000,0.000000 HandTipRight:0.000000,0.000000,0.000000,0.000000 Head:0.000000,0.000000,0.000000,0.000000 HipLeft:0.092000,-0.678758,0.717957,-0.123943 HipRight:-0.180379,0.678603,0.682863,-0.201641 KneeLeft:0.016775,-0.660291,0.036365,0.749941 KneeRight:0.011020,0.751124,0.041777,0.658746 Neck:-0.092364,0.013789,0.993700,-0.061960 ShoulderLeft:0.043978,0.763153,-0.644695,-0.005688 ShoulderRight:-0.076166,0.798293,0.582306,-0.133594 SpineBase:-0.063858,0.012374,0.997603,-0.023618 SpineMid:-0.077833,0.012703,0.996610,-0.023442 SpineShoulder:-0.092232,0.013690,0.994784,-0.041348 ThumbLeft:0.000000,0.000000,0.000000,0.000000 ThumbRight:0.000000,0.000000,0.000000,0.000000 WristLeft:0.153282,-0.503361,-0.076329,0.846940 WristRight:0.318709,0.217656,-0.538188,0.749269 END:
KINECT_DATA POSITION:2.627982,-0.143246,-8.322847 HEAD_JOINT1:0.984017,0.168683,-0.000000,0.057067 LARM_JOINT2:0.825472,0.000000,-0.009744,-0.564360 LARM_JOINT3:0.970596,0.000000,-0.196876,-0.138504 LLEG_JOINT2:0.999629,0.011837,0.000000,0.024514 LLEG_JOINT4:0.995458,0.094837,0.000000,-0.008386 RARM_JOINT2:0.812264,0.000000,0.264392,0.519927 RARM_JOINT3:0.786452,0.000000,0.569830,0.238300 RLEG_JOINT2:0.998709,0.038536,0.000000,-0.033096 RLEG_JOINT4:0.995127,0.081417,0.000000,0.055622 WAIST:0.997882,-0.000000,0.063558,0.013871 WAIST_JOINT0:0.995120,-0.000000,0.091541,0.036827 WAIST_JOINT1:0.998880,0.047277,-0.000000,0.001702 END:
KINECT_DATA_Sensor  AnkleLeft:-0.059595,-0.653443,0.092196,0.748973 AnkleRight:0.103285,0.717429,0.069118,0.685456 ElbowLeft:-0.053301,0.824145,-0.196008,-0.528701 ElbowRight:-0.226075,0.927242,0.061074,0.292202 FootLeft:0.000000,0.000000,0.000000,0.000000 FootRight:0.000000,0.000000,0.000000,0.000000 HandLeft:-0.124797,0.784863,0.101936,-0.598352 HandRight:0.339720,0.178780,-0.627775,0.677146 HandTipLeft:0.000000,0.000000,0.000000,0.000000 HandTipRight:0.000000,0.000000,0.000000,0.000000 Head:0.000000,0.000000,0.000000,0.000000 HipLeft:0.091927,-0.678547,0.718134,-0.124126 HipRight:-0.180439,0.678710,0.682684,-0.201837 KneeLeft:0.017105,-0.660287,0.036029,0.749953 KneeRight:0.010468,0.751132,0.040980,0.658796 Neck:-0.092771,0.014021,0.993613,-0.062692 ShoulderLeft:0.044440,0.763158,-0.644657,-0.005597 ShoulderRight:-0.076253,0.798037,0.582480,-0.134314 SpineBase:-0.063865,0.012579,0.997596,-0.023776 SpineMid:-0.078035,0.012915,0.996588,-0.023595 SpineShoulder:-0.092641,0.013858,0.994724,-0.041820 ThumbLeft:0.000000,0.000000,0.000000,0.000000 ThumbRight:0.000000,0.000000,0.000000,0.000000 WristLeft:-0.169748,0.780195,0.013824,-0.601905 WristRight:0.324635,0.225727,-0.533595,0.747620 END:
KINECT_DATA POSITION:2.662733,-0.144172,-8.303726 HEAD_JOINT1:0.984027,0.168767,-0.000000,0.056638 LARM_JOINT2:0.825611,0.000000,-0.009368,-0.564162 LARM_JOINT3:0.970496,0.000000,-0.197819,-0.137861 LLEG_JOINT2:0.999626,0.011897,0.000000,0.024616 LLEG_JOINT4:0.995517,0.093696,0.000000,-0.012894 RARM_JOINT2:0.808255,0.000000,0.272473,0.521998 RARM_JOINT3:0.791597,0.000000,0.566350,0.229394 RLEG_JOINT2:0.998713,0.038494,0.000000,-0.033031 RLEG_JOINT4:0.995026,0.082733,0.000000,0.055483 WAIST:0.997860,-0.000000,0.063906,0.013823 WAIST_JOINT0:0.995056,-0.000000,0.092015,0.037372 WAIST_JOINT1:0.998853,0.047857,-0.000000,0.001553 END:
KINECT_DATA_Sensor  AnkleLeft:-0.061676,-0.652666,0.088176,0.749966 AnkleRight:0.102542,0.703698,0.072277,0.699336 ElbowLeft:-0.052561,0.823707,-0.196422,-0.529304 ElbowRight:-0.228045,0.927169,0.052780,0.292519 FootLeft:0.000000,0.000000,0.000000,0.000000 FootRight:0.000000,0.000000,0.000000,0.000000 HandLeft:-0.120558,0.742175,0.109735,-0.650077 HandRight:0.312747,0.201693,-0.621763,0.689145 HandTipLeft:0.000000,0.000000,0.000000,0.000000 HandTipRight:0.000000,0.000000,0.000000,0.000000 Head:0.000000,0.000000,0.000000,0.000000 HipLeft:0.091441,-0.678537,0.718216,-0.124066 HipRight:-0.180509,0.678531,0.682747,-0.202159 KneeLeft:0.017085,-0.660028,0.036114,0.750178 KneeRight:0.010436,0.751362,0.040939,0.658536 Neck:-0.093305,0.013703,0.993522,-0.063405 ShoulderLeft:0.044804,0.762937,-0.644896,-0.005262 ShoulderRight:-0.076595,0.798275,0.581871,-0.135338 SpineBase:-0.064212,0.012660,0.997566,-0.024066 SpineMid:-0.078465,0.013002,0.996546,-0.023883 SpineShoulder:-0.093173,0.013663,0.994655,-0.042346 ThumbLeft:0.000000,0.000000,0.000000,0.000000 ThumbRight:0.000000,0.000000,0.000000,0.000000 WristLeft:-0.168063,0.737973,0.024737,-0.653100 WristRight:0.310033,0.247083,-0.545943,0.738090 END:
KINECT_DATA POSITION:2.688113,-0.135712,-8.311737 HEAD_JOINT1:0.983910,0.169444,-0.000000,0.056660 LARM_JOINT2:0.824853,0.000000,-0.010174,-0.565256 LARM_JOINT3:0.971155,0.000000,-0.195944,-0.135884 LLEG_JOINT2:0.999632,0.011995,0.000000,0.024326 LLEG_JOINT4:0.995453,0.094449,0.000000,-0.012345 RARM_JOINT2:0.807429,0.000000,0.273455,0.522763 RARM_JOINT3:0.793900,0.000000,0.562922,0.229872 RLEG_JOINT2:0.998689,0.038429,0.000000,-0.033813 RLEG_JOINT4:0.994918,0.083615,0.000000,0.056087 WAIST:0.997853,-0.000000,0.063945,0.014163 WAIST_JOINT0:0.995009,-0.000000,0.092405,0.037672 WAIST_JOINT1:0.998848,0.047982,-0.000000,0.001012 END:
KINECT_DATA_Sensor  AnkleLeft:-0.061901,-0.652492,0.089170,0.749980 AnkleRight:0.104792,0.719415,0.070427,0.683009 ElbowLeft:-0.052512,0.823600,-0.194791,-0.530078 ElbowRight:-0.227928,0.927403,0.051576,0.292082 FootLeft:0.000000,0.000000,0.000000,0.000000 FootRight:0.000000,0.000000,0.000000,0.000000 HandLeft:0.084340,-0.527218,-0.136273,0.834480 HandRight:0.293910,0.220548,-0.607244,0.704436 HandTipLeft:0.000000,0.000000,0.000000,0.000000 HandTipRight:0.000000,0.000000,0.000000,0.000000 Head:0.000000,0.000000,0.000000,0.000000 HipLeft:0.091355,-0.678329,0.718439,-0.123974 HipRight:-0.180416,0.678717,0.682544,-0.202301 KneeLeft:0.017059,-0.659985,0.036200,0.750212 KneeRight:0.010045,0.751402,0.041167,0.658483 Neck:-0.093909,0.013504,0.993461,-0.063510 ShoulderLeft:0.045853,0.761924,-0.646016,-0.005811 ShoulderRight:-0.076381,0.798030,0.582182,-0.135568 SpineBase:-0.064269,0.012593,0.997561,-0.024133 SpineMid:-0.078794,0.012944,0.996519,-0.023947 SpineShoulder:-0.093780,0.013487,0.994597,-0.042432 ThumbLeft:0.000000,0.000000,0.000000,0.000000 ThumbRight:0.000000,0.000000,0.000000,0.000000 WristLeft:0.152223,-0.507582,-0.073411,0.844866 WristRight:0.301993,0.260303,-0.551968,0.732376 END:
KINECT_DATA POSITION:2.738164,-0.132226,-8.371973 HEAD_JOINT1:0.983608,0.171015,-0.000000,0.057175 LARM_JOINT2:0.825194,0.000000,-0.010672,-0.564748 LARM_JOINT3:0.971052,0.000000,-0.196360,-0.136016 LLEG_JOINT2:0.999636,0.012271,0.000000,0.024007 LLEG_JOINT4:0.995969,0.089167,0.000000,-0.009750 RARM_JOINT2:0.807322,0.000000,0.276404,0.521375 RARM_JOINT3:0.796127,0.000000,0.561558,0.225466 RLEG_JOINT2:0.998611,0.040319,0.000000,-0.033931 RLEG_JOINT4:0.995381,0.078181,0.000000,0.055717 WAIST:0.997858,-0.000000,0.063848,0.014252 WAIST_JOINT0:0.995087,-0.000000,0.091495,0.037827 WAIST_JOINT1:0.998845,0.048040,-0.000000,0.000463 END:
KINECT_DATA_Sensor  AnkleLeft:0.070016,0.765918,-0.077337,-0.634418 AnkleRight:0.105795,0.755944,0.062256,0.643024 ElbowLeft:-0.052501,0.824821,-0.194865,-0.528149 ElbowRight:-0.229532,0.931614,0.054676,0.276444 FootLeft:0.000000,0.000000,0.000000,0.000000 FootRight:0.000000,0.000000,0.000000,0.000000 HandLeft:0.096482,-0.578831,-0.137329,0.797989 HandRight:0.329718,0.204853,-0.610750,0.690150 HandTipLeft:0.000000,0.000000,0.000000,0.000000 HandTipRight:0.000000,0.000000,0.000000,0.000000 Head:0.000000,0.000000,0.000000,0.000000 HipLeft:0.091250,-0.678310,0.718473,-0.123958 HipRight:-0.180064,0.678794,0.682541,-0.202370 KneeLeft:0.016707,-0.660054,0.036206,0.750159 KneeRight:0.011277,0.751341,0.042599,0.658442 Neck:-0.093003,0.012968,0.993553,-0.063522 ShoulderLeft:0.046115,0.761491,-0.646509,-0.005551 ShoulderRight:-0.074921,0.797878,0.582852,-0.134390 SpineBase:-0.064185,0.012337,0.997566,-0.024300 SpineMid:-0.078306,0.012680,0.996557,-0.024123 SpineShoulder:-0.092878,0.013004,0.994685,-0.042489 ThumbLeft:0.000000,0.000000,0.000000,0.000000 ThumbRight:0.000000,0.000000,0.000000,0.000000 WristLeft:0.155748,-0.560212,-0.061928,0.811215 WristRight:0.305861,0.241589,-0.519203,0.760600 END:
KINECT_DATA POSITION:2.761283,-0.137147,-8.419561 HEAD_JOINT1:0.983712,0.170535,-0.000000,0.056823 LARM_JOINT2:0.825868,0.000000,-0.010992,-0.563756 LARM_JOINT3:0.970763,0.000000,-0.197260,-0.136773 LLEG_JOINT2:0.999633,0.012203,0.000000,0.024190 LLEG_JOINT4:0.995880,0.089831,0.000000,-0.012359 RARM_JOINT2:0.808405,0.000000,0.272555,0.521724 RARM_JOINT3:0.792248,0.000000,0.566957,0.225617 RLEG_JOINT2:0.998604,0.039140,0.000000,-0.035476 RLEG_JOINT4:0.995230,0.079288,0.000000,0.056837 WAIST:0.997873,-0.000000,0.063658,0.014013 WAIST_JOINT0:0.994747,-0.000000,0.094563,0.039186 WAIST_JOINT1:0.998840,0.048147,-0.000000,0.000826 END:
KINECT_DATA_Sensor  AnkleLeft:-0.058592,-0.651597,0.086196,0.751371 AnkleRight:0.102080,0.723164,0.067739,0.679724 ElbowLeft:-0.052586,0.826541,-0.196124,-0.524977 ElbowRight:-0.227949,0.928609,0.054810,0.287613 FootLeft:0.000000,0.000000,0.000000,0.000000 FootRight:0.000000,0.000000,0.000000,0.000000 HandLeft:0.097828,-0.562287,-0.140836,0.808967 HandRight:0.286422,0.183321,-0.662458,0.667462 HandTipLeft:0.000000,0.000000,0.000000,0.000000 HandTipRight:0.000000,0.000000,0.000000,0.000000 Head:0.000000,0.000000,0.000000,0.000000 HipLeft:0.091123,-0.678420,0.718323,-0.124320 HipRight:-0.179901,0.678648,0.682731,-0.202362 KneeLeft:0.016714,-0.660210,0.036128,0.750026 KneeRight:0.009182,0.751226,0.042906,0.658585 Neck:-0.096036,0.013285,0.993259,-0.063538 ShoulderLeft:0.045746,0.761371,-0.646675,-0.005783 ShoulderRight:-0.079405,0.798510,0.580414,-0.138550 SpineBase:-0.063982,0.012512,0.997570,-0.024576 SpineMid:-0.079700,0.012897,0.996437,-0.024376 SpineShoulder:-0.095915,0.013279,0.994389,-0.042594 ThumbLeft:0.000000,0.000000,0.000000,0.000000 ThumbRight:0.000000,0.000000,0.000000,0.000000 WristLeft:0.154132,-0.544328,-0.065130,0.822015 WristRight:0.298193,0.265602,-0.547547,0.735342 END:
KINECT_DATA POSITION:2.758099,-0.145839,-8.502043 HEAD_JOINT1:0.983805,0.169644,-0.000000,0.057871 LARM_JOINT2:0.826366,0.000000,-0.012120,-0.563002 LARM_JOINT3:0.970150,0.000000,-0.198833,-0.138830 LLEG_JOINT2:0.999622,0.012454,0.000000,0.024518 LLEG_JOINT4:0.995720,0.091633,0.000000,-0.012077 RARM_JOINT2:0.811579,0.000000,0.264980,0.520697 RARM_JOINT3:0.789736,0.000000,0.568688,0.230025 RLEG_JOINT2:0.998634,0.038671,0.000000,-0.035128 RLEG_JOINT4:0.995438,0.077497,0.000000,0.055646 WAIST:0.997929,-0.000000,0.062705,0.014336 WAIST_JOINT0:0.994629,-0.000000,0.095593,0.039685 WAIST_JOINT1:0.998825,0.048470,-0.000000,0.000379 END:
KINECT_DATA_Sensor  AnkleLeft:0.072222,0.759161,-0.078173,-0.642143 AnkleRight:0.100320,0.723024,0.066216,0.680285 ElbowLeft:-0.053206,0.828244,-0.196592,-0.522047 ElbowRight:-0.225673,0.924389,0.059080,0.301805 FootLeft:0.000000,0.000000,0.000000,0.000000 FootRight:0.000000,0.000000,0.000000,0.000000 HandLeft:0.093370,-0.540947,-0.154194,0.821512 HandRight:0.296809,0.207390,-0.579784,0.729893 HandTipLeft:0.000000,0.000000,0.000000,0.000000 HandTipRight:0.000000,0.000000,0.000000,0.000000 Head:0.000000,0.000000,0.000000,0.000000 HipLeft:0.091525,-0.678098,0.718443,-0.125084 HipRight:-0.179096,0.678943,0.682706,-0.202171 KneeLeft:0.016996,-0.660902,0.036763,0.749379 KneeRight:0.009408,0.750598,0.042097,0.659349 Neck:-0.097042,0.013333,0.993145,-0.063776 ShoulderLeft:0.045480,0.761246,-0.646844,-0.005385 ShoulderRight:-0.081091,0.798549,0.579697,-0.140336 SpineBase:-0.063052,0.012450,0.997621,-0.024938 SpineMid:-0.079729,0.012866,0.996427,-0.024727 SpineShoulder:-0.096926,0.013270,0.994279,-0.042878 ThumbLeft:0.000000,0.000000,0.000000,0.000000 ThumbRight:0.000000,0.000000,0.000000,0.000000 WristLeft:0.152006,-0.521450,-0.069091,0.836786 WristRight:0.315397,0.236690,-0.550640,0.735730 END:
KINECT_DATA POSITION:2.754128,-0.139150,-8.546627 HEAD_JOINT1:0.983801,0.169629,-0.000000,0.057984 LARM_JOINT2:0.826314,0.000000,-0.012549,-0.563070 LARM_JOINT3:0.970435,0.000000,-0.197036,-0.139402 LLEG_JOINT2:0.999634,0.011741,0.000000,0.024359 LLEG_JOINT4:0.995665,0.091834,0.000000,-0.014743 RARM_JOINT2:0.811368,0.000000,0.267618,0.519676 RARM_JOINT3:0.791181,0.000000,0.567495,0.227998 RLEG_JOINT2:0.998590,0.039931,0.000000,-0.034992 RLEG_JOINT4:0.995553,0.075801,0.000000,0.055929 WAIST:0.997920,-0.000000,0.062843,0.014357 WAIST_JOINT0:0.994976,-0.000000,0.092339,0.038691 WAIST_JOINT1:0.998827,0.048412,-0.000000,0.000491 END:
KINECT_DATA_Sensor  AnkleLeft:-0.060972,-0.652563,0.085809,0.750387 AnkleRight:0.099903,0.718389,0.066310,0.685230 ElbowLeft:-0.053522,0.828312,-0.196469,-0.521953 ElbowRight:-0.227123,0.926687,0.059690,0.293433 FootLeft:0.000000,0.000000,0.000000,0.000000 FootRight:0.000000,0.000000,0.000000,0.000000 HandLeft:0.078400,-0.488193,-0.155217,0.855236 HandRight:0.290926,0.165123,-0.627949,0.702693 HandTipLeft:0.000000,0.000000,0.000000,0.000000 HandTipRight:0.000000,0.000000,0.000000,0.000000 Head:0.000000,0.000000,0.000000,0.000000 HipLeft:0.091539,-0.678078,0.718458,-0.125098 HipRight:-0.179261,0.678911,0.682653,-0.202313 KneeLeft:0.017438,-0.660800,0.036187,0.749487 KneeRight:0.010353,0.750693,0.042936,0.659173 Neck:-0.093833,0.013302,0.993456,-0.063742 ShoulderLeft:0.045166,0.761477,-0.646600,-0.004484 ShoulderRight:-0.077087,0.798369,0.581401,-0.136517 SpineBase:-0.063190,0.012470,0.997612,-0.024934 SpineMid:-0.078214,0.012845,0.996547,-0.024744 SpineShoulder:-0.093713,0.013236,0.994587,-0.042876 ThumbLeft:0.000000,0.000000,0.000000,0.000000 ThumbRight:0.000000,0.000000,0.000000,0.000000 WristLeft:0.147429,-0.466761,-0.079052,0.868418 WristRight:0.316715,0.237864,-0.541609,0.741466 END:
KINECT_DATA POSITION:2.739999,-0.126008,-8.600926 HEAD_JOINT1:0.983886,0.169026,-0.000000,0.058296 LARM_JOINT2:0.826345,0.000000,-0.013011,-0.563013 LARM_JOINT3:0.970699,0.000000,-0.196257,-0.138658 LLEG_JOINT2:0.999634,0.010853,0.000000,0.024791 LLEG_JOINT4:0.995752,0.091064,0.000000,-0.013608 RARM_JOINT2:0.809920,0.000000,0.272688,0.519298 RARM_JOINT3:0.794529,0.000000,0.563231,0.226926 RLEG_JOINT2:0.998652,0.038876,0.000000,-0.034393 RLEG_JOINT4:0.995471,0.076928,0.000000,0.055858 WAIST:0.997948,-0.000000,0.062504,0.013897 WAIST_JOINT0:0.995230,-0.000000,0.089873,0.037961 WAIST_JOINT1:0.998823,0.048506,-0.000000,0.000863 END:
KINECT_DATA_Sensor  AnkleLeft:-0.059144,-0.654276,0.085485,0.749078 AnkleRight:0.101017,0.728159,0.064833,0.674816 ElbowLeft:-0.053745,0.828723,-0.196328,-0.521330 ElbowRight:-0.229175,0.928725,0.058090,0.285612 FootLeft:0.000000,0.000000,0.000000,0.000000 FootRight:0.000000,0.000000,0.000000,0.000000 HandLeft:0.094348,-0.573215,-0.143021,0.801292 HandRight:0.280593,0.178659,-0.624257,0.706860 HandTipLeft:0.000000,0.000000,0.000000,0.000000 HandTipRight:0.000000,0.000000,0.000000,0.000000 Head:0.000000,0.000000,0.000000,0.000000 HipLeft:0.091473,-0.678371,0.718165,-0.125239 HipRight:-0.178858,0.678708,0.683052,-0.202001 KneeLeft:0.018074,-0.661069,0.035597,0.749262 KneeRight:0.009795,0.750448,0.042074,0.659517 Neck:-0.091356,0.013097,0.993681,-0.063883 ShoulderLeft:0.045210,0.761866,-0.646144,-0.003881 ShoulderRight:-0.073663,0.798344,0.582575,-0.133517 SpineBase:-0.062832,0.012377,0.997633,-0.025063 SpineMid:-0.076808,0.012727,0.996654,-0.024887 SpineShoulder:-0.091233,0.013068,0.994814,-0.043027 ThumbLeft:0.000000,0.000000,0.000000,0.000000 ThumbRight:0.000000,0.000000,0.000000,0.000000 WristLeft:0.154718,-0.553927,-0.063610,0.815586 WristRight:0.311069,0.252256,-0.541063,0.739495 END:
KINECT_DATA POSITION:2.746561,-0.122590,-8.614969 HEAD_JOINT1:0.983820,0.169477,-0.000000,0.058092 LARM_JOINT2:0.826613,0.000000,-0.012239,-0.562637 LARM_JOINT3:0.971256,0.000000,-0.194211,-0.137637 LLEG_JOINT2:0.999656,0.010080,0.000000,0.024210 LLEG_JOINT4:0.995618,0.092742,0.000000,-0.011988 RARM_JOINT2:0.810179,0.000000,0.272818,0.518826 RARM_JOINT3:0.794385,0.000000,0.562843,0.228385 RLEG_JOINT2:0.998668,0.038405,0.000000,-0.034462 RLEG_JOINT4:0.995457,0.076677,0.000000,0.056453 WAIST:0.997931,-0.000000,0.062744,0.014062 WAIST_JOINT0:0.995314,-0.000000,0.089128,0.037490 WAIST_JOINT1:0.998836,0.048218,-0.000000,0.000866 END:
KINECT_DATA_Sensor  AnkleLeft:0.070153,0.748436,-0.078274,-0.654824 AnkleRight:0.099775,0.714899,0.065837,0.688934 ElbowLeft:-0.053693,0.828358,-0.197049,-0.521643 ElbowRight:-0.229911,0.928001,0.057585,0.287469 FootLeft:0.000000,0.000000,0.000000,0.000000 FootRight:0.000000,0.000000,0.000000,0.000000 HandLeft:0.086214,-0.525860,-0.138964,0.834702 HandRight:0.259005,0.201931,-0.602559,0.727367 HandTipLeft:0.000000,0.000000,0.000000,0.000000 HandTipRight:0.000000,0.000000,0.000000,0.000000 Head:0.000000,0.000000,0.000000,0.000000 HipLeft:0.091435,-0.678296,0.718293,-0.124939 HipRight:-0.179133,0.678815,0.682887,-0.201955 KneeLeft:0.018381,-0.660892,0.034768,0.749450 KneeRight:0.009535,0.750611,0.041651,0.659361 Neck:-0.090608,0.013234,0.993768,-0.063565 ShoulderLeft:0.044197,0.762202,-0.645820,-0.003328 ShoulderRight:-0.073727,0.798292,0.582765,-0.132960 SpineBase:-0.063074,0.012511,0.997621,-0.024832 SpineMid:-0.076558,0.012846,0.996677,-0.024661 SpineShoulder:-0.090484,0.013180,0.994892,-0.042759 ThumbLeft:0.000000,0.000000,0.000000,0.000000 ThumbRight:0.000000,0.000000,0.000000,0.000000 WristLeft:0.151258,-0.506489,-0.071619,0.845849 WristRight:0.307117,0.264253,-0.551689,0.729033 END:
KINECT_DATA POSITION:2.766739,-0.132415,-8.609211 HEAD_JOINT1:0.983843,0.169553,-0.000000,0.057491 LARM_JOINT2:0.826259,0.000000,-0.012658,-0.563148 LARM_JOINT3:0.970963,0.000000,-0.196013,-0.137147 LLEG_JOINT2:0.999653,0.010298,0.000000,0.024248 LLEG_JOINT4:0.995627,0.092570,0.000000,-0.012578 RARM_JOINT2:0.815861,0.000000,0.269244,0.511741 RARM_JOINT3:0.806839,0.000000,0.540392,0.238719 RLEG_JOINT2:0.998732,0.037226,0.000000,-0.033898 RLEG_JOINT4:0.995179,0.080688,0.000000,0.055759 WAIST:0.997959,-0.000000,0.062335,0.013882 WAIST_JOINT0:0.995381,-0.000000,0.088410,0.037420 WAIST_JOINT1:0.998823,0.048501,-0.000000,0.000772 END:
KINECT_DATA_Sensor  AnkleLeft:-0.059624,-0.655108,0.086420,0.748205 AnkleRight:0.102159,0.722493,0.066991,0.680500 ElbowLeft:-0.053820,0.827721,-0.196103,-0.522996 ElbowRight:-0.232581,0.928364,0.068770,0.281632 FootLeft:0.000000,0.000000,0.000000,0.000000 FootRight:0.000000,0.000000,0.000000,0.000000 HandLeft:0.094738,-0.561559,-0.141291,0.809761 HandRight:0.281637,0.235149,-0.561704,0.741535 HandTipLeft:0.000000,0.000000,0.000000,0.000000 HandTipRight:0.000000,0.000000,0.000000,0.000000 Head:0.000000,0.000000,0.000000,0.000000 HipLeft:0.091502,-0.678410,0.718140,-0.125151 HipRight:-0.178783,0.678780,0.683073,-0.201758 KneeLeft:0.018125,-0.661207,0.034809,0.749176 KneeRight:0.009069,0.750325,0.040522,0.659764 Neck:-0.090153,0.012884,0.993791,-0.063924 ShoulderLeft:0.045253,0.761668,-0.646376,-0.003575 ShoulderRight:-0.072005,0.798400,0.583055,-0.131983 SpineBase:-0.062660,0.012433,0.997646,-0.024946 SpineMid:-0.076120,0.012769,0.996709,-0.024776 SpineShoulder:-0.090025,0.012941,0.994926,-0.043021 ThumbLeft:0.000000,0.000000,0.000000,0.000000 ThumbRight:0.000000,0.000000,0.000000,0.000000 WristLeft:0.154312,-0.542704,-0.064932,0.823070 WristRight:0.289629,0.257962,-0.529622,0.754368 END:
KINECT_DATA POSITION:2.930941,-0.211778,-8.465206 HEAD_JOINT1:0.983236,0.174030,-0.000000,0.054408 LARM_JOINT2:0.825338,0.000000,-0.006686,-0.564600 LARM_JOINT3:0.973331,0.000000,-0.191503,-0.126306 LLEG_JOINT2:0.999579,0.015083,0.000000,0.024772 LLEG_JOINT4:0.996065,0.086921,0.000000,-0.017306 RARM_JOINT2:0.867365,0.000000,0.147809,0.475217 RARM_JOINT3:0.762391,0.000000,0.519639,0.385662 RLEG_JOINT2:0.998844,0.035777,0.000000,-0.032107 RLEG_JOINT4:0.995228,0.082463,0.000000,0.052156 WAIST:0.998486,-0.000000,0.053640,0.012217 WAIST_JOINT0:0.996331,-0.000000,0.080472,0.029123 WAIST_JOINT1:0.998673,0.051463,0.000000,-0.002108 END:
KINECT_DATA_Sensor  AnkleLeft:-0.061967,-0.659093,0.082377,0.744964 AnkleRight:0.103833,0.750811,0.063520,0.649205 ElbowLeft:-0.050284,0.820284,-0.192572,-0.536210 ElbowRight:-0.179189,0.924238,0.199538,0.271772 FootLeft:0.000000,0.000000,0.000000,0.000000 FootRight:0.000000,0.000000,0.000000,0.000000 HandLeft:0.081088,-0.536912,-0.108721,0.832665 HandRight:0.258254,0.292974,-0.493669,0.777021 HandTipLeft:0.000000,0.000000,0.000000,0.000000 HandTipRight:0.000000,0.000000,0.000000,0.000000 Head:0.000000,0.000000,0.000000,0.000000 HipLeft:0.095106,-0.678777,0.716421,-0.130221 HipRight:-0.171278,0.678687,0.685998,-0.198632 KneeLeft:0.013952,-0.667733,0.037146,0.743342 KneeRight:0.008689,0.744442,0.039430,0.666465 Neck:-0.081807,0.008328,0.994356,-0.067045 ShoulderLeft:0.052682,0.762678,-0.644616,-0.004100 ShoulderRight:-0.053180,0.790919,0.597725,-0.119769 SpineBase:-0.053993,0.009282,0.998129,-0.027161 SpineMid:-0.067657,0.009653,0.997296,-0.027031 SpineShoulder:-0.081721,0.008886,0.995559,-0.045892 ThumbLeft:0.000000,0.000000,0.000000,0.000000 ThumbRight:0.000000,0.000000,0.000000,0.000000 WristLeft:0.152214,-0.519541,-0.068116,0.838015 WristRight:0.250989,0.297157,-0.478216,0.787408 END:
KINECT_DATA POSITION:3.473527,-0.296254,-8.200562 HEAD_JOINT1:0.982836,0.174905,-0.000000,0.058669 LARM_JOINT2:0.822406,0.000000,0.001243,-0.568899 LARM_JOINT3:0.971861,0.000000,-0.198394,-0.126986 LLEG_JOINT2:0.999572,0.023319,0.000000,0.017691 LLEG_JOINT4:0.996451,0.083001,0.000000,-0.014024 RARM_JOINT2:0.863098,0.000000,-0.015343,0.504804 RARM_JOINT3:0.816071,0.000000,0.381586,0.434075 RLEG_JOINT2:0.998625,0.037286,0.000000,-0.036863 RLEG_JOINT4:0.995421,0.079872,0.000000,0.052516 WAIST:0.999130,-0.000000,0.040021,0.011700 WAIST_JOINT0:0.997652,-0.000000,0.064218,0.023808 WAIST_JOINT1:0.998589,0.052962,0.000000,-0.003860 END:
KINECT_DATA_Sensor  AnkleLeft:0.073199,0.723649,-0.077770,-0.681855 AnkleRight:0.098170,0.717870,0.068371,0.685821 ElbowLeft:-0.044606,0.821284,-0.188813,-0.536519 ElbowRight:-0.059416,0.891603,0.246533,0.375147 FootLeft:0.000000,0.000000,0.000000,0.000000 FootRight:0.000000,0.000000,0.000000,0.000000 HandLeft:0.068404,-0.491517,-0.149433,0.855220 HandRight:0.376814,-0.053770,-0.113612,0.917721 HandTipLeft:0.000000,0.000000,0.000000,0.000000 HandTipRight:0.000000,0.000000,0.000000,0.000000 Head:0.000000,0.000000,0.000000,0.000000 HipLeft:0.101308,-0.677780,0.715190,-0.137311 HipRight:-0.160045,0.680477,0.689095,-0.191010 KneeLeft:0.003119,-0.677838,0.037084,0.734268 KneeRight:0.006521,0.735288,0.044127,0.676285 Neck:-0.064996,0.006577,0.995507,-0.068538 ShoulderLeft:0.053668,0.764944,-0.641857,0.000516 ShoulderRight:-0.029984,0.787597,0.607375,-0.099434 SpineBase:-0.040440,0.007197,0.998740,-0.028839 SpineMid:-0.052529,0.007546,0.998177,-0.028750 SpineShoulder:-0.064919,0.007128,0.996735,-0.047470 ThumbLeft:0.000000,0.000000,0.000000,0.000000 ThumbRight:0.000000,0.000000,0.000000,0.000000 WristLeft:0.141281,-0.469797,-0.071740,0.868437 WristRight:0.250417,-0.114011,-0.311589,0.909508 END:
KINECT_DATA POSITION:3.529353,-0.360579,-8.085895 HEAD_JOINT1:0.982280,0.174374,-0.000000,0.068694 LARM_JOINT2:0.825475,0.000000,-0.005224,-0.564414 LARM_JOINT3:0.970850,0.000000,-0.203090,-0.127296 LLEG_JOINT2:0.999422,0.026370,0.000000,0.021453 LLEG_JOINT4:0.996966,0.076455,0.000000,-0.014617 RARM_JOINT2:0.850354,0.000000,-0.062811,0.522450 RARM_JOINT3:0.859309,0.000000,0.293584,0.418804 RLEG_JOINT2:0.998825,0.036030,0.000000,-0.032416 RLEG_JOINT4:0.995507,0.081713,0.000000,0.047843 WAIST:0.999545,-0.000000,0.029066,0.008034 WAIST_JOINT0:0.998977,-0.000000,0.040917,0.019278 WAIST_JOINT1:0.998373,0.056561,0.000000,-0.007167 END:
KINECT_DATA_Sensor  AnkleLeft:-0.064487,-0.681415,0.080964,0.724541 AnkleRight:0.098295,0.726931,0.068158,0.676213 ElbowLeft:-0.045442,0.833557,-0.186586,-0.517981 ElbowRight:-0.005767,0.891847,0.253252,0.374751 FootLeft:0.000000,0.000000,0.000000,0.000000 FootRight:0.000000,0.000000,0.000000,0.000000 HandLeft:0.074784,-0.500961,-0.166798,0.845945 HandRight:0.280878,0.174635,-0.043875,0.942701 HandTipLeft:0.000000,0.000000,0.000000,0.000000 HandTipRight:0.000000,0.000000,0.000000,0.000000 Head:0.000000,0.000000,0.000000,0.000000 HipLeft:0.108210,-0.679101,0.711201,-0.145964 HipRight:-0.152318,0.679204,0.692737,-0.188670 KneeLeft:0.001199,-0.685942,0.039377,0.726589 KneeRight:0.006870,0.727647,0.042769,0.684583 Neck:-0.041808,-0.001289,0.996495,-0.072442 ShoulderLeft:0.046834,0.768062,-0.638458,0.016111 ShoulderRight:-0.006419,0.785973,0.613125,-0.079261 SpineBase:-0.029446,0.002658,0.999064,-0.031584 SpineMid:-0.035484,0.002849,0.998867,-0.031567 SpineShoulder:-0.041763,0.000293,0.997818,-0.051136 ThumbLeft:0.000000,0.000000,0.000000,0.000000 ThumbRight:0.000000,0.000000,0.000000,0.000000 WristLeft:0.135503,-0.481705,-0.076631,0.862396 WristRight:0.128367,0.137512,-0.295525,0.936631 END:
