EastLYD/RoboCupatHomeSim/InteractiveCleanUp/JapanOpen2016/Motion_Data/File71.dat
KINECT_DATA POSITION:16.979229,-1.027950,4.880226 HEAD_JOINT1:0.979768,0.189519,-0.000000,0.064319 LARM_JOINT2:0.811421,0.000000,-0.069375,-0.580331 LARM_JOINT3:0.963638,0.000000,-0.218444,-0.153896 LLEG_JOINT2:0.998930,0.009164,0.000000,0.045324 LLEG_JOINT4:0.996169,0.081325,0.000000,-0.032147 RARM_JOINT2:0.801403,0.000000,-0.015328,0.597928 RARM_JOINT3:0.963627,0.000000,0.221285,0.149853 RLEG_JOINT2:0.998700,-0.004556,-0.000000,-0.050777 RLEG_JOINT4:0.994385,0.097778,0.000000,0.040467 WAIST:0.999981,0.000000,0.002357,-0.005771 WAIST_JOINT0:0.999956,-0.000000,0.003378,0.008788 WAIST_JOINT1:0.996653,0.081488,0.000000,-0.006583 END:
KINECT_DATA_Sensor  AnkleLeft:0.061793,0.729397,-0.066386,-0.678052 AnkleRight:0.055556,0.711806,0.076371,0.695998 ElbowLeft:-0.043414,0.893814,-0.143427,-0.422659 ElbowRight:0.004670,0.864119,0.181140,0.469536 FootLeft:0.000000,0.000000,0.000000,0.000000 FootRight:0.000000,0.000000,0.000000,0.000000 HandLeft:-0.181875,0.556643,-0.095292,0.804978 HandRight:0.091803,-0.400603,-0.117498,0.904037 HandTipLeft:0.000000,0.000000,0.000000,0.000000 HandTipRight:0.000000,0.000000,0.000000,0.000000 Head:0.000000,0.000000,0.000000,0.000000 HipLeft:0.112370,-0.680885,0.702046,-0.175782 HipRight:-0.111190,0.670758,0.709749,-0.184326 KneeLeft:0.021407,-0.704781,0.034508,0.708262 KneeRight:-0.043259,0.708010,0.036688,0.703921 Neck:-0.003712,-0.012511,0.995105,-0.097959 ShoulderLeft:0.023004,0.779025,-0.622196,0.073915 ShoulderRight:0.019291,0.784711,0.614663,-0.077761 SpineBase:-0.002372,-0.012005,0.998347,-0.056155 SpineMid:-0.003268,-0.011954,0.998345,-0.056166 SpineShoulder:-0.003967,-0.012313,0.997010,-0.076179 ThumbLeft:0.000000,0.000000,0.000000,0.000000 ThumbRight:0.000000,0.000000,0.000000,0.000000 WristLeft:-0.113562,0.566118,-0.128786,0.806243 WristRight:0.040441,-0.406454,-0.118418,0.905062 END:
KINECT_DATA POSITION:16.982473,-1.044965,4.933274 HEAD_JOINT1:0.979422,0.191568,-0.000000,0.063518 LARM_JOINT2:0.811247,0.000000,-0.069020,-0.580616 LARM_JOINT3:0.962557,0.000000,-0.222188,-0.155296 LLEG_JOINT2:0.998936,0.009112,0.000000,0.045218 LLEG_JOINT4:0.996496,0.076912,0.000000,-0.032875 RARM_JOINT2:0.801822,0.000000,-0.017138,0.597318 RARM_JOINT3:0.962499,0.000000,0.224780,0.151889 RLEG_JOINT2:0.998670,-0.004136,-0.000000,-0.051390 RLEG_JOINT4:0.994043,0.100050,0.000000,0.043237 WAIST:0.999976,0.000000,0.003884,-0.005694 WAIST_JOINT0:0.999953,-0.000000,0.004327,0.008719 WAIST_JOINT1:0.996643,0.081614,0.000000,-0.006500 END:
KINECT_DATA_Sensor  AnkleLeft:0.059028,0.727910,-0.062820,-0.680233 AnkleRight:0.059312,0.715949,0.076444,0.691416 ElbowLeft:-0.042571,0.893653,-0.143609,-0.423023 ElbowRight:0.005353,0.864235,0.182399,0.468828 FootLeft:0.000000,0.000000,0.000000,0.000000 FootRight:0.000000,0.000000,0.000000,0.000000 HandLeft:-0.188256,0.517525,-0.112228,0.827123 HandRight:0.104744,-0.417796,-0.122624,0.894113 HandTipLeft:0.000000,0.000000,0.000000,0.000000 HandTipRight:0.000000,0.000000,0.000000,0.000000 Head:0.000000,0.000000,0.000000,0.000000 HipLeft:0.111451,-0.680991,0.702264,-0.175090 HipRight:-0.111996,0.670527,0.709574,-0.185351 KneeLeft:0.021365,-0.703690,0.034489,0.709348 KneeRight:-0.043392,0.709079,0.037305,0.702803 Neck:-0.004607,-0.012497,0.995094,-0.098034 ShoulderLeft:0.023028,0.779357,-0.621800,0.073743 ShoulderRight:0.018152,0.784815,0.614405,-0.079008 SpineBase:-0.003905,-0.012074,0.998331,-0.056337 SpineMid:-0.004491,-0.012041,0.998329,-0.056344 SpineShoulder:-0.004868,-0.012338,0.996997,-0.076299 ThumbLeft:0.000000,0.000000,0.000000,0.000000 ThumbRight:0.000000,0.000000,0.000000,0.000000 WristLeft:-0.107647,0.528698,-0.133346,0.831330 WristRight:0.042683,-0.425119,-0.117131,0.896511 END:
KINECT_DATA POSITION:16.954008,-1.063916,5.032527 HEAD_JOINT1:0.979178,0.193166,-0.000000,0.062435 LARM_JOINT2:0.810598,0.000000,-0.069376,-0.581479 LARM_JOINT3:0.962150,0.000000,-0.223154,-0.156431 LLEG_JOINT2:0.998911,0.008993,0.000000,0.045789 LLEG_JOINT4:0.996295,0.080136,0.000000,-0.031226 RARM_JOINT2:0.801972,0.000000,-0.016903,0.597123 RARM_JOINT3:0.963174,0.000000,0.222343,0.151191 RLEG_JOINT2:0.998709,-0.003128,-0.000000,-0.050707 RLEG_JOINT4:0.994025,0.100585,0.000000,0.042379 WAIST:0.999973,0.000000,0.004159,-0.005977 WAIST_JOINT0:0.999952,-0.000000,0.004822,0.008522 WAIST_JOINT1:0.996613,0.082013,0.000000,-0.006026 END:
KINECT_DATA_Sensor  AnkleLeft:0.060467,0.731843,-0.065927,-0.675576 AnkleRight:0.059759,0.713162,0.078105,0.694067 ElbowLeft:-0.042185,0.893063,-0.142815,-0.424573 ElbowRight:0.005651,0.864856,0.182544,0.467622 FootLeft:0.000000,0.000000,0.000000,0.000000 FootRight:0.000000,0.000000,0.000000,0.000000 HandLeft:-0.195499,0.518285,-0.109481,0.825333 HandRight:0.099326,-0.434840,-0.114677,0.887636 HandTipLeft:0.000000,0.000000,0.000000,0.000000 HandTipRight:0.000000,0.000000,0.000000,0.000000 Head:0.000000,0.000000,0.000000,0.000000 HipLeft:0.110800,-0.681156,0.702210,-0.175073 HipRight:-0.111722,0.670273,0.709820,-0.185491 KneeLeft:0.021640,-0.703509,0.034619,0.709513 KneeRight:-0.042406,0.709291,0.037727,0.702627 Neck:-0.005172,-0.012261,0.995055,-0.098429 ShoulderLeft:0.024751,0.779352,-0.621854,0.072775 ShoulderRight:0.019142,0.784720,0.614504,-0.078955 SpineBase:-0.004143,-0.012031,0.998308,-0.056737 SpineMid:-0.004897,-0.011989,0.998305,-0.056746 SpineShoulder:-0.005436,-0.012156,0.996965,-0.076704 ThumbLeft:0.000000,0.000000,0.000000,0.000000 ThumbRight:0.000000,0.000000,0.000000,0.000000 WristLeft:-0.107745,0.530021,-0.133168,0.830503 WristRight:0.044691,-0.440912,-0.115585,0.888954 END:
KINECT_DATA POSITION:16.681982,-1.082460,5.467308 HEAD_JOINT1:0.979057,0.193883,-0.000000,0.062111 LARM_JOINT2:0.814229,0.000000,-0.066201,-0.576757 LARM_JOINT3:0.922333,0.000000,-0.337684,-0.187806 LLEG_JOINT2:0.998725,0.010863,0.000000,0.049301 LLEG_JOINT4:0.996288,0.080861,0.000000,-0.029535 RARM_JOINT2:0.800780,0.000000,-0.019958,0.598626 RARM_JOINT3:0.965588,0.000000,0.215902,0.145005 RLEG_JOINT2:0.998948,0.000924,0.000000,-0.045847 RLEG_JOINT4:0.994483,0.097313,0.000000,0.039169 WAIST:0.999957,0.000000,0.004963,-0.007789 WAIST_JOINT0:0.999963,-0.000000,0.003392,0.007877 WAIST_JOINT1:0.996803,0.079705,0.000000,-0.005639 END:
KINECT_DATA_Sensor  AnkleLeft:0.061100,0.739846,-0.069334,-0.666399 AnkleRight:0.061945,0.729781,0.077424,0.676453 ElbowLeft:-0.045348,0.888747,-0.146746,-0.431901 ElbowRight:0.005469,0.863734,0.182205,0.469824 FootLeft:0.000000,0.000000,0.000000,0.000000 FootRight:0.000000,0.000000,0.000000,0.000000 HandLeft:-0.337453,0.470122,-0.262731,0.772064 HandRight:0.070316,-0.421945,-0.109207,0.897269 HandTipLeft:0.000000,0.000000,0.000000,0.000000 HandTipRight:0.000000,0.000000,0.000000,0.000000 Head:0.000000,0.000000,0.000000,0.000000 HipLeft:0.112241,-0.683115,0.700817,-0.172081 HipRight:-0.113318,0.669357,0.710753,-0.184257 KneeLeft:0.021468,-0.702992,0.037174,0.709901 KneeRight:-0.037402,0.710086,0.038442,0.702069 Neck:-0.003738,-0.013562,0.995242,-0.096412 ShoulderLeft:0.023576,0.779587,-0.621797,0.071119 ShoulderRight:0.019809,0.784440,0.615315,-0.075159 SpineBase:-0.004879,-0.014421,0.998433,-0.053856 SpineMid:-0.004652,-0.014433,0.998434,-0.053852 SpineShoulder:-0.004085,-0.013908,0.997133,-0.074262 ThumbLeft:0.000000,0.000000,0.000000,0.000000 ThumbRight:0.000000,0.000000,0.000000,0.000000 WristLeft:-0.184533,0.509467,-0.164017,0.824311 WristRight:0.039684,-0.425225,-0.115719,0.896782 END:
KINECT_DATA POSITION:16.188843,-1.050225,6.000674 HEAD_JOINT1:0.979240,0.192938,-0.000000,0.062165 LARM_JOINT2:0.820090,0.000000,-0.113337,-0.560899 LARM_JOINT3:0.897369,0.000000,-0.407840,-0.168510 LLEG_JOINT2:0.997991,0.017159,0.000000,0.060994 LLEG_JOINT4:0.996647,0.073305,0.000000,-0.036348 RARM_JOINT2:0.798629,0.000000,-0.023996,0.601345 RARM_JOINT3:0.965155,0.000000,0.214969,0.149212 RLEG_JOINT2:0.999396,0.006391,0.000000,-0.034170 RLEG_JOINT4:0.995223,0.091768,0.000000,0.033302 WAIST:0.999915,0.000000,0.003977,-0.012426 WAIST_JOINT0:0.999980,0.000000,-0.000302,0.006274 WAIST_JOINT1:0.997087,0.076148,0.000000,-0.004455 END:
KINECT_DATA_Sensor  AnkleLeft:0.056767,0.709966,-0.071349,-0.698308 AnkleRight:0.060895,0.713165,0.077984,0.693978 ElbowLeft:-0.092327,0.873985,-0.130968,-0.458774 ElbowRight:0.005483,0.862711,0.182005,0.471777 FootLeft:0.000000,0.000000,0.000000,0.000000 FootRight:0.000000,0.000000,0.000000,0.000000 HandLeft:-0.389020,0.492632,-0.280249,0.726249 HandRight:0.087894,-0.414926,-0.109268,0.898984 HandTipLeft:0.000000,0.000000,0.000000,0.000000 HandTipRight:0.000000,0.000000,0.000000,0.000000 Head:0.000000,0.000000,0.000000,0.000000 HipLeft:0.116245,-0.687033,0.697084,-0.168956 HipRight:-0.114671,0.666937,0.713498,-0.181565 KneeLeft:0.021976,-0.703943,0.046625,0.708384 KneeRight:-0.028507,0.709636,0.037405,0.702997 Neck:0.000182,-0.016032,0.995473,-0.093680 ShoulderLeft:0.017527,0.780756,-0.620432,0.071950 ShoulderRight:0.018713,0.784147,0.616313,-0.070151 SpineBase:-0.003691,-0.019342,0.998583,-0.049447 SpineMid:-0.002313,-0.019410,0.998587,-0.049421 SpineShoulder:-0.000391,-0.017786,0.997361,-0.070389 ThumbLeft:0.000000,0.000000,0.000000,0.000000 ThumbRight:0.000000,0.000000,0.000000,0.000000 WristLeft:-0.269529,0.532807,-0.221155,0.771078 WristRight:0.036126,-0.420224,-0.115060,0.899371 END:
KINECT_DATA POSITION:15.963632,-1.078767,6.359947 HEAD_JOINT1:0.979869,0.189062,-0.000000,0.064121 LARM_JOINT2:0.818443,0.000000,-0.279266,-0.502157 LARM_JOINT3:0.933472,0.000000,-0.337781,-0.120559 LLEG_JOINT2:0.997484,0.021547,0.000000,0.067536 LLEG_JOINT4:0.996579,0.071559,0.000000,-0.041353 RARM_JOINT2:0.796853,0.000000,-0.023223,0.603727 RARM_JOINT3:0.966631,0.000000,0.206120,0.152116 RLEG_JOINT2:0.999561,0.007907,0.000000,-0.028553 RLEG_JOINT4:0.995067,0.093875,0.000000,0.032069 WAIST:0.999887,0.000000,0.000668,-0.015022 WAIST_JOINT0:0.999881,0.000000,-0.015365,-0.001090 WAIST_JOINT1:0.997278,0.073539,0.000000,-0.005351 END:
KINECT_DATA_Sensor  AnkleLeft:0.062763,0.746776,-0.069437,-0.658457 AnkleRight:0.064237,0.704240,0.079595,0.702556 ElbowLeft:-0.215651,0.904780,-0.082884,-0.357769 ElbowRight:0.004044,0.863722,0.180862,0.470379 FootLeft:0.000000,0.000000,0.000000,0.000000 FootRight:0.000000,0.000000,0.000000,0.000000 HandLeft:-0.376513,0.450365,-0.290418,0.755689 HandRight:0.087603,-0.437590,-0.084875,0.890863 HandTipLeft:0.000000,0.000000,0.000000,0.000000 HandTipRight:0.000000,0.000000,0.000000,0.000000 Head:0.000000,0.000000,0.000000,0.000000 HipLeft:0.121377,-0.688900,0.694482,-0.168459 HipRight:-0.114836,0.665975,0.715149,-0.178474 KneeLeft:-0.021820,0.706502,-0.052434,-0.705428 KneeRight:-0.025203,0.707360,0.036406,0.705465 Neck:0.015766,-0.022124,0.995503,-0.090746 ShoulderLeft:-0.001268,0.786686,-0.611316,0.086119 ShoulderRight:0.020215,0.783020,0.618712,-0.060557 SpineBase:-0.000317,-0.022453,0.998689,-0.045991 SpineMid:0.007169,-0.022798,0.998664,-0.045821 SpineShoulder:0.015393,-0.021281,0.997370,-0.067551 ThumbLeft:0.000000,0.000000,0.000000,0.000000 ThumbRight:0.000000,0.000000,0.000000,0.000000 WristLeft:-0.288673,0.482401,-0.255475,0.786569 WristRight:0.037790,-0.441379,-0.113790,0.889274 END:
KINECT_DATA POSITION:15.913023,-1.138726,6.547511 HEAD_JOINT1:0.980180,0.186564,-0.000000,0.066644 LARM_JOINT2:0.812842,0.000000,-0.375195,-0.445551 LARM_JOINT3:0.948984,0.000000,-0.293060,-0.116384 LLEG_JOINT2:0.997052,0.026166,0.000000,0.072123 LLEG_JOINT4:0.996577,0.068872,0.000000,-0.045728 RARM_JOINT2:0.794699,0.000000,-0.028500,0.606335 RARM_JOINT3:0.966512,0.000000,0.199920,0.160892 RLEG_JOINT2:0.999663,0.007075,0.000000,-0.024977 RLEG_JOINT4:0.995159,0.094347,0.000000,0.027507 WAIST:0.999821,0.000000,-0.006206,-0.017859 WAIST_JOINT0:0.999258,0.000000,-0.035565,-0.014778 WAIST_JOINT1:0.997489,0.070486,0.000000,-0.006835 END:
KINECT_DATA_Sensor  AnkleLeft:0.064614,0.744147,-0.069795,-0.661210 AnkleRight:0.061083,0.693487,0.082071,0.713168 ElbowLeft:-0.294839,0.915577,-0.064994,-0.265640 ElbowRight:0.006364,0.861152,0.182016,0.474602 FootLeft:0.000000,0.000000,0.000000,0.000000 FootRight:0.000000,0.000000,0.000000,0.000000 HandLeft:-0.370787,0.452191,-0.271939,0.764258 HandRight:0.105161,-0.558877,-0.042540,0.821455 HandTipLeft:0.000000,0.000000,0.000000,0.000000 HandTipRight:0.000000,0.000000,0.000000,0.000000 Head:0.000000,0.000000,0.000000,0.000000 HipLeft:0.128122,-0.690115,0.691307,-0.171527 HipRight:-0.113025,0.665277,0.717205,-0.173921 KneeLeft:-0.020235,0.711691,-0.056730,-0.699906 KneeRight:-0.025116,0.702413,0.035378,0.710446 Neck:0.036136,-0.028716,0.995282,-0.085343 ShoulderLeft:-0.028405,0.797411,-0.593226,0.106824 ShoulderRight:0.019610,0.782397,0.620394,-0.050808 SpineBase:0.006693,-0.024072,0.998740,-0.043518 SpineMid:0.020932,-0.024690,0.998543,-0.043171 SpineShoulder:0.035975,-0.025414,0.996927,-0.064776 ThumbLeft:0.000000,0.000000,0.000000,0.000000 ThumbRight:0.000000,0.000000,0.000000,0.000000 WristLeft:-0.324019,0.470613,-0.263071,0.777386 WristRight:0.051674,-0.561519,-0.106971,0.818892 END:
KINECT_DATA POSITION:15.913859,-1.198441,6.629848 HEAD_JOINT1:0.982069,0.175577,-0.000000,0.068650 LARM_JOINT2:0.808299,0.000000,-0.449446,-0.380329 LARM_JOINT3:0.958181,0.000000,-0.267399,-0.101916 LLEG_JOINT2:0.996788,0.029454,0.000000,0.074478 LLEG_JOINT4:0.996404,0.068425,0.000000,-0.049973 RARM_JOINT2:0.792354,0.000000,-0.029944,0.609326 RARM_JOINT3:0.965877,0.000000,0.203102,0.160721 RLEG_JOINT2:0.999682,0.005391,0.000000,-0.024616 RLEG_JOINT4:0.994583,0.099683,0.000000,0.029479 WAIST:0.999723,0.000000,-0.014419,-0.018612 WAIST_JOINT0:0.998237,0.000000,-0.056179,-0.019156 WAIST_JOINT1:0.997762,0.066191,0.000000,-0.009449 END:
KINECT_DATA_Sensor  AnkleLeft:0.065714,0.729881,-0.072121,-0.676576 AnkleRight:0.064678,0.681167,0.083409,0.724480 ElbowLeft:-0.370000,0.902548,-0.049975,-0.214499 ElbowRight:0.005388,0.857754,0.180013,0.481481 FootLeft:0.000000,0.000000,0.000000,0.000000 FootRight:0.000000,0.000000,0.000000,0.000000 HandLeft:-0.382548,0.452437,-0.265770,0.760476 HandRight:0.109417,-0.498401,-0.069918,0.857167 HandTipLeft:0.000000,0.000000,0.000000,0.000000 HandTipRight:0.000000,0.000000,0.000000,0.000000 Head:0.000000,0.000000,0.000000,0.000000 HipLeft:-0.135493,0.689871,-0.689233,0.175149 HipRight:-0.110298,0.665994,0.718021,-0.169502 KneeLeft:-0.019646,0.717592,-0.059933,-0.693602 KneeRight:-0.026418,0.696563,0.034581,0.716175 Neck:0.056958,-0.031948,0.994665,-0.079854 ShoulderLeft:-0.054612,0.799792,-0.584415,0.125736 ShoulderRight:0.020487,0.782351,0.621342,-0.037954 SpineBase:0.014884,-0.025097,0.998705,-0.041674 SpineMid:0.035396,-0.025947,0.998189,-0.041149 SpineShoulder:0.056735,-0.029076,0.996137,-0.060386 ThumbLeft:0.000000,0.000000,0.000000,0.000000 ThumbRight:0.000000,0.000000,0.000000,0.000000 WristLeft:-0.360945,0.466459,-0.289406,0.753910 WristRight:0.044062,-0.502371,-0.113128,0.856086 END:
KINECT_DATA POSITION:15.990506,-1.164314,6.536746 HEAD_JOINT1:0.982521,0.170979,-0.000000,0.073617 LARM_JOINT2:0.825511,0.000000,-0.433967,-0.360838 LARM_JOINT3:0.941696,0.000000,-0.319928,-0.104192 LLEG_JOINT2:0.997107,0.027668,0.000000,0.070798 LLEG_JOINT4:0.996030,0.072095,0.000000,-0.052222 RARM_JOINT2:0.792523,0.000000,-0.029551,0.609126 RARM_JOINT3:0.967713,0.000000,0.196645,0.157675 RLEG_JOINT2:0.999573,0.002163,0.000000,-0.029127 RLEG_JOINT4:0.994590,0.100642,0.000000,0.025723 WAIST:0.999621,0.000000,-0.022921,-0.015275 WAIST_JOINT0:0.997827,0.000000,-0.064103,-0.015241 WAIST_JOINT1:0.997826,0.064837,0.000000,-0.011784 END:
KINECT_DATA_Sensor  AnkleLeft:0.067826,0.731631,-0.072441,-0.674439 AnkleRight:0.060531,0.677333,0.084562,0.728289 ElbowLeft:-0.379450,0.895391,-0.071977,-0.221613 ElbowRight:0.005999,0.854782,0.178523,0.487280 FootLeft:0.000000,0.000000,0.000000,0.000000 FootRight:0.000000,0.000000,0.000000,0.000000 HandLeft:-0.443274,0.427398,-0.280260,0.736406 HandRight:0.089918,-0.531175,-0.056124,0.840605 HandTipLeft:0.000000,0.000000,0.000000,0.000000 HandTipRight:0.000000,0.000000,0.000000,0.000000 Head:0.000000,0.000000,0.000000,0.000000 HipLeft:0.138891,-0.686851,0.690786,-0.178215 HipRight:-0.104082,0.669595,0.717002,-0.163452 KneeLeft:-0.021212,0.723194,-0.058167,-0.687864 KneeRight:-0.029321,0.690608,0.033376,0.721863 Neck:0.065607,-0.029593,0.994262,-0.079138 ShoulderLeft:-0.061049,0.796148,-0.587394,0.131870 ShoulderRight:0.025082,0.782210,0.621765,-0.030441 SpineBase:0.023114,-0.024320,0.998584,-0.041278 SpineMid:0.043814,-0.025171,0.997890,-0.040765 SpineShoulder:0.065324,-0.027783,0.995727,-0.059068 ThumbLeft:0.000000,0.000000,0.000000,0.000000 ThumbRight:0.000000,0.000000,0.000000,0.000000 WristLeft:-0.365476,0.465642,-0.300199,0.747987 WristRight:0.046828,-0.533479,-0.111941,0.837065 END:
KINECT_DATA POSITION:15.964881,-1.128029,6.451523 HEAD_JOINT1:0.982567,0.167465,-0.000000,0.080731 LARM_JOINT2:0.810690,0.000000,-0.469681,-0.349545 LARM_JOINT3:0.964647,0.000000,-0.241206,-0.106189 LLEG_JOINT2:0.997171,0.032345,0.000000,0.067856 LLEG_JOINT4:0.996225,0.067889,0.000000,-0.054105 RARM_JOINT2:0.794240,0.000000,-0.027925,0.606962 RARM_JOINT3:0.968449,0.000000,0.192194,0.158646 RLEG_JOINT2:0.999484,-0.003964,-0.000000,-0.031876 RLEG_JOINT4:0.994121,0.105904,0.000000,0.022513 WAIST:0.999120,0.000000,-0.040012,-0.012596 WAIST_JOINT0:0.996096,0.000000,-0.087248,-0.013421 WAIST_JOINT1:0.997730,0.065369,0.000000,-0.016197 END:
KINECT_DATA_Sensor  AnkleLeft:0.069577,0.754475,-0.071125,-0.648743 AnkleRight:0.058939,0.664099,0.085268,0.740424 ElbowLeft:-0.398184,0.901352,-0.051416,-0.162390 ElbowRight:0.008698,0.852669,0.181908,0.489683 FootLeft:0.000000,0.000000,0.000000,0.000000 FootRight:0.000000,0.000000,0.000000,0.000000 HandLeft:-0.364619,0.451189,-0.260429,0.771789 HandRight:0.065895,-0.469864,-0.064290,0.877925 HandTipLeft:0.000000,0.000000,0.000000,0.000000 HandTipRight:0.000000,0.000000,0.000000,0.000000 Head:0.000000,0.000000,0.000000,0.000000 HipLeft:0.148971,-0.681846,0.691284,-0.187136 HipRight:-0.091738,0.672748,0.717987,-0.153260 KneeLeft:-0.018923,0.734910,-0.060942,-0.675156 KneeRight:-0.033399,0.678445,0.029675,0.733292 Neck:0.090317,-0.030843,0.992188,-0.080340 ShoulderLeft:-0.090833,0.789561,-0.585426,0.160062 ShoulderRight:0.028619,0.779984,0.624788,-0.021142 SpineBase:0.039904,-0.024979,0.998007,-0.042025 SpineMid:0.064508,-0.026008,0.996719,-0.041396 SpineShoulder:0.090061,-0.028898,0.993737,-0.059501 ThumbLeft:0.000000,0.000000,0.000000,0.000000 ThumbRight:0.000000,0.000000,0.000000,0.000000 WristLeft:-0.356829,0.460780,-0.294238,0.757482 WristRight:0.034596,-0.471337,-0.113242,0.873968 END:
KINECT_DATA POSITION:15.805091,-1.059901,6.376243 HEAD_JOINT1:0.983459,0.161233,-0.000000,0.082533 LARM_JOINT2:0.802362,0.000000,-0.479746,-0.355048 LARM_JOINT3:0.977675,0.000000,-0.192965,-0.083157 LLEG_JOINT2:0.996653,0.039727,0.000000,0.071450 LLEG_JOINT4:0.996366,0.060380,0.000000,-0.060074 RARM_JOINT2:0.795374,0.000000,-0.028528,0.605447 RARM_JOINT3:0.969102,0.000000,0.186445,0.161493 RLEG_JOINT2:0.999540,-0.009052,-0.000000,-0.028959 RLEG_JOINT4:0.993811,0.109672,0.000000,0.017634 WAIST:0.998296,0.000000,-0.056769,-0.013508 WAIST_JOINT0:0.993446,0.000000,-0.113052,-0.016830 WAIST_JOINT1:0.997520,0.067798,0.000000,-0.018900 END:
KINECT_DATA_Sensor  AnkleLeft:0.066087,0.725474,-0.073848,-0.681078 AnkleRight:0.056981,0.649050,0.085552,0.753769 ElbowLeft:-0.396236,0.904433,-0.023350,-0.156374 ElbowRight:0.013390,0.847403,0.187627,0.496513 FootLeft:0.000000,0.000000,0.000000,0.000000 FootRight:0.000000,0.000000,0.000000,0.000000 HandLeft:-0.316544,0.457391,-0.278782,0.782863 HandRight:0.059177,-0.481530,-0.053019,0.872821 HandTipLeft:0.000000,0.000000,0.000000,0.000000 HandTipRight:0.000000,0.000000,0.000000,0.000000 Head:0.000000,0.000000,0.000000,0.000000 HipLeft:0.160649,-0.678780,0.688654,-0.198002 HipRight:-0.081331,0.672907,0.720572,-0.146142 KneeLeft:-0.017149,0.746441,-0.067734,-0.661773 KneeRight:-0.035542,0.666362,0.025177,0.744356 Neck:0.116129,-0.035181,0.989052,-0.083976 ShoulderLeft:-0.115325,0.782256,-0.583127,0.186381 ShoulderRight:0.039781,0.774727,0.630980,-0.008962 SpineBase:0.056559,-0.027718,0.997068,-0.043447 SpineMid:0.085682,-0.028976,0.994989,-0.042618 SpineShoulder:0.115995,-0.031622,0.990841,-0.061478 ThumbLeft:0.000000,0.000000,0.000000,0.000000 ThumbRight:0.000000,0.000000,0.000000,0.000000 WristLeft:-0.339548,0.450551,-0.302201,0.768365 WristRight:0.026279,-0.482278,-0.109214,0.868786 END:
KINECT_DATA POSITION:15.753765,-1.030590,6.321847 HEAD_JOINT1:0.983115,0.162006,-0.000000,0.085077 LARM_JOINT2:0.821379,0.000000,-0.445328,-0.356398 LARM_JOINT3:0.964888,0.000000,-0.244525,-0.095911 LLEG_JOINT2:0.996573,0.040385,0.000000,0.072186 LLEG_JOINT4:0.996324,0.060315,0.000000,-0.060832 RARM_JOINT2:0.795118,0.000000,-0.029673,0.605728 RARM_JOINT3:0.965604,0.000000,0.198588,0.167844 RLEG_JOINT2:0.999552,-0.010065,-0.000000,-0.028179 RLEG_JOINT4:0.994036,0.107691,0.000000,0.017156 WAIST:0.998050,0.000000,-0.060789,-0.014143 WAIST_JOINT0:0.993816,0.000000,-0.109577,-0.017974 WAIST_JOINT1:0.997453,0.068555,0.000000,-0.019708 END:
KINECT_DATA_Sensor  AnkleLeft:0.070725,0.765672,-0.070150,-0.635471 AnkleRight:0.055365,0.651266,0.083140,0.752247 ElbowLeft:-0.383568,0.904982,-0.048410,-0.177595 ElbowRight:0.015133,0.844983,0.189125,0.500006 FootLeft:0.000000,0.000000,0.000000,0.000000 FootRight:0.000000,0.000000,0.000000,0.000000 HandLeft:-0.370176,0.465655,-0.253767,0.762717 HandRight:0.105200,-0.470090,-0.095180,0.871142 HandTipLeft:0.000000,0.000000,0.000000,0.000000 HandTipRight:0.000000,0.000000,0.000000,0.000000 Head:0.000000,0.000000,0.000000,0.000000 HipLeft:0.162321,-0.678753,0.687609,-0.200348 HipRight:-0.078501,0.672908,0.721135,-0.144902 KneeLeft:-0.017122,0.749144,-0.068160,-0.658669 KneeRight:-0.036169,0.663438,0.024481,0.746956 Neck:0.112815,-0.035964,0.989320,-0.085006 ShoulderLeft:-0.105265,0.783431,-0.585325,0.180417 ShoulderRight:0.045045,0.772760,0.633049,-0.007901 SpineBase:0.060574,-0.028640,0.996770,-0.044283 SpineMid:0.086105,-0.029766,0.994889,-0.043534 SpineShoulder:0.112680,-0.032243,0.991138,-0.062527 ThumbLeft:0.000000,0.000000,0.000000,0.000000 ThumbRight:0.000000,0.000000,0.000000,0.000000 WristLeft:-0.352486,0.478740,-0.284930,0.751915 WristRight:0.021433,-0.475934,-0.107778,0.872589 END:
KINECT_DATA POSITION:15.785946,-1.065807,6.313276 HEAD_JOINT1:0.982673,0.165354,-0.000000,0.083742 LARM_JOINT2:0.831560,0.000000,-0.426146,-0.356240 LARM_JOINT3:0.953016,0.000000,-0.284008,-0.105361 LLEG_JOINT2:0.996782,0.038131,0.000000,0.070506 LLEG_JOINT4:0.996412,0.062203,0.000000,-0.057391 RARM_JOINT2:0.795429,0.000000,-0.020655,0.605694 RARM_JOINT3:0.962779,0.000000,0.208735,0.171717 RLEG_JOINT2:0.999511,-0.008392,-0.000000,-0.030107 RLEG_JOINT4:0.993607,0.111302,0.000000,0.018916 WAIST:0.998490,0.000000,-0.053367,-0.013047 WAIST_JOINT0:0.995869,0.000000,-0.089038,-0.017829 WAIST_JOINT1:0.997543,0.067670,0.000000,-0.018144 END:
KINECT_DATA_Sensor  AnkleLeft:0.066926,0.741698,-0.073468,-0.663330 AnkleRight:0.060166,0.662889,0.085978,0.741327 ElbowLeft:-0.378525,0.900966,-0.066971,-0.201232 ElbowRight:0.009169,0.854498,0.183947,0.485708 FootLeft:0.000000,0.000000,0.000000,0.000000 FootRight:0.000000,0.000000,0.000000,0.000000 HandLeft:-0.398274,0.461338,-0.251487,0.751864 HandRight:-0.178038,0.819519,0.048639,-0.542518 HandTipLeft:0.000000,0.000000,0.000000,0.000000 HandTipRight:0.000000,0.000000,0.000000,0.000000 Head:0.000000,0.000000,0.000000,0.000000 HipLeft:0.156970,-0.680347,0.688521,-0.196030 HipRight:-0.083526,0.673910,0.718733,-0.149305 KneeLeft:-0.017593,0.744073,-0.066329,-0.664564 KneeRight:-0.035545,0.668873,0.026058,0.742069 Neck:0.092387,-0.031790,0.991686,-0.083749 ShoulderLeft:-0.079574,0.789596,-0.587828,0.157048 ShoulderRight:0.042388,0.773810,0.631809,-0.015480 SpineBase:0.053141,-0.027337,0.997241,-0.044039 SpineMid:0.072217,-0.028175,0.996041,-0.043508 SpineShoulder:0.092141,-0.029586,0.993362,-0.062176 ThumbLeft:0.000000,0.000000,0.000000,0.000000 ThumbRight:0.000000,0.000000,0.000000,0.000000 WristLeft:-0.363601,0.482429,-0.284621,0.744344 WristRight:-0.082748,0.836179,0.081381,-0.536036 END:
KINECT_DATA POSITION:15.818018,-1.106263,6.345510 HEAD_JOINT1:0.981802,0.170524,-0.000000,0.083588 LARM_JOINT2:0.817732,0.000000,-0.452158,-0.356185 LARM_JOINT3:0.965496,0.000000,-0.241477,-0.097502 LLEG_JOINT2:0.996948,0.036382,0.000000,0.069073 LLEG_JOINT4:0.996490,0.061860,0.000000,-0.056404 RARM_JOINT2:0.795155,0.000000,-0.014368,0.606235 RARM_JOINT3:0.966449,0.000000,0.196478,0.165447 RLEG_JOINT2:0.999468,-0.006763,-0.000000,-0.031901 RLEG_JOINT4:0.994087,0.106707,0.000000,0.020123 WAIST:0.998893,0.000000,-0.045513,-0.011860 WAIST_JOINT0:0.996531,0.000000,-0.081472,-0.016985 WAIST_JOINT1:0.997614,0.067068,0.000000,-0.016397 END:
KINECT_DATA_Sensor  AnkleLeft:0.067300,0.751866,-0.070492,-0.652073 AnkleRight:0.064316,0.725572,0.079245,0.680536 ElbowLeft:-0.387524,0.902356,-0.055160,-0.180379 ElbowRight:0.004150,0.859376,0.178717,0.479078 FootLeft:0.000000,0.000000,0.000000,0.000000 FootRight:0.000000,0.000000,0.000000,0.000000 HandLeft:-0.351221,0.468667,-0.271082,0.763878 HandRight:0.097112,-0.502648,-0.079142,0.855366 HandTipLeft:0.000000,0.000000,0.000000,0.000000 HandTipRight:0.000000,0.000000,0.000000,0.000000 Head:0.000000,0.000000,0.000000,0.000000 HipLeft:0.153199,-0.680893,0.689739,-0.192808 HipRight:-0.090183,0.674103,0.716635,-0.154552 KneeLeft:-0.017972,0.738700,-0.065114,-0.670641 KneeRight:-0.034845,0.674560,0.027428,0.736887 Neck:0.084895,-0.028955,0.992528,-0.082721 ShoulderLeft:-0.076586,0.790403,-0.588483,0.151938 ShoulderRight:0.035506,0.774935,0.630654,-0.022151 SpineBase:0.045297,-0.025411,0.997698,-0.043598 SpineMid:0.064542,-0.026247,0.996638,-0.043100 SpineShoulder:0.084630,-0.027371,0.994132,-0.061558 ThumbLeft:0.000000,0.000000,0.000000,0.000000 ThumbRight:0.000000,0.000000,0.000000,0.000000 WristLeft:-0.350821,0.472424,-0.292691,0.753706 WristRight:0.046654,-0.506340,-0.113326,0.853581 END:
KINECT_DATA POSITION:15.717824,-1.148021,6.393838 HEAD_JOINT1:0.981407,0.174441,-0.000000,0.080065 LARM_JOINT2:0.806609,0.000000,-0.464259,-0.365850 LARM_JOINT3:0.975311,0.000000,-0.208296,-0.073362 LLEG_JOINT2:0.996848,0.035890,0.000000,0.070760 LLEG_JOINT4:0.996581,0.061508,0.000000,-0.055165 RARM_JOINT2:0.795915,0.000000,-0.019930,0.605080 RARM_JOINT3:0.970035,0.000000,0.183671,0.159050 RLEG_JOINT2:0.999546,-0.006013,-0.000000,-0.029536 RLEG_JOINT4:0.993826,0.109283,0.000000,0.019170 WAIST:0.999039,0.000000,-0.041850,-0.013027 WAIST_JOINT0:0.996198,0.000000,-0.084550,-0.021003 WAIST_JOINT1:0.997622,0.067090,0.000000,-0.015777 END:
KINECT_DATA_Sensor  AnkleLeft:0.065183,0.744756,-0.071357,-0.660301 AnkleRight:0.067023,0.729688,0.081138,0.675633 ElbowLeft:-0.385607,0.901307,-0.031096,-0.194902 ElbowRight:0.007566,0.862405,0.182181,0.472240 FootLeft:0.000000,0.000000,0.000000,0.000000 FootRight:0.000000,0.000000,0.000000,0.000000 HandLeft:-0.319986,0.508210,-0.286120,0.746637 HandRight:-0.079617,0.743107,0.041156,-0.663143 HandTipLeft:0.000000,0.000000,0.000000,0.000000 HandTipRight:0.000000,0.000000,0.000000,0.000000 Head:0.000000,0.000000,0.000000,0.000000 HipLeft:0.151374,-0.682027,0.689611,-0.190685 HipRight:-0.092283,0.672735,0.717304,-0.156164 KneeLeft:-0.018453,0.736272,-0.065170,-0.673288 KneeRight:-0.033590,0.677244,0.026919,0.734498 Neck:0.087743,-0.030530,0.992249,-0.082525 ShoulderLeft:-0.081478,0.792180,-0.584494,0.155492 ShoulderRight:0.034610,0.773700,0.632225,-0.021945 SpineBase:0.041724,-0.025970,0.997852,-0.043317 SpineMid:0.064142,-0.026937,0.996662,-0.042722 SpineShoulder:0.087499,-0.028478,0.993871,-0.061264 ThumbLeft:0.000000,0.000000,0.000000,0.000000 ThumbRight:0.000000,0.000000,0.000000,0.000000 WristLeft:-0.351240,0.493532,-0.291930,0.740158 WristRight:-0.067359,0.746050,0.088209,-0.656575 END:
KINECT_DATA POSITION:15.895909,-1.205446,6.345594 HEAD_JOINT1:0.983764,0.173924,-0.000000,0.044252 LARM_JOINT2:0.794134,0.000000,-0.474632,-0.379573 LARM_JOINT3:0.989367,0.000000,-0.143849,-0.021440 LLEG_JOINT2:0.997194,0.029422,0.000000,0.068844 LLEG_JOINT4:0.996490,0.067659,0.000000,-0.049305 RARM_JOINT2:0.804921,0.000000,-0.019330,0.593067 RARM_JOINT3:0.963041,0.000000,0.199932,0.180498 RLEG_JOINT2:0.999560,-0.003257,-0.000000,-0.029497 RLEG_JOINT4:0.993613,0.110031,0.000000,0.025013 WAIST:0.999542,0.000000,-0.025948,-0.015545 WAIST_JOINT0:0.997457,0.000000,-0.065557,-0.027956 WAIST_JOINT1:0.997672,0.066998,0.000000,-0.012688 END:
KINECT_DATA_Sensor  AnkleLeft:0.066193,0.743662,-0.070289,-0.661548 AnkleRight:0.067940,0.717711,0.084086,0.687898 ElbowLeft:-0.379872,0.889386,0.003061,-0.254324 ElbowRight:0.003657,0.880268,0.194961,0.432556 FootLeft:0.000000,0.000000,0.000000,0.000000 FootRight:0.000000,0.000000,0.000000,0.000000 HandLeft:-0.266196,0.563174,-0.347838,0.700702 HandRight:0.122565,-0.374483,-0.135815,0.909007 HandTipLeft:0.000000,0.000000,0.000000,0.000000 HandTipRight:0.000000,0.000000,0.000000,0.000000 Head:0.000000,0.000000,0.000000,0.000000 HipLeft:0.138109,-0.687227,0.690281,-0.179326 HipRight:-0.099236,0.670206,0.717458,-0.161961 KneeLeft:-0.018604,0.725368,-0.057801,-0.685678 KneeRight:-0.033626,0.688536,0.030166,0.723794 Neck:0.067768,-0.030587,0.993839,-0.082193 ShoulderLeft:-0.071243,0.797545,-0.582160,0.141193 ShoulderRight:0.019114,0.771540,0.634636,-0.039973 SpineBase:0.026097,-0.025792,0.998397,-0.043094 SpineMid:0.046348,-0.026661,0.997662,-0.042562 SpineShoulder:0.067463,-0.028716,0.995441,-0.060996 ThumbLeft:0.000000,0.000000,0.000000,0.000000 ThumbRight:0.000000,0.000000,0.000000,0.000000 WristLeft:-0.304951,0.540971,-0.316796,0.716935 WristRight:0.023027,-0.386856,-0.103424,0.916032 END:
KINECT_DATA POSITION:16.456161,-1.283649,6.135261 HEAD_JOINT1:0.983841,0.177090,-0.000000,0.026361 LARM_JOINT2:0.794620,0.000000,-0.463876,-0.391660 LARM_JOINT3:0.988759,0.000000,-0.149239,-0.009085 LLEG_JOINT2:0.997643,0.026105,0.000000,0.063457 LLEG_JOINT4:0.996809,0.067421,0.000000,-0.042732 RARM_JOINT2:0.809394,0.000000,-0.009163,0.587194 RARM_JOINT3:0.958471,0.000000,0.207499,0.195648 RLEG_JOINT2:0.999398,-0.003786,-0.000000,-0.034486 RLEG_JOINT4:0.993424,0.108855,0.000000,0.035494 WAIST:0.999830,0.000000,-0.009352,-0.015894 WAIST_JOINT0:0.998525,0.000000,-0.049424,-0.022486 WAIST_JOINT1:0.997601,0.068498,0.000000,-0.009993 END:
KINECT_DATA_Sensor  AnkleLeft:0.065749,0.746611,-0.066242,-0.658681 AnkleRight:0.067723,0.719375,0.081312,0.686514 ElbowLeft:-0.364742,0.840640,0.045208,-0.397799 ElbowRight:-0.006769,0.889222,0.196946,0.412858 FootLeft:0.000000,0.000000,0.000000,0.000000 FootRight:0.000000,0.000000,0.000000,0.000000 HandLeft:-0.273343,0.557549,-0.312206,0.718992 HandRight:0.187510,-0.511560,-0.088469,0.833858 HandTipLeft:0.000000,0.000000,0.000000,0.000000 HandTipRight:0.000000,0.000000,0.000000,0.000000 Head:0.000000,0.000000,0.000000,0.000000 HipLeft:0.125971,-0.689289,0.692929,-0.169888 HipRight:-0.106814,0.667670,0.716981,-0.169546 KneeLeft:-0.015718,0.713860,-0.051882,-0.698187 KneeRight:-0.038062,0.700138,0.033218,0.712218 Neck:0.052297,-0.029139,0.994701,-0.083576 ShoulderLeft:-0.065780,0.794611,-0.588479,0.134013 ShoulderRight:0.004817,0.772014,0.633058,-0.056655 SpineBase:0.009639,-0.024594,0.998676,-0.044147 SpineMid:0.030358,-0.025505,0.998261,-0.043627 SpineShoulder:0.051947,-0.027692,0.996322,-0.062273 ThumbLeft:0.000000,0.000000,0.000000,0.000000 ThumbRight:0.000000,0.000000,0.000000,0.000000 WristLeft:-0.287240,0.552013,-0.356603,0.696856 WristRight:0.053696,-0.520668,-0.106223,0.845422 END:
KINECT_DATA POSITION:16.851597,-1.344496,5.958176 HEAD_JOINT1:0.983660,0.178428,-0.000000,0.023994 LARM_JOINT2:0.792141,0.000000,-0.465007,-0.395325 LARM_JOINT3:0.987176,0.000000,-0.159128,-0.012694 LLEG_JOINT2:0.997873,0.025902,0.000000,0.059815 LLEG_JOINT4:0.996994,0.065565,0.000000,-0.041280 RARM_JOINT2:0.810088,0.000000,-0.006585,0.586272 RARM_JOINT3:0.961026,0.000000,0.198196,0.192738 RLEG_JOINT2:0.999232,-0.005952,-0.000000,-0.038742 RLEG_JOINT4:0.992872,0.112293,0.000000,0.039936 WAIST:0.999866,0.000000,-0.005134,-0.015536 WAIST_JOINT0:0.998812,0.000000,-0.044158,-0.020606 WAIST_JOINT1:0.997504,0.069999,0.000000,-0.009288 END:
KINECT_DATA_Sensor  AnkleLeft:0.065066,0.736655,-0.064027,-0.670080 AnkleRight:0.067796,0.713845,0.082861,0.692071 ElbowLeft:-0.361131,0.838995,0.047059,-0.404298 ElbowRight:-0.007900,0.891661,0.196780,0.407622 FootLeft:0.000000,0.000000,0.000000,0.000000 FootRight:0.000000,0.000000,0.000000,0.000000 HandLeft:-0.291665,0.565752,-0.296404,0.712039 HandRight:0.140633,-0.504485,-0.060500,0.849739 HandTipLeft:0.000000,0.000000,0.000000,0.000000 HandTipRight:0.000000,0.000000,0.000000,0.000000 Head:0.000000,0.000000,0.000000,0.000000 HipLeft:0.123682,-0.688820,0.693868,-0.169637 HipRight:-0.109031,0.666816,0.716597,-0.173080 KneeLeft:-0.013266,0.710930,-0.049534,-0.701391 KneeRight:-0.042434,0.702945,0.034350,0.709145 Neck:0.047095,-0.028246,0.994859,-0.085087 ShoulderLeft:-0.062203,0.792946,-0.591581,0.131909 ShoulderRight:0.001670,0.771792,0.632800,-0.062435 SpineBase:0.005444,-0.023857,0.998660,-0.045610 SpineMid:0.025671,-0.024775,0.998344,-0.045118 SpineShoulder:0.046741,-0.026937,0.996504,-0.063791 ThumbLeft:0.000000,0.000000,0.000000,0.000000 ThumbRight:0.000000,0.000000,0.000000,0.000000 WristLeft:-0.298429,0.564348,-0.350443,0.685304 WristRight:0.057140,-0.509775,-0.107155,0.851694 END:
KINECT_DATA POSITION:16.922703,-1.354952,5.880880 HEAD_JOINT1:0.983615,0.178308,-0.000000,0.026620 LARM_JOINT2:0.796560,0.000000,-0.453686,-0.399576 LARM_JOINT3:0.975931,0.000000,-0.216576,-0.025560 LLEG_JOINT2:0.997889,0.025498,0.000000,0.059721 LLEG_JOINT4:0.997077,0.064894,0.000000,-0.040338 RARM_JOINT2:0.810112,0.000000,-0.008580,0.586213 RARM_JOINT3:0.964475,0.000000,0.188670,0.184909 RLEG_JOINT2:0.999236,-0.006577,-0.000000,-0.038514 RLEG_JOINT4:0.992629,0.115312,0.000000,0.037283 WAIST:0.999864,0.000000,-0.004172,-0.015975 WAIST_JOINT0:0.998961,0.000000,-0.040082,-0.021694 WAIST_JOINT1:0.997472,0.070512,0.000000,-0.008763 END:
KINECT_DATA_Sensor  AnkleLeft:0.062669,0.721344,-0.064936,-0.686672 AnkleRight:0.068170,0.719369,0.086137,0.685888 ElbowLeft:-0.355769,0.841211,0.035974,-0.405584 ElbowRight:-0.006585,0.890930,0.197608,0.408842 FootLeft:0.000000,0.000000,0.000000,0.000000 FootRight:0.000000,0.000000,0.000000,0.000000 HandLeft:-0.362751,0.518501,-0.276390,0.723310 HandRight:0.099456,-0.552332,-0.040672,0.826670 HandTipLeft:0.000000,0.000000,0.000000,0.000000 HandTipRight:0.000000,0.000000,0.000000,0.000000 Head:0.000000,0.000000,0.000000,0.000000 HipLeft:0.123070,-0.689029,0.693725,-0.169816 HipRight:-0.109506,0.666240,0.716819,-0.174080 KneeLeft:-0.013116,0.710267,-0.048893,-0.702109 KneeRight:-0.043053,0.703585,0.034026,0.708489 Neck:0.042801,-0.027947,0.995010,-0.085683 ShoulderLeft:-0.055179,0.794567,-0.591289,0.126477 ShoulderRight:0.002822,0.771711,0.632780,-0.063594 SpineBase:0.004532,-0.023832,0.998640,-0.046158 SpineMid:0.023089,-0.024686,0.998383,-0.045707 SpineShoulder:0.042437,-0.026719,0.996664,-0.064385 ThumbLeft:0.000000,0.000000,0.000000,0.000000 ThumbRight:0.000000,0.000000,0.000000,0.000000 WristLeft:-0.309912,0.545552,-0.354764,0.693160 WristRight:0.058586,-0.555093,-0.102638,0.823350 END:
KINECT_DATA POSITION:16.748901,-1.351020,5.874074 HEAD_JOINT1:0.982773,0.180138,-0.000000,0.041331 LARM_JOINT2:0.798523,0.000000,-0.467799,-0.378847 LARM_JOINT3:0.971084,0.000000,-0.232906,-0.052443 LLEG_JOINT2:0.997840,0.023265,0.000000,0.061440 LLEG_JOINT4:0.997008,0.065854,0.000000,-0.040475 RARM_JOINT2:0.808679,0.000000,-0.011806,0.588131 RARM_JOINT3:0.964165,0.000000,0.194154,0.180802 RLEG_JOINT2:0.999297,-0.004903,-0.000000,-0.037154 RLEG_JOINT4:0.993337,0.109890,0.000000,0.034725 WAIST:0.999864,0.000000,-0.004359,-0.015929 WAIST_JOINT0:0.998782,0.000000,-0.045267,-0.019613 WAIST_JOINT1:0.997457,0.070867,0.000000,-0.007571 END:
KINECT_DATA_Sensor  AnkleLeft:0.061924,0.735240,-0.063990,-0.671932 AnkleRight:0.060774,0.688267,0.087263,0.717621 ElbowLeft:-0.376312,0.877429,-0.007437,-0.297410 ElbowRight:-0.003806,0.888030,0.195554,0.416109 FootLeft:0.000000,0.000000,0.000000,0.000000 FootRight:0.000000,0.000000,0.000000,0.000000 HandLeft:-0.359922,0.494095,-0.291976,0.735579 HandRight:0.101740,-0.520419,-0.062102,0.845551 HandTipLeft:0.000000,0.000000,0.000000,0.000000 HandTipRight:0.000000,0.000000,0.000000,0.000000 Head:0.000000,0.000000,0.000000,0.000000 HipLeft:0.123523,-0.688668,0.693768,-0.170777 HipRight:-0.110180,0.666097,0.716762,-0.174434 KneeLeft:-0.015959,0.710288,-0.048549,-0.702053 KneeRight:-0.040871,0.703469,0.034210,0.708725 Neck:0.048609,-0.027019,0.994742,-0.085998 ShoulderLeft:-0.059572,0.793461,-0.591219,0.131648 ShoulderRight:0.005969,0.772708,0.631930,-0.059591 SpineBase:0.004755,-0.022969,0.998652,-0.046310 SpineMid:0.026077,-0.023953,0.998322,-0.045809 SpineShoulder:0.048264,-0.025902,0.996406,-0.064614 ThumbLeft:0.000000,0.000000,0.000000,0.000000 ThumbRight:0.000000,0.000000,0.000000,0.000000 WristLeft:-0.337983,0.508819,-0.331739,0.718902 WristRight:0.054385,-0.523780,-0.104108,0.843717 END:
KINECT_DATA POSITION:16.486668,-1.276541,5.907118 HEAD_JOINT1:0.982165,0.180296,-0.000000,0.053347 LARM_JOINT2:0.786681,0.000000,-0.490425,-0.374988 LARM_JOINT3:0.982527,0.000000,-0.181045,-0.043161 LLEG_JOINT2:0.997677,0.026535,0.000000,0.062749 LLEG_JOINT4:0.997213,0.061056,0.000000,-0.042873 RARM_JOINT2:0.808380,0.000000,-0.011743,0.588544 RARM_JOINT3:0.965904,0.000000,0.188504,0.177469 RLEG_JOINT2:0.999327,-0.006888,-0.000000,-0.036021 RLEG_JOINT4:0.992192,0.119788,0.000000,0.034720 WAIST:0.999812,0.000000,-0.012587,-0.014718 WAIST_JOINT0:0.997682,0.000000,-0.064909,-0.020413 WAIST_JOINT1:0.997423,0.070928,0.000000,-0.010794 END:
KINECT_DATA_Sensor  AnkleLeft:0.060401,0.743949,-0.063178,-0.662496 AnkleRight:0.071869,0.706796,0.088107,0.698220 ElbowLeft:-0.384502,0.894510,-0.005950,-0.227980 ElbowRight:-0.001887,0.886563,0.196889,0.418613 FootLeft:0.000000,0.000000,0.000000,0.000000 FootRight:0.000000,0.000000,0.000000,0.000000 HandLeft:-0.314411,0.528886,-0.320653,0.720144 HandRight:-0.098309,0.714830,0.040763,-0.691153 HandTipLeft:0.000000,0.000000,0.000000,0.000000 HandTipRight:0.000000,0.000000,0.000000,0.000000 Head:0.000000,0.000000,0.000000,0.000000 HipLeft:0.130896,-0.686142,0.693476,-0.176539 HipRight:-0.106389,0.667251,0.716862,-0.171949 KneeLeft:-0.015947,0.716026,-0.052436,-0.695919 KneeRight:-0.040450,0.697900,0.031412,0.714361 Neck:0.069668,-0.029659,0.993437,-0.085726 ShoulderLeft:-0.084004,0.790849,-0.586375,0.153834 ShoulderRight:0.010150,0.771375,0.634315,-0.050218 SpineBase:0.012781,-0.024316,0.998543,-0.046447 SpineMid:0.040524,-0.025598,0.997802,-0.045753 SpineShoulder:0.069356,-0.028151,0.995116,-0.064347 ThumbLeft:0.000000,0.000000,0.000000,0.000000 ThumbRight:0.000000,0.000000,0.000000,0.000000 WristLeft:-0.333977,0.517254,-0.306439,0.725950 WristRight:-0.072353,0.720463,0.086652,-0.684244 END:
KINECT_DATA POSITION:16.346466,-1.219557,5.868733 HEAD_JOINT1:0.982149,0.179214,-0.000000,0.057149 LARM_JOINT2:0.783403,0.000000,-0.499745,-0.369506 LARM_JOINT3:0.987002,0.000000,-0.155025,-0.042366 LLEG_JOINT2:0.997587,0.027716,0.000000,0.063652 LLEG_JOINT4:0.997164,0.061008,0.000000,-0.044073 RARM_JOINT2:0.807217,0.000000,-0.013278,0.590105 RARM_JOINT3:0.965808,0.000000,0.186170,0.180433 RLEG_JOINT2:0.999351,-0.007975,-0.000000,-0.035128 RLEG_JOINT4:0.992855,0.115592,0.000000,0.029631 WAIST:0.999728,0.000000,-0.018295,-0.014469 WAIST_JOINT0:0.997081,0.000000,-0.073299,-0.021377 WAIST_JOINT1:0.997350,0.071746,0.000000,-0.012078 END:
KINECT_DATA_Sensor  AnkleLeft:0.059678,0.735709,-0.065279,-0.671498 AnkleRight:0.070196,0.739154,0.083458,0.664649 ElbowLeft:-0.389762,0.888085,0.013025,-0.243354 ElbowRight:0.000943,0.883102,0.196862,0.425881 FootLeft:0.000000,0.000000,0.000000,0.000000 FootRight:0.000000,0.000000,0.000000,0.000000 HandLeft:-0.299227,0.509211,-0.302659,0.748040 HandRight:0.088828,-0.476583,-0.051753,0.873098 HandTipLeft:0.000000,0.000000,0.000000,0.000000 HandTipRight:0.000000,0.000000,0.000000,0.000000 Head:0.000000,0.000000,0.000000,0.000000 HipLeft:0.133744,-0.685059,0.693157,-0.179832 HipRight:-0.102011,0.667933,0.717475,-0.169378 KneeLeft:-0.016308,0.719967,-0.053940,-0.691717 KneeRight:-0.040313,0.693961,0.030017,0.718256 Neck:0.078033,-0.030569,0.992709,-0.086638 ShoulderLeft:-0.088430,0.789781,-0.585414,0.160362 ShoulderRight:0.016830,0.770577,0.635607,-0.043940 SpineBase:0.018410,-0.025076,0.998393,-0.047363 SpineMid:0.047501,-0.026446,0.997432,-0.046612 SpineShoulder:0.077727,-0.028987,0.994425,-0.065087 ThumbLeft:0.000000,0.000000,0.000000,0.000000 ThumbRight:0.000000,0.000000,0.000000,0.000000 WristLeft:-0.312029,0.505386,-0.328142,0.734538 WristRight:0.040452,-0.479031,-0.103896,0.870689 END:
KINECT_DATA POSITION:16.284128,-1.192180,5.890834 HEAD_JOINT1:0.981996,0.179279,-0.000000,0.059514 LARM_JOINT2:0.788963,0.000000,-0.490449,-0.370132 LARM_JOINT3:0.981183,0.000000,-0.185794,-0.052535 LLEG_JOINT2:0.997522,0.028678,0.000000,0.064240 LLEG_JOINT4:0.997088,0.062412,0.000000,-0.043827 RARM_JOINT2:0.806280,0.000000,-0.014782,0.591349 RARM_JOINT3:0.964217,0.000000,0.195019,0.179592 RLEG_JOINT2:0.999346,-0.009060,-0.000000,-0.035020 RLEG_JOINT4:0.993220,0.112202,0.000000,0.030416 WAIST:0.999693,0.000000,-0.019957,-0.014690 WAIST_JOINT0:0.996902,0.000000,-0.075571,-0.021816 WAIST_JOINT1:0.997340,0.071809,0.000000,-0.012501 END:
KINECT_DATA_Sensor  AnkleLeft:0.060800,0.736539,-0.067449,-0.670272 AnkleRight:0.059268,0.671036,0.086084,0.734021 ElbowLeft:-0.386648,0.897641,-0.009805,-0.211301 ElbowRight:0.002270,0.881229,0.196539,0.429886 FootLeft:0.000000,0.000000,0.000000,0.000000 FootRight:0.000000,0.000000,0.000000,0.000000 HandLeft:-0.323187,0.450186,-0.320241,0.768328 HandRight:0.114469,-0.544878,-0.074563,0.827312 HandTipLeft:0.000000,0.000000,0.000000,0.000000 HandTipRight:0.000000,0.000000,0.000000,0.000000 Head:0.000000,0.000000,0.000000,0.000000 HipLeft:0.134991,-0.685078,0.692638,-0.180826 HipRight:-0.101225,0.668018,0.717620,-0.168900 KneeLeft:-0.016010,0.721158,-0.054842,-0.690410 KneeRight:-0.041144,0.692787,0.029396,0.719368 Neck:0.080263,-0.031191,0.992504,-0.086727 ShoulderLeft:-0.089845,0.789560,-0.585038,0.162026 ShoulderRight:0.018411,0.770259,0.636066,-0.042211 SpineBase:0.020064,-0.025573,0.998348,-0.047371 SpineMid:0.049435,-0.026956,0.997326,-0.046598 SpineShoulder:0.079956,-0.029536,0.994231,-0.065111 ThumbLeft:0.000000,0.000000,0.000000,0.000000 ThumbRight:0.000000,0.000000,0.000000,0.000000 WristLeft:-0.305578,0.459400,-0.328170,0.766732 WristRight:0.047318,-0.549354,-0.099927,0.828242 END:
KINECT_DATA POSITION:16.251944,-1.200075,5.949318 HEAD_JOINT1:0.982014,0.179525,-0.000000,0.058476 LARM_JOINT2:0.790466,0.000000,-0.486500,-0.372130 LARM_JOINT3:0.981665,0.000000,-0.185883,-0.042194 LLEG_JOINT2:0.997497,0.029092,0.000000,0.064453 LLEG_JOINT4:0.996945,0.063466,0.000000,-0.045531 RARM_JOINT2:0.806755,0.000000,-0.010354,0.590796 RARM_JOINT3:0.963174,0.000000,0.198165,0.181734 RLEG_JOINT2:0.999349,-0.009899,-0.000000,-0.034693 RLEG_JOINT4:0.992893,0.114825,0.000000,0.031275 WAIST:0.999681,0.000000,-0.020058,-0.015360 WAIST_JOINT0:0.996989,0.000000,-0.073930,-0.023381 WAIST_JOINT1:0.997383,0.071339,0.000000,-0.011709 END:
KINECT_DATA_Sensor  AnkleLeft:0.063103,0.734108,-0.067145,-0.672751 AnkleRight:0.061029,0.671778,0.086870,0.733105 ElbowLeft:-0.384760,0.892746,-0.002973,-0.234426 ElbowRight:-0.001225,0.882436,0.195479,0.427894 FootLeft:0.000000,0.000000,0.000000,0.000000 FootRight:0.000000,0.000000,0.000000,0.000000 HandLeft:-0.331654,0.502313,-0.316639,0.733094 HandRight:0.132999,-0.542000,-0.081380,0.825787 HandTipLeft:0.000000,0.000000,0.000000,0.000000 HandTipRight:0.000000,0.000000,0.000000,0.000000 Head:0.000000,0.000000,0.000000,0.000000 HipLeft:0.135078,-0.685730,0.692073,-0.180452 HipRight:-0.101665,0.667810,0.717893,-0.168298 KneeLeft:-0.015407,0.721314,-0.054813,-0.690264 KneeRight:-0.041997,0.692625,0.029051,0.719488 Neck:0.078384,-0.030869,0.992711,-0.086185 ShoulderLeft:-0.087939,0.791555,-0.583293,0.159612 ShoulderRight:0.017650,0.770414,0.635859,-0.042822 SpineBase:0.020236,-0.025395,0.998380,-0.046726 SpineMid:0.048594,-0.026712,0.997402,-0.045986 SpineShoulder:0.078077,-0.029255,0.994413,-0.064736 ThumbLeft:0.000000,0.000000,0.000000,0.000000 ThumbRight:0.000000,0.000000,0.000000,0.000000 WristLeft:-0.325377,0.505375,-0.316050,0.734056 WristRight:0.048792,-0.547853,-0.102391,0.828850 END:
KINECT_DATA POSITION:16.217966,-1.208460,5.995035 HEAD_JOINT1:0.981919,0.180594,-0.000000,0.056745 LARM_JOINT2:0.793477,0.000000,-0.484970,-0.367694 LARM_JOINT3:0.976770,0.000000,-0.206944,-0.055625 LLEG_JOINT2:0.997477,0.028307,0.000000,0.065106 LLEG_JOINT4:0.996861,0.064888,0.000000,-0.045363 RARM_JOINT2:0.806462,0.000000,-0.010025,0.591201 RARM_JOINT3:0.963033,0.000000,0.196714,0.184039 RLEG_JOINT2:0.999362,-0.007942,-0.000000,-0.034809 RLEG_JOINT4:0.992993,0.113451,0.000000,0.033065 WAIST:0.999708,0.000000,-0.018626,-0.015379 WAIST_JOINT0:0.997339,0.000000,-0.069006,-0.023515 WAIST_JOINT1:0.997430,0.070771,0.000000,-0.011181 END:
KINECT_DATA_Sensor  AnkleLeft:0.062494,0.726949,-0.068646,-0.680387 AnkleRight:0.067402,0.714269,0.082423,0.691724 ElbowLeft:-0.388084,0.886992,-0.002149,-0.250264 ElbowRight:-0.001610,0.883727,0.194255,0.425781 FootLeft:0.000000,0.000000,0.000000,0.000000 FootRight:0.000000,0.000000,0.000000,0.000000 HandLeft:-0.342733,0.490287,-0.289422,0.747253 HandRight:0.142133,-0.590090,-0.064084,0.792140 HandTipLeft:0.000000,0.000000,0.000000,0.000000 HandTipRight:0.000000,0.000000,0.000000,0.000000 Head:0.000000,0.000000,0.000000,0.000000 HipLeft:0.134442,-0.686055,0.692153,-0.179383 HipRight:-0.103069,0.667732,0.717661,-0.168742 KneeLeft:-0.016316,0.720296,-0.054726,-0.691312 KneeRight:-0.040709,0.693615,0.030458,0.718550 Neck:0.073044,-0.030066,0.993193,-0.085611 ShoulderLeft:-0.081551,0.792752,-0.584269,0.153374 ShoulderRight:0.016647,0.770817,0.635279,-0.044546 SpineBase:0.018825,-0.025035,0.998443,-0.046161 SpineMid:0.045249,-0.026248,0.997595,-0.045482 SpineShoulder:0.072728,-0.028586,0.994865,-0.064321 ThumbLeft:0.000000,0.000000,0.000000,0.000000 ThumbRight:0.000000,0.000000,0.000000,0.000000 WristLeft:-0.340579,0.495568,-0.322959,0.730832 WristRight:0.056409,-0.595082,-0.098792,0.795573 END:
KINECT_DATA POSITION:16.181080,-1.203846,6.020522 HEAD_JOINT1:0.981801,0.180817,-0.000000,0.058067 LARM_JOINT2:0.786733,0.000000,-0.495034,-0.368772 LARM_JOINT3:0.983103,0.000000,-0.173535,-0.058254 LLEG_JOINT2:0.997358,0.030159,0.000000,0.066082 LLEG_JOINT4:0.996998,0.063018,0.000000,-0.044987 RARM_JOINT2:0.806135,0.000000,-0.009510,0.591655 RARM_JOINT3:0.965563,0.000000,0.189019,0.178771 RLEG_JOINT2:0.999386,-0.007618,-0.000000,-0.034194 RLEG_JOINT4:0.992788,0.115297,0.000000,0.032829 WAIST:0.999678,0.000000,-0.020012,-0.015586 WAIST_JOINT0:0.997159,0.000000,-0.071939,-0.022331 WAIST_JOINT1:0.997393,0.071240,0.000000,-0.011485 END:
KINECT_DATA_Sensor  AnkleLeft:0.062130,0.733597,-0.068995,-0.673213 AnkleRight:0.064358,0.672426,0.087430,0.732159 ElbowLeft:-0.389516,0.895013,-0.002594,-0.217307 ElbowRight:-0.001107,0.883574,0.194225,0.426114 FootLeft:0.000000,0.000000,0.000000,0.000000 FootRight:0.000000,0.000000,0.000000,0.000000 HandLeft:-0.314025,0.513679,-0.284514,0.746039 HandRight:0.103633,-0.600894,-0.051201,0.790927 HandTipLeft:0.000000,0.000000,0.000000,0.000000 HandTipRight:0.000000,0.000000,0.000000,0.000000 Head:0.000000,0.000000,0.000000,0.000000 HipLeft:0.135441,-0.685905,0.691809,-0.180529 HipRight:-0.102406,0.667667,0.717886,-0.168446 KneeLeft:-0.015669,0.721339,-0.056557,-0.690091 KneeRight:-0.040168,0.692643,0.030427,0.719518 Neck:0.076084,-0.030787,0.992891,-0.086198 ShoulderLeft:-0.084868,0.790973,-0.585243,0.157003 ShoulderRight:0.017561,0.770824,0.635328,-0.043371 SpineBase:0.020219,-0.025206,0.998401,-0.046387 SpineMid:0.047464,-0.026463,0.997477,-0.045682 SpineShoulder:0.075783,-0.029072,0.994599,-0.064682 ThumbLeft:0.000000,0.000000,0.000000,0.000000 ThumbRight:0.000000,0.000000,0.000000,0.000000 WristLeft:-0.332064,0.508085,-0.309974,0.731779 WristRight:0.057857,-0.603750,-0.097907,0.789020 END:
KINECT_DATA POSITION:16.073696,-1.193773,6.123984 HEAD_JOINT1:0.981888,0.179817,-0.000000,0.059686 LARM_JOINT2:0.795310,0.000000,-0.480665,-0.369382 LARM_JOINT3:0.974130,0.000000,-0.215344,-0.068533 LLEG_JOINT2:0.997193,0.031864,0.000000,0.067761 LLEG_JOINT4:0.997029,0.062536,0.000000,-0.044972 RARM_JOINT2:0.805528,0.000000,-0.010916,0.592457 RARM_JOINT3:0.964733,0.000000,0.194835,0.177000 RLEG_JOINT2:0.999454,-0.006829,-0.000000,-0.032339 RLEG_JOINT4:0.993047,0.113360,0.000000,0.031725 WAIST:0.999635,0.000000,-0.021565,-0.016294 WAIST_JOINT0:0.997031,0.000000,-0.073431,-0.023175 WAIST_JOINT1:0.997387,0.071325,0.000000,-0.011473 END:
KINECT_DATA_Sensor  AnkleLeft:0.062669,0.739368,-0.070175,-0.666696 AnkleRight:0.063684,0.671621,0.086467,0.733071 ElbowLeft:-0.384628,0.896599,-0.016655,-0.218850 ElbowRight:0.000362,0.882679,0.194414,0.427881 FootLeft:0.000000,0.000000,0.000000,0.000000 FootRight:0.000000,0.000000,0.000000,0.000000 HandLeft:-0.349614,0.462881,-0.289929,0.761218 HandRight:0.119060,-0.595252,-0.077819,0.790850 HandTipLeft:0.000000,0.000000,0.000000,0.000000 HandTipRight:0.000000,0.000000,0.000000,0.000000 Head:0.000000,0.000000,0.000000,0.000000 HipLeft:0.136331,-0.686109,0.691174,-0.181514 HipRight:-0.101597,0.667295,0.718481,-0.167870 KneeLeft:-0.015294,0.722513,-0.058412,-0.688715 KneeRight:-0.038786,0.691559,0.030178,0.720646 Neck:0.077355,-0.031430,0.992765,-0.086290 ShoulderLeft:-0.084571,0.791565,-0.584413,0.157272 ShoulderRight:0.019444,0.770812,0.635404,-0.041618 SpineBase:0.021815,-0.025561,0.998352,-0.046526 SpineMid:0.048906,-0.026815,0.997392,-0.045815 SpineShoulder:0.077055,-0.029608,0.994481,-0.064755 ThumbLeft:0.000000,0.000000,0.000000,0.000000 ThumbRight:0.000000,0.000000,0.000000,0.000000 WristLeft:-0.332191,0.474415,-0.315536,0.751676 WristRight:0.054215,-0.599965,-0.096975,0.792274 END:
KINECT_DATA POSITION:15.753876,-1.189388,6.583691 HEAD_JOINT1:0.983403,0.171999,-0.000000,0.057748 LARM_JOINT2:0.847842,0.000000,-0.317533,-0.424661 LARM_JOINT3:0.906108,0.000000,-0.418563,-0.061420 LLEG_JOINT2:0.997564,0.025240,0.000000,0.065032 LLEG_JOINT4:0.996675,0.071686,0.000000,-0.038723 RARM_JOINT2:0.806353,0.000000,-0.020685,0.591073 RARM_JOINT3:0.959833,0.000000,0.219516,0.174735 RLEG_JOINT2:0.999444,0.003017,0.000000,-0.033196 RLEG_JOINT4:0.993874,0.104499,0.000000,0.035966 WAIST:0.999915,0.000000,0.000007,-0.013075 WAIST_JOINT0:0.999534,0.000000,-0.029357,-0.008422 WAIST_JOINT1:0.997829,0.065798,0.000000,-0.002800 END:
KINECT_DATA_Sensor  AnkleLeft:0.064508,0.749532,-0.073277,-0.654730 AnkleRight:0.068434,0.696094,0.083361,0.709804 ElbowLeft:-0.307888,0.830014,-0.078594,-0.458372 ElbowRight:-0.002673,0.879934,0.186281,0.437045 FootLeft:0.000000,0.000000,0.000000,0.000000 FootRight:0.000000,0.000000,0.000000,0.000000 HandLeft:-0.485915,0.454616,-0.291943,0.687008 HandRight:0.163649,-0.541939,-0.121100,0.815387 HandTipLeft:0.000000,0.000000,0.000000,0.000000 HandTipRight:0.000000,0.000000,0.000000,0.000000 Head:0.000000,0.000000,0.000000,0.000000 HipLeft:0.123990,-0.688149,0.694829,-0.168195 HipRight:-0.118301,0.668407,0.712861,-0.176258 KneeLeft:-0.018832,0.707180,-0.054632,-0.704668 KneeRight:-0.030558,0.706717,0.034861,0.705976 Neck:0.032224,-0.017692,0.996085,-0.080390 ShoulderLeft:-0.030708,0.790731,-0.602614,0.103234 ShoulderRight:0.011858,0.778058,0.625725,-0.054348 SpineBase:0.000304,-0.018833,0.998916,-0.042561 SpineMid:0.015724,-0.019488,0.998793,-0.042266 SpineShoulder:0.031909,-0.017956,0.997503,-0.060388 ThumbLeft:0.000000,0.000000,0.000000,0.000000 ThumbRight:0.000000,0.000000,0.000000,0.000000 WristLeft:-0.336334,0.523636,-0.374192,0.687507 WristRight:0.062463,-0.553053,-0.106423,0.823957 END:
KINECT_DATA POSITION:15.213774,-1.252611,7.059181 HEAD_JOINT1:0.985413,0.163897,-0.000000,0.045813 LARM_JOINT2:0.878315,0.000000,-0.174829,-0.444970 LARM_JOINT3:0.824025,0.000000,-0.562953,-0.063763 LLEG_JOINT2:0.998052,0.023408,0.000000,0.057825 LLEG_JOINT4:0.996656,0.074067,0.000000,-0.034499 RARM_JOINT2:0.811381,0.000000,-0.017770,0.584247 RARM_JOINT3:0.959025,0.000000,0.222390,0.175539 RLEG_JOINT2:0.999246,0.012179,0.000000,-0.036865 RLEG_JOINT4:0.994346,0.099229,0.000000,0.037806 WAIST:0.999840,0.000000,0.017130,-0.005097 WAIST_JOINT0:0.999920,-0.000000,0.009693,0.008131 WAIST_JOINT1:0.998141,0.060913,-0.000000,0.001838 END:
KINECT_DATA_Sensor  AnkleLeft:0.059234,0.704285,-0.079371,-0.702975 AnkleRight:0.077833,0.739034,0.079697,0.664393 ElbowLeft:-0.244942,0.783924,-0.177842,-0.542069 ElbowRight:-0.010152,0.889063,0.179377,0.421056 FootLeft:0.000000,0.000000,0.000000,0.000000 FootRight:0.000000,0.000000,0.000000,0.000000 HandLeft:0.687346,-0.451237,0.268859,-0.501653 HandRight:0.152639,-0.450495,-0.134892,0.869229 HandTipLeft:0.000000,0.000000,0.000000,0.000000 HandTipRight:0.000000,0.000000,0.000000,0.000000 Head:0.000000,0.000000,0.000000,0.000000 HipLeft:0.112319,-0.685629,0.701969,-0.156644 HipRight:-0.132466,0.672891,0.705026,-0.180580 KneeLeft:0.019679,-0.694768,0.054276,0.716913 KneeRight:-0.021629,0.718750,0.037987,0.693893 Neck:-0.008166,-0.004473,0.997056,-0.076112 ShoulderLeft:0.006241,0.784842,-0.616745,0.060073 ShoulderRight:-0.004039,0.787111,0.612548,-0.072281 SpineBase:-0.016973,-0.007101,0.999084,-0.038634 SpineMid:-0.012815,-0.007262,0.999146,-0.038604 SpineShoulder:-0.008312,-0.004922,0.998384,-0.055993 ThumbLeft:0.000000,0.000000,0.000000,0.000000 ThumbRight:0.000000,0.000000,0.000000,0.000000 WristLeft:-0.310682,0.747437,-0.314861,0.495658 WristRight:0.068559,-0.461662,-0.116344,0.876716 END:
KINECT_DATA POSITION:13.856567,-1.309922,7.446861 HEAD_JOINT1:0.985988,0.164056,-0.000000,0.030238 LARM_JOINT2:0.866184,0.000000,-0.071872,-0.494530 LARM_JOINT3:0.757973,0.000000,-0.631011,0.165234 LLEG_JOINT2:0.998488,0.022835,0.000000,0.050000 LLEG_JOINT4:0.997216,0.070282,0.000000,-0.024927 RARM_JOINT2:0.820856,0.000000,-0.003816,0.571122 RARM_JOINT3:0.960223,0.000000,0.204878,0.189727 RLEG_JOINT2:0.998846,0.013514,0.000000,-0.046083 RLEG_JOINT4:0.993960,0.101626,0.000000,0.041424 WAIST:0.999071,-0.000000,0.042260,0.008481 WAIST_JOINT0:0.996628,-0.000000,0.076327,0.030117 WAIST_JOINT1:0.998144,0.060342,-0.000000,0.008246 END:
KINECT_DATA_Sensor  AnkleLeft:0.054117,0.740539,-0.082177,-0.664771 AnkleRight:0.083894,0.756647,0.078210,0.643685 ElbowLeft:0.201626,-0.623448,0.187675,0.731736 ElbowRight:-0.015512,0.920111,0.170747,0.352138 FootLeft:0.000000,0.000000,0.000000,0.000000 FootRight:0.000000,0.000000,0.000000,0.000000 HandLeft:-0.639593,0.683343,-0.349313,0.044083 HandRight:0.151192,-0.408791,-0.107398,0.893587 HandTipLeft:0.000000,0.000000,0.000000,0.000000 HandTipRight:0.000000,0.000000,0.000000,0.000000 Head:0.000000,0.000000,0.000000,0.000000 HipLeft:0.095314,-0.677717,0.714548,-0.145039 HipRight:-0.153669,0.678164,0.692856,-0.190865 KneeLeft:0.022926,-0.676068,0.058284,0.734173 KneeRight:-0.018786,0.736082,0.035146,0.675719 Neck:-0.076571,0.017171,0.994022,-0.075912 ShoulderLeft:0.064364,0.767134,-0.638243,-0.003071 ShoulderRight:-0.034128,0.792691,0.597797,-0.114518 SpineBase:-0.042332,0.012634,0.998340,-0.036964 SpineMid:-0.059235,0.013258,0.997479,-0.036745 SpineShoulder:-0.076481,0.015890,0.995424,-0.055033 ThumbLeft:0.000000,0.000000,0.000000,0.000000 ThumbRight:0.000000,0.000000,0.000000,0.000000 WristLeft:-0.632086,0.719315,-0.260323,0.123634 WristRight:0.086563,-0.416396,-0.100402,0.899467 END:
KINECT_DATA POSITION:12.718606,-1.299799,7.697499 HEAD_JOINT1:0.985901,0.164855,-0.000000,0.028661 LARM_JOINT2:0.887936,0.000000,0.024731,-0.459303 LARM_JOINT3:0.739801,0.000000,-0.632679,0.228936 LLEG_JOINT2:0.998869,0.019071,0.000000,0.043553 LLEG_JOINT4:0.997206,0.072115,0.000000,-0.019476 RARM_JOINT2:0.826335,0.000000,0.006030,0.563147 RARM_JOINT3:0.962331,0.000000,0.197138,0.187231 RLEG_JOINT2:0.998525,0.012486,0.000000,-0.052838 RLEG_JOINT4:0.992703,0.111031,0.000000,0.047051 WAIST:0.998041,-0.000000,0.059260,0.020041 WAIST_JOINT0:0.993051,-0.000000,0.108927,0.044548 WAIST_JOINT1:0.998109,0.060569,-0.000000,0.010518 END:
KINECT_DATA_Sensor  AnkleLeft:0.047793,0.733781,-0.087762,-0.671996 AnkleRight:0.095029,0.764857,0.078143,0.632342 ElbowLeft:0.210467,-0.504379,0.267757,0.793481 ElbowRight:-0.022242,0.932162,0.162986,0.322514 FootLeft:0.000000,0.000000,0.000000,0.000000 FootRight:0.000000,0.000000,0.000000,0.000000 HandLeft:0.422267,-0.579744,0.623935,-0.310311 HandRight:0.149010,-0.429177,-0.093889,0.885883 HandTipLeft:0.000000,0.000000,0.000000,0.000000 HandTipRight:0.000000,0.000000,0.000000,0.000000 Head:0.000000,0.000000,0.000000,0.000000 HipLeft:0.083220,-0.670950,0.723813,-0.137821 HipRight:-0.168195,0.683081,0.682122,-0.199551 KneeLeft:0.028742,-0.663015,0.059408,0.745692 KneeRight:-0.017056,0.747629,0.030264,0.663208 Neck:-0.110317,0.031125,0.990537,-0.075488 ShoulderLeft:0.092373,0.751523,-0.652364,-0.033188 ShoulderRight:-0.049902,0.794550,0.589729,-0.135720 SpineBase:-0.059658,0.025788,0.997197,-0.037077 SpineMid:-0.084505,0.026705,0.995399,-0.036422 SpineShoulder:-0.110031,0.029547,0.991990,-0.054550 ThumbLeft:0.000000,0.000000,0.000000,0.000000 ThumbRight:0.000000,0.000000,0.000000,0.000000 WristLeft:-0.385240,0.642602,-0.574018,0.330387 WristRight:0.097947,-0.435079,-0.092182,0.890290 END:
KINECT_DATA POSITION:11.223132,-1.410686,8.292246 HEAD_JOINT1:0.987461,0.156847,-0.000000,0.017862 LARM_JOINT2:0.893486,0.000000,0.097649,-0.438345 LARM_JOINT3:0.727335,0.000000,-0.629705,0.272866 LLEG_JOINT2:0.998940,0.014576,0.000000,0.043653 LLEG_JOINT4:0.997141,0.073489,0.000000,-0.017583 RARM_JOINT2:0.830859,0.000000,0.009589,0.556401 RARM_JOINT3:0.962267,0.000000,0.186530,0.198113 RLEG_JOINT2:0.998500,0.018646,0.000000,-0.051483 RLEG_JOINT4:0.992626,0.111531,0.000000,0.047484 WAIST:0.996318,-0.000000,0.080475,0.029565 WAIST_JOINT0:0.987622,-0.000000,0.146435,0.056201 WAIST_JOINT1:0.998109,0.060105,-0.000000,0.012878 END:
KINECT_DATA_Sensor  AnkleLeft:0.039908,0.720535,-0.093612,-0.685910 AnkleRight:0.105792,0.782501,0.075864,0.608888 ElbowLeft:0.210935,-0.400619,0.321117,0.831802 ElbowRight:-0.023727,0.948178,0.157696,0.274823 FootLeft:0.000000,0.000000,0.000000,0.000000 FootRight:0.000000,0.000000,0.000000,0.000000 HandLeft:0.340842,-0.567436,0.687693,-0.298196 HandRight:0.172630,-0.454653,-0.064182,0.871418 HandTipLeft:0.000000,0.000000,0.000000,0.000000 HandTipRight:0.000000,0.000000,0.000000,0.000000 Head:0.000000,0.000000,0.000000,0.000000 HipLeft:0.069586,-0.665842,0.731743,-0.127922 HipRight:-0.184984,0.685413,0.671812,-0.211327 KneeLeft:0.037987,-0.646508,0.063601,0.759302 KneeRight:-0.006233,0.762128,0.026668,0.646847 Neck:-0.148572,0.043045,0.985182,-0.074093 ShoulderLeft:0.124991,0.736359,-0.661256,-0.069946 ShoulderRight:-0.066545,0.795108,0.581746,-0.157946 SpineBase:-0.081127,0.036394,0.995358,-0.036835 SpineMid:-0.114156,0.037598,0.992112,-0.035605 SpineShoulder:-0.148160,0.040980,0.986682,-0.053188 ThumbLeft:0.000000,0.000000,0.000000,0.000000 ThumbRight:0.000000,0.000000,0.000000,0.000000 WristLeft:0.289719,-0.633877,0.651522,-0.299636 WristRight:0.108586,-0.461091,-0.071477,0.877778 END:
KINECT_DATA POSITION:10.203227,-1.397010,8.594751 HEAD_JOINT1:0.988183,0.152618,-0.000000,0.014188 LARM_JOINT2:0.913503,0.000000,0.104692,-0.393131 LARM_JOINT3:0.783647,0.000000,-0.559011,0.270931 LLEG_JOINT2:0.999016,0.010161,0.000000,0.043179 LLEG_JOINT4:0.997355,0.071237,0.000000,-0.014468 RARM_JOINT2:0.836038,0.000000,0.011204,0.548557 RARM_JOINT3:0.962816,0.000000,0.177201,0.203922 RLEG_JOINT2:0.998375,0.017537,0.000000,-0.054226 RLEG_JOINT4:0.991790,0.115859,0.000000,0.054124 WAIST:0.995116,-0.000000,0.092274,0.035069 WAIST_JOINT0:0.984199,-0.000000,0.164587,0.065298 WAIST_JOINT1:0.997987,0.061639,-0.000000,0.014928 END:
KINECT_DATA_Sensor  AnkleLeft:0.032231,0.726394,-0.095119,-0.679901 AnkleRight:0.113485,0.790142,0.072421,0.597956 ElbowLeft:0.252823,-0.359449,0.354362,0.825412 ElbowRight:-0.024776,0.955456,0.159009,0.247399 FootLeft:0.000000,0.000000,0.000000,0.000000 FootRight:0.000000,0.000000,0.000000,0.000000 HandLeft:0.076996,-0.501538,0.755342,-0.414717 HandRight:0.163493,-0.687839,0.005471,0.707190 HandTipLeft:0.000000,0.000000,0.000000,0.000000 HandTipRight:0.000000,0.000000,0.000000,0.000000 Head:0.000000,0.000000,0.000000,0.000000 HipLeft:0.061080,-0.662457,0.736300,-0.123620 HipRight:-0.193931,0.686393,0.665941,-0.218580 KneeLeft:0.044457,-0.637277,0.064509,0.766642 KneeRight:-0.005729,0.769745,0.023348,0.637899 Neck:-0.167410,0.050406,0.981714,-0.075309 ShoulderLeft:0.139025,0.725331,-0.669061,-0.083217 ShoulderRight:-0.077630,0.794396,0.577204,-0.172464 SpineBase:-0.093072,0.043004,0.994002,-0.038065 SpineMid:-0.129425,0.044370,0.989925,-0.036464 SpineShoulder:-0.166910,0.048097,0.983309,-0.054137 ThumbLeft:0.000000,0.000000,0.000000,0.000000 ThumbRight:0.000000,0.000000,0.000000,0.000000 WristLeft:0.035714,-0.574795,0.700780,-0.421002 WristRight:0.125130,-0.693259,-0.027732,0.709201 END:
KINECT_DATA POSITION:9.585732,-1.382928,8.851814 HEAD_JOINT1:0.988745,0.149214,-0.000000,0.010868 LARM_JOINT2:0.928328,0.000000,0.102446,-0.357368 LARM_JOINT3:0.807088,0.000000,-0.516238,0.286542 LLEG_JOINT2:0.999043,0.009034,0.000000,0.042785 LLEG_JOINT4:0.997163,0.074281,0.000000,-0.012174 RARM_JOINT2:0.837281,0.000000,0.009799,0.546685 RARM_JOINT3:0.960782,0.000000,0.182542,0.208749 RLEG_JOINT2:0.998354,0.017773,0.000000,-0.054523 RLEG_JOINT4:0.991261,0.119643,0.000000,0.055569 WAIST:0.994445,-0.000000,0.098010,0.038374 WAIST_JOINT0:0.982538,-0.000000,0.172983,0.068525 WAIST_JOINT1:0.997876,0.063366,-0.000000,0.015106 END:
KINECT_DATA_Sensor  AnkleLeft:0.034549,0.744206,-0.098920,-0.659680 AnkleRight:0.118701,0.793494,0.072675,0.592450 ElbowLeft:0.290127,-0.330970,0.371553,0.817455 ElbowRight:-0.023337,0.956811,0.158779,0.242401 FootLeft:0.000000,0.000000,0.000000,0.000000 FootRight:0.000000,0.000000,0.000000,0.000000 HandLeft:0.092644,-0.528581,0.770313,-0.344437 HandRight:0.187246,-0.670177,0.011219,0.718106 HandTipLeft:0.000000,0.000000,0.000000,0.000000 HandTipRight:0.000000,0.000000,0.000000,0.000000 Head:0.000000,0.000000,0.000000,0.000000 HipLeft:0.055939,-0.660403,0.738858,-0.121767 HipRight:-0.197548,0.687051,0.662764,-0.222888 KneeLeft:0.047178,-0.632707,0.065938,0.770135 KneeRight:-0.003752,0.773470,0.021202,0.633467 Neck:-0.176151,0.053648,0.979897,-0.076778 ShoulderLeft:0.145415,0.721154,-0.671567,-0.088251 ShoulderRight:-0.082911,0.794018,0.574569,-0.180367 SpineBase:-0.098953,0.046141,0.993229,-0.039684 SpineMid:-0.136671,0.047618,0.988745,-0.037899 SpineShoulder:-0.175611,0.051329,0.981551,-0.055528 ThumbLeft:0.000000,0.000000,0.000000,0.000000 ThumbRight:0.000000,0.000000,0.000000,0.000000 WristLeft:0.054017,-0.606492,0.711968,-0.349786 WristRight:0.125111,-0.676929,-0.026979,0.724836 END:
KINECT_DATA POSITION:9.520473,-1.398038,9.059906 HEAD_JOINT1:0.989695,0.142950,-0.000000,0.008309 LARM_JOINT2:0.964503,0.000000,-0.046397,-0.259964 LARM_JOINT3:0.936564,0.000000,-0.300094,0.181082 LLEG_JOINT2:0.999050,0.009754,0.000000,0.042462 LLEG_JOINT4:0.997250,0.073421,0.000000,-0.010048 RARM_JOINT2:0.838258,0.000000,0.007127,0.545227 RARM_JOINT3:0.959113,0.000000,0.186081,0.213252 RLEG_JOINT2:0.998421,0.018792,0.000000,-0.052939 RLEG_JOINT4:0.991373,0.117878,0.000000,0.057309 WAIST:0.994159,-0.000000,0.100634,0.038995 WAIST_JOINT0:0.983978,-0.000000,0.165597,0.066074 WAIST_JOINT1:0.998026,0.061306,-0.000000,0.013637 END:
KINECT_DATA_Sensor  AnkleLeft:0.031696,0.731419,-0.101299,-0.673618 AnkleRight:0.120146,0.789607,0.070827,0.597553 ElbowLeft:0.428446,-0.395692,0.329616,0.742439 ElbowRight:-0.026472,0.954534,0.160859,0.249575 FootLeft:0.000000,0.000000,0.000000,0.000000 FootRight:0.000000,0.000000,0.000000,0.000000 HandLeft:0.022558,-0.608687,0.709742,-0.353918 HandRight:-0.185056,0.729152,-0.039186,-0.657690 HandTipLeft:0.000000,0.000000,0.000000,0.000000 HandTipRight:0.000000,0.000000,0.000000,0.000000 Head:0.000000,0.000000,0.000000,0.000000 HipLeft:0.055595,-0.660603,0.739346,-0.117811 HipRight:-0.199772,0.687477,0.661705,-0.222739 KneeLeft:0.046760,-0.630533,0.066627,0.771882 KneeRight:-0.001566,0.775286,0.020466,0.631277 Neck:-0.168700,0.051759,0.981485,-0.074491 ShoulderLeft:0.134220,0.725176,-0.670722,-0.078975 ShoulderRight:-0.084750,0.794878,0.573905,-0.177818 SpineBase:-0.101593,0.045625,0.993085,-0.037151 SpineMid:-0.134281,0.046826,0.989195,-0.035626 SpineShoulder:-0.168155,0.049870,0.983007,-0.054160 ThumbLeft:0.000000,0.000000,0.000000,0.000000 ThumbRight:0.000000,0.000000,0.000000,0.000000 WristLeft:-0.024029,-0.660422,0.671874,-0.334442 WristRight:-0.132900,0.745889,0.018485,-0.652416 END:
KINECT_DATA POSITION:9.847269,-1.276010,9.194553 HEAD_JOINT1:0.989136,0.146178,-0.000000,0.015548 LARM_JOINT2:0.972336,0.000000,-0.083638,-0.218099 LARM_JOINT3:0.971236,0.000000,-0.196262,0.134841 LLEG_JOINT2:0.999206,0.013282,0.000000,0.037556 LLEG_JOINT4:0.997026,0.076623,0.000000,-0.008298 RARM_JOINT2:0.837579,0.000000,-0.008517,0.546250 RARM_JOINT3:0.960864,0.000000,0.178333,0.211984 RLEG_JOINT2:0.998401,0.020077,0.000000,-0.052836 RLEG_JOINT4:0.991847,0.116559,0.000000,0.051515 WAIST:0.995025,-0.000000,0.091362,0.039738 WAIST_JOINT0:0.989568,-0.000000,0.131694,0.058417 WAIST_JOINT1:0.998330,0.057445,-0.000000,0.006100 END:
KINECT_DATA_Sensor  AnkleLeft:0.036701,0.728899,-0.103648,-0.675734 AnkleRight:0.116032,0.773836,0.075185,0.618111 ElbowLeft:0.474925,-0.409729,0.310508,0.714251 ElbowRight:-0.023019,0.943618,0.169913,0.283168 FootLeft:0.000000,0.000000,0.000000,0.000000 FootRight:0.000000,0.000000,0.000000,0.000000 HandLeft:-0.128532,-0.593277,0.687434,-0.398667 HandRight:0.132887,-0.615309,0.032347,0.776331 HandTipLeft:0.000000,0.000000,0.000000,0.000000 HandTipRight:0.000000,0.000000,0.000000,0.000000 Head:0.000000,0.000000,0.000000,0.000000 HipLeft:0.061944,-0.660645,0.738754,-0.118127 HipRight:-0.192596,0.690443,0.662773,-0.216628 KneeLeft:0.041827,-0.637580,0.065443,0.766459 KneeRight:0.000314,0.769610,0.021131,0.638164 Neck:-0.134705,0.043625,0.987361,-0.071202 ShoulderLeft:0.100915,0.736991,-0.666608,-0.047893 ShoulderRight:-0.073990,0.798969,0.575990,-0.156234 SpineBase:-0.092512,0.041069,0.994267,-0.034466 SpineMid:-0.112860,0.041766,0.992163,-0.033617 SpineShoulder:-0.134167,0.042578,0.988724,-0.051107 ThumbLeft:0.000000,0.000000,0.000000,0.000000 ThumbRight:0.000000,0.000000,0.000000,0.000000 WristLeft:-0.143519,-0.639949,0.640005,-0.400326 WristRight:0.123856,-0.623490,-0.054153,0.770056 END:
KINECT_DATA POSITION:10.660940,-1.052402,9.236753 HEAD_JOINT1:0.989021,0.146345,-0.000000,0.020526 LARM_JOINT2:0.975550,0.000000,-0.093369,-0.198957 LARM_JOINT3:0.972972,0.000000,-0.196894,0.120659 LLEG_JOINT2:0.999226,0.019521,0.000000,0.034147 LLEG_JOINT4:0.997131,0.075323,0.000000,-0.007559 RARM_JOINT2:0.836396,0.000000,-0.015544,0.547905 RARM_JOINT3:0.959440,0.000000,0.183176,0.214295 RLEG_JOINT2:0.998284,0.021716,0.000000,-0.054381 RLEG_JOINT4:0.992637,0.111525,0.000000,0.047273 WAIST:0.996067,-0.000000,0.080135,0.037788 WAIST_JOINT0:0.992474,-0.000000,0.108751,0.056298 WAIST_JOINT1:0.998401,0.056398,-0.000000,0.003770 END:
KINECT_DATA_Sensor  AnkleLeft:0.043187,0.739923,-0.102982,-0.663357 AnkleRight:0.108818,0.763480,0.077513,0.631861 ElbowLeft:0.489870,-0.426628,0.308903,0.694691 ElbowRight:-0.017271,0.939330,0.174564,0.294767 FootLeft:0.000000,0.000000,0.000000,0.000000 FootRight:0.000000,0.000000,0.000000,0.000000 HandLeft:-0.099217,-0.559503,0.692182,-0.444967 HandRight:0.162786,-0.574020,0.010241,0.802432 HandTipLeft:0.000000,0.000000,0.000000,0.000000 HandTipRight:0.000000,0.000000,0.000000,0.000000 Head:0.000000,0.000000,0.000000,0.000000 HipLeft:0.069179,-0.661945,0.736433,-0.121282 HipRight:-0.183732,0.692120,0.666070,-0.208717 KneeLeft:0.033913,-0.646270,0.065353,0.759548 KneeRight:-0.000616,0.762461,0.025073,0.646548 Neck:-0.111692,0.039261,0.990427,-0.070972 ShoulderLeft:0.082375,0.740176,-0.666768,-0.027835 ShoulderRight:-0.062980,0.800088,0.579866,-0.140176 SpineBase:-0.081274,0.036922,0.995466,-0.032851 SpineMid:-0.095826,0.037399,0.994170,-0.032308 SpineShoulder:-0.111166,0.038393,0.991783,-0.050347 ThumbLeft:0.000000,0.000000,0.000000,0.000000 ThumbRight:0.000000,0.000000,0.000000,0.000000 WristLeft:-0.156809,-0.627386,0.636406,-0.420459 WristRight:0.109520,-0.581477,-0.062282,0.803748 END:
KINECT_DATA POSITION:11.279628,-0.927258,9.134865 HEAD_JOINT1:0.988153,0.151428,-0.000000,0.024965 LARM_JOINT2:0.974685,0.000000,-0.123544,-0.186351 LARM_JOINT3:0.972711,0.000000,-0.200655,0.116498 LLEG_JOINT2:0.999211,0.022534,0.000000,0.032700 LLEG_JOINT4:0.997591,0.068887,0.000000,-0.008126 RARM_JOINT2:0.834465,0.000000,-0.017923,0.550769 RARM_JOINT3:0.958695,0.000000,0.186998,0.214326 RLEG_JOINT2:0.998243,0.021261,0.000000,-0.055300 RLEG_JOINT4:0.992537,0.112411,0.000000,0.047273 WAIST:0.996569,-0.000000,0.074933,0.035151 WAIST_JOINT0:0.993995,-0.000000,0.094777,0.054698 WAIST_JOINT1:0.998376,0.056944,-0.000000,0.001799 END:
KINECT_DATA_Sensor  AnkleLeft:-0.030611,-0.660148,0.102122,0.743531 AnkleRight:0.106754,0.756761,0.080401,0.639885 ElbowLeft:0.504284,-0.451082,0.292815,0.675634 ElbowRight:-0.016179,0.933951,0.176783,0.310197 FootLeft:0.000000,0.000000,0.000000,0.000000 FootRight:0.000000,0.000000,0.000000,0.000000 HandLeft:0.456638,0.182829,-0.518078,0.699750 HandRight:-0.155565,0.796618,-0.066734,-0.580298 HandTipLeft:0.000000,0.000000,0.000000,0.000000 HandTipRight:0.000000,0.000000,0.000000,0.000000 Head:0.000000,0.000000,0.000000,0.000000 HipLeft:0.072589,-0.663668,0.734262,-0.123023 HipRight:-0.178548,0.691510,0.669022,-0.205775 KneeLeft:0.029025,-0.650366,0.064318,0.756336 KneeRight:-0.003200,0.759009,0.027340,0.650498 Neck:-0.097546,0.034249,0.992033,-0.071994 ShoulderLeft:0.069760,0.743074,-0.665437,-0.012934 ShoulderRight:-0.057471,0.800372,0.581799,-0.132710 SpineBase:-0.076053,0.032647,0.996026,-0.032898 SpineMid:-0.086226,0.032981,0.995197,-0.032563 SpineShoulder:-0.097070,0.033625,0.993395,-0.051120 ThumbLeft:0.000000,0.000000,0.000000,0.000000 ThumbRight:0.000000,0.000000,0.000000,0.000000 WristLeft:0.478271,0.247132,-0.453166,0.710509 WristRight:-0.123637,0.815029,0.028655,-0.565350 END:
KINECT_DATA POSITION:11.690329,-0.833323,9.052873 HEAD_JOINT1:0.987073,0.156400,-0.000000,0.035017 LARM_JOINT2:0.971586,0.000000,-0.162505,-0.172084 LARM_JOINT3:0.978099,0.000000,-0.184912,0.095553 LLEG_JOINT2:0.999185,0.023468,0.000000,0.032846 LLEG_JOINT4:0.997418,0.071432,0.000000,-0.007356 RARM_JOINT2:0.831605,0.000000,-0.025412,0.554785 RARM_JOINT3:0.961094,0.000000,0.186621,0.203643 RLEG_JOINT2:0.998285,0.021232,0.000000,-0.054563 RLEG_JOINT4:0.992452,0.113023,0.000000,0.047596 WAIST:0.997202,-0.000000,0.067488,0.032139 WAIST_JOINT0:0.995815,-0.000000,0.076142,0.050546 WAIST_JOINT1:0.998340,0.057582,-0.000000,0.000870 END:
KINECT_DATA_Sensor  AnkleLeft:-0.034887,-0.670491,0.103059,0.733896 AnkleRight:0.106073,0.747347,0.082353,0.650722 ElbowLeft:0.520904,-0.484972,0.273213,0.647160 ElbowRight:-0.011220,0.924828,0.179059,0.335418 FootLeft:0.000000,0.000000,0.000000,0.000000 FootRight:0.000000,0.000000,0.000000,0.000000 HandLeft:0.026598,-0.606760,0.668800,-0.428766 HandRight:0.134957,-0.602506,0.012429,0.786523 HandTipLeft:0.000000,0.000000,0.000000,0.000000 HandTipRight:0.000000,0.000000,0.000000,0.000000 Head:0.000000,0.000000,0.000000,0.000000 HipLeft:0.076909,-0.665258,0.731801,-0.126424 HipRight:-0.172804,0.690765,0.672464,-0.201929 KneeLeft:0.026584,-0.656161,0.062883,0.751526 KneeRight:-0.004398,0.754058,0.029173,0.656145 Neck:-0.078631,0.029853,0.993772,-0.073096 ShoulderLeft:0.053753,0.747256,-0.662336,0.005452 ShoulderRight:-0.049134,0.800047,0.585406,-0.121698 SpineBase:-0.068550,0.029115,0.996668,-0.033268 SpineMid:-0.073092,0.029266,0.996345,-0.033135 SpineShoulder:-0.078185,0.029503,0.995139,-0.052099 ThumbLeft:0.000000,0.000000,0.000000,0.000000 ThumbRight:0.000000,0.000000,0.000000,0.000000 WristLeft:-0.036154,-0.645418,0.654086,-0.392810 WristRight:0.103669,-0.609179,-0.070591,0.783052 END:
KINECT_DATA POSITION:11.820999,-0.797956,9.024370 HEAD_JOINT1:0.986530,0.157807,-0.000000,0.043075 LARM_JOINT2:0.967811,0.000000,-0.184102,-0.171608 LARM_JOINT3:0.981414,0.000000,-0.174647,0.079527 LLEG_JOINT2:0.999151,0.024450,0.000000,0.033164 LLEG_JOINT4:0.997326,0.072404,0.000000,-0.009970 RARM_JOINT2:0.830340,0.000000,-0.032576,0.556304 RARM_JOINT3:0.962219,0.000000,0.188972,0.196019 RLEG_JOINT2:0.998327,0.020916,0.000000,-0.053905 RLEG_JOINT4:0.992632,0.111948,0.000000,0.046370 WAIST:0.997561,-0.000000,0.062495,0.031083 WAIST_JOINT0:0.997026,-0.000000,0.061072,0.046995 WAIST_JOINT1:0.998309,0.058128,-0.000000,0.000360 END:
KINECT_DATA_Sensor  AnkleLeft:0.045717,0.726941,-0.098913,-0.677999 AnkleRight:0.105658,0.753385,0.080539,0.644019 ElbowLeft:0.520395,-0.516638,0.268178,0.624784 ElbowRight:-0.006679,0.917689,0.181653,0.353277 FootLeft:0.000000,0.000000,0.000000,0.000000 FootRight:0.000000,0.000000,0.000000,0.000000 HandLeft:0.027796,-0.609023,0.651571,-0.451412 HandRight:-0.122866,0.753573,-0.026373,-0.645241 HandTipLeft:0.000000,0.000000,0.000000,0.000000 HandTipRight:0.000000,0.000000,0.000000,0.000000 Head:0.000000,0.000000,0.000000,0.000000 HipLeft:0.079171,-0.665639,0.730807,-0.128754 HipRight:-0.168776,0.690958,0.674126,-0.199115 KneeLeft:0.025511,-0.659957,0.063005,0.748222 KneeRight:-0.004600,0.750730,0.029382,0.659939 Neck:-0.063292,0.027730,0.994865,-0.073956 ShoulderLeft:0.043768,0.750763,-0.658888,0.017504 ShoulderRight:-0.039042,0.800106,0.588310,-0.110441 SpineBase:-0.063548,0.027877,0.997018,-0.033745 SpineMid:-0.062956,0.027856,0.997056,-0.033761 SpineShoulder:-0.062836,0.027667,0.996236,-0.052920 ThumbLeft:0.000000,0.000000,0.000000,0.000000 ThumbRight:0.000000,0.000000,0.000000,0.000000 WristLeft:-0.030629,-0.641741,0.642275,-0.417986 WristRight:-0.109071,0.764222,0.051957,-0.633536 END:
KINECT_DATA POSITION:11.825750,-0.799304,9.015918 HEAD_JOINT1:0.986230,0.159482,-0.000000,0.043763 LARM_JOINT2:0.967928,0.000000,-0.163759,-0.190524 LARM_JOINT3:0.970900,0.000000,-0.210619,0.113987 LLEG_JOINT2:0.999149,0.024284,0.000000,0.033335 LLEG_JOINT4:0.997302,0.072428,0.000000,-0.011917 RARM_JOINT2:0.830959,0.000000,-0.036505,0.555135 RARM_JOINT3:0.961248,0.000000,0.196875,0.192982 RLEG_JOINT2:0.998303,0.021555,0.000000,-0.054095 RLEG_JOINT4:0.992745,0.111411,0.000000,0.045231 WAIST:0.997708,-0.000000,0.060226,0.030834 WAIST_JOINT0:0.997321,-0.000000,0.057341,0.045418 WAIST_JOINT1:0.998308,0.058145,-0.000000,0.000278 END:
KINECT_DATA_Sensor  AnkleLeft:-0.039842,-0.680498,0.100310,0.724757 AnkleRight:0.103060,0.738108,0.083692,0.661491 ElbowLeft:0.505728,-0.502755,0.265873,0.648682 ElbowRight:-0.004837,0.914739,0.184572,0.359392 FootLeft:0.000000,0.000000,0.000000,0.000000 FootRight:0.000000,0.000000,0.000000,0.000000 HandLeft:0.003770,-0.548521,0.684924,-0.479573 HandRight:0.134880,-0.503593,-0.043503,0.852238 HandTipLeft:0.000000,0.000000,0.000000,0.000000 HandTipRight:0.000000,0.000000,0.000000,0.000000 Head:0.000000,0.000000,0.000000,0.000000 HipLeft:0.080302,-0.665708,0.730424,-0.129864 HipRight:-0.166990,0.691333,0.674630,-0.197603 KneeLeft:0.025666,-0.661670,0.062839,0.746716 KneeRight:-0.004376,0.749247,0.030223,0.661586 Neck:-0.059286,0.027410,0.995119,-0.073971 ShoulderLeft:0.041309,0.752873,-0.656562,0.020072 ShoulderRight:-0.036195,0.800153,0.589032,-0.107177 SpineBase:-0.061275,0.027675,0.997164,-0.033809 SpineMid:-0.059821,0.027625,0.997252,-0.033849 SpineShoulder:-0.058828,0.027374,0.996484,-0.053005 ThumbLeft:0.000000,0.000000,0.000000,0.000000 ThumbRight:0.000000,0.000000,0.000000,0.000000 WristLeft:-0.054507,-0.604655,0.647733,-0.460286 WristRight:0.080499,-0.508661,-0.086370,0.852833 END:
KINECT_DATA POSITION:11.852015,-0.800300,9.083212 HEAD_JOINT1:0.983918,0.169794,-0.000000,0.055449 LARM_JOINT2:0.953324,0.000000,0.083203,-0.290261 LARM_JOINT3:0.791353,0.000000,-0.542860,0.281183 LLEG_JOINT2:0.999206,0.023354,0.000000,0.032293 LLEG_JOINT4:0.996931,0.077229,0.000000,-0.012837 RARM_JOINT2:0.826730,0.000000,-0.033630,0.561592 RARM_JOINT3:0.957826,0.000000,0.206885,0.199418 RLEG_JOINT2:0.998057,0.024450,0.000000,-0.057311 RLEG_JOINT4:0.992857,0.109329,0.000000,0.047770 WAIST:0.997853,-0.000000,0.056220,0.033590 WAIST_JOINT0:0.995377,-0.000000,0.079410,0.054026 WAIST_JOINT1:0.998331,0.057753,0.000000,-0.000029 END:
KINECT_DATA_Sensor  AnkleLeft:-0.039773,-0.667975,0.104322,0.735761 AnkleRight:0.105963,0.739541,0.081807,0.659665 ElbowLeft:0.351860,-0.371943,0.371534,0.774477 ElbowRight:-0.002933,0.912728,0.174485,0.369424 FootLeft:0.000000,0.000000,0.000000,0.000000 FootRight:0.000000,0.000000,0.000000,0.000000 HandLeft:0.122679,-0.457332,0.762982,-0.440063 HandRight:-0.194587,0.818774,-0.046820,-0.538101 HandTipLeft:0.000000,0.000000,0.000000,0.000000 HandTipRight:0.000000,0.000000,0.000000,0.000000 Head:0.000000,0.000000,0.000000,0.000000 HipLeft:0.084818,-0.662817,0.731852,-0.133689 HipRight:-0.166486,0.693122,0.673231,-0.196531 KneeLeft:0.027784,-0.664505,0.063371,0.744074 KneeRight:-0.002683,0.746807,0.032681,0.664232 Neck:-0.081711,0.032643,0.993479,-0.072502 ShoulderLeft:0.066714,0.745513,-0.663111,-0.006640 ShoulderRight:-0.039164,0.801594,0.585261,-0.115684 SpineBase:-0.057411,0.028932,0.997371,-0.033433 SpineMid:-0.069078,0.029321,0.996631,-0.033092 SpineShoulder:-0.081317,0.031264,0.994846,-0.051878 ThumbLeft:0.000000,0.000000,0.000000,0.000000 ThumbRight:0.000000,0.000000,0.000000,0.000000 WristLeft:0.078013,-0.509695,0.744204,-0.424600 WristRight:-0.117214,0.842566,0.036579,-0.524409 END:
KINECT_DATA POSITION:11.878005,-0.854427,9.180284 HEAD_JOINT1:0.983756,0.172229,-0.000000,0.050604 LARM_JOINT2:0.958610,0.000000,0.066632,-0.276817 LARM_JOINT3:0.835698,0.000000,-0.485228,0.257223 LLEG_JOINT2:0.999252,0.022826,0.000000,0.031204 LLEG_JOINT4:0.996762,0.079087,0.000000,-0.014549 RARM_JOINT2:0.824248,0.000000,-0.020974,0.565841 RARM_JOINT3:0.957436,0.000000,0.209833,0.198209 RLEG_JOINT2:0.997927,0.025620,0.000000,-0.059036 RLEG_JOINT4:0.993283,0.108036,0.000000,0.041432 WAIST:0.997719,-0.000000,0.057232,0.035798 WAIST_JOINT0:0.993703,-0.000000,0.095999,0.057785 WAIST_JOINT1:0.998375,0.056979,0.000000,-0.000448 END:
KINECT_DATA_Sensor  AnkleLeft:0.051287,0.736485,-0.099996,-0.667054 AnkleRight:0.103551,0.757743,0.082914,0.638927 ElbowLeft:0.373624,-0.371390,0.365847,0.767223 ElbowRight:-0.007348,0.920840,0.163584,0.353893 FootLeft:0.000000,0.000000,0.000000,0.000000 FootRight:0.000000,0.000000,0.000000,0.000000 HandLeft:-0.003817,-0.498958,0.729937,-0.467139 HandRight:-0.224729,0.766531,-0.016812,-0.601369 HandTipLeft:0.000000,0.000000,0.000000,0.000000 HandTipRight:0.000000,0.000000,0.000000,0.000000 Head:0.000000,0.000000,0.000000,0.000000 HipLeft:0.085586,-0.661604,0.732891,-0.133514 HipRight:-0.168688,0.694517,0.670980,-0.197422 KneeLeft:0.028977,-0.663638,0.063770,0.744767 KneeRight:-0.001688,0.747604,0.033113,0.663316 Neck:-0.098481,0.035665,0.991963,-0.070983 ShoulderLeft:0.081804,0.741732,-0.665240,-0.024438 ShoulderRight:-0.045397,0.802019,0.582463,-0.124266 SpineBase:-0.058491,0.030284,0.997301,-0.032455 SpineMid:-0.077959,0.030912,0.995968,-0.031858 SpineShoulder:-0.098105,0.033774,0.993318,-0.050546 ThumbLeft:0.000000,0.000000,0.000000,0.000000 ThumbRight:0.000000,0.000000,0.000000,0.000000 WristLeft:-0.010765,-0.495611,0.740517,-0.453750 WristRight:-0.123436,0.792098,0.038524,-0.596540 END:
KINECT_DATA POSITION:11.883022,-0.886019,9.210384 HEAD_JOINT1:0.984061,0.173000,-0.000000,0.041180 LARM_JOINT2:0.970101,0.000000,0.007651,-0.242581 LARM_JOINT3:0.903582,0.000000,-0.376188,0.204994 LLEG_JOINT2:0.999239,0.024230,0.000000,0.030566 LLEG_JOINT4:0.996907,0.076778,0.000000,-0.016763 RARM_JOINT2:0.829388,0.000000,-0.008750,0.558604 RARM_JOINT3:0.958838,0.000000,0.206602,0.194796 RLEG_JOINT2:0.997775,0.026116,0.000000,-0.061348 RLEG_JOINT4:0.992877,0.109140,0.000000,0.047778 WAIST:0.997455,-0.000000,0.061198,0.036596 WAIST_JOINT0:0.992900,-0.000000,0.103200,0.059158 WAIST_JOINT1:0.998462,0.055441,-0.000000,0.000771 END:
KINECT_DATA_Sensor  AnkleLeft:0.051829,0.733074,-0.097549,-0.671119 AnkleRight:0.105487,0.742528,0.083893,0.656115 ElbowLeft:0.421842,-0.400276,0.349815,0.734478 ElbowRight:-0.020256,0.925288,0.164189,0.341282 FootLeft:0.000000,0.000000,0.000000,0.000000 FootRight:0.000000,0.000000,0.000000,0.000000 HandLeft:-0.029360,-0.543811,0.716618,-0.435737 HandRight:0.168391,-0.489488,-0.070811,0.852661 HandTipLeft:0.000000,0.000000,0.000000,0.000000 HandTipRight:0.000000,0.000000,0.000000,0.000000 Head:0.000000,0.000000,0.000000,0.000000 HipLeft:0.083791,-0.661545,0.733555,-0.131278 HipRight:-0.172132,0.694703,0.669492,-0.198843 KneeLeft:0.027910,-0.660637,0.064799,0.747383 KneeRight:-0.002757,0.750264,0.034349,0.660240 Neck:-0.105689,0.037500,0.991273,-0.069289 ShoulderLeft:0.082368,0.740363,-0.666539,-0.028351 ShoulderRight:-0.054501,0.802369,0.579706,-0.131053 SpineBase:-0.062412,0.031951,0.997042,-0.031474 SpineMid:-0.083482,0.032609,0.995499,-0.030791 SpineShoulder:-0.105264,0.035826,0.992596,-0.048889 ThumbLeft:0.000000,0.000000,0.000000,0.000000 ThumbRight:0.000000,0.000000,0.000000,0.000000 WristLeft:-0.040787,-0.557845,0.707715,-0.431606 WristRight:0.112025,-0.496554,-0.092047,0.855811 END:
KINECT_DATA POSITION:11.823570,-0.881568,9.181393 HEAD_JOINT1:0.984233,0.172791,-0.000000,0.037797 LARM_JOINT2:0.974409,0.000000,-0.017639,-0.224088 LARM_JOINT3:0.934732,0.000000,-0.309076,0.175352 LLEG_JOINT2:0.999236,0.024710,0.000000,0.030271 LLEG_JOINT4:0.997190,0.073612,0.000000,-0.013893 RARM_JOINT2:0.833409,0.000000,-0.017201,0.552389 RARM_JOINT3:0.958026,0.000000,0.198659,0.206691 RLEG_JOINT2:0.997780,0.026570,0.000000,-0.061062 RLEG_JOINT4:0.993356,0.105826,0.000000,0.045208 WAIST:0.997375,-0.000000,0.062402,0.036740 WAIST_JOINT0:0.992983,-0.000000,0.102617,0.058778 WAIST_JOINT1:0.998457,0.055534,-0.000000,0.000392 END:
KINECT_DATA_Sensor  AnkleLeft:0.048714,0.736384,-0.097880,-0.667672 AnkleRight:0.104025,0.760944,0.080542,0.635339 ElbowLeft:0.443642,-0.411869,0.343703,0.717924 ElbowRight:-0.017300,0.925006,0.174099,0.337275 FootLeft:0.000000,0.000000,0.000000,0.000000 FootRight:0.000000,0.000000,0.000000,0.000000 HandLeft:-0.055225,-0.578048,0.710151,-0.398116 HandRight:0.156569,-0.694504,0.009507,0.702183 HandTipLeft:0.000000,0.000000,0.000000,0.000000 HandTipRight:0.000000,0.000000,0.000000,0.000000 Head:0.000000,0.000000,0.000000,0.000000 HipLeft:0.082725,-0.661473,0.733913,-0.130313 HipRight:-0.172404,0.694619,0.669435,-0.199093 KneeLeft:0.027409,-0.659725,0.065000,0.748189 KneeRight:-0.002213,0.751085,0.034362,0.659307 Neck:-0.105116,0.037001,0.991339,-0.069492 ShoulderLeft:0.081055,0.740570,-0.666531,-0.026886 ShoulderRight:-0.055184,0.802103,0.579915,-0.131467 SpineBase:-0.063621,0.032095,0.996960,-0.031507 SpineMid:-0.083791,0.032726,0.995468,-0.030850 SpineShoulder:-0.104685,0.035457,0.992664,-0.049012 ThumbLeft:0.000000,0.000000,0.000000,0.000000 ThumbRight:0.000000,0.000000,0.000000,0.000000 WristLeft:-0.056630,-0.597801,0.688227,-0.407149 WristRight:-0.129207,0.709544,0.057736,-0.690304 END:
KINECT_DATA POSITION:11.784068,-0.873145,9.147966 HEAD_JOINT1:0.984406,0.172378,-0.000000,0.035093 LARM_JOINT2:0.978994,0.000000,-0.050314,-0.197582 LARM_JOINT3:0.960311,0.000000,-0.241348,0.139838 LLEG_JOINT2:0.999251,0.024571,0.000000,0.029903 LLEG_JOINT4:0.997271,0.072486,0.000000,-0.014013 RARM_JOINT2:0.833861,0.000000,-0.022710,0.551507 RARM_JOINT3:0.956664,0.000000,0.201616,0.210108 RLEG_JOINT2:0.997823,0.025273,0.000000,-0.060917 RLEG_JOINT4:0.993329,0.105859,0.000000,0.045732 WAIST:0.997418,-0.000000,0.061658,0.036831 WAIST_JOINT0:0.993637,-0.000000,0.096753,0.057664 WAIST_JOINT1:0.998440,0.055829,-0.000000,0.000163 END:
KINECT_DATA_Sensor  AnkleLeft:0.046222,0.725814,-0.097678,-0.679350 AnkleRight:0.102801,0.752546,0.080339,0.645486 ElbowLeft:0.472916,-0.428769,0.336347,0.692371 ElbowRight:-0.013240,0.924343,0.177299,0.337610 FootLeft:0.000000,0.000000,0.000000,0.000000 FootRight:0.000000,0.000000,0.000000,0.000000 HandLeft:-0.102913,-0.565556,0.703999,-0.417063 HandRight:-0.169922,0.707545,-0.009979,-0.685862 HandTipLeft:0.000000,0.000000,0.000000,0.000000 HandTipRight:0.000000,0.000000,0.000000,0.000000 Head:0.000000,0.000000,0.000000,0.000000 HipLeft:0.082584,-0.661361,0.733989,-0.130539 HipRight:-0.171473,0.694920,0.669593,-0.198312 KneeLeft:0.027364,-0.660291,0.064695,0.747717 KneeRight:-0.002858,0.750539,0.033252,0.659983 Neck:-0.099105,0.036379,0.991940,-0.070071 ShoulderLeft:0.074039,0.742148,-0.665856,-0.019223 ShoulderRight:-0.054736,0.801948,0.580616,-0.129490 SpineBase:-0.062880,0.032411,0.996991,-0.031698 SpineMid:-0.080404,0.032963,0.995731,-0.031123 SpineShoulder:-0.098648,0.035137,0.993271,-0.049457 ThumbLeft:0.000000,0.000000,0.000000,0.000000 ThumbRight:0.000000,0.000000,0.000000,0.000000 WristLeft:-0.116419,-0.606469,0.664116,-0.421416 WristRight:-0.125752,0.723378,0.053511,-0.676792 END:
KINECT_DATA POSITION:11.762591,-0.875876,9.126329 HEAD_JOINT1:0.984593,0.171729,-0.000000,0.032956 LARM_JOINT2:0.980630,0.000000,-0.076580,-0.180280 LARM_JOINT3:0.976210,0.000000,-0.187295,0.109244 LLEG_JOINT2:0.999238,0.025101,0.000000,0.029901 LLEG_JOINT4:0.997187,0.073681,0.000000,-0.013780 RARM_JOINT2:0.833907,0.000000,-0.024193,0.551374 RARM_JOINT3:0.955845,0.000000,0.208587,0.207008 RLEG_JOINT2:0.997853,0.025319,0.000000,-0.060395 RLEG_JOINT4:0.993400,0.105657,0.000000,0.044640 WAIST:0.997468,-0.000000,0.060943,0.036668 WAIST_JOINT0:0.994470,-0.000000,0.089819,0.054429 WAIST_JOINT1:0.998435,0.055927,0.000000,-0.000125 END:
KINECT_DATA_Sensor  AnkleLeft:0.047321,0.724614,-0.098892,-0.680379 AnkleRight:0.101885,0.749323,0.081119,0.649273 ElbowLeft:0.491940,-0.444713,0.329115,0.672242 ElbowRight:-0.012629,0.922998,0.178396,0.340720 FootLeft:0.000000,0.000000,0.000000,0.000000 FootRight:0.000000,0.000000,0.000000,0.000000 HandLeft:-0.163820,-0.560471,0.676115,-0.449337 HandRight:0.166067,-0.494848,-0.060429,0.850821 HandTipLeft:0.000000,0.000000,0.000000,0.000000 HandTipRight:0.000000,0.000000,0.000000,0.000000 Head:0.000000,0.000000,0.000000,0.000000 HipLeft:0.082671,-0.661427,0.733883,-0.130750 HipRight:-0.170680,0.694960,0.669903,-0.197811 KneeLeft:0.026877,-0.660829,0.064929,0.747240 KneeRight:-0.002509,0.750065,0.033075,0.660532 Neck:-0.091769,0.035403,0.992658,-0.070388 ShoulderLeft:0.065022,0.746154,-0.662510,-0.010341 ShoulderRight:-0.054508,0.801611,0.581643,-0.127043 SpineBase:-0.062167,0.032233,0.997036,-0.031855 SpineMid:-0.076385,0.032685,0.996048,-0.031392 SpineShoulder:-0.091296,0.034422,0.993982,-0.049792 ThumbLeft:0.000000,0.000000,0.000000,0.000000 ThumbRight:0.000000,0.000000,0.000000,0.000000 WristLeft:-0.177454,-0.600653,0.635680,-0.451262 WristRight:0.106404,-0.501810,-0.088187,0.853866 END:
KINECT_DATA POSITION:11.767965,-0.876270,9.139705 HEAD_JOINT1:0.984619,0.172409,-0.000000,0.028305 LARM_JOINT2:0.980653,0.000000,-0.088917,-0.174397 LARM_JOINT3:0.980785,0.000000,-0.168040,0.099110 LLEG_JOINT2:0.999239,0.025124,0.000000,0.029842 LLEG_JOINT4:0.997098,0.075124,0.000000,-0.012305 RARM_JOINT2:0.833808,0.000000,-0.025508,0.551465 RARM_JOINT3:0.956484,0.000000,0.203862,0.208757 RLEG_JOINT2:0.997875,0.024836,0.000000,-0.060238 RLEG_JOINT4:0.992839,0.109724,0.000000,0.047237 WAIST:0.997494,-0.000000,0.060731,0.036297 WAIST_JOINT0:0.995021,-0.000000,0.085231,0.051658 WAIST_JOINT1:0.998432,0.055985,0.000000,-0.000349 END:
KINECT_DATA_Sensor  AnkleLeft:0.048424,0.728109,-0.100369,-0.676342 AnkleRight:0.104783,0.738260,0.083825,0.661034 ElbowLeft:0.502549,-0.444979,0.318778,0.669193 ElbowRight:-0.012223,0.921827,0.179299,0.343421 FootLeft:0.000000,0.000000,0.000000,0.000000 FootRight:0.000000,0.000000,0.000000,0.000000 HandLeft:-0.114223,-0.589047,0.680297,-0.420919 HandRight:0.163986,-0.685488,-0.000670,0.709376 HandTipLeft:0.000000,0.000000,0.000000,0.000000 HandTipRight:0.000000,0.000000,0.000000,0.000000 Head:0.000000,0.000000,0.000000,0.000000 HipLeft:0.082658,-0.661740,0.733614,-0.130680 HipRight:-0.170468,0.694814,0.670167,-0.197611 KneeLeft:0.026567,-0.661014,0.064638,0.747112 KneeRight:-0.002961,0.749890,0.032879,0.660739 Neck:-0.087024,0.034316,0.993104,-0.070664 ShoulderLeft:0.059761,0.748832,-0.660040,-0.005143 ShoulderRight:-0.053696,0.801195,0.582731,-0.125010 SpineBase:-0.061937,0.032021,0.997058,-0.031833 SpineMid:-0.073895,0.032401,0.996243,-0.031446 SpineShoulder:-0.086533,0.033669,0.994424,-0.049990 ThumbLeft:0.000000,0.000000,0.000000,0.000000 ThumbRight:0.000000,0.000000,0.000000,0.000000 WristLeft:-0.147530,-0.635313,0.638800,-0.408101 WristRight:0.123345,-0.692470,-0.061212,0.708184 END:
KINECT_DATA POSITION:11.810685,-0.880280,9.203434 HEAD_JOINT1:0.984255,0.174934,-0.000000,0.025319 LARM_JOINT2:0.980569,0.000000,-0.093662,-0.172373 LARM_JOINT3:0.980954,0.000000,-0.168590,0.096476 LLEG_JOINT2:0.999220,0.026057,0.000000,0.029656 LLEG_JOINT4:0.997276,0.072953,0.000000,-0.010900 RARM_JOINT2:0.833690,0.000000,-0.027018,0.551572 RARM_JOINT3:0.956483,0.000000,0.205599,0.207047 RLEG_JOINT2:0.997907,0.024354,0.000000,-0.059904 RLEG_JOINT4:0.992950,0.108330,0.000000,0.048106 WAIST:0.997583,-0.000000,0.059481,0.035920 WAIST_JOINT0:0.995473,-0.000000,0.080726,0.050166 WAIST_JOINT1:0.998417,0.056250,0.000000,-0.000460 END:
KINECT_DATA_Sensor  AnkleLeft:0.048167,0.737911,-0.099826,-0.665735 AnkleRight:0.103547,0.731357,0.082768,0.668987 ElbowLeft:0.503994,-0.451302,0.318009,0.664219 ElbowRight:-0.011382,0.919970,0.180272,0.347891 FootLeft:0.000000,0.000000,0.000000,0.000000 FootRight:0.000000,0.000000,0.000000,0.000000 HandLeft:-0.143373,-0.553391,0.675737,-0.465384 HandRight:0.158087,-0.507969,-0.042668,0.845669 HandTipLeft:0.000000,0.000000,0.000000,0.000000 HandTipRight:0.000000,0.000000,0.000000,0.000000 Head:0.000000,0.000000,0.000000,0.000000 HipLeft:0.083020,-0.661950,0.733300,-0.131152 HipRight:-0.169352,0.694842,0.670662,-0.196790 KneeLeft:0.025526,-0.661964,0.064850,0.746288 KneeRight:-0.003226,0.749028,0.032599,0.661727 Neck:-0.082543,0.033606,0.993478,-0.071132 ShoulderLeft:0.055588,0.750033,-0.659061,-0.000376 ShoulderRight:-0.052152,0.801092,0.583485,-0.122792 SpineBase:-0.060677,0.031763,0.997139,-0.031984 SpineMid:-0.071027,0.032093,0.996455,-0.031652 SpineShoulder:-0.082044,0.033095,0.994806,-0.050343 ThumbLeft:0.000000,0.000000,0.000000,0.000000 ThumbRight:0.000000,0.000000,0.000000,0.000000 WristLeft:-0.185591,-0.609722,0.626394,-0.448806 WristRight:0.104573,-0.514646,-0.088733,0.846363 END:
KINECT_DATA POSITION:11.871851,-0.885051,9.313726 HEAD_JOINT1:0.984190,0.174738,-0.000000,0.028921 LARM_JOINT2:0.980499,0.000000,-0.102091,-0.167925 LARM_JOINT3:0.981094,0.000000,-0.168553,0.095098 LLEG_JOINT2:0.999195,0.027335,0.000000,0.029378 LLEG_JOINT4:0.997341,0.071556,0.000000,-0.013818 RARM_JOINT2:0.833331,0.000000,-0.026545,0.552137 RARM_JOINT3:0.956193,0.000000,0.206086,0.207903 RLEG_JOINT2:0.997943,0.024672,0.000000,-0.059169 RLEG_JOINT4:0.993281,0.107166,0.000000,0.043680 WAIST:0.997757,-0.000000,0.056644,0.035677 WAIST_JOINT0:0.995892,-0.000000,0.075909,0.049370 WAIST_JOINT1:0.998394,0.056638,0.000000,-0.001059 END:
KINECT_DATA_Sensor  AnkleLeft:0.047702,0.725219,-0.098227,-0.679803 AnkleRight:0.102859,0.749766,0.081421,0.648568 ElbowLeft:0.508261,-0.460720,0.315241,0.655768 ElbowRight:-0.010900,0.918906,0.180499,0.350589 FootLeft:0.000000,0.000000,0.000000,0.000000 FootRight:0.000000,0.000000,0.000000,0.000000 HandLeft:-0.116259,-0.560183,0.682254,-0.455202 HandRight:0.162347,-0.522879,-0.039165,0.835887 HandTipLeft:0.000000,0.000000,0.000000,0.000000 HandTipRight:0.000000,0.000000,0.000000,0.000000 Head:0.000000,0.000000,0.000000,0.000000 HipLeft:0.084489,-0.661867,0.732938,-0.132649 HipRight:-0.167213,0.695138,0.671332,-0.195284 KneeLeft:0.024326,-0.664080,0.065321,0.744405 KneeRight:-0.002471,0.747159,0.032598,0.663841 Neck:-0.077633,0.032691,0.993866,-0.071658 ShoulderLeft:0.052028,0.750786,-0.658481,0.004172 ShoulderRight:-0.049381,0.800926,0.584593,-0.119707 SpineBase:-0.057855,0.031261,0.997315,-0.032234 SpineMid:-0.067164,0.031561,0.996731,-0.031941 SpineShoulder:-0.077130,0.032316,0.995203,-0.050766 ThumbLeft:0.000000,0.000000,0.000000,0.000000 ThumbRight:0.000000,0.000000,0.000000,0.000000 WristLeft:-0.161079,-0.617011,0.633719,-0.437894 WristRight:0.105407,-0.529797,-0.087538,0.836984 END:
KINECT_DATA POSITION:11.875322,-0.888229,9.366798 HEAD_JOINT1:0.984065,0.175066,-0.000000,0.031098 LARM_JOINT2:0.979606,0.000000,-0.111408,-0.167213 LARM_JOINT3:0.980098,0.000000,-0.175899,0.092020 LLEG_JOINT2:0.999191,0.027334,0.000000,0.029487 LLEG_JOINT4:0.997279,0.072560,0.000000,-0.013028 RARM_JOINT2:0.832947,0.000000,-0.027337,0.552677 RARM_JOINT3:0.956799,0.000000,0.204659,0.206520 RLEG_JOINT2:0.997970,0.023483,0.000000,-0.059195 RLEG_JOINT4:0.992882,0.109957,0.000000,0.045775 WAIST:0.997777,-0.000000,0.056485,0.035368 WAIST_JOINT0:0.996125,-0.000000,0.073021,0.049011 WAIST_JOINT1:0.998371,0.057046,0.000000,-0.001030 END:
KINECT_DATA_Sensor  AnkleLeft:0.048758,0.729281,-0.099022,-0.675253 AnkleRight:0.103122,0.732218,0.084106,0.667944 ElbowLeft:0.508485,-0.472181,0.313918,0.648031 ElbowRight:-0.010079,0.918153,0.180635,0.352511 FootLeft:0.000000,0.000000,0.000000,0.000000 FootRight:0.000000,0.000000,0.000000,0.000000 HandLeft:-0.057341,-0.594971,0.679090,-0.426096 HandRight:0.159932,-0.696145,-0.000449,0.699860 HandTipLeft:0.000000,0.000000,0.000000,0.000000 HandTipRight:0.000000,0.000000,0.000000,0.000000 Head:0.000000,0.000000,0.000000,0.000000 HipLeft:0.084299,-0.662063,0.732759,-0.132783 HipRight:-0.166779,0.694958,0.671634,-0.195259 KneeLeft:0.024188,-0.664216,0.065183,0.744300 KneeRight:-0.003494,0.746990,0.031953,0.664058 Neck:-0.074719,0.032178,0.994065,-0.072232 ShoulderLeft:0.050105,0.750930,-0.658440,0.007075 ShoulderRight:-0.047567,0.800684,0.585416,-0.118029 SpineBase:-0.057692,0.031040,0.997322,-0.032520 SpineMid:-0.065631,0.031298,0.996831,-0.032272 SpineShoulder:-0.074210,0.031897,0.995414,-0.051248 ThumbLeft:0.000000,0.000000,0.000000,0.000000 ThumbRight:0.000000,0.000000,0.000000,0.000000 WristLeft:-0.107246,-0.641888,0.643790,-0.402507 WristRight:-0.121833,0.710433,0.060806,-0.690467 END:
KINECT_DATA POSITION:11.866086,-0.885688,9.413088 HEAD_JOINT1:0.983964,0.174799,-0.000000,0.035500 LARM_JOINT2:0.977772,0.000000,-0.127694,-0.166303 LARM_JOINT3:0.982835,0.000000,-0.162585,0.087190 LLEG_JOINT2:0.999154,0.028245,0.000000,0.029902 LLEG_JOINT4:0.997136,0.074112,0.000000,-0.015041 RARM_JOINT2:0.832042,0.000000,-0.031264,0.553831 RARM_JOINT3:0.959209,0.000000,0.200346,0.199451 RLEG_JOINT2:0.998001,0.024576,0.000000,-0.058218 RLEG_JOINT4:0.993211,0.107742,0.000000,0.043854 WAIST:0.997843,-0.000000,0.055514,0.035038 WAIST_JOINT0:0.996649,-0.000000,0.066440,0.047708 WAIST_JOINT1:0.998317,0.057978,0.000000,-0.001238 END:
KINECT_DATA_Sensor  AnkleLeft:-0.043927,-0.674729,0.102724,0.729561 AnkleRight:0.102462,0.739188,0.082916,0.660475 ElbowLeft:0.512996,-0.483650,0.304047,0.640681 ElbowRight:-0.007570,0.913922,0.181659,0.362891 FootLeft:0.000000,0.000000,0.000000,0.000000 FootRight:0.000000,0.000000,0.000000,0.000000 HandLeft:-0.041706,-0.619544,0.672901,-0.402032 HandRight:0.136712,-0.703428,0.003961,0.697483 HandTipLeft:0.000000,0.000000,0.000000,0.000000 HandTipRight:0.000000,0.000000,0.000000,0.000000 Head:0.000000,0.000000,0.000000,0.000000 HipLeft:0.084436,-0.662160,0.732484,-0.133723 HipRight:-0.165684,0.694801,0.672082,-0.195209 KneeLeft:0.023588,-0.664934,0.065867,0.743619 KneeRight:-0.002213,0.746385,0.032374,0.664723 Neck:-0.068091,0.031213,0.994484,-0.073423 ShoulderLeft:0.047475,0.751490,-0.657923,0.012075 ShoulderRight:-0.041531,0.800022,0.587785,-0.112910 SpineBase:-0.056737,0.030671,0.997364,-0.033243 SpineMid:-0.061852,0.030841,0.997060,-0.033085 SpineShoulder:-0.067575,0.031087,0.995856,-0.052331 ThumbLeft:0.000000,0.000000,0.000000,0.000000 ThumbRight:0.000000,0.000000,0.000000,0.000000 WristLeft:0.074546,0.653879,-0.645530,0.387527 WristRight:-0.116260,0.716536,0.062939,-0.684908 END:
KINECT_DATA POSITION:11.861581,-0.876634,9.403431 HEAD_JOINT1:0.983636,0.176088,-0.000000,0.038128 LARM_JOINT2:0.977566,0.000000,-0.128758,-0.166691 LARM_JOINT3:0.983278,0.000000,-0.160351,0.086319 LLEG_JOINT2:0.999151,0.028748,0.000000,0.029507 LLEG_JOINT4:0.997249,0.072524,0.000000,-0.015333 RARM_JOINT2:0.831195,0.000000,-0.033532,0.554968 RARM_JOINT3:0.957833,0.000000,0.206409,0.199878 RLEG_JOINT2:0.998022,0.023861,0.000000,-0.058162 RLEG_JOINT4:0.993093,0.108617,0.000000,0.044379 WAIST:0.997929,-0.000000,0.054067,0.034847 WAIST_JOINT0:0.996873,-0.000000,0.063879,0.046517 WAIST_JOINT1:0.998323,0.057866,0.000000,-0.001781 END:
KINECT_DATA_Sensor  AnkleLeft:0.049498,0.717923,-0.098712,-0.687308 AnkleRight:0.103241,0.739876,0.082400,0.659647 ElbowLeft:0.514054,-0.483357,0.300342,0.641801 ElbowRight:-0.005897,0.912168,0.181873,0.367202 FootLeft:0.000000,0.000000,0.000000,0.000000 FootRight:0.000000,0.000000,0.000000,0.000000 HandLeft:-0.029940,-0.629141,0.670688,-0.391744 HandRight:-0.166125,0.724054,-0.001238,-0.669438 HandTipLeft:0.000000,0.000000,0.000000,0.000000 HandTipRight:0.000000,0.000000,0.000000,0.000000 Head:0.000000,0.000000,0.000000,0.000000 HipLeft:0.085250,-0.662154,0.732291,-0.134292 HipRight:-0.164562,0.694907,0.672510,-0.194303 KneeLeft:0.022874,-0.666021,0.065774,0.742675 KneeRight:-0.002702,0.745389,0.031979,0.665856 Neck:-0.065424,0.030375,0.994699,-0.073286 ShoulderLeft:0.047040,0.752373,-0.656931,0.012774 ShoulderRight:-0.038353,0.799572,0.589207,-0.109769 SpineBase:-0.055295,0.030258,0.997458,-0.033229 SpineMid:-0.059800,0.030408,0.997198,-0.033092 SpineShoulder:-0.064906,0.030413,0.996058,-0.052256 ThumbLeft:0.000000,0.000000,0.000000,0.000000 ThumbRight:0.000000,0.000000,0.000000,0.000000 WristLeft:0.062230,0.660626,-0.646398,0.376656 WristRight:-0.113879,0.739709,0.059907,-0.660510 END:
KINECT_DATA POSITION:11.865057,-0.886022,9.385050 HEAD_JOINT1:0.983397,0.177150,-0.000000,0.039342 LARM_JOINT2:0.976663,0.000000,-0.068730,-0.203484 LARM_JOINT3:0.946290,0.000000,-0.282540,0.157182 LLEG_JOINT2:0.999151,0.028837,0.000000,0.029423 LLEG_JOINT4:0.997315,0.072193,0.000000,-0.012288 RARM_JOINT2:0.831112,0.000000,-0.033108,0.555119 RARM_JOINT3:0.958223,0.000000,0.205962,0.198463 RLEG_JOINT2:0.997985,0.024093,0.000000,-0.058697 RLEG_JOINT4:0.993012,0.109562,0.000000,0.043864 WAIST:0.997998,-0.000000,0.052666,0.035032 WAIST_JOINT0:0.996912,-0.000000,0.063383,0.046352 WAIST_JOINT1:0.998309,0.058097,0.000000,-0.002095 END:
KINECT_DATA_Sensor  AnkleLeft:0.046096,0.710676,-0.101715,-0.694600 AnkleRight:0.104294,0.744807,0.082782,0.653859 ElbowLeft:0.474003,-0.449308,0.317158,0.687644 ElbowRight:-0.005964,0.911174,0.181801,0.369694 FootLeft:0.000000,0.000000,0.000000,0.000000 FootRight:0.000000,0.000000,0.000000,0.000000 HandLeft:0.010082,-0.531859,0.720213,-0.445328 HandRight:0.153960,-0.487264,-0.049069,0.858174 HandTipLeft:0.000000,0.000000,0.000000,0.000000 HandTipRight:0.000000,0.000000,0.000000,0.000000 Head:0.000000,0.000000,0.000000,0.000000 HipLeft:0.085700,-0.661950,0.732294,-0.134991 HipRight:-0.163301,0.695289,0.672633,-0.193574 KneeLeft:0.022940,-0.667049,0.065904,0.741739 KneeRight:-0.002734,0.744474,0.032418,0.666858 Neck:-0.064886,0.030396,0.994713,-0.073562 ShoulderLeft:0.047192,0.752515,-0.656754,0.012946 ShoulderRight:-0.037476,0.799429,0.589566,-0.109180 SpineBase:-0.053920,0.030179,0.997527,-0.033503 SpineMid:-0.058843,0.030344,0.997248,-0.033353 SpineShoulder:-0.064369,0.030392,0.996085,-0.052425 ThumbLeft:0.000000,0.000000,0.000000,0.000000 ThumbRight:0.000000,0.000000,0.000000,0.000000 WristLeft:-0.052452,-0.600690,0.675701,-0.424085 WristRight:0.088656,-0.493730,-0.093708,0.859994 END:
