EastLYD/RoboCupatHomeSim/InteractiveCleanUp/JapanOpen2016/Motion_Data/File27.dat
KINECT_DATA POSITION:6.140921,-0.505914,-6.281888 HEAD_JOINT1:0.979198,0.163612,-0.000000,0.120013 LARM_JOINT2:0.822897,0.000000,-0.043704,-0.566507 LARM_JOINT3:0.966738,0.000000,-0.178183,-0.183492 LLEG_JOINT2:0.998729,0.034348,0.000000,0.036889 LLEG_JOINT4:0.995593,0.088086,0.000000,-0.032176 RARM_JOINT2:0.790286,0.000000,0.000220,0.612738 RARM_JOINT3:0.960798,0.000000,0.218028,0.171263 RLEG_JOINT2:0.999465,0.021757,0.000000,-0.024428 RLEG_JOINT4:0.994013,0.104826,0.000000,0.030820 WAIST:0.999559,0.000000,-0.029677,-0.001108 WAIST_JOINT0:0.998992,0.000000,-0.043118,0.012490 WAIST_JOINT1:0.997596,0.067917,0.000000,-0.013741 END:
KINECT_DATA_Sensor  AnkleLeft:0.083311,0.735016,-0.089390,-0.666948 AnkleRight:0.096287,0.683144,0.082007,0.719248 ElbowLeft:-0.040226,0.925535,-0.163054,-0.339382 ElbowRight:-0.000969,0.864779,0.155256,0.477548 FootLeft:0.000000,0.000000,0.000000,0.000000 FootRight:0.000000,0.000000,0.000000,0.000000 HandLeft:-0.144211,0.772218,0.024717,0.618281 HandRight:-0.104533,0.849647,-0.192378,0.479753 HandTipLeft:0.000000,0.000000,0.000000,0.000000 HandTipRight:0.000000,0.000000,0.000000,0.000000 Head:0.000000,0.000000,0.000000,0.000000 HipLeft:0.138346,-0.676895,0.698995,-0.184607 HipRight:-0.097683,0.681689,0.707586,-0.158364 KneeLeft:-0.002458,0.727617,-0.049517,-0.684189 KneeRight:-0.001665,0.686192,0.033484,0.726647 Neck:0.042001,-0.014400,0.995481,-0.083944 ShoulderLeft:-0.006170,0.781526,-0.616970,0.092347 ShoulderRight:0.048552,0.792458,0.607517,-0.024011 SpineBase:0.029151,-0.012109,0.998524,-0.044208 SpineMid:0.035393,-0.012385,0.998322,-0.044132 SpineShoulder:0.041889,-0.013423,0.997042,-0.063035 ThumbLeft:0.000000,0.000000,0.000000,0.000000 ThumbRight:0.000000,0.000000,0.000000,0.000000 WristLeft:-0.125485,0.785515,-0.063364,0.602664 WristRight:-0.118065,0.860066,-0.069941,0.491381 END:
KINECT_DATA POSITION:6.112133,-0.502805,-6.298327 HEAD_JOINT1:0.979144,0.164300,-0.000000,0.119510 LARM_JOINT2:0.822930,0.000000,-0.043565,-0.566470 LARM_JOINT3:0.967213,0.000000,-0.177146,-0.181984 LLEG_JOINT2:0.998715,0.034698,0.000000,0.036929 LLEG_JOINT4:0.995528,0.089041,0.000000,-0.031540 RARM_JOINT2:0.793196,0.000000,0.000032,0.608967 RARM_JOINT3:0.961276,0.000000,0.217200,0.169623 RLEG_JOINT2:0.999510,0.020554,0.000000,-0.023611 RLEG_JOINT4:0.993915,0.105942,0.000000,0.030162 WAIST:0.999553,0.000000,-0.029878,-0.001403 WAIST_JOINT0:0.999019,0.000000,-0.042885,0.011020 WAIST_JOINT1:0.997586,0.068106,0.000000,-0.013544 END:
KINECT_DATA_Sensor  AnkleLeft:0.083065,0.728679,-0.091384,-0.673629 AnkleRight:0.096175,0.683295,0.081995,0.719121 ElbowLeft:-0.039785,0.926023,-0.163173,-0.338042 ElbowRight:-0.001674,0.867502,0.159710,0.471095 FootLeft:0.000000,0.000000,0.000000,0.000000 FootRight:0.000000,0.000000,0.000000,0.000000 HandLeft:-0.135161,0.791540,0.023574,0.595517 HandRight:-0.121368,0.878905,-0.162499,0.431729 HandTipLeft:0.000000,0.000000,0.000000,0.000000 HandTipRight:0.000000,0.000000,0.000000,0.000000 Head:0.000000,0.000000,0.000000,0.000000 HipLeft:0.138299,-0.677024,0.698830,-0.184793 HipRight:-0.097376,0.681473,0.707843,-0.158336 KneeLeft:-0.002047,0.727774,-0.049589,-0.684019 KneeRight:-0.002185,0.686057,0.032273,0.726828 Neck:0.041669,-0.014401,0.995475,-0.084175 ShoulderLeft:-0.006014,0.781388,-0.617142,0.092369 ShoulderRight:0.048296,0.791882,0.608263,-0.024640 SpineBase:0.029367,-0.012276,0.998506,-0.044409 SpineMid:0.035331,-0.012541,0.998313,-0.044335 SpineShoulder:0.041551,-0.013478,0.997044,-0.063214 ThumbLeft:0.000000,0.000000,0.000000,0.000000 ThumbRight:0.000000,0.000000,0.000000,0.000000 WristLeft:-0.127349,0.801308,-0.059037,0.581552 WristRight:-0.121791,0.885831,-0.063498,0.443213 END:
KINECT_DATA POSITION:6.095485,-0.497868,-6.299794 HEAD_JOINT1:0.978904,0.164978,-0.000000,0.120535 LARM_JOINT2:0.822966,0.000000,-0.043416,-0.566429 LARM_JOINT3:0.966693,0.000000,-0.180573,-0.181381 LLEG_JOINT2:0.998700,0.034837,0.000000,0.037200 LLEG_JOINT4:0.995637,0.087870,0.000000,-0.031388 RARM_JOINT2:0.790369,0.000000,0.000194,0.612631 RARM_JOINT3:0.961479,0.000000,0.218225,0.167142 RLEG_JOINT2:0.999529,0.019769,0.000000,-0.023455 RLEG_JOINT4:0.993999,0.105451,0.000000,0.029079 WAIST:0.999531,0.000000,-0.030573,-0.001472 WAIST_JOINT0:0.998996,0.000000,-0.043163,0.011958 WAIST_JOINT1:0.997569,0.068325,0.000000,-0.013710 END:
KINECT_DATA_Sensor  AnkleLeft:0.081992,0.728996,-0.090981,-0.673473 AnkleRight:0.099092,0.722535,0.076320,0.679926 ElbowLeft:-0.039812,0.925689,-0.163054,-0.339010 ElbowRight:-0.000756,0.863981,0.155851,0.478797 FootLeft:0.000000,0.000000,0.000000,0.000000 FootRight:0.000000,0.000000,0.000000,0.000000 HandLeft:-0.145975,0.811747,0.024075,0.564959 HandRight:-0.110009,0.848255,-0.178358,0.486364 HandTipLeft:0.000000,0.000000,0.000000,0.000000 HandTipRight:0.000000,0.000000,0.000000,0.000000 Head:0.000000,0.000000,0.000000,0.000000 HipLeft:0.138683,-0.676966,0.698693,-0.185235 HipRight:-0.096831,0.681501,0.707952,-0.158064 KneeLeft:-0.002135,0.728250,-0.049826,-0.683494 KneeRight:-0.002677,0.685570,0.031673,0.727313 Neck:0.042066,-0.014584,0.995430,-0.084475 ShoulderLeft:-0.006009,0.781330,-0.617162,0.092728 ShoulderRight:0.048827,0.791847,0.608277,-0.024354 SpineBase:0.030056,-0.012460,0.998478,-0.044541 SpineMid:0.035873,-0.012720,0.998286,-0.044468 SpineShoulder:0.041947,-0.013635,0.997011,-0.063427 ThumbLeft:0.000000,0.000000,0.000000,0.000000 ThumbRight:0.000000,0.000000,0.000000,0.000000 WristLeft:-0.129473,0.822232,-0.054646,0.551530 WristRight:-0.118148,0.856369,-0.070646,0.497676 END:
KINECT_DATA POSITION:6.114945,-0.495104,-6.205308 HEAD_JOINT1:0.979452,0.163474,-0.000000,0.118115 LARM_JOINT2:0.822473,0.000000,-0.044544,-0.567058 LARM_JOINT3:0.966475,0.000000,-0.184837,-0.178217 LLEG_JOINT2:0.998707,0.035518,0.000000,0.036383 LLEG_JOINT4:0.995776,0.086169,0.000000,-0.031695 RARM_JOINT2:0.795798,0.000000,0.038206,0.604356 RARM_JOINT3:0.956085,0.000000,0.262045,0.131280 RLEG_JOINT2:0.999473,0.021631,0.000000,-0.024213 RLEG_JOINT4:0.994048,0.104507,0.000000,0.030757 WAIST:0.999590,0.000000,-0.028612,-0.001202 WAIST_JOINT0:0.999040,0.000000,-0.042286,0.011422 WAIST_JOINT1:0.997661,0.067049,0.000000,-0.013314 END:
KINECT_DATA_Sensor  AnkleLeft:0.082367,0.729989,-0.089241,-0.672583 AnkleRight:0.095878,0.683665,0.081806,0.718831 ElbowLeft:-0.041406,0.924960,-0.162084,-0.341268 ElbowRight:-0.036534,0.855094,0.148452,0.495421 FootLeft:0.000000,0.000000,0.000000,0.000000 FootRight:0.000000,0.000000,0.000000,0.000000 HandLeft:-0.160006,0.756129,-0.008837,0.634499 HandRight:-0.164554,0.579821,-0.249526,0.757936 HandTipLeft:0.000000,0.000000,0.000000,0.000000 HandTipRight:0.000000,0.000000,0.000000,0.000000 Head:0.000000,0.000000,0.000000,0.000000 HipLeft:0.138529,-0.677188,0.698891,-0.183786 HipRight:-0.099324,0.681570,0.707404,-0.158672 KneeLeft:-0.001162,0.726932,-0.049955,-0.684889 KneeRight:-0.001712,0.686939,0.033307,0.725950 Neck:0.041450,-0.013964,0.995632,-0.082487 ShoulderLeft:-0.007255,0.781643,-0.616834,0.092179 ShoulderRight:0.046707,0.791303,0.609125,-0.024981 SpineBase:0.028117,-0.011918,0.998595,-0.043301 SpineMid:0.034592,-0.012199,0.998392,-0.043223 SpineShoulder:0.041320,-0.013281,0.997112,-0.062318 ThumbLeft:0.000000,0.000000,0.000000,0.000000 ThumbRight:0.000000,0.000000,0.000000,0.000000 WristLeft:-0.124962,0.767867,-0.068081,0.624604 WristRight:-0.117452,0.595225,-0.143718,0.781829 END:
KINECT_DATA POSITION:6.272930,-0.432133,-6.006610 HEAD_JOINT1:0.984276,0.144859,-0.000000,0.101082 LARM_JOINT2:0.819857,0.000000,-0.046452,-0.570680 LARM_JOINT3:0.968359,0.000000,-0.178498,-0.174411 LLEG_JOINT2:0.998727,0.036352,0.000000,0.034962 LLEG_JOINT4:0.995999,0.085736,0.000000,-0.025187 RARM_JOINT2:0.825517,0.000000,0.215258,0.521714 RARM_JOINT3:0.959781,0.000000,0.276573,0.048238 RLEG_JOINT2:0.999462,0.021309,0.000000,-0.024922 RLEG_JOINT4:0.993610,0.107531,0.000000,0.034288 WAIST:0.999657,0.000000,-0.026012,-0.003167 WAIST_JOINT0:0.999557,0.000000,-0.029328,0.005002 WAIST_JOINT1:0.998213,0.058927,0.000000,-0.009923 END:
KINECT_DATA_Sensor  AnkleLeft:0.084258,0.755327,-0.088146,-0.643904 AnkleRight:0.098850,0.690588,0.082432,0.711704 ElbowLeft:-0.048613,0.923722,-0.155520,-0.346680 ElbowRight:-0.207823,0.833045,0.114566,0.499720 FootLeft:0.000000,0.000000,0.000000,0.000000 FootRight:0.000000,0.000000,0.000000,0.000000 HandLeft:-0.144760,0.714599,-0.018810,0.684134 HandRight:-0.370416,0.817530,-0.127189,0.422207 HandTipLeft:0.000000,0.000000,0.000000,0.000000 HandTipRight:0.000000,0.000000,0.000000,0.000000 Head:0.000000,0.000000,0.000000,0.000000 HipLeft:0.139452,-0.679545,0.697490,-0.179668 HipRight:-0.104514,0.680825,0.707971,-0.155988 KneeLeft:0.001968,0.725351,-0.048197,-0.686687 KneeRight:-0.003913,0.688584,0.034987,0.724302 Neck:0.028950,-0.011758,0.996817,-0.073339 ShoulderLeft:-0.011854,0.783532,-0.615699,0.082779 ShoulderRight:0.025792,0.788945,0.612855,-0.036169 SpineBase:0.025795,-0.010491,0.998883,-0.038170 SpineMid:0.027232,-0.010546,0.998845,-0.038155 SpineShoulder:0.028784,-0.011689,0.998027,-0.054560 ThumbLeft:0.000000,0.000000,0.000000,0.000000 ThumbRight:0.000000,0.000000,0.000000,0.000000 WristLeft:-0.126048,0.724220,-0.081689,0.673011 WristRight:-0.337006,0.830460,-0.121038,0.426747 END:
KINECT_DATA POSITION:6.447080,-0.349299,-5.992651 HEAD_JOINT1:0.985402,0.142021,-0.000000,0.093876 LARM_JOINT2:0.818177,0.000000,-0.040531,-0.573537 LARM_JOINT3:0.969558,0.000000,-0.173583,-0.172702 LLEG_JOINT2:0.998762,0.036842,0.000000,0.033438 LLEG_JOINT4:0.995844,0.087945,0.000000,-0.023659 RARM_JOINT2:0.829922,0.000000,0.327314,0.451769 RARM_JOINT3:0.974831,0.000000,0.220414,0.033509 RLEG_JOINT2:0.999435,0.021218,0.000000,-0.026082 RLEG_JOINT4:0.993414,0.108182,0.000000,0.037749 WAIST:0.999642,0.000000,-0.026385,-0.004399 WAIST_JOINT0:0.999900,0.000000,-0.012650,0.006267 WAIST_JOINT1:0.998443,0.055072,0.000000,-0.008848 END:
KINECT_DATA_Sensor  AnkleLeft:0.085686,0.746006,-0.090375,-0.654191 AnkleRight:0.102024,0.707670,0.079404,0.694614 ElbowLeft:-0.048990,0.917825,-0.152391,-0.363284 ElbowRight:-0.305961,0.845782,0.095071,0.426616 FootLeft:0.000000,0.000000,0.000000,0.000000 FootRight:0.000000,0.000000,0.000000,0.000000 HandLeft:-0.122873,0.729365,0.008183,0.672951 HandRight:-0.406989,0.884823,-0.034609,0.224166 HandTipLeft:0.000000,0.000000,0.000000,0.000000 HandTipRight:0.000000,0.000000,0.000000,0.000000 Head:0.000000,0.000000,0.000000,0.000000 HipLeft:0.142104,-0.681144,0.696089,-0.176945 HipRight:-0.106666,0.680813,0.708391,-0.152639 KneeLeft:0.004261,0.725711,-0.046629,-0.686404 KneeRight:-0.005636,0.688199,0.036637,0.724574 Neck:0.013037,-0.010995,0.997374,-0.070387 ShoulderLeft:-0.009935,0.784140,-0.616310,0.072025 ShoulderRight:0.007225,0.788628,0.612743,-0.050582 SpineBase:0.026262,-0.011042,0.999021,-0.033847 SpineMid:0.019538,-0.010814,0.999175,-0.033921 SpineShoulder:0.012840,-0.011032,0.998574,-0.050632 ThumbLeft:0.000000,0.000000,0.000000,0.000000 ThumbRight:0.000000,0.000000,0.000000,0.000000 WristLeft:-0.129868,0.738805,-0.084150,0.655912 WristRight:-0.403304,0.886745,-0.038862,0.222528 END:
KINECT_DATA POSITION:6.584827,-0.296204,-6.097186 HEAD_JOINT1:0.985243,0.146198,-0.000000,0.089005 LARM_JOINT2:0.817179,0.000000,-0.037071,-0.575191 LARM_JOINT3:0.969287,0.000000,-0.177651,-0.170068 LLEG_JOINT2:0.998841,0.036102,0.000000,0.031847 LLEG_JOINT4:0.995905,0.088091,0.000000,-0.020350 RARM_JOINT2:0.833476,0.000000,0.370341,0.410080 RARM_JOINT3:0.977804,0.000000,0.207221,0.030966 RLEG_JOINT2:0.999404,0.021911,0.000000,-0.026683 RLEG_JOINT4:0.993456,0.107219,0.000000,0.039353 WAIST:0.999721,0.000000,-0.023115,-0.004907 WAIST_JOINT0:0.999981,0.000000,-0.001951,0.005886 WAIST_JOINT1:0.998488,0.054434,0.000000,-0.007638 END:
KINECT_DATA_Sensor  AnkleLeft:0.086301,0.755569,-0.089064,-0.643223 AnkleRight:0.101373,0.705365,0.079836,0.697001 ElbowLeft:-0.046373,0.915702,-0.152468,-0.368907 ElbowRight:-0.349780,0.849831,0.096884,0.382170 FootLeft:0.000000,0.000000,0.000000,0.000000 FootRight:0.000000,0.000000,0.000000,0.000000 HandLeft:-0.131112,0.735280,-0.006814,0.664926 HandRight:-0.321545,0.562959,-0.297153,0.700989 HandTipLeft:0.000000,0.000000,0.000000,0.000000 HandTipRight:0.000000,0.000000,0.000000,0.000000 Head:0.000000,0.000000,0.000000,0.000000 HipLeft:0.140676,-0.682392,0.695938,-0.173845 HipRight:-0.109370,0.680572,0.708168,-0.152835 KneeLeft:0.005416,0.723483,-0.044631,-0.688877 KneeRight:-0.006020,0.690503,0.037901,0.722310 Neck:0.002653,-0.010081,0.997487,-0.070077 ShoulderLeft:-0.007951,0.783920,-0.617215,0.066732 ShoulderRight:-0.004168,0.787200,0.613588,-0.061714 SpineBase:0.023049,-0.010735,0.999161,-0.032122 SpineMid:0.012756,-0.010403,0.999345,-0.032231 SpineShoulder:0.002451,-0.010152,0.998699,-0.049905 ThumbLeft:0.000000,0.000000,0.000000,0.000000 ThumbRight:0.000000,0.000000,0.000000,0.000000 WristLeft:-0.128719,0.743433,-0.083364,0.650991 WristRight:-0.315293,0.565560,-0.291900,0.703936 END:
KINECT_DATA POSITION:6.677918,-0.258761,-6.208587 HEAD_JOINT1:0.985117,0.148484,-0.000000,0.086583 LARM_JOINT2:0.816506,0.000000,-0.037848,-0.576095 LARM_JOINT3:0.969246,0.000000,-0.176469,-0.171526 LLEG_JOINT2:0.998944,0.034140,0.000000,0.030733 LLEG_JOINT4:0.995915,0.088677,0.000000,-0.017008 RARM_JOINT2:0.835191,0.000000,0.445294,0.322753 RARM_JOINT3:0.985268,0.000000,0.150624,0.080992 RLEG_JOINT2:0.999352,0.023327,0.000000,-0.027398 RLEG_JOINT4:0.993729,0.104421,0.000000,0.039976 WAIST:0.999768,0.000000,-0.020974,-0.004802 WAIST_JOINT0:0.999972,-0.000000,0.006123,0.004281 WAIST_JOINT1:0.998482,0.054654,0.000000,-0.006897 END:
KINECT_DATA_Sensor  AnkleLeft:0.076827,0.702996,-0.095822,-0.700509 AnkleRight:0.099042,0.696952,0.080552,0.705663 ElbowLeft:-0.045788,0.916081,-0.152264,-0.368123 ElbowRight:-0.395870,0.890367,0.198773,0.104994 FootLeft:0.000000,0.000000,0.000000,0.000000 FootRight:0.000000,0.000000,0.000000,0.000000 HandLeft:-0.136712,0.723736,-0.004326,0.676385 HandRight:-0.446774,0.780519,-0.144748,0.412591 HandTipLeft:0.000000,0.000000,0.000000,0.000000 HandTipRight:0.000000,0.000000,0.000000,0.000000 Head:0.000000,0.000000,0.000000,0.000000 HipLeft:0.139225,-0.682684,0.696227,-0.172706 HipRight:-0.110747,0.680568,0.707789,-0.153612 KneeLeft:0.004884,0.721977,-0.042515,-0.690592 KneeRight:-0.005490,0.692025,0.039318,0.720781 Neck:-0.005245,-0.008980,0.997466,-0.070379 ShoulderLeft:-0.005259,0.783854,-0.617745,0.062739 ShoulderRight:-0.011690,0.784896,0.615511,-0.070344 SpineBase:0.020930,-0.009951,0.999220,-0.031966 SpineMid:0.007776,-0.009529,0.999409,-0.032095 SpineShoulder:-0.005445,-0.009113,0.998687,-0.050111 ThumbLeft:0.000000,0.000000,0.000000,0.000000 ThumbRight:0.000000,0.000000,0.000000,0.000000 WristLeft:-0.125737,0.734504,-0.084493,0.661479 WristRight:-0.385627,0.809481,-0.139330,0.420262 END:
KINECT_DATA POSITION:6.715862,-0.236313,-6.309736 HEAD_JOINT1:0.985322,0.149891,-0.000000,0.081691 LARM_JOINT2:0.815840,0.000000,-0.035032,-0.577215 LARM_JOINT3:0.969283,0.000000,-0.174577,-0.173247 LLEG_JOINT2:0.998950,0.034209,0.000000,0.030461 LLEG_JOINT4:0.995678,0.091196,0.000000,-0.017590 RARM_JOINT2:0.836632,0.000000,0.444750,0.319758 RARM_JOINT3:0.982795,0.000000,0.178252,0.048373 RLEG_JOINT2:0.999348,0.023148,0.000000,-0.027692 RLEG_JOINT4:0.994055,0.101415,0.000000,0.039619 WAIST:0.999802,0.000000,-0.019225,-0.005042 WAIST_JOINT0:0.999912,-0.000000,0.013046,0.002334 WAIST_JOINT1:0.998490,0.054607,0.000000,-0.005958 END:
KINECT_DATA_Sensor  AnkleLeft:0.086522,0.751649,-0.090660,-0.647548 AnkleRight:0.097715,0.714125,0.077058,0.688868 ElbowLeft:-0.043596,0.914518,-0.152794,-0.372036 ElbowRight:-0.417862,0.871564,0.153038,0.205781 FootLeft:0.000000,0.000000,0.000000,0.000000 FootRight:0.000000,0.000000,0.000000,0.000000 HandLeft:-0.128521,0.787008,0.019643,0.603088 HandRight:-0.477645,0.751354,-0.170567,0.422172 HandTipLeft:0.000000,0.000000,0.000000,0.000000 HandTipRight:0.000000,0.000000,0.000000,0.000000 Head:0.000000,0.000000,0.000000,0.000000 HipLeft:0.138245,-0.683085,0.696236,-0.171870 HipRight:-0.112120,0.680292,0.707680,-0.154341 KneeLeft:0.005377,0.720776,-0.042203,-0.691861 KneeRight:-0.006055,0.693263,0.039571,0.719572 Neck:-0.012015,-0.007992,0.997416,-0.070380 ShoulderLeft:-0.004356,0.784009,-0.617827,0.060012 ShoulderRight:-0.019586,0.782486,0.617390,-0.078492 SpineBase:0.019217,-0.009416,0.999267,-0.031752 SpineMid:0.003554,-0.008918,0.999445,-0.031896 SpineShoulder:-0.012220,-0.008269,0.998638,-0.050045 ThumbLeft:0.000000,0.000000,0.000000,0.000000 ThumbRight:0.000000,0.000000,0.000000,0.000000 WristLeft:-0.132628,0.795552,-0.071715,0.586826 WristRight:-0.415635,0.784742,-0.170613,0.426987 END:
KINECT_DATA POSITION:6.724060,-0.220869,-6.388128 HEAD_JOINT1:0.985549,0.150608,-0.000000,0.077528 LARM_JOINT2:0.815084,0.000000,-0.033956,-0.578346 LARM_JOINT3:0.968824,0.000000,-0.178032,-0.172294 LLEG_JOINT2:0.998966,0.033460,0.000000,0.030768 LLEG_JOINT4:0.995855,0.089241,0.000000,-0.017588 RARM_JOINT2:0.833712,0.000000,0.444563,0.327550 RARM_JOINT3:0.982629,0.000000,0.185375,0.008713 RLEG_JOINT2:0.999346,0.022849,0.000000,-0.028008 RLEG_JOINT4:0.994081,0.101595,0.000000,0.038499 WAIST:0.999812,0.000000,-0.018672,-0.005254 WAIST_JOINT0:0.999848,-0.000000,0.017405,0.000843 WAIST_JOINT1:0.998480,0.054854,0.000000,-0.005375 END:
KINECT_DATA_Sensor  AnkleLeft:0.085684,0.760005,-0.087745,-0.638241 AnkleRight:0.096746,0.716743,0.077951,0.686181 ElbowLeft:-0.042741,0.912730,-0.152276,-0.376709 ElbowRight:-0.426522,0.847249,0.101571,0.299885 FootLeft:0.000000,0.000000,0.000000,0.000000 FootRight:0.000000,0.000000,0.000000,0.000000 HandLeft:-0.141760,0.728478,0.001264,0.670240 HandRight:-0.489608,0.701209,-0.193460,0.480794 HandTipLeft:0.000000,0.000000,0.000000,0.000000 HandTipRight:0.000000,0.000000,0.000000,0.000000 Head:0.000000,0.000000,0.000000,0.000000 HipLeft:0.137872,-0.683229,0.696168,-0.171872 HipRight:-0.112615,0.680072,0.707730,-0.154721 KneeLeft:0.004811,0.720396,-0.041726,-0.692290 KneeRight:-0.006660,0.693647,0.039740,0.719188 Neck:-0.016330,-0.007378,0.997339,-0.070666 ShoulderLeft:-0.002602,0.784412,-0.617547,0.057676 ShoulderRight:-0.023440,0.780976,0.618562,-0.083113 SpineBase:0.018688,-0.009082,0.999277,-0.031854 SpineMid:0.001148,-0.008521,0.999451,-0.032008 SpineShoulder:-0.016536,-0.007726,0.998568,-0.050284 ThumbLeft:0.000000,0.000000,0.000000,0.000000 ThumbRight:0.000000,0.000000,0.000000,0.000000 WristLeft:-0.124647,0.741373,-0.084016,0.654042 WristRight:-0.430716,0.738015,-0.213460,0.473553 END:
KINECT_DATA POSITION:6.712329,-0.192956,-6.454778 HEAD_JOINT1:0.985554,0.151582,-0.000000,0.075545 LARM_JOINT2:0.814662,0.000000,-0.034009,-0.578938 LARM_JOINT3:0.969081,0.000000,-0.178725,-0.170118 LLEG_JOINT2:0.998961,0.033288,0.000000,0.031127 LLEG_JOINT4:0.995843,0.089162,0.000000,-0.018611 RARM_JOINT2:0.832755,0.000000,0.444754,0.329716 RARM_JOINT3:0.983102,0.000000,0.182098,-0.018735 RLEG_JOINT2:0.999365,0.022361,0.000000,-0.027724 RLEG_JOINT4:0.994041,0.101659,0.000000,0.039349 WAIST:0.999826,0.000000,-0.017832,-0.005431 WAIST_JOINT0:0.999799,0.000000,0.020040,-0.000234 WAIST_JOINT1:0.998470,0.055068,0.000000,-0.005025 END:
KINECT_DATA_Sensor  AnkleLeft:-0.077450,-0.695027,0.094704,0.708499 AnkleRight:0.097080,0.718074,0.076936,0.684855 ElbowLeft:-0.042205,0.912496,-0.151896,-0.377489 ElbowRight:-0.432575,0.815860,0.058437,0.379257 FootLeft:0.000000,0.000000,0.000000,0.000000 FootRight:0.000000,0.000000,0.000000,0.000000 HandLeft:-0.143712,0.753488,-0.001728,0.641560 HandRight:-0.470490,0.639870,-0.229935,0.562437 HandTipLeft:0.000000,0.000000,0.000000,0.000000 HandTipRight:0.000000,0.000000,0.000000,0.000000 Head:0.000000,0.000000,0.000000,0.000000 HipLeft:0.137301,-0.683436,0.696133,-0.171647 HipRight:-0.113122,0.679853,0.707722,-0.155347 KneeLeft:0.004596,0.719820,-0.041727,-0.692890 KneeRight:-0.006970,0.694245,0.039320,0.718630 Neck:-0.018902,-0.007100,0.997279,-0.070899 ShoulderLeft:-0.002232,0.784114,-0.617992,0.056971 ShoulderRight:-0.026438,0.779247,0.620147,-0.086560 SpineBase:0.017864,-0.008989,0.999287,-0.032026 SpineMid:-0.000547,-0.008397,0.999446,-0.032187 SpineShoulder:-0.019113,-0.007504,0.998513,-0.050491 ThumbLeft:0.000000,0.000000,0.000000,0.000000 ThumbRight:0.000000,0.000000,0.000000,0.000000 WristLeft:-0.126203,0.764451,-0.079402,0.627203 WristRight:-0.436987,0.671710,-0.259508,0.538985 END:
KINECT_DATA POSITION:6.694978,-0.188666,-6.464958 HEAD_JOINT1:0.985561,0.152545,-0.000000,0.073486 LARM_JOINT2:0.814454,0.000000,-0.034161,-0.579222 LARM_JOINT3:0.969184,0.000000,-0.177666,-0.170635 LLEG_JOINT2:0.998957,0.033230,0.000000,0.031304 LLEG_JOINT4:0.996124,0.086021,0.000000,-0.018352 RARM_JOINT2:0.832983,0.000000,0.445472,0.328168 RARM_JOINT3:0.984695,0.000000,0.173247,-0.019005 RLEG_JOINT2:0.999365,0.022339,0.000000,-0.027765 RLEG_JOINT4:0.993939,0.101803,0.000000,0.041487 WAIST:0.999836,0.000000,-0.017281,-0.005380 WAIST_JOINT0:0.999753,0.000000,0.022192,-0.000725 WAIST_JOINT1:0.998462,0.055257,0.000000,-0.004396 END:
KINECT_DATA_Sensor  AnkleLeft:0.083093,0.756515,-0.085455,-0.643023 AnkleRight:0.098608,0.718919,0.075381,0.683922 ElbowLeft:-0.042309,0.911942,-0.152205,-0.378688 ElbowRight:-0.435008,0.804258,0.045162,0.402364 FootLeft:0.000000,0.000000,0.000000,0.000000 FootRight:0.000000,0.000000,0.000000,0.000000 HandLeft:-0.139599,0.767172,0.007584,0.626020 HandRight:-0.466872,0.697215,-0.174406,0.515271 HandTipLeft:0.000000,0.000000,0.000000,0.000000 HandTipRight:0.000000,0.000000,0.000000,0.000000 Head:0.000000,0.000000,0.000000,0.000000 HipLeft:0.136951,-0.683415,0.696258,-0.171503 HipRight:-0.113614,0.679800,0.707627,-0.155651 KneeLeft:0.004417,0.719435,-0.041844,-0.693284 KneeRight:-0.006998,0.694639,0.039296,0.718250 Neck:-0.021083,-0.006246,0.997223,-0.071156 ShoulderLeft:-0.001975,0.783391,-0.618958,0.056445 ShoulderRight:-0.029085,0.777935,0.621260,-0.089483 SpineBase:0.017322,-0.008626,0.999299,-0.032041 SpineMid:-0.001907,-0.008008,0.999448,-0.032201 SpineShoulder:-0.021294,-0.006787,0.998468,-0.050623 ThumbLeft:0.000000,0.000000,0.000000,0.000000 ThumbRight:0.000000,0.000000,0.000000,0.000000 WristLeft:-0.128009,0.777922,-0.077272,0.610311 WristRight:-0.465306,0.705460,-0.220767,0.486907 END:
KINECT_DATA POSITION:6.671967,-0.186548,-6.466269 HEAD_JOINT1:0.985469,0.153694,-0.000000,0.072315 LARM_JOINT2:0.814678,0.000000,-0.033584,-0.578940 LARM_JOINT3:0.969270,0.000000,-0.177797,-0.170009 LLEG_JOINT2:0.998953,0.033602,0.000000,0.031061 LLEG_JOINT4:0.996162,0.085967,0.000000,-0.016442 RARM_JOINT2:0.833582,0.000000,0.444041,0.328586 RARM_JOINT3:0.986569,0.000000,0.161796,-0.022453 RLEG_JOINT2:0.999356,0.022969,0.000000,-0.027565 RLEG_JOINT4:0.993905,0.102203,0.000000,0.041320 WAIST:0.999848,0.000000,-0.016531,-0.005517 WAIST_JOINT0:0.999713,0.000000,0.023955,-0.000874 WAIST_JOINT1:0.998448,0.055572,0.000000,-0.003572 END:
KINECT_DATA_Sensor  AnkleLeft:0.081436,0.749146,-0.087616,-0.651515 AnkleRight:0.099308,0.719806,0.076138,0.682803 ElbowLeft:-0.041890,0.911646,-0.153532,-0.378911 ElbowRight:-0.434131,0.802704,0.043513,0.406574 FootLeft:0.000000,0.000000,0.000000,0.000000 FootRight:0.000000,0.000000,0.000000,0.000000 HandLeft:-0.136078,0.785358,0.006004,0.603871 HandRight:-0.478519,0.704722,-0.139445,0.504918 HandTipLeft:0.000000,0.000000,0.000000,0.000000 HandTipRight:0.000000,0.000000,0.000000,0.000000 Head:0.000000,0.000000,0.000000,0.000000 HipLeft:0.136298,-0.683540,0.696291,-0.171389 HipRight:-0.114154,0.679626,0.707617,-0.156066 KneeLeft:0.004982,0.718920,-0.041845,-0.693814 KneeRight:-0.006530,0.695162,0.039684,0.717727 Neck:-0.022892,-0.005491,0.997164,-0.071485 ShoulderLeft:-0.001719,0.783144,-0.619304,0.056070 ShoulderRight:-0.031230,0.777483,0.621363,-0.091939 SpineBase:0.016599,-0.008110,0.999311,-0.032198 SpineMid:-0.003163,-0.007471,0.999444,-0.032352 SpineShoulder:-0.023095,-0.006077,0.998419,-0.050886 ThumbLeft:0.000000,0.000000,0.000000,0.000000 ThumbRight:0.000000,0.000000,0.000000,0.000000 WristLeft:-0.129117,0.793947,-0.074210,0.589466 WristRight:-0.471174,0.719987,-0.197296,0.469775 END:
KINECT_DATA POSITION:6.608967,-0.156822,-6.485915 HEAD_JOINT1:0.985132,0.155635,-0.000000,0.072753 LARM_JOINT2:0.815758,0.000000,-0.032909,-0.577456 LARM_JOINT3:0.969216,0.000000,-0.179137,-0.168909 LLEG_JOINT2:0.998920,0.033996,0.000000,0.031672 LLEG_JOINT4:0.996247,0.084706,0.000000,-0.017799 RARM_JOINT2:0.842467,0.000000,0.432268,0.321550 RARM_JOINT3:0.985742,0.000000,0.164914,-0.033408 RLEG_JOINT2:0.999387,0.022483,0.000000,-0.026853 RLEG_JOINT4:0.993993,0.101796,0.000000,0.040182 WAIST:0.999853,0.000000,-0.016193,-0.005594 WAIST_JOINT0:0.999691,0.000000,0.024842,-0.000946 WAIST_JOINT1:0.998393,0.056607,0.000000,-0.002701 END:
KINECT_DATA_Sensor  AnkleLeft:0.081205,0.747597,-0.086568,-0.653460 AnkleRight:0.097740,0.715323,0.076669,0.687664 ElbowLeft:-0.041401,0.911614,-0.156597,-0.377788 ElbowRight:-0.436537,0.792847,0.051884,0.422062 FootLeft:0.000000,0.000000,0.000000,0.000000 FootRight:0.000000,0.000000,0.000000,0.000000 HandLeft:-0.131090,0.824799,0.003979,0.550006 HandRight:-0.487058,0.607795,-0.190902,0.597424 HandTipLeft:0.000000,0.000000,0.000000,0.000000 HandTipRight:0.000000,0.000000,0.000000,0.000000 Head:0.000000,0.000000,0.000000,0.000000 HipLeft:0.135488,-0.683502,0.696360,-0.171904 HipRight:-0.114171,0.679491,0.707623,-0.156609 KneeLeft:0.004889,0.718690,-0.042498,-0.694013 KneeRight:-0.006453,0.695400,0.038889,0.717541 Neck:-0.023891,-0.004616,0.997061,-0.072640 ShoulderLeft:-0.001159,0.782634,-0.619907,0.056558 ShoulderRight:-0.032031,0.777038,0.621575,-0.093967 SpineBase:0.016291,-0.007419,0.999298,-0.032910 SpineMid:-0.003806,-0.006755,0.999424,-0.033052 SpineShoulder:-0.024082,-0.005209,0.998352,-0.051825 ThumbLeft:0.000000,0.000000,0.000000,0.000000 ThumbRight:0.000000,0.000000,0.000000,0.000000 WristLeft:-0.132502,0.829721,-0.066411,0.538142 WristRight:-0.448283,0.637035,-0.254960,0.572908 END:
KINECT_DATA POSITION:6.554393,-0.135488,-6.470537 HEAD_JOINT1:0.984372,0.157961,-0.000000,0.077843 LARM_JOINT2:0.817216,0.000000,-0.033548,-0.575355 LARM_JOINT3:0.967519,0.000000,-0.186068,-0.171133 LLEG_JOINT2:0.998905,0.033847,0.000000,0.032310 LLEG_JOINT4:0.995962,0.088193,0.000000,-0.016773 RARM_JOINT2:0.844800,0.000000,0.442337,0.301083 RARM_JOINT3:0.989091,0.000000,0.145954,-0.019926 RLEG_JOINT2:0.999396,0.022993,0.000000,-0.026059 RLEG_JOINT4:0.994168,0.100502,0.000000,0.039108 WAIST:0.999850,0.000000,-0.016419,-0.005529 WAIST_JOINT0:0.999722,0.000000,0.023590,-0.000266 WAIST_JOINT1:0.998348,0.057400,0.000000,-0.002485 END:
KINECT_DATA_Sensor  AnkleLeft:0.083341,0.753780,-0.089287,-0.645676 AnkleRight:0.097526,0.719852,0.075653,0.683066 ElbowLeft:-0.041834,0.912839,-0.159325,-0.373617 ElbowRight:-0.453252,0.785576,0.050768,0.418157 FootLeft:0.000000,0.000000,0.000000,0.000000 FootRight:0.000000,0.000000,0.000000,0.000000 HandLeft:-0.156942,0.748189,-0.025907,0.644136 HandRight:-0.468730,0.677741,-0.162494,0.542730 HandTipLeft:0.000000,0.000000,0.000000,0.000000 HandTipRight:0.000000,0.000000,0.000000,0.000000 Head:0.000000,0.000000,0.000000,0.000000 HipLeft:0.135106,-0.683296,0.696466,-0.172590 HipRight:-0.113794,0.679488,0.707634,-0.156848 KneeLeft:0.004271,0.718844,-0.042881,-0.693835 KneeRight:-0.005480,0.695240,0.038627,0.717718 Neck:-0.022658,-0.004426,0.997033,-0.073431 ShoulderLeft:-0.001849,0.782214,-0.620264,0.058398 ShoulderRight:-0.031134,0.777476,0.621102,-0.093775 SpineBase:0.016529,-0.006953,0.999276,-0.033568 SpineMid:-0.003059,-0.006294,0.999408,-0.033698 SpineShoulder:-0.022833,-0.004900,0.998343,-0.052589 ThumbLeft:0.000000,0.000000,0.000000,0.000000 ThumbRight:0.000000,0.000000,0.000000,0.000000 WristLeft:-0.122226,0.759038,-0.081843,0.634212 WristRight:-0.482008,0.680384,-0.197959,0.515323 END:
KINECT_DATA POSITION:6.495973,-0.134157,-6.452012 HEAD_JOINT1:0.983897,0.159333,-0.000000,0.080996 LARM_JOINT2:0.817779,0.000000,-0.034083,-0.574522 LARM_JOINT3:0.968231,0.000000,-0.181408,-0.172106 LLEG_JOINT2:0.998887,0.034026,0.000000,0.032650 LLEG_JOINT4:0.996082,0.086939,0.000000,-0.016186 RARM_JOINT2:0.845768,0.000000,0.443581,0.296499 RARM_JOINT3:0.989647,0.000000,0.141913,-0.021419 RLEG_JOINT2:0.999399,0.023243,0.000000,-0.025725 RLEG_JOINT4:0.993928,0.102598,0.000000,0.039761 WAIST:0.999839,0.000000,-0.017111,-0.005420 WAIST_JOINT0:0.999754,-0.000000,0.022152,0.000413 WAIST_JOINT1:0.998282,0.058558,0.000000,-0.002200 END:
KINECT_DATA_Sensor  AnkleLeft:0.082054,0.756256,-0.089142,-0.642961 AnkleRight:0.100012,0.718687,0.076366,0.683853 ElbowLeft:-0.041800,0.913222,-0.160821,-0.372042 ElbowRight:-0.456037,0.782210,0.049937,0.421525 FootLeft:0.000000,0.000000,0.000000,0.000000 FootRight:0.000000,0.000000,0.000000,0.000000 HandLeft:-0.141900,0.761953,-0.009455,0.631825 HandRight:-0.461326,0.639799,-0.187049,0.585532 HandTipLeft:0.000000,0.000000,0.000000,0.000000 HandTipRight:0.000000,0.000000,0.000000,0.000000 Head:0.000000,0.000000,0.000000,0.000000 HipLeft:0.134821,-0.682943,0.696600,-0.173666 HipRight:-0.112950,0.679531,0.707712,-0.156918 KneeLeft:0.004043,0.719319,-0.043323,-0.693316 KneeRight:-0.004968,0.694745,0.038483,0.718209 Neck:-0.021424,-0.003999,0.996972,-0.074640 ShoulderLeft:-0.000944,0.781180,-0.621453,0.059607 ShoulderRight:-0.028657,0.777677,0.621101,-0.092902 SpineBase:0.017231,-0.006442,0.999237,-0.034462 SpineMid:-0.002084,-0.005775,0.999383,-0.034580 SpineShoulder:-0.021585,-0.004420,0.998314,-0.053696 ThumbLeft:0.000000,0.000000,0.000000,0.000000 ThumbRight:0.000000,0.000000,0.000000,0.000000 WristLeft:-0.122543,0.771529,-0.079539,0.619192 WristRight:-0.471212,0.641694,-0.227658,0.560678 END:
KINECT_DATA POSITION:6.437548,-0.130901,-6.427538 HEAD_JOINT1:0.983858,0.159586,-0.000000,0.080969 LARM_JOINT2:0.818531,0.000000,-0.032611,-0.573536 LARM_JOINT3:0.968044,0.000000,-0.179996,-0.174622 LLEG_JOINT2:0.998879,0.034630,0.000000,0.032257 LLEG_JOINT4:0.996222,0.085244,0.000000,-0.016584 RARM_JOINT2:0.848684,0.000000,0.429951,0.308021 RARM_JOINT3:0.986235,0.000000,0.161832,-0.033922 RLEG_JOINT2:0.999402,0.023666,0.000000,-0.025205 RLEG_JOINT4:0.994000,0.102047,0.000000,0.039367 WAIST:0.999829,0.000000,-0.017783,-0.005032 WAIST_JOINT0:0.999770,-0.000000,0.021460,0.000590 WAIST_JOINT1:0.998268,0.058783,0.000000,-0.002434 END:
KINECT_DATA_Sensor  AnkleLeft:-0.073069,-0.694978,0.095240,0.708940 AnkleRight:0.100296,0.718227,0.075849,0.684352 ElbowLeft:-0.041276,0.913145,-0.162670,-0.371486 ElbowRight:-0.446701,0.763458,0.037486,0.464956 FootLeft:0.000000,0.000000,0.000000,0.000000 FootRight:0.000000,0.000000,0.000000,0.000000 HandLeft:-0.135944,0.756847,-0.001674,0.639295 HandRight:-0.474429,0.701927,-0.134893,0.513828 HandTipLeft:0.000000,0.000000,0.000000,0.000000 HandTipRight:0.000000,0.000000,0.000000,0.000000 Head:0.000000,0.000000,0.000000,0.000000 HipLeft:0.134964,-0.682563,0.696815,-0.174186 HipRight:-0.112382,0.679852,0.707547,-0.156681 KneeLeft:0.004440,0.719768,-0.043759,-0.692820 KneeRight:-0.004005,0.694280,0.038130,0.718683 Neck:-0.020811,-0.003803,0.996971,-0.074845 ShoulderLeft:-0.000761,0.780828,-0.621858,0.059987 ShoulderRight:-0.027688,0.777743,0.621155,-0.092283 SpineBase:0.017886,-0.006182,0.999217,-0.034738 SpineMid:-0.001444,-0.005509,0.999376,-0.034851 SpineShoulder:-0.020966,-0.004209,0.998316,-0.053924 ThumbLeft:0.000000,0.000000,0.000000,0.000000 ThumbRight:0.000000,0.000000,0.000000,0.000000 WristLeft:-0.121584,0.766901,-0.080482,0.624982 WristRight:-0.504227,0.693513,-0.182199,0.481247 END:
KINECT_DATA POSITION:6.409074,-0.149231,-6.409371 HEAD_JOINT1:0.983727,0.160643,-0.000000,0.080474 LARM_JOINT2:0.817959,0.000000,-0.032333,-0.574367 LARM_JOINT3:0.967878,0.000000,-0.177148,-0.178413 LLEG_JOINT2:0.998880,0.034930,0.000000,0.031923 LLEG_JOINT4:0.996464,0.082273,0.000000,-0.017029 RARM_JOINT2:0.848934,0.000000,0.425541,0.313411 RARM_JOINT3:0.985394,0.000000,0.166736,-0.034600 RLEG_JOINT2:0.999389,0.023245,0.000000,-0.026093 RLEG_JOINT4:0.993808,0.103733,0.000000,0.039817 WAIST:0.999820,0.000000,-0.018355,-0.004798 WAIST_JOINT0:0.999786,-0.000000,0.020680,0.000968 WAIST_JOINT1:0.998243,0.059221,0.000000,-0.002146 END:
KINECT_DATA_Sensor  AnkleLeft:-0.071605,-0.695583,0.092964,0.708798 AnkleRight:0.101166,0.717733,0.076760,0.684641 ElbowLeft:-0.040616,0.913232,-0.162492,-0.371422 ElbowRight:-0.440496,0.772424,0.046910,0.455109 FootLeft:0.000000,0.000000,0.000000,0.000000 FootRight:0.000000,0.000000,0.000000,0.000000 HandLeft:-0.128745,0.834329,0.034411,0.534916 HandRight:-0.455010,0.600268,-0.214728,0.621720 HandTipLeft:0.000000,0.000000,0.000000,0.000000 HandTipRight:0.000000,0.000000,0.000000,0.000000 Head:0.000000,0.000000,0.000000,0.000000 HipLeft:0.134877,-0.682243,0.696973,-0.174876 HipRight:-0.111912,0.680055,0.707464,-0.156511 KneeLeft:0.004697,0.720153,-0.043908,-0.692409 KneeRight:-0.004740,0.693871,0.038311,0.719064 Neck:-0.020152,-0.003245,0.996956,-0.075253 ShoulderLeft:0.000335,0.780194,-0.622656,0.059972 ShoulderRight:-0.025759,0.777846,0.621273,-0.091169 SpineBase:0.018462,-0.005602,0.999196,-0.035155 SpineMid:-0.000816,-0.004923,0.999366,-0.035256 SpineShoulder:-0.020292,-0.003632,0.998310,-0.054335 ThumbLeft:0.000000,0.000000,0.000000,0.000000 ThumbRight:0.000000,0.000000,0.000000,0.000000 WristLeft:-0.131344,0.842792,-0.062941,0.518159 WristRight:-0.457382,0.606889,-0.259390,0.595990 END:
KINECT_DATA POSITION:6.372459,-0.157737,-6.419885 HEAD_JOINT1:0.983586,0.161353,-0.000000,0.080771 LARM_JOINT2:0.817743,0.000000,-0.032050,-0.574691 LARM_JOINT3:0.967489,0.000000,-0.177419,-0.180241 LLEG_JOINT2:0.998875,0.034731,0.000000,0.032295 LLEG_JOINT4:0.996384,0.083055,0.000000,-0.017919 RARM_JOINT2:0.847488,0.000000,0.430932,0.309940 RARM_JOINT3:0.987681,0.000000,0.154326,-0.025867 RLEG_JOINT2:0.999394,0.023191,0.000000,-0.025954 RLEG_JOINT4:0.993798,0.103893,0.000000,0.039647 WAIST:0.999807,0.000000,-0.018967,-0.005056 WAIST_JOINT0:0.999803,-0.000000,0.019850,0.000895 WAIST_JOINT1:0.998243,0.059225,0.000000,-0.001958 END:
KINECT_DATA_Sensor  AnkleLeft:-0.072501,-0.695894,0.092911,0.708408 AnkleRight:0.101101,0.717326,0.076973,0.685053 ElbowLeft:-0.040339,0.913453,-0.162163,-0.371051 ElbowRight:-0.443160,0.780679,0.052441,0.437493 FootLeft:0.000000,0.000000,0.000000,0.000000 FootRight:0.000000,0.000000,0.000000,0.000000 HandLeft:-0.133951,0.793573,0.031360,0.592718 HandRight:-0.460768,0.643277,-0.168671,0.587740 HandTipLeft:0.000000,0.000000,0.000000,0.000000 HandTipRight:0.000000,0.000000,0.000000,0.000000 Head:0.000000,0.000000,0.000000,0.000000 HipLeft:0.135128,-0.682342,0.696737,-0.175236 HipRight:-0.111442,0.679980,0.707692,-0.156141 KneeLeft:0.004443,0.720589,-0.043842,-0.691961 KneeRight:-0.004843,0.693419,0.038356,0.719497 Neck:-0.019281,-0.003274,0.996974,-0.075229 ShoulderLeft:0.000471,0.780121,-0.622730,0.060154 ShoulderRight:-0.024486,0.777707,0.621666,-0.090024 SpineBase:0.019088,-0.005682,0.999181,-0.035225 SpineMid:-0.000072,-0.005006,0.999363,-0.035328 SpineShoulder:-0.019422,-0.003685,0.998326,-0.054346 ThumbLeft:0.000000,0.000000,0.000000,0.000000 ThumbRight:0.000000,0.000000,0.000000,0.000000 WristLeft:-0.127440,0.805802,-0.071003,0.573935 WristRight:-0.468787,0.648919,-0.222125,0.556599 END:
KINECT_DATA POSITION:6.337406,-0.137690,-6.545675 HEAD_JOINT1:0.983082,0.162615,-0.000000,0.084304 LARM_JOINT2:0.818070,0.000000,-0.032328,-0.574209 LARM_JOINT3:0.968383,0.000000,-0.178324,-0.174458 LLEG_JOINT2:0.998873,0.034815,0.000000,0.032249 LLEG_JOINT4:0.996153,0.085462,0.000000,-0.019373 RARM_JOINT2:0.849866,0.000000,0.416389,0.323031 RARM_JOINT3:0.981127,0.000000,0.185325,-0.055176 RLEG_JOINT2:0.999416,0.022444,0.000000,-0.025749 RLEG_JOINT4:0.994032,0.101515,0.000000,0.039939 WAIST:0.999783,0.000000,-0.020305,-0.004697 WAIST_JOINT0:0.999840,-0.000000,0.017830,0.001110 WAIST_JOINT1:0.998245,0.059189,0.000000,-0.001917 END:
KINECT_DATA_Sensor  AnkleLeft:0.081113,0.742976,-0.088761,-0.658429 AnkleRight:0.097370,0.697904,0.076827,0.705370 ElbowLeft:-0.040892,0.914547,-0.162939,-0.367943 ElbowRight:-0.433544,0.743752,0.025265,0.508168 FootLeft:0.000000,0.000000,0.000000,0.000000 FootRight:0.000000,0.000000,0.000000,0.000000 HandLeft:-0.127323,0.762795,-0.000109,0.633981 HandRight:-0.451341,0.592690,-0.224484,0.628185 HandTipLeft:0.000000,0.000000,0.000000,0.000000 HandTipRight:0.000000,0.000000,0.000000,0.000000 Head:0.000000,0.000000,0.000000,0.000000 HipLeft:0.135421,-0.681912,0.696879,-0.176112 HipRight:-0.110410,0.680419,0.707600,-0.155378 KneeLeft:0.004218,0.721498,-0.044126,-0.690996 KneeRight:-0.004942,0.692470,0.037440,0.720457 Neck:-0.017287,-0.002849,0.997022,-0.075100 ShoulderLeft:-0.000103,0.779879,-0.622936,0.061143 ShoulderRight:-0.022480,0.777981,0.621703,-0.087897 SpineBase:0.020417,-0.005158,0.999146,-0.035540 SpineMid:0.001600,-0.004488,0.999354,-0.035631 SpineShoulder:-0.017414,-0.003246,0.998367,-0.054313 ThumbLeft:0.000000,0.000000,0.000000,0.000000 ThumbRight:0.000000,0.000000,0.000000,0.000000 WristLeft:-0.122440,0.770777,-0.078064,0.620337 WristRight:-0.474007,0.590183,-0.279838,0.590502 END:
KINECT_DATA POSITION:6.302261,-0.122617,-6.674159 HEAD_JOINT1:0.983262,0.161095,-0.000000,0.085110 LARM_JOINT2:0.818882,0.000000,-0.033336,-0.572993 LARM_JOINT3:0.967693,0.000000,-0.180163,-0.176384 LLEG_JOINT2:0.998886,0.034178,0.000000,0.032540 LLEG_JOINT4:0.996306,0.083953,0.000000,-0.018080 RARM_JOINT2:0.850505,0.000000,0.424471,0.310589 RARM_JOINT3:0.983545,0.000000,0.176064,-0.040516 RLEG_JOINT2:0.999413,0.023073,0.000000,-0.025333 RLEG_JOINT4:0.993965,0.102066,0.000000,0.040204 WAIST:0.999773,0.000000,-0.020811,-0.004486 WAIST_JOINT0:0.999865,-0.000000,0.016369,0.001347 WAIST_JOINT1:0.998220,0.059601,0.000000,-0.002142 END:
KINECT_DATA_Sensor  AnkleLeft:-0.072197,-0.697933,0.093649,0.706333 AnkleRight:0.100818,0.715310,0.074362,0.687486 ElbowLeft:-0.041610,0.915426,-0.164063,-0.365167 ElbowRight:-0.443413,0.753506,0.034543,0.484169 FootLeft:0.000000,0.000000,0.000000,0.000000 FootRight:0.000000,0.000000,0.000000,0.000000 HandLeft:-0.134134,0.762196,-0.001321,0.633296 HandRight:-0.445383,0.609997,-0.214375,0.619339 HandTipLeft:0.000000,0.000000,0.000000,0.000000 HandTipRight:0.000000,0.000000,0.000000,0.000000 Head:0.000000,0.000000,0.000000,0.000000 HipLeft:0.135379,-0.681625,0.697002,-0.176773 HipRight:-0.109894,0.680559,0.707525,-0.155469 KneeLeft:0.003394,0.721837,-0.044018,-0.690654 KneeRight:-0.004032,0.692115,0.037427,0.720804 Neck:-0.015933,-0.002933,0.997016,-0.075478 ShoulderLeft:-0.000430,0.779711,-0.623032,0.062301 ShoulderRight:-0.021034,0.778393,0.621380,-0.086879 SpineBase:0.020915,-0.004940,0.999119,-0.036052 SpineMid:0.002535,-0.004276,0.999335,-0.036136 SpineShoulder:-0.016050,-0.003236,0.998367,-0.054735 ThumbLeft:0.000000,0.000000,0.000000,0.000000 ThumbRight:0.000000,0.000000,0.000000,0.000000 WristLeft:-0.123208,0.771216,-0.077810,0.619671 WristRight:-0.475810,0.602625,-0.268931,0.581484 END:
KINECT_DATA POSITION:6.286889,-0.123094,-6.686664 HEAD_JOINT1:0.983178,0.160945,-0.000000,0.086353 LARM_JOINT2:0.819387,0.000000,-0.033806,-0.572243 LARM_JOINT3:0.967345,0.000000,-0.182044,-0.176364 LLEG_JOINT2:0.998876,0.033975,0.000000,0.033039 LLEG_JOINT4:0.996504,0.081560,0.000000,-0.018127 RARM_JOINT2:0.850258,0.000000,0.420850,0.316144 RARM_JOINT3:0.982307,0.000000,0.181858,-0.044731 RLEG_JOINT2:0.999474,0.020870,0.000000,-0.024816 RLEG_JOINT4:0.993839,0.103365,0.000000,0.039991 WAIST:0.999762,0.000000,-0.021342,-0.004440 WAIST_JOINT0:0.999872,-0.000000,0.015893,0.001630 WAIST_JOINT1:0.998212,0.059732,0.000000,-0.002169 END:
KINECT_DATA_Sensor  AnkleLeft:-0.070031,-0.698529,0.092116,0.706164 AnkleRight:0.100413,0.715038,0.073469,0.687924 ElbowLeft:-0.042299,0.915595,-0.164733,-0.364363 ElbowRight:-0.438617,0.751427,0.032998,0.491816 FootLeft:0.000000,0.000000,0.000000,0.000000 FootRight:0.000000,0.000000,0.000000,0.000000 HandLeft:-0.137231,0.767898,-0.005357,0.625677 HandRight:-0.458713,0.645231,-0.188498,0.581143 HandTipLeft:0.000000,0.000000,0.000000,0.000000 HandTipRight:0.000000,0.000000,0.000000,0.000000 Head:0.000000,0.000000,0.000000,0.000000 HipLeft:0.135664,-0.681470,0.697008,-0.177127 HipRight:-0.109575,0.680602,0.707581,-0.155251 KneeLeft:0.002836,0.722202,-0.044250,-0.690259 KneeRight:-0.005218,0.691742,0.035498,0.721252 Neck:-0.015470,-0.002859,0.997012,-0.075631 ShoulderLeft:-0.000428,0.779532,-0.623225,0.062609 ShoulderRight:-0.020434,0.778584,0.621224,-0.086426 SpineBase:0.021443,-0.004919,0.999105,-0.036130 SpineMid:0.003030,-0.004252,0.999330,-0.036215 SpineShoulder:-0.015587,-0.003176,0.998367,-0.054859 ThumbLeft:0.000000,0.000000,0.000000,0.000000 ThumbRight:0.000000,0.000000,0.000000,0.000000 WristLeft:-0.124698,0.776393,-0.077131,0.612956 WristRight:-0.490851,0.636193,-0.241630,0.544001 END:
KINECT_DATA POSITION:6.276110,-0.118929,-6.712973 HEAD_JOINT1:0.983010,0.161513,-0.000000,0.087207 LARM_JOINT2:0.819560,0.000000,-0.033800,-0.571996 LARM_JOINT3:0.968313,0.000000,-0.176478,-0.176707 LLEG_JOINT2:0.998872,0.034560,0.000000,0.032571 LLEG_JOINT4:0.996564,0.081404,0.000000,-0.015294 RARM_JOINT2:0.848451,0.000000,0.429502,0.309288 RARM_JOINT3:0.984293,0.000000,0.172787,-0.036214 RLEG_JOINT2:0.999464,0.020988,0.000000,-0.025106 RLEG_JOINT4:0.993831,0.103461,0.000000,0.039951 WAIST:0.999749,0.000000,-0.022006,-0.004304 WAIST_JOINT0:0.999875,-0.000000,0.015738,0.001786 WAIST_JOINT1:0.998202,0.059901,0.000000,-0.001973 END:
KINECT_DATA_Sensor  AnkleLeft:-0.068401,-0.698955,0.094169,0.705631 AnkleRight:0.100538,0.714959,0.073628,0.687971 ElbowLeft:-0.042336,0.916162,-0.165384,-0.362634 ElbowRight:-0.443249,0.771491,0.047575,0.453948 FootLeft:0.000000,0.000000,0.000000,0.000000 FootRight:0.000000,0.000000,0.000000,0.000000 HandLeft:-0.117680,0.801640,0.011685,0.585993 HandRight:-0.464181,0.612558,-0.211020,0.603970 HandTipLeft:0.000000,0.000000,0.000000,0.000000 HandTipRight:0.000000,0.000000,0.000000,0.000000 Head:0.000000,0.000000,0.000000,0.000000 HipLeft:0.135831,-0.681289,0.697034,-0.177593 HipRight:-0.109040,0.680796,0.707553,-0.154909 KneeLeft:0.003451,0.722654,-0.044444,-0.689771 KneeRight:-0.005216,0.691266,0.035695,0.721699 Neck:-0.015358,-0.002393,0.997003,-0.075791 ShoulderLeft:-0.000501,0.779514,-0.623223,0.062858 ShoulderRight:-0.020384,0.778862,0.620869,-0.086490 SpineBase:0.022103,-0.004722,0.999085,-0.036312 SpineMid:0.003418,-0.004042,0.999324,-0.036394 SpineShoulder:-0.015472,-0.002780,0.998362,-0.055009 ThumbLeft:0.000000,0.000000,0.000000,0.000000 ThumbRight:0.000000,0.000000,0.000000,0.000000 WristLeft:-0.127825,0.806853,-0.070406,0.572444 WristRight:-0.465908,0.619187,-0.254784,0.578465 END:
KINECT_DATA POSITION:6.256038,-0.140222,-6.684864 HEAD_JOINT1:0.982631,0.163497,-0.000000,0.087775 LARM_JOINT2:0.819513,0.000000,-0.033894,-0.572057 LARM_JOINT3:0.967475,0.000000,-0.180942,-0.176784 LLEG_JOINT2:0.998890,0.034004,0.000000,0.032610 LLEG_JOINT4:0.996217,0.084948,0.000000,-0.018308 RARM_JOINT2:0.846564,0.000000,0.433795,0.308465 RARM_JOINT3:0.984956,0.000000,0.169791,-0.032130 RLEG_JOINT2:0.999452,0.021376,0.000000,-0.025263 RLEG_JOINT4:0.993834,0.103399,0.000000,0.040023 WAIST:0.999763,0.000000,-0.021384,-0.004037 WAIST_JOINT0:0.999873,-0.000000,0.015819,0.001915 WAIST_JOINT1:0.998203,0.059886,0.000000,-0.002157 END:
KINECT_DATA_Sensor  AnkleLeft:0.080687,0.758821,-0.087594,-0.640319 AnkleRight:0.100819,0.714976,0.073829,0.687891 ElbowLeft:-0.042200,0.916163,-0.165407,-0.362635 ElbowRight:-0.444156,0.777031,0.048167,0.443429 FootLeft:0.000000,0.000000,0.000000,0.000000 FootRight:0.000000,0.000000,0.000000,0.000000 HandLeft:-0.136189,0.819005,0.008498,0.557325 HandRight:-0.462261,0.621936,-0.207925,0.596890 HandTipLeft:0.000000,0.000000,0.000000,0.000000 HandTipRight:0.000000,0.000000,0.000000,0.000000 Head:0.000000,0.000000,0.000000,0.000000 HipLeft:0.135655,-0.681188,0.697244,-0.177290 HipRight:-0.109613,0.680881,0.707286,-0.155349 KneeLeft:0.002879,0.722212,-0.044259,-0.690248 KneeRight:-0.004875,0.691725,0.035886,0.721252 Neck:-0.015462,-0.002428,0.997001,-0.075791 ShoulderLeft:-0.000697,0.779415,-0.623335,0.062969 ShoulderRight:-0.020714,0.778924,0.620747,-0.086729 SpineBase:0.021467,-0.004625,0.999102,-0.036221 SpineMid:0.003050,-0.003957,0.999328,-0.036300 SpineShoulder:-0.015571,-0.002753,0.998362,-0.054990 ThumbLeft:0.000000,0.000000,0.000000,0.000000 ThumbRight:0.000000,0.000000,0.000000,0.000000 WristLeft:-0.129570,0.826048,-0.066047,0.544512 WristRight:-0.464552,0.627957,-0.251192,0.571633 END:
KINECT_DATA POSITION:6.248599,-0.142255,-6.674099 HEAD_JOINT1:0.982429,0.164819,-0.000000,0.087564 LARM_JOINT2:0.819493,0.000000,-0.033574,-0.572104 LARM_JOINT3:0.968185,0.000000,-0.176666,-0.177220 LLEG_JOINT2:0.998901,0.033804,0.000000,0.032471 LLEG_JOINT4:0.996108,0.085815,0.000000,-0.020094 RARM_JOINT2:0.845191,0.000000,0.440116,0.303232 RARM_JOINT3:0.987488,0.000000,0.156941,-0.015383 RLEG_JOINT2:0.999449,0.021445,0.000000,-0.025351 RLEG_JOINT4:0.993943,0.102480,0.000000,0.039688 WAIST:0.999766,0.000000,-0.021269,-0.003923 WAIST_JOINT0:0.999863,-0.000000,0.016391,0.002143 WAIST_JOINT1:0.998198,0.059977,0.000000,-0.002106 END:
KINECT_DATA_Sensor  AnkleLeft:-0.074233,-0.697602,0.093796,0.706429 AnkleRight:0.099997,0.715412,0.073482,0.687595 ElbowLeft:-0.042017,0.915852,-0.165649,-0.363332 ElbowRight:-0.446816,0.794408,0.063478,0.406498 FootLeft:0.000000,0.000000,0.000000,0.000000 FootRight:0.000000,0.000000,0.000000,0.000000 HandLeft:-0.120480,0.750686,0.002618,0.649575 HandRight:-0.450590,0.635256,-0.195968,0.595831 HandTipLeft:0.000000,0.000000,0.000000,0.000000 HandTipRight:0.000000,0.000000,0.000000,0.000000 Head:0.000000,0.000000,0.000000,0.000000 HipLeft:0.135627,-0.681053,0.697371,-0.177331 HipRight:-0.109813,0.680879,0.707227,-0.155482 KneeLeft:0.002765,0.722127,-0.044099,-0.690348 KneeRight:-0.004809,0.691811,0.035916,0.721169 Neck:-0.016078,-0.002224,0.996985,-0.075881 ShoulderLeft:-0.000426,0.779283,-0.623526,0.062709 ShoulderRight:-0.021258,0.779072,0.620451,-0.087385 SpineBase:0.021350,-0.004450,0.999105,-0.036242 SpineMid:0.002688,-0.003773,0.999330,-0.036318 SpineShoulder:-0.016185,-0.002563,0.998348,-0.055073 ThumbLeft:0.000000,0.000000,0.000000,0.000000 ThumbRight:0.000000,0.000000,0.000000,0.000000 WristLeft:-0.121170,0.758636,-0.080565,0.635057 WristRight:-0.455899,0.639516,-0.238841,0.571078 END:
KINECT_DATA POSITION:6.226437,-0.149050,-6.661856 HEAD_JOINT1:0.982208,0.165950,-0.000000,0.087906 LARM_JOINT2:0.819475,0.000000,-0.033294,-0.572147 LARM_JOINT3:0.967774,0.000000,-0.178201,-0.177928 LLEG_JOINT2:0.998912,0.033834,0.000000,0.032108 LLEG_JOINT4:0.996241,0.084654,0.000000,-0.018382 RARM_JOINT2:0.843630,0.000000,0.445508,0.299687 RARM_JOINT3:0.988519,0.000000,0.150479,-0.013673 RLEG_JOINT2:0.999447,0.021170,0.000000,-0.025636 RLEG_JOINT4:0.993810,0.104176,0.000000,0.038592 WAIST:0.999757,0.000000,-0.021772,-0.003566 WAIST_JOINT0:0.999857,-0.000000,0.016731,0.002598 WAIST_JOINT1:0.998182,0.060231,0.000000,-0.002171 END:
KINECT_DATA_Sensor  AnkleLeft:0.079029,0.749094,-0.088477,-0.651755 AnkleRight:0.099118,0.702914,0.076868,0.700128 ElbowLeft:-0.041830,0.915831,-0.166044,-0.363227 ElbowRight:-0.449114,0.800793,0.067917,0.390403 FootLeft:0.000000,0.000000,0.000000,0.000000 FootRight:0.000000,0.000000,0.000000,0.000000 HandLeft:-0.126352,0.786853,0.010539,0.603976 HandRight:-0.469972,0.661662,-0.175611,0.557217 HandTipLeft:0.000000,0.000000,0.000000,0.000000 HandTipRight:0.000000,0.000000,0.000000,0.000000 Head:0.000000,0.000000,0.000000,0.000000 HipLeft:0.135811,-0.680680,0.697574,-0.177822 HipRight:-0.109500,0.681143,0.707054,-0.155335 KneeLeft:0.002772,0.722457,-0.044121,-0.690001 KneeRight:-0.004936,0.691461,0.035681,0.721515 Neck:-0.016558,-0.001834,0.996957,-0.076151 ShoulderLeft:0.000671,0.779031,-0.623906,0.062072 ShoulderRight:-0.020795,0.779558,0.619852,-0.087406 SpineBase:0.021838,-0.004122,0.999089,-0.036435 SpineMid:0.002702,-0.003423,0.999324,-0.036508 SpineShoulder:-0.016658,-0.002169,0.998328,-0.055310 ThumbLeft:0.000000,0.000000,0.000000,0.000000 ThumbRight:0.000000,0.000000,0.000000,0.000000 WristLeft:-0.125338,0.794654,-0.073320,0.589440 WristRight:-0.464223,0.670452,-0.210972,0.538964 END:
KINECT_DATA POSITION:6.205146,-0.153664,-6.671023 HEAD_JOINT1:0.982079,0.167119,-0.000000,0.087129 LARM_JOINT2:0.819389,0.000000,-0.033224,-0.572274 LARM_JOINT3:0.967752,0.000000,-0.177524,-0.178723 LLEG_JOINT2:0.998895,0.034150,0.000000,0.032290 LLEG_JOINT4:0.996393,0.082796,0.000000,-0.018590 RARM_JOINT2:0.843866,0.000000,0.442941,0.302809 RARM_JOINT3:0.987950,0.000000,0.153812,-0.017241 RLEG_JOINT2:0.999438,0.021617,0.000000,-0.025604 RLEG_JOINT4:0.994169,0.100724,0.000000,0.038519 WAIST:0.999759,0.000000,-0.021694,-0.003486 WAIST_JOINT0:0.999857,-0.000000,0.016676,0.002641 WAIST_JOINT1:0.998192,0.060083,0.000000,-0.001765 END:
KINECT_DATA_Sensor  AnkleLeft:0.076747,0.740740,-0.088453,-0.661506 AnkleRight:0.097440,0.708276,0.074152,0.695236 ElbowLeft:-0.041960,0.915891,-0.166335,-0.362926 ElbowRight:-0.447018,0.796666,0.062831,0.401934 FootLeft:0.000000,0.000000,0.000000,0.000000 FootRight:0.000000,0.000000,0.000000,0.000000 HandLeft:-0.125306,0.797172,0.016979,0.590362 HandRight:-0.471628,0.663529,-0.172048,0.554703 HandTipLeft:0.000000,0.000000,0.000000,0.000000 HandTipRight:0.000000,0.000000,0.000000,0.000000 Head:0.000000,0.000000,0.000000,0.000000 HipLeft:0.135706,-0.680612,0.697679,-0.177750 HipRight:-0.109629,0.681188,0.707015,-0.155225 KneeLeft:0.002807,0.722401,-0.044532,-0.690033 KneeRight:-0.004537,0.691516,0.035911,0.721454 Neck:-0.016573,-0.001337,0.996975,-0.075924 ShoulderLeft:0.000309,0.778977,-0.623966,0.062140 ShoulderRight:-0.021202,0.779735,0.619604,-0.087491 SpineBase:0.021765,-0.003839,0.999094,-0.036360 SpineMid:0.002659,-0.003143,0.999328,-0.036427 SpineShoulder:-0.016666,-0.001710,0.998337,-0.055152 ThumbLeft:0.000000,0.000000,0.000000,0.000000 ThumbRight:0.000000,0.000000,0.000000,0.000000 WristLeft:-0.126438,0.805097,-0.071220,0.575118 WristRight:-0.469394,0.678804,-0.204709,0.526298 END:
KINECT_DATA POSITION:6.195334,-0.155716,-6.692076 HEAD_JOINT1:0.981402,0.170815,-0.000000,0.087596 LARM_JOINT2:0.819615,0.000000,-0.032703,-0.571980 LARM_JOINT3:0.967709,0.000000,-0.176797,-0.179675 LLEG_JOINT2:0.998914,0.033631,0.000000,0.032243 LLEG_JOINT4:0.996517,0.081688,0.000000,-0.016734 RARM_JOINT2:0.846524,0.000000,0.441922,0.296820 RARM_JOINT3:0.987877,0.000000,0.154739,-0.012456 RLEG_JOINT2:0.999440,0.020729,0.000000,-0.026256 RLEG_JOINT4:0.994284,0.098978,0.000000,0.040044 WAIST:0.999767,0.000000,-0.021284,-0.003479 WAIST_JOINT0:0.999929,-0.000000,0.011457,0.003156 WAIST_JOINT1:0.998245,0.059209,0.000000,-0.001445 END:
KINECT_DATA_Sensor  AnkleLeft:0.077231,0.762032,-0.086110,-0.637125 AnkleRight:0.096497,0.713212,0.071171,0.690617 ElbowLeft:-0.042196,0.916454,-0.166921,-0.361204 ElbowRight:-0.450556,0.800910,0.073955,0.387393 FootLeft:0.000000,0.000000,0.000000,0.000000 FootRight:0.000000,0.000000,0.000000,0.000000 HandLeft:-0.124099,0.817924,0.021275,0.561379 HandRight:-0.464718,0.634376,-0.195073,0.586132 HandTipLeft:0.000000,0.000000,0.000000,0.000000 HandTipRight:0.000000,0.000000,0.000000,0.000000 Head:0.000000,0.000000,0.000000,0.000000 HipLeft:0.135658,-0.680746,0.697674,-0.177293 HipRight:-0.110275,0.681257,0.706886,-0.155048 KneeLeft:0.002495,0.722120,-0.044130,-0.690355 KneeRight:-0.005639,0.691799,0.035761,0.721182 Neck:-0.012177,-0.001497,0.997117,-0.074881 ShoulderLeft:-0.000539,0.779059,-0.623782,0.062949 ShoulderRight:-0.016279,0.782658,0.616922,-0.081168 SpineBase:0.021369,-0.003488,0.999122,-0.035865 SpineMid:0.004658,-0.002888,0.999340,-0.035919 SpineShoulder:-0.012249,-0.001707,0.998448,-0.054299 ThumbLeft:0.000000,0.000000,0.000000,0.000000 ThumbRight:0.000000,0.000000,0.000000,0.000000 WristLeft:-0.128762,0.824771,-0.066528,0.546577 WristRight:-0.455989,0.645119,-0.232781,0.567193 END:
KINECT_DATA POSITION:6.184784,-0.155492,-6.715667 HEAD_JOINT1:0.981088,0.172446,-0.000000,0.087919 LARM_JOINT2:0.819744,0.000000,-0.032295,-0.571819 LARM_JOINT3:0.967803,0.000000,-0.176181,-0.179773 LLEG_JOINT2:0.998912,0.033346,0.000000,0.032587 LLEG_JOINT4:0.996274,0.084077,0.000000,-0.019217 RARM_JOINT2:0.849306,0.000000,0.430081,0.306120 RARM_JOINT3:0.985116,0.000000,0.170385,-0.022714 RLEG_JOINT2:0.999413,0.021888,0.000000,-0.026350 RLEG_JOINT4:0.994220,0.099872,0.000000,0.039409 WAIST:0.999770,0.000000,-0.021185,-0.003322 WAIST_JOINT0:0.999951,-0.000000,0.009399,0.003164 WAIST_JOINT1:0.998282,0.058570,0.000000,-0.001346 END:
KINECT_DATA_Sensor  AnkleLeft:0.072138,0.701809,-0.092840,-0.702596 AnkleRight:0.097537,0.712037,0.073109,0.691480 ElbowLeft:-0.042341,0.916966,-0.167314,-0.359705 ElbowRight:-0.443913,0.787997,0.064385,0.421731 FootLeft:0.000000,0.000000,0.000000,0.000000 FootRight:0.000000,0.000000,0.000000,0.000000 HandLeft:-0.124109,0.780801,0.010810,0.612233 HandRight:-0.472408,0.652507,-0.177177,0.565397 HandTipLeft:0.000000,0.000000,0.000000,0.000000 HandTipRight:0.000000,0.000000,0.000000,0.000000 Head:0.000000,0.000000,0.000000,0.000000 HipLeft:0.135879,-0.680719,0.697729,-0.177010 HipRight:-0.110759,0.681421,0.706704,-0.154811 KneeLeft:0.001944,0.722045,-0.044273,-0.690426 KneeRight:-0.004758,0.691874,0.036519,0.721078 Neck:-0.010482,-0.001427,0.997187,-0.074201 ShoulderLeft:-0.001773,0.779061,-0.623715,0.063567 ShoulderRight:-0.015311,0.783698,0.615902,-0.079041 SpineBase:0.021266,-0.003231,0.999142,-0.035386 SpineMid:0.005457,-0.002670,0.999354,-0.035433 SpineShoulder:-0.010545,-0.001589,0.998502,-0.053658 ThumbLeft:0.000000,0.000000,0.000000,0.000000 ThumbRight:0.000000,0.000000,0.000000,0.000000 WristLeft:-0.124022,0.788724,-0.074273,0.597508 WristRight:-0.470357,0.661362,-0.222832,0.540102 END:
KINECT_DATA POSITION:6.179479,-0.160544,-6.749105 HEAD_JOINT1:0.981105,0.172417,-0.000000,0.087778 LARM_JOINT2:0.819703,0.000000,-0.033092,-0.571832 LARM_JOINT3:0.968668,0.000000,-0.173628,-0.177582 LLEG_JOINT2:0.998951,0.032509,0.000000,0.032244 LLEG_JOINT4:0.996196,0.085308,0.000000,-0.017763 RARM_JOINT2:0.849951,0.000000,0.426675,0.309082 RARM_JOINT3:0.984608,0.000000,0.172616,-0.027406 RLEG_JOINT2:0.999421,0.021782,0.000000,-0.026123 RLEG_JOINT4:0.994033,0.101541,0.000000,0.039860 WAIST:0.999781,0.000000,-0.020676,-0.003308 WAIST_JOINT0:0.999939,-0.000000,0.010432,0.003676 WAIST_JOINT1:0.998305,0.058195,0.000000,-0.001022 END:
KINECT_DATA_Sensor  AnkleLeft:0.078671,0.753670,-0.088040,-0.646562 AnkleRight:0.099144,0.712363,0.073653,0.690858 ElbowLeft:-0.042935,0.917540,-0.167252,-0.358194 ElbowRight:-0.441792,0.784345,0.061143,0.431143 FootLeft:0.000000,0.000000,0.000000,0.000000 FootRight:0.000000,0.000000,0.000000,0.000000 HandLeft:-0.111884,0.814898,0.012416,0.568567 HandRight:-0.481940,0.661496,-0.161342,0.551476 HandTipLeft:0.000000,0.000000,0.000000,0.000000 HandTipRight:0.000000,0.000000,0.000000,0.000000 Head:0.000000,0.000000,0.000000,0.000000 HipLeft:0.135720,-0.680842,0.697748,-0.176584 HipRight:-0.111424,0.681465,0.706565,-0.154777 KneeLeft:0.001623,0.721691,-0.043443,-0.690848 KneeRight:-0.004686,0.692235,0.036271,0.720744 Neck:-0.011596,-0.001118,0.997203,-0.073825 ShoulderLeft:-0.001848,0.778960,-0.623915,0.062837 ShoulderRight:-0.016847,0.784209,0.615093,-0.079959 SpineBase:0.020769,-0.002864,0.999168,-0.034997 SpineMid:0.004663,-0.002300,0.999372,-0.035038 SpineShoulder:-0.011652,-0.001261,0.998512,-0.053263 ThumbLeft:0.000000,0.000000,0.000000,0.000000 ThumbRight:0.000000,0.000000,0.000000,0.000000 WristLeft:-0.127635,0.818590,-0.067722,0.555908 WristRight:-0.480597,0.681252,-0.205256,0.512634 END:
KINECT_DATA POSITION:6.161865,-0.170202,-6.788957 HEAD_JOINT1:0.981422,0.170279,-0.000000,0.088403 LARM_JOINT2:0.819901,0.000000,-0.033899,-0.571501 LARM_JOINT3:0.967726,0.000000,-0.176580,-0.179796 LLEG_JOINT2:0.998961,0.032007,0.000000,0.032428 LLEG_JOINT4:0.996199,0.085195,0.000000,-0.018146 RARM_JOINT2:0.846243,0.000000,0.442512,0.296743 RARM_JOINT3:0.988496,0.000000,0.150564,-0.014333 RLEG_JOINT2:0.999430,0.021424,0.000000,-0.026084 RLEG_JOINT4:0.993810,0.103365,0.000000,0.040714 WAIST:0.999780,0.000000,-0.020714,-0.003183 WAIST_JOINT0:0.999894,-0.000000,0.013830,0.004539 WAIST_JOINT1:0.998301,0.058247,0.000000,-0.001287 END:
KINECT_DATA_Sensor  AnkleLeft:0.079579,0.763369,-0.086386,-0.635195 AnkleRight:0.099674,0.700506,0.075534,0.702603 ElbowLeft:-0.043344,0.918088,-0.167245,-0.356741 ElbowRight:-0.451173,0.802046,0.073937,0.384315 FootLeft:0.000000,0.000000,0.000000,0.000000 FootRight:0.000000,0.000000,0.000000,0.000000 HandLeft:-0.128887,0.840644,0.020671,0.525623 HandRight:-0.476508,0.633617,-0.183855,0.581092 HandTipLeft:0.000000,0.000000,0.000000,0.000000 HandTipRight:0.000000,0.000000,0.000000,0.000000 Head:0.000000,0.000000,0.000000,0.000000 HipLeft:0.135783,-0.680761,0.697819,-0.176564 HipRight:-0.111441,0.681545,0.706484,-0.154787 KneeLeft:0.001052,0.721711,-0.043297,-0.690838 KneeRight:-0.004827,0.692215,0.035906,0.720781 Neck:-0.014410,-0.001069,0.997160,-0.073917 ShoulderLeft:-0.001659,0.778796,-0.624203,0.062008 ShoulderRight:-0.020337,0.783276,0.615699,-0.083550 SpineBase:0.020798,-0.002876,0.999168,-0.034965 SpineMid:0.003281,-0.002263,0.999379,-0.035010 SpineShoulder:-0.014472,-0.001234,0.998472,-0.053320 ThumbLeft:0.000000,0.000000,0.000000,0.000000 ThumbRight:0.000000,0.000000,0.000000,0.000000 WristLeft:-0.130809,0.846741,-0.060802,0.512076 WristRight:-0.457476,0.650594,-0.227889,0.561702 END:
KINECT_DATA POSITION:6.161078,-0.179841,-6.830800 HEAD_JOINT1:0.981957,0.166581,-0.000000,0.089503 LARM_JOINT2:0.820003,0.000000,-0.032951,-0.571410 LARM_JOINT3:0.968387,0.000000,-0.172641,-0.180059 LLEG_JOINT2:0.998984,0.031581,0.000000,0.032166 LLEG_JOINT4:0.996113,0.086170,0.000000,-0.018255 RARM_JOINT2:0.845573,0.000000,0.446058,0.293323 RARM_JOINT3:0.989517,0.000000,0.144021,-0.010644 RLEG_JOINT2:0.999437,0.020670,0.000000,-0.026418 RLEG_JOINT4:0.993960,0.102715,0.000000,0.038631 WAIST:0.999783,0.000000,-0.020634,-0.002849 WAIST_JOINT0:0.999876,-0.000000,0.014913,0.005037 WAIST_JOINT1:0.998339,0.057589,0.000000,-0.001671 END:
KINECT_DATA_Sensor  AnkleLeft:0.079854,0.761978,-0.086878,-0.636761 AnkleRight:0.098760,0.714885,0.074156,0.688249 ElbowLeft:-0.043370,0.917735,-0.167394,-0.357576 ElbowRight:-0.453734,0.807445,0.079803,0.368497 FootLeft:0.000000,0.000000,0.000000,0.000000 FootRight:0.000000,0.000000,0.000000,0.000000 HandLeft:-0.115470,0.757596,0.010084,0.642350 HandRight:-0.492785,0.678436,-0.140461,0.526458 HandTipLeft:0.000000,0.000000,0.000000,0.000000 HandTipRight:0.000000,0.000000,0.000000,0.000000 Head:0.000000,0.000000,0.000000,0.000000 HipLeft:0.136138,-0.680654,0.697970,-0.176110 HipRight:-0.111841,0.681829,0.706204,-0.154518 KneeLeft:0.000712,0.721640,-0.043044,-0.690929 KneeRight:-0.005370,0.692287,0.035389,0.720734 Neck:-0.015308,-0.001118,0.997196,-0.073238 ShoulderLeft:-0.002339,0.778720,-0.624343,0.061520 ShoulderRight:-0.022198,0.783214,0.615592,-0.084434 SpineBase:0.020695,-0.002866,0.999190,-0.034390 SpineMid:0.002786,-0.002249,0.999401,-0.034436 SpineShoulder:-0.015373,-0.001280,0.998492,-0.052685 ThumbLeft:0.000000,0.000000,0.000000,0.000000 ThumbRight:0.000000,0.000000,0.000000,0.000000 WristLeft:-0.121049,0.765494,-0.079095,0.626985 WristRight:-0.475771,0.705194,-0.177963,0.494644 END:
KINECT_DATA POSITION:6.166848,-0.188998,-6.888247 HEAD_JOINT1:0.982110,0.165534,-0.000000,0.089771 LARM_JOINT2:0.820004,0.000000,-0.031870,-0.571470 LARM_JOINT3:0.967747,0.000000,-0.175950,-0.180296 LLEG_JOINT2:0.998957,0.032516,0.000000,0.032047 LLEG_JOINT4:0.996349,0.083287,0.000000,-0.018760 RARM_JOINT2:0.846503,0.000000,0.445515,0.291460 RARM_JOINT3:0.988466,0.000000,0.151369,-0.004755 RLEG_JOINT2:0.999417,0.021527,0.000000,-0.026499 RLEG_JOINT4:0.993926,0.102413,0.000000,0.040276 WAIST:0.999771,0.000000,-0.021214,-0.002685 WAIST_JOINT0:0.999901,-0.000000,0.013205,0.004888 WAIST_JOINT1:0.998392,0.056643,0.000000,-0.002027 END:
KINECT_DATA_Sensor  AnkleLeft:-0.070380,-0.699951,0.092244,0.704703 AnkleRight:0.097280,0.685642,0.077204,0.717266 ElbowLeft:-0.043825,0.917031,-0.167084,-0.359467 ElbowRight:-0.455243,0.808070,0.083969,0.364315 FootLeft:0.000000,0.000000,0.000000,0.000000 FootRight:0.000000,0.000000,0.000000,0.000000 HandLeft:-0.125587,0.812311,0.018269,0.569250 HandRight:-0.462444,0.637723,-0.210088,0.579066 HandTipLeft:0.000000,0.000000,0.000000,0.000000 HandTipRight:0.000000,0.000000,0.000000,0.000000 Head:0.000000,0.000000,0.000000,0.000000 HipLeft:0.136993,-0.680603,0.697910,-0.175879 HipRight:-0.111973,0.682116,0.706083,-0.153709 KneeLeft:0.001305,0.722035,-0.043752,-0.690471 KneeRight:-0.004671,0.691879,0.035926,0.721104 Neck:-0.013934,-0.001436,0.997287,-0.072265 ShoulderLeft:-0.002442,0.778882,-0.624205,0.060860 ShoulderRight:-0.020478,0.784142,0.614856,-0.081570 SpineBase:0.021260,-0.002910,0.999205,-0.033597 SpineMid:0.003757,-0.002322,0.999424,-0.033643 SpineShoulder:-0.013994,-0.001520,0.998560,-0.051767 ThumbLeft:0.000000,0.000000,0.000000,0.000000 ThumbRight:0.000000,0.000000,0.000000,0.000000 WristLeft:-0.128664,0.819360,-0.068504,0.554438 WristRight:-0.453869,0.645224,-0.229687,0.570028 END:
KINECT_DATA POSITION:6.188688,-0.191119,-6.978285 HEAD_JOINT1:0.982244,0.164948,-0.000000,0.089384 LARM_JOINT2:0.819059,0.000000,-0.032309,-0.572799 LARM_JOINT3:0.967880,0.000000,-0.176722,-0.178825 LLEG_JOINT2:0.998973,0.031858,0.000000,0.032217 LLEG_JOINT4:0.996393,0.082720,0.000000,-0.018936 RARM_JOINT2:0.847745,0.000000,0.411128,0.335115 RARM_JOINT3:0.972637,0.000000,0.232323,0.001729 RLEG_JOINT2:0.999443,0.019049,0.000000,-0.027390 RLEG_JOINT4:0.994152,0.100586,0.000000,0.039286 WAIST:0.999751,0.000000,-0.022124,-0.002979 WAIST_JOINT0:0.999903,-0.000000,0.013098,0.004806 WAIST_JOINT1:0.998467,0.055289,0.000000,-0.002558 END:
KINECT_DATA_Sensor  AnkleLeft:-0.069607,-0.700112,0.091263,0.704748 AnkleRight:0.095771,0.714282,0.071866,0.689539 ElbowLeft:-0.044591,0.917428,-0.164125,-0.359723 ElbowRight:-0.419167,0.803927,0.077088,0.414798 FootLeft:0.000000,0.000000,0.000000,0.000000 FootRight:0.000000,0.000000,0.000000,0.000000 HandLeft:-0.137642,0.806266,0.016210,0.575089 HandRight:-0.321078,0.493155,-0.366738,0.720562 HandTipLeft:0.000000,0.000000,0.000000,0.000000 HandTipRight:0.000000,0.000000,0.000000,0.000000 Head:0.000000,0.000000,0.000000,0.000000 HipLeft:0.138595,-0.680857,0.697430,-0.175549 HipRight:-0.112276,0.682138,0.706263,-0.152558 KneeLeft:0.000893,0.722676,-0.043187,-0.689835 KneeRight:-0.007256,0.691205,0.035069,0.721771 Neck:-0.013244,-0.002337,0.997389,-0.070951 ShoulderLeft:-0.002298,0.779659,-0.623388,0.059285 ShoulderRight:-0.019380,0.783597,0.615908,-0.079110 SpineBase:0.022169,-0.003467,0.999227,-0.032285 SpineMid:0.004551,-0.002897,0.999462,-0.032341 SpineShoulder:-0.013314,-0.002336,0.998635,-0.050456 ThumbLeft:0.000000,0.000000,0.000000,0.000000 ThumbRight:0.000000,0.000000,0.000000,0.000000 WristLeft:-0.128124,0.815703,-0.069164,0.559848 WristRight:-0.347461,0.479278,-0.384189,0.708493 END:
KINECT_DATA POSITION:6.224978,-0.216625,-7.051837 HEAD_JOINT1:0.981972,0.165840,-0.000000,0.090712 LARM_JOINT2:0.818949,0.000000,-0.032254,-0.572959 LARM_JOINT3:0.968258,0.000000,-0.178198,-0.175278 LLEG_JOINT2:0.999035,0.030721,0.000000,0.031398 LLEG_JOINT4:0.996188,0.084849,0.000000,-0.020241 RARM_JOINT2:0.848844,0.000000,0.392482,0.354148 RARM_JOINT3:0.965539,0.000000,0.259127,0.024247 RLEG_JOINT2:0.999432,0.018867,0.000000,-0.027921 RLEG_JOINT4:0.994050,0.101635,0.000000,0.039186 WAIST:0.999719,0.000000,-0.023570,-0.002456 WAIST_JOINT0:0.999917,-0.000000,0.009063,0.009142 WAIST_JOINT1:0.998471,0.055162,0.000000,-0.003540 END:
KINECT_DATA_Sensor  AnkleLeft:0.071477,0.702090,-0.090908,-0.702635 AnkleRight:0.096336,0.711983,0.072552,0.691763 ElbowLeft:-0.044822,0.917570,-0.163398,-0.359664 ElbowRight:-0.398661,0.814456,0.091004,0.411641 FootLeft:0.000000,0.000000,0.000000,0.000000 FootRight:0.000000,0.000000,0.000000,0.000000 HandLeft:-0.138176,0.726820,-0.015034,0.672618 HandRight:-0.282853,0.514292,-0.371500,0.719365 HandTipLeft:0.000000,0.000000,0.000000,0.000000 HandTipRight:0.000000,0.000000,0.000000,0.000000 Head:0.000000,0.000000,0.000000,0.000000 HipLeft:0.139763,-0.680336,0.697514,-0.176305 HipRight:-0.111533,0.682647,0.706028,-0.151913 KneeLeft:0.000262,0.723647,-0.042167,-0.688881 KneeRight:-0.007336,0.690187,0.034966,0.722749 Neck:-0.009241,-0.002987,0.997441,-0.070834 ShoulderLeft:-0.001998,0.779206,-0.623875,0.060110 ShoulderRight:-0.013822,0.787819,0.611392,-0.073140 SpineBase:0.023575,-0.003620,0.999198,-0.032175 SpineMid:0.007257,-0.003094,0.999449,-0.032230 SpineShoulder:-0.009302,-0.002827,0.998683,-0.050369 ThumbLeft:0.000000,0.000000,0.000000,0.000000 ThumbRight:0.000000,0.000000,0.000000,0.000000 WristLeft:-0.118073,0.737055,-0.085005,0.659987 WristRight:-0.328317,0.488654,-0.387044,0.709663 END:
KINECT_DATA POSITION:6.223813,-0.217879,-7.055688 HEAD_JOINT1:0.981875,0.165739,-0.000000,0.091931 LARM_JOINT2:0.819272,0.000000,-0.032408,-0.572489 LARM_JOINT3:0.967136,0.000000,-0.181840,-0.177714 LLEG_JOINT2:0.999013,0.030942,0.000000,0.031866 LLEG_JOINT4:0.996272,0.083867,0.000000,-0.020204 RARM_JOINT2:0.852899,0.000000,0.370346,0.367977 RARM_JOINT3:0.951917,0.000000,0.301924,0.051916 RLEG_JOINT2:0.999445,0.018579,0.000000,-0.027648 RLEG_JOINT4:0.993862,0.102734,0.000000,0.041040 WAIST:0.999712,0.000000,-0.023852,-0.002515 WAIST_JOINT0:0.999923,-0.000000,0.006232,0.010689 WAIST_JOINT1:0.998471,0.055160,0.000000,-0.003529 END:
KINECT_DATA_Sensor  AnkleLeft:0.070794,0.703801,-0.090522,-0.701041 AnkleRight:0.098162,0.710051,0.071729,0.693575 ElbowLeft:-0.045259,0.917517,-0.163771,-0.359573 ElbowRight:-0.379270,0.824891,0.110578,0.404329 FootLeft:0.000000,0.000000,0.000000,0.000000 FootRight:0.000000,0.000000,0.000000,0.000000 HandLeft:-0.151517,0.735183,-0.012693,0.660597 HandRight:-0.142892,0.373270,-0.443926,0.801986 HandTipLeft:0.000000,0.000000,0.000000,0.000000 HandTipRight:0.000000,0.000000,0.000000,0.000000 Head:0.000000,0.000000,0.000000,0.000000 HipLeft:0.139981,-0.680346,0.697429,-0.176429 HipRight:-0.111393,0.682644,0.706088,-0.151751 KneeLeft:0.000106,0.723844,-0.042608,-0.688646 KneeRight:-0.007389,0.689983,0.034613,0.722960 Neck:-0.006364,-0.003178,0.997462,-0.070838 ShoulderLeft:-0.002446,0.779162,-0.623821,0.061223 ShoulderRight:-0.010528,0.789322,0.609930,-0.069605 SpineBase:0.023857,-0.003703,0.999192,-0.032129 SpineMid:0.008826,-0.003219,0.999438,-0.032181 SpineShoulder:-0.006423,-0.002998,0.998706,-0.050355 ThumbLeft:0.000000,0.000000,0.000000,0.000000 ThumbRight:0.000000,0.000000,0.000000,0.000000 WristLeft:-0.121037,0.747737,-0.083255,0.647540 WristRight:-0.212973,0.332452,-0.453195,0.799207 END:
KINECT_DATA POSITION:6.184506,-0.229327,-7.016945 HEAD_JOINT1:0.981750,0.165519,-0.000000,0.093652 LARM_JOINT2:0.819401,0.000000,-0.033212,-0.572258 LARM_JOINT3:0.966732,0.000000,-0.184665,-0.176995 LLEG_JOINT2:0.998990,0.030770,0.000000,0.032748 LLEG_JOINT4:0.996134,0.084813,0.000000,-0.022895 RARM_JOINT2:0.855040,0.000000,0.355500,0.377526 RARM_JOINT3:0.922185,0.000000,0.349899,0.164758 RLEG_JOINT2:0.999445,0.018318,0.000000,-0.027824 RLEG_JOINT4:0.993852,0.102811,0.000000,0.041083 WAIST:0.999721,0.000000,-0.023502,-0.002442 WAIST_JOINT0:0.999902,-0.000000,0.001618,0.013873 WAIST_JOINT1:0.998471,0.055168,0.000000,-0.003375 END:
KINECT_DATA_Sensor  AnkleLeft:0.072970,0.706023,-0.089610,-0.698697 AnkleRight:0.097682,0.707602,0.072070,0.696106 ElbowLeft:-0.046367,0.916519,-0.163811,-0.361952 ElbowRight:-0.346291,0.877136,0.168818,0.286733 FootLeft:0.000000,0.000000,0.000000,0.000000 FootRight:0.000000,0.000000,0.000000,0.000000 HandLeft:-0.154761,0.731071,-0.018323,0.664265 HandRight:0.347088,-0.320535,-0.302789,0.827711 HandTipLeft:0.000000,0.000000,0.000000,0.000000 HandTipRight:0.000000,0.000000,0.000000,0.000000 Head:0.000000,0.000000,0.000000,0.000000 HipLeft:0.140193,-0.680337,0.697453,-0.176200 HipRight:-0.111952,0.682627,0.705967,-0.151982 KneeLeft:-0.000685,0.723600,-0.043145,-0.688870 KneeRight:-0.007659,0.690238,0.034505,0.722718 Neck:-0.001576,-0.003228,0.997476,-0.070907 ShoulderLeft:-0.003993,0.778868,-0.623935,0.063671 ShoulderRight:-0.005883,0.791845,0.607303,-0.064269 SpineBase:0.023501,-0.003790,0.999209,-0.031846 SpineMid:0.011018,-0.003392,0.999425,-0.031891 SpineShoulder:-0.001632,-0.003085,0.998727,-0.050311 ThumbLeft:0.000000,0.000000,0.000000,0.000000 ThumbRight:0.000000,0.000000,0.000000,0.000000 WristLeft:-0.122453,0.743586,-0.085581,0.651737 WristRight:0.260373,-0.362563,-0.372073,0.813828 END:
KINECT_DATA POSITION:6.161429,-0.270131,-6.945729 HEAD_JOINT1:0.981578,0.166474,-0.000000,0.093761 LARM_JOINT2:0.818794,0.000000,-0.033292,-0.573121 LARM_JOINT3:0.967123,0.000000,-0.180948,-0.178693 LLEG_JOINT2:0.998996,0.031421,0.000000,0.031946 LLEG_JOINT4:0.996025,0.085642,0.000000,-0.024503 RARM_JOINT2:0.851952,0.000000,0.315729,0.417724 RARM_JOINT3:0.907910,0.000000,0.369747,0.197448 RLEG_JOINT2:0.999407,0.018901,0.000000,-0.028781 RLEG_JOINT4:0.993735,0.103859,0.000000,0.041279 WAIST:0.999724,0.000000,-0.023426,-0.001783 WAIST_JOINT0:0.999849,0.000000,-0.000058,0.017364 WAIST_JOINT1:0.998470,0.055210,0.000000,-0.002965 END:
KINECT_DATA_Sensor  AnkleLeft:0.079905,0.741768,-0.085395,-0.660381 AnkleRight:0.098742,0.706566,0.073366,0.696873 ElbowLeft:-0.046884,0.915239,-0.163682,-0.365167 ElbowRight:-0.297005,0.896088,0.174924,0.279672 FootLeft:0.000000,0.000000,0.000000,0.000000 FootRight:0.000000,0.000000,0.000000,0.000000 HandLeft:-0.142045,0.800574,0.014721,0.581968 HandRight:0.160890,0.074487,-0.440018,0.880313 HandTipLeft:0.000000,0.000000,0.000000,0.000000 HandTipRight:0.000000,0.000000,0.000000,0.000000 Head:0.000000,0.000000,0.000000,0.000000 HipLeft:0.140258,-0.679850,0.697891,-0.176294 HipRight:-0.112399,0.683047,0.705488,-0.151987 KneeLeft:-0.000118,0.723522,-0.043527,-0.688927 KneeRight:-0.007433,0.690308,0.035135,0.722623 Neck:-0.000037,-0.002137,0.997479,-0.070928 ShoulderLeft:-0.004684,0.777713,-0.625263,0.064712 ShoulderRight:-0.004635,0.794539,0.603973,-0.062470 SpineBase:0.023407,-0.003055,0.999219,-0.031702 SpineMid:0.011742,-0.002684,0.999424,-0.031736 SpineShoulder:-0.000081,-0.002149,0.998732,-0.050306 ThumbLeft:0.000000,0.000000,0.000000,0.000000 ThumbRight:0.000000,0.000000,0.000000,0.000000 WristLeft:-0.131840,0.810713,-0.073067,0.565707 WristRight:0.116761,0.056727,-0.419195,0.898568 END:
KINECT_DATA POSITION:6.212012,-0.341161,-6.830287 HEAD_JOINT1:0.981570,0.167265,-0.000000,0.092423 LARM_JOINT2:0.817404,0.000000,-0.033132,-0.575111 LARM_JOINT3:0.967369,0.000000,-0.178725,-0.179598 LLEG_JOINT2:0.999021,0.032642,0.000000,0.029857 LLEG_JOINT4:0.996078,0.085033,0.000000,-0.024435 RARM_JOINT2:0.856332,0.000000,0.287980,0.428675 RARM_JOINT3:0.877747,0.000000,0.411403,0.245575 RLEG_JOINT2:0.999259,0.021110,0.000000,-0.032190 RLEG_JOINT4:0.994019,0.100115,0.000000,0.043628 WAIST:0.999746,0.000000,-0.022530,0.000453 WAIST_JOINT0:0.999807,0.000000,-0.002259,0.019491 WAIST_JOINT1:0.998497,0.054720,0.000000,-0.003143 END:
KINECT_DATA_Sensor  AnkleLeft:0.080924,0.745794,-0.085350,-0.655712 AnkleRight:0.098139,0.705337,0.071860,0.698358 ElbowLeft:-0.046508,0.915455,-0.163397,-0.364802 ElbowRight:-0.272712,0.902263,0.187202,0.276595 FootLeft:0.000000,0.000000,0.000000,0.000000 FootRight:0.000000,0.000000,0.000000,0.000000 HandLeft:-0.139224,0.786265,0.014132,0.601834 HandRight:0.220918,0.171969,-0.481561,0.830494 HandTipLeft:0.000000,0.000000,0.000000,0.000000 HandTipRight:0.000000,0.000000,0.000000,0.000000 Head:0.000000,0.000000,0.000000,0.000000 HipLeft:0.140389,-0.678569,0.699258,-0.175710 HipRight:-0.114116,0.684577,0.703680,-0.152203 KneeLeft:0.000697,0.722811,-0.044547,-0.689609 KneeRight:-0.006636,0.691028,0.037541,0.721822 Neck:0.001343,0.000159,0.997531,-0.070209 ShoulderLeft:-0.004191,0.776316,-0.627045,0.064265 ShoulderRight:-0.002452,0.797648,0.600178,-0.059482 SpineBase:0.022428,-0.001355,0.999272,-0.030848 SpineMid:0.011943,-0.001031,0.999452,-0.030861 SpineShoulder:0.001294,-0.000442,0.998757,-0.049832 ThumbLeft:0.000000,0.000000,0.000000,0.000000 ThumbRight:0.000000,0.000000,0.000000,0.000000 WristLeft:-0.129290,0.796993,-0.075812,0.585097 WristRight:0.119675,0.130074,-0.417939,0.891115 END:
KINECT_DATA POSITION:6.299280,-0.413407,-6.691635 HEAD_JOINT1:0.981683,0.167348,-0.000000,0.091070 LARM_JOINT2:0.816142,0.000000,-0.029796,-0.577082 LARM_JOINT3:0.967937,0.000000,-0.177288,-0.177953 LLEG_JOINT2:0.999090,0.033705,0.000000,0.026131 LLEG_JOINT4:0.996382,0.082367,0.000000,-0.020966 RARM_JOINT2:0.875216,0.000000,0.237809,0.421241 RARM_JOINT3:0.815551,0.000000,0.490990,0.306276 RLEG_JOINT2:0.999063,0.023668,0.000000,-0.036242 RLEG_JOINT4:0.994256,0.097990,0.000000,0.043037 WAIST:0.999788,0.000000,-0.020370,0.002839 WAIST_JOINT0:0.999843,0.000000,-0.002378,0.017569 WAIST_JOINT1:0.998541,0.053826,0.000000,-0.004304 END:
KINECT_DATA_Sensor  AnkleLeft:0.078433,0.743990,-0.085727,-0.658010 AnkleRight:0.096697,0.705674,0.074214,0.697973 ElbowLeft:-0.044792,0.912653,-0.163241,-0.372036 ElbowRight:-0.251759,0.890589,0.220141,0.308231 FootLeft:0.000000,0.000000,0.000000,0.000000 FootRight:0.000000,0.000000,0.000000,0.000000 HandLeft:-0.127294,0.599819,-0.020458,0.789680 HandRight:0.326421,0.163983,-0.484007,0.795171 HandTipLeft:0.000000,0.000000,0.000000,0.000000 HandTipRight:0.000000,0.000000,0.000000,0.000000 Head:0.000000,0.000000,0.000000,0.000000 HipLeft:0.140475,-0.677340,0.700817,-0.174165 HipRight:-0.117243,0.686004,0.701616,-0.152930 KneeLeft:0.002528,0.721214,-0.044414,-0.691283 KneeRight:-0.005984,0.692669,0.040535,0.720091 Neck:0.000860,0.001269,0.997589,-0.069377 ShoulderLeft:-0.003013,0.776160,-0.627456,0.062168 ShoulderRight:-0.001926,0.797562,0.600414,-0.058264 SpineBase:0.020187,0.000334,0.999366,-0.029316 SpineMid:0.010606,0.000615,0.999514,-0.029312 SpineShoulder:0.000817,0.000482,0.998802,-0.048917 ThumbLeft:0.000000,0.000000,0.000000,0.000000 ThumbRight:0.000000,0.000000,0.000000,0.000000 WristLeft:-0.102525,0.605291,-0.109563,0.781734 WristRight:0.189208,0.099005,-0.440059,0.872208 END:
KINECT_DATA POSITION:6.261357,-0.425175,-6.634760 HEAD_JOINT1:0.981942,0.166907,-0.000000,0.089060 LARM_JOINT2:0.814363,0.000000,-0.027830,-0.579688 LARM_JOINT3:0.968018,0.000000,-0.178867,-0.175919 LLEG_JOINT2:0.999024,0.034648,0.000000,0.027380 LLEG_JOINT4:0.996522,0.080159,0.000000,-0.022787 RARM_JOINT2:0.880259,0.000000,0.198875,0.430805 RARM_JOINT3:0.774133,0.000000,0.519014,0.362412 RLEG_JOINT2:0.999017,0.025213,0.000000,-0.036452 RLEG_JOINT4:0.994093,0.097257,0.000000,0.048159 WAIST:0.999840,0.000000,-0.017748,0.002115 WAIST_JOINT0:0.999889,-0.000000,0.002420,0.014677 WAIST_JOINT1:0.998578,0.053226,0.000000,-0.003047 END:
KINECT_DATA_Sensor  AnkleLeft:0.077101,0.730419,-0.085097,-0.673277 AnkleRight:0.099225,0.700734,0.072802,0.702728 ElbowLeft:-0.043612,0.908906,-0.161206,-0.382101 ElbowRight:-0.221092,0.893508,0.236512,0.311164 FootLeft:0.000000,0.000000,0.000000,0.000000 FootRight:0.000000,0.000000,0.000000,0.000000 HandLeft:-0.135640,0.614079,-0.018005,0.777293 HandRight:0.337923,0.154428,-0.471118,0.800005 HandTipLeft:0.000000,0.000000,0.000000,0.000000 HandTipRight:0.000000,0.000000,0.000000,0.000000 Head:0.000000,0.000000,0.000000,0.000000 HipLeft:0.139918,-0.677859,0.700601,-0.173459 HipRight:-0.119929,0.685002,0.701755,-0.154692 KneeLeft:0.002910,0.719424,-0.045436,-0.693077 KneeRight:-0.005638,0.694527,0.042249,0.718203 Neck:-0.003925,0.001627,0.997631,-0.068655 ShoulderLeft:0.000970,0.775927,-0.628225,0.057191 ShoulderRight:-0.004084,0.794433,0.604249,-0.061181 SpineBase:0.017621,0.000596,0.999425,-0.028964 SpineMid:0.006939,0.000905,0.999556,-0.028956 SpineShoulder:-0.003953,0.001010,0.998824,-0.048302 ThumbLeft:0.000000,0.000000,0.000000,0.000000 ThumbRight:0.000000,0.000000,0.000000,0.000000 WristLeft:-0.102418,0.619992,-0.109561,0.770141 WristRight:0.245624,0.115300,-0.444788,0.853544 END:
KINECT_DATA POSITION:6.165549,-0.406975,-6.583381 HEAD_JOINT1:0.982185,0.168789,-0.000000,0.082601 LARM_JOINT2:0.812057,0.000000,-0.029733,-0.582820 LARM_JOINT3:0.969625,0.000000,-0.173429,-0.172482 LLEG_JOINT2:0.998976,0.034470,0.000000,0.029315 LLEG_JOINT4:0.996098,0.085843,0.000000,-0.020486 RARM_JOINT2:0.865448,0.000000,0.199850,0.459413 RARM_JOINT3:0.770120,0.000000,0.523357,0.364708 RLEG_JOINT2:0.999068,0.024814,0.000000,-0.035315 RLEG_JOINT4:0.993728,0.100045,0.000000,0.049949 WAIST:0.999930,0.000000,-0.011850,0.000554 WAIST_JOINT0:0.999845,-0.000000,0.009611,0.014775 WAIST_JOINT1:0.998643,0.052086,0.000000,-0.000135 END:
KINECT_DATA_Sensor  AnkleLeft:0.079505,0.724759,-0.090487,-0.678392 AnkleRight:0.100107,0.691842,0.075791,0.711048 ElbowLeft:-0.044321,0.906084,-0.157932,-0.390005 ElbowRight:-0.212362,0.898706,0.203123,0.325533 FootLeft:0.000000,0.000000,0.000000,0.000000 FootRight:0.000000,0.000000,0.000000,0.000000 HandLeft:-0.123532,0.694237,0.002864,0.709061 HandRight:0.384217,0.108917,-0.425175,0.812244 HandTipLeft:0.000000,0.000000,0.000000,0.000000 HandTipRight:0.000000,0.000000,0.000000,0.000000 Head:0.000000,0.000000,0.000000,0.000000 HipLeft:0.137565,-0.679292,0.700307,-0.170906 HipRight:-0.124926,0.683051,0.702096,-0.157785 KneeLeft:0.002765,0.715383,-0.045530,-0.697242 KneeRight:-0.006493,0.698676,0.042217,0.714162 Neck:-0.011255,0.002588,0.997658,-0.067411 ShoulderLeft:0.005711,0.775220,-0.629666,0.050215 ShoulderRight:-0.008782,0.794065,0.604210,-0.065676 SpineBase:0.011838,0.001161,0.999531,-0.028226 SpineMid:0.000390,0.001484,0.999601,-0.028211 SpineShoulder:-0.011261,0.002125,0.998824,-0.047099 ThumbLeft:0.000000,0.000000,0.000000,0.000000 ThumbRight:0.000000,0.000000,0.000000,0.000000 WristLeft:-0.114290,0.709617,-0.098674,0.688219 WristRight:0.302761,0.062471,-0.446168,0.839861 END:
KINECT_DATA POSITION:6.099483,-0.382376,-6.608796 HEAD_JOINT1:0.982642,0.170040,-0.000000,0.074166 LARM_JOINT2:0.809935,0.000000,-0.026218,-0.585933 LARM_JOINT3:0.970176,0.000000,-0.176656,-0.165986 LLEG_JOINT2:0.998951,0.033068,0.000000,0.031680 LLEG_JOINT4:0.996472,0.081691,0.000000,-0.019261 RARM_JOINT2:0.867576,0.000000,0.196883,0.456672 RARM_JOINT3:0.758773,0.000000,0.531714,0.376223 RLEG_JOINT2:0.999093,0.025136,0.000000,-0.034362 RLEG_JOINT4:0.993829,0.098524,0.000000,0.050967 WAIST:0.999969,0.000000,-0.007845,-0.000045 WAIST_JOINT0:0.999788,-0.000000,0.015529,0.013523 WAIST_JOINT1:0.998664,0.051611,-0.000000,0.002428 END:
KINECT_DATA_Sensor  AnkleLeft:0.074718,0.729586,-0.087701,-0.674114 AnkleRight:0.099510,0.691088,0.074892,0.711960 ElbowLeft:-0.042734,0.899494,-0.157140,-0.405451 ElbowRight:-0.208384,0.905596,0.209005,0.304612 FootLeft:0.000000,0.000000,0.000000,0.000000 FootRight:0.000000,0.000000,0.000000,0.000000 HandLeft:-0.110248,0.802664,0.012276,0.586025 HandRight:0.454805,0.038551,-0.421357,0.783661 HandTipLeft:0.000000,0.000000,0.000000,0.000000 HandTipRight:0.000000,0.000000,0.000000,0.000000 Head:0.000000,0.000000,0.000000,0.000000 HipLeft:0.135001,-0.680083,0.700480,-0.169083 HipRight:-0.127735,0.682272,0.701996,-0.159344 KneeLeft:0.000701,0.712604,-0.045758,-0.700072 KneeRight:-0.006189,0.701508,0.042159,0.711387 Neck:-0.017666,0.004454,0.997592,-0.066919 ShoulderLeft:0.010434,0.774752,-0.630632,0.044197 ShoulderRight:-0.012339,0.793903,0.603906,-0.069738 SpineBase:0.007907,0.002516,0.999573,-0.028028 SpineMid:-0.004759,0.002871,0.999593,-0.027994 SpineShoulder:-0.017645,0.003991,0.998753,-0.046540 ThumbLeft:0.000000,0.000000,0.000000,0.000000 ThumbRight:0.000000,0.000000,0.000000,0.000000 WristLeft:-0.129304,0.807276,-0.083854,0.569697 WristRight:0.368633,0.002332,-0.403755,0.837309 END:
KINECT_DATA POSITION:6.017861,-0.305709,-6.722009 HEAD_JOINT1:0.982953,0.170963,-0.000000,0.067632 LARM_JOINT2:0.808500,0.000000,-0.023861,-0.588012 LARM_JOINT3:0.969453,0.000000,-0.180967,-0.165564 LLEG_JOINT2:0.998961,0.030125,0.000000,0.034188 LLEG_JOINT4:0.996457,0.082864,0.000000,-0.014378 RARM_JOINT2:0.862443,0.000000,0.210362,0.460369 RARM_JOINT3:0.764319,0.000000,0.528610,0.369308 RLEG_JOINT2:0.999158,0.024851,0.000000,-0.032649 RLEG_JOINT4:0.993522,0.101644,0.000000,0.050813 WAIST:0.999999,0.000000,-0.000730,-0.001147 WAIST_JOINT0:0.999675,-0.000000,0.022039,0.012807 WAIST_JOINT1:0.998660,0.051506,-0.000000,0.005106 END:
KINECT_DATA_Sensor  AnkleLeft:-0.065903,-0.695741,0.093407,0.709138 AnkleRight:0.100697,0.690307,0.078057,0.712210 ElbowLeft:-0.040584,0.893901,-0.157203,-0.417829 ElbowRight:-0.216974,0.908608,0.193411,0.299911 FootLeft:0.000000,0.000000,0.000000,0.000000 FootRight:0.000000,0.000000,0.000000,0.000000 HandLeft:-0.126109,0.813328,0.008936,0.567903 HandRight:0.458879,0.028430,-0.372617,0.806088 HandTipLeft:0.000000,0.000000,0.000000,0.000000 HandTipRight:0.000000,0.000000,0.000000,0.000000 Head:0.000000,0.000000,0.000000,0.000000 HipLeft:0.129880,-0.681888,0.700616,-0.165220 HipRight:-0.132172,0.680887,0.701728,-0.162792 KneeLeft:-0.002051,0.707657,-0.044666,-0.705140 KneeRight:-0.006263,0.706497,0.041477,0.706471 Neck:-0.024574,0.005654,0.997441,-0.066896 ShoulderLeft:0.016198,0.774781,-0.630901,0.037628 ShoulderRight:-0.015414,0.794593,0.602419,-0.073997 SpineBase:0.000902,0.003692,0.999598,-0.028083 SpineMid:-0.011700,0.004045,0.999530,-0.028034 SpineShoulder:-0.024539,0.005191,0.998609,-0.046390 ThumbLeft:0.000000,0.000000,0.000000,0.000000 ThumbRight:0.000000,0.000000,0.000000,0.000000 WristLeft:-0.128604,0.820248,-0.084311,0.550949 WristRight:0.389386,-0.013560,-0.397758,0.830652 END:
KINECT_DATA POSITION:5.959809,-0.229853,-6.825519 HEAD_JOINT1:0.983559,0.168518,-0.000000,0.064913 LARM_JOINT2:0.808773,0.000000,-0.026435,-0.587527 LARM_JOINT3:0.968842,0.000000,-0.184650,-0.165076 LLEG_JOINT2:0.999004,0.028015,0.000000,0.034733 LLEG_JOINT4:0.996169,0.085951,0.000000,-0.016135 RARM_JOINT2:0.834078,0.000000,0.186347,0.519219 RARM_JOINT3:0.787253,0.000000,0.527513,0.319316 RLEG_JOINT2:0.999160,0.025574,0.000000,-0.032016 RLEG_JOINT4:0.993866,0.099182,0.000000,0.048916 WAIST:0.999996,0.000000,0.002957,-0.000473 WAIST_JOINT0:0.999580,-0.000000,0.024575,0.015390 WAIST_JOINT1:0.998673,0.051261,-0.000000,0.004933 END:
KINECT_DATA_Sensor  AnkleLeft:0.075684,0.755732,-0.086841,-0.644670 AnkleRight:0.100035,0.704894,0.075973,0.698102 ElbowLeft:-0.041375,0.895363,-0.157519,-0.414488 ElbowRight:-0.179252,0.903542,0.139412,0.363379 FootLeft:0.000000,0.000000,0.000000,0.000000 FootRight:0.000000,0.000000,0.000000,0.000000 HandLeft:-0.143408,0.794824,-0.013522,0.589496 HandRight:0.566066,-0.021415,-0.342387,0.749588 HandTipLeft:0.000000,0.000000,0.000000,0.000000 HandTipRight:0.000000,0.000000,0.000000,0.000000 Head:0.000000,0.000000,0.000000,0.000000 HipLeft:0.128014,-0.681982,0.701300,-0.163373 HipRight:-0.134945,0.680856,0.700629,-0.165358 KneeLeft:0.004242,-0.705024,0.044053,0.707801 KneeRight:-0.004978,0.709140,0.041047,0.703855 Neck:-0.026252,0.005857,0.997412,-0.066679 ShoulderLeft:0.016042,0.774561,-0.631208,0.037067 ShoulderRight:-0.017792,0.793808,0.603130,-0.076064 SpineBase:-0.002811,0.004020,0.999596,-0.028008 SpineMid:-0.014401,0.004344,0.999496,-0.027959 SpineShoulder:-0.026216,0.005390,0.998575,-0.046165 ThumbLeft:0.000000,0.000000,0.000000,0.000000 ThumbRight:0.000000,0.000000,0.000000,0.000000 WristLeft:-0.125366,0.803515,-0.087729,0.575283 WristRight:0.387764,-0.120804,-0.392000,0.825458 END:
KINECT_DATA POSITION:5.913381,-0.062978,-7.016337 HEAD_JOINT1:0.983431,0.168252,-0.000000,0.067494 LARM_JOINT2:0.810072,0.000000,-0.028666,-0.585629 LARM_JOINT3:0.968330,0.000000,-0.183114,-0.169724 LLEG_JOINT2:0.999001,0.025928,0.000000,0.036385 LLEG_JOINT4:0.996176,0.085559,0.000000,-0.017672 RARM_JOINT2:0.836351,0.000000,0.185335,0.515915 RARM_JOINT3:0.769279,0.000000,0.549324,0.326272 RLEG_JOINT2:0.999271,0.023682,0.000000,-0.029949 RLEG_JOINT4:0.993539,0.103052,0.000000,0.047542 WAIST:0.999992,0.000000,0.003533,-0.001611 WAIST_JOINT0:0.999713,-0.000000,0.020337,0.012653 WAIST_JOINT1:0.998659,0.051463,-0.000000,0.005592 END:
KINECT_DATA_Sensor  AnkleLeft:0.073884,0.750875,-0.084974,-0.650775 AnkleRight:0.102158,0.714699,0.076342,0.687707 ElbowLeft:-0.042654,0.897322,-0.158624,-0.409672 ElbowRight:-0.181799,0.900154,0.142278,0.369363 FootLeft:0.000000,0.000000,0.000000,0.000000 FootRight:0.000000,0.000000,0.000000,0.000000 HandLeft:-0.147607,0.853817,0.014916,0.498985 HandRight:0.590211,-0.028385,-0.320493,0.740358 HandTipLeft:0.000000,0.000000,0.000000,0.000000 HandTipRight:0.000000,0.000000,0.000000,0.000000 Head:0.000000,0.000000,0.000000,0.000000 HipLeft:0.127411,-0.682893,0.700513,-0.163417 HipRight:-0.135269,0.680074,0.701151,-0.166101 KneeLeft:0.006058,-0.704661,0.042955,0.708217 KneeRight:-0.005678,0.709484,0.039048,0.703616 Neck:-0.022125,0.004973,0.997505,-0.066856 ShoulderLeft:0.014856,0.775410,-0.630058,0.039323 ShoulderRight:-0.013617,0.792645,0.605252,-0.072104 SpineBase:-0.003331,0.003649,0.999585,-0.028391 SpineMid:-0.012615,0.003913,0.999511,-0.028356 SpineShoulder:-0.022084,0.004693,0.998667,-0.046425 ThumbLeft:0.000000,0.000000,0.000000,0.000000 ThumbRight:0.000000,0.000000,0.000000,0.000000 WristLeft:-0.134419,0.862513,-0.072913,0.482376 WristRight:0.416045,-0.134398,-0.394521,0.808206 END:
KINECT_DATA POSITION:5.828071,0.002773,-7.081199 HEAD_JOINT1:0.983233,0.168121,-0.000000,0.070625 LARM_JOINT2:0.811291,0.000000,-0.029127,-0.583917 LARM_JOINT3:0.967363,0.000000,-0.184686,-0.173491 LLEG_JOINT2:0.999024,0.025506,0.000000,0.036054 LLEG_JOINT4:0.996381,0.083455,0.000000,-0.016148 RARM_JOINT2:0.836677,0.000000,0.188744,0.514147 RARM_JOINT3:0.763001,0.000000,0.559981,0.322881 RLEG_JOINT2:0.999264,0.023946,0.000000,-0.029983 RLEG_JOINT4:0.993673,0.101020,0.000000,0.049084 WAIST:0.999993,0.000000,0.003522,-0.000893 WAIST_JOINT0:0.999726,-0.000000,0.019832,0.012424 WAIST_JOINT1:0.998666,0.051442,-0.000000,0.004479 END:
KINECT_DATA_Sensor  AnkleLeft:-0.063788,-0.697219,0.090137,0.708303 AnkleRight:0.101719,0.708259,0.074501,0.694603 ElbowLeft:-0.043128,0.898733,-0.160118,-0.405932 ElbowRight:-0.184567,0.901182,0.142791,0.365263 FootLeft:0.000000,0.000000,0.000000,0.000000 FootRight:0.000000,0.000000,0.000000,0.000000 HandLeft:-0.154864,0.801688,0.003077,0.577325 HandRight:0.595884,-0.053195,-0.346190,0.722665 HandTipLeft:0.000000,0.000000,0.000000,0.000000 HandTipRight:0.000000,0.000000,0.000000,0.000000 Head:0.000000,0.000000,0.000000,0.000000 HipLeft:0.127623,-0.682431,0.700994,-0.163118 HipRight:-0.135110,0.680457,0.700770,-0.166266 KneeLeft:0.006634,-0.704631,0.042931,0.708243 KneeRight:-0.005008,0.709518,0.038752,0.703603 Neck:-0.021524,0.004535,0.997518,-0.066881 ShoulderLeft:0.013332,0.776295,-0.628925,0.040502 ShoulderRight:-0.014369,0.792884,0.604888,-0.072381 SpineBase:-0.003378,0.003231,0.999588,-0.028331 SpineMid:-0.012346,0.003485,0.999517,-0.028301 SpineShoulder:-0.021490,0.004269,0.998683,-0.046400 ThumbLeft:0.000000,0.000000,0.000000,0.000000 ThumbRight:0.000000,0.000000,0.000000,0.000000 WristLeft:-0.128603,0.814300,-0.084260,0.559712 WristRight:0.434448,-0.148097,-0.384567,0.800894 END:
KINECT_DATA POSITION:5.771719,0.034150,-7.046473 HEAD_JOINT1:0.982682,0.169525,-0.000000,0.074817 LARM_JOINT2:0.811370,0.000000,-0.030021,-0.583762 LARM_JOINT3:0.967071,0.000000,-0.188530,-0.170968 LLEG_JOINT2:0.999046,0.025451,0.000000,0.035479 LLEG_JOINT4:0.996120,0.086371,0.000000,-0.016872 RARM_JOINT2:0.833550,0.000000,0.192420,0.517850 RARM_JOINT3:0.768429,0.000000,0.573497,0.283934 RLEG_JOINT2:0.999269,0.023998,0.000000,-0.029747 RLEG_JOINT4:0.994021,0.098416,0.000000,0.047293 WAIST:0.999995,0.000000,0.003133,-0.000659 WAIST_JOINT0:0.999749,-0.000000,0.018791,0.012196 WAIST_JOINT1:0.998647,0.051814,-0.000000,0.004328 END:
KINECT_DATA_Sensor  AnkleLeft:-0.066550,-0.697369,0.091398,0.707739 AnkleRight:0.096635,0.686122,0.076708,0.716947 ElbowLeft:-0.043327,0.899625,-0.160223,-0.403890 ElbowRight:-0.191326,0.880606,0.126664,0.414589 FootLeft:0.000000,0.000000,0.000000,0.000000 FootRight:0.000000,0.000000,0.000000,0.000000 HandLeft:-0.164237,0.816276,-0.008861,0.553751 HandRight:0.574738,-0.063844,-0.341722,0.740828 HandTipLeft:0.000000,0.000000,0.000000,0.000000 HandTipRight:0.000000,0.000000,0.000000,0.000000 Head:0.000000,0.000000,0.000000,0.000000 HipLeft:0.127924,-0.682095,0.701147,-0.163630 HipRight:-0.134995,0.680530,0.700701,-0.166352 KneeLeft:0.006450,-0.704901,0.042646,0.707993 KneeRight:-0.004624,0.709254,0.038460,0.703888 Neck:-0.020053,0.004602,0.997516,-0.067364 ShoulderLeft:0.012310,0.776161,-0.629003,0.042149 ShoulderRight:-0.013552,0.791158,0.607223,-0.071870 SpineBase:-0.002998,0.003360,0.999583,-0.028522 SpineMid:-0.011423,0.003600,0.999522,-0.028493 SpineShoulder:-0.020016,0.004315,0.998697,-0.046736 ThumbLeft:0.000000,0.000000,0.000000,0.000000 ThumbRight:0.000000,0.000000,0.000000,0.000000 WristLeft:-0.130893,0.827839,-0.080431,0.539520 WristRight:0.403885,-0.174825,-0.424005,0.791538 END:
KINECT_DATA POSITION:5.738554,0.001271,-6.855381 HEAD_JOINT1:0.982131,0.171241,-0.000000,0.078067 LARM_JOINT2:0.811017,0.000000,-0.031663,-0.584165 LARM_JOINT3:0.966942,0.000000,-0.186314,-0.174097 LLEG_JOINT2:0.999045,0.026099,0.000000,0.035050 LLEG_JOINT4:0.996002,0.087371,0.000000,-0.018628 RARM_JOINT2:0.840880,0.000000,0.193307,0.505523 RARM_JOINT3:0.757872,0.000000,0.603924,0.246790 RLEG_JOINT2:0.999244,0.024869,0.000000,-0.029886 RLEG_JOINT4:0.993770,0.099589,0.000000,0.050031 WAIST:0.999996,0.000000,0.002734,-0.000579 WAIST_JOINT0:0.999875,-0.000000,0.013195,0.008665 WAIST_JOINT1:0.998624,0.052252,-0.000000,0.004422 END:
KINECT_DATA_Sensor  AnkleLeft:0.074058,0.735275,-0.087158,-0.668049 AnkleRight:0.099595,0.681629,0.076825,0.720805 ElbowLeft:-0.043343,0.901638,-0.159642,-0.399605 ElbowRight:-0.201830,0.870574,0.134018,0.428257 FootLeft:0.000000,0.000000,0.000000,0.000000 FootRight:0.000000,0.000000,0.000000,0.000000 HandLeft:-0.165147,0.691818,-0.029372,0.702318 HandRight:0.609681,-0.074771,-0.388063,0.687099 HandTipLeft:0.000000,0.000000,0.000000,0.000000 HandTipRight:0.000000,0.000000,0.000000,0.000000 Head:0.000000,0.000000,0.000000,0.000000 HipLeft:0.127853,-0.682090,0.701096,-0.163926 HipRight:-0.134748,0.680734,0.700589,-0.166188 KneeLeft:0.005762,-0.705183,0.042852,0.707706 KneeRight:-0.004034,0.708984,0.039119,0.704127 Neck:-0.015181,0.004483,0.997564,-0.067940 ShoulderLeft:0.010798,0.775517,-0.629609,0.045275 ShoulderRight:-0.008792,0.789754,0.609637,-0.067485 SpineBase:-0.002598,0.003661,0.999579,-0.028663 SpineMid:-0.008791,0.003838,0.999544,-0.028639 SpineShoulder:-0.015129,0.004310,0.998764,-0.047150 ThumbLeft:0.000000,0.000000,0.000000,0.000000 ThumbRight:0.000000,0.000000,0.000000,0.000000 WristLeft:-0.114094,0.717785,-0.100767,0.679421 WristRight:0.413873,-0.199582,-0.430186,0.777056 END:
KINECT_DATA POSITION:5.714628,-0.058978,-6.663597 HEAD_JOINT1:0.982477,0.169087,-0.000000,0.078411 LARM_JOINT2:0.810993,0.000000,-0.034299,-0.584049 LARM_JOINT3:0.966626,0.000000,-0.185981,-0.176196 LLEG_JOINT2:0.999008,0.027064,0.000000,0.035350 LLEG_JOINT4:0.995869,0.089248,0.000000,-0.016731 RARM_JOINT2:0.838001,0.000000,0.206356,0.505145 RARM_JOINT3:0.751972,0.000000,0.619587,0.225053 RLEG_JOINT2:0.999223,0.026152,0.000000,-0.029493 RLEG_JOINT4:0.993681,0.100335,0.000000,0.050316 WAIST:0.999991,0.000000,0.004129,-0.000752 WAIST_JOINT0:0.999901,-0.000000,0.010035,0.009835 WAIST_JOINT1:0.998571,0.053220,-0.000000,0.004967 END:
KINECT_DATA_Sensor  AnkleLeft:0.070599,0.701648,-0.093883,-0.702774 AnkleRight:0.102912,0.697892,0.075866,0.704699 ElbowLeft:-0.042987,0.904542,-0.159885,-0.392928 ElbowRight:-0.209501,0.867778,0.122993,0.433523 FootLeft:0.000000,0.000000,0.000000,0.000000 FootRight:0.000000,0.000000,0.000000,0.000000 HandLeft:-0.157972,0.580520,-0.057121,0.796730 HandRight:0.626635,-0.104937,-0.383416,0.670305 HandTipLeft:0.000000,0.000000,0.000000,0.000000 HandTipRight:0.000000,0.000000,0.000000,0.000000 Head:0.000000,0.000000,0.000000,0.000000 HipLeft:0.126367,-0.682212,0.701306,-0.163670 HipRight:-0.135221,0.680301,0.700652,-0.167309 KneeLeft:0.005103,-0.704213,0.043631,0.708628 KneeRight:-0.003027,0.709958,0.039871,0.703107 Neck:-0.012045,0.004449,0.997533,-0.069020 ShoulderLeft:0.008206,0.774168,-0.630989,0.049505 ShoulderRight:-0.007374,0.789454,0.610138,-0.066635 SpineBase:-0.003959,0.004033,0.999551,-0.029422 SpineMid:-0.007906,0.004149,0.999528,-0.029406 SpineShoulder:-0.011977,0.004408,0.998760,-0.048114 ThumbLeft:0.000000,0.000000,0.000000,0.000000 ThumbRight:0.000000,0.000000,0.000000,0.000000 WristLeft:-0.096949,0.587289,-0.116745,0.795024 WristRight:0.445505,-0.226104,-0.424119,0.755331 END:
KINECT_DATA POSITION:5.702602,-0.115010,-6.519890 HEAD_JOINT1:0.982000,0.171098,-0.000000,0.080015 LARM_JOINT2:0.811243,0.000000,-0.034879,-0.583667 LARM_JOINT3:0.966895,0.000000,-0.179861,-0.181009 LLEG_JOINT2:0.998999,0.028081,0.000000,0.034833 LLEG_JOINT4:0.995952,0.088138,0.000000,-0.017642 RARM_JOINT2:0.834494,0.000000,0.210029,0.509420 RARM_JOINT3:0.763034,0.000000,0.604731,0.228210 RLEG_JOINT2:0.999170,0.027824,0.000000,-0.029750 RLEG_JOINT4:0.993608,0.099467,0.000000,0.053372 WAIST:0.999993,0.000000,0.003577,-0.000615 WAIST_JOINT0:0.999913,-0.000000,0.008457,0.010136 WAIST_JOINT1:0.998537,0.053870,-0.000000,0.004731 END:
KINECT_DATA_Sensor  AnkleLeft:0.071414,0.702350,-0.092908,-0.702120 AnkleRight:0.106944,0.710107,0.072360,0.692152 ElbowLeft:-0.042064,0.907185,-0.160481,-0.386643 ElbowRight:-0.206361,0.874197,0.119662,0.422937 FootLeft:0.000000,0.000000,0.000000,0.000000 FootRight:0.000000,0.000000,0.000000,0.000000 HandLeft:-0.156863,0.674542,-0.017560,0.721164 HandRight:0.598873,-0.097151,-0.393200,0.690873 HandTipLeft:0.000000,0.000000,0.000000,0.000000 HandTipRight:0.000000,0.000000,0.000000,0.000000 Head:0.000000,0.000000,0.000000,0.000000 HipLeft:0.126264,-0.681918,0.701458,-0.164323 HipRight:-0.134520,0.680317,0.700750,-0.167398 KneeLeft:0.004137,-0.704603,0.044073,0.708220 KneeRight:-0.001909,0.709585,0.041141,0.703415 Neck:-0.010177,0.004239,0.997508,-0.069684 ShoulderLeft:0.007333,0.773592,-0.631539,0.051579 ShoulderRight:-0.005846,0.788271,0.611768,-0.065835 SpineBase:-0.003411,0.004085,0.999534,-0.030046 SpineMid:-0.006696,0.004183,0.999518,-0.030032 SpineShoulder:-0.010102,0.004292,0.998750,-0.048764 ThumbLeft:0.000000,0.000000,0.000000,0.000000 ThumbRight:0.000000,0.000000,0.000000,0.000000 WristLeft:-0.110077,0.681176,-0.100895,0.716730 WristRight:0.441959,-0.202146,-0.425360,0.763464 END:
KINECT_DATA POSITION:5.693045,-0.110655,-6.444430 HEAD_JOINT1:0.981557,0.172899,-0.000000,0.081555 LARM_JOINT2:0.811192,0.000000,-0.034635,-0.583754 LARM_JOINT3:0.967552,0.000000,-0.176898,-0.180415 LLEG_JOINT2:0.998953,0.029381,0.000000,0.035062 LLEG_JOINT4:0.995846,0.090019,0.000000,-0.013716 RARM_JOINT2:0.836016,0.000000,0.213102,0.505633 RARM_JOINT3:0.770048,0.000000,0.591522,0.239015 RLEG_JOINT2:0.999197,0.027581,0.000000,-0.029058 RLEG_JOINT4:0.993867,0.098737,0.000000,0.049799 WAIST:0.999998,0.000000,0.001664,-0.001120 WAIST_JOINT0:0.999948,-0.000000,0.005680,0.008516 WAIST_JOINT1:0.998534,0.053922,-0.000000,0.004792 END:
KINECT_DATA_Sensor  AnkleLeft:0.077250,0.748150,-0.092966,-0.652427 AnkleRight:0.104914,0.717400,0.072638,0.684875 ElbowLeft:-0.041979,0.907892,-0.160002,-0.385187 ElbowRight:-0.210834,0.871429,0.121071,0.426030 FootLeft:0.000000,0.000000,0.000000,0.000000 FootRight:0.000000,0.000000,0.000000,0.000000 HandLeft:-0.143713,0.483826,-0.045694,0.862074 HandRight:0.569979,-0.078512,-0.362839,0.733013 HandTipLeft:0.000000,0.000000,0.000000,0.000000 HandTipRight:0.000000,0.000000,0.000000,0.000000 Head:0.000000,0.000000,0.000000,0.000000 HipLeft:0.127509,-0.682014,0.700871,-0.165464 HipRight:-0.133460,0.680246,0.701267,-0.166370 KneeLeft:-0.003104,0.705974,-0.044786,-0.706814 KneeRight:-0.001871,0.708219,0.040840,0.704808 Neck:-0.007648,0.003807,0.997526,-0.069776 ShoulderLeft:0.008456,0.773608,-0.631517,0.051436 ShoulderRight:-0.001393,0.787925,0.612655,-0.061853 SpineBase:-0.001482,0.003811,0.999541,-0.030009 SpineMid:-0.004469,0.003901,0.999532,-0.029997 SpineShoulder:-0.007570,0.003938,0.998772,-0.048797 ThumbLeft:0.000000,0.000000,0.000000,0.000000 ThumbRight:0.000000,0.000000,0.000000,0.000000 WristLeft:-0.082286,0.490145,-0.123359,0.858935 WristRight:0.417236,-0.186121,-0.439676,0.773278 END:
KINECT_DATA POSITION:5.682657,-0.104195,-6.418979 HEAD_JOINT1:0.981501,0.172676,-0.000000,0.082703 LARM_JOINT2:0.811243,0.000000,-0.034911,-0.583666 LARM_JOINT3:0.967490,0.000000,-0.179952,-0.177711 LLEG_JOINT2:0.998974,0.029488,0.000000,0.034367 LLEG_JOINT4:0.996023,0.088101,0.000000,-0.013303 RARM_JOINT2:0.836684,0.000000,0.209616,0.505986 RARM_JOINT3:0.773536,0.000000,0.591025,0.228761 RLEG_JOINT2:0.999189,0.027470,0.000000,-0.029457 RLEG_JOINT4:0.993737,0.099567,0.000000,0.050734 WAIST:0.999998,0.000000,0.001583,-0.000944 WAIST_JOINT0:0.999955,-0.000000,0.004501,0.008387 WAIST_JOINT1:0.998534,0.053952,-0.000000,0.004445 END:
KINECT_DATA_Sensor  AnkleLeft:0.069869,0.704827,-0.096425,-0.699314 AnkleRight:0.104994,0.708387,0.073956,0.694043 ElbowLeft:-0.041902,0.908519,-0.159910,-0.383753 ElbowRight:-0.209137,0.870127,0.122847,0.429009 FootLeft:0.000000,0.000000,0.000000,0.000000 FootRight:0.000000,0.000000,0.000000,0.000000 HandLeft:-0.139870,0.435245,-0.069760,0.886641 HandRight:0.540991,-0.060185,-0.405892,0.734138 HandTipLeft:0.000000,0.000000,0.000000,0.000000 HandTipRight:0.000000,0.000000,0.000000,0.000000 Head:0.000000,0.000000,0.000000,0.000000 HipLeft:0.127677,-0.681857,0.700989,-0.165482 HipRight:-0.133375,0.680325,0.701197,-0.166408 KneeLeft:-0.002666,0.706028,-0.044492,-0.706780 KneeRight:-0.002103,0.708165,0.040919,0.704857 Neck:-0.006597,0.003539,0.997530,-0.069848 ShoulderLeft:0.008899,0.773535,-0.631603,0.051403 ShoulderRight:0.000446,0.788346,0.612285,-0.060146 SpineBase:-0.001411,0.003656,0.999542,-0.030009 SpineMid:-0.003911,0.003731,0.999535,-0.030000 SpineShoulder:-0.006517,0.003735,0.998779,-0.048817 ThumbLeft:0.000000,0.000000,0.000000,0.000000 ThumbRight:0.000000,0.000000,0.000000,0.000000 WristLeft:-0.075735,0.441880,-0.127170,0.884779 WristRight:0.395852,-0.159845,-0.455438,0.781234 END:
KINECT_DATA POSITION:5.672177,-0.126523,-6.440246 HEAD_JOINT1:0.981580,0.171957,-0.000000,0.083258 LARM_JOINT2:0.811452,0.000000,-0.036020,-0.583309 LARM_JOINT3:0.967186,0.000000,-0.178899,-0.180407 LLEG_JOINT2:0.999005,0.028780,0.000000,0.034076 LLEG_JOINT4:0.996188,0.086331,0.000000,-0.012537 RARM_JOINT2:0.833147,0.000000,0.206928,0.512882 RARM_JOINT3:0.777536,0.000000,0.591934,0.212255 RLEG_JOINT2:0.999150,0.029011,0.000000,-0.029303 RLEG_JOINT4:0.993941,0.097594,0.000000,0.050559 WAIST:0.999996,0.000000,0.002643,-0.000659 WAIST_JOINT0:0.999948,-0.000000,0.004170,0.009257 WAIST_JOINT1:0.998530,0.054034,-0.000000,0.004173 END:
KINECT_DATA_Sensor  AnkleLeft:0.075149,0.758660,-0.089388,-0.640934 AnkleRight:0.105717,0.718034,0.072230,0.684130 ElbowLeft:-0.042202,0.909156,-0.160080,-0.382137 ElbowRight:-0.205151,0.864021,0.114661,0.445235 FootLeft:0.000000,0.000000,0.000000,0.000000 FootRight:0.000000,0.000000,0.000000,0.000000 HandLeft:-0.149905,0.508757,-0.051914,0.846168 HandRight:0.539966,-0.120749,-0.373202,0.744699 HandTipLeft:0.000000,0.000000,0.000000,0.000000 HandTipRight:0.000000,0.000000,0.000000,0.000000 Head:0.000000,0.000000,0.000000,0.000000 HipLeft:0.126614,-0.681952,0.701279,-0.164676 HipRight:-0.133434,0.680490,0.700907,-0.166909 KneeLeft:0.003118,-0.705261,0.043993,0.707574 KneeRight:-0.000746,0.708941,0.041700,0.704033 Neck:-0.005922,0.003371,0.997531,-0.069903 ShoulderLeft:0.009086,0.773416,-0.631731,0.051590 ShoulderRight:0.001516,0.787932,0.612896,-0.059317 SpineBase:-0.002500,0.003581,0.999533,-0.030239 SpineMid:-0.004125,0.003630,0.999528,-0.030233 SpineShoulder:-0.005842,0.003605,0.998779,-0.048923 ThumbLeft:0.000000,0.000000,0.000000,0.000000 ThumbRight:0.000000,0.000000,0.000000,0.000000 WristLeft:-0.086520,0.515370,-0.120050,0.844095 WristRight:0.420823,-0.210736,-0.443735,0.762626 END:
