EastLYD/RoboCupatHomeSim/InteractiveCleanUp/JapanOpen2016/Motion_Data/File1.dat
KINECT_DATA POSITION:40.414001,0.677916,-9.409404 HEAD_JOINT1:0.980189,0.172554,-0.000000,0.097241 LARM_JOINT2:0.822446,0.000000,-0.011458,-0.568728 LARM_JOINT3:0.964355,0.000000,-0.196865,-0.176814 LLEG_JOINT2:0.997551,0.031598,0.000000,0.062406 LLEG_JOINT4:0.995299,0.091262,0.000000,-0.032424 RARM_JOINT2:0.796497,0.000000,-0.031156,0.603839 RARM_JOINT3:0.974340,0.000000,0.188663,0.122750 RLEG_JOINT2:0.999124,0.001172,0.000000,-0.041839 RLEG_JOINT4:0.993588,0.109252,0.000000,0.029096 WAIST:0.999839,0.000000,-0.016359,-0.007437 WAIST_JOINT0:0.999688,0.000000,-0.024706,0.003605 WAIST_JOINT1:0.997076,0.076181,0.000000,-0.005957 END:
KINECT_DATA_Sensor  AnkleLeft:0.068837,0.707561,-0.103672,-0.695608 AnkleRight:0.069937,0.723324,0.087409,0.681374 ElbowLeft:-0.015748,0.899942,-0.177300,-0.398022 ElbowRight:0.013582,0.842973,0.178757,0.507205 FootLeft:0.000000,0.000000,0.000000,0.000000 FootRight:0.000000,0.000000,0.000000,0.000000 HandLeft:-0.142162,0.811220,0.014061,0.567022 HandRight:-0.063688,0.729540,-0.029824,0.680313 HandTipLeft:0.000000,0.000000,0.000000,0.000000 HandTipRight:0.000000,0.000000,0.000000,0.000000 Head:0.000000,0.000000,0.000000,0.000000 HipLeft:0.125034,-0.681040,0.697789,-0.183416 HipRight:-0.102621,0.674120,0.711307,-0.170511 KneeLeft:-0.017513,0.718540,-0.060889,-0.692593 KneeRight:-0.033489,0.694967,0.036151,0.717351 Neck:0.023875,-0.013351,0.995336,-0.092510 ShoulderLeft:0.015978,0.777519,-0.623466,0.080619 ShoulderRight:0.047725,0.780594,0.621798,-0.041989 SpineBase:0.016478,-0.011274,0.998457,-0.051808 SpineMid:0.020020,-0.011457,0.998393,-0.051768 SpineShoulder:0.023748,-0.012426,0.997123,-0.070909 ThumbLeft:0.000000,0.000000,0.000000,0.000000 ThumbRight:0.000000,0.000000,0.000000,0.000000 WristLeft:-0.110653,0.823091,-0.065719,0.553135 WristRight:-0.096388,0.726989,-0.043179,0.678478 END:
KINECT_DATA POSITION:40.415428,0.680923,-9.424806 HEAD_JOINT1:0.980094,0.172429,-0.000000,0.098404 LARM_JOINT2:0.822594,0.000000,-0.011575,-0.568511 LARM_JOINT3:0.964889,0.000000,-0.195145,-0.175803 LLEG_JOINT2:0.997561,0.030787,0.000000,0.062646 LLEG_JOINT4:0.995427,0.090678,0.000000,-0.030027 RARM_JOINT2:0.796408,0.000000,-0.031779,0.603924 RARM_JOINT3:0.974509,0.000000,0.187051,0.123871 RLEG_JOINT2:0.999154,0.001299,0.000000,-0.041100 RLEG_JOINT4:0.993667,0.108884,0.000000,0.027758 WAIST:0.999839,0.000000,-0.016352,-0.007373 WAIST_JOINT0:0.999674,0.000000,-0.025325,0.003303 WAIST_JOINT1:0.997082,0.076081,0.000000,-0.006308 END:
KINECT_DATA_Sensor  AnkleLeft:0.070629,0.738668,-0.101435,-0.662640 AnkleRight:0.065315,0.691446,0.090748,0.713723 ElbowLeft:-0.015719,0.900390,-0.177205,-0.397049 ElbowRight:0.013800,0.842747,0.179082,0.507461 FootLeft:0.000000,0.000000,0.000000,0.000000 FootRight:0.000000,0.000000,0.000000,0.000000 HandLeft:-0.135167,0.798368,0.009381,0.586728 HandRight:-0.056133,0.726998,-0.028800,0.683735 HandTipLeft:0.000000,0.000000,0.000000,0.000000 HandTipRight:0.000000,0.000000,0.000000,0.000000 Head:0.000000,0.000000,0.000000,0.000000 HipLeft:0.125192,-0.681053,0.697777,-0.183307 HipRight:-0.102689,0.674186,0.711229,-0.170531 KneeLeft:-0.018298,0.718495,-0.060520,-0.692653 KneeRight:-0.032839,0.695017,0.035664,0.717357 Neck:0.024536,-0.013740,0.995321,-0.092439 ShoulderLeft:0.015396,0.777560,-0.623366,0.081105 ShoulderRight:0.048005,0.780203,0.622300,-0.041476 SpineBase:0.016456,-0.011448,0.998462,-0.051681 SpineMid:0.020340,-0.011649,0.998391,-0.051636 SpineShoulder:0.024409,-0.012751,0.997111,-0.070794 ThumbLeft:0.000000,0.000000,0.000000,0.000000 ThumbRight:0.000000,0.000000,0.000000,0.000000 WristLeft:-0.108967,0.809032,-0.068031,0.573555 WristRight:-0.096114,0.723896,-0.043111,0.681820 END:
KINECT_DATA POSITION:40.429287,0.678726,-9.433306 HEAD_JOINT1:0.980023,0.172394,-0.000000,0.099171 LARM_JOINT2:0.822537,0.000000,-0.011658,-0.568591 LARM_JOINT3:0.964973,0.000000,-0.196387,-0.173950 LLEG_JOINT2:0.997592,0.031073,0.000000,0.062004 LLEG_JOINT4:0.995501,0.089425,0.000000,-0.031321 RARM_JOINT2:0.796178,0.000000,-0.032155,0.604208 RARM_JOINT3:0.974389,0.000000,0.188360,0.122825 RLEG_JOINT2:0.999132,0.000850,0.000000,-0.041642 RLEG_JOINT4:0.993424,0.110580,0.000000,0.029677 WAIST:0.999830,0.000000,-0.016866,-0.007401 WAIST_JOINT0:0.999653,0.000000,-0.026192,0.002907 WAIST_JOINT1:0.997108,0.075743,0.000000,-0.006225 END:
KINECT_DATA_Sensor  AnkleLeft:0.068352,0.719959,-0.101383,-0.683160 AnkleRight:0.068261,0.699277,0.089789,0.705896 ElbowLeft:-0.016201,0.900491,-0.176977,-0.396903 ElbowRight:0.013708,0.841483,0.178712,0.509687 FootLeft:0.000000,0.000000,0.000000,0.000000 FootRight:0.000000,0.000000,0.000000,0.000000 HandLeft:-0.136657,0.818310,0.006017,0.558263 HandRight:-0.061023,0.721651,-0.032199,0.688811 HandTipLeft:0.000000,0.000000,0.000000,0.000000 HandTipRight:0.000000,0.000000,0.000000,0.000000 Head:0.000000,0.000000,0.000000,0.000000 HipLeft:0.125648,-0.681045,0.697683,-0.183384 HipRight:-0.102602,0.674293,0.711273,-0.169980 KneeLeft:-0.017652,0.718879,-0.060246,-0.692294 KneeRight:-0.033543,0.694611,0.035774,0.717712 Neck:0.025461,-0.013650,0.995334,-0.092065 ShoulderLeft:0.014380,0.777632,-0.623218,0.081734 ShoulderRight:0.048154,0.779888,0.622733,-0.040737 SpineBase:0.016976,-0.011354,0.998472,-0.051350 SpineMid:0.021063,-0.011564,0.998394,-0.051303 SpineShoulder:0.025334,-0.012701,0.997112,-0.070463 ThumbLeft:0.000000,0.000000,0.000000,0.000000 ThumbRight:0.000000,0.000000,0.000000,0.000000 WristLeft:-0.111408,0.827508,-0.064626,0.546482 WristRight:-0.096338,0.718819,-0.043319,0.687126 END:
KINECT_DATA POSITION:40.427216,0.669917,-9.432352 HEAD_JOINT1:0.980144,0.170943,-0.000000,0.100485 LARM_JOINT2:0.823110,0.000000,-0.013159,-0.567730 LARM_JOINT3:0.964534,0.000000,-0.199092,-0.173312 LLEG_JOINT2:0.997582,0.030581,0.000000,0.062409 LLEG_JOINT4:0.995307,0.091673,0.000000,-0.030987 RARM_JOINT2:0.795939,0.000000,-0.032321,0.604514 RARM_JOINT3:0.974539,0.000000,0.188377,0.121604 RLEG_JOINT2:0.999158,0.000997,0.000000,-0.041021 RLEG_JOINT4:0.993793,0.107751,0.000000,0.027673 WAIST:0.999817,0.000000,-0.017586,-0.007477 WAIST_JOINT0:0.999617,0.000000,-0.027521,0.002746 WAIST_JOINT1:0.997111,0.075696,0.000000,-0.006301 END:
KINECT_DATA_Sensor  AnkleLeft:0.072073,0.740120,-0.101033,-0.660924 AnkleRight:0.067457,0.715715,0.087410,0.689610 ElbowLeft:-0.017020,0.902696,-0.177210,-0.391722 ElbowRight:0.013775,0.840417,0.178551,0.511497 FootLeft:0.000000,0.000000,0.000000,0.000000 FootRight:0.000000,0.000000,0.000000,0.000000 HandLeft:-0.146068,0.774040,-0.017300,0.615815 HandRight:-0.063677,0.749505,-0.027536,0.658353 HandTipLeft:0.000000,0.000000,0.000000,0.000000 HandTipRight:0.000000,0.000000,0.000000,0.000000 Head:0.000000,0.000000,0.000000,0.000000 HipLeft:0.126294,-0.681008,0.697502,-0.183761 HipRight:-0.102316,0.674359,0.711352,-0.169556 KneeLeft:-0.018280,0.719357,-0.060104,-0.691794 KneeRight:-0.033036,0.694118,0.035502,0.718226 Neck:0.026781,-0.013812,0.995303,-0.091999 ShoulderLeft:0.013581,0.777618,-0.623134,0.082642 ShoulderRight:0.049062,0.779781,0.622870,-0.039590 SpineBase:0.017695,-0.011453,0.998466,-0.051195 SpineMid:0.022081,-0.011678,0.998379,-0.051144 SpineShoulder:0.026656,-0.012839,0.997079,-0.070416 ThumbLeft:0.000000,0.000000,0.000000,0.000000 ThumbRight:0.000000,0.000000,0.000000,0.000000 WristLeft:-0.106853,0.784268,-0.071546,0.606949 WristRight:-0.098364,0.746760,-0.038660,0.656643 END:
KINECT_DATA POSITION:40.435989,0.670195,-9.445310 HEAD_JOINT1:0.980215,0.169678,-0.000000,0.101921 LARM_JOINT2:0.823659,0.000000,-0.013669,-0.566921 LARM_JOINT3:0.964692,0.000000,-0.197168,-0.174626 LLEG_JOINT2:0.997632,0.027682,0.000000,0.062954 LLEG_JOINT4:0.994902,0.096249,0.000000,-0.030101 RARM_JOINT2:0.795658,0.000000,-0.032047,0.604897 RARM_JOINT3:0.973059,0.000000,0.197001,0.119777 RLEG_JOINT2:0.999117,-0.000163,-0.000000,-0.042020 RLEG_JOINT4:0.993457,0.110324,0.000000,0.029529 WAIST:0.999807,0.000000,-0.018197,-0.007371 WAIST_JOINT0:0.999598,0.000000,-0.028246,0.002457 WAIST_JOINT1:0.997129,0.075411,0.000000,-0.006820 END:
KINECT_DATA_Sensor  AnkleLeft:0.069600,0.723555,-0.105081,-0.678662 AnkleRight:0.067501,0.701521,0.088900,0.703853 ElbowLeft:-0.017914,0.903137,-0.177379,-0.390588 ElbowRight:0.013219,0.839415,0.178267,0.513253 FootLeft:0.000000,0.000000,0.000000,0.000000 FootRight:0.000000,0.000000,0.000000,0.000000 HandLeft:-0.140009,0.782800,-0.008919,0.606253 HandRight:-0.094582,0.776626,-0.040699,0.621491 HandTipLeft:0.000000,0.000000,0.000000,0.000000 HandTipRight:0.000000,0.000000,0.000000,0.000000 Head:0.000000,0.000000,0.000000,0.000000 HipLeft:0.126823,-0.680909,0.697495,-0.183791 HipRight:-0.101934,0.674520,0.711366,-0.169086 KneeLeft:-0.020814,0.719650,-0.058455,-0.691559 KneeRight:-0.034472,0.693659,0.035360,0.718609 Neck:0.027567,-0.014219,0.995301,-0.091726 ShoulderLeft:0.012640,0.777930,-0.622687,0.083216 ShoulderRight:0.049129,0.779611,0.623116,-0.038971 SpineBase:0.018277,-0.011747,0.998464,-0.050969 SpineMid:0.022762,-0.011975,0.998372,-0.050915 SpineShoulder:0.027438,-0.013215,0.997072,-0.070137 ThumbLeft:0.000000,0.000000,0.000000,0.000000 ThumbRight:0.000000,0.000000,0.000000,0.000000 WristLeft:-0.108840,0.792415,-0.070335,0.596058 WristRight:-0.101105,0.775814,-0.034356,0.621860 END:
KINECT_DATA POSITION:40.448174,0.658931,-9.419786 HEAD_JOINT1:0.981581,0.164517,-0.000000,0.097122 LARM_JOINT2:0.823442,0.000000,-0.013538,-0.567239 LARM_JOINT3:0.966229,0.000000,-0.190767,-0.173232 LLEG_JOINT2:0.997547,0.029802,0.000000,0.063343 LLEG_JOINT4:0.995101,0.093229,0.000000,-0.032891 RARM_JOINT2:0.797070,0.000000,-0.021132,0.603517 RARM_JOINT3:0.954365,0.000000,0.269212,0.129273 RLEG_JOINT2:0.999153,0.000241,0.000000,-0.041149 RLEG_JOINT4:0.993678,0.108563,0.000000,0.028606 WAIST:0.999832,0.000000,-0.016586,-0.007858 WAIST_JOINT0:0.999667,0.000000,-0.025678,0.002472 WAIST_JOINT1:0.997326,0.072674,0.000000,-0.007717 END:
KINECT_DATA_Sensor  AnkleLeft:0.070847,0.720615,-0.102512,-0.682045 AnkleRight:0.067693,0.716307,0.087200,0.688998 ElbowLeft:-0.019280,0.902495,-0.174731,-0.393193 ElbowRight:-0.003936,0.825302,0.175728,0.536638 FootLeft:0.000000,0.000000,0.000000,0.000000 FootRight:0.000000,0.000000,0.000000,0.000000 HandLeft:-0.120049,0.829752,0.007853,0.545013 HandRight:-0.214571,0.866459,-0.102633,0.438948 HandTipLeft:0.000000,0.000000,0.000000,0.000000 HandTipRight:0.000000,0.000000,0.000000,0.000000 Head:0.000000,0.000000,0.000000,0.000000 HipLeft:0.127239,-0.681586,0.697155,-0.182280 HipRight:-0.104068,0.674002,0.711408,-0.169675 KneeLeft:-0.019161,0.718641,-0.059948,-0.692528 KneeRight:-0.033969,0.694832,0.035313,0.717501 Neck:0.025119,-0.015794,0.995637,-0.088468 ShoulderLeft:0.011357,0.779426,-0.621222,0.080309 ShoulderRight:0.044687,0.780437,0.622362,-0.039842 SpineBase:0.016687,-0.012435,0.998550,-0.049652 SpineMid:0.020759,-0.012638,0.998473,-0.049601 SpineShoulder:0.024970,-0.014642,0.997294,-0.067575 ThumbLeft:0.000000,0.000000,0.000000,0.000000 ThumbRight:0.000000,0.000000,0.000000,0.000000 WristLeft:-0.115785,0.835143,-0.062642,0.534047 WristRight:-0.157559,0.876511,-0.050279,0.452079 END:
KINECT_DATA POSITION:40.645615,0.683138,-9.343243 HEAD_JOINT1:0.984071,0.156288,-0.000000,0.084724 LARM_JOINT2:0.821514,0.000000,-0.010368,-0.570095 LARM_JOINT3:0.966021,0.000000,-0.192300,-0.172699 LLEG_JOINT2:0.997613,0.030713,0.000000,0.061851 LLEG_JOINT4:0.995224,0.093530,0.000000,-0.027942 RARM_JOINT2:0.807294,0.000000,0.012096,0.590026 RARM_JOINT3:0.921575,0.000000,0.373244,0.106715 RLEG_JOINT2:0.999039,-0.002410,-0.000000,-0.043766 RLEG_JOINT4:0.992980,0.113720,0.000000,0.032533 WAIST:0.999850,0.000000,-0.015023,-0.008668 WAIST_JOINT0:0.999819,0.000000,-0.018916,0.001981 WAIST_JOINT1:0.997594,0.069058,0.000000,-0.006132 END:
KINECT_DATA_Sensor  AnkleLeft:0.070249,0.721281,-0.104975,-0.681028 AnkleRight:0.068052,0.703325,0.089901,0.701870 ElbowLeft:-0.019422,0.900202,-0.172034,-0.399580 ElbowRight:-0.049036,0.792810,0.170728,0.583009 FootLeft:0.000000,0.000000,0.000000,0.000000 FootRight:0.000000,0.000000,0.000000,0.000000 HandLeft:-0.116095,0.751711,-0.011763,0.649087 HandRight:-0.352750,0.872482,-0.109106,0.320059 HandTipLeft:0.000000,0.000000,0.000000,0.000000 HandTipRight:0.000000,0.000000,0.000000,0.000000 Head:0.000000,0.000000,0.000000,0.000000 HipLeft:0.128156,-0.682806,0.696463,-0.179697 HipRight:-0.107120,0.673836,0.711458,-0.168222 KneeLeft:-0.016778,0.717717,-0.059028,-0.693625 KneeRight:-0.038320,0.695664,0.035863,0.716447 Neck:0.018390,-0.014361,0.996138,-0.084646 ShoulderLeft:0.014902,0.780140,-0.621324,0.071522 ShoulderRight:0.039375,0.780904,0.622009,-0.041755 SpineBase:0.015220,-0.012012,0.998730,-0.046493 SpineMid:0.016653,-0.012078,0.998708,-0.046476 SpineShoulder:0.018195,-0.013783,0.997683,-0.064089 ThumbLeft:0.000000,0.000000,0.000000,0.000000 ThumbRight:0.000000,0.000000,0.000000,0.000000 WristLeft:-0.112074,0.757573,-0.078300,0.638272 WristRight:-0.284716,0.894672,-0.074711,0.336030 END:
KINECT_DATA POSITION:40.907761,0.744644,-9.254419 HEAD_JOINT1:0.985301,0.154009,-0.000000,0.073911 LARM_JOINT2:0.819389,0.000000,-0.007870,-0.573184 LARM_JOINT3:0.966990,0.000000,-0.190685,-0.169023 LLEG_JOINT2:0.997753,0.031882,0.000000,0.058932 LLEG_JOINT4:0.995481,0.091392,0.000000,-0.025789 RARM_JOINT2:0.826183,0.000000,0.105741,0.553391 RARM_JOINT3:0.926796,0.000000,0.368273,0.073641 RLEG_JOINT2:0.998919,-0.000152,-0.000000,-0.046479 RLEG_JOINT4:0.993125,0.112220,0.000000,0.033294 WAIST:0.999829,0.000000,-0.016186,-0.008923 WAIST_JOINT0:0.999968,0.000000,-0.007954,-0.000266 WAIST_JOINT1:0.997997,0.063023,0.000000,-0.005446 END:
KINECT_DATA_Sensor  AnkleLeft:0.070570,0.725257,-0.103381,-0.677005 AnkleRight:0.068128,0.709366,0.091221,0.695584 ElbowLeft:-0.022632,0.898361,-0.167344,-0.405502 ElbowRight:-0.133391,0.806214,0.151949,0.556001 FootLeft:0.000000,0.000000,0.000000,0.000000 FootRight:0.000000,0.000000,0.000000,0.000000 HandLeft:-0.113543,0.769946,-0.010608,0.627836 HandRight:-0.409398,0.874888,-0.088416,0.243201 HandTipLeft:0.000000,0.000000,0.000000,0.000000 HandTipRight:0.000000,0.000000,0.000000,0.000000 Head:0.000000,0.000000,0.000000,0.000000 HipLeft:0.131860,-0.683697,0.695546,-0.177164 HipRight:-0.109371,0.674728,0.711228,-0.164121 KneeLeft:-0.013763,0.718652,-0.057625,-0.692841 KneeRight:-0.038728,0.694717,0.039601,0.717148 Neck:0.007877,-0.012785,0.996801,-0.078504 ShoulderLeft:0.012007,0.782637,-0.619101,0.063640 ShoulderRight:0.022697,0.781030,0.622010,-0.050793 SpineBase:0.016386,-0.012001,0.998931,-0.041514 SpineMid:0.011984,-0.011818,0.998994,-0.041567 SpineShoulder:0.007639,-0.012750,0.998189,-0.058291 ThumbLeft:0.000000,0.000000,0.000000,0.000000 ThumbRight:0.000000,0.000000,0.000000,0.000000 WristLeft:-0.117444,0.774294,-0.078195,0.616897 WristRight:-0.350902,0.898170,-0.063466,0.257160 END:
KINECT_DATA POSITION:41.077976,0.770410,-9.235024 HEAD_JOINT1:0.985941,0.153722,-0.000000,0.065505 LARM_JOINT2:0.817642,0.000000,-0.004266,-0.575711 LARM_JOINT3:0.966983,0.000000,-0.189399,-0.170506 LLEG_JOINT2:0.997841,0.032492,0.000000,0.057069 LLEG_JOINT4:0.995573,0.090582,0.000000,-0.025084 RARM_JOINT2:0.821706,0.000000,0.270018,0.501886 RARM_JOINT3:0.955463,0.000000,0.293591,-0.029924 RLEG_JOINT2:0.998761,-0.001851,-0.000000,-0.049735 RLEG_JOINT4:0.992499,0.115145,0.000000,0.041076 WAIST:0.999836,0.000000,-0.015724,-0.008973 WAIST_JOINT0:0.999991,-0.000000,0.003656,0.001972 WAIST_JOINT1:0.998210,0.059690,0.000000,-0.003639 END:
KINECT_DATA_Sensor  AnkleLeft:0.071098,0.723638,-0.102519,-0.678810 AnkleRight:0.071103,0.702125,0.089465,0.702823 ElbowLeft:-0.023451,0.895007,-0.165979,-0.413355 ElbowRight:-0.255345,0.779535,0.059129,0.568883 FootLeft:0.000000,0.000000,0.000000,0.000000 FootRight:0.000000,0.000000,0.000000,0.000000 HandLeft:-0.118287,0.772398,0.003778,0.624016 HandRight:-0.468054,0.871269,-0.008829,0.147440 HandTipLeft:0.000000,0.000000,0.000000,0.000000 HandTipRight:0.000000,0.000000,0.000000,0.000000 Head:0.000000,0.000000,0.000000,0.000000 HipLeft:0.133060,-0.684235,0.695242,-0.175371 HipRight:-0.111768,0.675209,0.710840,-0.162192 KneeLeft:-0.011936,0.718402,-0.056736,-0.693208 KneeRight:-0.042271,0.694785,0.040768,0.716816 Neck:-0.003820,-0.010061,0.997110,-0.075199 ShoulderLeft:0.012111,0.782550,-0.619915,0.056334 ShoulderRight:0.007640,0.783526,0.618245,-0.061665 SpineBase:0.015962,-0.010865,0.999068,-0.038614 SpineMid:0.005951,-0.010478,0.999177,-0.038721 SpineShoulder:-0.004075,-0.010566,0.998419,-0.055051 ThumbLeft:0.000000,0.000000,0.000000,0.000000 ThumbRight:0.000000,0.000000,0.000000,0.000000 WristLeft:-0.117577,0.779866,-0.080460,0.609517 WristRight:-0.441121,0.884367,-0.003173,0.152635 END:
KINECT_DATA POSITION:41.367470,0.733279,-9.246874 HEAD_JOINT1:0.986327,0.153197,-0.000000,0.060734 LARM_JOINT2:0.814605,0.000000,-0.000299,-0.580017 LARM_JOINT3:0.969200,0.000000,-0.185270,-0.162252 LLEG_JOINT2:0.998162,0.031427,0.000000,0.051810 LLEG_JOINT4:0.995666,0.090958,0.000000,-0.019383 RARM_JOINT2:0.828651,0.000000,0.405148,0.386254 RARM_JOINT3:0.978105,0.000000,0.198244,-0.063317 RLEG_JOINT2:0.998481,-0.000827,-0.000000,-0.055093 RLEG_JOINT4:0.992802,0.111936,0.000000,0.042590 WAIST:0.999918,0.000000,-0.009983,-0.007967 WAIST_JOINT0:0.999521,-0.000000,0.029290,0.009966 WAIST_JOINT1:0.998357,0.057293,0.000000,-0.000357 END:
KINECT_DATA_Sensor  AnkleLeft:0.070586,0.722416,-0.102488,-0.680169 AnkleRight:0.070069,0.729076,0.088168,0.675104 ElbowLeft:-0.022327,0.889360,-0.165605,-0.425577 ElbowRight:-0.382850,0.785729,0.015958,0.485593 FootLeft:0.000000,0.000000,0.000000,0.000000 FootRight:0.000000,0.000000,0.000000,0.000000 HandLeft:-0.094597,0.819575,-0.001196,0.565108 HandRight:-0.556214,0.820893,0.056410,0.116529 HandTipLeft:0.000000,0.000000,0.000000,0.000000 HandTipRight:0.000000,0.000000,0.000000,0.000000 Head:0.000000,0.000000,0.000000,0.000000 HipLeft:0.129860,-0.684687,0.696502,-0.170952 HipRight:-0.117271,0.675867,0.709250,-0.162533 KneeLeft:-0.009289,0.714411,-0.053101,-0.697646 KneeRight:-0.044784,0.698563,0.044385,0.712765 Neck:-0.029784,-0.004189,0.996899,-0.072721 ShoulderLeft:0.012585,0.781866,-0.621647,0.045633 ShoulderRight:-0.025619,0.790419,0.605272,-0.090699 SpineBase:0.010281,-0.007141,0.999271,-0.036062 SpineMid:-0.009757,-0.006416,0.999276,-0.036198 SpineShoulder:-0.030065,-0.005807,0.998142,-0.052671 ThumbLeft:0.000000,0.000000,0.000000,0.000000 ThumbRight:0.000000,0.000000,0.000000,0.000000 WristLeft:-0.119008,0.820185,-0.076479,0.554332 WristRight:-0.487984,0.865250,0.034218,0.109737 END:
KINECT_DATA POSITION:41.464245,0.720838,-9.248220 HEAD_JOINT1:0.986323,0.154114,-0.000000,0.058452 LARM_JOINT2:0.813552,0.000000,0.002398,-0.581487 LARM_JOINT3:0.967974,0.000000,-0.191068,-0.162846 LLEG_JOINT2:0.998188,0.033444,0.000000,0.050027 LLEG_JOINT4:0.995867,0.089132,0.000000,-0.017469 RARM_JOINT2:0.831534,0.000000,0.420170,0.363331 RARM_JOINT3:0.979233,0.000000,0.194555,-0.057016 RLEG_JOINT2:0.998336,0.000486,0.000000,-0.057666 RLEG_JOINT4:0.992519,0.113169,0.000000,0.045801 WAIST:0.999950,0.000000,-0.006855,-0.007237 WAIST_JOINT0:0.999138,-0.000000,0.040095,0.010768 WAIST_JOINT1:0.998313,0.058050,-0.000000,0.000677 END:
KINECT_DATA_Sensor  AnkleLeft:0.071104,0.724634,-0.102602,-0.677733 AnkleRight:0.070428,0.714102,0.090778,0.690549 ElbowLeft:-0.019526,0.886770,-0.166954,-0.430563 ElbowRight:-0.402324,0.782166,0.011286,0.475629 FootLeft:0.000000,0.000000,0.000000,0.000000 FootRight:0.000000,0.000000,0.000000,0.000000 HandLeft:-0.123027,0.768024,-0.016825,0.628268 HandRight:-0.028519,-0.140989,-0.541735,0.828149 HandTipLeft:0.000000,0.000000,0.000000,0.000000 HandTipRight:0.000000,0.000000,0.000000,0.000000 Head:0.000000,0.000000,0.000000,0.000000 HipLeft:0.127974,-0.684581,0.697296,-0.169561 HipRight:-0.119788,0.676066,0.708288,-0.164057 KneeLeft:-0.006931,0.712238,-0.053843,-0.699836 KneeRight:-0.045260,0.700708,0.046500,0.710491 Neck:-0.040658,-0.001624,0.996430,-0.073964 ShoulderLeft:0.015155,0.781076,-0.622881,0.041351 ShoulderRight:-0.037363,0.789661,0.603634,-0.103272 SpineBase:0.007159,-0.005600,0.999315,-0.035870 SpineMid:-0.016721,-0.004741,0.999201,-0.035994 SpineShoulder:-0.040975,-0.003897,0.997735,-0.053213 ThumbLeft:0.000000,0.000000,0.000000,0.000000 ThumbRight:0.000000,0.000000,0.000000,0.000000 WristLeft:-0.106632,0.775517,-0.085832,0.616308 WristRight:-0.011653,-0.133793,-0.509322,0.850032 END:
KINECT_DATA POSITION:41.542519,0.708812,-9.099507 HEAD_JOINT1:0.985243,0.160677,-0.000000,0.058978 LARM_JOINT2:0.813337,0.000000,0.001381,-0.581791 LARM_JOINT3:0.966476,0.000000,-0.199123,-0.162091 LLEG_JOINT2:0.998181,0.034736,0.000000,0.049267 LLEG_JOINT4:0.996064,0.087325,0.000000,-0.015178 RARM_JOINT2:0.834267,0.000000,0.424305,0.352084 RARM_JOINT3:0.978919,0.000000,0.193186,-0.066302 RLEG_JOINT2:0.998333,0.002515,0.000000,-0.057667 RLEG_JOINT4:0.992398,0.113729,0.000000,0.047032 WAIST:0.999957,0.000000,-0.005045,-0.007722 WAIST_JOINT0:0.998953,-0.000000,0.044594,0.010234 WAIST_JOINT1:0.998105,0.061495,-0.000000,0.002126 END:
KINECT_DATA_Sensor  AnkleLeft:-0.064288,-0.684207,0.106687,0.718572 AnkleRight:0.075531,0.736369,0.089774,0.666331 ElbowLeft:-0.017222,0.885957,-0.168653,-0.431670 ElbowRight:-0.408905,0.775992,0.008571,0.480167 FootLeft:0.000000,0.000000,0.000000,0.000000 FootRight:0.000000,0.000000,0.000000,0.000000 HandLeft:-0.138228,0.751851,-0.038966,0.643502 HandRight:0.064181,-0.301540,-0.547822,0.777718 HandTipLeft:0.000000,0.000000,0.000000,0.000000 HandTipRight:0.000000,0.000000,0.000000,0.000000 Head:0.000000,0.000000,0.000000,0.000000 HipLeft:0.125984,-0.684777,0.697405,-0.169809 HipRight:-0.120147,0.675332,0.708573,-0.165575 KneeLeft:-0.005030,0.711025,-0.053902,-0.701080 KneeRight:-0.044235,0.701982,0.048200,0.709183 Neck:-0.045225,-0.000831,0.995934,-0.077904 ShoulderLeft:0.018207,0.780799,-0.623129,0.041620 ShoulderRight:-0.040308,0.788159,0.604107,-0.110614 SpineBase:0.005425,-0.004901,0.999280,-0.037224 SpineMid:-0.019846,-0.003959,0.999098,-0.037336 SpineShoulder:-0.045497,-0.002544,0.997366,-0.056436 ThumbLeft:0.000000,0.000000,0.000000,0.000000 ThumbRight:0.000000,0.000000,0.000000,0.000000 WristLeft:-0.104051,0.760357,-0.087553,0.635110 WristRight:0.087198,-0.290468,-0.512641,0.803258 END:
KINECT_DATA POSITION:41.555534,0.700615,-8.995760 HEAD_JOINT1:0.984765,0.163811,-0.000000,0.058350 LARM_JOINT2:0.813397,0.000000,-0.000243,-0.581710 LARM_JOINT3:0.966483,0.000000,-0.199062,-0.162125 LLEG_JOINT2:0.998217,0.033873,0.000000,0.049147 LLEG_JOINT4:0.996287,0.084270,0.000000,-0.017625 RARM_JOINT2:0.837059,0.000000,0.417071,0.354095 RARM_JOINT3:0.977392,0.000000,0.199227,-0.070800 RLEG_JOINT2:0.998265,0.001335,0.000000,-0.058873 RLEG_JOINT4:0.992315,0.113925,0.000000,0.048300 WAIST:0.999966,0.000000,-0.003699,-0.007393 WAIST_JOINT0:0.998869,-0.000000,0.046422,0.010275 WAIST_JOINT1:0.997989,0.063336,-0.000000,0.002666 END:
KINECT_DATA_Sensor  AnkleLeft:0.067176,0.710154,-0.099793,-0.693693 AnkleRight:0.070881,0.706746,0.092209,0.697842 ElbowLeft:-0.016577,0.886382,-0.169776,-0.430382 ElbowRight:-0.404693,0.758124,-0.000915,0.511341 FootLeft:0.000000,0.000000,0.000000,0.000000 FootRight:0.000000,0.000000,0.000000,0.000000 HandLeft:-0.138836,0.781432,-0.033778,0.607411 HandRight:-0.513916,0.849565,0.115082,0.029767 HandTipLeft:0.000000,0.000000,0.000000,0.000000 HandTipRight:0.000000,0.000000,0.000000,0.000000 Head:0.000000,0.000000,0.000000,0.000000 HipLeft:0.124223,-0.684498,0.697926,-0.170090 HipRight:-0.120111,0.675203,0.708341,-0.167115 KneeLeft:-0.005708,0.710061,-0.053454,-0.702085 KneeRight:-0.045751,0.702834,0.047935,0.708261 Neck:-0.047171,-0.000115,0.995703,-0.079688 ShoulderLeft:0.020491,0.779892,-0.624187,0.041698 ShoulderRight:-0.040620,0.787171,0.604816,-0.113619 SpineBase:0.004092,-0.004384,0.999235,-0.038645 SpineMid:-0.021477,-0.003394,0.999013,-0.038745 SpineShoulder:-0.047409,-0.001554,0.997175,-0.058242 ThumbLeft:0.000000,0.000000,0.000000,0.000000 ThumbRight:0.000000,0.000000,0.000000,0.000000 WristLeft:-0.106831,0.789240,-0.082104,0.599122 WristRight:-0.526573,0.845167,0.090700,0.013639 END:
KINECT_DATA POSITION:41.554607,0.693613,-8.856380 HEAD_JOINT1:0.984254,0.165925,-0.000000,0.060942 LARM_JOINT2:0.815278,0.000000,-0.000958,-0.579069 LARM_JOINT3:0.966886,0.000000,-0.196478,-0.162873 LLEG_JOINT2:0.998282,0.033280,0.000000,0.048225 LLEG_JOINT4:0.995792,0.090456,0.000000,-0.014705 RARM_JOINT2:0.839993,0.000000,0.416729,0.347490 RARM_JOINT3:0.979704,0.000000,0.185908,-0.074960 RLEG_JOINT2:0.998315,0.002947,0.000000,-0.057945 RLEG_JOINT4:0.992489,0.113099,0.000000,0.046631 WAIST:0.999972,0.000000,-0.003141,-0.006812 WAIST_JOINT0:0.998881,-0.000000,0.045909,0.011394 WAIST_JOINT1:0.997861,0.065295,-0.000000,0.003203 END:
KINECT_DATA_Sensor  AnkleLeft:0.071038,0.719734,-0.104403,-0.682668 AnkleRight:0.072543,0.716632,0.091940,0.687548 ElbowLeft:-0.015335,0.890323,-0.174371,-0.420338 ElbowRight:-0.408034,0.755599,0.001303,0.512422 FootLeft:0.000000,0.000000,0.000000,0.000000 FootRight:0.000000,0.000000,0.000000,0.000000 HandLeft:-0.127775,0.790444,-0.042452,0.597553 HandRight:-0.512974,0.845801,0.136153,0.054228 HandTipLeft:0.000000,0.000000,0.000000,0.000000 HandTipRight:0.000000,0.000000,0.000000,0.000000 Head:0.000000,0.000000,0.000000,0.000000 HipLeft:0.122595,-0.683909,0.698588,-0.170920 HipRight:-0.119421,0.675336,0.708069,-0.168221 KneeLeft:-0.005852,0.709646,-0.052799,-0.702553 KneeRight:-0.043565,0.703339,0.047984,0.707894 Neck:-0.046887,0.000848,0.995559,-0.081631 ShoulderLeft:0.021035,0.778331,-0.625961,0.043956 ShoulderRight:-0.039828,0.787038,0.604759,-0.115112 SpineBase:0.003540,-0.003526,0.999175,-0.040309 SpineMid:-0.021600,-0.002511,0.998948,-0.040385 SpineShoulder:-0.047087,-0.000370,0.997079,-0.060128 ThumbLeft:0.000000,0.000000,0.000000,0.000000 ThumbRight:0.000000,0.000000,0.000000,0.000000 WristLeft:-0.104100,0.795412,-0.078353,0.591899 WristRight:-0.523243,0.846647,0.093097,0.027178 END:
KINECT_DATA POSITION:41.557617,0.705272,-8.830250 HEAD_JOINT1:0.983886,0.165957,-0.000000,0.066535 LARM_JOINT2:0.817332,0.000000,-0.001533,-0.576165 LARM_JOINT3:0.965842,0.000000,-0.195782,-0.169759 LLEG_JOINT2:0.998288,0.033345,0.000000,0.048048 LLEG_JOINT4:0.995732,0.091279,0.000000,-0.013649 RARM_JOINT2:0.848687,0.000000,0.418730,0.323102 RARM_JOINT3:0.985337,0.000000,0.152162,-0.077190 RLEG_JOINT2:0.998312,0.003656,0.000000,-0.057969 RLEG_JOINT4:0.992588,0.112374,0.000000,0.046281 WAIST:0.999972,0.000000,-0.003796,-0.006412 WAIST_JOINT0:0.998932,-0.000000,0.044465,0.012521 WAIST_JOINT1:0.997704,0.067508,-0.000000,0.005474 END:
KINECT_DATA_Sensor  AnkleLeft:0.072616,0.732156,-0.104694,-0.669114 AnkleRight:0.074319,0.729059,0.090481,0.674361 ElbowLeft:-0.015625,0.892232,-0.180664,-0.413567 ElbowRight:-0.425232,0.743453,0.005387,0.516165 FootLeft:0.000000,0.000000,0.000000,0.000000 FootRight:0.000000,0.000000,0.000000,0.000000 HandLeft:-0.126083,0.738154,-0.040029,0.661535 HandRight:-0.539717,0.777608,0.017602,0.322058 HandTipLeft:0.000000,0.000000,0.000000,0.000000 HandTipRight:0.000000,0.000000,0.000000,0.000000 Head:0.000000,0.000000,0.000000,0.000000 HipLeft:0.121589,-0.683190,0.699075,-0.172520 HipRight:-0.118408,0.675530,0.708037,-0.168292 KneeLeft:-0.005999,0.710107,-0.052997,-0.702070 KneeRight:-0.042771,0.702849,0.048241,0.708412 Neck:-0.045778,0.003779,0.995420,-0.083838 ShoulderLeft:0.021101,0.776274,-0.628289,0.046979 ShoulderRight:-0.038591,0.786882,0.604846,-0.116139 SpineBase:0.004242,-0.001894,0.999117,-0.041763 SpineMid:-0.020698,-0.000851,0.998911,-0.041798 SpineShoulder:-0.045938,0.002383,0.997007,-0.062143 ThumbLeft:0.000000,0.000000,0.000000,0.000000 ThumbRight:0.000000,0.000000,0.000000,0.000000 WristLeft:-0.095126,0.745578,-0.086734,0.653867 WristRight:-0.527514,0.797582,-0.035707,0.290375 END:
KINECT_DATA POSITION:41.490711,0.745516,-8.832968 HEAD_JOINT1:0.982677,0.169300,-0.000000,0.075383 LARM_JOINT2:0.817715,0.000000,-0.000394,-0.575622 LARM_JOINT3:0.966609,0.000000,-0.189558,-0.172439 LLEG_JOINT2:0.998277,0.033501,0.000000,0.048183 LLEG_JOINT4:0.995782,0.090399,0.000000,-0.015697 RARM_JOINT2:0.852279,0.000000,0.417462,0.315191 RARM_JOINT3:0.986319,0.000000,0.141171,-0.085118 RLEG_JOINT2:0.998305,0.003035,0.000000,-0.058126 RLEG_JOINT4:0.992375,0.114432,0.000000,0.045796 WAIST:0.999974,0.000000,-0.003800,-0.006151 WAIST_JOINT0:0.999376,-0.000000,0.031776,0.015390 WAIST_JOINT1:0.997624,0.068528,-0.000000,0.007164 END:
KINECT_DATA_Sensor  AnkleLeft:0.072973,0.730728,-0.103153,-0.670874 AnkleRight:0.075258,0.729706,0.091622,0.673403 ElbowLeft:-0.015303,0.891130,-0.183796,-0.414575 ElbowRight:-0.429862,0.723408,-0.005226,0.540253 FootLeft:0.000000,0.000000,0.000000,0.000000 FootRight:0.000000,0.000000,0.000000,0.000000 HandLeft:-0.111747,0.798159,-0.005919,0.591962 HandRight:-0.534820,0.770010,0.035020,0.346159 HandTipLeft:0.000000,0.000000,0.000000,0.000000 HandTipRight:0.000000,0.000000,0.000000,0.000000 Head:0.000000,0.000000,0.000000,0.000000 HipLeft:0.120120,-0.682714,0.699499,-0.173704 HipRight:-0.118075,0.675691,0.707927,-0.168342 KneeLeft:-0.006166,0.710130,-0.053387,-0.702016 KneeRight:-0.043148,0.702707,0.047722,0.708565 Neck:-0.033158,0.004505,0.995836,-0.084798 ShoulderLeft:0.024243,0.773894,-0.630901,0.049647 ShoulderRight:-0.018702,0.789415,0.605530,-0.099031 SpineBase:0.004332,0.000325,0.999068,-0.042940 SpineMid:-0.014338,0.001127,0.998975,-0.042926 SpineShoulder:-0.033222,0.003646,0.997446,-0.063115 ThumbLeft:0.000000,0.000000,0.000000,0.000000 ThumbRight:0.000000,0.000000,0.000000,0.000000 WristLeft:-0.099501,0.804526,-0.079106,0.580155 WristRight:-0.539111,0.785253,-0.032691,0.302769 END:
KINECT_DATA POSITION:41.348804,0.786486,-8.931518 HEAD_JOINT1:0.982464,0.167432,-0.000000,0.082045 LARM_JOINT2:0.818267,0.000000,0.001317,-0.574836 LARM_JOINT3:0.964809,0.000000,-0.195860,-0.175449 LLEG_JOINT2:0.998227,0.035859,0.000000,0.047507 LLEG_JOINT4:0.995914,0.088235,0.000000,-0.019239 RARM_JOINT2:0.855584,0.000000,0.406274,0.320807 RARM_JOINT3:0.983254,0.000000,0.160876,-0.085613 RLEG_JOINT2:0.998385,0.005133,0.000000,-0.056574 RLEG_JOINT4:0.992998,0.110410,0.000000,0.042005 WAIST:0.999970,0.000000,-0.006485,-0.004326 WAIST_JOINT0:0.999291,-0.000000,0.032976,0.018142 WAIST_JOINT1:0.997572,0.069311,-0.000000,0.006742 END:
KINECT_DATA_Sensor  AnkleLeft:0.072908,0.722211,-0.102829,-0.680089 AnkleRight:0.074046,0.730505,0.090269,0.672853 ElbowLeft:-0.015709,0.889866,-0.186728,-0.415962 ElbowRight:-0.423077,0.713920,-0.001874,0.557961 FootLeft:0.000000,0.000000,0.000000,0.000000 FootRight:0.000000,0.000000,0.000000,0.000000 HandLeft:-0.133481,0.771607,-0.010718,0.621844 HandRight:-0.490632,0.848974,0.186691,0.060576 HandTipLeft:0.000000,0.000000,0.000000,0.000000 HandTipRight:0.000000,0.000000,0.000000,0.000000 Head:0.000000,0.000000,0.000000,0.000000 HipLeft:0.120356,-0.681059,0.700560,-0.175751 HipRight:-0.115817,0.677356,0.707057,-0.166871 KneeLeft:-0.005464,0.711934,-0.055850,-0.700000 KneeRight:-0.039154,0.701032,0.046915,0.710507 Neck:-0.034677,0.006327,0.995713,-0.085515 ShoulderLeft:0.023999,0.771220,-0.634090,0.050730 ShoulderRight:-0.021091,0.789955,0.604265,-0.101927 SpineBase:0.006947,0.002296,0.999009,-0.043898 SpineMid:-0.013723,0.003204,0.998939,-0.043841 SpineShoulder:-0.034696,0.005566,0.997345,-0.063787 ThumbLeft:0.000000,0.000000,0.000000,0.000000 ThumbRight:0.000000,0.000000,0.000000,0.000000 WristLeft:-0.095075,0.783353,-0.084789,0.608383 WristRight:-0.524963,0.837329,0.149131,0.032468 END:
KINECT_DATA POSITION:41.305103,0.801501,-9.002722 HEAD_JOINT1:0.982024,0.168261,-0.000000,0.085541 LARM_JOINT2:0.818140,0.000000,0.003140,-0.575011 LARM_JOINT3:0.965169,0.000000,-0.195831,-0.173490 LLEG_JOINT2:0.998277,0.035670,0.000000,0.046601 LLEG_JOINT4:0.996035,0.086782,0.000000,-0.019571 RARM_JOINT2:0.857225,0.000000,0.400128,0.324134 RARM_JOINT3:0.979987,0.000000,0.177092,-0.090908 RLEG_JOINT2:0.998367,0.003261,0.000000,-0.057028 RLEG_JOINT4:0.993070,0.109901,0.000000,0.041642 WAIST:0.999958,0.000000,-0.008490,-0.003375 WAIST_JOINT0:0.999248,-0.000000,0.033875,0.018853 WAIST_JOINT1:0.997587,0.069175,-0.000000,0.005847 END:
KINECT_DATA_Sensor  AnkleLeft:0.070967,0.718693,-0.102164,-0.684110 AnkleRight:0.071616,0.722443,0.089212,0.681901 ElbowLeft:-0.015907,0.888052,-0.187080,-0.419657 ElbowRight:-0.419876,0.715445,0.005747,0.558398 FootLeft:0.000000,0.000000,0.000000,0.000000 FootRight:0.000000,0.000000,0.000000,0.000000 HandLeft:-0.125018,0.795386,-0.004834,0.593049 HandRight:-0.501561,0.840763,0.203162,0.016708 HandTipLeft:0.000000,0.000000,0.000000,0.000000 HandTipRight:0.000000,0.000000,0.000000,0.000000 Head:0.000000,0.000000,0.000000,0.000000 HipLeft:0.121178,-0.680291,0.700913,-0.176752 HipRight:-0.114346,0.678393,0.706575,-0.165710 KneeLeft:-0.005742,0.713284,-0.055734,-0.698632 KneeRight:-0.040052,0.699581,0.045323,0.711989 Neck:-0.035627,0.006683,0.995697,-0.085287 ShoulderLeft:0.022430,0.770828,-0.634556,0.051580 ShoulderRight:-0.023993,0.790182,0.603498,-0.104055 SpineBase:0.008885,0.002742,0.998987,-0.044035 SpineMid:-0.013198,0.003715,0.998939,-0.043964 SpineShoulder:-0.035636,0.005958,0.997319,-0.063639 ThumbLeft:0.000000,0.000000,0.000000,0.000000 ThumbRight:0.000000,0.000000,0.000000,0.000000 WristLeft:-0.098607,0.804892,-0.082903,0.579269 WristRight:-0.519860,0.836904,0.171177,-0.005897 END:
KINECT_DATA POSITION:41.254539,0.817005,-9.229147 HEAD_JOINT1:0.980324,0.178707,-0.000000,0.083834 LARM_JOINT2:0.817040,0.000000,0.006035,-0.576550 LARM_JOINT3:0.966887,0.000000,-0.185471,-0.175300 LLEG_JOINT2:0.998307,0.036510,0.000000,0.045268 LLEG_JOINT4:0.996316,0.084164,0.000000,-0.016430 RARM_JOINT2:0.846996,0.000000,0.252884,0.467598 RARM_JOINT3:0.845660,0.000000,0.474958,-0.243461 RLEG_JOINT2:0.998194,-0.000450,-0.000000,-0.060079 RLEG_JOINT4:0.992742,0.112832,0.000000,0.041620 WAIST:0.999934,0.000000,-0.011251,-0.002300 WAIST_JOINT0:0.999318,-0.000000,0.030072,0.021430 WAIST_JOINT1:0.997517,0.070302,-0.000000,0.004226 END:
KINECT_DATA_Sensor  AnkleLeft:0.068196,0.726055,-0.102659,-0.676502 AnkleRight:0.070424,0.723852,0.089618,0.680476 ElbowLeft:-0.011533,0.890764,-0.186528,-0.414264 ElbowRight:-0.274754,0.651312,0.038837,0.706254 FootLeft:0.000000,0.000000,0.000000,0.000000 FootRight:0.000000,0.000000,0.000000,0.000000 HandLeft:-0.098175,0.764001,0.014811,0.637530 HandRight:-0.372728,0.261712,-0.627440,0.631585 HandTipLeft:0.000000,0.000000,0.000000,0.000000 HandTipRight:0.000000,0.000000,0.000000,0.000000 Head:0.000000,0.000000,0.000000,0.000000 HipLeft:0.121381,-0.678919,0.701490,-0.179579 HipRight:-0.111017,0.679118,0.706349,-0.165970 KneeLeft:-0.005121,0.715155,-0.056138,-0.696689 KneeRight:-0.043967,0.697434,0.044248,0.713929 Neck:-0.031964,0.006279,0.995717,-0.086527 ShoulderLeft:0.024013,0.769767,-0.635678,0.052874 ShoulderRight:-0.017442,0.792262,0.601786,-0.099353 SpineBase:0.011545,0.002534,0.998851,-0.046451 SpineMid:-0.010039,0.003537,0.998867,-0.046385 SpineShoulder:-0.031970,0.005608,0.997373,-0.064760 ThumbLeft:0.000000,0.000000,0.000000,0.000000 ThumbRight:0.000000,0.000000,0.000000,0.000000 WristLeft:-0.091449,0.773460,-0.082179,0.621807 WristRight:-0.361974,0.262294,-0.558736,0.698563 END:
KINECT_DATA POSITION:41.202457,0.805061,-9.341753 HEAD_JOINT1:0.979906,0.182460,-0.000000,0.080576 LARM_JOINT2:0.815703,0.000000,0.010081,-0.578384 LARM_JOINT3:0.966926,0.000000,-0.191057,-0.168975 LLEG_JOINT2:0.998399,0.034671,0.000000,0.044698 LLEG_JOINT4:0.996270,0.084464,0.000000,-0.017664 RARM_JOINT2:0.840594,0.000000,0.365616,0.399658 RARM_JOINT3:0.939200,0.000000,0.285424,-0.190885 RLEG_JOINT2:0.998181,-0.000846,-0.000000,-0.060282 RLEG_JOINT4:0.992395,0.115550,0.000000,0.042436 WAIST:0.999953,0.000000,-0.009594,-0.001645 WAIST_JOINT0:0.999022,-0.000000,0.036084,0.025534 WAIST_JOINT1:0.997381,0.072093,-0.000000,0.005723 END:
KINECT_DATA_Sensor  AnkleLeft:0.066633,0.715333,-0.101618,-0.688137 AnkleRight:0.072679,0.723279,0.090479,0.680734 ElbowLeft:-0.007522,0.887646,-0.188675,-0.420036 ElbowRight:-0.347105,0.658554,-0.034681,0.666800 FootLeft:0.000000,0.000000,0.000000,0.000000 FootRight:0.000000,0.000000,0.000000,0.000000 HandLeft:-0.104499,0.803963,-0.008714,0.585362 HandRight:-0.333406,0.261045,-0.507459,0.750454 HandTipLeft:0.000000,0.000000,0.000000,0.000000 HandTipRight:0.000000,0.000000,0.000000,0.000000 Head:0.000000,0.000000,0.000000,0.000000 HipLeft:0.119261,-0.678396,0.702391,-0.179449 HipRight:-0.111565,0.679163,0.705936,-0.167169 KneeLeft:-0.006374,0.713986,-0.054901,-0.697976 KneeRight:-0.044004,0.698551,0.043577,0.712876 Neck:-0.038301,0.009033,0.995300,-0.088479 ShoulderLeft:0.027789,0.767681,-0.638234,0.050503 ShoulderRight:-0.022034,0.794252,0.597823,-0.106234 SpineBase:0.009906,0.003983,0.998814,-0.047511 SpineMid:-0.014010,0.005120,0.998765,-0.047402 SpineShoulder:-0.038305,0.007975,0.997031,-0.066319 ThumbLeft:0.000000,0.000000,0.000000,0.000000 ThumbRight:0.000000,0.000000,0.000000,0.000000 WristLeft:-0.090078,0.809582,-0.076849,0.574940 WristRight:-0.340717,0.256087,-0.510013,0.747140 END:
KINECT_DATA POSITION:41.151192,0.805529,-9.355688 HEAD_JOINT1:0.980324,0.182360,-0.000000,0.075564 LARM_JOINT2:0.814615,0.000000,0.011638,-0.579885 LARM_JOINT3:0.966485,0.000000,-0.193630,-0.168565 LLEG_JOINT2:0.998444,0.034141,0.000000,0.044080 LLEG_JOINT4:0.996327,0.083658,0.000000,-0.018251 RARM_JOINT2:0.843134,0.000000,0.406980,0.351415 RARM_JOINT3:0.968535,0.000000,0.206937,-0.138264 RLEG_JOINT2:0.998192,-0.001169,-0.000000,-0.060090 RLEG_JOINT4:0.992263,0.116507,0.000000,0.042906 WAIST:0.999970,0.000000,-0.007668,-0.000958 WAIST_JOINT0:0.998585,-0.000000,0.045174,0.028044 WAIST_JOINT1:0.997310,0.072926,-0.000000,0.007429 END:
KINECT_DATA_Sensor  AnkleLeft:0.065521,0.709082,-0.100673,-0.694820 AnkleRight:0.069687,0.692711,0.093338,0.711746 ElbowLeft:-0.007319,0.882475,-0.190042,-0.430196 ElbowRight:-0.390339,0.681756,-0.043494,0.617213 FootLeft:0.000000,0.000000,0.000000,0.000000 FootRight:0.000000,0.000000,0.000000,0.000000 HandLeft:-0.106936,0.774474,-0.009075,0.623436 HandRight:-0.200394,0.044283,-0.538133,0.817492 HandTipLeft:0.000000,0.000000,0.000000,0.000000 HandTipRight:0.000000,0.000000,0.000000,0.000000 Head:0.000000,0.000000,0.000000,0.000000 HipLeft:0.117464,-0.677999,0.703104,-0.179346 HipRight:-0.113061,0.679448,0.705190,-0.168150 KneeLeft:-0.006682,0.712641,-0.054590,-0.699369 KneeRight:-0.043705,0.699824,0.042638,0.711701 Neck:-0.047710,0.011893,0.994816,-0.089013 ShoulderLeft:0.031455,0.766354,-0.639982,0.046215 ShoulderRight:-0.030848,0.795075,0.594496,-0.116098 SpineBase:0.008032,0.006229,0.998797,-0.047970 SpineMid:-0.019578,0.007553,0.998637,-0.047780 SpineShoulder:-0.047678,0.010802,0.996555,-0.066993 ThumbLeft:0.000000,0.000000,0.000000,0.000000 ThumbRight:0.000000,0.000000,0.000000,0.000000 WristLeft:-0.085042,0.782516,-0.085038,0.610905 WristRight:-0.190467,0.051471,-0.541060,0.817513 END:
KINECT_DATA POSITION:41.108368,0.821150,-9.377729 HEAD_JOINT1:0.980278,0.182449,-0.000000,0.075942 LARM_JOINT2:0.814061,0.000000,0.011236,-0.580671 LARM_JOINT3:0.966056,0.000000,-0.197178,-0.166903 LLEG_JOINT2:0.998472,0.033857,0.000000,0.043674 LLEG_JOINT4:0.996708,0.079448,0.000000,-0.016133 RARM_JOINT2:0.843973,0.000000,0.418128,0.335973 RARM_JOINT3:0.976602,0.000000,0.179356,-0.118655 RLEG_JOINT2:0.998127,-0.002622,-0.000000,-0.061127 RLEG_JOINT4:0.992040,0.117967,0.000000,0.044060 WAIST:0.999977,0.000000,-0.006822,-0.000396 WAIST_JOINT0:0.998402,-0.000000,0.049182,0.027842 WAIST_JOINT1:0.997266,0.073504,-0.000000,0.007619 END:
KINECT_DATA_Sensor  AnkleLeft:0.062864,0.723198,-0.097794,-0.680786 AnkleRight:0.072980,0.715196,0.090674,0.689164 ElbowLeft:-0.007485,0.880642,-0.189958,-0.433969 ElbowRight:-0.403898,0.694564,-0.040188,0.593997 FootLeft:0.000000,0.000000,0.000000,0.000000 FootRight:0.000000,0.000000,0.000000,0.000000 HandLeft:-0.117115,0.773363,-0.016824,0.622824 HandRight:-0.210163,0.034121,-0.522671,0.825519 HandTipLeft:0.000000,0.000000,0.000000,0.000000 HandTipRight:0.000000,0.000000,0.000000,0.000000 Head:0.000000,0.000000,0.000000,0.000000 HipLeft:0.116648,-0.677582,0.703640,-0.179348 HipRight:-0.113670,0.679617,0.704756,-0.168877 KneeLeft:-0.006944,0.712033,-0.054506,-0.699993 KneeRight:-0.045111,0.700297,0.041915,0.711191 Neck:-0.051798,0.012877,0.994552,-0.089539 ShoulderLeft:0.033671,0.765598,-0.640914,0.044210 ShoulderRight:-0.034115,0.793819,0.595141,-0.120396 SpineBase:0.007179,0.007075,0.998779,-0.048362 SpineMid:-0.022022,0.008486,0.998562,-0.048135 SpineShoulder:-0.051759,0.011753,0.996307,-0.067491 ThumbLeft:0.000000,0.000000,0.000000,0.000000 ThumbRight:0.000000,0.000000,0.000000,0.000000 WristLeft:-0.083985,0.782558,-0.086566,0.610783 WristRight:-0.187775,0.048767,-0.524389,0.829083 END:
KINECT_DATA POSITION:41.063786,0.848880,-9.516144 HEAD_JOINT1:0.979806,0.183487,-0.000000,0.079457 LARM_JOINT2:0.814310,0.000000,0.008853,-0.580362 LARM_JOINT3:0.967018,0.000000,-0.192169,-0.167174 LLEG_JOINT2:0.998616,0.031497,0.000000,0.042110 LLEG_JOINT4:0.996385,0.083463,0.000000,-0.015840 RARM_JOINT2:0.848848,0.000000,0.415170,0.327249 RARM_JOINT3:0.981126,0.000000,0.158228,-0.111157 RLEG_JOINT2:0.998018,0.000000,0.000000,-0.062922 RLEG_JOINT4:0.992454,0.113804,0.000000,0.045647 WAIST:0.999997,0.000000,-0.002224,0.001381 WAIST_JOINT0:0.998153,-0.000000,0.053972,0.027894 WAIST_JOINT1:0.997228,0.074075,-0.000000,0.006988 END:
KINECT_DATA_Sensor  AnkleLeft:0.063372,0.714165,-0.099516,-0.689963 AnkleRight:0.071296,0.709448,0.089782,0.695370 ElbowLeft:-0.008161,0.879363,-0.190735,-0.436205 ElbowRight:-0.410683,0.703717,-0.029903,0.578989 FootLeft:0.000000,0.000000,0.000000,0.000000 FootRight:0.000000,0.000000,0.000000,0.000000 HandLeft:-0.102334,0.795884,-0.003288,0.596729 HandRight:-0.231617,-0.013448,-0.493434,0.838270 HandTipLeft:0.000000,0.000000,0.000000,0.000000 HandTipRight:0.000000,0.000000,0.000000,0.000000 Head:0.000000,0.000000,0.000000,0.000000 HipLeft:0.113237,-0.676677,0.705596,-0.177258 HipRight:-0.116117,0.679818,0.703409,-0.171988 KneeLeft:-0.008512,0.708730,-0.053020,-0.703434 KneeRight:-0.043448,0.703723,0.043588,0.707804 Neck:-0.056574,0.013763,0.994241,-0.089967 ShoulderLeft:0.035139,0.764580,-0.642142,0.042849 ShoulderRight:-0.039160,0.792073,0.595940,-0.126263 SpineBase:0.002484,0.008191,0.998751,-0.049235 SpineMid:-0.026737,0.009628,0.998396,-0.048974 SpineShoulder:-0.056535,0.012582,0.995996,-0.068092 ThumbLeft:0.000000,0.000000,0.000000,0.000000 ThumbRight:0.000000,0.000000,0.000000,0.000000 WristLeft:-0.085948,0.803113,-0.085425,0.583374 WristRight:-0.172930,0.026756,-0.524975,0.832935 END:
KINECT_DATA POSITION:41.034092,0.874645,-9.639847 HEAD_JOINT1:0.979403,0.184410,-0.000000,0.082230 LARM_JOINT2:0.815065,0.000000,0.009805,-0.579286 LARM_JOINT3:0.967242,0.000000,-0.193209,-0.164660 LLEG_JOINT2:0.998611,0.030914,0.000000,0.042657 LLEG_JOINT4:0.996432,0.082977,0.000000,-0.015438 RARM_JOINT2:0.851258,0.000000,0.414210,0.322164 RARM_JOINT3:0.979093,0.000000,0.168480,-0.113980 RLEG_JOINT2:0.998061,0.000119,0.000000,-0.062240 RLEG_JOINT4:0.992799,0.111241,0.000000,0.044444 WAIST:0.999995,0.000000,-0.002738,0.001354 WAIST_JOINT0:0.998701,-0.000000,0.043758,0.026101 WAIST_JOINT1:0.997182,0.074672,-0.000000,0.007203 END:
KINECT_DATA_Sensor  AnkleLeft:0.062782,0.720591,-0.098926,-0.683389 AnkleRight:0.072651,0.736537,0.085653,0.667007 ElbowLeft:-0.007389,0.880077,-0.192667,-0.433924 ElbowRight:-0.414822,0.710169,-0.020726,0.568465 FootLeft:0.000000,0.000000,0.000000,0.000000 FootRight:0.000000,0.000000,0.000000,0.000000 HandLeft:-0.101156,0.820414,-0.012604,0.562610 HandRight:-0.247911,0.021622,-0.512967,0.821546 HandTipLeft:0.000000,0.000000,0.000000,0.000000 HandTipRight:0.000000,0.000000,0.000000,0.000000 Head:0.000000,0.000000,0.000000,0.000000 HipLeft:0.112960,-0.676525,0.705519,-0.178317 HipRight:-0.115527,0.679822,0.703426,-0.172300 KneeLeft:-0.009317,0.709108,-0.052970,-0.703046 KneeRight:-0.042881,0.703357,0.043229,0.708224 Neck:-0.046637,0.013209,0.994707,-0.090597 ShoulderLeft:0.036837,0.763926,-0.642678,0.045005 ShoulderRight:-0.024082,0.792012,0.599373,-0.113526 SpineBase:0.003023,0.008602,0.998703,-0.050092 SpineMid:-0.021534,0.009831,0.998475,-0.049865 SpineShoulder:-0.046572,0.012180,0.996467,-0.068815 ThumbLeft:0.000000,0.000000,0.000000,0.000000 ThumbRight:0.000000,0.000000,0.000000,0.000000 WristLeft:-0.086674,0.825316,-0.081649,0.551974 WristRight:-0.191098,0.058069,-0.517792,0.831866 END:
KINECT_DATA POSITION:41.026455,0.866327,-9.693325 HEAD_JOINT1:0.978733,0.186354,-0.000000,0.085753 LARM_JOINT2:0.816280,0.000000,0.006856,-0.577616 LARM_JOINT3:0.963211,0.000000,-0.204486,-0.174387 LLEG_JOINT2:0.998606,0.031647,0.000000,0.042235 LLEG_JOINT4:0.996445,0.082805,0.000000,-0.015546 RARM_JOINT2:0.851214,0.000000,0.328335,0.409427 RARM_JOINT3:0.922356,0.000000,0.327291,-0.205280 RLEG_JOINT2:0.998063,-0.002384,-0.000000,-0.062164 RLEG_JOINT4:0.992864,0.111424,0.000000,0.042495 WAIST:0.999982,0.000000,-0.005632,0.001834 WAIST_JOINT0:0.999144,-0.000000,0.031553,0.026739 WAIST_JOINT1:0.997192,0.074650,-0.000000,0.005956 END:
KINECT_DATA_Sensor  AnkleLeft:0.062707,0.720925,-0.099604,-0.682945 AnkleRight:0.069707,0.730559,0.085429,0.673889 ElbowLeft:-0.009054,0.885068,-0.192754,-0.423578 ElbowRight:-0.332127,0.663884,-0.001944,0.670034 FootLeft:0.000000,0.000000,0.000000,0.000000 FootRight:0.000000,0.000000,0.000000,0.000000 HandLeft:-0.141734,0.793903,-0.019269,0.590980 HandRight:-0.361872,0.248023,-0.536998,0.720532 HandTipLeft:0.000000,0.000000,0.000000,0.000000 HandTipRight:0.000000,0.000000,0.000000,0.000000 Head:0.000000,0.000000,0.000000,0.000000 HipLeft:0.114275,-0.676120,0.705362,-0.179632 HipRight:-0.113178,0.680824,0.703260,-0.170570 KneeLeft:-0.008991,0.711099,-0.053508,-0.700996 KneeRight:-0.044143,0.701240,0.041197,0.710363 Neck:-0.034624,0.011620,0.995216,-0.090610 ShoulderLeft:0.033844,0.764177,-0.642142,0.050428 ShoulderRight:-0.011003,0.794698,0.598558,-0.100310 SpineBase:0.005855,0.008470,0.998685,-0.050220 SpineMid:-0.014113,0.009473,0.998603,-0.050041 SpineShoulder:-0.034515,0.011055,0.996962,-0.068939 ThumbLeft:0.000000,0.000000,0.000000,0.000000 ThumbRight:0.000000,0.000000,0.000000,0.000000 WristLeft:-0.092639,0.805449,-0.081405,0.579693 WristRight:-0.341765,0.258805,-0.508907,0.746478 END:
KINECT_DATA POSITION:41.027763,0.852922,-9.674131 HEAD_JOINT1:0.978320,0.187365,-0.000000,0.088230 LARM_JOINT2:0.816023,0.000000,0.003685,-0.578007 LARM_JOINT3:0.964211,0.000000,-0.201436,-0.172399 LLEG_JOINT2:0.998617,0.031084,0.000000,0.042412 LLEG_JOINT4:0.996158,0.086268,0.000000,-0.015039 RARM_JOINT2:0.847844,0.000000,0.307215,0.432181 RARM_JOINT3:0.899987,0.000000,0.372805,-0.225922 RLEG_JOINT2:0.998117,-0.003238,-0.000000,-0.061250 RLEG_JOINT4:0.992535,0.114538,0.000000,0.041892 WAIST:0.999959,0.000000,-0.008973,0.001461 WAIST_JOINT0:0.999421,-0.000000,0.023193,0.024913 WAIST_JOINT1:0.997218,0.074359,-0.000000,0.005219 END:
KINECT_DATA_Sensor  AnkleLeft:-0.060368,-0.696817,0.104381,0.707040 AnkleRight:0.069505,0.711182,0.088467,0.693947 ElbowLeft:-0.010840,0.888561,-0.190085,-0.417384 ElbowRight:-0.309926,0.659655,0.007657,0.684648 FootLeft:0.000000,0.000000,0.000000,0.000000 FootRight:0.000000,0.000000,0.000000,0.000000 HandLeft:-0.129359,0.778865,-0.024886,0.613201 HandRight:-0.382557,0.253867,-0.572484,0.679312 HandTipLeft:0.000000,0.000000,0.000000,0.000000 HandTipRight:0.000000,0.000000,0.000000,0.000000 Head:0.000000,0.000000,0.000000,0.000000 HipLeft:0.117205,-0.675990,0.704411,-0.181949 HipRight:-0.112127,0.681073,0.703479,-0.169367 KneeLeft:-0.009425,0.713447,-0.052942,-0.698643 KneeRight:-0.044234,0.698862,0.040359,0.712746 Neck:-0.026310,0.010056,0.995515,-0.090313 ShoulderLeft:0.030279,0.764317,-0.641769,0.055095 ShoulderRight:-0.003647,0.794016,0.600851,-0.092212 SpineBase:0.009196,0.008042,0.998679,-0.049914 SpineMid:-0.008280,0.008914,0.998687,-0.049765 SpineShoulder:-0.026169,0.009914,0.997242,-0.068743 ThumbLeft:0.000000,0.000000,0.000000,0.000000 ThumbRight:0.000000,0.000000,0.000000,0.000000 WristLeft:-0.093629,0.787629,-0.081986,0.603451 WristRight:-0.353291,0.270217,-0.517170,0.731234 END:
KINECT_DATA POSITION:41.011993,0.816562,-9.631454 HEAD_JOINT1:0.978003,0.188452,-0.000000,0.089417 LARM_JOINT2:0.816087,0.000000,0.003746,-0.577916 LARM_JOINT3:0.965606,0.000000,-0.194393,-0.172673 LLEG_JOINT2:0.998568,0.032148,0.000000,0.042751 LLEG_JOINT4:0.996373,0.083468,0.000000,-0.016549 RARM_JOINT2:0.845820,0.000000,0.336464,0.413981 RARM_JOINT3:0.926176,0.000000,0.324280,-0.192457 RLEG_JOINT2:0.998129,-0.004833,-0.000000,-0.060947 RLEG_JOINT4:0.992301,0.117491,0.000000,0.039180 WAIST:0.999939,0.000000,-0.010941,0.001488 WAIST_JOINT0:0.999213,-0.000000,0.027864,0.028229 WAIST_JOINT1:0.997241,0.074074,-0.000000,0.004796 END:
KINECT_DATA_Sensor  AnkleLeft:0.065591,0.737898,-0.098851,-0.664404 AnkleRight:0.070060,0.717094,0.090244,0.687549 ElbowLeft:-0.011204,0.889614,-0.189717,-0.415293 ElbowRight:-0.329962,0.662389,-0.009426,0.672516 FootLeft:0.000000,0.000000,0.000000,0.000000 FootRight:0.000000,0.000000,0.000000,0.000000 HandLeft:-0.109885,0.806389,-0.002698,0.581081 HandRight:-0.329589,0.265916,-0.512112,0.747262 HandTipLeft:0.000000,0.000000,0.000000,0.000000 HandTipRight:0.000000,0.000000,0.000000,0.000000 Head:0.000000,0.000000,0.000000,0.000000 HipLeft:0.118925,-0.675720,0.704185,-0.182708 HipRight:-0.111326,0.681340,0.703653,-0.168091 KneeLeft:-0.009041,0.714797,-0.053941,-0.697190 KneeRight:-0.045062,0.697421,0.039093,0.714174 Neck:-0.030966,0.010383,0.995408,-0.089974 ShoulderLeft:0.027433,0.764756,-0.641327,0.055634 ShoulderRight:-0.012698,0.796653,0.596078,-0.099363 SpineBase:0.011135,0.007730,0.998688,-0.049372 SpineMid:-0.009616,0.008754,0.998704,-0.049201 SpineShoulder:-0.030843,0.010109,0.997130,-0.068392 ThumbLeft:0.000000,0.000000,0.000000,0.000000 ThumbRight:0.000000,0.000000,0.000000,0.000000 WristLeft:-0.096695,0.812817,-0.077335,0.569209 WristRight:-0.340690,0.257993,-0.514618,0.743329 END:
KINECT_DATA POSITION:40.930931,0.797246,-9.550297 HEAD_JOINT1:0.977766,0.190075,-0.000000,0.088577 LARM_JOINT2:0.814252,0.000000,0.009755,-0.580430 LARM_JOINT3:0.966915,0.000000,-0.188641,-0.171726 LLEG_JOINT2:0.998671,0.030544,0.000000,0.041519 LLEG_JOINT4:0.996042,0.087499,0.000000,-0.015651 RARM_JOINT2:0.839072,0.000000,0.395512,0.373534 RARM_JOINT3:0.966218,0.000000,0.218363,-0.136893 RLEG_JOINT2:0.998004,-0.006167,-0.000000,-0.062852 RLEG_JOINT4:0.991806,0.120216,0.000000,0.043224 WAIST:0.999955,0.000000,-0.009205,0.002062 WAIST_JOINT0:0.998794,-0.000000,0.039111,0.029689 WAIST_JOINT1:0.997262,0.073808,-0.000000,0.004634 END:
KINECT_DATA_Sensor  AnkleLeft:0.065877,0.726445,-0.101548,-0.676480 AnkleRight:0.073856,0.726331,0.088380,0.677627 ElbowLeft:-0.006803,0.885811,-0.189420,-0.423572 ElbowRight:-0.368929,0.670320,-0.048181,0.642060 FootLeft:0.000000,0.000000,0.000000,0.000000 FootRight:0.000000,0.000000,0.000000,0.000000 HandLeft:-0.099353,0.773051,0.005421,0.626491 HandRight:-0.145405,0.017518,-0.522770,0.839799 HandTipLeft:0.000000,0.000000,0.000000,0.000000 HandTipRight:0.000000,0.000000,0.000000,0.000000 Head:0.000000,0.000000,0.000000,0.000000 HipLeft:0.118175,-0.675655,0.704709,-0.181409 HipRight:-0.112645,0.681519,0.703081,-0.168880 KneeLeft:-0.009608,0.713559,-0.052353,-0.698570 KneeRight:-0.047016,0.698547,0.039028,0.712950 Neck:-0.041822,0.011579,0.995026,-0.089663 ShoulderLeft:0.030042,0.764384,-0.642078,0.050501 ShoulderRight:-0.024518,0.795585,0.595104,-0.110883 SpineBase:0.009356,0.007854,0.998726,-0.048964 SpineMid:-0.015914,0.009090,0.998643,-0.048750 SpineShoulder:-0.041734,0.010965,0.996751,-0.068008 ThumbLeft:0.000000,0.000000,0.000000,0.000000 ThumbRight:0.000000,0.000000,0.000000,0.000000 WristLeft:-0.085439,0.781543,-0.082043,0.612503 WristRight:-0.166918,0.008763,-0.546799,0.820410 END:
KINECT_DATA POSITION:40.847221,0.776014,-9.466732 HEAD_JOINT1:0.977792,0.191299,-0.000000,0.085599 LARM_JOINT2:0.813098,0.000000,0.014087,-0.581957 LARM_JOINT3:0.966024,0.000000,-0.195615,-0.168917 LLEG_JOINT2:0.998650,0.032275,0.000000,0.040688 LLEG_JOINT4:0.996379,0.084132,0.000000,-0.012311 RARM_JOINT2:0.836190,0.000000,0.417526,0.355609 RARM_JOINT3:0.982814,0.000000,0.155779,-0.099042 RLEG_JOINT2:0.997989,-0.004543,-0.000000,-0.063224 RLEG_JOINT4:0.991787,0.118966,0.000000,0.046972 WAIST:0.999977,0.000000,-0.006335,0.002233 WAIST_JOINT0:0.998323,-0.000000,0.049038,0.030777 WAIST_JOINT1:0.997314,0.073046,-0.000000,0.005304 END:
KINECT_DATA_Sensor  AnkleLeft:-0.056878,-0.682728,0.105787,0.720734 AnkleRight:0.074609,0.715573,0.087591,0.688997 ElbowLeft:-0.004675,0.881186,-0.189707,-0.433014 ElbowRight:-0.386373,0.693607,-0.051904,0.605749 FootLeft:0.000000,0.000000,0.000000,0.000000 FootRight:0.000000,0.000000,0.000000,0.000000 HandLeft:-0.113109,0.792327,-0.007769,0.599470 HandRight:-0.140880,-0.063308,-0.487540,0.859331 HandTipLeft:0.000000,0.000000,0.000000,0.000000 HandTipRight:0.000000,0.000000,0.000000,0.000000 Head:0.000000,0.000000,0.000000,0.000000 HipLeft:0.116842,-0.676065,0.705077,-0.179306 HipRight:-0.114827,0.681411,0.702622,-0.169756 KneeLeft:-0.007774,0.711544,-0.053142,-0.700586 KneeRight:-0.046114,0.700655,0.040179,0.710874 Neck:-0.051458,0.012886,0.994637,-0.088790 ShoulderLeft:0.033916,0.763523,-0.643372,0.044207 ShoulderRight:-0.033442,0.794245,0.594804,-0.119436 SpineBase:0.006493,0.008243,0.998785,-0.048153 SpineMid:-0.022153,0.009621,0.998560,-0.047896 SpineShoulder:-0.051396,0.011970,0.996347,-0.067147 ThumbLeft:0.000000,0.000000,0.000000,0.000000 ThumbRight:0.000000,0.000000,0.000000,0.000000 WristLeft:-0.086825,0.800594,-0.081112,0.587309 WristRight:-0.126044,-0.049623,-0.517377,0.844969 END:
KINECT_DATA POSITION:40.795551,0.766436,-9.489107 HEAD_JOINT1:0.978029,0.189827,-0.000000,0.086165 LARM_JOINT2:0.812946,0.000000,0.013992,-0.582171 LARM_JOINT3:0.965375,0.000000,-0.198598,-0.169146 LLEG_JOINT2:0.998605,0.032918,0.000000,0.041291 LLEG_JOINT4:0.996404,0.083545,0.000000,-0.014122 RARM_JOINT2:0.839367,0.000000,0.410792,0.355968 RARM_JOINT3:0.984349,0.000000,0.146430,-0.098063 RLEG_JOINT2:0.997970,-0.002518,-0.000000,-0.063637 RLEG_JOINT4:0.992059,0.116778,0.000000,0.046717 WAIST:0.999983,0.000000,-0.005274,0.002666 WAIST_JOINT0:0.998230,-0.000000,0.050716,0.031059 WAIST_JOINT1:0.997350,0.072506,-0.000000,0.005982 END:
KINECT_DATA_Sensor  AnkleLeft:0.063257,0.720281,-0.101929,-0.683231 AnkleRight:0.074255,0.716648,0.087703,0.687903 ElbowLeft:-0.005058,0.881355,-0.190190,-0.432453 ElbowRight:-0.386408,0.701799,-0.041010,0.597064 FootLeft:0.000000,0.000000,0.000000,0.000000 FootRight:0.000000,0.000000,0.000000,0.000000 HandLeft:-0.123542,0.754806,-0.024737,0.643735 HandRight:-0.180616,-0.060051,-0.475308,0.858984 HandTipLeft:0.000000,0.000000,0.000000,0.000000 HandTipRight:0.000000,0.000000,0.000000,0.000000 Head:0.000000,0.000000,0.000000,0.000000 HipLeft:0.116063,-0.675916,0.705575,-0.178414 HipRight:-0.115726,0.681625,0.702271,-0.169736 KneeLeft:-0.007996,0.710778,-0.054336,-0.701269 KneeRight:-0.044701,0.701490,0.041547,0.710061 Neck:-0.053356,0.013977,0.994578,-0.088156 ShoulderLeft:0.034033,0.762847,-0.644247,0.043026 ShoulderRight:-0.035931,0.794250,0.594322,-0.121072 SpineBase:0.005437,0.009124,0.998802,-0.047759 SpineMid:-0.023615,0.010509,0.998538,-0.047473 SpineShoulder:-0.053279,0.013014,0.996275,-0.066550 ThumbLeft:0.000000,0.000000,0.000000,0.000000 ThumbRight:0.000000,0.000000,0.000000,0.000000 WristLeft:-0.081424,0.764948,-0.086382,0.633058 WristRight:-0.138343,-0.031726,-0.504970,0.851387 END:
KINECT_DATA POSITION:40.769886,0.771414,-9.576344 HEAD_JOINT1:0.978024,0.189301,-0.000000,0.087376 LARM_JOINT2:0.813360,0.000000,0.013082,-0.581614 LARM_JOINT3:0.965529,0.000000,-0.197224,-0.169874 LLEG_JOINT2:0.998562,0.032735,0.000000,0.042458 LLEG_JOINT4:0.996359,0.084105,0.000000,-0.013982 RARM_JOINT2:0.838838,0.000000,0.412041,0.355772 RARM_JOINT3:0.984984,0.000000,0.141123,-0.099451 RLEG_JOINT2:0.998006,-0.003439,-0.000000,-0.063019 RLEG_JOINT4:0.991982,0.117003,0.000000,0.047769 WAIST:0.999984,0.000000,-0.005172,0.002300 WAIST_JOINT0:0.998265,-0.000000,0.050368,0.030498 WAIST_JOINT1:0.997357,0.072379,-0.000000,0.006391 END:
KINECT_DATA_Sensor  AnkleLeft:0.062257,0.715924,-0.103238,-0.687691 AnkleRight:0.077442,0.739205,0.083766,0.663748 ElbowLeft:-0.005473,0.882847,-0.190465,-0.429273 ElbowRight:-0.385918,0.692108,-0.048634,0.608020 FootLeft:0.000000,0.000000,0.000000,0.000000 FootRight:0.000000,0.000000,0.000000,0.000000 HandLeft:-0.120487,0.784285,-0.018815,0.608298 HandRight:-0.173128,-0.064189,-0.484147,0.855283 HandTipLeft:0.000000,0.000000,0.000000,0.000000 HandTipRight:0.000000,0.000000,0.000000,0.000000 Head:0.000000,0.000000,0.000000,0.000000 HipLeft:0.115680,-0.676202,0.705446,-0.178087 HipRight:-0.115669,0.681418,0.702567,-0.169381 KneeLeft:-0.008686,0.710728,-0.054771,-0.701278 KneeRight:-0.045189,0.701484,0.040708,0.710085 Neck:-0.053031,0.013932,0.994606,-0.088049 ShoulderLeft:0.033277,0.762941,-0.644142,0.043530 ShoulderRight:-0.036309,0.793860,0.594814,-0.121096 SpineBase:0.005377,0.009283,0.998806,-0.047652 SpineMid:-0.023475,0.010655,0.998545,-0.047364 SpineShoulder:-0.052947,0.013025,0.996301,-0.066419 ThumbLeft:0.000000,0.000000,0.000000,0.000000 ThumbRight:0.000000,0.000000,0.000000,0.000000 WristLeft:-0.085959,0.792910,-0.081859,0.597665 WristRight:-0.141043,-0.043338,-0.500259,0.853212 END:
KINECT_DATA POSITION:40.762199,0.766717,-9.596670 HEAD_JOINT1:0.977940,0.189881,-0.000000,0.087056 LARM_JOINT2:0.813723,0.000000,0.012771,-0.581112 LARM_JOINT3:0.966309,0.000000,-0.195488,-0.167425 LLEG_JOINT2:0.998581,0.032276,0.000000,0.042367 LLEG_JOINT4:0.996348,0.084278,0.000000,-0.013713 RARM_JOINT2:0.842172,0.000000,0.400963,0.360521 RARM_JOINT3:0.976320,0.000000,0.190888,-0.101792 RLEG_JOINT2:0.998029,-0.003747,-0.000000,-0.062635 RLEG_JOINT4:0.992113,0.116753,0.000000,0.045608 WAIST:0.999985,0.000000,-0.004796,0.002461 WAIST_JOINT0:0.998303,-0.000000,0.049868,0.030083 WAIST_JOINT1:0.997405,0.071727,-0.000000,0.006162 END:
KINECT_DATA_Sensor  AnkleLeft:0.062283,0.718512,-0.103002,-0.685020 AnkleRight:0.073431,0.719899,0.086835,0.684699 ElbowLeft:-0.005933,0.883806,-0.190567,-0.427243 ElbowRight:-0.382865,0.703431,-0.032250,0.597962 FootLeft:0.000000,0.000000,0.000000,0.000000 FootRight:0.000000,0.000000,0.000000,0.000000 HandLeft:-0.111751,0.826993,-0.019468,0.550649 HandRight:-0.136751,0.011557,-0.534849,0.833728 HandTipLeft:0.000000,0.000000,0.000000,0.000000 HandTipRight:0.000000,0.000000,0.000000,0.000000 Head:0.000000,0.000000,0.000000,0.000000 HipLeft:0.115704,-0.676203,0.705576,-0.177550 HipRight:-0.116130,0.681494,0.702414,-0.169393 KneeLeft:-0.009040,0.710451,-0.054497,-0.701576 KneeRight:-0.045038,0.701775,0.040086,0.709843 Neck:-0.052537,0.013650,0.994701,-0.087307 ShoulderLeft:0.032383,0.763020,-0.644087,0.043630 ShoulderRight:-0.036568,0.793641,0.595221,-0.120453 SpineBase:0.004984,0.009223,0.998827,-0.047266 SpineMid:-0.023426,0.010563,0.998565,-0.046985 SpineShoulder:-0.052446,0.012853,0.996369,-0.065825 ThumbLeft:0.000000,0.000000,0.000000,0.000000 ThumbRight:0.000000,0.000000,0.000000,0.000000 WristLeft:-0.091431,0.831990,-0.075468,0.541976 WristRight:-0.153365,-0.004910,-0.503456,0.850286 END:
KINECT_DATA POSITION:40.736469,0.783830,-9.591722 HEAD_JOINT1:0.979668,0.183855,-0.000000,0.080300 LARM_JOINT2:0.813608,0.000000,0.011855,-0.581293 LARM_JOINT3:0.965983,0.000000,-0.196890,-0.167662 LLEG_JOINT2:0.998549,0.032102,0.000000,0.043231 LLEG_JOINT4:0.996380,0.083509,0.000000,-0.015896 RARM_JOINT2:0.837243,0.000000,0.426652,0.342041 RARM_JOINT3:0.954775,0.000000,0.295356,-0.034199 RLEG_JOINT2:0.998073,-0.004867,-0.000000,-0.061856 RLEG_JOINT4:0.991846,0.118893,0.000000,0.045890 WAIST:0.999988,0.000000,-0.004635,0.001729 WAIST_JOINT0:0.998183,-0.000000,0.052566,0.029440 WAIST_JOINT1:0.997675,0.067900,-0.000000,0.005806 END:
KINECT_DATA_Sensor  AnkleLeft:-0.057520,-0.680610,0.104110,0.722926 AnkleRight:0.071072,0.693659,0.090019,0.711113 ElbowLeft:-0.009314,0.884182,-0.187423,-0.427794 ElbowRight:-0.404134,0.815104,0.039421,0.413191 FootLeft:0.000000,0.000000,0.000000,0.000000 FootRight:0.000000,0.000000,0.000000,0.000000 HandLeft:-0.124328,0.819818,-0.022812,0.558499 HandRight:-0.190193,0.321799,-0.562029,0.737832 HandTipLeft:0.000000,0.000000,0.000000,0.000000 HandTipRight:0.000000,0.000000,0.000000,0.000000 Head:0.000000,0.000000,0.000000,0.000000 HipLeft:0.117133,-0.676880,0.704980,-0.176397 HipRight:-0.117588,0.681137,0.702763,-0.168373 KneeLeft:-0.009251,0.710358,-0.054466,-0.701669 KneeRight:-0.045812,0.701828,0.039250,0.709788 Neck:-0.054986,0.012231,0.994953,-0.083034 ShoulderLeft:0.031300,0.764577,-0.642582,0.039125 ShoulderRight:-0.040696,0.794126,0.594403,-0.119971 SpineBase:0.004861,0.008766,0.998922,-0.045328 SpineMid:-0.024684,0.010103,0.998629,-0.045049 SpineShoulder:-0.054892,0.011758,0.996483,-0.062206 ThumbLeft:0.000000,0.000000,0.000000,0.000000 ThumbRight:0.000000,0.000000,0.000000,0.000000 WristLeft:-0.094257,0.826600,-0.077667,0.549378 WristRight:-0.198011,0.317863,-0.496478,0.783112 END:
KINECT_DATA POSITION:40.796677,0.821017,-9.701454 HEAD_JOINT1:0.981637,0.183146,-0.000000,0.053353 LARM_JOINT2:0.805979,0.000000,0.025116,-0.591411 LARM_JOINT3:0.968533,0.000000,-0.197165,-0.151889 LLEG_JOINT2:0.998408,0.030670,0.000000,0.047346 LLEG_JOINT4:0.997088,0.075337,0.000000,-0.011799 RARM_JOINT2:0.823615,0.000000,0.486739,0.291106 RARM_JOINT3:0.912305,0.000000,0.405487,0.057260 RLEG_JOINT2:0.997922,-0.001055,-0.000000,-0.064426 RLEG_JOINT4:0.991535,0.119736,0.000000,0.050226 WAIST:0.999567,-0.000000,0.029388,0.001239 WAIST_JOINT0:0.994323,-0.000000,0.102440,0.028788 WAIST_JOINT1:0.997774,0.065326,-0.000000,0.013369 END:
KINECT_DATA_Sensor  AnkleLeft:-0.048309,-0.653047,0.100969,0.749000 AnkleRight:0.069639,0.699203,0.096588,0.704938 ElbowLeft:-0.004056,0.840037,-0.185970,-0.509643 ElbowRight:-0.448708,0.865269,0.060162,0.215293 FootLeft:0.000000,0.000000,0.000000,0.000000 FootRight:0.000000,0.000000,0.000000,0.000000 HandLeft:-0.065897,0.835515,-0.008170,0.545441 HandRight:-0.175372,-0.369686,0.699672,-0.585693 HandTipLeft:0.000000,0.000000,0.000000,0.000000 HandTipRight:0.000000,0.000000,0.000000,0.000000 Head:0.000000,0.000000,0.000000,0.000000 HipLeft:0.093388,-0.681638,0.709577,-0.152146 HipRight:-0.137415,0.676199,0.700548,-0.181946 KneeLeft:0.010942,-0.686127,0.056383,0.725211 KneeRight:-0.046773,0.725357,0.042504,0.685466 Neck:-0.104165,0.019408,0.991111,-0.080446 ShoulderLeft:0.061832,0.759306,-0.647789,0.000396 ShoulderRight:-0.075536,0.782200,0.598032,-0.157528 SpineBase:-0.028902,0.011828,0.998588,-0.042971 SpineMid:-0.066198,0.013426,0.996811,-0.042499 SpineShoulder:-0.104212,0.016984,0.992633,-0.059432 ThumbLeft:0.000000,0.000000,0.000000,0.000000 ThumbRight:0.000000,0.000000,0.000000,0.000000 WristLeft:-0.093027,0.834343,-0.102677,0.533549 WristRight:0.042170,0.278009,-0.553956,0.783623 END:
KINECT_DATA POSITION:40.920761,0.976484,-9.845018 HEAD_JOINT1:0.985409,0.167741,-0.000000,0.028833 LARM_JOINT2:0.798436,0.000000,0.048327,-0.600138 LARM_JOINT3:0.964762,0.000000,-0.215412,-0.151103 LLEG_JOINT2:0.998367,0.026036,0.000000,0.050838 LLEG_JOINT4:0.997543,0.069784,0.000000,-0.006243 RARM_JOINT2:0.824065,0.000000,0.459338,0.331550 RARM_JOINT3:0.805478,0.000000,0.591238,0.040533 RLEG_JOINT2:0.997726,0.002334,0.000000,-0.067364 RLEG_JOINT4:0.990247,0.124373,0.000000,0.062782 WAIST:0.997609,0.000000,0.069100,-0.000749 WAIST_JOINT0:0.988398,-0.000000,0.150323,0.021726 WAIST_JOINT1:0.997419,0.066713,-0.000000,0.026549 END:
KINECT_DATA_Sensor  AnkleLeft:-0.040310,-0.625211,0.097190,0.773331 AnkleRight:0.086278,0.787948,0.092563,0.602599 ElbowLeft:0.014990,0.797299,-0.194242,-0.571278 ElbowRight:-0.412101,0.874214,0.011007,0.256519 FootLeft:0.000000,0.000000,0.000000,0.000000 FootRight:0.000000,0.000000,0.000000,0.000000 HandLeft:-0.076858,0.840554,-0.024733,0.535678 HandRight:-0.217638,-0.414228,0.780180,-0.415172 HandTipLeft:0.000000,0.000000,0.000000,0.000000 HandTipRight:0.000000,0.000000,0.000000,0.000000 Head:0.000000,0.000000,0.000000,0.000000 HipLeft:0.072783,-0.683926,0.713232,-0.135086 HipRight:-0.167298,0.665684,0.697279,-0.206587 KneeLeft:0.013101,-0.657030,0.054938,0.751746 KneeRight:-0.049875,0.751567,0.046444,0.656127 Neck:-0.149181,0.030728,0.984854,-0.082840 ShoulderLeft:0.098993,0.755024,-0.646971,-0.039606 ShoulderRight:-0.099479,0.761579,0.612105,-0.188226 SpineBase:-0.068137,0.015762,0.996587,-0.043858 SpineMid:-0.108529,0.017529,0.993000,-0.043183 SpineShoulder:-0.149417,0.025277,0.986557,-0.061169 ThumbLeft:0.000000,0.000000,0.000000,0.000000 ThumbRight:0.000000,0.000000,0.000000,0.000000 WristLeft:-0.079735,0.841350,-0.115503,0.521950 WristRight:-0.095437,-0.435879,0.663992,-0.600013 END:
KINECT_DATA POSITION:40.908363,1.010809,-9.830988 HEAD_JOINT1:0.985325,0.170674,0.000000,-0.002305 LARM_JOINT2:0.786005,0.000000,0.076805,-0.613431 LARM_JOINT3:0.961253,0.000000,-0.230990,-0.150453 LLEG_JOINT2:0.998562,0.021509,0.000000,0.049112 LLEG_JOINT4:0.997197,0.074820,0.000000,0.000221 RARM_JOINT2:0.824360,0.000000,0.443317,0.351996 RARM_JOINT3:0.748317,0.000000,0.660371,0.062705 RLEG_JOINT2:0.997435,-0.000720,-0.000000,-0.071574 RLEG_JOINT4:0.988543,0.134140,0.000000,0.069211 WAIST:0.995891,-0.000000,0.090553,0.000981 WAIST_JOINT0:0.985573,-0.000000,0.168192,0.018907 WAIST_JOINT1:0.997377,0.061449,-0.000000,0.038263 END:
KINECT_DATA_Sensor  AnkleLeft:-0.039208,-0.614405,0.101038,0.781512 AnkleRight:0.079318,0.722235,0.106769,0.678738 ElbowLeft:0.030338,0.761511,-0.196583,-0.616875 ElbowRight:-0.392524,0.884264,-0.006963,0.252891 FootLeft:0.000000,0.000000,0.000000,0.000000 FootRight:0.000000,0.000000,0.000000,0.000000 HandLeft:-0.084119,0.820744,-0.039335,0.563699 HandRight:0.575305,0.214364,-0.597624,0.515672 HandTipLeft:0.000000,0.000000,0.000000,0.000000 HandTipRight:0.000000,0.000000,0.000000,0.000000 Head:0.000000,0.000000,0.000000,0.000000 HipLeft:0.062483,-0.685057,0.714595,-0.127065 HipRight:-0.186332,0.664937,0.690268,-0.216030 KneeLeft:0.015496,-0.640847,0.052225,0.765733 KneeRight:-0.054865,0.764728,0.044439,0.640473 Neck:-0.167747,0.041631,0.981861,-0.077953 ShoulderLeft:0.097563,0.744351,-0.659040,-0.045718 ShoulderRight:-0.130637,0.744613,0.621267,-0.206188 SpineBase:-0.089284,0.026238,0.994796,-0.041485 SpineMid:-0.128205,0.027844,0.990532,-0.040425 SpineShoulder:-0.167635,0.037445,0.983507,-0.056652 ThumbLeft:0.000000,0.000000,0.000000,0.000000 ThumbRight:0.000000,0.000000,0.000000,0.000000 WristLeft:-0.067693,0.824081,-0.127088,0.547866 WristRight:0.466026,0.161997,-0.552513,0.671793 END:
KINECT_DATA POSITION:40.582775,1.026977,-9.739041 HEAD_JOINT1:0.986028,0.166571,-0.000000,0.001914 LARM_JOINT2:0.774920,0.000000,0.114450,-0.621611 LARM_JOINT3:0.957034,0.000000,-0.253560,-0.140689 LLEG_JOINT2:0.998144,0.026485,0.000000,0.054832 LLEG_JOINT4:0.997821,0.065869,0.000000,-0.003751 RARM_JOINT2:0.794059,0.000000,0.477636,0.375945 RARM_JOINT3:0.745105,0.000000,0.663817,0.064534 RLEG_JOINT2:0.997740,-0.004415,-0.000000,-0.067048 RLEG_JOINT4:0.987619,0.141806,0.000000,0.067086 WAIST:0.996067,0.000000,0.088604,-0.000351 WAIST_JOINT0:0.984377,-0.000000,0.175728,0.011057 WAIST_JOINT1:0.997342,0.061530,-0.000000,0.039018 END:
KINECT_DATA_Sensor  AnkleLeft:-0.035049,-0.610208,0.099176,0.785227 AnkleRight:0.095699,0.798551,0.098248,0.586093 ElbowLeft:0.052245,0.723097,-0.198257,-0.659617 ElbowRight:-0.381114,0.891953,-0.052379,0.237546 FootLeft:0.000000,0.000000,0.000000,0.000000 FootRight:0.000000,0.000000,0.000000,0.000000 HandLeft:-0.077856,0.796461,-0.049649,0.597598 HandRight:-0.364554,-0.380908,0.761040,-0.377925 HandTipLeft:0.000000,0.000000,0.000000,0.000000 HandTipRight:0.000000,0.000000,0.000000,0.000000 Head:0.000000,0.000000,0.000000,0.000000 HipLeft:0.065761,-0.686547,0.712182,-0.130868 HipRight:-0.187815,0.665606,0.689564,-0.214929 KneeLeft:0.014489,-0.642249,0.058835,0.764097 KneeRight:-0.054632,0.763183,0.039710,0.642643 Neck:-0.174960,0.041899,0.980599,-0.077835 ShoulderLeft:0.092527,0.745159,-0.659025,-0.043163 ShoulderRight:-0.148333,0.731798,0.628325,-0.218351 SpineBase:-0.087165,0.028626,0.994957,-0.040544 SpineMid:-0.130572,0.030371,0.990196,-0.039254 SpineShoulder:-0.174874,0.037532,0.982259,-0.056369 ThumbLeft:0.000000,0.000000,0.000000,0.000000 ThumbRight:0.000000,0.000000,0.000000,0.000000 WristLeft:-0.055400,0.800424,-0.134820,0.581443 WristRight:-0.265274,-0.401783,0.698549,-0.529367 END:
KINECT_DATA POSITION:40.127666,1.191879,-9.608900 HEAD_JOINT1:0.986515,0.163579,-0.000000,0.005519 LARM_JOINT2:0.758527,0.000000,0.162741,-0.630993 LARM_JOINT3:0.948996,0.000000,-0.285279,-0.134248 LLEG_JOINT2:0.997812,0.026087,0.000000,0.060747 LLEG_JOINT4:0.998140,0.060929,0.000000,-0.001960 RARM_JOINT2:0.782048,0.000000,0.494099,0.379826 RARM_JOINT3:0.744273,0.000000,0.663554,0.075853 RLEG_JOINT2:0.998278,-0.002996,-0.000000,-0.058589 RLEG_JOINT4:0.988380,0.139629,0.000000,0.060072 WAIST:0.994976,0.000000,0.100080,-0.002700 WAIST_JOINT0:0.983400,-0.000000,0.181421,0.003143 WAIST_JOINT1:0.997351,0.059675,-0.000000,0.041598 END:
KINECT_DATA_Sensor  AnkleLeft:-0.029564,-0.607350,0.099255,0.787655 AnkleRight:0.085474,0.758488,0.106648,0.637194 ElbowLeft:-0.083973,-0.669003,0.199564,0.711026 ElbowRight:-0.382164,0.897574,-0.071192,0.207949 FootLeft:0.000000,0.000000,0.000000,0.000000 FootRight:0.000000,0.000000,0.000000,0.000000 HandLeft:-0.078893,0.800079,-0.064506,0.591175 HandRight:0.605902,0.241035,-0.577192,0.491564 HandTipLeft:0.000000,0.000000,0.000000,0.000000 HandTipRight:0.000000,0.000000,0.000000,0.000000 Head:0.000000,0.000000,0.000000,0.000000 HipLeft:0.059947,-0.690034,0.710606,-0.123683 HipRight:-0.195587,0.663236,0.688262,-0.219453 KneeLeft:0.016188,-0.633406,0.061679,0.771188 KneeRight:-0.049282,0.770934,0.036509,0.633955 Neck:-0.181634,0.041208,0.979494,-0.076832 ShoulderLeft:0.083861,0.747287,-0.658053,-0.038689 ShoulderRight:-0.169014,0.720526,0.631404,-0.231529 SpineBase:-0.098482,0.028959,0.993958,-0.038868 SpineMid:-0.139509,0.030542,0.989034,-0.037637 SpineShoulder:-0.181573,0.036803,0.981127,-0.055372 ThumbLeft:0.000000,0.000000,0.000000,0.000000 ThumbRight:0.000000,0.000000,0.000000,0.000000 WristLeft:-0.048052,0.804067,-0.141614,0.575423 WristRight:0.521023,0.216284,-0.549019,0.616713 END:
KINECT_DATA POSITION:39.983200,1.299693,-9.567940 HEAD_JOINT1:0.986940,0.160941,0.000000,-0.006861 LARM_JOINT2:0.751282,0.000000,0.180208,-0.634902 LARM_JOINT3:0.947228,0.000000,-0.292763,-0.130573 LLEG_JOINT2:0.997599,0.025762,0.000000,0.064285 LLEG_JOINT4:0.998203,0.059726,0.000000,-0.004957 RARM_JOINT2:0.773887,0.000000,0.505723,0.381239 RARM_JOINT3:0.729481,0.000000,0.678661,0.085300 RLEG_JOINT2:0.998463,-0.002084,-0.000000,-0.055381 RLEG_JOINT4:0.988716,0.136614,0.000000,0.061466 WAIST:0.994227,0.000000,0.107229,-0.003873 WAIST_JOINT0:0.982007,-0.000000,0.188846,0.000251 WAIST_JOINT1:0.997216,0.059085,-0.000000,0.045491 END:
KINECT_DATA_Sensor  AnkleLeft:-0.029706,-0.602424,0.097648,0.791623 AnkleRight:0.093094,0.805267,0.097428,0.577396 ElbowLeft:-0.095935,-0.648252,0.200648,0.728222 ElbowRight:-0.383375,0.902975,-0.080182,0.176721 FootLeft:0.000000,0.000000,0.000000,0.000000 FootRight:0.000000,0.000000,0.000000,0.000000 HandLeft:-0.068709,0.830022,-0.068175,0.549268 HandRight:-0.372627,-0.387256,0.787706,-0.301166 HandTipLeft:0.000000,0.000000,0.000000,0.000000 HandTipRight:0.000000,0.000000,0.000000,0.000000 Head:0.000000,0.000000,0.000000,0.000000 HipLeft:0.054284,-0.691684,0.710153,-0.119619 HipRight:-0.200186,0.661838,0.687497,-0.221910 KneeLeft:0.017361,-0.627919,0.063539,0.775486 KneeRight:-0.047291,0.775462,0.035693,0.628609 Neck:-0.190467,0.043247,0.977736,-0.076715 ShoulderLeft:0.081213,0.747644,-0.657954,-0.039107 ShoulderRight:-0.185966,0.714556,0.629067,-0.243106 SpineBase:-0.105410,0.031614,0.993164,-0.038918 SpineMid:-0.147254,0.033229,0.987827,-0.037548 SpineShoulder:-0.190332,0.039344,0.979378,-0.055170 ThumbLeft:0.000000,0.000000,0.000000,0.000000 ThumbRight:0.000000,0.000000,0.000000,0.000000 WristLeft:-0.048243,0.830948,-0.140544,0.536139 WristRight:-0.268977,-0.471493,0.708412,-0.451107 END:
KINECT_DATA POSITION:40.080952,1.452021,-9.618557 HEAD_JOINT1:0.986948,0.160883,0.000000,-0.007043 LARM_JOINT2:0.777473,0.000000,0.114513,-0.618404 LARM_JOINT3:0.953185,0.000000,-0.263773,-0.147857 LLEG_JOINT2:0.998078,0.015877,0.000000,0.059901 LLEG_JOINT4:0.997855,0.065442,0.000000,0.001370 RARM_JOINT2:0.743141,0.000000,0.563957,0.360129 RARM_JOINT3:0.842984,0.000000,0.535724,0.048755 RLEG_JOINT2:0.998182,0.007359,0.000000,-0.059829 RLEG_JOINT4:0.989381,0.128519,0.000000,0.067887 WAIST:0.990764,0.000000,0.135596,-0.000564 WAIST_JOINT0:0.975563,-0.000000,0.216339,0.038410 WAIST_JOINT1:0.997301,0.057522,-0.000000,0.045630 END:
KINECT_DATA_Sensor  AnkleLeft:-0.026484,-0.585546,0.097819,0.804280 AnkleRight:0.094159,0.817396,0.097959,0.559824 ElbowLeft:0.056281,0.699907,-0.202000,-0.682758 ElbowRight:-0.400542,0.894169,-0.148167,0.134444 FootLeft:0.000000,0.000000,0.000000,0.000000 FootRight:0.000000,0.000000,0.000000,0.000000 HandLeft:-0.113260,0.808542,-0.106775,0.567478 HandRight:0.498145,0.315972,-0.591070,0.550135 HandTipLeft:0.000000,0.000000,0.000000,0.000000 HandTipRight:0.000000,0.000000,0.000000,0.000000 Head:0.000000,0.000000,0.000000,0.000000 HipLeft:0.033498,-0.690292,0.716001,-0.098576 HipRight:-0.216343,0.657477,0.682341,-0.235223 KneeLeft:0.023032,-0.605607,0.056971,0.793388 KneeRight:-0.043680,0.793839,0.042355,0.605077 Neck:-0.214764,0.044961,0.972640,-0.076332 ShoulderLeft:0.122544,0.701953,-0.699431,-0.055154 ShoulderRight:-0.184922,0.711969,0.629968,-0.249087 SpineBase:-0.133866,0.033925,0.989660,-0.038768 SpineMid:-0.173807,0.035466,0.983431,-0.037364 SpineShoulder:-0.214662,0.040826,0.974299,-0.054721 ThumbLeft:0.000000,0.000000,0.000000,0.000000 ThumbRight:0.000000,0.000000,0.000000,0.000000 WristLeft:-0.043119,0.817823,-0.138667,0.556847 WristRight:0.434242,0.297640,-0.572388,0.628662 END:
KINECT_DATA POSITION:40.456772,2.080369,-9.790993 HEAD_JOINT1:0.987907,0.154792,0.000000,-0.008935 LARM_JOINT2:0.788376,0.000000,0.035106,-0.614192 LARM_JOINT3:0.961757,0.000000,-0.223106,-0.158896 LLEG_JOINT2:0.999038,0.004778,0.000000,0.043584 LLEG_JOINT4:0.997220,0.073602,0.000000,0.011634 RARM_JOINT2:0.731830,0.000000,0.583882,0.351436 RARM_JOINT3:0.885654,0.000000,0.458530,0.073259 RLEG_JOINT2:0.996421,0.022363,0.000000,-0.081523 RLEG_JOINT4:0.988953,0.117377,0.000000,0.090521 WAIST:0.985445,-0.000000,0.169549,0.012262 WAIST_JOINT0:0.968024,-0.000000,0.245277,0.052619 WAIST_JOINT1:0.997575,0.057244,-0.000000,0.039586 END:
KINECT_DATA_Sensor  AnkleLeft:-0.023092,-0.567115,0.098860,0.817358 AnkleRight:0.101280,0.829264,0.094952,0.541339 ElbowLeft:0.017095,0.755741,-0.191292,-0.626076 ElbowRight:-0.407206,0.894850,-0.171131,0.064344 FootLeft:0.000000,0.000000,0.000000,0.000000 FootRight:0.000000,0.000000,0.000000,0.000000 HandLeft:-0.129768,0.778257,-0.109650,0.604527 HandRight:-0.195784,-0.586985,0.701072,-0.354422 HandTipLeft:0.000000,0.000000,0.000000,0.000000 HandTipRight:0.000000,0.000000,0.000000,0.000000 Head:0.000000,0.000000,0.000000,0.000000 HipLeft:0.015581,-0.683141,0.725449,-0.082460 HipRight:-0.237144,0.658374,0.667004,-0.255757 KneeLeft:0.029794,-0.577861,0.047084,0.814231 KneeRight:-0.044990,0.815182,0.056696,0.574665 Neck:-0.244201,0.049560,0.965457,-0.076170 ShoulderLeft:-0.161965,-0.673133,0.716037,0.089165 ShoulderRight:-0.187231,0.704637,0.635381,-0.254405 SpineBase:-0.168472,0.039214,0.984146,-0.039199 SpineMid:-0.205869,0.040680,0.977008,-0.037675 SpineShoulder:-0.244097,0.045137,0.967167,-0.054478 ThumbLeft:0.000000,0.000000,0.000000,0.000000 ThumbRight:0.000000,0.000000,0.000000,0.000000 WristLeft:-0.048904,0.790638,-0.137994,0.594524 WristRight:-0.107229,-0.596151,0.656305,-0.449855 END:
KINECT_DATA POSITION:40.574371,2.209428,-9.881234 HEAD_JOINT1:0.988339,0.151906,0.000000,-0.010502 LARM_JOINT2:0.785363,0.000000,0.028997,-0.618356 LARM_JOINT3:0.964334,0.000000,-0.213451,-0.156519 LLEG_JOINT2:0.999178,0.002552,0.000000,0.040446 LLEG_JOINT4:0.997023,0.075778,0.000000,0.014215 RARM_JOINT2:0.706767,0.000000,0.608560,0.360744 RARM_JOINT3:0.895873,0.000000,0.436174,0.084638 RLEG_JOINT2:0.996098,0.026509,0.000000,-0.084178 RLEG_JOINT4:0.989017,0.113338,0.000000,0.094869 WAIST:0.984300,-0.000000,0.175943,0.014039 WAIST_JOINT0:0.967542,-0.000000,0.247667,0.050231 WAIST_JOINT1:0.997536,0.057744,-0.000000,0.039837 END:
KINECT_DATA_Sensor  AnkleLeft:-0.023171,-0.565559,0.099311,0.818379 AnkleRight:0.086031,0.730805,0.109276,0.668267 ElbowLeft:0.015948,0.756054,-0.186759,-0.627095 ElbowRight:-0.401698,0.893669,-0.198462,0.024646 FootLeft:0.000000,0.000000,0.000000,0.000000 FootRight:0.000000,0.000000,0.000000,0.000000 HandLeft:-0.099744,0.814922,-0.076659,0.565753 HandRight:-0.260159,-0.581250,0.689182,-0.345680 HandTipLeft:0.000000,0.000000,0.000000,0.000000 HandTipRight:0.000000,0.000000,0.000000,0.000000 Head:0.000000,0.000000,0.000000,0.000000 HipLeft:0.011731,-0.683333,0.725566,-0.080452 HipRight:-0.240408,0.658969,0.663643,-0.259889 KneeLeft:0.030835,-0.572700,0.044636,0.817968 KneeRight:-0.043930,0.819178,0.060043,0.568694 Neck:-0.246737,0.051250,0.964648,-0.077123 ShoulderLeft:-0.161543,-0.679258,0.709911,0.092411 ShoulderRight:-0.189214,0.706416,0.631537,-0.257558 SpineBase:-0.174891,0.040777,0.982930,-0.039993 SpineMid:-0.210356,0.042198,0.975955,-0.038491 SpineShoulder:-0.246662,0.046354,0.966416,-0.055220 ThumbLeft:0.000000,0.000000,0.000000,0.000000 ThumbRight:0.000000,0.000000,0.000000,0.000000 WristLeft:-0.061830,0.819959,-0.135749,0.552645 WristRight:-0.149854,-0.595533,0.640500,-0.461133 END:
KINECT_DATA POSITION:40.729980,2.379146,-9.967375 HEAD_JOINT1:0.988963,0.147545,0.000000,-0.013532 LARM_JOINT2:0.782638,0.000000,0.019997,-0.622156 LARM_JOINT3:0.965382,0.000000,-0.207720,-0.157766 LLEG_JOINT2:0.999258,-0.000969,0.000000,0.038507 LLEG_JOINT4:0.996623,0.080627,0.000000,0.015527 RARM_JOINT2:0.701661,0.000000,0.616765,0.356753 RARM_JOINT3:0.911891,0.000000,0.397997,0.100266 RLEG_JOINT2:0.995730,0.029739,0.000000,-0.087398 RLEG_JOINT4:0.989702,0.106268,0.000000,0.095904 WAIST:0.982926,-0.000000,0.183371,0.015250 WAIST_JOINT0:0.966993,-0.000000,0.249915,0.049668 WAIST_JOINT1:0.997389,0.058900,-0.000000,0.041780 END:
KINECT_DATA_Sensor  AnkleLeft:-0.025032,-0.563833,0.099995,0.819431 AnkleRight:0.098137,0.831740,0.092378,0.538557 ElbowLeft:0.014513,0.761076,-0.183173,-0.622094 ElbowRight:-0.405553,0.891406,-0.202255,-0.003780 FootLeft:0.000000,0.000000,0.000000,0.000000 FootRight:0.000000,0.000000,0.000000,0.000000 HandLeft:-0.103296,0.812740,-0.077324,0.568159 HandRight:0.161420,0.666697,-0.665305,0.294665 HandTipLeft:0.000000,0.000000,0.000000,0.000000 HandTipRight:0.000000,0.000000,0.000000,0.000000 Head:0.000000,0.000000,0.000000,0.000000 HipLeft:0.006520,-0.683800,0.725516,-0.077470 HipRight:-0.244114,0.658937,0.660648,-0.264111 KneeLeft:0.033233,-0.566754,0.042073,0.822140 KneeRight:-0.044397,0.823588,0.063292,0.561895 Neck:-0.249457,0.053974,0.963622,-0.079315 ShoulderLeft:-0.165402,-0.684330,0.703262,0.098781 ShoulderRight:-0.186179,0.711089,0.626750,-0.258602 SpineBase:-0.182269,0.042724,0.981466,-0.040958 SpineMid:-0.215436,0.044088,0.974723,-0.039486 SpineShoulder:-0.249415,0.048437,0.965512,-0.056850 ThumbLeft:0.000000,0.000000,0.000000,0.000000 ThumbRight:0.000000,0.000000,0.000000,0.000000 WristLeft:-0.061765,0.818443,-0.132410,0.555701 WristRight:0.067496,0.665435,-0.642562,0.373838 END:
KINECT_DATA POSITION:40.790646,2.448856,-9.959984 HEAD_JOINT1:0.989102,0.146466,0.000000,-0.015016 LARM_JOINT2:0.779720,0.000000,0.011793,-0.626018 LARM_JOINT3:0.965389,0.000000,-0.207431,-0.158100 LLEG_JOINT2:0.999254,-0.002618,0.000000,0.038531 LLEG_JOINT4:0.996357,0.083817,0.000000,0.015752 RARM_JOINT2:0.699030,0.000000,0.618455,0.358985 RARM_JOINT3:0.922217,0.000000,0.371705,0.106539 RLEG_JOINT2:0.995696,0.032431,0.000000,-0.086817 RLEG_JOINT4:0.989655,0.105032,0.000000,0.097735 WAIST:0.982238,-0.000000,0.187063,0.014659 WAIST_JOINT0:0.966573,-0.000000,0.252429,0.044906 WAIST_JOINT1:0.997340,0.058361,-0.000000,0.043662 END:
KINECT_DATA_Sensor  AnkleLeft:-0.027084,-0.561837,0.100458,0.820679 AnkleRight:0.099963,0.832521,0.093037,0.536899 ElbowLeft:0.010666,0.763179,-0.177740,-0.621171 ElbowRight:-0.403582,0.891163,-0.207003,-0.010039 FootLeft:0.000000,0.000000,0.000000,0.000000 FootRight:0.000000,0.000000,0.000000,0.000000 HandLeft:-0.118482,0.808486,-0.083746,0.570349 HandRight:0.074589,0.722551,-0.650490,0.221852 HandTipLeft:0.000000,0.000000,0.000000,0.000000 HandTipRight:0.000000,0.000000,0.000000,0.000000 Head:0.000000,0.000000,0.000000,0.000000 HipLeft:0.005183,-0.684523,0.724948,-0.076491 HipRight:-0.247164,0.657932,0.659710,-0.266117 KneeLeft:0.034071,-0.563820,0.040840,0.824183 KneeRight:-0.043066,0.825875,0.065415,0.558387 Neck:-0.251817,0.054951,0.962966,-0.079149 ShoulderLeft:-0.167595,-0.688737,0.697521,0.104965 ShoulderRight:-0.185890,0.710215,0.628048,-0.258063 SpineBase:-0.185866,0.043524,0.980760,-0.040859 SpineMid:-0.218416,0.044860,0.974028,-0.039387 SpineShoulder:-0.251754,0.049481,0.964855,-0.056807 ThumbLeft:0.000000,0.000000,0.000000,0.000000 ThumbRight:0.000000,0.000000,0.000000,0.000000 WristLeft:-0.064763,0.816605,-0.132809,0.557965 WristRight:-0.023633,0.714603,-0.631606,0.299763 END:
KINECT_DATA POSITION:40.817883,2.424944,-9.966803 HEAD_JOINT1:0.989033,0.146893,0.000000,-0.015353 LARM_JOINT2:0.778531,0.000000,0.011270,-0.627504 LARM_JOINT3:0.965154,0.000000,-0.211617,-0.153935 LLEG_JOINT2:0.999333,-0.002665,0.000000,0.036426 LLEG_JOINT4:0.996416,0.083071,0.000000,0.015930 RARM_JOINT2:0.731849,0.000000,0.588380,0.343811 RARM_JOINT3:0.912516,0.000000,0.398760,0.091128 RLEG_JOINT2:0.995546,0.032775,0.000000,-0.088393 RLEG_JOINT4:0.989457,0.105950,0.000000,0.098735 WAIST:0.982306,-0.000000,0.186620,0.015761 WAIST_JOINT0:0.967239,-0.000000,0.250043,0.043904 WAIST_JOINT1:0.997393,0.058173,-0.000000,0.042703 END:
KINECT_DATA_Sensor  AnkleLeft:-0.026808,-0.563410,0.099194,0.819762 AnkleRight:0.085014,0.736850,0.108310,0.661886 ElbowLeft:0.010078,0.762585,-0.175859,-0.622444 ElbowRight:-0.413768,0.894161,-0.170065,0.018712 FootLeft:0.000000,0.000000,0.000000,0.000000 FootRight:0.000000,0.000000,0.000000,0.000000 HandLeft:-0.116344,0.803336,-0.104811,0.574569 HandRight:-0.019429,0.714325,-0.659288,0.233883 HandTipLeft:0.000000,0.000000,0.000000,0.000000 HandTipRight:0.000000,0.000000,0.000000,0.000000 Head:0.000000,0.000000,0.000000,0.000000 HipLeft:0.005508,-0.684179,0.725265,-0.076554 HipRight:-0.248045,0.659633,0.658326,-0.264507 KneeLeft:0.033726,-0.564150,0.039839,0.824021 KneeRight:-0.043355,0.825673,0.065841,0.558613 Neck:-0.249326,0.054917,0.963667,-0.078528 ShoulderLeft:-0.165031,-0.690645,0.696461,0.103520 ShoulderRight:-0.184552,0.711099,0.628088,-0.256485 SpineBase:-0.185519,0.043584,0.980831,-0.040676 SpineMid:-0.217000,0.044871,0.974349,-0.039251 SpineShoulder:-0.249248,0.049571,0.965510,-0.056639 ThumbLeft:0.000000,0.000000,0.000000,0.000000 ThumbRight:0.000000,0.000000,0.000000,0.000000 WristLeft:-0.065138,0.810592,-0.133962,0.566349 WristRight:-0.063593,0.719288,-0.635384,0.273619 END:
KINECT_DATA POSITION:40.778168,2.395442,-9.944987 HEAD_JOINT1:0.988901,0.148138,0.000000,-0.011367 LARM_JOINT2:0.781398,0.000000,0.014981,-0.623852 LARM_JOINT3:0.965374,0.000000,-0.207569,-0.158012 LLEG_JOINT2:0.999289,-0.001448,0.000000,0.037682 LLEG_JOINT4:0.996514,0.082001,0.000000,0.015326 RARM_JOINT2:0.758660,0.000000,0.562540,0.328608 RARM_JOINT3:0.916212,0.000000,0.391854,0.083707 RLEG_JOINT2:0.995598,0.030822,0.000000,-0.088514 RLEG_JOINT4:0.989149,0.108831,0.000000,0.098695 WAIST:0.983234,-0.000000,0.181722,0.015120 WAIST_JOINT0:0.968860,-0.000000,0.244505,0.039081 WAIST_JOINT1:0.997483,0.057904,-0.000000,0.040919 END:
KINECT_DATA_Sensor  AnkleLeft:-0.026538,-0.567233,0.099554,0.817087 AnkleRight:0.087041,0.743259,0.107924,0.654479 ElbowLeft:0.011616,0.766687,-0.178808,-0.616509 ElbowRight:-0.424139,0.893886,-0.136294,0.049972 FootLeft:0.000000,0.000000,0.000000,0.000000 FootRight:0.000000,0.000000,0.000000,0.000000 HandLeft:-0.118099,0.806862,-0.088235,0.572050 HandRight:0.104480,0.620784,-0.617995,0.470950 HandTipLeft:0.000000,0.000000,0.000000,0.000000 HandTipRight:0.000000,0.000000,0.000000,0.000000 Head:0.000000,0.000000,0.000000,0.000000 HipLeft:0.010135,-0.685050,0.723965,-0.080484 HipRight:-0.245447,0.660596,0.659059,-0.262695 KneeLeft:0.033125,-0.568132,0.040991,0.821248 KneeRight:-0.044651,0.822695,0.065014,0.562986 Neck:-0.242486,0.052038,0.965641,-0.077655 ShoulderLeft:-0.157689,-0.691704,0.698275,0.095351 ShoulderRight:-0.184428,0.705306,0.635957,-0.253158 SpineBase:-0.180648,0.042480,0.981801,-0.040354 SpineMid:-0.211107,0.043715,0.975705,-0.039013 SpineShoulder:-0.242352,0.047601,0.967386,-0.056251 ThumbLeft:0.000000,0.000000,0.000000,0.000000 ThumbRight:0.000000,0.000000,0.000000,0.000000 WristLeft:-0.063536,0.814847,-0.130504,0.561210 WristRight:-0.086587,-0.598487,0.622238,-0.497128 END:
KINECT_DATA POSITION:40.720879,2.360374,-9.920395 HEAD_JOINT1:0.988436,0.151563,0.000000,-0.004780 LARM_JOINT2:0.781568,0.000000,0.013944,-0.623664 LARM_JOINT3:0.965921,0.000000,-0.208524,-0.153342 LLEG_JOINT2:0.999204,0.000942,0.000000,0.039879 LLEG_JOINT4:0.996652,0.080309,0.000000,0.015341 RARM_JOINT2:0.776150,0.000000,0.540001,0.325562 RARM_JOINT3:0.912285,0.000000,0.395602,0.105997 RLEG_JOINT2:0.995925,0.028688,0.000000,-0.085502 RLEG_JOINT4:0.989882,0.108705,0.000000,0.091201 WAIST:0.985085,-0.000000,0.171537,0.013541 WAIST_JOINT0:0.970191,-0.000000,0.239925,0.034131 WAIST_JOINT1:0.997550,0.057373,-0.000000,0.040019 END:
KINECT_DATA_Sensor  AnkleLeft:-0.025404,-0.570579,0.101181,0.814590 AnkleRight:0.097232,0.827414,0.094949,0.544900 ElbowLeft:0.009217,0.772268,-0.176629,-0.610180 ElbowRight:-0.427947,0.895866,-0.101366,0.063334 FootLeft:0.000000,0.000000,0.000000,0.000000 FootRight:0.000000,0.000000,0.000000,0.000000 HandLeft:-0.137005,0.804381,-0.101670,0.569090 HandRight:-0.021636,0.719099,-0.594603,0.358994 HandTipLeft:0.000000,0.000000,0.000000,0.000000 HandTipRight:0.000000,0.000000,0.000000,0.000000 Head:0.000000,0.000000,0.000000,0.000000 HipLeft:0.018217,-0.686046,0.722023,-0.087703 HipRight:-0.238448,0.661579,0.662070,-0.259073 KneeLeft:0.031630,-0.576478,0.042805,0.815377 KneeRight:-0.043770,0.816696,0.063196,0.571925 Neck:-0.237089,0.050313,0.967182,-0.076269 ShoulderLeft:0.151187,0.697294,-0.695306,-0.086443 ShoulderRight:-0.186361,0.703238,0.638133,-0.252016 SpineBase:-0.170447,0.041024,0.983701,-0.039975 SpineMid:-0.203273,0.042339,0.977445,-0.038580 SpineShoulder:-0.236936,0.046215,0.968852,-0.055236 ThumbLeft:0.000000,0.000000,0.000000,0.000000 ThumbRight:0.000000,0.000000,0.000000,0.000000 WristLeft:-0.060680,0.816081,-0.127018,0.560532 WristRight:-0.060122,0.691216,-0.613703,0.376795 END:
KINECT_DATA POSITION:40.636528,2.339300,-9.876549 HEAD_JOINT1:0.988300,0.152522,0.000000,-0.000948 LARM_JOINT2:0.777282,0.000000,-0.003290,-0.629144 LARM_JOINT3:0.972023,0.000000,-0.190289,-0.137699 LLEG_JOINT2:0.999045,0.002927,0.000000,0.043601 LLEG_JOINT4:0.996725,0.079926,0.000000,0.012288 RARM_JOINT2:0.777424,0.000000,0.544068,0.315597 RARM_JOINT3:0.918434,0.000000,0.371004,0.137245 RLEG_JOINT2:0.996215,0.026102,0.000000,-0.082909 RLEG_JOINT4:0.989090,0.113732,0.000000,0.093627 WAIST:0.986768,-0.000000,0.161733,0.011454 WAIST_JOINT0:0.970573,-0.000000,0.239386,0.026129 WAIST_JOINT1:0.997428,0.058256,-0.000000,0.041761 END:
KINECT_DATA_Sensor  AnkleLeft:-0.025901,-0.570845,0.101763,0.814315 AnkleRight:0.103189,0.826292,0.093482,0.545760 ElbowLeft:-0.002172,0.778232,-0.166047,-0.605623 ElbowRight:-0.439198,0.894287,-0.078155,0.035312 FootLeft:0.000000,0.000000,0.000000,0.000000 FootRight:0.000000,0.000000,0.000000,0.000000 HandLeft:-0.138116,0.784405,-0.081588,0.599146 HandRight:-0.036565,0.756768,-0.551870,0.348432 HandTipLeft:0.000000,0.000000,0.000000,0.000000 HandTipRight:0.000000,0.000000,0.000000,0.000000 Head:0.000000,0.000000,0.000000,0.000000 HipLeft:0.026272,-0.686781,0.720065,-0.095641 HipRight:-0.233964,0.662056,0.664803,-0.254911 KneeLeft:0.031036,-0.584504,0.045287,0.809531 KneeRight:-0.043950,0.810729,0.061559,0.580515 Neck:-0.236136,0.051476,0.967295,-0.077006 ShoulderLeft:0.148195,0.706587,-0.686181,-0.089045 ShoulderRight:-0.186312,0.702367,0.639348,-0.251403 SpineBase:-0.160555,0.039882,0.985409,-0.040019 SpineMid:-0.197851,0.041373,0.978603,-0.038476 SpineShoulder:-0.236016,0.046814,0.969030,-0.055545 ThumbLeft:0.000000,0.000000,0.000000,0.000000 ThumbRight:0.000000,0.000000,0.000000,0.000000 WristLeft:-0.048361,0.798914,-0.126457,0.586009 WristRight:-0.082088,0.717951,-0.588030,0.363356 END:
KINECT_DATA POSITION:40.607975,2.315625,-9.793270 HEAD_JOINT1:0.987691,0.156358,-0.000000,0.004435 LARM_JOINT2:0.784191,0.000000,0.006058,-0.620491 LARM_JOINT3:0.968489,0.000000,-0.196377,-0.153185 LLEG_JOINT2:0.998922,0.005796,0.000000,0.046067 LLEG_JOINT4:0.996839,0.078598,0.000000,0.011634 RARM_JOINT2:0.780264,0.000000,0.531165,0.330231 RARM_JOINT3:0.874167,0.000000,0.475517,0.098566 RLEG_JOINT2:0.996476,0.024384,0.000000,-0.080262 RLEG_JOINT4:0.989227,0.115171,0.000000,0.090363 WAIST:0.988026,-0.000000,0.153985,0.009666 WAIST_JOINT0:0.971797,-0.000000,0.233916,0.029895 WAIST_JOINT1:0.997396,0.059327,-0.000000,0.041018 END:
KINECT_DATA_Sensor  AnkleLeft:-0.026241,-0.574477,0.103230,0.811561 AnkleRight:0.088447,0.739753,0.107203,0.658369 ElbowLeft:0.005352,0.793632,-0.176838,-0.582107 ElbowRight:-0.424047,0.898378,-0.082504,0.079336 FootLeft:0.000000,0.000000,0.000000,0.000000 FootRight:0.000000,0.000000,0.000000,0.000000 HandLeft:-0.129927,0.789905,-0.084875,0.593267 HandRight:-0.055992,-0.622940,0.732868,-0.267796 HandTipLeft:0.000000,0.000000,0.000000,0.000000 HandTipRight:0.000000,0.000000,0.000000,0.000000 Head:0.000000,0.000000,0.000000,0.000000 HipLeft:0.032050,-0.687037,0.718786,-0.101489 HipRight:-0.230849,0.661880,0.667230,-0.251850 KneeLeft:0.029195,-0.590806,0.047521,0.804884 KneeRight:-0.043560,0.805991,0.060259,0.587239 Neck:-0.231310,0.049015,0.968521,-0.077854 ShoulderLeft:0.142834,0.699737,-0.695810,-0.076250 ShoulderRight:-0.188578,0.698864,0.641947,-0.252845 SpineBase:-0.152717,0.039066,0.986679,-0.040199 SpineMid:-0.191446,0.040618,0.979901,-0.038629 SpineShoulder:-0.231159,0.045045,0.970245,-0.056228 ThumbLeft:0.000000,0.000000,0.000000,0.000000 ThumbRight:0.000000,0.000000,0.000000,0.000000 WristLeft:-0.056753,0.801038,-0.119659,0.583780 WristRight:-0.068954,0.692987,-0.614965,0.369909 END:
KINECT_DATA POSITION:40.612198,2.209913,-9.761286 HEAD_JOINT1:0.986016,0.166329,-0.000000,0.010324 LARM_JOINT2:0.788628,0.000000,0.026801,-0.614287 LARM_JOINT3:0.962757,0.000000,-0.213177,-0.166298 LLEG_JOINT2:0.998948,0.010182,0.000000,0.044704 LLEG_JOINT4:0.996932,0.077774,0.000000,0.008780 RARM_JOINT2:0.770499,0.000000,0.538691,0.340798 RARM_JOINT3:0.825768,0.000000,0.563351,0.027259 RLEG_JOINT2:0.996505,0.019546,0.000000,-0.081210 RLEG_JOINT4:0.988349,0.124739,0.000000,0.087211 WAIST:0.990277,-0.000000,0.138703,0.010631 WAIST_JOINT0:0.973329,-0.000000,0.225823,0.040429 WAIST_JOINT1:0.997436,0.060882,-0.000000,0.037620 END:
KINECT_DATA_Sensor  AnkleLeft:-0.028482,-0.579472,0.103504,0.807891 AnkleRight:0.091421,0.737162,0.110349,0.660347 ElbowLeft:0.012929,0.785144,-0.187789,-0.590015 ElbowRight:-0.411398,0.892338,-0.114446,0.146241 FootLeft:0.000000,0.000000,0.000000,0.000000 FootRight:0.000000,0.000000,0.000000,0.000000 HandLeft:-0.148378,0.801220,-0.065572,0.575960 HandRight:-0.206915,-0.439425,0.828225,-0.279526 HandTipLeft:0.000000,0.000000,0.000000,0.000000 HandTipRight:0.000000,0.000000,0.000000,0.000000 Head:0.000000,0.000000,0.000000,0.000000 HipLeft:0.040880,-0.687006,0.717092,-0.110143 HipRight:-0.221328,0.666412,0.668328,-0.245452 KneeLeft:0.026186,-0.602933,0.049387,0.795831 KneeRight:-0.045550,0.796492,0.057030,0.600228 Neck:-0.223214,0.047749,0.970442,-0.078348 ShoulderLeft:-0.135275,-0.690115,0.707801,0.066783 ShoulderRight:-0.183711,0.703537,0.639452,-0.249775 SpineBase:-0.137618,0.037554,0.988945,-0.040486 SpineMid:-0.179822,0.039252,0.982148,-0.038841 SpineShoulder:-0.223052,0.043954,0.972170,-0.056578 ThumbLeft:0.000000,0.000000,0.000000,0.000000 ThumbRight:0.000000,0.000000,0.000000,0.000000 WristLeft:-0.063318,0.816611,-0.122685,0.560433 WristRight:-0.092958,-0.559770,0.697141,-0.438190 END:
KINECT_DATA POSITION:40.606213,2.159930,-9.710276 HEAD_JOINT1:0.985334,0.169888,-0.000000,0.015996 LARM_JOINT2:0.788758,0.000000,0.030290,-0.613957 LARM_JOINT3:0.962958,0.000000,-0.215106,-0.162608 LLEG_JOINT2:0.998904,0.012311,0.000000,0.045149 LLEG_JOINT4:0.997022,0.076932,0.000000,0.005275 RARM_JOINT2:0.763346,0.000000,0.544246,0.347992 RARM_JOINT3:0.818164,0.000000,0.573446,0.042041 RLEG_JOINT2:0.996527,0.016196,0.000000,-0.081685 RLEG_JOINT4:0.989468,0.120832,0.000000,0.079700 WAIST:0.991586,-0.000000,0.128992,0.010901 WAIST_JOINT0:0.973961,-0.000000,0.223067,0.040505 WAIST_JOINT1:0.997456,0.061715,-0.000000,0.035671 END:
KINECT_DATA_Sensor  AnkleLeft:-0.029456,-0.581121,0.102689,0.806775 AnkleRight:0.096698,0.820021,0.094890,0.556068 ElbowLeft:0.013464,0.785991,-0.188053,-0.588790 ElbowRight:-0.406862,0.892512,-0.119579,0.153579 FootLeft:0.000000,0.000000,0.000000,0.000000 FootRight:0.000000,0.000000,0.000000,0.000000 HandLeft:-0.137502,0.808774,-0.064871,0.568128 HandRight:-0.278302,-0.453830,0.794772,-0.291418 HandTipLeft:0.000000,0.000000,0.000000,0.000000 HandTipRight:0.000000,0.000000,0.000000,0.000000 Head:0.000000,0.000000,0.000000,0.000000 HipLeft:0.047028,-0.685622,0.717094,-0.116129 HipRight:-0.215933,0.667914,0.670154,-0.241161 KneeLeft:0.025370,-0.610584,0.051039,0.789898 KneeRight:-0.047170,0.790308,0.054970,0.608413 Neck:-0.220607,0.047096,0.971064,-0.078410 ShoulderLeft:-0.133886,-0.692122,0.706174,0.066025 ShoulderRight:-0.180391,0.706240,0.638231,-0.247681 SpineBase:-0.127984,0.036774,0.990256,-0.040757 SpineMid:-0.173670,0.038621,0.983273,-0.039012 SpineShoulder:-0.220454,0.043291,0.972788,-0.056653 ThumbLeft:0.000000,0.000000,0.000000,0.000000 ThumbRight:0.000000,0.000000,0.000000,0.000000 WristLeft:-0.066517,0.821160,-0.121891,0.553547 WristRight:-0.151497,-0.521453,0.700004,-0.463820 END:
KINECT_DATA POSITION:40.613197,2.163253,-9.726286 HEAD_JOINT1:0.985122,0.171180,-0.000000,0.015256 LARM_JOINT2:0.791025,0.000000,0.032008,-0.610946 LARM_JOINT3:0.962914,0.000000,-0.212311,-0.166494 LLEG_JOINT2:0.999009,0.011634,0.000000,0.042967 LLEG_JOINT4:0.996907,0.078460,0.000000,0.004555 RARM_JOINT2:0.752548,0.000000,0.553328,0.357071 RARM_JOINT3:0.843629,0.000000,0.530518,0.082709 RLEG_JOINT2:0.996391,0.018939,0.000000,-0.082748 RLEG_JOINT4:0.989524,0.119380,0.000000,0.081180 WAIST:0.991044,-0.000000,0.132945,0.012586 WAIST_JOINT0:0.973796,-0.000000,0.222651,0.046338 WAIST_JOINT1:0.997474,0.061775,-0.000000,0.035054 END:
KINECT_DATA_Sensor  AnkleLeft:-0.031497,-0.580965,0.101849,0.806917 AnkleRight:0.098109,0.819652,0.095104,0.556328 ElbowLeft:0.013732,0.783315,-0.192773,-0.590820 ElbowRight:-0.403070,0.898367,-0.125754,0.121070 FootLeft:0.000000,0.000000,0.000000,0.000000 FootRight:0.000000,0.000000,0.000000,0.000000 HandLeft:-0.125063,0.863931,-0.035575,0.486536 HandRight:-0.199045,-0.554475,0.729504,-0.347510 HandTipLeft:0.000000,0.000000,0.000000,0.000000 HandTipRight:0.000000,0.000000,0.000000,0.000000 Head:0.000000,0.000000,0.000000,0.000000 HipLeft:0.042800,-0.684107,0.719539,-0.111485 HipRight:-0.216975,0.667660,0.669650,-0.242324 KneeLeft:0.025608,-0.607367,0.050153,0.792423 KneeRight:-0.045387,0.793042,0.056411,0.604849 Neck:-0.219687,0.047970,0.971204,-0.078735 ShoulderLeft:-0.134756,-0.685425,0.712844,0.062347 ShoulderRight:-0.179882,0.707127,0.637429,-0.247586 SpineBase:-0.132057,0.036902,0.989714,-0.040800 SpineMid:-0.175307,0.038655,0.982976,-0.039143 SpineShoulder:-0.219569,0.043660,0.972959,-0.056862 ThumbLeft:0.000000,0.000000,0.000000,0.000000 ThumbRight:0.000000,0.000000,0.000000,0.000000 WristLeft:-0.079097,0.872076,-0.118205,0.468247 WristRight:-0.119306,-0.566563,0.685253,-0.441815 END:
KINECT_DATA POSITION:40.624203,2.209318,-9.770370 HEAD_JOINT1:0.985973,0.166710,-0.000000,0.008092 LARM_JOINT2:0.790478,0.000000,0.020670,-0.612141 LARM_JOINT3:0.964831,0.000000,-0.200228,-0.170324 LLEG_JOINT2:0.999105,0.007814,0.000000,0.041574 LLEG_JOINT4:0.996691,0.080786,0.000000,0.009003 RARM_JOINT2:0.739165,0.000000,0.573764,0.352746 RARM_JOINT3:0.887257,0.000000,0.450689,0.098260 RLEG_JOINT2:0.996184,0.020342,0.000000,-0.084869 RLEG_JOINT4:0.989192,0.117801,0.000000,0.087300 WAIST:0.989687,-0.000000,0.142653,0.013015 WAIST_JOINT0:0.972562,-0.000000,0.229211,0.039827 WAIST_JOINT1:0.997400,0.062008,-0.000000,0.036729 END:
KINECT_DATA_Sensor  AnkleLeft:-0.029571,-0.577043,0.103077,0.809643 AnkleRight:0.084658,0.729879,0.107318,0.669770 ElbowLeft:0.011851,0.793540,-0.190179,-0.577914 ElbowRight:-0.409705,0.898523,-0.138403,0.075121 FootLeft:0.000000,0.000000,0.000000,0.000000 FootRight:0.000000,0.000000,0.000000,0.000000 HandLeft:-0.111302,0.833694,-0.030900,0.540011 HandRight:-0.208005,-0.584052,0.669274,-0.409499 HandTipLeft:0.000000,0.000000,0.000000,0.000000 HandTipRight:0.000000,0.000000,0.000000,0.000000 Head:0.000000,0.000000,0.000000,0.000000 HipLeft:0.034016,-0.683492,0.721804,-0.103347 HipRight:-0.220650,0.665542,0.669393,-0.245522 KneeLeft:0.027733,-0.599748,0.047225,0.798312 KneeRight:-0.046569,0.798939,0.057978,0.596796 Neck:-0.226649,0.049749,0.969419,-0.079886 ShoulderLeft:-0.137674,-0.689218,0.708083,0.068140 ShoulderRight:-0.187035,0.700875,0.640100,-0.253107 SpineBase:-0.141722,0.037674,0.988327,-0.041287 SpineMid:-0.183655,0.039397,0.981401,-0.039646 SpineShoulder:-0.226581,0.044803,0.971264,-0.057446 ThumbLeft:0.000000,0.000000,0.000000,0.000000 ThumbRight:0.000000,0.000000,0.000000,0.000000 WristLeft:-0.073423,0.841508,-0.117494,0.522177 WristRight:-0.117058,-0.575267,0.635888,-0.501011 END:
KINECT_DATA POSITION:40.644119,2.223983,-9.802998 HEAD_JOINT1:0.986389,0.164330,-0.000000,0.005703 LARM_JOINT2:0.786178,0.000000,0.012234,-0.617879 LARM_JOINT3:0.965638,0.000000,-0.200472,-0.165390 LLEG_JOINT2:0.999207,0.005211,0.000000,0.039472 LLEG_JOINT4:0.996573,0.081630,0.000000,0.013381 RARM_JOINT2:0.716760,0.000000,0.603916,0.348627 RARM_JOINT3:0.918195,0.000000,0.390703,0.065343 RLEG_JOINT2:0.996023,0.024430,0.000000,-0.085678 RLEG_JOINT4:0.989242,0.115035,0.000000,0.090372 WAIST:0.988504,-0.000000,0.150572,0.013733 WAIST_JOINT0:0.972559,-0.000000,0.229639,0.037344 WAIST_JOINT1:0.997420,0.061789,-0.000000,0.036541 END:
KINECT_DATA_Sensor  AnkleLeft:-0.027877,-0.577127,0.103784,0.809553 AnkleRight:0.101309,0.822252,0.093885,0.552109 ElbowLeft:0.009008,0.790819,-0.181672,-0.584397 ElbowRight:-0.411885,0.892505,-0.175004,0.056209 FootLeft:0.000000,0.000000,0.000000,0.000000 FootRight:0.000000,0.000000,0.000000,0.000000 HandLeft:-0.128609,0.798487,-0.051850,0.585823 HandRight:-0.128105,-0.601531,0.670685,-0.414647 HandTipLeft:0.000000,0.000000,0.000000,0.000000 HandTipRight:0.000000,0.000000,0.000000,0.000000 Head:0.000000,0.000000,0.000000,0.000000 HipLeft:0.027382,-0.683615,0.722899,-0.096629 HipRight:-0.224040,0.664575,0.668025,-0.248774 KneeLeft:0.028792,-0.593424,0.044649,0.803135 KneeRight:-0.044788,0.804030,0.060824,0.589771 Neck:-0.226356,0.049211,0.969489,-0.080206 ShoulderLeft:-0.140706,-0.692439,0.703879,0.072693 ShoulderRight:-0.181928,0.701971,0.641587,-0.250010 SpineBase:-0.149668,0.037847,0.987150,-0.041261 SpineMid:-0.187536,0.039407,0.980661,-0.039774 SpineShoulder:-0.226296,0.044314,0.971332,-0.057803 ThumbLeft:0.000000,0.000000,0.000000,0.000000 ThumbRight:0.000000,0.000000,0.000000,0.000000 WristLeft:-0.066111,0.810431,-0.121442,0.569282 WristRight:-0.077495,-0.605652,0.638778,-0.468126 END:
