EastLYD/RoboCupatHomeSim/InteractiveCleanUp/JapanOpen2016/Motion_Data/File3.dat
KINECT_DATA POSITION:11.883362,-0.074580,2.085710 HEAD_JOINT1:0.977781,0.165940,-0.000000,0.128093 LARM_JOINT2:0.836034,0.000000,-0.043792,-0.546927 LARM_JOINT3:0.977293,0.000000,-0.142463,-0.156854 LLEG_JOINT2:0.998455,0.013084,0.000000,0.053998 LLEG_JOINT4:0.994850,0.093155,0.000000,-0.039954 RARM_JOINT2:0.792660,0.000000,-0.051107,0.607518 RARM_JOINT3:0.975057,0.000000,0.195154,0.105733 RLEG_JOINT2:0.999368,0.016158,0.000000,-0.031656 RLEG_JOINT4:0.995776,0.084020,0.000000,0.037018 WAIST:0.999718,0.000000,-0.023641,-0.002410 WAIST_JOINT0:0.998404,0.000000,-0.056438,0.002038 WAIST_JOINT1:0.996647,0.078706,0.000000,-0.022340 END:
KINECT_DATA_Sensor  AnkleLeft:0.065254,0.718909,-0.084292,-0.686882 AnkleRight:0.074041,0.679462,0.067272,0.726859 ElbowLeft:-0.037813,0.918718,-0.178832,-0.350066 ElbowRight:0.015529,0.800662,0.193474,0.566804 FootLeft:0.000000,0.000000,0.000000,0.000000 FootRight:0.000000,0.000000,0.000000,0.000000 HandLeft:-0.062497,0.806265,0.027302,0.587611 HandRight:0.014225,-0.549917,-0.062706,0.832740 HandTipLeft:0.000000,0.000000,0.000000,0.000000 HandTipRight:0.000000,0.000000,0.000000,0.000000 Head:0.000000,0.000000,0.000000,0.000000 HipLeft:0.128066,-0.677835,0.700273,-0.183727 HipRight:-0.093803,0.677083,0.709245,-0.172425 KneeLeft:-0.028387,0.721939,-0.045007,-0.689908 KneeRight:-0.011785,0.691169,0.035786,0.721711 Neck:0.055101,-0.026860,0.993628,-0.094582 ShoulderLeft:-0.003323,0.782696,-0.613335,0.105809 ShoulderRight:0.069059,0.782870,0.618101,-0.017181 SpineBase:0.022621,-0.021327,0.998009,-0.054885 SpineMid:0.038513,-0.022199,0.997522,-0.054538 SpineShoulder:0.054893,-0.024854,0.995492,-0.073244 ThumbLeft:0.000000,0.000000,0.000000,0.000000 ThumbRight:0.000000,0.000000,0.000000,0.000000 WristLeft:-0.074244,0.811680,-0.081150,0.573653 WristRight:-0.011003,-0.548124,-0.111234,0.828894 END:
KINECT_DATA POSITION:11.896606,-0.064375,1.995230 HEAD_JOINT1:0.977974,0.165722,-0.000000,0.126895 LARM_JOINT2:0.835367,0.000000,-0.042596,-0.548040 LARM_JOINT3:0.977243,0.000000,-0.143567,-0.156155 LLEG_JOINT2:0.998510,0.012588,0.000000,0.053097 LLEG_JOINT4:0.994973,0.092517,0.000000,-0.038329 RARM_JOINT2:0.792914,0.000000,-0.051163,0.607182 RARM_JOINT3:0.972984,0.000000,0.203471,0.109096 RLEG_JOINT2:0.999356,0.015225,0.000000,-0.032480 RLEG_JOINT4:0.996036,0.081891,0.000000,0.034730 WAIST:0.999721,0.000000,-0.023530,-0.001968 WAIST_JOINT0:0.998444,0.000000,-0.055713,0.002273 WAIST_JOINT1:0.996730,0.077695,0.000000,-0.022220 END:
KINECT_DATA_Sensor  AnkleLeft:0.065034,0.730259,-0.083227,-0.674956 AnkleRight:0.070055,0.680589,0.067021,0.726222 ElbowLeft:-0.037568,0.918418,-0.178274,-0.351163 ElbowRight:0.014731,0.800623,0.192860,0.567089 FootLeft:0.000000,0.000000,0.000000,0.000000 FootRight:0.000000,0.000000,0.000000,0.000000 HandLeft:-0.064790,0.846328,0.027487,0.527992 HandRight:0.047259,-0.559385,-0.085216,0.823160 HandTipLeft:0.000000,0.000000,0.000000,0.000000 HandTipRight:0.000000,0.000000,0.000000,0.000000 Head:0.000000,0.000000,0.000000,0.000000 HipLeft:0.128251,-0.677735,0.700530,-0.182987 HipRight:-0.094311,0.677574,0.708895,-0.171658 KneeLeft:-0.028384,0.721869,-0.044341,-0.690025 KneeRight:-0.012722,0.691241,0.035428,0.721643 Neck:0.054390,-0.026217,0.993781,-0.093563 ShoulderLeft:-0.003335,0.783010,-0.613163,0.104472 ShoulderRight:0.068033,0.783394,0.617558,-0.016981 SpineBase:0.022508,-0.020839,0.998069,-0.054006 SpineMid:0.038107,-0.021681,0.997596,-0.053674 SpineShoulder:0.054185,-0.024264,0.995616,-0.072270 ThumbLeft:0.000000,0.000000,0.000000,0.000000 ThumbRight:0.000000,0.000000,0.000000,0.000000 WristLeft:-0.079755,0.849699,-0.075643,0.515682 WristRight:-0.007973,-0.560448,-0.112738,0.820442 END:
KINECT_DATA POSITION:11.902035,-0.062343,1.911795 HEAD_JOINT1:0.977515,0.167561,-0.000000,0.128012 LARM_JOINT2:0.834987,0.000000,-0.042651,-0.548614 LARM_JOINT3:0.977616,0.000000,-0.143538,-0.153833 LLEG_JOINT2:0.998561,0.011319,0.000000,0.052420 LLEG_JOINT4:0.994820,0.094105,0.000000,-0.038427 RARM_JOINT2:0.792577,0.000000,-0.051451,0.607597 RARM_JOINT3:0.967762,0.000000,0.223707,0.115724 RLEG_JOINT2:0.999323,0.015404,0.000000,-0.033418 RLEG_JOINT4:0.995921,0.082357,0.000000,0.036872 WAIST:0.999748,0.000000,-0.022400,-0.001592 WAIST_JOINT0:0.998529,0.000000,-0.054144,0.003003 WAIST_JOINT1:0.996860,0.076134,0.000000,-0.021762 END:
KINECT_DATA_Sensor  AnkleLeft:0.064353,0.718871,-0.084114,-0.687028 AnkleRight:0.071538,0.681183,0.066424,0.725576 ElbowLeft:-0.038419,0.918726,-0.177925,-0.350441 ElbowRight:0.014406,0.802218,0.191005,0.565469 FootLeft:0.000000,0.000000,0.000000,0.000000 FootRight:0.000000,0.000000,0.000000,0.000000 HandLeft:-0.064013,0.853067,0.018198,0.517539 HandRight:0.079680,-0.328813,-0.169942,0.925556 HandTipLeft:0.000000,0.000000,0.000000,0.000000 HandTipRight:0.000000,0.000000,0.000000,0.000000 Head:0.000000,0.000000,0.000000,0.000000 HipLeft:0.128347,-0.677835,0.700773,-0.181617 HipRight:-0.095961,0.677891,0.708433,-0.171398 KneeLeft:-0.028987,0.721068,-0.043254,-0.690905 KneeRight:-0.013014,0.692005,0.035949,0.720880 Neck:0.052863,-0.025337,0.994039,-0.091924 ShoulderLeft:-0.003327,0.782675,-0.613967,0.102240 ShoulderRight:0.066015,0.783685,0.617401,-0.017212 SpineBase:0.021398,-0.020341,0.998175,-0.052679 SpineMid:0.036788,-0.021151,0.997726,-0.052359 SpineShoulder:0.052656,-0.023506,0.995827,-0.070735 ThumbLeft:0.000000,0.000000,0.000000,0.000000 ThumbRight:0.000000,0.000000,0.000000,0.000000 WristLeft:-0.080966,0.854884,-0.075156,0.506922 WristRight:-0.029726,-0.347860,-0.110923,0.930487 END:
KINECT_DATA POSITION:11.949660,-0.074866,1.922119 HEAD_JOINT1:0.978161,0.162383,-0.000000,0.129740 LARM_JOINT2:0.834552,0.000000,-0.041015,-0.549401 LARM_JOINT3:0.977042,0.000000,-0.146839,-0.154359 LLEG_JOINT2:0.998650,0.011543,0.000000,0.050636 LLEG_JOINT4:0.995017,0.092452,0.000000,-0.037325 RARM_JOINT2:0.790373,0.000000,-0.045370,0.610943 RARM_JOINT3:0.947472,0.000000,0.284261,0.146602 RLEG_JOINT2:0.999290,0.014130,0.000000,-0.034930 RLEG_JOINT4:0.995652,0.085944,0.000000,0.035930 WAIST:0.999735,0.000000,-0.023026,-0.000631 WAIST_JOINT0:0.998562,0.000000,-0.053420,0.004406 WAIST_JOINT1:0.997002,0.074229,0.000000,-0.021840 END:
KINECT_DATA_Sensor  AnkleLeft:0.063618,0.723613,-0.082965,-0.682242 AnkleRight:0.072338,0.681660,0.068952,0.724812 ElbowLeft:-0.039088,0.918491,-0.177800,-0.351047 ElbowRight:0.014464,0.812697,0.183353,0.552899 FootLeft:0.000000,0.000000,0.000000,0.000000 FootRight:0.000000,0.000000,0.000000,0.000000 HandLeft:-0.076971,0.866150,0.015487,0.493578 HandRight:0.172201,-0.339688,-0.272797,0.883482 HandTipLeft:0.000000,0.000000,0.000000,0.000000 HandTipRight:0.000000,0.000000,0.000000,0.000000 Head:0.000000,0.000000,0.000000,0.000000 HipLeft:0.129106,-0.677270,0.701254,-0.181329 HipRight:-0.096274,0.678811,0.707772,-0.170312 KneeLeft:-0.028246,0.721539,-0.042844,-0.690470 KneeRight:-0.014280,0.691568,0.035494,0.721298 Neck:0.052055,-0.024002,0.994320,-0.089679 ShoulderLeft:-0.003571,0.782839,-0.614099,0.100162 ShoulderRight:0.064579,0.785288,0.615537,-0.016311 SpineBase:0.021982,-0.019549,0.998228,-0.051725 SpineMid:0.036684,-0.020309,0.997796,-0.051431 SpineShoulder:0.051834,-0.022558,0.996011,-0.069039 ThumbLeft:0.000000,0.000000,0.000000,0.000000 ThumbRight:0.000000,0.000000,0.000000,0.000000 WristLeft:-0.083826,0.868759,-0.073326,0.482549 WristRight:0.022544,-0.383636,-0.144168,0.911883 END:
KINECT_DATA POSITION:12.031839,-0.113073,2.051926 HEAD_JOINT1:0.978180,0.159372,-0.000000,0.133285 LARM_JOINT2:0.834671,0.000000,-0.038010,-0.549435 LARM_JOINT3:0.976336,0.000000,-0.155564,-0.150224 LLEG_JOINT2:0.998748,0.013102,0.000000,0.048287 LLEG_JOINT4:0.995191,0.091459,0.000000,-0.035067 RARM_JOINT2:0.786440,0.000000,-0.016759,0.617440 RARM_JOINT3:0.937044,0.000000,0.319124,0.141806 RLEG_JOINT2:0.999262,0.011999,0.000000,-0.036481 RLEG_JOINT4:0.995248,0.090836,0.000000,0.035060 WAIST:0.999714,0.000000,-0.023913,0.000545 WAIST_JOINT0:0.998713,0.000000,-0.049999,0.008558 WAIST_JOINT1:0.997169,0.071775,0.000000,-0.022417 END:
KINECT_DATA_Sensor  AnkleLeft:0.064451,0.734546,-0.083236,-0.670343 AnkleRight:0.073839,0.683569,0.071421,0.722621 ElbowLeft:-0.040984,0.915360,-0.178234,-0.358706 ElbowRight:-0.004115,0.811216,0.164099,0.561234 FootLeft:0.000000,0.000000,0.000000,0.000000 FootRight:0.000000,0.000000,0.000000,0.000000 HandLeft:-0.092971,0.856994,-0.010369,0.506764 HandRight:0.263457,-0.498498,-0.272977,0.779470 HandTipLeft:0.000000,0.000000,0.000000,0.000000 HandTipRight:0.000000,0.000000,0.000000,0.000000 Head:0.000000,0.000000,0.000000,0.000000 HipLeft:0.130980,-0.676710,0.701671,-0.180463 HipRight:-0.097460,0.680163,0.706848,-0.168064 KneeLeft:-0.026332,0.722319,-0.043165,-0.689709 KneeRight:-0.016035,0.690897,0.034330,0.721960 Neck:0.048349,-0.022789,0.994796,-0.086736 ShoulderLeft:-0.003432,0.783179,-0.614267,0.096407 ShoulderRight:0.059862,0.789847,0.610115,-0.017827 SpineBase:0.022864,-0.018314,0.998353,-0.049324 SpineMid:0.035308,-0.018927,0.997991,-0.049091 SpineShoulder:0.048121,-0.021627,0.996361,-0.066943 ThumbLeft:0.000000,0.000000,0.000000,0.000000 ThumbRight:0.000000,0.000000,0.000000,0.000000 WristLeft:-0.086073,0.859785,-0.077734,0.497311 WristRight:0.085725,-0.544913,-0.169182,0.816761 END:
KINECT_DATA POSITION:12.157347,-0.175042,2.426434 HEAD_JOINT1:0.978425,0.158150,-0.000000,0.132938 LARM_JOINT2:0.835850,0.000000,-0.033760,-0.547920 LARM_JOINT3:0.976913,0.000000,-0.153438,-0.148650 LLEG_JOINT2:0.998836,0.015078,0.000000,0.045808 LLEG_JOINT4:0.995392,0.088546,0.000000,-0.036794 RARM_JOINT2:0.785368,0.000000,0.003332,0.619021 RARM_JOINT3:0.925038,0.000000,0.353305,0.139569 RLEG_JOINT2:0.999152,0.012976,0.000000,-0.039084 RLEG_JOINT4:0.995136,0.091708,0.000000,0.035985 WAIST:0.999760,0.000000,-0.021825,0.001903 WAIST_JOINT0:0.999053,0.000000,-0.041586,0.012823 WAIST_JOINT1:0.997325,0.069589,0.000000,-0.022373 END:
KINECT_DATA_Sensor  AnkleLeft:0.064187,0.718345,-0.081879,-0.687864 AnkleRight:0.075165,0.688232,0.072737,0.717911 ElbowLeft:-0.042591,0.910201,-0.181669,-0.369753 ElbowRight:-0.019608,0.807808,0.151604,0.569278 FootLeft:0.000000,0.000000,0.000000,0.000000 FootRight:0.000000,0.000000,0.000000,0.000000 HandLeft:-0.072412,0.827368,-0.015250,0.556764 HandRight:0.220424,-0.298644,-0.353822,0.858508 HandTipLeft:0.000000,0.000000,0.000000,0.000000 HandTipRight:0.000000,0.000000,0.000000,0.000000 Head:0.000000,0.000000,0.000000,0.000000 HipLeft:0.132944,-0.676764,0.702211,-0.176681 HipRight:-0.102756,0.681629,0.705218,-0.165806 KneeLeft:-0.024026,0.721163,-0.043902,-0.690955 KneeRight:-0.016249,0.692203,0.035889,0.720626 Neck:0.039969,-0.020533,0.995425,-0.084315 ShoulderLeft:-0.001497,0.782859,-0.615620,0.090225 ShoulderRight:0.050970,0.793570,0.605845,-0.024523 SpineBase:0.020878,-0.016147,0.998677,-0.044125 SpineMid:0.030152,-0.016557,0.998440,-0.043973 SpineShoulder:0.039693,-0.020120,0.996894,-0.064984 ThumbLeft:0.000000,0.000000,0.000000,0.000000 ThumbRight:0.000000,0.000000,0.000000,0.000000 WristLeft:-0.080716,0.828243,-0.088908,0.547352 WristRight:0.073548,-0.355328,-0.222003,0.905012 END:
KINECT_DATA POSITION:12.363129,-0.263115,3.063166 HEAD_JOINT1:0.979180,0.156692,-0.000000,0.129051 LARM_JOINT2:0.836453,0.000000,-0.026444,-0.547400 LARM_JOINT3:0.975819,0.000000,-0.159858,-0.149074 LLEG_JOINT2:0.998938,0.020577,0.000000,0.041226 LLEG_JOINT4:0.995786,0.084848,0.000000,-0.034807 RARM_JOINT2:0.788947,0.000000,0.044335,0.612860 RARM_JOINT3:0.925278,0.000000,0.358345,0.124296 RLEG_JOINT2:0.998955,0.015962,0.000000,-0.042820 RLEG_JOINT4:0.994199,0.099875,0.000000,0.039904 WAIST:0.999830,0.000000,-0.017985,0.003979 WAIST_JOINT0:0.999511,0.000000,-0.026163,0.017142 WAIST_JOINT1:0.997638,0.065325,0.000000,-0.021251 END:
KINECT_DATA_Sensor  AnkleLeft:0.066081,0.715296,-0.082625,-0.690766 AnkleRight:0.089222,0.732349,0.073719,0.671021 ElbowLeft:-0.043028,0.905230,-0.186278,-0.379484 ElbowRight:-0.051404,0.815849,0.133871,0.560202 FootLeft:0.000000,0.000000,0.000000,0.000000 FootRight:0.000000,0.000000,0.000000,0.000000 HandLeft:-0.087987,0.838987,-0.027566,0.536283 HandRight:0.214765,-0.273578,-0.366497,0.862966 HandTipLeft:0.000000,0.000000,0.000000,0.000000 HandTipRight:0.000000,0.000000,0.000000,0.000000 Head:0.000000,0.000000,0.000000,0.000000 HipLeft:0.133454,-0.676483,0.703533,-0.172055 HipRight:-0.109149,0.683408,0.702928,-0.164108 KneeLeft:-0.018186,0.718915,-0.046246,-0.693319 KneeRight:-0.015372,0.694772,0.039112,0.718001 Neck:0.025262,-0.016898,0.996157,-0.082147 ShoulderLeft:-0.002468,0.783086,-0.616593,0.081132 ShoulderRight:0.030878,0.797613,0.601148,-0.038480 SpineBase:0.017139,-0.012685,0.999014,-0.038936 SpineMid:0.021010,-0.012836,0.998940,-0.038887 SpineShoulder:0.024992,-0.016487,0.997736,-0.060222 ThumbLeft:0.000000,0.000000,0.000000,0.000000 ThumbRight:0.000000,0.000000,0.000000,0.000000 WristLeft:-0.080879,0.841080,-0.092520,0.526767 WristRight:0.088914,-0.324218,-0.258479,0.905630 END:
KINECT_DATA POSITION:12.547800,-0.350071,3.607178 HEAD_JOINT1:0.980667,0.152393,-0.000000,0.122751 LARM_JOINT2:0.835866,0.000000,-0.023096,-0.548448 LARM_JOINT3:0.975170,0.000000,-0.161101,-0.151954 LLEG_JOINT2:0.999014,0.023734,0.000000,0.037509 LLEG_JOINT4:0.996028,0.084061,0.000000,-0.029374 RARM_JOINT2:0.788899,0.000000,0.079691,0.609334 RARM_JOINT3:0.930488,0.000000,0.349031,0.111221 RLEG_JOINT2:0.998727,0.021242,0.000000,-0.045743 RLEG_JOINT4:0.994643,0.095923,0.000000,0.038532 WAIST:0.999894,0.000000,-0.013407,0.005590 WAIST_JOINT0:0.999728,0.000000,-0.013604,0.018946 WAIST_JOINT1:0.997885,0.062239,0.000000,-0.018736 END:
KINECT_DATA_Sensor  AnkleLeft:0.068119,0.731105,-0.084479,-0.673579 AnkleRight:0.084368,0.702768,0.081118,0.701725 ElbowLeft:-0.044158,0.901504,-0.189024,-0.386795 ElbowRight:-0.074077,0.828699,0.114445,0.542838 FootLeft:0.000000,0.000000,0.000000,0.000000 FootRight:0.000000,0.000000,0.000000,0.000000 HandLeft:-0.088008,0.839789,-0.023909,0.535198 HandRight:0.239312,-0.286765,-0.376846,0.847633 HandTipLeft:0.000000,0.000000,0.000000,0.000000 HandTipRight:0.000000,0.000000,0.000000,0.000000 Head:0.000000,0.000000,0.000000,0.000000 HipLeft:0.131625,-0.676126,0.705027,-0.168716 HipRight:-0.114160,0.684348,0.701137,-0.164447 KneeLeft:-0.014246,0.715914,-0.047127,-0.696450 KneeRight:-0.012677,0.697959,0.043662,0.714693 Neck:0.012976,-0.012716,0.996683,-0.079333 ShoulderLeft:0.000342,0.782443,-0.618555,0.071915 ShoulderRight:0.017754,0.799002,0.599093,-0.048662 SpineBase:0.012634,-0.009264,0.999211,-0.036508 SpineMid:0.012699,-0.009267,0.999210,-0.036507 SpineShoulder:0.012778,-0.012176,0.998215,-0.057048 ThumbLeft:0.000000,0.000000,0.000000,0.000000 ThumbRight:0.000000,0.000000,0.000000,0.000000 WristLeft:-0.082018,0.842063,-0.096367,0.524325 WristRight:0.107875,-0.340880,-0.264084,0.895781 END:
KINECT_DATA POSITION:12.768661,-0.410794,3.953111 HEAD_JOINT1:0.981679,0.150701,-0.000000,0.116602 LARM_JOINT2:0.835004,0.000000,-0.019690,-0.549892 LARM_JOINT3:0.975138,0.000000,-0.162338,-0.150836 LLEG_JOINT2:0.999064,0.027217,0.000000,0.033626 LLEG_JOINT4:0.996161,0.083069,0.000000,-0.027614 RARM_JOINT2:0.788957,0.000000,0.099042,0.606413 RARM_JOINT3:0.931382,0.000000,0.349610,0.101493 RLEG_JOINT2:0.998509,0.024988,0.000000,-0.048539 RLEG_JOINT4:0.994774,0.094202,0.000000,0.039385 WAIST:0.999912,0.000000,-0.011335,0.006884 WAIST_JOINT0:0.999778,0.000000,-0.004704,0.020553 WAIST_JOINT1:0.997995,0.061259,0.000000,-0.015937 END:
KINECT_DATA_Sensor  AnkleLeft:0.068139,0.709674,-0.087485,-0.695749 AnkleRight:0.085632,0.707516,0.082707,0.696597 ElbowLeft:-0.044681,0.896672,-0.191832,-0.396463 ElbowRight:-0.085707,0.832861,0.102668,0.537082 FootLeft:0.000000,0.000000,0.000000,0.000000 FootRight:0.000000,0.000000,0.000000,0.000000 HandLeft:-0.081024,0.842802,-0.027306,0.531389 HandRight:0.314063,-0.450311,-0.330868,0.767536 HandTipLeft:0.000000,0.000000,0.000000,0.000000 HandTipRight:0.000000,0.000000,0.000000,0.000000 Head:0.000000,0.000000,0.000000,0.000000 HipLeft:0.130028,-0.675329,0.706240,-0.168071 HipRight:-0.116407,0.685106,0.699977,-0.164652 KneeLeft:-0.009850,0.714570,-0.047838,-0.697857 KneeRight:-0.011130,0.699424,0.047332,0.713052 Neck:0.003947,-0.008248,0.996904,-0.078093 ShoulderLeft:0.005099,0.781312,-0.620742,0.064854 ShoulderRight:0.010818,0.800196,0.597042,-0.055774 SpineBase:0.010598,-0.006001,0.999274,-0.036101 SpineMid:0.007243,-0.005879,0.999304,-0.036121 SpineShoulder:0.003818,-0.007836,0.998385,-0.056135 ThumbLeft:0.000000,0.000000,0.000000,0.000000 ThumbRight:0.000000,0.000000,0.000000,0.000000 WristLeft:-0.081645,0.843709,-0.100765,0.520898 WristRight:0.170007,-0.502457,-0.246068,0.811224 END:
KINECT_DATA POSITION:12.893218,-0.451357,4.209685 HEAD_JOINT1:0.981651,0.152520,-0.000000,0.114450 LARM_JOINT2:0.834717,0.000000,-0.015639,-0.550456 LARM_JOINT3:0.975023,0.000000,-0.160585,-0.153439 LLEG_JOINT2:0.999055,0.029281,0.000000,0.032118 LLEG_JOINT4:0.996255,0.082087,0.000000,-0.027171 RARM_JOINT2:0.787898,0.000000,0.114609,0.605047 RARM_JOINT3:0.930666,0.000000,0.352312,0.098680 RLEG_JOINT2:0.998431,0.026942,0.000000,-0.049081 RLEG_JOINT4:0.994751,0.094297,0.000000,0.039739 WAIST:0.999932,0.000000,-0.009134,0.007309 WAIST_JOINT0:0.999760,-0.000000,0.001796,0.021819 WAIST_JOINT1:0.998100,0.059910,0.000000,-0.014422 END:
KINECT_DATA_Sensor  AnkleLeft:0.069259,0.705933,-0.087861,-0.699387 AnkleRight:0.087324,0.710799,0.083859,0.692898 ElbowLeft:-0.043782,0.893619,-0.193927,-0.402394 ElbowRight:-0.095622,0.834532,0.092298,0.534691 FootLeft:0.000000,0.000000,0.000000,0.000000 FootRight:0.000000,0.000000,0.000000,0.000000 HandLeft:-0.075919,0.867554,-0.012452,0.491356 HandRight:0.203085,-0.176069,-0.410836,0.871189 HandTipLeft:0.000000,0.000000,0.000000,0.000000 HandTipRight:0.000000,0.000000,0.000000,0.000000 Head:0.000000,0.000000,0.000000,0.000000 HipLeft:0.129111,-0.675336,0.706750,-0.166600 HipRight:-0.118841,0.685295,0.699336,-0.164853 KneeLeft:-0.007527,0.713090,-0.048563,-0.699348 KneeRight:-0.009928,0.700976,0.048751,0.711448 Neck:-0.002571,-0.006330,0.997033,-0.076678 ShoulderLeft:0.006997,0.780212,-0.622583,0.060091 ShoulderRight:0.004295,0.800700,0.595921,-0.061156 SpineBase:0.008452,-0.004365,0.999341,-0.035017 SpineMid:0.002958,-0.004173,0.999373,-0.035041 SpineShoulder:-0.002657,-0.005759,0.998479,-0.054764 ThumbLeft:0.000000,0.000000,0.000000,0.000000 ThumbRight:0.000000,0.000000,0.000000,0.000000 WristLeft:-0.084472,0.867627,-0.099128,0.479856 WristRight:0.093461,-0.224871,-0.297207,0.923237 END:
KINECT_DATA POSITION:13.088211,-0.482854,4.461455 HEAD_JOINT1:0.981887,0.155942,-0.000000,0.107610 LARM_JOINT2:0.831923,0.000000,-0.010292,-0.554795 LARM_JOINT3:0.975367,0.000000,-0.160866,-0.150936 LLEG_JOINT2:0.999062,0.031608,0.000000,0.029599 LLEG_JOINT4:0.996437,0.080655,0.000000,-0.024656 RARM_JOINT2:0.788317,0.000000,0.130838,0.601197 RARM_JOINT3:0.934278,0.000000,0.341849,0.101311 RLEG_JOINT2:0.998291,0.028335,0.000000,-0.051107 RLEG_JOINT4:0.994813,0.094116,0.000000,0.038591 WAIST:0.999951,0.000000,-0.005647,0.008080 WAIST_JOINT0:0.999668,-0.000000,0.010517,0.023536 WAIST_JOINT1:0.998197,0.058672,0.000000,-0.012687 END:
KINECT_DATA_Sensor  AnkleLeft:0.072660,0.727409,-0.086319,-0.676865 AnkleRight:0.085042,0.703454,0.087902,0.700138 ElbowLeft:-0.042212,0.885280,-0.192634,-0.421176 ElbowRight:-0.104255,0.854476,0.086645,0.501492 FootLeft:0.000000,0.000000,0.000000,0.000000 FootRight:0.000000,0.000000,0.000000,0.000000 HandLeft:-0.069520,0.841071,-0.008215,0.536375 HandRight:0.240573,-0.248349,-0.401731,0.847974 HandTipLeft:0.000000,0.000000,0.000000,0.000000 HandTipRight:0.000000,0.000000,0.000000,0.000000 Head:0.000000,0.000000,0.000000,0.000000 HipLeft:0.127607,-0.675196,0.707602,-0.164703 HipRight:-0.122526,0.685570,0.698237,-0.165669 KneeLeft:-0.004488,0.710677,-0.048998,-0.701795 KneeRight:-0.010002,0.703441,0.050574,0.708882 Neck:-0.011551,-0.003779,0.997073,-0.075483 ShoulderLeft:0.012353,0.778195,-0.625727,0.052198 ShoulderRight:-0.001900,0.801217,0.594581,-0.067236 SpineBase:0.005029,-0.001886,0.999416,-0.033760 SpineMid:-0.003176,-0.001609,0.999423,-0.033774 SpineShoulder:-0.011595,-0.003150,0.998500,-0.053426 ThumbLeft:0.000000,0.000000,0.000000,0.000000 ThumbRight:0.000000,0.000000,0.000000,0.000000 WristLeft:-0.077661,0.842294,-0.107371,0.522476 WristRight:0.129164,-0.296123,-0.276641,0.905040 END:
KINECT_DATA POSITION:13.202795,-0.503089,4.553092 HEAD_JOINT1:0.982238,0.159394,-0.000000,0.099008 LARM_JOINT2:0.829542,0.000000,-0.006747,-0.558403 LARM_JOINT3:0.976341,0.000000,-0.156935,-0.148762 LLEG_JOINT2:0.999099,0.032422,0.000000,0.027375 LLEG_JOINT4:0.996478,0.080502,0.000000,-0.023463 RARM_JOINT2:0.788956,0.000000,0.133483,0.599776 RARM_JOINT3:0.934238,0.000000,0.341636,0.102396 RLEG_JOINT2:0.998140,0.029573,0.000000,-0.053302 RLEG_JOINT4:0.994677,0.094416,0.000000,0.041273 WAIST:0.999952,0.000000,-0.003755,0.009084 WAIST_JOINT0:0.999509,-0.000000,0.018762,0.025086 WAIST_JOINT1:0.998225,0.058300,0.000000,-0.012133 END:
KINECT_DATA_Sensor  AnkleLeft:0.073089,0.724365,-0.086797,-0.680014 AnkleRight:0.090456,0.731951,0.084483,0.670020 ElbowLeft:-0.039577,0.881676,-0.191270,-0.429532 ElbowRight:-0.104846,0.864602,0.086694,0.483689 FootLeft:0.000000,0.000000,0.000000,0.000000 FootRight:0.000000,0.000000,0.000000,0.000000 HandLeft:-0.062883,0.825888,0.000005,0.560317 HandRight:0.266749,-0.316215,-0.394904,0.820307 HandTipLeft:0.000000,0.000000,0.000000,0.000000 HandTipRight:0.000000,0.000000,0.000000,0.000000 Head:0.000000,0.000000,0.000000,0.000000 HipLeft:0.126496,-0.674737,0.708459,-0.163752 HipRight:-0.124133,0.686061,0.697284,-0.166452 KneeLeft:-0.002965,0.709316,-0.048714,-0.703200 KneeRight:-0.010060,0.704815,0.052266,0.707392 Neck:-0.019954,-0.001831,0.996982,-0.074999 ShoulderLeft:0.017429,0.776758,-0.627894,0.045742 ShoulderRight:-0.007633,0.801678,0.593129,-0.073839 SpineBase:0.003120,-0.000608,0.999434,-0.033496 SpineMid:-0.008294,-0.000225,0.999404,-0.033500 SpineShoulder:-0.019989,-0.001379,0.998391,-0.053039 ThumbLeft:0.000000,0.000000,0.000000,0.000000 ThumbRight:0.000000,0.000000,0.000000,0.000000 WristLeft:-0.069526,0.828535,-0.109761,0.544654 WristRight:0.157590,-0.362360,-0.258425,0.881520 END:
KINECT_DATA POSITION:13.251880,-0.507450,4.581928 HEAD_JOINT1:0.982164,0.162549,-0.000000,0.094505 LARM_JOINT2:0.828742,0.000000,-0.004988,-0.559609 LARM_JOINT3:0.974946,0.000000,-0.162923,-0.151447 LLEG_JOINT2:0.999110,0.032600,0.000000,0.026766 LLEG_JOINT4:0.996499,0.080756,0.000000,-0.021631 RARM_JOINT2:0.784853,0.000000,0.145986,0.602241 RARM_JOINT3:0.940019,0.000000,0.328191,0.093031 RLEG_JOINT2:0.998068,0.029868,0.000000,-0.054478 RLEG_JOINT4:0.994411,0.096539,0.000000,0.042755 WAIST:0.999953,0.000000,-0.002323,0.009394 WAIST_JOINT0:0.999383,-0.000000,0.023471,0.026136 WAIST_JOINT1:0.998236,0.058211,0.000000,-0.011679 END:
KINECT_DATA_Sensor  AnkleLeft:0.073842,0.733973,-0.086947,-0.669531 AnkleRight:0.091188,0.722043,0.087169,0.680250 ElbowLeft:-0.038264,0.879897,-0.191279,-0.433277 ElbowRight:-0.109119,0.869162,0.076400,0.476249 FootLeft:0.000000,0.000000,0.000000,0.000000 FootRight:0.000000,0.000000,0.000000,0.000000 HandLeft:-0.082923,0.844668,0.002355,0.528823 HandRight:0.209213,-0.235735,-0.414611,0.853673 HandTipLeft:0.000000,0.000000,0.000000,0.000000 HandTipRight:0.000000,0.000000,0.000000,0.000000 Head:0.000000,0.000000,0.000000,0.000000 HipLeft:0.125420,-0.674679,0.708860,-0.163082 HipRight:-0.124891,0.686069,0.696942,-0.167283 KneeLeft:-0.002567,0.708292,-0.048625,-0.704238 KneeRight:-0.010542,0.705837,0.053067,0.706306 Neck:-0.024748,-0.000899,0.996897,-0.074726 ShoulderLeft:0.020775,0.776230,-0.628716,0.041843 ShoulderRight:-0.010418,0.802264,0.591839,-0.077396 SpineBase:0.001678,-0.000235,0.999431,-0.033673 SpineMid:-0.011401,0.000205,0.999368,-0.033674 SpineShoulder:-0.024778,-0.000525,0.998289,-0.052968 ThumbLeft:0.000000,0.000000,0.000000,0.000000 ThumbRight:0.000000,0.000000,0.000000,0.000000 WristLeft:-0.074565,0.849550,-0.106729,0.511188 WristRight:0.135140,-0.266237,-0.271674,0.914903 END:
KINECT_DATA POSITION:13.284681,-0.510754,4.598045 HEAD_JOINT1:0.982170,0.164058,-0.000000,0.091805 LARM_JOINT2:0.828263,0.000000,-0.005185,-0.560316 LARM_JOINT3:0.974482,0.000000,-0.165107,-0.152066 LLEG_JOINT2:0.999117,0.032871,0.000000,0.026169 LLEG_JOINT4:0.996456,0.081234,0.000000,-0.021811 RARM_JOINT2:0.782923,0.000000,0.150161,0.603725 RARM_JOINT3:0.939876,0.000000,0.328468,0.093504 RLEG_JOINT2:0.998004,0.029293,0.000000,-0.055946 RLEG_JOINT4:0.994391,0.096905,0.000000,0.042379 WAIST:0.999952,0.000000,-0.001404,0.009692 WAIST_JOINT0:0.999327,-0.000000,0.025277,0.026567 WAIST_JOINT1:0.998241,0.058145,0.000000,-0.011579 END:
KINECT_DATA_Sensor  AnkleLeft:0.074020,0.727352,-0.087678,-0.676604 AnkleRight:0.089985,0.723267,0.088150,0.678982 ElbowLeft:-0.037845,0.880096,-0.190861,-0.433094 ElbowRight:-0.109779,0.872629,0.072459,0.470338 FootLeft:0.000000,0.000000,0.000000,0.000000 FootRight:0.000000,0.000000,0.000000,0.000000 HandLeft:-0.090695,0.881000,0.006042,0.464303 HandRight:0.228108,-0.246916,-0.417747,0.844089 HandTipLeft:0.000000,0.000000,0.000000,0.000000 HandTipRight:0.000000,0.000000,0.000000,0.000000 Head:0.000000,0.000000,0.000000,0.000000 HipLeft:0.124774,-0.674591,0.709173,-0.162580 HipRight:-0.125382,0.686149,0.696654,-0.167790 KneeLeft:-0.002126,0.707632,-0.048601,-0.704905 KneeRight:-0.011829,0.706479,0.053478,0.705611 Neck:-0.026581,-0.000468,0.996862,-0.074557 ShoulderLeft:0.022330,0.775926,-0.629151,0.040115 ShoulderRight:-0.011203,0.802399,0.591491,-0.078538 SpineBase:0.000747,-0.000028,0.999431,-0.033727 SpineMid:-0.012781,0.000428,0.999349,-0.033725 SpineShoulder:-0.026610,-0.000144,0.998245,-0.052909 ThumbLeft:0.000000,0.000000,0.000000,0.000000 ThumbRight:0.000000,0.000000,0.000000,0.000000 WristLeft:-0.082763,0.884729,-0.100216,0.447617 WristRight:0.142916,-0.282686,-0.265593,0.910563 END:
KINECT_DATA POSITION:13.331517,-0.515807,4.630125 HEAD_JOINT1:0.982152,0.165860,-0.000000,0.088708 LARM_JOINT2:0.827446,0.000000,-0.004094,-0.561530 LARM_JOINT3:0.974562,0.000000,-0.163853,-0.152909 LLEG_JOINT2:0.999134,0.033014,0.000000,0.025314 LLEG_JOINT4:0.996508,0.080707,0.000000,-0.021381 RARM_JOINT2:0.781962,0.000000,0.151847,0.604548 RARM_JOINT3:0.938661,0.000000,0.332818,0.090267 RLEG_JOINT2:0.997924,0.030081,0.000000,-0.056941 RLEG_JOINT4:0.994194,0.097799,0.000000,0.044867 WAIST:0.999950,-0.000000,0.000639,0.010012 WAIST_JOINT0:0.999269,-0.000000,0.027010,0.027038 WAIST_JOINT1:0.998258,0.057926,0.000000,-0.011176 END:
KINECT_DATA_Sensor  AnkleLeft:0.074998,0.733997,-0.086298,-0.669460 AnkleRight:0.092179,0.723840,0.088192,0.678072 ElbowLeft:-0.036694,0.878792,-0.190581,-0.435955 ElbowRight:-0.110310,0.872212,0.069250,0.471469 FootLeft:0.000000,0.000000,0.000000,0.000000 FootRight:0.000000,0.000000,0.000000,0.000000 HandLeft:-0.084558,0.866361,0.006735,0.492162 HandRight:0.254616,-0.298723,-0.408629,0.823989 HandTipLeft:0.000000,0.000000,0.000000,0.000000 HandTipRight:0.000000,0.000000,0.000000,0.000000 Head:0.000000,0.000000,0.000000,0.000000 HipLeft:0.123702,-0.674628,0.709572,-0.161500 HipRight:-0.126945,0.686109,0.696149,-0.168867 KneeLeft:-0.001563,0.706180,-0.048313,-0.706381 KneeRight:-0.011870,0.707930,0.054475,0.704079 Neck:-0.028312,0.000186,0.996841,-0.074203 ShoulderLeft:0.022858,0.775661,-0.629530,0.038991 ShoulderRight:-0.012931,0.802615,0.590955,-0.080092 SpineBase:-0.001294,0.000455,0.999437,-0.033528 SpineMid:-0.014665,0.000904,0.999330,-0.033519 SpineShoulder:-0.028339,0.000410,0.998209,-0.052682 ThumbLeft:0.000000,0.000000,0.000000,0.000000 ThumbRight:0.000000,0.000000,0.000000,0.000000 WristLeft:-0.080006,0.870192,-0.102402,0.475267 WristRight:0.164341,-0.336513,-0.259600,0.890145 END:
KINECT_DATA POSITION:13.364138,-0.521186,4.652452 HEAD_JOINT1:0.982118,0.167049,-0.000000,0.086825 LARM_JOINT2:0.827109,0.000000,-0.004069,-0.562028 LARM_JOINT3:0.974389,0.000000,-0.165350,-0.152402 LLEG_JOINT2:0.999155,0.033409,0.000000,0.023955 LLEG_JOINT4:0.996732,0.078298,0.000000,-0.019856 RARM_JOINT2:0.781416,0.000000,0.153326,0.604880 RARM_JOINT3:0.937713,0.000000,0.336756,0.085381 RLEG_JOINT2:0.997834,0.031259,0.000000,-0.057883 RLEG_JOINT4:0.994253,0.097085,0.000000,0.045126 WAIST:0.999941,-0.000000,0.002201,0.010644 WAIST_JOINT0:0.999189,-0.000000,0.029240,0.027700 WAIST_JOINT1:0.998256,0.057961,0.000000,-0.011217 END:
KINECT_DATA_Sensor  AnkleLeft:0.072857,0.731372,-0.085628,-0.672647 AnkleRight:0.092348,0.725034,0.088653,0.676711 ElbowLeft:-0.036036,0.878786,-0.190712,-0.435965 ElbowRight:-0.111397,0.867744,0.066063,0.479840 FootLeft:0.000000,0.000000,0.000000,0.000000 FootRight:0.000000,0.000000,0.000000,0.000000 HandLeft:-0.087730,0.824617,-0.006288,0.558811 HandRight:0.276209,-0.346460,-0.392340,0.806067 HandTipLeft:0.000000,0.000000,0.000000,0.000000 HandTipRight:0.000000,0.000000,0.000000,0.000000 Head:0.000000,0.000000,0.000000,0.000000 HipLeft:0.122643,-0.674388,0.710169,-0.160683 HipRight:-0.127747,0.686314,0.695572,-0.169805 KneeLeft:0.000708,-0.705044,0.048066,0.707532 KneeRight:-0.011350,0.709070,0.055499,0.702859 Neck:-0.030554,0.000820,0.996781,-0.074115 ShoulderLeft:0.024478,0.774969,-0.630423,0.037282 ShoulderRight:-0.014207,0.802540,0.590786,-0.081853 SpineBase:-0.002888,0.000768,0.999429,-0.033659 SpineMid:-0.016584,0.001229,0.999295,-0.033646 SpineShoulder:-0.030584,0.000916,0.998141,-0.052714 ThumbLeft:0.000000,0.000000,0.000000,0.000000 ThumbRight:0.000000,0.000000,0.000000,0.000000 WristLeft:-0.071859,0.830684,-0.107776,0.541465 WristRight:0.182244,-0.385169,-0.257395,0.867283 END:
KINECT_DATA POSITION:13.374143,-0.524947,4.655349 HEAD_JOINT1:0.982251,0.167544,-0.000000,0.084337 LARM_JOINT2:0.826585,0.000000,-0.005611,-0.562784 LARM_JOINT3:0.974767,0.000000,-0.166568,-0.148610 LLEG_JOINT2:0.999147,0.033819,0.000000,0.023691 LLEG_JOINT4:0.996894,0.076046,0.000000,-0.020463 RARM_JOINT2:0.783287,0.000000,0.148118,0.603758 RARM_JOINT3:0.931202,0.000000,0.353592,0.088520 RLEG_JOINT2:0.997781,0.032153,0.000000,-0.058299 RLEG_JOINT4:0.994479,0.095075,0.000000,0.044404 WAIST:0.999939,-0.000000,0.002438,0.010815 WAIST_JOINT0:0.999141,-0.000000,0.030506,0.028065 WAIST_JOINT1:0.998178,0.059376,0.000000,-0.010708 END:
KINECT_DATA_Sensor  AnkleLeft:0.070404,0.718750,-0.085187,-0.686429 AnkleRight:0.090926,0.725977,0.088544,0.675906 ElbowLeft:-0.035875,0.878581,-0.190519,-0.436475 ElbowRight:-0.108891,0.861598,0.069166,0.490926 FootLeft:0.000000,0.000000,0.000000,0.000000 FootRight:0.000000,0.000000,0.000000,0.000000 HandLeft:-0.089304,0.866437,-0.010879,0.491115 HandRight:0.276862,-0.312002,-0.404269,0.813983 HandTipLeft:0.000000,0.000000,0.000000,0.000000 HandTipRight:0.000000,0.000000,0.000000,0.000000 Head:0.000000,0.000000,0.000000,0.000000 HipLeft:0.121953,-0.674189,0.710395,-0.161044 HipRight:-0.127390,0.686291,0.695520,-0.170374 KneeLeft:0.000343,-0.704858,0.048287,0.707703 KneeRight:-0.010903,0.709263,0.056301,0.702608 Neck:-0.031926,0.001762,0.996629,-0.075559 ShoulderLeft:0.026992,0.774038,-0.631494,0.036772 ShoulderRight:-0.013460,0.802098,0.591179,-0.083450 SpineBase:-0.003146,0.000940,0.999402,-0.034432 SpineMid:-0.017410,0.001431,0.999255,-0.034415 SpineShoulder:-0.031962,0.001627,0.998023,-0.054089 ThumbLeft:0.000000,0.000000,0.000000,0.000000 ThumbRight:0.000000,0.000000,0.000000,0.000000 WristLeft:-0.078420,0.869586,-0.102219,0.476678 WristRight:0.176859,-0.354430,-0.272875,0.876721 END:
KINECT_DATA POSITION:13.393567,-0.508349,4.707825 HEAD_JOINT1:0.982282,0.169117,-0.000000,0.080751 LARM_JOINT2:0.826231,0.000000,-0.007060,-0.563287 LARM_JOINT3:0.974799,0.000000,-0.166517,-0.148458 LLEG_JOINT2:0.999142,0.033919,0.000000,0.023752 LLEG_JOINT4:0.997140,0.072939,0.000000,-0.019793 RARM_JOINT2:0.796797,0.000000,0.097096,0.596395 RARM_JOINT3:0.899312,0.000000,0.417757,0.129294 RLEG_JOINT2:0.997777,0.033046,0.000000,-0.057875 RLEG_JOINT4:0.994583,0.093721,0.000000,0.044954 WAIST:0.999932,-0.000000,0.004616,0.010694 WAIST_JOINT0:0.999167,-0.000000,0.030416,0.027198 WAIST_JOINT1:0.998043,0.061796,0.000000,-0.009513 END:
KINECT_DATA_Sensor  AnkleLeft:0.069581,0.730890,-0.082081,-0.673959 AnkleRight:0.090678,0.725389,0.088080,0.676631 ElbowLeft:-0.034721,0.877438,-0.191463,-0.438451 ElbowRight:-0.087456,0.843889,0.104457,0.518934 FootLeft:0.000000,0.000000,0.000000,0.000000 FootRight:0.000000,0.000000,0.000000,0.000000 HandLeft:-0.088204,0.894074,-0.003149,0.439138 HandRight:0.229947,-0.169120,-0.421631,0.860668 HandTipLeft:0.000000,0.000000,0.000000,0.000000 HandTipRight:0.000000,0.000000,0.000000,0.000000 Head:0.000000,0.000000,0.000000,0.000000 HipLeft:0.119158,-0.674173,0.710825,-0.161305 HipRight:-0.127418,0.685599,0.695602,-0.172792 KneeLeft:0.000142,-0.703293,0.048299,0.709258 KneeRight:-0.010195,0.710826,0.056681,0.701006 Neck:-0.031957,0.002663,0.996446,-0.077892 ShoulderLeft:0.031220,0.772949,-0.632645,0.036550 ShoulderRight:-0.009228,0.800296,0.593704,-0.083404 SpineBase:-0.005340,0.001353,0.999316,-0.036566 SpineMid:-0.018540,0.001836,0.999158,-0.036545 SpineShoulder:-0.031979,0.002484,0.997888,-0.056483 ThumbLeft:0.000000,0.000000,0.000000,0.000000 ThumbRight:0.000000,0.000000,0.000000,0.000000 WristLeft:-0.082377,0.896034,-0.097945,0.425141 WristRight:0.154622,-0.200420,-0.343699,0.904320 END:
KINECT_DATA POSITION:13.394944,-0.521824,4.794931 HEAD_JOINT1:0.982471,0.169560,-0.000000,0.077456 LARM_JOINT2:0.825620,0.000000,-0.006331,-0.564191 LARM_JOINT3:0.975006,0.000000,-0.162709,-0.151289 LLEG_JOINT2:0.999201,0.032637,0.000000,0.023051 LLEG_JOINT4:0.996987,0.074545,0.000000,-0.021435 RARM_JOINT2:0.792698,0.000000,0.146669,0.591707 RARM_JOINT3:0.914413,0.000000,0.393026,0.096847 RLEG_JOINT2:0.997734,0.034122,0.000000,-0.057996 RLEG_JOINT4:0.994847,0.090562,0.000000,0.045583 WAIST:0.999900,-0.000000,0.008969,0.010933 WAIST_JOINT0:0.998949,-0.000000,0.036385,0.027885 WAIST_JOINT1:0.998077,0.061391,0.000000,-0.008515 END:
KINECT_DATA_Sensor  AnkleLeft:0.068803,0.704758,-0.082746,-0.701238 AnkleRight:0.089351,0.729361,0.086382,0.672746 ElbowLeft:-0.033938,0.875078,-0.191809,-0.443054 ElbowRight:-0.117172,0.849242,0.076846,0.509071 FootLeft:0.000000,0.000000,0.000000,0.000000 FootRight:0.000000,0.000000,0.000000,0.000000 HandLeft:-0.074486,0.853945,0.003968,0.514990 HandRight:0.301551,-0.350340,-0.360747,0.810056 HandTipLeft:0.000000,0.000000,0.000000,0.000000 HandTipRight:0.000000,0.000000,0.000000,0.000000 Head:0.000000,0.000000,0.000000,0.000000 HipLeft:0.116762,-0.674398,0.711458,-0.159315 HipRight:-0.130561,0.685086,0.694904,-0.175269 KneeLeft:0.000562,-0.700194,0.047038,0.712401 KneeRight:-0.009635,0.713891,0.057285,0.697843 Neck:-0.037845,0.003822,0.996279,-0.077339 ShoulderLeft:0.032381,0.772415,-0.633401,0.033626 ShoulderRight:-0.015781,0.800137,0.592881,-0.089580 SpineBase:-0.009668,0.002215,0.999285,-0.036482 SpineMid:-0.023637,0.002725,0.999052,-0.036448 SpineShoulder:-0.037868,0.003504,0.997704,-0.056038 ThumbLeft:0.000000,0.000000,0.000000,0.000000 ThumbRight:0.000000,0.000000,0.000000,0.000000 WristLeft:-0.074403,0.857060,-0.105288,0.498826 WristRight:0.229817,-0.379187,-0.313850,0.839583 END:
KINECT_DATA POSITION:13.440645,-0.543091,4.858267 HEAD_JOINT1:0.983239,0.169844,-0.000000,0.066289 LARM_JOINT2:0.820702,0.000000,0.003323,-0.571347 LARM_JOINT3:0.976041,0.000000,-0.162052,-0.145201 LLEG_JOINT2:0.999265,0.032367,0.000000,0.020540 LLEG_JOINT4:0.996870,0.076403,0.000000,-0.020340 RARM_JOINT2:0.787577,0.000000,0.198832,0.583257 RARM_JOINT3:0.934069,0.000000,0.349748,0.072055 RLEG_JOINT2:0.997515,0.035727,0.000000,-0.060728 RLEG_JOINT4:0.994866,0.090526,0.000000,0.045241 WAIST:0.999814,-0.000000,0.014446,0.012789 WAIST_JOINT0:0.998194,-0.000000,0.050576,0.032410 WAIST_JOINT1:0.998163,0.060400,0.000000,-0.004820 END:
KINECT_DATA_Sensor  AnkleLeft:-0.067412,-0.678492,0.085847,0.726454 AnkleRight:0.089623,0.736890,0.088236,0.664211 ElbowLeft:-0.030597,0.859315,-0.191608,-0.473211 ElbowRight:-0.145914,0.859137,0.044707,0.488461 FootLeft:0.000000,0.000000,0.000000,0.000000 FootRight:0.000000,0.000000,0.000000,0.000000 HandLeft:-0.055367,0.833595,0.010311,0.549497 HandRight:-0.106751,0.449971,-0.436189,0.771926 HandTipLeft:0.000000,0.000000,0.000000,0.000000 HandTipRight:0.000000,0.000000,0.000000,0.000000 Head:0.000000,0.000000,0.000000,0.000000 HipLeft:0.113844,-0.673772,0.713006,-0.157143 HipRight:-0.135332,0.685682,0.692608,-0.178382 KneeLeft:0.000107,-0.696207,0.046320,0.716345 KneeRight:-0.009510,0.717801,0.058936,0.693685 Neck:-0.052079,0.010445,0.995725,-0.075567 ShoulderLeft:0.038593,0.770384,-0.635965,0.023818 ShoulderRight:-0.028159,0.802568,0.587132,-0.101824 SpineBase:-0.015162,0.004991,0.999220,-0.036108 SpineMid:-0.033497,0.005653,0.998774,-0.036010 SpineShoulder:-0.052105,0.008931,0.997086,-0.055002 ThumbLeft:0.000000,0.000000,0.000000,0.000000 ThumbRight:0.000000,0.000000,0.000000,0.000000 WristLeft:-0.065420,0.836400,-0.114895,0.531935 WristRight:-0.112605,0.454413,-0.372595,0.801250 END:
KINECT_DATA POSITION:13.485521,-0.561805,4.856217 HEAD_JOINT1:0.982965,0.172252,-0.000000,0.064099 LARM_JOINT2:0.819068,0.000000,0.006302,-0.573662 LARM_JOINT3:0.975347,0.000000,-0.166886,-0.144387 LLEG_JOINT2:0.999358,0.031294,0.000000,0.017441 LLEG_JOINT4:0.996770,0.078373,0.000000,-0.017509 RARM_JOINT2:0.786528,0.000000,0.211017,0.580384 RARM_JOINT3:0.941835,0.000000,0.329334,0.066984 RLEG_JOINT2:0.997343,0.036932,0.000000,-0.062790 RLEG_JOINT4:0.994665,0.091407,0.000000,0.047809 WAIST:0.999720,-0.000000,0.018633,0.014564 WAIST_JOINT0:0.997690,-0.000000,0.057933,0.035466 WAIST_JOINT1:0.998173,0.060289,0.000000,-0.003938 END:
KINECT_DATA_Sensor  AnkleLeft:-0.067159,-0.674323,0.087304,0.730175 AnkleRight:0.092377,0.740290,0.088208,0.660043 ElbowLeft:-0.027609,0.857165,-0.192641,-0.476860 ElbowRight:-0.152488,0.860545,0.035319,0.484730 FootLeft:0.000000,0.000000,0.000000,0.000000 FootRight:0.000000,0.000000,0.000000,0.000000 HandLeft:-0.076972,0.842915,-0.005634,0.532482 HandRight:-0.051647,0.370051,-0.412235,0.830937 HandTipLeft:0.000000,0.000000,0.000000,0.000000 HandTipRight:0.000000,0.000000,0.000000,0.000000 Head:0.000000,0.000000,0.000000,0.000000 HipLeft:0.110251,-0.673208,0.714713,-0.154340 HipRight:-0.137680,0.686460,0.690938,-0.180062 KneeLeft:-0.000165,-0.693130,0.044561,0.719434 KneeRight:-0.009183,0.720805,0.059905,0.690484 Neck:-0.059497,0.012974,0.995291,-0.075420 ShoulderLeft:0.041736,0.768359,-0.638364,0.019352 ShoulderRight:-0.034716,0.803313,0.584546,-0.108575 SpineBase:-0.019400,0.006903,0.999137,-0.036082 SpineMid:-0.039285,0.007620,0.998553,-0.035938 SpineShoulder:-0.059478,0.011531,0.996662,-0.054724 ThumbLeft:0.000000,0.000000,0.000000,0.000000 ThumbRight:0.000000,0.000000,0.000000,0.000000 WristLeft:-0.061944,0.847547,-0.112975,0.514843 WristRight:-0.070442,0.364480,-0.383714,0.845551 END:
KINECT_DATA POSITION:13.480680,-0.561801,4.841578 HEAD_JOINT1:0.981909,0.177324,-0.000000,0.066420 LARM_JOINT2:0.819001,0.000000,0.005618,-0.573765 LARM_JOINT3:0.973512,0.000000,-0.175844,-0.146127 LLEG_JOINT2:0.999400,0.030555,0.000000,0.016322 LLEG_JOINT4:0.996833,0.078353,0.000000,-0.013584 RARM_JOINT2:0.786774,0.000000,0.204554,0.582361 RARM_JOINT3:0.940443,0.000000,0.332762,0.069546 RLEG_JOINT2:0.997278,0.036439,0.000000,-0.064100 RLEG_JOINT4:0.994510,0.092916,0.000000,0.048126 WAIST:0.999699,-0.000000,0.019301,0.015135 WAIST_JOINT0:0.997674,-0.000000,0.057879,0.035997 WAIST_JOINT1:0.998164,0.060432,0.000000,-0.003985 END:
KINECT_DATA_Sensor  AnkleLeft:-0.064402,-0.674903,0.089024,0.729680 AnkleRight:0.092705,0.740253,0.089295,0.659892 ElbowLeft:-0.027688,0.857708,-0.192862,-0.475788 ElbowRight:-0.147812,0.860766,0.037698,0.485606 FootLeft:0.000000,0.000000,0.000000,0.000000 FootRight:0.000000,0.000000,0.000000,0.000000 HandLeft:-0.112582,0.856845,-0.016045,0.502877 HandRight:-0.416644,0.863944,0.007763,-0.282751 HandTipLeft:0.000000,0.000000,0.000000,0.000000 HandTipRight:0.000000,0.000000,0.000000,0.000000 Head:0.000000,0.000000,0.000000,0.000000 HipLeft:0.109221,-0.672829,0.715333,-0.153852 HipRight:-0.137882,0.686839,0.690598,-0.179766 KneeLeft:-0.000024,-0.692636,0.043638,0.719966 KneeRight:-0.010112,0.721279,0.060044,0.689963 Neck:-0.059603,0.013100,0.995263,-0.075678 ShoulderLeft:0.041923,0.767307,-0.639611,0.019497 ShoulderRight:-0.034693,0.803171,0.584723,-0.108683 SpineBase:-0.020066,0.008095,0.999114,-0.036105 SpineMid:-0.039626,0.008801,0.998529,-0.035939 SpineShoulder:-0.059540,0.012083,0.996647,-0.054807 ThumbLeft:0.000000,0.000000,0.000000,0.000000 ThumbRight:0.000000,0.000000,0.000000,0.000000 WristLeft:-0.065175,0.865921,-0.110562,0.483434 WristRight:-0.387323,0.879117,0.028917,-0.276220 END:
KINECT_DATA POSITION:13.446577,-0.553916,4.816043 HEAD_JOINT1:0.981673,0.178190,-0.000000,0.067578 LARM_JOINT2:0.819416,0.000000,0.004516,-0.573181 LARM_JOINT3:0.973462,0.000000,-0.175482,-0.146894 LLEG_JOINT2:0.999421,0.030133,0.000000,0.015769 LLEG_JOINT4:0.996925,0.077361,0.000000,-0.012513 RARM_JOINT2:0.788554,0.000000,0.183299,0.587012 RARM_JOINT3:0.934069,0.000000,0.348616,0.077339 RLEG_JOINT2:0.997254,0.036697,0.000000,-0.064326 RLEG_JOINT4:0.994581,0.091529,0.000000,0.049304 WAIST:0.999720,-0.000000,0.018115,0.015233 WAIST_JOINT0:0.997906,-0.000000,0.054455,0.034910 WAIST_JOINT1:0.998151,0.060596,0.000000,-0.004659 END:
KINECT_DATA_Sensor  AnkleLeft:-0.063010,-0.677074,0.088461,0.727856 AnkleRight:0.092578,0.738462,0.087821,0.662111 ElbowLeft:-0.028479,0.858723,-0.192638,-0.473998 ElbowRight:-0.134980,0.858290,0.048810,0.492683 FootLeft:0.000000,0.000000,0.000000,0.000000 FootRight:0.000000,0.000000,0.000000,0.000000 HandLeft:-0.107208,0.852257,-0.012887,0.511857 HandRight:-0.423692,0.878595,-0.019303,-0.219506 HandTipLeft:0.000000,0.000000,0.000000,0.000000 HandTipRight:0.000000,0.000000,0.000000,0.000000 Head:0.000000,0.000000,0.000000,0.000000 HipLeft:0.109304,-0.672634,0.715410,-0.154288 HipRight:-0.136428,0.687165,0.690842,-0.178689 KneeLeft:0.000007,-0.693488,0.043030,0.719182 KneeRight:-0.009940,0.720472,0.060343,0.690783 Neck:-0.056187,0.012396,0.995457,-0.075853 ShoulderLeft:0.041405,0.767343,-0.639552,0.021074 ShoulderRight:-0.030751,0.802391,0.586672,-0.105068 SpineBase:-0.018890,0.008199,0.999126,-0.036371 SpineMid:-0.037327,0.008869,0.998607,-0.036214 SpineShoulder:-0.056124,0.011468,0.996841,-0.055021 ThumbLeft:0.000000,0.000000,0.000000,0.000000 ThumbRight:0.000000,0.000000,0.000000,0.000000 WristLeft:-0.067210,0.860626,-0.110961,0.492436 WristRight:-0.387383,0.896749,0.000980,-0.213947 END:
KINECT_DATA POSITION:13.410157,-0.524420,4.754853 HEAD_JOINT1:0.981188,0.180344,-0.000000,0.068892 LARM_JOINT2:0.819892,0.000000,0.004378,-0.572502 LARM_JOINT3:0.974219,0.000000,-0.171765,-0.146268 LLEG_JOINT2:0.999371,0.031219,0.000000,0.016845 LLEG_JOINT4:0.996817,0.078759,0.000000,-0.012376 RARM_JOINT2:0.797315,0.000000,0.136661,0.587888 RARM_JOINT3:0.912485,0.000000,0.395127,0.106048 RLEG_JOINT2:0.997350,0.035352,0.000000,-0.063594 RLEG_JOINT4:0.994447,0.092439,0.000000,0.050295 WAIST:0.999773,-0.000000,0.015875,0.014242 WAIST_JOINT0:0.998335,-0.000000,0.047960,0.032062 WAIST_JOINT1:0.998132,0.060940,0.000000,-0.004403 END:
KINECT_DATA_Sensor  AnkleLeft:-0.064706,-0.680594,0.090352,0.724184 AnkleRight:0.092758,0.735012,0.087077,0.666011 ElbowLeft:-0.028425,0.860566,-0.192818,-0.470573 ElbowRight:-0.112750,0.848707,0.078901,0.510645 FootLeft:0.000000,0.000000,0.000000,0.000000 FootRight:0.000000,0.000000,0.000000,0.000000 HandLeft:-0.093899,0.841909,-0.011424,0.531264 HandRight:-0.333522,0.835154,-0.285783,0.331072 HandTipLeft:0.000000,0.000000,0.000000,0.000000 HandTipRight:0.000000,0.000000,0.000000,0.000000 Head:0.000000,0.000000,0.000000,0.000000 HipLeft:0.109714,-0.672894,0.714823,-0.155579 HipRight:-0.134091,0.686727,0.692077,-0.177356 KneeLeft:-0.000657,-0.695126,0.043882,0.717547 KneeRight:-0.010896,0.718849,0.059613,0.692520 Neck:-0.049645,0.011196,0.995782,-0.076340 ShoulderLeft:0.040598,0.767751,-0.639017,0.023849 ShoulderRight:-0.023020,0.800313,0.591072,-0.097995 SpineBase:-0.016613,0.007735,0.999142,-0.037136 SpineMid:-0.032930,0.008341,0.998738,-0.037005 SpineShoulder:-0.049550,0.010732,0.997174,-0.055433 ThumbLeft:0.000000,0.000000,0.000000,0.000000 ThumbRight:0.000000,0.000000,0.000000,0.000000 WristLeft:-0.064478,0.848739,-0.111519,0.512883 WristRight:-0.326710,0.845169,-0.234359,0.352172 END:
KINECT_DATA POSITION:13.384247,-0.503272,4.680455 HEAD_JOINT1:0.980938,0.181599,-0.000000,0.069147 LARM_JOINT2:0.820165,0.000000,0.004416,-0.572110 LARM_JOINT3:0.973704,0.000000,-0.175737,-0.144974 LLEG_JOINT2:0.999340,0.031830,0.000000,0.017516 LLEG_JOINT4:0.997028,0.075772,0.000000,-0.013910 RARM_JOINT2:0.798165,0.000000,0.133957,0.587357 RARM_JOINT3:0.910345,0.000000,0.399355,0.108569 RLEG_JOINT2:0.997443,0.033656,0.000000,-0.063038 RLEG_JOINT4:0.994160,0.095706,0.000000,0.049853 WAIST:0.999799,-0.000000,0.014433,0.013904 WAIST_JOINT0:0.998474,-0.000000,0.045769,0.030895 WAIST_JOINT1:0.998105,0.061363,0.000000,-0.004569 END:
KINECT_DATA_Sensor  AnkleLeft:0.067805,0.714987,-0.084861,-0.690648 AnkleRight:0.093881,0.733714,0.088209,0.667135 ElbowLeft:-0.028446,0.860862,-0.192940,-0.469980 ElbowRight:-0.111315,0.849435,0.082324,0.509207 FootLeft:0.000000,0.000000,0.000000,0.000000 FootRight:0.000000,0.000000,0.000000,0.000000 HandLeft:-0.102666,0.845038,-0.019932,0.524379 HandRight:-0.077431,0.424423,-0.437386,0.789026 HandTipLeft:0.000000,0.000000,0.000000,0.000000 HandTipRight:0.000000,0.000000,0.000000,0.000000 Head:0.000000,0.000000,0.000000,0.000000 HipLeft:0.109895,-0.672854,0.714546,-0.156892 HipRight:-0.132480,0.686580,0.692589,-0.177137 KneeLeft:-0.000819,-0.696159,0.044564,0.716503 KneeRight:-0.011824,0.717809,0.058278,0.693695 Neck:-0.047456,0.010576,0.995854,-0.076884 ShoulderLeft:0.040531,0.767897,-0.638802,0.024978 ShoulderRight:-0.020228,0.799406,0.592756,-0.095818 SpineBase:-0.015181,0.007397,0.999130,-0.038121 SpineMid:-0.031123,0.008004,0.998761,-0.037998 SpineShoulder:-0.047349,0.010333,0.997262,-0.055854 ThumbLeft:0.000000,0.000000,0.000000,0.000000 ThumbRight:0.000000,0.000000,0.000000,0.000000 WristLeft:-0.065978,0.852316,-0.110888,0.506861 WristRight:-0.097796,0.419901,-0.389852,0.813716 END:
KINECT_DATA POSITION:13.383100,-0.513329,4.685569 HEAD_JOINT1:0.981146,0.181079,-0.000000,0.067551 LARM_JOINT2:0.820765,0.000000,0.004285,-0.571250 LARM_JOINT3:0.976051,0.000000,-0.165535,-0.141149 LLEG_JOINT2:0.999363,0.031269,0.000000,0.017194 LLEG_JOINT4:0.997226,0.072838,0.000000,-0.015326 RARM_JOINT2:0.790350,0.000000,0.191186,0.582061 RARM_JOINT3:0.937366,0.000000,0.339679,0.077227 RLEG_JOINT2:0.997545,0.031248,0.000000,-0.062672 RLEG_JOINT4:0.993972,0.099382,0.000000,0.046291 WAIST:0.999771,-0.000000,0.015705,0.014516 WAIST_JOINT0:0.998089,-0.000000,0.051923,0.033488 WAIST_JOINT1:0.998088,0.061644,0.000000,-0.004608 END:
KINECT_DATA_Sensor  AnkleLeft:-0.061849,-0.678526,0.084825,0.727036 AnkleRight:0.093001,0.735251,0.090951,0.665195 ElbowLeft:-0.029286,0.858866,-0.194378,-0.472978 ElbowRight:-0.141104,0.863653,0.051242,0.481214 FootLeft:0.000000,0.000000,0.000000,0.000000 FootRight:0.000000,0.000000,0.000000,0.000000 HandLeft:-0.063837,0.847267,-0.011080,0.527201 HandRight:-0.130808,0.494014,-0.394165,0.763854 HandTipLeft:0.000000,0.000000,0.000000,0.000000 HandTipRight:0.000000,0.000000,0.000000,0.000000 Head:0.000000,0.000000,0.000000,0.000000 HipLeft:0.109307,-0.672674,0.714908,-0.156423 HipRight:-0.133539,0.686881,0.691850,-0.178061 KneeLeft:-0.000251,-0.695225,0.044362,0.717422 KneeRight:-0.012903,0.718678,0.055835,0.692978 Neck:-0.053591,0.011589,0.995512,-0.077134 ShoulderLeft:0.041862,0.766959,-0.639924,0.022756 ShoulderRight:-0.026938,0.800390,0.589985,-0.102797 SpineBase:-0.016479,0.007848,0.999108,-0.038082 SpineMid:-0.034821,0.008545,0.998637,-0.037932 SpineShoulder:-0.053502,0.011058,0.996933,-0.056042 ThumbLeft:0.000000,0.000000,0.000000,0.000000 ThumbRight:0.000000,0.000000,0.000000,0.000000 WristLeft:-0.062432,0.848861,-0.113870,0.512416 WristRight:-0.126151,0.499531,-0.362082,0.776821 END:
KINECT_DATA POSITION:13.422428,-0.558580,4.702687 HEAD_JOINT1:0.981723,0.180356,-0.000000,0.060758 LARM_JOINT2:0.820649,0.000000,0.006655,-0.571394 LARM_JOINT3:0.976190,0.000000,-0.164126,-0.141828 LLEG_JOINT2:0.999419,0.030482,0.000000,0.015274 LLEG_JOINT4:0.996896,0.077284,0.000000,-0.015026 RARM_JOINT2:0.786529,0.000000,0.223952,0.575515 RARM_JOINT3:0.948846,0.000000,0.309310,0.063391 RLEG_JOINT2:0.997382,0.032341,0.000000,-0.064673 RLEG_JOINT4:0.994137,0.096445,0.000000,0.048881 WAIST:0.999688,-0.000000,0.019119,0.016090 WAIST_JOINT0:0.997309,-0.000000,0.062420,0.038442 WAIST_JOINT1:0.998088,0.061734,0.000000,-0.003002 END:
KINECT_DATA_Sensor  AnkleLeft:-0.064292,-0.672148,0.087397,0.732424 AnkleRight:0.093422,0.742518,0.087718,0.657454 ElbowLeft:-0.028370,0.856147,-0.197964,-0.476463 ElbowRight:-0.158472,0.874117,0.033181,0.457935 FootLeft:0.000000,0.000000,0.000000,0.000000 FootRight:0.000000,0.000000,0.000000,0.000000 HandLeft:-0.054644,0.846803,-0.011182,0.528975 HandRight:-0.152415,0.520192,-0.393186,0.742681 HandTipLeft:0.000000,0.000000,0.000000,0.000000 HandTipRight:0.000000,0.000000,0.000000,0.000000 Head:0.000000,0.000000,0.000000,0.000000 HipLeft:0.107334,-0.672129,0.716010,-0.155089 HipRight:-0.136517,0.687606,0.689999,-0.180174 KneeLeft:-0.000015,-0.692718,0.043510,0.719895 KneeRight:-0.012696,0.721123,0.056821,0.690356 Neck:-0.064215,0.015577,0.994838,-0.077017 ShoulderLeft:0.044899,0.765250,-0.641923,0.017660 ShoulderRight:-0.037853,0.803255,0.583454,-0.113707 SpineBase:-0.019929,0.009768,0.999033,-0.037944 SpineMid:-0.041832,0.010597,0.998356,-0.037721 SpineShoulder:-0.064139,0.014273,0.996270,-0.055929 ThumbLeft:0.000000,0.000000,0.000000,0.000000 ThumbRight:0.000000,0.000000,0.000000,0.000000 WristLeft:-0.059043,0.847289,-0.116223,0.514886 WristRight:-0.133503,0.533781,-0.345027,0.760402 END:
KINECT_DATA POSITION:13.430001,-0.586728,4.684627 HEAD_JOINT1:0.981968,0.179285,-0.000000,0.059965 LARM_JOINT2:0.821116,0.000000,0.004922,-0.570740 LARM_JOINT3:0.974351,0.000000,-0.168790,-0.148829 LLEG_JOINT2:0.999466,0.029330,0.000000,0.014416 LLEG_JOINT4:0.996895,0.077548,0.000000,-0.013647 RARM_JOINT2:0.785460,0.000000,0.229315,0.574863 RARM_JOINT3:0.951343,0.000000,0.302635,0.057951 RLEG_JOINT2:0.997248,0.032285,0.000000,-0.066746 RLEG_JOINT4:0.994048,0.095861,0.000000,0.051756 WAIST:0.999605,-0.000000,0.022523,0.016793 WAIST_JOINT0:0.996978,-0.000000,0.066349,0.040397 WAIST_JOINT1:0.998105,0.061500,0.000000,-0.002040 END:
KINECT_DATA_Sensor  AnkleLeft:-0.063092,-0.670063,0.087344,0.734442 AnkleRight:0.090513,0.720980,0.089723,0.681136 ElbowLeft:-0.028867,0.857758,-0.199649,-0.472820 ElbowRight:-0.160946,0.873085,0.026766,0.459460 FootLeft:0.000000,0.000000,0.000000,0.000000 FootRight:0.000000,0.000000,0.000000,0.000000 HandLeft:-0.082013,0.862548,-0.005512,0.499253 HandRight:-0.124118,0.470809,-0.394788,0.779151 HandTipLeft:0.000000,0.000000,0.000000,0.000000 HandTipRight:0.000000,0.000000,0.000000,0.000000 Head:0.000000,0.000000,0.000000,0.000000 HipLeft:0.104705,-0.672068,0.716923,-0.152917 HipRight:-0.138717,0.687793,0.689127,-0.181115 KneeLeft:0.000615,-0.690265,0.042551,0.722304 KneeRight:-0.013966,0.723469,0.057639,0.687804 Neck:-0.068293,0.016930,0.994566,-0.076736 ShoulderLeft:0.047112,0.764120,-0.643185,0.014631 ShoulderRight:-0.040909,0.804240,0.581272,-0.116821 SpineBase:-0.023307,0.011507,0.998954,-0.037614 SpineMid:-0.045514,0.012341,0.998189,-0.037349 SpineShoulder:-0.068179,0.015800,0.995996,-0.055620 ThumbLeft:0.000000,0.000000,0.000000,0.000000 ThumbRight:0.000000,0.000000,0.000000,0.000000 WristLeft:-0.063776,0.866905,-0.113898,0.481078 WristRight:-0.110700,0.480881,-0.355137,0.793963 END:
KINECT_DATA POSITION:13.367330,-0.573471,4.614222 HEAD_JOINT1:0.981993,0.178731,-0.000000,0.061203 LARM_JOINT2:0.821448,0.000000,0.004292,-0.570268 LARM_JOINT3:0.974006,0.000000,-0.168127,-0.151811 LLEG_JOINT2:0.999461,0.029310,0.000000,0.014792 LLEG_JOINT4:0.996878,0.078172,0.000000,-0.011076 RARM_JOINT2:0.791813,0.000000,0.188112,0.581073 RARM_JOINT3:0.935003,0.000000,0.346834,0.073992 RLEG_JOINT2:0.997247,0.033346,0.000000,-0.066238 RLEG_JOINT4:0.994292,0.093224,0.000000,0.051898 WAIST:0.999578,-0.000000,0.023775,0.016698 WAIST_JOINT0:0.997305,-0.000000,0.062456,0.038489 WAIST_JOINT1:0.998127,0.061136,0.000000,-0.002257 END:
KINECT_DATA_Sensor  AnkleLeft:-0.062037,-0.672593,0.089403,0.731968 AnkleRight:0.090697,0.729919,0.087274,0.671845 ElbowLeft:-0.028677,0.859223,-0.199643,-0.470165 ElbowRight:-0.139846,0.860281,0.046991,0.488008 FootLeft:0.000000,0.000000,0.000000,0.000000 FootRight:0.000000,0.000000,0.000000,0.000000 HandLeft:-0.088984,0.860161,-0.002202,0.502195 HandRight:-0.070439,0.399687,-0.411390,0.816117 HandTipLeft:0.000000,0.000000,0.000000,0.000000 HandTipRight:0.000000,0.000000,0.000000,0.000000 Head:0.000000,0.000000,0.000000,0.000000 HipLeft:0.104117,-0.672160,0.717114,-0.152012 HipRight:-0.139818,0.687524,0.689123,-0.181305 KneeLeft:0.000782,-0.689374,0.042729,0.723144 KneeRight:-0.013016,0.724355,0.058088,0.686852 Neck:-0.064458,0.016031,0.994866,-0.076350 ShoulderLeft:0.047413,0.764220,-0.643035,0.015051 ShoulderRight:-0.035501,0.803142,0.584167,-0.111583 SpineBase:-0.024524,0.011950,0.998936,-0.037181 SpineMid:-0.044201,0.012681,0.998259,-0.036939 SpineShoulder:-0.064330,0.015159,0.996276,-0.055379 ThumbLeft:0.000000,0.000000,0.000000,0.000000 ThumbRight:0.000000,0.000000,0.000000,0.000000 WristLeft:-0.062681,0.866350,-0.113127,0.482401 WristRight:-0.080900,0.397951,-0.384403,0.829050 END:
KINECT_DATA POSITION:13.229735,-0.530186,4.464197 HEAD_JOINT1:0.981668,0.178694,-0.000000,0.066308 LARM_JOINT2:0.822287,0.000000,0.003926,-0.569059 LARM_JOINT3:0.972999,0.000000,-0.173616,-0.152090 LLEG_JOINT2:0.999456,0.029019,0.000000,0.015644 LLEG_JOINT4:0.996738,0.079530,0.000000,-0.013729 RARM_JOINT2:0.800740,0.000000,0.157044,0.578059 RARM_JOINT3:0.914032,0.000000,0.391153,0.107451 RLEG_JOINT2:0.997329,0.034266,0.000000,-0.064506 RLEG_JOINT4:0.994572,0.091127,0.000000,0.050220 WAIST:0.999649,-0.000000,0.020723,0.016525 WAIST_JOINT0:0.997982,-0.000000,0.053133,0.034769 WAIST_JOINT1:0.998104,0.061444,0.000000,-0.003504 END:
KINECT_DATA_Sensor  AnkleLeft:0.069918,0.723285,-0.084359,-0.681802 AnkleRight:0.091334,0.737937,0.084981,0.663239 ElbowLeft:-0.028627,0.862226,-0.199707,-0.464612 ElbowRight:-0.128023,0.857194,0.073056,0.493448 FootLeft:0.000000,0.000000,0.000000,0.000000 FootRight:0.000000,0.000000,0.000000,0.000000 HandLeft:-0.106546,0.858823,-0.012432,0.500915 HandRight:0.008534,0.318463,-0.451855,0.833268 HandTipLeft:0.000000,0.000000,0.000000,0.000000 HandTipRight:0.000000,0.000000,0.000000,0.000000 Head:0.000000,0.000000,0.000000,0.000000 HipLeft:0.105607,-0.671955,0.716801,-0.153361 HipRight:-0.137388,0.687831,0.689765,-0.179546 KneeLeft:0.001554,-0.691580,0.043053,0.721014 KneeRight:-0.011039,0.722295,0.057746,0.689081 Neck:-0.055095,0.014251,0.995422,-0.076785 ShoulderLeft:0.046211,0.764858,-0.642264,0.018825 ShoulderRight:-0.024450,0.800805,0.589793,-0.101287 SpineBase:-0.021495,0.011290,0.999006,-0.037382 SpineMid:-0.038029,0.011907,0.998513,-0.037190 SpineShoulder:-0.054965,0.013599,0.996835,-0.055809 ThumbLeft:0.000000,0.000000,0.000000,0.000000 ThumbRight:0.000000,0.000000,0.000000,0.000000 WristLeft:-0.064036,0.867131,-0.111199,0.481267 WristRight:-0.036080,0.301689,-0.404895,0.862405 END:
KINECT_DATA POSITION:13.211186,-0.499766,4.417312 HEAD_JOINT1:0.981055,0.181341,-0.000000,0.068159 LARM_JOINT2:0.822069,0.000000,0.005650,-0.569360 LARM_JOINT3:0.974543,0.000000,-0.166720,-0.149903 LLEG_JOINT2:0.999461,0.029540,0.000000,0.014316 LLEG_JOINT4:0.996995,0.076556,0.000000,-0.011798 RARM_JOINT2:0.804246,0.000000,0.142770,0.576892 RARM_JOINT3:0.890250,0.000000,0.430330,0.149236 RLEG_JOINT2:0.997239,0.033671,0.000000,-0.066193 RLEG_JOINT4:0.994599,0.090429,0.000000,0.050946 WAIST:0.999633,-0.000000,0.020759,0.017427 WAIST_JOINT0:0.997980,-0.000000,0.053133,0.034836 WAIST_JOINT1:0.998245,0.059130,0.000000,-0.003283 END:
KINECT_DATA_Sensor  AnkleLeft:-0.061516,-0.678033,0.088047,0.727141 AnkleRight:0.090340,0.738017,0.084128,0.663394 ElbowLeft:-0.030662,0.859699,-0.199858,-0.469079 ElbowRight:-0.122793,0.858481,0.082024,0.491125 FootLeft:0.000000,0.000000,0.000000,0.000000 FootRight:0.000000,0.000000,0.000000,0.000000 HandLeft:-0.082107,0.865761,-0.004212,0.493659 HandRight:-0.288509,0.813148,-0.389057,0.322781 HandTipLeft:0.000000,0.000000,0.000000,0.000000 HandTipRight:0.000000,0.000000,0.000000,0.000000 Head:0.000000,0.000000,0.000000,0.000000 HipLeft:0.106611,-0.671329,0.717398,-0.152614 HipRight:-0.138647,0.688524,0.689089,-0.178516 KneeLeft:0.000896,-0.691519,0.043092,0.721071 KneeRight:-0.012034,0.722328,0.057850,0.689022 Neck:-0.054850,0.015313,0.995612,-0.074252 ShoulderLeft:0.044224,0.765202,-0.642031,0.017514 ShoulderRight:-0.026196,0.800988,0.589732,-0.099742 SpineBase:-0.021531,0.012244,0.999050,-0.035855 SpineMid:-0.037912,0.012831,0.998563,-0.035650 SpineShoulder:-0.054694,0.014676,0.996959,-0.053529 ThumbLeft:0.000000,0.000000,0.000000,0.000000 ThumbRight:0.000000,0.000000,0.000000,0.000000 WristLeft:-0.064419,0.870021,-0.114017,0.475304 WristRight:-0.330830,0.819329,-0.288965,0.368443 END:
KINECT_DATA POSITION:13.246534,-0.493340,4.397178 HEAD_JOINT1:0.982368,0.179345,-0.000000,0.052806 LARM_JOINT2:0.815056,0.000000,0.026340,-0.578783 LARM_JOINT3:0.975147,0.000000,-0.174572,-0.136431 LLEG_JOINT2:0.999372,0.033070,0.000000,0.012743 LLEG_JOINT4:0.997626,0.068268,0.000000,-0.009048 RARM_JOINT2:0.814957,0.000000,0.173745,0.552864 RARM_JOINT3:0.871950,0.000000,0.441851,0.210880 RLEG_JOINT2:0.996743,0.036812,0.000000,-0.071752 RLEG_JOINT4:0.994470,0.091593,0.000000,0.051386 WAIST:0.999214,-0.000000,0.033304,0.021485 WAIST_JOINT0:0.995509,-0.000000,0.084968,0.041742 WAIST_JOINT1:0.998457,0.055486,-0.000000,0.002385 END:
KINECT_DATA_Sensor  AnkleLeft:0.064115,0.742012,-0.081284,-0.662345 AnkleRight:0.092429,0.754172,0.087608,0.644210 ElbowLeft:-0.026704,0.823890,-0.202716,-0.528582 ElbowRight:-0.150190,0.895618,0.082438,0.410505 FootLeft:0.000000,0.000000,0.000000,0.000000 FootRight:0.000000,0.000000,0.000000,0.000000 HandLeft:-0.056120,0.858895,-0.014851,0.508850 HandRight:0.170782,0.368272,-0.516202,0.754152 HandTipLeft:0.000000,0.000000,0.000000,0.000000 HandTipRight:0.000000,0.000000,0.000000,0.000000 Head:0.000000,0.000000,0.000000,0.000000 HipLeft:0.100742,-0.669663,0.721263,-0.145542 HipRight:-0.150257,0.689253,0.684340,-0.184479 KneeLeft:-0.000277,-0.682183,0.047073,0.729665 KneeRight:-0.011940,0.731172,0.060772,0.679376 Neck:-0.086487,0.026517,0.993446,-0.069868 ShoulderLeft:0.064466,0.759683,-0.646981,-0.011874 ShoulderRight:-0.046811,0.802232,0.582958,-0.119970 SpineBase:-0.034110,0.017224,0.998711,-0.033422 SpineMid:-0.059986,0.018085,0.997491,-0.032964 SpineShoulder:-0.086296,0.024309,0.994753,-0.049282 ThumbLeft:0.000000,0.000000,0.000000,0.000000 ThumbRight:0.000000,0.000000,0.000000,0.000000 WristLeft:-0.055273,0.859006,-0.132280,0.491483 WristRight:0.048508,0.309929,-0.458817,0.831311 END:
KINECT_DATA POSITION:12.998955,-0.508332,4.123175 HEAD_JOINT1:0.984072,0.175513,-0.000000,0.028242 LARM_JOINT2:0.812458,0.000000,0.054566,-0.580461 LARM_JOINT3:0.972571,0.000000,-0.190935,-0.132851 LLEG_JOINT2:0.999233,0.030485,0.000000,0.024592 LLEG_JOINT4:0.997633,0.066832,0.000000,-0.016202 RARM_JOINT2:0.848534,0.000000,0.278035,0.450207 RARM_JOINT3:0.840237,0.000000,0.439188,0.317987 RLEG_JOINT2:0.997023,0.035544,0.000000,-0.068430 RLEG_JOINT4:0.993301,0.102066,0.000000,0.054181 WAIST:0.997781,-0.000000,0.063175,0.021014 WAIST_JOINT0:0.991452,-0.000000,0.120681,0.049584 WAIST_JOINT1:0.998307,0.056968,-0.000000,0.011779 END:
KINECT_DATA_Sensor  AnkleLeft:-0.050897,-0.639703,0.086264,0.762068 AnkleRight:0.091861,0.718324,0.100398,0.682270 ElbowLeft:-0.010078,0.782070,-0.218218,-0.583649 ElbowRight:-0.251520,0.943274,0.131660,0.172158 FootLeft:0.000000,0.000000,0.000000,0.000000 FootRight:0.000000,0.000000,0.000000,0.000000 HandLeft:-0.023445,0.844878,-0.033553,0.533391 HandRight:-0.172054,-0.485085,0.531270,-0.672936 HandTipLeft:0.000000,0.000000,0.000000,0.000000 HandTipRight:0.000000,0.000000,0.000000,0.000000 Head:0.000000,0.000000,0.000000,0.000000 HipLeft:0.081735,-0.672470,0.723758,-0.131445 HipRight:-0.168133,0.685721,0.680388,-0.196443 KneeLeft:0.008188,-0.660129,0.053450,0.749204 KneeRight:-0.012889,0.751161,0.057106,0.657518 Neck:-0.123207,0.034454,0.989169,-0.071954 ShoulderLeft:0.092268,0.749350,-0.654451,-0.040694 ShoulderRight:-0.066324,0.802280,0.574579,-0.147674 SpineBase:-0.063613,0.025468,0.997095,-0.033263 SpineMid:-0.092934,0.026436,0.994791,-0.032499 SpineShoulder:-0.122953,0.031848,0.990613,-0.050542 ThumbLeft:0.000000,0.000000,0.000000,0.000000 ThumbRight:0.000000,0.000000,0.000000,0.000000 WristLeft:-0.037784,0.840445,-0.147157,0.520163 WristRight:0.126870,0.493903,-0.464025,0.724323 END:
KINECT_DATA POSITION:13.033096,-0.387604,3.927624 HEAD_JOINT1:0.985645,0.168373,-0.000000,0.012436 LARM_JOINT2:0.807966,0.000000,0.071772,-0.584842 LARM_JOINT3:0.969120,0.000000,-0.208792,-0.131194 LLEG_JOINT2:0.999177,0.030264,0.000000,0.027016 LLEG_JOINT4:0.998200,0.058858,0.000000,-0.011513 RARM_JOINT2:0.840905,0.000000,0.270786,0.468565 RARM_JOINT3:0.831187,0.000000,0.446957,0.330694 RLEG_JOINT2:0.996760,0.036033,0.000000,-0.071915 RLEG_JOINT4:0.992641,0.105124,0.000000,0.060104 WAIST:0.995212,-0.000000,0.095175,0.022263 WAIST_JOINT0:0.982643,-0.000000,0.174423,0.063156 WAIST_JOINT1:0.998049,0.057377,-0.000000,0.024612 END:
KINECT_DATA_Sensor  AnkleLeft:-0.040601,-0.607870,0.085448,0.788381 AnkleRight:0.092315,0.733854,0.103958,0.664928 ElbowLeft:-0.000112,0.743688,-0.230356,-0.627586 ElbowRight:-0.237308,0.953383,0.096907,0.159231 FootLeft:0.000000,0.000000,0.000000,0.000000 FootRight:0.000000,0.000000,0.000000,0.000000 HandLeft:-0.010295,0.813538,-0.058057,0.578515 HandRight:0.199657,0.525442,-0.525199,0.638916 HandTipLeft:0.000000,0.000000,0.000000,0.000000 HandTipRight:0.000000,0.000000,0.000000,0.000000 Head:0.000000,0.000000,0.000000,0.000000 HipLeft:0.062580,-0.671032,0.729364,-0.117592 HipRight:-0.193665,0.678189,0.675444,-0.215243 KneeLeft:0.009538,-0.635706,0.055829,0.769850 KneeRight:-0.016668,0.771927,0.057904,0.632849 Neck:-0.176696,0.049273,0.980360,-0.072420 ShoulderLeft:0.124677,0.734326,-0.662628,-0.078390 ShoulderRight:-0.104696,0.796209,0.564326,-0.191382 SpineBase:-0.095352,0.033537,0.994284,-0.034385 SpineMid:-0.135462,0.034899,0.989618,-0.033001 SpineShoulder:-0.176415,0.044862,0.981991,-0.050577 ThumbLeft:0.000000,0.000000,0.000000,0.000000 ThumbRight:0.000000,0.000000,0.000000,0.000000 WristLeft:-0.017007,0.808528,-0.163380,0.565066 WristRight:0.159975,0.531316,-0.495609,0.668194 END:
KINECT_DATA POSITION:13.170701,-0.229578,3.873646 HEAD_JOINT1:0.987607,0.156824,0.000000,-0.006271 LARM_JOINT2:0.804848,0.000000,0.078876,-0.588217 LARM_JOINT3:0.968903,0.000000,-0.210579,-0.129934 LLEG_JOINT2:0.998985,0.032492,0.000000,0.031203 LLEG_JOINT4:0.998659,0.050814,0.000000,-0.009904 RARM_JOINT2:0.827875,0.000000,0.285460,0.482841 RARM_JOINT3:0.837775,0.000000,0.438464,0.325395 RLEG_JOINT2:0.996321,0.040061,0.000000,-0.075755 RLEG_JOINT4:0.991927,0.105801,0.000000,0.069912 WAIST:0.991368,-0.000000,0.129079,0.022982 WAIST_JOINT0:0.973008,-0.000000,0.217075,0.078316 WAIST_JOINT1:0.997720,0.056255,-0.000000,0.037285 END:
KINECT_DATA_Sensor  AnkleLeft:0.048041,0.708612,-0.077813,-0.699648 AnkleRight:0.092434,0.731725,0.109691,0.666335 ElbowLeft:0.007067,0.718543,-0.238868,-0.653137 ElbowRight:-0.235350,0.962087,0.052529,0.127431 FootLeft:0.000000,0.000000,0.000000,0.000000 FootRight:0.000000,0.000000,0.000000,0.000000 HandLeft:0.001437,0.851651,-0.077013,0.518419 HandRight:0.427209,0.292149,-0.400414,0.756181 HandTipLeft:0.000000,0.000000,0.000000,0.000000 HandTipRight:0.000000,0.000000,0.000000,0.000000 Head:0.000000,0.000000,0.000000,0.000000 HipLeft:0.048586,-0.669805,0.732833,-0.109348 HipRight:-0.227119,0.668840,0.666407,-0.238686 KneeLeft:0.009452,-0.608928,0.060777,0.790837 KneeRight:-0.019191,0.793303,0.061804,0.605378 Neck:-0.219946,0.061781,0.970904,-0.071777 ShoulderLeft:0.152066,0.716155,-0.672554,-0.108025 ShoulderRight:-0.135574,0.791278,0.551873,-0.225686 SpineBase:-0.128870,0.042686,0.990121,-0.035072 SpineMid:-0.173736,0.044235,0.983241,-0.033096 SpineShoulder:-0.219583,0.056697,0.972645,-0.050293 ThumbLeft:0.000000,0.000000,0.000000,0.000000 ThumbRight:0.000000,0.000000,0.000000,0.000000 WristLeft:-0.009070,0.843753,-0.167515,0.509841 WristRight:0.355666,0.271545,-0.394059,0.802797 END:
KINECT_DATA POSITION:13.237572,-0.149306,3.881752 HEAD_JOINT1:0.988456,0.150572,0.000000,-0.016803 LARM_JOINT2:0.804781,0.000000,0.091808,-0.586429 LARM_JOINT3:0.965842,0.000000,-0.218088,-0.139953 LLEG_JOINT2:0.998984,0.030944,0.000000,0.032779 LLEG_JOINT4:0.998839,0.047143,0.000000,-0.009934 RARM_JOINT2:0.822773,0.000000,0.288150,0.489913 RARM_JOINT3:0.835967,0.000000,0.443336,0.323438 RLEG_JOINT2:0.995862,0.047748,0.000000,-0.077324 RLEG_JOINT4:0.992508,0.096965,0.000000,0.074336 WAIST:0.987664,-0.000000,0.154554,0.025145 WAIST_JOINT0:0.966112,-0.000000,0.242264,0.089086 WAIST_JOINT1:0.997685,0.054327,-0.000000,0.040893 END:
KINECT_DATA_Sensor  AnkleLeft:0.046225,0.721120,-0.074901,-0.687196 AnkleRight:0.089355,0.729393,0.110409,0.669187 ElbowLeft:0.016323,0.694982,-0.247020,-0.675066 ElbowRight:-0.233300,0.966381,0.032252,0.103146 FootLeft:0.000000,0.000000,0.000000,0.000000 FootRight:0.000000,0.000000,0.000000,0.000000 HandLeft:0.000345,0.865284,-0.064372,0.497132 HandRight:0.404522,0.369660,-0.442002,0.710174 HandTipLeft:0.000000,0.000000,0.000000,0.000000 HandTipRight:0.000000,0.000000,0.000000,0.000000 Head:0.000000,0.000000,0.000000,0.000000 HipLeft:0.036787,-0.668613,0.735825,-0.100823 HipRight:-0.246320,0.664724,0.658680,-0.252210 KneeLeft:0.012008,-0.588292,0.062480,0.806142 KneeRight:-0.016311,0.809254,0.066486,0.583457 Neck:-0.245862,0.066053,0.964481,-0.070465 ShoulderLeft:0.164769,0.706280,-0.677572,-0.122128 ShoulderRight:-0.158080,0.789967,0.537537,-0.249030 SpineBase:-0.154185,0.048765,0.986213,-0.035101 SpineMid:-0.199206,0.050322,0.978114,-0.032830 SpineShoulder:-0.245455,0.061167,0.966219,-0.049307 ThumbLeft:0.000000,0.000000,0.000000,0.000000 ThumbRight:0.000000,0.000000,0.000000,0.000000 WristLeft:-0.006247,0.856774,-0.173859,0.485460 WristRight:0.343419,0.361540,-0.421314,0.757527 END:
KINECT_DATA POSITION:13.295913,-0.075316,3.915131 HEAD_JOINT1:0.989048,0.145673,0.000000,-0.023723 LARM_JOINT2:0.803042,0.000000,0.096596,-0.588041 LARM_JOINT3:0.963344,0.000000,-0.225277,-0.145669 LLEG_JOINT2:0.998991,0.029993,0.000000,0.033425 LLEG_JOINT4:0.999050,0.042684,0.000000,-0.008838 RARM_JOINT2:0.804689,0.000000,0.308432,0.507292 RARM_JOINT3:0.866765,0.000000,0.412500,0.280291 RLEG_JOINT2:0.995687,0.053003,0.000000,-0.076148 RLEG_JOINT4:0.992909,0.092204,0.000000,0.075030 WAIST:0.984833,-0.000000,0.171501,0.026312 WAIST_JOINT0:0.962740,-0.000000,0.253933,0.093003 WAIST_JOINT1:0.997651,0.053209,-0.000000,0.043150 END:
KINECT_DATA_Sensor  AnkleLeft:0.042672,0.726642,-0.073126,-0.681780 AnkleRight:0.089182,0.736625,0.110986,0.661144 ElbowLeft:0.023504,0.685977,-0.247816,-0.683718 ElbowRight:-0.230628,0.968520,-0.009248,0.093245 FootLeft:0.000000,0.000000,0.000000,0.000000 FootRight:0.000000,0.000000,0.000000,0.000000 HandLeft:-0.018504,0.871621,-0.072991,0.484362 HandRight:0.282710,0.539234,-0.524055,0.595540 HandTipLeft:0.000000,0.000000,0.000000,0.000000 HandTipRight:0.000000,0.000000,0.000000,0.000000 Head:0.000000,0.000000,0.000000,0.000000 HipLeft:0.027019,-0.668968,0.736960,-0.092960 HipRight:-0.256694,0.662847,0.653604,-0.259892 KneeLeft:0.013212,-0.574316,0.063181,0.816085 KneeRight:-0.012883,0.819621,0.068677,0.568628 Neck:-0.258045,0.068421,0.961138,-0.070322 ShoulderLeft:0.169248,0.703185,-0.678731,-0.127321 ShoulderRight:-0.170344,0.789303,0.528810,-0.261425 SpineBase:-0.171021,0.052249,0.983257,-0.035045 SpineMid:-0.213666,0.053725,0.974879,-0.032737 SpineShoulder:-0.257637,0.063399,0.962903,-0.049205 ThumbLeft:0.000000,0.000000,0.000000,0.000000 ThumbRight:0.000000,0.000000,0.000000,0.000000 WristLeft:-0.005933,0.865697,-0.171972,0.470063 WristRight:0.206546,0.552424,-0.482702,0.647430 END:
KINECT_DATA POSITION:13.424024,-0.010878,3.989363 HEAD_JOINT1:0.989087,0.144283,0.000000,-0.029808 LARM_JOINT2:0.804947,0.000000,0.091128,-0.586307 LARM_JOINT3:0.963630,0.000000,-0.222845,-0.147505 LLEG_JOINT2:0.998880,0.031698,0.000000,0.035139 LLEG_JOINT4:0.999211,0.038581,0.000000,-0.009381 RARM_JOINT2:0.796541,0.000000,0.321505,0.512013 RARM_JOINT3:0.874129,0.000000,0.412248,0.256808 RLEG_JOINT2:0.995625,0.054410,0.000000,-0.075965 RLEG_JOINT4:0.992693,0.095193,0.000000,0.074158 WAIST:0.981973,-0.000000,0.187070,0.027092 WAIST_JOINT0:0.958901,-0.000000,0.265718,0.099510 WAIST_JOINT1:0.997611,0.052400,-0.000000,0.045013 END:
KINECT_DATA_Sensor  AnkleLeft:0.041471,0.726103,-0.072439,-0.682501 AnkleRight:0.088337,0.741715,0.116419,0.654600 ElbowLeft:0.025312,0.689241,-0.249744,-0.679657 ElbowRight:-0.231889,0.968249,-0.033293,0.087255 FootLeft:0.000000,0.000000,0.000000,0.000000 FootRight:0.000000,0.000000,0.000000,0.000000 HandLeft:0.002098,0.850668,-0.085334,0.518727 HandRight:0.338493,0.480388,-0.508795,0.629108 HandTipLeft:0.000000,0.000000,0.000000,0.000000 HandTipRight:0.000000,0.000000,0.000000,0.000000 Head:0.000000,0.000000,0.000000,0.000000 HipLeft:0.018616,-0.670517,0.736641,-0.086135 HipRight:-0.266689,0.661350,0.647918,-0.267758 KneeLeft:0.012608,-0.561117,0.066014,0.825004 KneeRight:-0.012744,0.828737,0.068677,0.555261 Neck:-0.270098,0.070192,0.957684,-0.070445 ShoulderLeft:0.175485,0.699506,-0.679795,-0.133325 ShoulderRight:-0.180156,0.790027,0.518454,-0.273144 SpineBase:-0.186476,0.055193,0.980290,-0.034812 SpineMid:-0.227361,0.056602,0.971622,-0.032470 SpineShoulder:-0.269708,0.064977,0.959480,-0.049340 ThumbLeft:0.000000,0.000000,0.000000,0.000000 ThumbRight:0.000000,0.000000,0.000000,0.000000 WristLeft:0.002241,0.843624,-0.169881,0.509347 WristRight:0.261790,0.479394,-0.459325,0.700477 END:
KINECT_DATA POSITION:13.548526,0.115263,4.061127 HEAD_JOINT1:0.989497,0.140535,0.000000,-0.033831 LARM_JOINT2:0.807074,0.000000,0.086523,-0.584077 LARM_JOINT3:0.961850,0.000000,-0.224372,-0.156529 LLEG_JOINT2:0.998984,0.030975,0.000000,0.032741 LLEG_JOINT4:0.999205,0.038980,0.000000,-0.008357 RARM_JOINT2:0.790582,0.000000,0.346754,0.504720 RARM_JOINT3:0.879325,0.000000,0.414678,0.234156 RLEG_JOINT2:0.995267,0.057814,0.000000,-0.078115 RLEG_JOINT4:0.993116,0.089774,0.000000,0.075236 WAIST:0.980247,-0.000000,0.195558,0.029555 WAIST_JOINT0:0.957636,-0.000000,0.268986,0.102854 WAIST_JOINT1:0.997539,0.053831,-0.000000,0.044932 END:
KINECT_DATA_Sensor  AnkleLeft:0.041275,0.724850,-0.072351,-0.683853 AnkleRight:0.103883,0.839358,0.099273,0.524243 ElbowLeft:0.027219,0.694916,-0.253246,-0.672471 ElbowRight:-0.244360,0.964959,-0.053712,0.079107 FootLeft:0.000000,0.000000,0.000000,0.000000 FootRight:0.000000,0.000000,0.000000,0.000000 HandLeft:-0.018631,0.838012,-0.098402,0.536382 HandRight:0.361433,0.441646,-0.496059,0.654401 HandTipLeft:0.000000,0.000000,0.000000,0.000000 HandTipRight:0.000000,0.000000,0.000000,0.000000 Head:0.000000,0.000000,0.000000,0.000000 HipLeft:0.010549,-0.670386,0.737553,-0.080544 HipRight:-0.268491,0.662477,0.644606,-0.271146 KneeLeft:0.013215,-0.553933,0.065302,0.829891 KneeRight:-0.011619,0.833815,0.070685,0.547377 Neck:-0.273850,0.071744,0.956347,-0.072526 ShoulderLeft:0.180896,0.696782,-0.680664,-0.135900 ShoulderRight:-0.179312,0.790941,0.515636,-0.276368 SpineBase:-0.194999,0.057420,0.978460,-0.035968 SpineMid:-0.233498,0.058796,0.969994,-0.033672 SpineShoulder:-0.273469,0.066375,0.958224,-0.051144 ThumbLeft:0.000000,0.000000,0.000000,0.000000 ThumbRight:0.000000,0.000000,0.000000,0.000000 WristLeft:0.006158,0.834997,-0.166855,0.524310 WristRight:0.296108,0.441869,-0.455513,0.713849 END:
KINECT_DATA POSITION:13.666797,0.192986,4.198587 HEAD_JOINT1:0.989647,0.139313,0.000000,-0.034494 LARM_JOINT2:0.807065,0.000000,0.084249,-0.584422 LARM_JOINT3:0.962223,0.000000,-0.221931,-0.157715 LLEG_JOINT2:0.999033,0.030473,0.000000,0.031686 LLEG_JOINT4:0.999081,0.042112,0.000000,-0.007938 RARM_JOINT2:0.788515,0.000000,0.358257,0.499895 RARM_JOINT3:0.888843,0.000000,0.400643,0.222357 RLEG_JOINT2:0.995052,0.060055,0.000000,-0.079157 RLEG_JOINT4:0.992300,0.093915,0.000000,0.080757 WAIST:0.979529,-0.000000,0.198976,0.030520 WAIST_JOINT0:0.958966,-0.000000,0.264272,0.102684 WAIST_JOINT1:0.997520,0.054070,-0.000000,0.045049 END:
KINECT_DATA_Sensor  AnkleLeft:0.042871,0.715240,-0.073711,-0.693657 AnkleRight:0.093332,0.743320,0.118259,0.651751 ElbowLeft:0.028090,0.698179,-0.253148,-0.669083 ElbowRight:-0.251081,0.962857,-0.062557,0.077146 FootLeft:0.000000,0.000000,0.000000,0.000000 FootRight:0.000000,0.000000,0.000000,0.000000 HandLeft:-0.017364,0.852810,-0.099403,0.512379 HandRight:0.334895,0.457514,-0.477229,0.671401 HandTipLeft:0.000000,0.000000,0.000000,0.000000 HandTipRight:0.000000,0.000000,0.000000,0.000000 Head:0.000000,0.000000,0.000000,0.000000 HipLeft:0.005649,-0.670731,0.737635,-0.077345 HipRight:-0.267760,0.663581,0.643583,-0.271600 KneeLeft:0.013576,-0.551069,0.064801,0.831829 KneeRight:-0.010856,0.835893,0.072336,0.543997 Neck:-0.269584,0.071945,0.957482,-0.073321 ShoulderLeft:0.183250,0.695005,-0.681810,-0.136101 ShoulderRight:-0.170579,0.792213,0.519864,-0.270263 SpineBase:-0.198395,0.058857,0.977660,-0.036839 SpineMid:-0.233110,0.060132,0.969968,-0.034718 SpineShoulder:-0.269173,0.066817,0.959362,-0.052016 ThumbLeft:0.000000,0.000000,0.000000,0.000000 ThumbRight:0.000000,0.000000,0.000000,0.000000 WristLeft:0.001475,0.849022,-0.164606,0.502059 WristRight:0.289239,0.450834,-0.463795,0.705680 END:
KINECT_DATA POSITION:13.699216,0.187988,4.316866 HEAD_JOINT1:0.989393,0.141370,0.000000,-0.033416 LARM_JOINT2:0.806220,0.000000,0.082561,-0.585827 LARM_JOINT3:0.961826,0.000000,-0.225322,-0.155305 LLEG_JOINT2:0.998930,0.032542,0.000000,0.032866 LLEG_JOINT4:0.999132,0.040688,0.000000,-0.008880 RARM_JOINT2:0.790710,0.000000,0.358980,0.495895 RARM_JOINT3:0.895130,0.000000,0.393006,0.210448 RLEG_JOINT2:0.995075,0.060440,0.000000,-0.078566 RLEG_JOINT4:0.992148,0.093440,0.000000,0.083136 WAIST:0.979808,-0.000000,0.197653,0.030172 WAIST_JOINT0:0.959927,-0.000000,0.261210,0.101534 WAIST_JOINT1:0.997502,0.054235,-0.000000,0.045257 END:
KINECT_DATA_Sensor  AnkleLeft:0.043590,0.716909,-0.073901,-0.691867 AnkleRight:0.095210,0.738667,0.117503,0.656886 ElbowLeft:0.027054,0.699183,-0.251353,-0.668755 ElbowRight:-0.254246,0.961946,-0.059853,0.080230 FootLeft:0.000000,0.000000,0.000000,0.000000 FootRight:0.000000,0.000000,0.000000,0.000000 HandLeft:-0.024391,0.846947,-0.116363,0.518214 HandRight:0.259915,0.517288,-0.508444,0.637449 HandTipLeft:0.000000,0.000000,0.000000,0.000000 HandTipRight:0.000000,0.000000,0.000000,0.000000 Head:0.000000,0.000000,0.000000,0.000000 HipLeft:0.005519,-0.671006,0.737312,-0.078055 HipRight:-0.266289,0.663878,0.644303,-0.270611 KneeLeft:0.012314,-0.552086,0.066689,0.831025 KneeRight:-0.010266,0.835158,0.072615,0.545099 Neck:-0.266684,0.071659,0.958299,-0.073538 ShoulderLeft:0.183569,0.695103,-0.681669,-0.135870 ShoulderRight:-0.165941,0.792928,0.522167,-0.266589 SpineBase:-0.197024,0.059127,0.977899,-0.037392 SpineMid:-0.230984,0.060394,0.970439,-0.035309 SpineShoulder:-0.266261,0.066675,0.960168,-0.052311 ThumbLeft:0.000000,0.000000,0.000000,0.000000 ThumbRight:0.000000,0.000000,0.000000,0.000000 WristLeft:0.001540,0.844979,-0.164401,0.508902 WristRight:0.227045,0.521775,-0.488338,0.661610 END:
KINECT_DATA POSITION:13.715583,0.172649,4.367673 HEAD_JOINT1:0.988913,0.145316,0.000000,-0.030570 LARM_JOINT2:0.804124,0.000000,0.083615,-0.588552 LARM_JOINT3:0.961058,0.000000,-0.231952,-0.150217 LLEG_JOINT2:0.998858,0.033606,0.000000,0.033969 LLEG_JOINT4:0.999169,0.039311,0.000000,-0.010731 RARM_JOINT2:0.809270,0.000000,0.339534,0.479374 RARM_JOINT3:0.880087,0.000000,0.416163,0.228596 RLEG_JOINT2:0.995112,0.060596,0.000000,-0.077975 RLEG_JOINT4:0.992197,0.096121,0.000000,0.079406 WAIST:0.980459,-0.000000,0.194471,0.029685 WAIST_JOINT0:0.961375,-0.000000,0.257085,0.098314 WAIST_JOINT1:0.997515,0.054160,-0.000000,0.045056 END:
KINECT_DATA_Sensor  AnkleLeft:0.043347,0.716160,-0.073068,-0.692746 AnkleRight:0.095400,0.745525,0.120150,0.648580 ElbowLeft:0.025015,0.692623,-0.248275,-0.676763 ElbowRight:-0.261059,0.961518,-0.026148,0.081537 FootLeft:0.000000,0.000000,0.000000,0.000000 FootRight:0.000000,0.000000,0.000000,0.000000 HandLeft:-0.029675,0.820482,-0.131087,0.555647 HandRight:0.351846,0.342658,-0.444239,0.749294 HandTipLeft:0.000000,0.000000,0.000000,0.000000 HandTipRight:0.000000,0.000000,0.000000,0.000000 Head:0.000000,0.000000,0.000000,0.000000 HipLeft:0.008472,-0.671275,0.736743,-0.080791 HipRight:-0.265137,0.664289,0.644947,-0.269194 KneeLeft:0.011846,-0.554712,0.067880,0.829184 KneeRight:-0.009723,0.833378,0.072860,0.547794 Neck:-0.262489,0.070895,0.959524,-0.073395 ShoulderLeft:0.175892,0.699722,-0.680198,-0.129543 ShoulderRight:-0.168660,0.792940,0.521491,-0.266172 SpineBase:-0.193824,0.059046,0.978552,-0.037178 SpineMid:-0.227253,0.060286,0.971333,-0.035133 SpineShoulder:-0.262039,0.066203,0.961367,-0.052208 ThumbLeft:0.000000,0.000000,0.000000,0.000000 ThumbRight:0.000000,0.000000,0.000000,0.000000 WristLeft:0.008253,0.820914,-0.167851,0.545764 WristRight:0.343786,0.352352,-0.423390,0.760526 END:
KINECT_DATA POSITION:13.698885,0.170686,4.377687 HEAD_JOINT1:0.988770,0.147353,0.000000,-0.024920 LARM_JOINT2:0.805370,0.000000,0.080652,-0.587261 LARM_JOINT3:0.960400,0.000000,-0.232947,-0.152862 LLEG_JOINT2:0.998860,0.032544,0.000000,0.034911 LLEG_JOINT4:0.999063,0.042293,0.000000,-0.009140 RARM_JOINT2:0.801224,0.000000,0.353310,0.482920 RARM_JOINT3:0.896704,0.000000,0.396931,0.195877 RLEG_JOINT2:0.995141,0.061496,0.000000,-0.076892 RLEG_JOINT4:0.992326,0.094957,0.000000,0.079204 WAIST:0.981128,-0.000000,0.191200,0.028809 WAIST_JOINT0:0.963687,-0.000000,0.249592,0.094923 WAIST_JOINT1:0.997677,0.052382,-0.000000,0.043552 END:
KINECT_DATA_Sensor  AnkleLeft:0.044504,0.718173,-0.075583,-0.690315 AnkleRight:0.098232,0.756377,0.117849,0.635890 ElbowLeft:0.019939,0.693213,-0.246794,-0.676868 ElbowRight:-0.265016,0.958507,-0.042894,0.095871 FootLeft:0.000000,0.000000,0.000000,0.000000 FootRight:0.000000,0.000000,0.000000,0.000000 HandLeft:-0.051828,0.840391,-0.122727,0.525353 HandRight:0.406530,0.220427,-0.401641,0.790462 HandTipLeft:0.000000,0.000000,0.000000,0.000000 HandTipRight:0.000000,0.000000,0.000000,0.000000 Head:0.000000,0.000000,0.000000,0.000000 HipLeft:0.010504,-0.671863,0.736107,-0.081461 HipRight:-0.262941,0.664806,0.646361,-0.266669 KneeLeft:0.012788,-0.557555,0.067480,0.827294 KneeRight:-0.008612,0.831562,0.073716,0.550451 Neck:-0.254737,0.068164,0.961968,-0.071275 ShoulderLeft:0.170318,0.702356,-0.679619,-0.125724 ShoulderRight:-0.163808,0.793483,0.526068,-0.258467 SpineBase:-0.190547,0.058296,0.979269,-0.036420 SpineMid:-0.221751,0.059431,0.972678,-0.034538 SpineShoulder:-0.254246,0.064173,0.963679,-0.050635 ThumbLeft:0.000000,0.000000,0.000000,0.000000 ThumbRight:0.000000,0.000000,0.000000,0.000000 WristLeft:-0.001795,0.841989,-0.172299,0.511238 WristRight:0.372075,0.221653,-0.376547,0.818928 END:
KINECT_DATA POSITION:13.657800,0.178646,4.334211 HEAD_JOINT1:0.989191,0.145590,0.000000,-0.017461 LARM_JOINT2:0.807168,0.000000,0.075439,-0.585482 LARM_JOINT3:0.960217,0.000000,-0.231890,-0.155599 LLEG_JOINT2:0.998877,0.031859,0.000000,0.035070 LLEG_JOINT4:0.998948,0.044640,0.000000,-0.010451 RARM_JOINT2:0.780363,0.000000,0.387395,0.490876 RARM_JOINT3:0.916394,0.000000,0.365137,0.164006 RLEG_JOINT2:0.995134,0.061467,0.000000,-0.077004 RLEG_JOINT4:0.992700,0.092687,0.000000,0.077180 WAIST:0.982152,-0.000000,0.185931,0.028396 WAIST_JOINT0:0.964253,-0.000000,0.247580,0.094446 WAIST_JOINT1:0.997876,0.050384,-0.000000,0.041299 END:
KINECT_DATA_Sensor  AnkleLeft:0.045708,0.715260,-0.075534,-0.693259 AnkleRight:0.096332,0.756980,0.116181,0.635770 ElbowLeft:0.014048,0.700235,-0.244980,-0.670417 ElbowRight:-0.271518,0.953930,-0.079394,0.099960 FootLeft:0.000000,0.000000,0.000000,0.000000 FootRight:0.000000,0.000000,0.000000,0.000000 HandLeft:-0.049491,0.829937,-0.109824,0.544697 HandRight:0.387797,0.254392,-0.418500,0.780869 HandTipLeft:0.000000,0.000000,0.000000,0.000000 HandTipRight:0.000000,0.000000,0.000000,0.000000 Head:0.000000,0.000000,0.000000,0.000000 HipLeft:0.014103,-0.672283,0.735624,-0.081815 HipRight:-0.259559,0.666338,0.647850,-0.262514 KneeLeft:0.013413,-0.561955,0.066975,0.824343 KneeRight:-0.008499,0.828589,0.074203,0.554853 Neck:-0.252362,0.066201,0.962921,-0.068663 ShoulderLeft:0.165542,0.703524,-0.679932,-0.123866 ShoulderRight:-0.165807,0.793752,0.526085,-0.256319 SpineBase:-0.185360,0.057070,0.980406,-0.034482 SpineMid:-0.217940,0.058188,0.973682,-0.032560 SpineShoulder:-0.251875,0.062253,0.964561,-0.048020 ThumbLeft:0.000000,0.000000,0.000000,0.000000 ThumbRight:0.000000,0.000000,0.000000,0.000000 WristLeft:-0.008230,0.830256,-0.176710,0.528565 WristRight:0.338573,0.246345,-0.398531,0.816000 END:
KINECT_DATA POSITION:13.615549,0.247854,4.239714 HEAD_JOINT1:0.989284,0.145705,0.000000,-0.009313 LARM_JOINT2:0.808202,0.000000,0.077637,-0.583765 LARM_JOINT3:0.963386,0.000000,-0.220030,-0.153215 LLEG_JOINT2:0.998885,0.030646,0.000000,0.035897 LLEG_JOINT4:0.998765,0.048185,0.000000,-0.012105 RARM_JOINT2:0.770457,0.000000,0.414821,0.484065 RARM_JOINT3:0.931826,0.000000,0.340414,0.125775 RLEG_JOINT2:0.995224,0.061780,0.000000,-0.075586 RLEG_JOINT4:0.993401,0.087153,0.000000,0.074563 WAIST:0.982429,-0.000000,0.184538,0.027897 WAIST_JOINT0:0.963699,-0.000000,0.249598,0.094786 WAIST_JOINT1:0.998059,0.048224,-0.000000,0.039413 END:
KINECT_DATA_Sensor  AnkleLeft:0.048402,0.716296,-0.075299,-0.692031 AnkleRight:0.090858,0.747313,0.113846,0.648311 ElbowLeft:0.015015,0.704497,-0.244366,-0.666141 ElbowRight:-0.285690,0.947174,-0.101444,0.104647 FootLeft:0.000000,0.000000,0.000000,0.000000 FootRight:0.000000,0.000000,0.000000,0.000000 HandLeft:0.006098,0.848271,-0.065231,0.525494 HandRight:0.318252,0.287461,-0.458993,0.778079 HandTipLeft:0.000000,0.000000,0.000000,0.000000 HandTipRight:0.000000,0.000000,0.000000,0.000000 Head:0.000000,0.000000,0.000000,0.000000 HipLeft:0.017408,-0.673078,0.734931,-0.080871 HipRight:-0.259897,0.666730,0.647815,-0.261266 KneeLeft:0.014601,-0.563086,0.066631,0.823579 KneeRight:-0.007370,0.827819,0.074046,0.556038 Neck:-0.254306,0.064496,0.962701,-0.066145 ShoulderLeft:0.158247,0.705714,-0.680080,-0.120072 ShoulderRight:-0.177042,0.793706,0.519848,-0.261621 SpineBase:-0.184062,0.055275,0.980843,-0.031830 SpineMid:-0.218220,0.056353,0.973813,-0.029879 SpineShoulder:-0.253850,0.060353,0.964291,-0.045400 ThumbLeft:0.000000,0.000000,0.000000,0.000000 ThumbRight:0.000000,0.000000,0.000000,0.000000 WristLeft:-0.016179,0.838449,-0.175278,0.515771 WristRight:0.298364,0.293142,-0.432206,0.798902 END:
KINECT_DATA POSITION:13.625768,0.316556,4.164839 HEAD_JOINT1:0.989182,0.146513,0.000000,-0.007202 LARM_JOINT2:0.808380,0.000000,0.076711,-0.583641 LARM_JOINT3:0.963874,0.000000,-0.215885,-0.156014 LLEG_JOINT2:0.998871,0.029196,0.000000,0.037467 LLEG_JOINT4:0.998818,0.046739,0.000000,-0.013312 RARM_JOINT2:0.773774,0.000000,0.424249,0.470410 RARM_JOINT3:0.940379,0.000000,0.320633,0.113497 RLEG_JOINT2:0.995248,0.062766,0.000000,-0.074448 RLEG_JOINT4:0.993388,0.085815,0.000000,0.076262 WAIST:0.982098,-0.000000,0.186477,0.026662 WAIST_JOINT0:0.962450,-0.000000,0.254124,0.095448 WAIST_JOINT1:0.998112,0.046952,-0.000000,0.039607 END:
KINECT_DATA_Sensor  AnkleLeft:0.047547,0.726339,-0.072627,-0.681833 AnkleRight:0.091873,0.747919,0.113180,0.647586 ElbowLeft:0.015232,0.706691,-0.242935,-0.664333 ElbowRight:-0.299749,0.943025,-0.101119,0.103096 FootLeft:0.000000,0.000000,0.000000,0.000000 FootRight:0.000000,0.000000,0.000000,0.000000 HandLeft:-0.005728,0.844084,-0.054184,0.533436 HandRight:0.265769,0.320527,-0.464636,0.781500 HandTipLeft:0.000000,0.000000,0.000000,0.000000 HandTipRight:0.000000,0.000000,0.000000,0.000000 Head:0.000000,0.000000,0.000000,0.000000 HipLeft:0.017545,-0.674117,0.734202,-0.078779 HipRight:-0.261762,0.665708,0.647918,-0.261755 KneeLeft:0.015719,-0.561528,0.066232,0.824653 KneeRight:-0.006910,0.828920,0.075035,0.554268 Neck:-0.258770,0.063785,0.961643,-0.064899 ShoulderLeft:0.158900,0.705076,-0.680210,-0.122197 ShoulderRight:-0.182772,0.792706,0.517265,-0.265796 SpineBase:-0.185985,0.054128,0.980588,-0.030444 SpineMid:-0.221404,0.055196,0.973203,-0.028462 SpineShoulder:-0.258343,0.059454,0.963211,-0.044145 ThumbLeft:0.000000,0.000000,0.000000,0.000000 ThumbRight:0.000000,0.000000,0.000000,0.000000 WristLeft:-0.013733,0.837024,-0.172398,0.519116 WristRight:0.261870,0.326424,-0.449361,0.789269 END:
KINECT_DATA POSITION:13.612196,0.366548,4.078352 HEAD_JOINT1:0.988643,0.150211,0.000000,-0.004685 LARM_JOINT2:0.808976,0.000000,0.073272,-0.583257 LARM_JOINT3:0.964035,0.000000,-0.214931,-0.156338 LLEG_JOINT2:0.998841,0.026961,0.000000,0.039861 LLEG_JOINT4:0.998653,0.049911,0.000000,-0.014201 RARM_JOINT2:0.775274,0.000000,0.450471,0.442749 RARM_JOINT3:0.945134,0.000000,0.299856,0.129645 RLEG_JOINT2:0.995341,0.062787,0.000000,-0.073172 RLEG_JOINT4:0.993491,0.083728,0.000000,0.077236 WAIST:0.981591,-0.000000,0.189383,0.024759 WAIST_JOINT0:0.959781,-0.000000,0.263178,0.097765 WAIST_JOINT1:0.998141,0.045855,-0.000000,0.040138 END:
KINECT_DATA_Sensor  AnkleLeft:0.047918,0.713666,-0.073311,-0.694989 AnkleRight:0.091279,0.751314,0.111505,0.644020 ElbowLeft:0.014883,0.711154,-0.241148,-0.660216 ElbowRight:-0.334407,0.937946,-0.085660,0.033029 FootLeft:0.000000,0.000000,0.000000,0.000000 FootRight:0.000000,0.000000,0.000000,0.000000 HandLeft:-0.004541,0.837149,-0.063398,0.543270 HandRight:0.265870,0.319543,-0.461012,0.784011 HandTipLeft:0.000000,0.000000,0.000000,0.000000 HandTipRight:0.000000,0.000000,0.000000,0.000000 Head:0.000000,0.000000,0.000000,0.000000 HipLeft:0.017438,-0.675640,0.732955,-0.077350 HipRight:-0.264086,0.664002,0.648164,-0.263140 KneeLeft:0.017421,-0.559247,0.065614,0.826217 KneeRight:-0.007451,0.830471,0.075606,0.551856 Neck:-0.267475,0.062739,0.959413,-0.063627 ShoulderLeft:0.161645,0.703043,-0.681032,-0.125683 ShoulderRight:-0.192720,0.790037,0.513301,-0.274268 SpineBase:-0.188828,0.052851,0.980138,-0.029673 SpineMid:-0.227139,0.053974,0.971974,-0.027576 SpineShoulder:-0.267084,0.058355,0.960942,-0.043029 ThumbLeft:0.000000,0.000000,0.000000,0.000000 ThumbRight:0.000000,0.000000,0.000000,0.000000 WristLeft:-0.013744,0.830031,-0.170395,0.530872 WristRight:0.266901,0.335500,-0.428856,0.795164 END:
KINECT_DATA POSITION:13.601424,0.389586,4.061353 HEAD_JOINT1:0.988673,0.150008,0.000000,-0.004840 LARM_JOINT2:0.809726,0.000000,0.074039,-0.582119 LARM_JOINT3:0.963289,0.000000,-0.212797,-0.163683 LLEG_JOINT2:0.998852,0.025655,0.000000,0.040455 LLEG_JOINT4:0.998555,0.052029,0.000000,-0.013453 RARM_JOINT2:0.775338,0.000000,0.460288,0.432419 RARM_JOINT3:0.944240,0.000000,0.301638,0.132001 RLEG_JOINT2:0.995296,0.063512,0.000000,-0.073152 RLEG_JOINT4:0.993436,0.084180,0.000000,0.077458 WAIST:0.981002,-0.000000,0.192423,0.024657 WAIST_JOINT0:0.957687,-0.000000,0.270250,0.098996 WAIST_JOINT1:0.998125,0.045919,-0.000000,0.040469 END:
KINECT_DATA_Sensor  AnkleLeft:-0.031322,-0.545828,0.083196,0.833168 AnkleRight:0.091167,0.750883,0.113029,0.644273 ElbowLeft:0.020486,0.721574,-0.242361,-0.648207 ElbowRight:-0.345316,0.934541,-0.084507,0.015735 FootLeft:0.000000,0.000000,0.000000,0.000000 FootRight:0.000000,0.000000,0.000000,0.000000 HandLeft:0.015951,0.848100,-0.055466,0.526684 HandRight:0.252215,0.372556,-0.484979,0.749923 HandTipLeft:0.000000,0.000000,0.000000,0.000000 HandTipRight:0.000000,0.000000,0.000000,0.000000 Head:0.000000,0.000000,0.000000,0.000000 HipLeft:0.016072,-0.675717,0.733051,-0.076049 HipRight:-0.265808,0.663221,0.647598,-0.264767 KneeLeft:0.018613,-0.556751,0.065310,0.827899 KneeRight:-0.007379,0.832202,0.076191,0.549163 Neck:-0.274379,0.063127,0.957422,-0.063830 ShoulderLeft:0.161286,0.702473,-0.681762,-0.125376 ShoulderRight:-0.204115,0.787091,0.508567,-0.283169 SpineBase:-0.191858,0.052731,0.979554,-0.029717 SpineMid:-0.232054,0.053911,0.970818,-0.027520 SpineShoulder:-0.274005,0.058577,0.958982,-0.042927 ThumbLeft:0.000000,0.000000,0.000000,0.000000 ThumbRight:0.000000,0.000000,0.000000,0.000000 WristLeft:-0.023007,0.837476,-0.163347,0.520981 WristRight:0.239795,0.388133,-0.443281,0.771591 END:
KINECT_DATA POSITION:13.588733,0.402933,4.053330 HEAD_JOINT1:0.988643,0.150171,0.000000,-0.005847 LARM_JOINT2:0.809609,0.000000,0.073656,-0.582330 LARM_JOINT3:0.963509,0.000000,-0.211390,-0.164208 LLEG_JOINT2:0.998829,0.024799,0.000000,0.041536 LLEG_JOINT4:0.998532,0.052393,0.000000,-0.013706 RARM_JOINT2:0.776577,0.000000,0.460794,0.429647 RARM_JOINT3:0.948044,0.000000,0.287259,0.136731 RLEG_JOINT2:0.995331,0.063467,0.000000,-0.072715 RLEG_JOINT4:0.993572,0.082520,0.000000,0.077496 WAIST:0.980568,-0.000000,0.194714,0.023935 WAIST_JOINT0:0.957307,-0.000000,0.271357,0.099642 WAIST_JOINT1:0.998092,0.046054,-0.000000,0.041115 END:
KINECT_DATA_Sensor  AnkleLeft:0.048541,0.713504,-0.074151,-0.695023 AnkleRight:0.090233,0.754236,0.111690,0.640711 ElbowLeft:0.022094,0.723005,-0.241930,-0.646719 ElbowRight:-0.347324,0.933993,-0.082972,0.011797 FootLeft:0.000000,0.000000,0.000000,0.000000 FootRight:0.000000,0.000000,0.000000,0.000000 HandLeft:0.026162,0.846745,-0.053003,0.528705 HandRight:0.308738,0.230866,-0.406226,0.828470 HandTipLeft:0.000000,0.000000,0.000000,0.000000 HandTipRight:0.000000,0.000000,0.000000,0.000000 Head:0.000000,0.000000,0.000000,0.000000 HipLeft:0.015254,-0.676254,0.732639,-0.075421 HipRight:-0.267429,0.662177,0.647415,-0.266190 KneeLeft:0.019300,-0.554891,0.065227,0.829138 KneeRight:-0.007766,0.833447,0.076363,0.547242 Neck:-0.275621,0.062899,0.957041,-0.064413 ShoulderLeft:0.161755,0.701646,-0.682634,-0.124659 ShoulderRight:-0.205931,0.786249,0.508099,-0.285027 SpineBase:-0.194105,0.052481,0.979121,-0.029847 SpineMid:-0.233810,0.053653,0.970406,-0.027685 SpineShoulder:-0.275257,0.058311,0.958624,-0.043281 ThumbLeft:0.000000,0.000000,0.000000,0.000000 ThumbRight:0.000000,0.000000,0.000000,0.000000 WristLeft:-0.023175,0.835068,-0.161527,0.525389 WristRight:0.318306,0.241386,-0.390918,0.829214 END:
KINECT_DATA POSITION:13.612485,0.345654,4.042041 HEAD_JOINT1:0.988002,0.154102,0.000000,-0.010251 LARM_JOINT2:0.807544,0.000000,0.069770,-0.585666 LARM_JOINT3:0.962498,0.000000,-0.216200,-0.163876 LLEG_JOINT2:0.998846,0.024364,0.000000,0.041386 LLEG_JOINT4:0.998619,0.051172,0.000000,-0.011937 RARM_JOINT2:0.794389,0.000000,0.410159,0.448013 RARM_JOINT3:0.933247,0.000000,0.330608,0.140532 RLEG_JOINT2:0.995409,0.061218,0.000000,-0.073578 RLEG_JOINT4:0.993168,0.085211,0.000000,0.079724 WAIST:0.980961,-0.000000,0.192841,0.022987 WAIST_JOINT0:0.959171,-0.000000,0.264591,0.099909 WAIST_JOINT1:0.998058,0.046203,-0.000000,0.041785 END:
KINECT_DATA_Sensor  AnkleLeft:0.047012,0.716807,-0.074256,-0.691710 AnkleRight:0.090241,0.747323,0.112624,0.648599 ElbowLeft:0.017043,0.716967,-0.237735,-0.655096 ElbowRight:-0.315479,0.941617,-0.069721,0.094705 FootLeft:0.000000,0.000000,0.000000,0.000000 FootRight:0.000000,0.000000,0.000000,0.000000 HandLeft:-0.041537,0.834113,-0.073036,0.545156 HandRight:0.501912,-0.311677,-0.114417,0.798655 HandTipLeft:0.000000,0.000000,0.000000,0.000000 HandTipRight:0.000000,0.000000,0.000000,0.000000 Head:0.000000,0.000000,0.000000,0.000000 HipLeft:0.016478,-0.677252,0.731544,-0.076823 HipRight:-0.266653,0.662181,0.648001,-0.265530 KneeLeft:0.019000,-0.556566,0.064186,0.828102 KneeRight:-0.010245,0.832245,0.075709,0.549118 Neck:-0.269244,0.062341,0.958858,-0.064914 ShoulderLeft:0.162765,0.701676,-0.682369,-0.124626 ShoulderRight:-0.194497,0.790144,0.510925,-0.277127 SpineBase:-0.192184,0.052227,0.979510,-0.029957 SpineMid:-0.229720,0.053341,0.971393,-0.027926 SpineShoulder:-0.268864,0.057924,0.960437,-0.043795 ThumbLeft:0.000000,0.000000,0.000000,0.000000 ThumbRight:0.000000,0.000000,0.000000,0.000000 WristLeft:-0.017657,0.832773,-0.164884,0.528196 WristRight:0.496765,-0.325396,-0.139622,0.792369 END:
KINECT_DATA POSITION:13.628295,0.288157,4.014695 HEAD_JOINT1:0.987539,0.157075,0.000000,-0.009698 LARM_JOINT2:0.807146,0.000000,0.065706,-0.586684 LARM_JOINT3:0.961483,0.000000,-0.223311,-0.160256 LLEG_JOINT2:0.998993,0.023555,0.000000,0.038193 LLEG_JOINT4:0.998436,0.055362,0.000000,-0.007766 RARM_JOINT2:0.816427,0.000000,0.375788,0.438441 RARM_JOINT3:0.904610,0.000000,0.387396,0.177779 RLEG_JOINT2:0.995400,0.060748,0.000000,-0.074085 RLEG_JOINT4:0.993446,0.083782,0.000000,0.077754 WAIST:0.982589,-0.000000,0.184281,0.023674 WAIST_JOINT0:0.965567,-0.000000,0.243811,0.090754 WAIST_JOINT1:0.998066,0.047375,-0.000000,0.040247 END:
KINECT_DATA_Sensor  AnkleLeft:0.048402,0.717796,-0.077842,-0.690193 AnkleRight:0.089688,0.747240,0.110353,0.649161 ElbowLeft:0.014154,0.725042,-0.235692,-0.646964 ElbowRight:-0.313700,0.944126,-0.022105,0.098642 FootLeft:0.000000,0.000000,0.000000,0.000000 FootRight:0.000000,0.000000,0.000000,0.000000 HandLeft:-0.056891,0.842400,-0.117143,0.522880 HandRight:0.290285,0.332458,-0.459240,0.770912 HandTipLeft:0.000000,0.000000,0.000000,0.000000 HandTipRight:0.000000,0.000000,0.000000,0.000000 Head:0.000000,0.000000,0.000000,0.000000 HipLeft:0.019507,-0.677546,0.730840,-0.080151 HipRight:-0.259824,0.665168,0.649452,-0.261257 KneeLeft:0.018774,-0.563864,0.061555,0.823356 KneeRight:-0.009661,0.827373,0.075348,0.556492 Neck:-0.247523,0.060748,0.964697,-0.066340 ShoulderLeft:0.153118,0.710381,-0.677138,-0.115745 ShoulderRight:-0.172918,0.792745,0.525337,-0.256273 SpineBase:-0.183700,0.051638,0.981152,-0.030478 SpineMid:-0.214739,0.052579,0.974829,-0.028825 SpineShoulder:-0.247091,0.056816,0.966267,-0.045238 ThumbLeft:0.000000,0.000000,0.000000,0.000000 ThumbRight:0.000000,0.000000,0.000000,0.000000 WristLeft:-0.024997,0.842825,-0.162790,0.512368 WristRight:0.279708,0.332987,-0.450538,0.779679 END:
KINECT_DATA POSITION:13.642681,0.315822,3.984833 HEAD_JOINT1:0.987265,0.158922,0.000000,-0.007189 LARM_JOINT2:0.808806,0.000000,0.058626,-0.585146 LARM_JOINT3:0.963547,0.000000,-0.214182,-0.160326 LLEG_JOINT2:0.999094,0.022432,0.000000,0.036175 LLEG_JOINT4:0.998286,0.058076,0.000000,-0.007230 RARM_JOINT2:0.791094,0.000000,0.415716,0.448721 RARM_JOINT3:0.919575,0.000000,0.368388,0.136649 RLEG_JOINT2:0.995330,0.059940,0.000000,-0.075671 RLEG_JOINT4:0.993105,0.086476,0.000000,0.079150 WAIST:0.983072,-0.000000,0.181551,0.024653 WAIST_JOINT0:0.965827,-0.000000,0.243392,0.089103 WAIST_JOINT1:0.998105,0.047847,-0.000000,0.038686 END:
KINECT_DATA_Sensor  AnkleLeft:0.049945,0.721333,-0.077940,-0.686374 AnkleRight:0.092285,0.749538,0.110645,0.646091 ElbowLeft:0.009500,0.731897,-0.235798,-0.639246 ElbowRight:-0.316185,0.940192,-0.070809,0.105130 FootLeft:0.000000,0.000000,0.000000,0.000000 FootRight:0.000000,0.000000,0.000000,0.000000 HandLeft:-0.048039,0.850322,-0.098172,0.514788 HandRight:0.304536,0.348103,-0.497265,0.734036 HandTipLeft:0.000000,0.000000,0.000000,0.000000 HandTipRight:0.000000,0.000000,0.000000,0.000000 Head:0.000000,0.000000,0.000000,0.000000 HipLeft:0.020327,-0.676344,0.731891,-0.080503 HipRight:-0.257419,0.666043,0.650155,-0.259653 KneeLeft:0.019376,-0.566186,0.059943,0.821866 KneeRight:-0.010493,0.825785,0.074970,0.558881 Neck:-0.246931,0.060405,0.964871,-0.066331 ShoulderLeft:0.151145,0.712456,-0.675575,-0.114717 ShoulderRight:-0.174078,0.792478,0.525175,-0.256646 SpineBase:-0.181059,0.051148,0.981668,-0.030493 SpineMid:-0.213107,0.052119,0.975212,-0.028801 SpineShoulder:-0.246511,0.056425,0.966437,-0.045245 ThumbLeft:0.000000,0.000000,0.000000,0.000000 ThumbRight:0.000000,0.000000,0.000000,0.000000 WristLeft:-0.026776,0.848480,-0.162441,0.502969 WristRight:0.253538,0.341469,-0.464922,0.776508 END:
KINECT_DATA POSITION:13.761179,0.461925,3.862095 HEAD_JOINT1:0.987722,0.155894,0.000000,-0.010083 LARM_JOINT2:0.813762,0.000000,0.063097,-0.577764 LARM_JOINT3:0.967028,0.000000,-0.193728,-0.165307 LLEG_JOINT2:0.999279,0.021281,0.000000,0.031435 LLEG_JOINT4:0.998327,0.057528,0.000000,-0.005775 RARM_JOINT2:0.774711,0.000000,0.467850,0.425370 RARM_JOINT3:0.925484,0.000000,0.349257,0.146627 RLEG_JOINT2:0.994899,0.061191,0.000000,-0.080192 RLEG_JOINT4:0.992860,0.085594,0.000000,0.083084 WAIST:0.981868,-0.000000,0.187566,0.027456 WAIST_JOINT0:0.960958,-0.000000,0.261051,0.091714 WAIST_JOINT1:0.998106,0.048796,-0.000000,0.037465 END:
KINECT_DATA_Sensor  AnkleLeft:0.048664,0.719370,-0.076087,-0.688730 AnkleRight:0.092382,0.747861,0.110709,0.648006 ElbowLeft:0.016742,0.739052,-0.246053,-0.626880 ElbowRight:-0.349137,0.932019,-0.090635,0.035051 FootLeft:0.000000,0.000000,0.000000,0.000000 FootRight:0.000000,0.000000,0.000000,0.000000 HandLeft:0.015173,0.845346,-0.049202,0.531732 HandRight:0.301158,0.385976,-0.491111,0.720511 HandTipLeft:0.000000,0.000000,0.000000,0.000000 HandTipRight:0.000000,0.000000,0.000000,0.000000 Head:0.000000,0.000000,0.000000,0.000000 HipLeft:0.014466,-0.674044,0.734568,-0.076586 HipRight:-0.259676,0.665995,0.647996,-0.262907 KneeLeft:0.019392,-0.561190,0.057370,0.825468 KneeRight:-0.012093,0.829345,0.076411,0.553355 Neck:-0.264997,0.062476,0.959905,-0.066758 ShoulderLeft:0.156356,0.707147,-0.679178,-0.119220 ShoulderRight:-0.196363,0.784860,0.518953,-0.275907 SpineBase:-0.187161,0.052686,0.980402,-0.031723 SpineMid:-0.225070,0.053877,0.972400,-0.029654 SpineShoulder:-0.264605,0.058106,0.961543,-0.045197 ThumbLeft:0.000000,0.000000,0.000000,0.000000 ThumbRight:0.000000,0.000000,0.000000,0.000000 WristLeft:-0.013285,0.836717,-0.155552,0.524912 WristRight:0.275879,0.388963,-0.468291,0.743843 END:
KINECT_DATA POSITION:13.822701,0.833394,3.609097 HEAD_JOINT1:0.990402,0.137969,0.000000,-0.008308 LARM_JOINT2:0.818464,0.000000,0.067435,-0.570586 LARM_JOINT3:0.966133,0.000000,-0.193180,-0.171083 LLEG_JOINT2:0.999511,0.017618,0.000000,0.025847 LLEG_JOINT4:0.998018,0.062858,0.000000,-0.002870 RARM_JOINT2:0.769471,0.000000,0.490992,0.408461 RARM_JOINT3:0.930561,0.000000,0.340067,0.135688 RLEG_JOINT2:0.994690,0.061348,0.000000,-0.082628 RLEG_JOINT4:0.993002,0.084388,0.000000,0.082622 WAIST:0.979939,-0.000000,0.196949,0.030501 WAIST_JOINT0:0.959862,-0.000000,0.263861,0.095096 WAIST_JOINT1:0.997703,0.056283,-0.000000,0.037699 END:
KINECT_DATA_Sensor  AnkleLeft:0.050357,0.715315,-0.075944,-0.692835 AnkleRight:0.091212,0.758778,0.109298,0.635602 ElbowLeft:0.028222,0.736913,-0.259270,-0.623652 ElbowRight:-0.357692,0.926908,-0.109807,0.028998 FootLeft:0.000000,0.000000,0.000000,0.000000 FootRight:0.000000,0.000000,0.000000,0.000000 HandLeft:0.029247,0.854632,-0.040425,0.516831 HandRight:0.241662,0.470639,-0.497793,0.687242 HandTipLeft:0.000000,0.000000,0.000000,0.000000 HandTipRight:0.000000,0.000000,0.000000,0.000000 Head:0.000000,0.000000,0.000000,0.000000 HipLeft:0.003796,-0.672395,0.736583,-0.072906 HipRight:-0.260553,0.665035,0.645462,-0.270592 KneeLeft:0.021128,-0.553666,0.052852,0.830791 KneeRight:-0.012832,0.834593,0.075437,0.545526 Neck:-0.267789,0.066595,0.958128,-0.076453 ShoulderLeft:0.174769,0.700642,-0.680256,-0.125732 ShoulderRight:-0.180461,0.782636,0.528353,-0.275241 SpineBase:-0.196644,0.053069,0.978340,-0.036955 SpineMid:-0.231478,0.054356,0.970688,-0.035035 SpineShoulder:-0.267736,0.058711,0.960264,-0.052565 ThumbLeft:0.000000,0.000000,0.000000,0.000000 ThumbRight:0.000000,0.000000,0.000000,0.000000 WristLeft:-0.001520,0.845815,-0.149583,0.512073 WristRight:0.238191,0.464760,-0.506016,0.686448 END:
