EastLYD/RoboCupatHomeSim/InteractiveCleanUp/JapanOpen2016/Motion_Data/File39.dat
KINECT_DATA POSITION:1.010784,-1.520811,-4.332244 HEAD_JOINT1:0.974022,0.201884,-0.000000,0.102583 LARM_JOINT2:0.838345,0.000000,-0.004736,-0.545119 LARM_JOINT3:0.963004,0.000000,-0.180510,-0.200101 LLEG_JOINT2:0.997159,0.019301,0.000000,0.072816 LLEG_JOINT4:0.994281,0.098442,0.000000,-0.041396 RARM_JOINT2:0.792965,0.000000,-0.096225,0.601620 RARM_JOINT3:0.959603,0.000000,0.221258,0.173803 RLEG_JOINT2:0.998224,0.012271,0.000000,-0.058294 RLEG_JOINT4:0.994515,0.100502,0.000000,0.028956 WAIST:0.999817,0.000000,-0.016480,-0.009685 WAIST_JOINT0:0.998957,0.000000,-0.045552,-0.003084 WAIST_JOINT1:0.997425,0.070288,0.000000,-0.014271 END:
KINECT_DATA_Sensor  AnkleLeft:0.069347,0.731479,-0.096980,-0.671360 AnkleRight:0.055036,0.693472,0.105261,0.710625 ElbowLeft:-0.016492,0.912967,-0.193631,-0.358784 ElbowRight:0.046493,0.824427,0.206983,0.524706 FootLeft:0.000000,0.000000,0.000000,0.000000 FootRight:0.000000,0.000000,0.000000,0.000000 HandLeft:-0.095424,0.829439,0.035199,0.549260 HandRight:0.100784,-0.705908,-0.020258,0.700803 HandTipLeft:0.000000,0.000000,0.000000,0.000000 HandTipRight:0.000000,0.000000,0.000000,0.000000 Head:0.000000,0.000000,0.000000,0.000000 HipLeft:0.120978,-0.685717,0.697362,-0.169833 HipRight:-0.096185,0.673768,0.714241,-0.163232 KneeLeft:-0.032037,0.717713,-0.057695,-0.693205 KneeRight:-0.038459,0.694754,0.057322,0.715927 Neck:0.044796,-0.025983,0.995032,-0.085027 ShoulderLeft:0.005797,0.785791,-0.612406,0.086361 ShoulderRight:0.064292,0.778276,0.624442,-0.015030 SpineBase:0.016319,-0.021513,0.998521,-0.047188 SpineMid:0.030194,-0.022167,0.998198,-0.046884 SpineShoulder:0.044545,-0.024293,0.996597,-0.064959 ThumbLeft:0.000000,0.000000,0.000000,0.000000 ThumbRight:0.000000,0.000000,0.000000,0.000000 WristLeft:-0.112201,0.834405,-0.054808,0.536819 WristRight:-0.051722,0.717601,0.089009,-0.688805 END:
KINECT_DATA POSITION:0.852276,-1.529981,-4.375577 HEAD_JOINT1:0.974140,0.202598,-0.000000,0.100029 LARM_JOINT2:0.837476,0.000000,-0.004237,-0.546457 LARM_JOINT3:0.962495,0.000000,-0.181393,-0.201745 LLEG_JOINT2:0.997139,0.019584,0.000000,0.073008 LLEG_JOINT4:0.994626,0.095719,0.000000,-0.039456 RARM_JOINT2:0.793089,0.000000,-0.098578,0.601075 RARM_JOINT3:0.958562,0.000000,0.223094,0.177165 RLEG_JOINT2:0.998276,0.012341,0.000000,-0.057382 RLEG_JOINT4:0.994635,0.099593,0.000000,0.027992 WAIST:0.999829,0.000000,-0.015734,-0.009719 WAIST_JOINT0:0.999041,0.000000,-0.043709,-0.002370 WAIST_JOINT1:0.997473,0.069704,0.000000,-0.013723 END:
KINECT_DATA_Sensor  AnkleLeft:0.066157,0.730942,-0.096799,-0.672292 AnkleRight:0.054365,0.694657,0.104766,0.709591 ElbowLeft:-0.016421,0.912051,-0.192610,-0.361655 ElbowRight:0.047571,0.824516,0.207472,0.524277 FootLeft:0.000000,0.000000,0.000000,0.000000 FootRight:0.000000,0.000000,0.000000,0.000000 HandLeft:-0.103493,0.819117,0.039779,0.562810 HandRight:-0.110444,0.730206,0.015911,-0.674053 HandTipLeft:0.000000,0.000000,0.000000,0.000000 HandTipRight:0.000000,0.000000,0.000000,0.000000 Head:0.000000,0.000000,0.000000,0.000000 HipLeft:0.120776,-0.685899,0.697385,-0.169146 HipRight:-0.097220,0.673708,0.714131,-0.163347 KneeLeft:-0.031902,0.717235,-0.058040,-0.693676 KneeRight:-0.037840,0.695291,0.056713,0.715487 Neck:0.042949,-0.025372,0.995178,-0.084455 ShoulderLeft:0.006145,0.785826,-0.612561,0.084905 ShoulderRight:0.062248,0.779168,0.623501,-0.016424 SpineBase:0.015598,-0.021170,0.998565,-0.046643 SpineMid:0.028911,-0.021790,0.998269,-0.046356 SpineShoulder:0.042696,-0.023768,0.996727,-0.064398 ThumbLeft:0.000000,0.000000,0.000000,0.000000 ThumbRight:0.000000,0.000000,0.000000,0.000000 WristLeft:-0.112041,0.826661,-0.056912,0.548488 WristRight:-0.055714,0.742538,0.086427,-0.661863 END:
KINECT_DATA POSITION:0.716986,-1.540962,-4.358232 HEAD_JOINT1:0.974484,0.201508,-0.000000,0.098870 LARM_JOINT2:0.837404,0.000000,-0.004556,-0.546565 LARM_JOINT3:0.961345,0.000000,-0.185997,-0.203028 LLEG_JOINT2:0.997062,0.018860,0.000000,0.074241 LLEG_JOINT4:0.994393,0.097451,0.000000,-0.041048 RARM_JOINT2:0.792915,0.000000,-0.098684,0.601288 RARM_JOINT3:0.957429,0.000000,0.228423,0.176503 RLEG_JOINT2:0.998317,0.011427,0.000000,-0.056858 RLEG_JOINT4:0.994638,0.099333,0.000000,0.028771 WAIST:0.999837,0.000000,-0.015002,-0.010071 WAIST_JOINT0:0.999054,0.000000,-0.043429,-0.002411 WAIST_JOINT1:0.997481,0.069690,0.000000,-0.013259 END:
KINECT_DATA_Sensor  AnkleLeft:0.067493,0.730534,-0.096896,-0.672589 AnkleRight:0.054030,0.694892,0.103352,0.709595 ElbowLeft:-0.015821,0.913148,-0.192547,-0.358938 ElbowRight:0.047370,0.824161,0.207267,0.524934 FootLeft:0.000000,0.000000,0.000000,0.000000 FootRight:0.000000,0.000000,0.000000,0.000000 HandLeft:-0.124514,0.774822,0.020928,0.619443 HandRight:-0.123590,0.717296,0.032523,-0.684948 HandTipLeft:0.000000,0.000000,0.000000,0.000000 HandTipRight:0.000000,0.000000,0.000000,0.000000 Head:0.000000,0.000000,0.000000,0.000000 HipLeft:0.120453,-0.686239,0.697212,-0.168706 HipRight:-0.097978,0.673380,0.714254,-0.163707 KneeLeft:-0.032997,0.716684,-0.058159,-0.694185 KneeRight:-0.038422,0.695782,0.055925,0.715041 Neck:0.042701,-0.025342,0.995187,-0.084481 ShoulderLeft:0.005974,0.785669,-0.612765,0.084897 ShoulderRight:0.061770,0.779002,0.623744,-0.016834 SpineBase:0.014904,-0.021114,0.998587,-0.046443 SpineMid:0.028437,-0.021741,0.998293,-0.046153 SpineShoulder:0.042447,-0.023738,0.996742,-0.064338 ThumbLeft:0.000000,0.000000,0.000000,0.000000 ThumbRight:0.000000,0.000000,0.000000,0.000000 WristLeft:-0.108129,0.785649,-0.063009,0.605882 WristRight:-0.054500,0.730348,0.087857,-0.675205 END:
KINECT_DATA POSITION:0.521044,-1.597548,-4.175866 HEAD_JOINT1:0.975374,0.193599,-0.000000,0.105662 LARM_JOINT2:0.837058,0.000000,-0.044220,-0.545325 LARM_JOINT3:0.957305,0.000000,-0.220708,-0.186695 LLEG_JOINT2:0.996929,0.019973,0.000000,0.075714 LLEG_JOINT4:0.994443,0.096959,0.000000,-0.041012 RARM_JOINT2:0.792073,0.000000,-0.091776,0.603487 RARM_JOINT3:0.958008,0.000000,0.225288,0.177384 RLEG_JOINT2:0.998333,0.012212,0.000000,-0.056404 RLEG_JOINT4:0.994571,0.099428,0.000000,0.030713 WAIST:0.999789,0.000000,-0.017728,-0.010330 WAIST_JOINT0:0.998569,0.000000,-0.053429,-0.002239 WAIST_JOINT1:0.997546,0.068613,0.000000,-0.013940 END:
KINECT_DATA_Sensor  AnkleLeft:0.067304,0.735865,-0.098015,-0.666607 AnkleRight:0.064398,0.747665,0.097382,0.653733 ElbowLeft:-0.047707,0.915474,-0.176898,-0.358243 ElbowRight:0.043059,0.825131,0.203148,0.525391 FootLeft:0.000000,0.000000,0.000000,0.000000 FootRight:0.000000,0.000000,0.000000,0.000000 HandLeft:-0.183695,0.509570,-0.127279,0.830900 HandRight:-0.136808,0.729144,0.020070,-0.670246 HandTipLeft:0.000000,0.000000,0.000000,0.000000 HandTipRight:0.000000,0.000000,0.000000,0.000000 Head:0.000000,0.000000,0.000000,0.000000 HipLeft:0.123804,-0.686109,0.696566,-0.169478 HipRight:-0.097785,0.673477,0.714591,-0.161945 KneeLeft:-0.033271,0.718609,-0.059697,-0.692048 KneeRight:-0.037588,0.693846,0.056411,0.716926 Neck:0.052530,-0.026593,0.994778,-0.083372 ShoulderLeft:-0.000676,0.786212,-0.611209,0.091069 ShoulderRight:0.067641,0.779379,0.622846,-0.007471 SpineBase:0.017610,-0.021989,0.998593,-0.044919 SpineMid:0.034661,-0.022753,0.998147,-0.044537 SpineShoulder:0.052268,-0.024955,0.996327,-0.063068 ThumbLeft:0.000000,0.000000,0.000000,0.000000 ThumbRight:0.000000,0.000000,0.000000,0.000000 WristLeft:-0.104398,0.520883,-0.123111,0.838228 WristRight:-0.057802,0.746124,0.088309,-0.657388 END:
KINECT_DATA POSITION:-0.040974,-1.642403,-3.846490 HEAD_JOINT1:0.976153,0.185016,-0.000000,0.113551 LARM_JOINT2:0.847623,0.000000,-0.106299,-0.519842 LARM_JOINT3:0.934412,0.000000,-0.297227,-0.196290 LLEG_JOINT2:0.996308,0.022248,0.000000,0.082924 LLEG_JOINT4:0.994195,0.098511,0.000000,-0.043260 RARM_JOINT2:0.789724,0.000000,-0.089953,0.606831 RARM_JOINT3:0.958479,0.000000,0.222827,0.177947 RLEG_JOINT2:0.998711,0.013815,0.000000,-0.048844 RLEG_JOINT4:0.994776,0.098624,0.000000,0.026340 WAIST:0.999719,0.000000,-0.020211,-0.012420 WAIST_JOINT0:0.998141,0.000000,-0.060905,-0.002112 WAIST_JOINT1:0.997717,0.065758,0.000000,-0.015380 END:
KINECT_DATA_Sensor  AnkleLeft:0.068193,0.739617,-0.102513,-0.661670 AnkleRight:0.056930,0.684451,0.102385,0.719586 ElbowLeft:-0.111104,0.906772,-0.166106,-0.371252 ElbowRight:0.040388,0.825406,0.200335,0.526250 FootLeft:0.000000,0.000000,0.000000,0.000000 FootRight:0.000000,0.000000,0.000000,0.000000 HandLeft:-0.230012,0.244434,-0.258966,0.905695 HandRight:-0.139251,0.717493,0.019767,-0.682218 HandTipLeft:0.000000,0.000000,0.000000,0.000000 HandTipRight:0.000000,0.000000,0.000000,0.000000 Head:0.000000,0.000000,0.000000,0.000000 HipLeft:0.128731,-0.688028,0.694412,-0.166847 HipRight:-0.098029,0.672601,0.716089,-0.158792 KneeLeft:-0.035561,0.720361,-0.064776,-0.689652 KneeRight:-0.032558,0.692251,0.053615,0.718926 Neck:0.060052,-0.029277,0.994510,-0.080542 ShoulderLeft:-0.009064,0.787469,-0.608850,0.095462 ShoulderRight:0.068729,0.780304,0.621613,-0.000004 SpineBase:0.020070,-0.026910,0.998608,-0.040685 SpineMid:0.039441,-0.027694,0.998031,-0.040156 SpineShoulder:0.059610,-0.028890,0.996001,-0.059950 ThumbLeft:0.000000,0.000000,0.000000,0.000000 ThumbRight:0.000000,0.000000,0.000000,0.000000 WristLeft:-0.122867,0.273016,-0.230303,0.925919 WristRight:-0.058308,0.735734,0.090707,-0.668631 END:
KINECT_DATA POSITION:-0.915822,-1.602618,-3.437698 HEAD_JOINT1:0.976766,0.177375,-0.000000,0.120276 LARM_JOINT2:0.858033,0.000000,-0.166693,-0.485791 LARM_JOINT3:0.906653,0.000000,-0.372274,-0.198477 LLEG_JOINT2:0.994578,0.028066,0.000000,0.100133 LLEG_JOINT4:0.993932,0.095160,0.000000,-0.055176 RARM_JOINT2:0.784615,0.000000,-0.096868,0.612369 RARM_JOINT3:0.957779,0.000000,0.220219,0.184833 RLEG_JOINT2:0.999316,0.018179,0.000000,-0.032207 RLEG_JOINT4:0.995083,0.097547,0.000000,0.017157 WAIST:0.999564,0.000000,-0.023188,-0.018297 WAIST_JOINT0:0.997889,0.000000,-0.064832,-0.003764 WAIST_JOINT1:0.998029,0.060823,0.000000,-0.015427 END:
KINECT_DATA_Sensor  AnkleLeft:0.069931,0.741321,-0.103776,-0.659381 AnkleRight:0.060409,0.681595,0.103365,0.721869 ElbowLeft:-0.170960,0.908786,-0.157499,-0.346518 ElbowRight:0.041946,0.822535,0.198237,0.531393 FootLeft:0.000000,0.000000,0.000000,0.000000 FootRight:0.000000,0.000000,0.000000,0.000000 HandLeft:-0.450797,0.866912,0.102442,0.186416 HandRight:-0.143919,0.728881,-0.002181,-0.669339 HandTipLeft:0.000000,0.000000,0.000000,0.000000 HandTipRight:0.000000,0.000000,0.000000,0.000000 Head:0.000000,0.000000,0.000000,0.000000 HipLeft:-0.134810,0.692481,-0.689421,0.164303 HipRight:-0.098944,0.669274,0.719879,-0.155102 KneeLeft:-0.039969,0.722747,-0.076668,-0.685683 KneeRight:-0.021963,0.690085,0.048797,0.721748 Neck:0.064176,-0.034720,0.994472,-0.075511 ShoulderLeft:-0.018084,0.788781,-0.606740,0.096767 ShoulderRight:0.064979,0.780119,0.622227,0.005091 SpineBase:0.023277,-0.032596,0.998554,-0.035870 SpineMid:0.042976,-0.033297,0.997900,-0.035219 SpineShoulder:0.063589,-0.034648,0.995870,-0.054769 ThumbLeft:0.000000,0.000000,0.000000,0.000000 ThumbRight:0.000000,0.000000,0.000000,0.000000 WristLeft:-0.352913,0.917416,0.053542,0.175878 WristRight:-0.064576,0.751219,0.090081,-0.650681 END:
KINECT_DATA POSITION:-1.269128,-1.614918,-3.303075 HEAD_JOINT1:0.977085,0.175813,-0.000000,0.119980 LARM_JOINT2:0.850037,0.000000,-0.317339,-0.420397 LARM_JOINT3:0.923548,0.000000,-0.343591,-0.170307 LLEG_JOINT2:0.993764,0.031882,0.000000,0.106850 LLEG_JOINT4:0.994051,0.091074,0.000000,-0.059735 RARM_JOINT2:0.783850,0.000000,-0.095110,0.613623 RARM_JOINT3:0.958378,0.000000,0.215979,0.186718 RLEG_JOINT2:0.999432,0.018932,0.000000,-0.027865 RLEG_JOINT4:0.995256,0.096440,0.000000,0.012862 WAIST:0.999446,0.000000,-0.026752,-0.019787 WAIST_JOINT0:0.996715,0.000000,-0.080459,-0.009291 WAIST_JOINT1:0.998320,0.055698,0.000000,-0.015978 END:
KINECT_DATA_Sensor  AnkleLeft:0.069705,0.749421,-0.103621,-0.650209 AnkleRight:0.058538,0.672882,0.104417,0.730000 ElbowLeft:-0.295039,0.910945,-0.114541,-0.264596 ElbowRight:0.038333,0.825830,0.195110,0.527700 FootLeft:0.000000,0.000000,0.000000,0.000000 FootRight:0.000000,0.000000,0.000000,0.000000 HandLeft:-0.134804,-0.231012,-0.460566,0.846369 HandRight:0.143575,-0.706400,-0.005540,0.693076 HandTipLeft:0.000000,0.000000,0.000000,0.000000 HandTipRight:0.000000,0.000000,0.000000,0.000000 Head:0.000000,0.000000,0.000000,0.000000 HipLeft:-0.140827,0.693130,-0.687345,0.165214 HipRight:-0.100265,0.668628,0.720778,-0.152845 KneeLeft:-0.041413,0.725430,-0.082867,-0.682033 KneeRight:-0.019367,0.687438,0.047244,0.724446 Neck:0.080425,-0.038169,0.993669,-0.068532 ShoulderLeft:-0.040805,0.794873,-0.594945,0.112035 ShoulderRight:0.062605,0.781265,0.620864,0.015274 SpineBase:0.026868,-0.034370,0.998515,-0.032614 SpineMid:0.052876,-0.035208,0.997476,-0.031707 SpineShoulder:0.079959,-0.036789,0.994883,-0.049609 ThumbLeft:0.000000,0.000000,0.000000,0.000000 ThumbRight:0.000000,0.000000,0.000000,0.000000 WristLeft:-0.064007,-0.201686,-0.424732,0.880243 WristRight:-0.064650,0.728782,0.092705,-0.675354 END:
KINECT_DATA POSITION:-1.409212,-1.493099,-3.360152 HEAD_JOINT1:0.976642,0.170919,-0.000000,0.130216 LARM_JOINT2:0.862127,0.000000,-0.398114,-0.313436 LARM_JOINT3:0.913618,0.000000,-0.333165,-0.233031 LLEG_JOINT2:0.993461,0.038489,0.000000,0.107492 LLEG_JOINT4:0.993777,0.090209,0.000000,-0.065337 RARM_JOINT2:0.780684,0.000000,-0.084029,0.619250 RARM_JOINT3:0.960926,0.000000,0.201490,0.189796 RLEG_JOINT2:0.999490,0.012026,0.000000,-0.029583 RLEG_JOINT4:0.994590,0.103495,0.000000,0.008911 WAIST:0.998753,0.000000,-0.046400,-0.018438 WAIST_JOINT0:0.994744,0.000000,-0.102157,-0.006889 WAIST_JOINT1:0.998382,0.053001,0.000000,-0.020603 END:
KINECT_DATA_Sensor  AnkleLeft:0.073759,0.759911,-0.106323,-0.637017 AnkleRight:0.070237,0.744892,0.098371,0.656144 ElbowLeft:-0.383571,0.903036,-0.174072,-0.084252 ElbowRight:0.035390,0.825052,0.186431,0.532241 FootLeft:0.000000,0.000000,0.000000,0.000000 FootRight:0.000000,0.000000,0.000000,0.000000 HandLeft:-0.130325,-0.248869,-0.445080,0.850285 HandRight:-0.132547,0.779209,-0.038563,-0.611373 HandTipLeft:0.000000,0.000000,0.000000,0.000000 HandTipRight:0.000000,0.000000,0.000000,0.000000 Head:0.000000,0.000000,0.000000,0.000000 HipLeft:-0.155431,0.687932,-0.686996,0.175003 HipRight:-0.089179,0.669962,0.723514,-0.140452 KneeLeft:-0.040168,0.739151,-0.088063,-0.666549 KneeRight:-0.024020,0.673303,0.043018,0.737723 Neck:0.102041,-0.041221,0.991724,-0.066125 ShoulderLeft:-0.058330,0.787900,-0.599554,0.127850 ShoulderRight:0.073409,0.777455,0.623761,0.033126 SpineBase:0.046353,-0.035510,0.997808,-0.031124 SpineMid:0.073486,-0.036344,0.996178,-0.030146 SpineShoulder:0.101632,-0.038835,0.992943,-0.047199 ThumbLeft:0.000000,0.000000,0.000000,0.000000 ThumbRight:0.000000,0.000000,0.000000,0.000000 WristLeft:-0.124521,-0.253592,-0.417919,0.863440 WristRight:-0.078908,0.801651,0.084911,-0.586447 END:
KINECT_DATA POSITION:-1.493103,-1.257586,-3.453982 HEAD_JOINT1:0.975932,0.161650,-0.000000,0.146374 LARM_JOINT2:0.857240,0.000000,-0.430594,-0.282362 LARM_JOINT3:0.924381,0.000000,-0.323139,-0.202736 LLEG_JOINT2:0.993935,0.047257,0.000000,0.099294 LLEG_JOINT4:0.993627,0.085861,0.000000,-0.073034 RARM_JOINT2:0.778772,0.000000,-0.073279,0.623012 RARM_JOINT3:0.962192,0.000000,0.194783,0.190386 RLEG_JOINT2:0.999221,0.000271,0.000000,-0.039470 RLEG_JOINT4:0.993454,0.114016,0.000000,0.007082 WAIST:0.996821,0.000000,-0.078908,-0.010981 WAIST_JOINT0:0.990133,0.000000,-0.140072,-0.004033 WAIST_JOINT1:0.998219,0.050565,0.000000,-0.031666 END:
KINECT_DATA_Sensor  AnkleLeft:0.079132,0.778182,-0.106197,-0.613916 AnkleRight:0.072080,0.736559,0.097394,0.665432 ElbowLeft:-0.427992,0.890061,-0.142393,-0.065864 ElbowRight:0.036570,0.824483,0.179860,0.535296 FootLeft:0.000000,0.000000,0.000000,0.000000 FootRight:0.000000,0.000000,0.000000,0.000000 HandLeft:-0.110945,-0.280439,-0.445002,0.843219 HandRight:-0.125307,0.793866,-0.015547,-0.594838 HandTipLeft:0.000000,0.000000,0.000000,0.000000 HandTipRight:0.000000,0.000000,0.000000,0.000000 Head:0.000000,0.000000,0.000000,0.000000 HipLeft:0.176908,-0.677291,0.687809,-0.192092 HipRight:-0.070702,0.676709,0.722428,-0.123146 KneeLeft:-0.036596,0.760944,-0.092892,-0.641090 KneeRight:-0.033109,0.649485,0.038011,0.758701 Neck:0.142193,-0.044269,0.986731,-0.064685 ShoulderLeft:-0.103269,0.779421,-0.594334,0.169130 ShoulderRight:0.081493,0.774158,0.625436,0.053557 SpineBase:0.078312,-0.036394,0.995799,-0.030447 SpineMid:0.109543,-0.037332,0.992849,-0.029289 SpineShoulder:0.141864,-0.041000,0.987978,-0.045749 ThumbLeft:0.000000,0.000000,0.000000,0.000000 ThumbRight:0.000000,0.000000,0.000000,0.000000 WristLeft:-0.119929,-0.281467,-0.454731,0.836429 WristRight:-0.082537,0.808425,0.081231,-0.577095 END:
KINECT_DATA POSITION:-1.608388,-1.120565,-3.449869 HEAD_JOINT1:0.975496,0.153242,-0.000000,0.157876 LARM_JOINT2:0.871782,0.000000,-0.387032,-0.300338 LARM_JOINT3:0.905777,0.000000,-0.380699,-0.186106 LLEG_JOINT2:0.994250,0.049069,0.000000,0.095176 LLEG_JOINT4:0.993593,0.087212,0.000000,-0.071875 RARM_JOINT2:0.779021,0.000000,-0.076861,0.622269 RARM_JOINT3:0.961494,0.000000,0.196042,0.192607 RLEG_JOINT2:0.999091,-0.002200,-0.000000,-0.042579 RLEG_JOINT4:0.993356,0.114930,0.000000,0.005853 WAIST:0.995964,0.000000,-0.089384,-0.008133 WAIST_JOINT0:0.989027,0.000000,-0.147669,-0.004409 WAIST_JOINT1:0.998129,0.049394,0.000000,-0.036028 END:
KINECT_DATA_Sensor  AnkleLeft:0.079895,0.781679,-0.109658,-0.608745 AnkleRight:0.072159,0.736768,0.096375,0.665340 ElbowLeft:-0.410791,0.889895,-0.126584,-0.152689 ElbowRight:0.039915,0.820058,0.181811,0.541162 FootLeft:0.000000,0.000000,0.000000,0.000000 FootRight:0.000000,0.000000,0.000000,0.000000 HandLeft:-0.116660,-0.273946,-0.444007,0.845105 HandRight:-0.118828,0.808362,-0.008704,-0.576502 HandTipLeft:0.000000,0.000000,0.000000,0.000000 HandTipRight:0.000000,0.000000,0.000000,0.000000 Head:0.000000,0.000000,0.000000,0.000000 HipLeft:0.185180,-0.674657,0.686508,-0.198122 HipRight:-0.066057,0.680413,0.720083,-0.118971 KneeLeft:-0.035299,0.767770,-0.093171,-0.632932 KneeRight:-0.034662,0.641643,0.037077,0.765322 Neck:0.149706,-0.045290,0.985592,-0.064391 ShoulderLeft:-0.109351,0.778268,-0.593091,0.174884 ShoulderRight:0.085179,0.773448,0.625286,0.059499 SpineBase:0.088589,-0.037008,0.994933,-0.029849 SpineMid:0.118458,-0.037889,0.991820,-0.028723 SpineShoulder:0.149381,-0.041834,0.986857,-0.045266 ThumbLeft:0.000000,0.000000,0.000000,0.000000 ThumbRight:0.000000,0.000000,0.000000,0.000000 WristLeft:-0.145934,-0.269705,-0.493640,0.813807 WristRight:-0.084265,0.819674,0.080528,-0.560847 END:
KINECT_DATA POSITION:-1.661903,-1.020269,-3.484392 HEAD_JOINT1:0.975236,0.151145,-0.000000,0.161460 LARM_JOINT2:0.872743,0.000000,-0.385515,-0.299495 LARM_JOINT3:0.910481,0.000000,-0.371812,-0.181054 LLEG_JOINT2:0.994335,0.050169,0.000000,0.093712 LLEG_JOINT4:0.993350,0.087025,0.000000,-0.075380 RARM_JOINT2:0.777895,0.000000,-0.074029,0.624019 RARM_JOINT3:0.961724,0.000000,0.197233,0.190225 RLEG_JOINT2:0.999025,-0.004291,-0.000000,-0.043946 RLEG_JOINT4:0.993429,0.114162,0.000000,0.008121 WAIST:0.995273,0.000000,-0.096842,-0.007302 WAIST_JOINT0:0.988194,0.000000,-0.153120,-0.005213 WAIST_JOINT1:0.998078,0.049082,0.000000,-0.037826 END:
KINECT_DATA_Sensor  AnkleLeft:0.082388,0.783957,-0.108442,-0.605693 AnkleRight:0.057401,0.629093,0.102100,0.768454 ElbowLeft:-0.412169,0.890032,-0.122477,-0.151526 ElbowRight:0.040021,0.818806,0.179554,0.543798 FootLeft:0.000000,0.000000,0.000000,0.000000 FootRight:0.000000,0.000000,0.000000,0.000000 HandLeft:-0.204136,-0.027362,-0.388887,0.897968 HandRight:-0.125777,0.818429,0.006460,-0.560636 HandTipLeft:0.000000,0.000000,0.000000,0.000000 HandTipRight:0.000000,0.000000,0.000000,0.000000 Head:0.000000,0.000000,0.000000,0.000000 HipLeft:0.189055,-0.673691,0.685357,-0.201706 HipRight:-0.061166,0.682337,0.719396,-0.114654 KneeLeft:-0.034776,0.772575,-0.093363,-0.627058 KneeRight:-0.036319,0.635969,0.036440,0.769998 Neck:0.154922,-0.045894,0.984741,-0.064640 ShoulderLeft:-0.110818,0.777926,-0.592452,0.177627 ShoulderRight:0.090351,0.772213,0.625545,0.064939 SpineBase:0.095972,-0.037281,0.994236,-0.029918 SpineMid:0.124785,-0.038134,0.991032,-0.028824 SpineShoulder:0.154606,-0.042291,0.986026,-0.045390 ThumbLeft:0.000000,0.000000,0.000000,0.000000 ThumbRight:0.000000,0.000000,0.000000,0.000000 WristLeft:-0.275325,-0.040511,-0.436756,0.855452 WristRight:-0.084022,0.828548,0.078807,-0.547939 END:
KINECT_DATA POSITION:-1.691190,-0.948533,-3.524148 HEAD_JOINT1:0.976191,0.143948,-0.000000,0.162267 LARM_JOINT2:0.874120,0.000000,-0.375953,-0.307527 LARM_JOINT3:0.901827,0.000000,-0.397483,-0.169455 LLEG_JOINT2:0.994450,0.050447,0.000000,0.092322 LLEG_JOINT4:0.993612,0.085910,0.000000,-0.073178 RARM_JOINT2:0.777995,0.000000,-0.070735,0.624276 RARM_JOINT3:0.960607,0.000000,0.200389,0.192556 RLEG_JOINT2:0.998985,-0.005333,-0.000000,-0.044738 RLEG_JOINT4:0.993180,0.116259,0.000000,0.008835 WAIST:0.995007,0.000000,-0.099589,-0.006558 WAIST_JOINT0:0.987978,0.000000,-0.154497,-0.005480 WAIST_JOINT1:0.997885,0.051114,0.000000,-0.040148 END:
KINECT_DATA_Sensor  AnkleLeft:0.080258,0.784958,-0.109249,-0.604536 AnkleRight:0.071781,0.721883,0.093561,0.681893 ElbowLeft:-0.404395,0.889743,-0.111877,-0.179738 ElbowRight:0.040270,0.819916,0.180628,0.541747 FootLeft:0.000000,0.000000,0.000000,0.000000 FootRight:0.000000,0.000000,0.000000,0.000000 HandLeft:-0.039039,-0.413512,-0.460092,0.784729 HandRight:-0.133686,0.810996,0.015134,-0.569372 HandTipLeft:0.000000,0.000000,0.000000,0.000000 HandTipRight:0.000000,0.000000,0.000000,0.000000 Head:0.000000,0.000000,0.000000,0.000000 HipLeft:0.189880,-0.673449,0.684853,-0.203442 HipRight:-0.058771,0.683826,0.718299,-0.113909 KneeLeft:-0.034321,0.774300,-0.093106,-0.624990 KneeRight:-0.037010,0.633960,0.035961,0.771643 Neck:0.156021,-0.047759,0.984263,-0.067843 ShoulderLeft:-0.107908,0.777469,-0.593438,0.178126 ShoulderRight:0.094857,0.771129,0.626071,0.066310 SpineBase:0.098629,-0.037632,0.993936,-0.030779 SpineMid:0.126695,-0.038487,0.990750,-0.029702 SpineShoulder:0.155733,-0.043373,0.985705,-0.047455 ThumbLeft:0.000000,0.000000,0.000000,0.000000 ThumbRight:0.000000,0.000000,0.000000,0.000000 WristLeft:-0.065098,-0.400983,-0.528951,0.745107 WristRight:-0.084317,0.821835,0.079502,-0.557814 END:
KINECT_DATA POSITION:-1.786880,-0.824028,-3.648853 HEAD_JOINT1:0.977191,0.137141,-0.000000,0.162142 LARM_JOINT2:0.871123,0.000000,-0.375204,-0.316808 LARM_JOINT3:0.904505,0.000000,-0.400873,-0.145503 LLEG_JOINT2:0.994624,0.048868,0.000000,0.091300 LLEG_JOINT4:0.993482,0.087587,0.000000,-0.072951 RARM_JOINT2:0.778845,0.000000,-0.071245,0.623157 RARM_JOINT3:0.960268,0.000000,0.201006,0.193601 RLEG_JOINT2:0.998967,-0.005092,-0.000000,-0.045148 RLEG_JOINT4:0.993266,0.115527,0.000000,0.008704 WAIST:0.994914,0.000000,-0.100588,-0.005344 WAIST_JOINT0:0.987754,0.000000,-0.155934,-0.005073 WAIST_JOINT1:0.997713,0.052624,0.000000,-0.042415 END:
KINECT_DATA_Sensor  AnkleLeft:0.080034,0.785667,-0.109714,-0.603559 AnkleRight:0.071785,0.720480,0.092825,0.683475 ElbowLeft:-0.398979,0.888826,-0.094794,-0.204493 ElbowRight:0.041686,0.819650,0.183520,0.541070 FootLeft:0.000000,0.000000,0.000000,0.000000 FootRight:0.000000,0.000000,0.000000,0.000000 HandLeft:-0.045326,-0.328026,-0.452541,0.827981 HandRight:-0.121289,0.808994,0.016108,-0.574942 HandTipLeft:0.000000,0.000000,0.000000,0.000000 HandTipRight:0.000000,0.000000,0.000000,0.000000 Head:0.000000,0.000000,0.000000,0.000000 HipLeft:0.189514,-0.673223,0.684894,-0.204392 HipRight:-0.056881,0.685492,0.716708,-0.114870 KneeLeft:-0.035515,0.774736,-0.092046,-0.624540 KneeRight:-0.036186,0.633403,0.035613,0.772155 Neck:0.157138,-0.049020,0.983892,-0.069718 ShoulderLeft:-0.106210,0.776138,-0.595260,0.178870 ShoulderRight:0.098290,0.770440,0.626271,0.067426 SpineBase:0.099463,-0.038573,0.993770,-0.032260 SpineMid:0.127677,-0.039474,0.990540,-0.031150 SpineShoulder:0.156874,-0.044220,0.985405,-0.049108 ThumbLeft:0.000000,0.000000,0.000000,0.000000 ThumbRight:0.000000,0.000000,0.000000,0.000000 WristLeft:-0.114708,-0.326258,-0.536588,0.769722 WristRight:-0.085013,0.817468,0.080504,-0.563949 END:
KINECT_DATA POSITION:-1.859924,-0.728294,-3.810835 HEAD_JOINT1:0.977564,0.143479,-0.000000,0.154216 LARM_JOINT2:0.795812,0.000000,-0.528126,-0.296254 LARM_JOINT3:0.968412,0.000000,-0.239217,-0.070382 LLEG_JOINT2:0.994768,0.047557,0.000000,0.090413 LLEG_JOINT4:0.992894,0.092121,0.000000,-0.075338 RARM_JOINT2:0.779858,0.000000,-0.072307,0.621766 RARM_JOINT3:0.959739,0.000000,0.201555,0.195642 RLEG_JOINT2:0.998900,-0.006700,-0.000000,-0.046403 RLEG_JOINT4:0.993390,0.114428,0.000000,0.009087 WAIST:0.994916,0.000000,-0.100628,-0.004136 WAIST_JOINT0:0.987437,0.000000,-0.157955,-0.004313 WAIST_JOINT1:0.997780,0.051633,0.000000,-0.042058 END:
KINECT_DATA_Sensor  AnkleLeft:0.083990,0.786019,-0.110642,-0.602393 AnkleRight:0.071247,0.731823,0.090041,0.671753 ElbowLeft:-0.459619,0.886358,-0.002522,-0.055790 ElbowRight:0.041754,0.819820,0.183591,0.540782 FootLeft:0.000000,0.000000,0.000000,0.000000 FootRight:0.000000,0.000000,0.000000,0.000000 HandLeft:-0.214008,0.038949,-0.610559,0.761512 HandRight:-0.129178,0.802314,0.016102,-0.582535 HandTipLeft:0.000000,0.000000,0.000000,0.000000 HandTipRight:0.000000,0.000000,0.000000,0.000000 Head:0.000000,0.000000,0.000000,0.000000 HipLeft:0.189395,-0.672714,0.685318,-0.204754 HipRight:-0.057237,0.686711,0.715435,-0.115340 KneeLeft:-0.036539,0.774585,-0.091314,-0.624776 KneeRight:-0.037371,0.633423,0.034722,0.772122 Neck:0.159249,-0.047179,0.983751,-0.068181 ShoulderLeft:-0.111530,0.772523,-0.598049,0.181954 ShoulderRight:0.096300,0.769954,0.627224,0.066981 SpineBase:0.099450,-0.037685,0.993800,-0.032413 SpineMid:0.128724,-0.038624,0.990434,-0.031287 SpineShoulder:0.158977,-0.042957,0.985167,-0.048241 ThumbLeft:0.000000,0.000000,0.000000,0.000000 ThumbRight:0.000000,0.000000,0.000000,0.000000 WristLeft:-0.240662,-0.028760,-0.449543,0.859748 WristRight:-0.084130,0.812580,0.081064,-0.571020 END:
KINECT_DATA POSITION:-1.858693,-0.677422,-3.951395 HEAD_JOINT1:0.978486,0.135969,-0.000000,0.155168 LARM_JOINT2:0.790833,0.000000,-0.540106,-0.287868 LARM_JOINT3:0.967620,0.000000,-0.247818,-0.047930 LLEG_JOINT2:0.995129,0.044715,0.000000,0.087858 LLEG_JOINT4:0.993256,0.092088,0.000000,-0.070441 RARM_JOINT2:0.778530,0.000000,-0.068686,0.623837 RARM_JOINT3:0.959358,0.000000,0.203530,0.195467 RLEG_JOINT2:0.998844,-0.007220,-0.000000,-0.047514 RLEG_JOINT4:0.993108,0.116920,0.000000,0.008185 WAIST:0.995378,0.000000,-0.096012,-0.002200 WAIST_JOINT0:0.987376,0.000000,-0.158391,-0.001029 WAIST_JOINT1:0.997430,0.055068,0.000000,-0.045845 END:
KINECT_DATA_Sensor  AnkleLeft:0.080163,0.786847,-0.110720,-0.601820 AnkleRight:0.072661,0.734737,0.091560,0.668205 ElbowLeft:-0.463822,0.879185,0.029734,-0.104968 ElbowRight:0.041014,0.820770,0.183911,0.539288 FootLeft:0.000000,0.000000,0.000000,0.000000 FootRight:0.000000,0.000000,0.000000,0.000000 HandLeft:-0.066299,-0.284118,-0.607435,0.738853 HandRight:-0.139787,0.792718,0.012189,-0.593219 HandTipLeft:0.000000,0.000000,0.000000,0.000000 HandTipRight:0.000000,0.000000,0.000000,0.000000 Head:0.000000,0.000000,0.000000,0.000000 HipLeft:0.184813,-0.672122,0.687752,-0.202714 HipRight:-0.057506,0.687480,0.714013,-0.119370 KneeLeft:-0.037376,0.771313,-0.089020,-0.629090 KneeRight:-0.037248,0.637315,0.033735,0.768963 Neck:0.159576,-0.049884,0.983258,-0.072467 ShoulderLeft:-0.109158,0.766980,-0.605386,0.182574 ShoulderRight:0.100374,0.768114,0.628883,0.066575 SpineBase:0.094597,-0.038164,0.994173,-0.034849 SpineMid:0.126477,-0.039263,0.990622,-0.033605 SpineShoulder:0.159303,-0.045079,0.984871,-0.051176 ThumbLeft:0.000000,0.000000,0.000000,0.000000 ThumbRight:0.000000,0.000000,0.000000,0.000000 WristLeft:-0.064054,-0.307172,-0.531289,0.786940 WristRight:-0.081936,0.806166,0.081888,-0.580239 END:
KINECT_DATA POSITION:-1.857615,-0.615042,-4.062200 HEAD_JOINT1:0.978886,0.131890,-0.000000,0.156163 LARM_JOINT2:0.841098,0.000000,-0.473076,-0.262210 LARM_JOINT3:0.937161,0.000000,-0.337055,-0.090134 LLEG_JOINT2:0.995314,0.043229,0.000000,0.086496 LLEG_JOINT4:0.993319,0.093607,0.000000,-0.067497 RARM_JOINT2:0.777425,0.000000,-0.066321,0.625469 RARM_JOINT3:0.959541,0.000000,0.202760,0.195372 RLEG_JOINT2:0.998786,-0.007828,-0.000000,-0.048639 RLEG_JOINT4:0.992893,0.118554,0.000000,0.010453 WAIST:0.995523,0.000000,-0.094510,-0.001221 WAIST_JOINT0:0.987277,0.000000,-0.158971,0.003424 WAIST_JOINT1:0.997210,0.057191,0.000000,-0.047972 END:
KINECT_DATA_Sensor  AnkleLeft:0.078800,0.787301,-0.112231,-0.601126 AnkleRight:0.074304,0.733619,0.090656,0.669375 ElbowLeft:-0.464428,0.864668,-0.025042,-0.189811 ElbowRight:0.041102,0.821425,0.183534,0.538412 FootLeft:0.000000,0.000000,0.000000,0.000000 FootRight:0.000000,0.000000,0.000000,0.000000 HandLeft:-0.021935,-0.382142,-0.485360,0.786074 HandRight:-0.140031,0.809443,0.001997,-0.570254 HandTipLeft:0.000000,0.000000,0.000000,0.000000 HandTipRight:0.000000,0.000000,0.000000,0.000000 Head:0.000000,0.000000,0.000000,0.000000 HipLeft:0.182975,-0.671646,0.688673,-0.202832 HipRight:-0.056855,0.688005,0.713159,-0.121744 KneeLeft:-0.037871,0.770136,-0.087740,-0.630681 KneeRight:-0.037780,0.638694,0.033482,0.767803 Neck:0.159826,-0.051167,0.982997,-0.074526 ShoulderLeft:-0.106990,0.760763,-0.613655,0.182262 ShoulderRight:0.104099,0.767086,0.629477,0.067088 SpineBase:0.092920,-0.038695,0.994241,-0.036774 SpineMid:0.125780,-0.039892,0.990621,-0.035473 SpineShoulder:0.159545,-0.046357,0.984661,-0.053281 ThumbLeft:0.000000,0.000000,0.000000,0.000000 ThumbRight:0.000000,0.000000,0.000000,0.000000 WristLeft:-0.042816,-0.360119,-0.582319,0.727589 WristRight:-0.083938,0.823226,0.078686,-0.555934 END:
KINECT_DATA POSITION:-1.826054,-0.579007,-4.142094 HEAD_JOINT1:0.978927,0.129084,-0.000000,0.158235 LARM_JOINT2:0.848737,0.000000,-0.437979,-0.296344 LARM_JOINT3:0.924157,0.000000,-0.372090,-0.086502 LLEG_JOINT2:0.995417,0.041522,0.000000,0.086142 LLEG_JOINT4:0.993312,0.090603,0.000000,-0.071573 RARM_JOINT2:0.776813,0.000000,-0.066524,0.626208 RARM_JOINT3:0.959763,0.000000,0.203103,0.193917 RLEG_JOINT2:0.998699,-0.008433,-0.000000,-0.050289 RLEG_JOINT4:0.992961,0.117877,0.000000,0.011562 WAIST:0.995667,0.000000,-0.092985,-0.000313 WAIST_JOINT0:0.987164,0.000000,-0.159658,0.003952 WAIST_JOINT1:0.997066,0.058369,0.000000,-0.049521 END:
KINECT_DATA_Sensor  AnkleLeft:0.078602,0.787801,-0.106235,-0.601586 AnkleRight:0.058853,0.624830,0.099922,0.772100 ElbowLeft:-0.430644,0.871212,-0.029099,-0.233857 ElbowRight:0.041846,0.821171,0.183904,0.538616 FootLeft:0.000000,0.000000,0.000000,0.000000 FootRight:0.000000,0.000000,0.000000,0.000000 HandLeft:-0.029091,-0.367558,-0.457149,0.809364 HandRight:-0.134557,0.814976,0.001514,-0.563654 HandTipLeft:0.000000,0.000000,0.000000,0.000000 HandTipRight:0.000000,0.000000,0.000000,0.000000 Head:0.000000,0.000000,0.000000,0.000000 HipLeft:0.181292,-0.671185,0.689586,-0.202769 HipRight:-0.056406,0.688403,0.712432,-0.123935 KneeLeft:-0.039233,0.768893,-0.086889,-0.632230 KneeRight:-0.038699,0.640052,0.033682,0.766617 Neck:0.160395,-0.051987,0.982789,-0.075474 ShoulderLeft:-0.105296,0.760269,-0.614553,0.182286 ShoulderRight:0.106716,0.766558,0.629579,0.068043 SpineBase:0.091231,-0.039225,0.994314,-0.038433 SpineMid:0.125221,-0.040518,0.990608,-0.037068 SpineShoulder:0.160112,-0.047193,0.984466,-0.054432 ThumbLeft:0.000000,0.000000,0.000000,0.000000 ThumbRight:0.000000,0.000000,0.000000,0.000000 WristLeft:-0.066193,-0.340466,-0.585793,0.732494 WristRight:-0.084309,0.827397,0.077726,-0.549786 END:
KINECT_DATA POSITION:-1.799017,-0.553875,-4.188311 HEAD_JOINT1:0.978808,0.133729,-0.000000,0.155085 LARM_JOINT2:0.850484,0.000000,-0.428613,-0.304906 LARM_JOINT3:0.919879,0.000000,-0.383969,-0.079941 LLEG_JOINT2:0.995413,0.040500,0.000000,0.086681 LLEG_JOINT4:0.993450,0.089498,0.000000,-0.071042 RARM_JOINT2:0.777392,0.000000,-0.067407,0.625394 RARM_JOINT3:0.958899,0.000000,0.205507,0.195651 RLEG_JOINT2:0.998732,-0.008421,-0.000000,-0.049631 RLEG_JOINT4:0.993246,0.115588,0.000000,0.010115 WAIST:0.995796,0.000000,-0.091600,-0.000307 WAIST_JOINT0:0.987150,0.000000,-0.159749,0.003975 WAIST_JOINT1:0.997140,0.057761,0.000000,-0.048733 END:
KINECT_DATA_Sensor  AnkleLeft:0.076684,0.788173,-0.105192,-0.601530 AnkleRight:0.056334,0.625187,0.099226,0.772090 ElbowLeft:-0.423132,0.869996,-0.028435,-0.251512 ElbowRight:0.041913,0.822633,0.184073,0.536316 FootLeft:0.000000,0.000000,0.000000,0.000000 FootRight:0.000000,0.000000,0.000000,0.000000 HandLeft:-0.106554,-0.223100,-0.453370,0.856346 HandRight:-0.147139,0.795298,0.011254,-0.587983 HandTipLeft:0.000000,0.000000,0.000000,0.000000 HandTipRight:0.000000,0.000000,0.000000,0.000000 Head:0.000000,0.000000,0.000000,0.000000 HipLeft:0.180351,-0.671394,0.689751,-0.202354 HipRight:-0.057091,0.688316,0.712257,-0.125109 KneeLeft:-0.040201,0.767889,-0.086504,-0.633441 KneeRight:-0.038310,0.641166,0.033126,0.765729 Neck:0.160625,-0.051147,0.982888,-0.074263 ShoulderLeft:-0.106831,0.759465,-0.615155,0.182716 ShoulderRight:0.105592,0.766316,0.630101,0.067701 SpineBase:0.089832,-0.039215,0.994429,-0.038777 SpineMid:0.124622,-0.040549,0.990670,-0.037379 SpineShoulder:0.160334,-0.046668,0.984490,-0.053806 ThumbLeft:0.000000,0.000000,0.000000,0.000000 ThumbRight:0.000000,0.000000,0.000000,0.000000 WristLeft:-0.165750,-0.206813,-0.572041,0.776224 WristRight:-0.081651,0.810023,0.079303,-0.575245 END:
KINECT_DATA POSITION:-1.789434,-0.551425,-4.211199 HEAD_JOINT1:0.978423,0.139484,-0.000000,0.152422 LARM_JOINT2:0.850514,0.000000,-0.428286,-0.305282 LARM_JOINT3:0.920169,0.000000,-0.383824,-0.077261 LLEG_JOINT2:0.995475,0.039944,0.000000,0.086221 LLEG_JOINT4:0.992905,0.094593,0.000000,-0.072050 RARM_JOINT2:0.777904,0.000000,-0.067646,0.624732 RARM_JOINT3:0.958890,0.000000,0.207487,0.193594 RLEG_JOINT2:0.998719,-0.008271,-0.000000,-0.049919 RLEG_JOINT4:0.993318,0.114993,0.000000,0.009813 WAIST:0.995897,0.000000,-0.090497,-0.000079 WAIST_JOINT0:0.987226,0.000000,-0.159265,0.004398 WAIST_JOINT1:0.997213,0.057095,0.000000,-0.048027 END:
KINECT_DATA_Sensor  AnkleLeft:0.080904,0.787267,-0.107484,-0.601758 AnkleRight:0.055596,0.625553,0.099331,0.771833 ElbowLeft:-0.423827,0.867801,-0.026715,-0.258030 ElbowRight:0.041605,0.823981,0.183802,0.534360 FootLeft:0.000000,0.000000,0.000000,0.000000 FootRight:0.000000,0.000000,0.000000,0.000000 HandLeft:-0.013077,-0.386520,-0.460455,0.799007 HandRight:-0.148712,0.812351,0.020116,-0.563530 HandTipLeft:0.000000,0.000000,0.000000,0.000000 HandTipRight:0.000000,0.000000,0.000000,0.000000 Head:0.000000,0.000000,0.000000,0.000000 HipLeft:0.180051,-0.671583,0.689901,-0.201483 HipRight:-0.058327,0.688520,0.711906,-0.125407 KneeLeft:-0.040277,0.767172,-0.085985,-0.634375 KneeRight:-0.038257,0.641951,0.033236,0.765069 Neck:0.160253,-0.050480,0.983027,-0.073679 ShoulderLeft:-0.108634,0.758058,-0.616507,0.182937 ShoulderRight:0.103538,0.766257,0.630629,0.066612 SpineBase:0.088761,-0.038856,0.994564,-0.038137 SpineMid:0.123897,-0.040181,0.990800,-0.036739 SpineShoulder:0.159982,-0.045810,0.984631,-0.052996 ThumbLeft:0.000000,0.000000,0.000000,0.000000 ThumbRight:0.000000,0.000000,0.000000,0.000000 WristLeft:-0.044659,-0.355300,-0.597511,0.717459 WristRight:-0.083826,0.825259,0.076337,-0.553257 END:
KINECT_DATA POSITION:-1.821826,-0.571252,-4.209805 HEAD_JOINT1:0.978094,0.145348,-0.000000,0.149014 LARM_JOINT2:0.844189,0.000000,-0.457146,-0.279933 LARM_JOINT3:0.938106,0.000000,-0.332105,-0.098306 LLEG_JOINT2:0.995421,0.041223,0.000000,0.086246 LLEG_JOINT4:0.992944,0.096090,0.000000,-0.069484 RARM_JOINT2:0.778938,0.000000,-0.068751,0.623321 RARM_JOINT3:0.961294,0.000000,0.199027,0.190531 RLEG_JOINT2:0.998748,-0.009219,-0.000000,-0.049157 RLEG_JOINT4:0.993052,0.117289,0.000000,0.009490 WAIST:0.995721,0.000000,-0.092404,-0.000477 WAIST_JOINT0:0.987178,0.000000,-0.159577,0.003793 WAIST_JOINT1:0.997344,0.055855,0.000000,-0.046753 END:
KINECT_DATA_Sensor  AnkleLeft:0.080807,0.787351,-0.111222,-0.600981 AnkleRight:0.056990,0.625190,0.099940,0.771946 ElbowLeft:-0.449572,0.870000,-0.033193,-0.199709 ElbowRight:0.041728,0.823920,0.184223,0.534300 FootLeft:0.000000,0.000000,0.000000,0.000000 FootRight:0.000000,0.000000,0.000000,0.000000 HandLeft:0.004206,-0.367026,-0.429951,0.824874 HandRight:-0.120442,0.813517,0.010512,-0.568836 HandTipLeft:0.000000,0.000000,0.000000,0.000000 HandTipRight:0.000000,0.000000,0.000000,0.000000 Head:0.000000,0.000000,0.000000,0.000000 HipLeft:0.181427,-0.671668,0.689247,-0.202201 HipRight:-0.057525,0.688607,0.712210,-0.123563 KneeLeft:-0.039336,0.768555,-0.086633,-0.632670 KneeRight:-0.038724,0.640438,0.032398,0.766348 Neck:0.160738,-0.049104,0.983147,-0.071926 ShoulderLeft:-0.111677,0.757975,-0.615639,0.184366 ShoulderRight:0.101075,0.766538,0.630782,0.065706 SpineBase:0.090734,-0.038650,0.994419,-0.037482 SpineMid:0.125114,-0.039924,0.990680,-0.036121 SpineShoulder:0.160462,-0.044872,0.984646,-0.052055 ThumbLeft:0.000000,0.000000,0.000000,0.000000 ThumbRight:0.000000,0.000000,0.000000,0.000000 WristLeft:-0.056719,-0.345910,-0.574447,0.739689 WristRight:-0.081201,0.822460,0.076586,-0.557764 END:
KINECT_DATA POSITION:-1.838419,-0.590037,-4.220903 HEAD_JOINT1:0.978629,0.142660,-0.000000,0.148100 LARM_JOINT2:0.841955,0.000000,-0.464195,-0.275017 LARM_JOINT3:0.937696,0.000000,-0.334614,-0.093591 LLEG_JOINT2:0.995319,0.043604,0.000000,0.086243 LLEG_JOINT4:0.993219,0.092223,0.000000,-0.070785 RARM_JOINT2:0.778792,0.000000,-0.066306,0.623768 RARM_JOINT3:0.960994,0.000000,0.200595,0.190401 RLEG_JOINT2:0.998773,-0.009972,-0.000000,-0.048511 RLEG_JOINT4:0.992619,0.120930,0.000000,0.009178 WAIST:0.995580,0.000000,-0.093913,-0.000746 WAIST_JOINT0:0.987067,0.000000,-0.160289,0.002405 WAIST_JOINT1:0.997159,0.058061,0.000000,-0.047998 END:
KINECT_DATA_Sensor  AnkleLeft:0.080609,0.787775,-0.109302,-0.600805 AnkleRight:0.059482,0.624385,0.101580,0.772196 ElbowLeft:-0.452253,0.871711,-0.032724,-0.185784 ElbowRight:0.041891,0.823454,0.185365,0.534610 FootLeft:0.000000,0.000000,0.000000,0.000000 FootRight:0.000000,0.000000,0.000000,0.000000 HandLeft:-0.022625,-0.359336,-0.466246,0.808072 HandRight:-0.128204,0.812113,0.013624,-0.569078 HandTipLeft:0.000000,0.000000,0.000000,0.000000 HandTipRight:0.000000,0.000000,0.000000,0.000000 Head:0.000000,0.000000,0.000000,0.000000 HipLeft:0.182140,-0.671647,0.688786,-0.203197 HipRight:-0.056552,0.688691,0.712366,-0.122642 KneeLeft:-0.037716,0.769712,-0.088224,-0.631140 KneeRight:-0.039035,0.639290,0.031669,0.767321 Neck:0.161335,-0.051051,0.982712,-0.075119 ShoulderLeft:-0.111015,0.759410,-0.613346,0.186493 ShoulderRight:0.102551,0.766596,0.630562,0.064843 SpineBase:0.092260,-0.038488,0.994280,-0.037601 SpineMid:0.126206,-0.039752,0.990544,-0.036263 SpineShoulder:0.161098,-0.045988,0.984381,-0.054099 ThumbLeft:0.000000,0.000000,0.000000,0.000000 ThumbRight:0.000000,0.000000,0.000000,0.000000 WristLeft:-0.057873,-0.343107,-0.566628,0.746901 WristRight:-0.078640,0.822467,0.076879,-0.558080 END:
KINECT_DATA POSITION:-1.836473,-0.563698,-4.284954 HEAD_JOINT1:0.979061,0.140959,-0.000000,0.146870 LARM_JOINT2:0.834517,0.000000,-0.478861,-0.272534 LARM_JOINT3:0.943732,0.000000,-0.318308,-0.089722 LLEG_JOINT2:0.995339,0.043080,0.000000,0.086285 LLEG_JOINT4:0.993054,0.091447,0.000000,-0.074039 RARM_JOINT2:0.779384,0.000000,-0.064151,0.623254 RARM_JOINT3:0.961579,0.000000,0.198726,0.189402 RLEG_JOINT2:0.998775,-0.009561,-0.000000,-0.048558 RLEG_JOINT4:0.992316,0.123389,0.000000,0.009179 WAIST:0.995615,0.000000,-0.093541,-0.000657 WAIST_JOINT0:0.986932,0.000000,-0.161120,0.002395 WAIST_JOINT1:0.997036,0.060121,0.000000,-0.048001 END:
KINECT_DATA_Sensor  AnkleLeft:0.082133,0.787988,-0.106167,-0.600881 AnkleRight:0.076164,0.730668,0.093256,0.672032 ElbowLeft:-0.456046,0.871287,-0.019799,-0.180244 ElbowRight:0.041382,0.822294,0.186411,0.536070 FootLeft:0.000000,0.000000,0.000000,0.000000 FootRight:0.000000,0.000000,0.000000,0.000000 HandLeft:-0.016522,-0.380038,-0.459554,0.802563 HandRight:-0.124777,0.785722,0.010093,-0.605780 HandTipLeft:0.000000,0.000000,0.000000,0.000000 HandTipRight:0.000000,0.000000,0.000000,0.000000 Head:0.000000,0.000000,0.000000,0.000000 HipLeft:0.181015,-0.671343,0.689209,-0.203771 HipRight:-0.055712,0.688469,0.712450,-0.123778 KneeLeft:-0.038132,0.769351,-0.087919,-0.631598 KneeRight:-0.038692,0.639687,0.031895,0.766998 Neck:0.161920,-0.050571,0.982486,-0.077113 ShoulderLeft:-0.108453,0.758823,-0.614359,0.187056 ShoulderRight:0.106004,0.766037,0.630630,0.065243 SpineBase:0.091806,-0.038629,0.994261,-0.039057 SpineMid:0.126246,-0.039961,0.990477,-0.037694 SpineShoulder:0.161652,-0.046069,0.984174,-0.056108 ThumbLeft:0.000000,0.000000,0.000000,0.000000 ThumbRight:0.000000,0.000000,0.000000,0.000000 WristLeft:-0.041145,-0.357796,-0.567484,0.740440 WristRight:-0.072416,0.797696,0.081285,-0.593152 END:
KINECT_DATA POSITION:-1.857978,-0.513785,-4.318774 HEAD_JOINT1:0.979095,0.142507,-0.000000,0.145139 LARM_JOINT2:0.828892,0.000000,-0.494404,-0.261732 LARM_JOINT3:0.950174,0.000000,-0.294279,-0.102804 LLEG_JOINT2:0.995307,0.042654,0.000000,0.086863 LLEG_JOINT4:0.992829,0.093934,0.000000,-0.073937 RARM_JOINT2:0.779977,0.000000,-0.065648,0.622355 RARM_JOINT3:0.962415,0.000000,0.196638,0.187328 RLEG_JOINT2:0.998761,-0.010310,-0.000000,-0.048692 RLEG_JOINT4:0.992672,0.120479,0.000000,0.009369 WAIST:0.995592,0.000000,-0.093788,-0.000649 WAIST_JOINT0:0.986463,0.000000,-0.163982,0.000985 WAIST_JOINT1:0.997035,0.060725,0.000000,-0.047260 END:
KINECT_DATA_Sensor  AnkleLeft:0.083246,0.789155,-0.107949,-0.598876 AnkleRight:0.074224,0.739192,0.090373,0.663263 ElbowLeft:-0.466367,0.872746,-0.026577,-0.141808 ElbowRight:0.042443,0.820350,0.187408,0.538611 FootLeft:0.000000,0.000000,0.000000,0.000000 FootRight:0.000000,0.000000,0.000000,0.000000 HandLeft:-0.042556,-0.333016,-0.450188,0.827418 HandRight:-0.107512,0.810969,-0.000259,-0.575126 HandTipLeft:0.000000,0.000000,0.000000,0.000000 HandTipRight:0.000000,0.000000,0.000000,0.000000 Head:0.000000,0.000000,0.000000,0.000000 HipLeft:0.180962,-0.671066,0.689235,-0.204642 HipRight:-0.055444,0.688337,0.712477,-0.124480 KneeLeft:-0.038886,0.769410,-0.087955,-0.631474 KneeRight:-0.039340,0.639553,0.031530,0.767092 Neck:0.164666,-0.049944,0.982028,-0.077539 ShoulderLeft:-0.109615,0.758109,-0.614344,0.189305 ShoulderRight:0.108582,0.764634,0.631717,0.066921 SpineBase:0.092019,-0.038521,0.994215,-0.039820 SpineMid:0.127714,-0.039928,0.990262,-0.038408 SpineShoulder:0.164421,-0.045450,0.983715,-0.056607 ThumbLeft:0.000000,0.000000,0.000000,0.000000 ThumbRight:0.000000,0.000000,0.000000,0.000000 WristLeft:-0.073457,-0.316318,-0.549305,0.769942 WristRight:-0.075214,0.819815,0.079176,-0.562118 END:
KINECT_DATA POSITION:-1.870441,-0.455776,-4.348540 HEAD_JOINT1:0.977749,0.144689,-0.000000,0.151893 LARM_JOINT2:0.830648,0.000000,-0.488494,-0.267202 LARM_JOINT3:0.948075,0.000000,-0.304529,-0.091735 LLEG_JOINT2:0.995222,0.042036,0.000000,0.088123 LLEG_JOINT4:0.992740,0.094008,0.000000,-0.075030 RARM_JOINT2:0.778869,0.000000,-0.066164,0.623687 RARM_JOINT3:0.961567,0.000000,0.199536,0.188609 RLEG_JOINT2:0.998781,-0.010506,-0.000000,-0.048234 RLEG_JOINT4:0.992499,0.121950,0.000000,0.008575 WAIST:0.995496,0.000000,-0.094795,-0.001186 WAIST_JOINT0:0.985924,0.000000,-0.167195,-0.000336 WAIST_JOINT1:0.996899,0.062307,0.000000,-0.048064 END:
KINECT_DATA_Sensor  AnkleLeft:0.083162,0.790683,-0.107221,-0.596999 AnkleRight:0.058994,0.620301,0.102645,0.775377 ElbowLeft:-0.459775,0.873874,-0.022041,-0.156414 ElbowRight:0.044235,0.818874,0.187738,0.540594 FootLeft:0.000000,0.000000,0.000000,0.000000 FootRight:0.000000,0.000000,0.000000,0.000000 HandLeft:-0.051292,-0.313779,-0.468828,0.824082 HandRight:-0.121513,0.805731,0.004142,-0.579669 HandTipLeft:0.000000,0.000000,0.000000,0.000000 HandTipRight:0.000000,0.000000,0.000000,0.000000 Head:0.000000,0.000000,0.000000,0.000000 HipLeft:0.181118,-0.670921,0.688916,-0.206047 HipRight:-0.054299,0.687732,0.713019,-0.125222 KneeLeft:-0.039977,0.769934,-0.087861,-0.630780 KneeRight:-0.039542,0.638883,0.031476,0.767642 Neck:0.167809,-0.051604,0.981288,-0.079058 ShoulderLeft:-0.108905,0.757933,-0.614105,0.191186 ShoulderRight:0.113667,0.762505,0.633086,0.069772 SpineBase:0.092977,-0.039155,0.994049,-0.041096 SpineMid:0.129780,-0.040652,0.989917,-0.039616 SpineShoulder:0.167588,-0.046736,0.983033,-0.058105 ThumbLeft:0.000000,0.000000,0.000000,0.000000 ThumbRight:0.000000,0.000000,0.000000,0.000000 WristLeft:-0.083386,-0.302660,-0.551323,0.772973 WristRight:-0.072493,0.816994,0.078797,-0.566618 END:
KINECT_DATA POSITION:-1.873048,-0.423474,-4.344404 HEAD_JOINT1:0.977541,0.148247,-0.000000,0.149790 LARM_JOINT2:0.826327,0.000000,-0.499383,-0.260384 LARM_JOINT3:0.950490,0.000000,-0.297586,-0.089501 LLEG_JOINT2:0.995268,0.041667,0.000000,0.087776 LLEG_JOINT4:0.993019,0.092417,0.000000,-0.073302 RARM_JOINT2:0.779391,0.000000,-0.065672,0.623086 RARM_JOINT3:0.960539,0.000000,0.204343,0.188704 RLEG_JOINT2:0.998739,-0.010693,-0.000000,-0.049045 RLEG_JOINT4:0.992622,0.120949,0.000000,0.008519 WAIST:0.995512,0.000000,-0.094636,-0.000681 WAIST_JOINT0:0.985827,0.000000,-0.167765,-0.000130 WAIST_JOINT1:0.996875,0.063037,0.000000,-0.047606 END:
KINECT_DATA_Sensor  AnkleLeft:0.080584,0.791346,-0.107043,-0.596506 AnkleRight:0.057826,0.620193,0.102224,0.775607 ElbowLeft:-0.466556,0.873139,-0.021642,-0.139592 ElbowRight:0.044470,0.818579,0.187829,0.540991 FootLeft:0.000000,0.000000,0.000000,0.000000 FootRight:0.000000,0.000000,0.000000,0.000000 HandLeft:-0.031422,-0.357115,-0.490555,0.794252 HandRight:-0.134657,0.807016,0.014997,-0.574776 HandTipLeft:0.000000,0.000000,0.000000,0.000000 HandTipRight:0.000000,0.000000,0.000000,0.000000 Head:0.000000,0.000000,0.000000,0.000000 HipLeft:0.180653,-0.670426,0.689337,-0.206659 HipRight:-0.054075,0.687955,0.712666,-0.126099 KneeLeft:-0.040300,0.769725,-0.087712,-0.631035 KneeRight:-0.039848,0.639067,0.031625,0.767467 Neck:0.168106,-0.050522,0.981249,-0.079618 ShoulderLeft:-0.107412,0.756193,-0.616570,0.190990 ShoulderRight:0.115847,0.761583,0.633755,0.070186 SpineBase:0.092748,-0.038845,0.994046,-0.041964 SpineMid:0.129813,-0.040386,0.989888,-0.040484 SpineShoulder:0.167897,-0.045852,0.982975,-0.058884 ThumbLeft:0.000000,0.000000,0.000000,0.000000 ThumbRight:0.000000,0.000000,0.000000,0.000000 WristLeft:-0.049535,-0.347175,-0.551045,0.757209 WristRight:-0.072718,0.819338,0.078509,-0.563235 END:
KINECT_DATA POSITION:-1.857858,-0.413372,-4.301238 HEAD_JOINT1:0.976982,0.150028,-0.000000,0.151649 LARM_JOINT2:0.827305,0.000000,-0.496323,-0.263116 LARM_JOINT3:0.949981,0.000000,-0.299559,-0.088316 LLEG_JOINT2:0.995327,0.042291,0.000000,0.086807 LLEG_JOINT4:0.993246,0.091513,0.000000,-0.071329 RARM_JOINT2:0.779635,0.000000,-0.065378,0.622812 RARM_JOINT3:0.960167,0.000000,0.205303,0.189555 RLEG_JOINT2:0.998682,-0.010942,-0.000000,-0.050150 RLEG_JOINT4:0.992462,0.122038,0.000000,0.011253 WAIST:0.995413,0.000000,-0.095668,-0.000133 WAIST_JOINT0:0.985763,0.000000,-0.168139,-0.000031 WAIST_JOINT1:0.996870,0.062829,0.000000,-0.047989 END:
KINECT_DATA_Sensor  AnkleLeft:0.079124,0.791748,-0.108061,-0.595985 AnkleRight:0.060043,0.619494,0.101054,0.776150 ElbowLeft:-0.464332,0.872793,-0.018040,-0.149343 ElbowRight:0.044353,0.818403,0.187820,0.541269 FootLeft:0.000000,0.000000,0.000000,0.000000 FootRight:0.000000,0.000000,0.000000,0.000000 HandLeft:-0.043400,-0.332013,-0.482423,0.809414 HandRight:-0.139401,0.799522,0.018420,-0.583945 HandTipLeft:0.000000,0.000000,0.000000,0.000000 HandTipRight:0.000000,0.000000,0.000000,0.000000 Head:0.000000,0.000000,0.000000,0.000000 HipLeft:0.181221,-0.669805,0.689495,-0.207648 HipRight:-0.053291,0.688339,0.712322,-0.126282 KneeLeft:-0.039629,0.770388,-0.087917,-0.630240 KneeRight:-0.040319,0.638342,0.031980,0.768031 Neck:0.168470,-0.050092,0.981239,-0.079242 ShoulderLeft:-0.106962,0.756320,-0.616542,0.190827 ShoulderRight:0.116676,0.761510,0.633606,0.070936 SpineBase:0.093696,-0.038963,0.993927,-0.042564 SpineMid:0.130469,-0.040513,0.989772,-0.041091 SpineShoulder:0.168255,-0.045641,0.982923,-0.058897 ThumbLeft:0.000000,0.000000,0.000000,0.000000 ThumbRight:0.000000,0.000000,0.000000,0.000000 WristLeft:-0.069420,-0.321923,-0.553742,0.764799 WristRight:-0.071917,0.812748,0.079570,-0.572658 END:
KINECT_DATA POSITION:-1.862902,-0.405964,-4.258645 HEAD_JOINT1:0.977544,0.154540,-0.000000,0.143264 LARM_JOINT2:0.827442,0.000000,-0.493147,-0.268599 LARM_JOINT3:0.948079,0.000000,-0.305963,-0.086795 LLEG_JOINT2:0.995292,0.042353,0.000000,0.087182 LLEG_JOINT4:0.993203,0.091557,0.000000,-0.071865 RARM_JOINT2:0.781096,0.000000,-0.066658,0.620842 RARM_JOINT3:0.959963,0.000000,0.206010,0.189818 RLEG_JOINT2:0.998696,-0.010599,-0.000000,-0.049932 RLEG_JOINT4:0.992597,0.120966,0.000000,0.010916 WAIST:0.995445,0.000000,-0.095337,-0.000316 WAIST_JOINT0:0.985746,0.000000,-0.168241,0.000145 WAIST_JOINT1:0.997066,0.061694,0.000000,-0.045323 END:
KINECT_DATA_Sensor  AnkleLeft:0.079510,0.791749,-0.107835,-0.595972 AnkleRight:0.074875,0.737983,0.089826,0.664609 ElbowLeft:-0.461513,0.873976,-0.019777,-0.150932 ElbowRight:0.044165,0.818234,0.187730,0.541571 FootLeft:0.000000,0.000000,0.000000,0.000000 FootRight:0.000000,0.000000,0.000000,0.000000 HandLeft:-0.027548,-0.362463,-0.490246,0.792162 HandRight:-0.142734,0.789427,0.023031,-0.596575 HandTipLeft:0.000000,0.000000,0.000000,0.000000 HandTipRight:0.000000,0.000000,0.000000,0.000000 Head:0.000000,0.000000,0.000000,0.000000 HipLeft:0.181210,-0.669899,0.689371,-0.207764 HipRight:-0.054563,0.688228,0.712337,-0.126261 KneeLeft:-0.039716,0.770204,-0.088092,-0.630434 KneeRight:-0.040061,0.638448,0.032136,0.767950 Neck:0.168422,-0.047343,0.981510,-0.077652 ShoulderLeft:-0.108278,0.754417,-0.618708,0.190608 ShoulderRight:0.115420,0.761341,0.634075,0.070619 SpineBase:0.093465,-0.037682,0.994020,-0.042058 SpineMid:0.130325,-0.039218,0.989862,-0.040630 SpineShoulder:0.168214,-0.043325,0.983101,-0.057782 ThumbLeft:0.000000,0.000000,0.000000,0.000000 ThumbRight:0.000000,0.000000,0.000000,0.000000 WristLeft:-0.049288,-0.352546,-0.554864,0.751936 WristRight:-0.070428,0.803307,0.080925,-0.585823 END:
KINECT_DATA POSITION:-1.860124,-0.388730,-4.260111 HEAD_JOINT1:0.977151,0.153053,-0.000000,0.147480 LARM_JOINT2:0.827550,0.000000,-0.490438,-0.273187 LARM_JOINT3:0.947203,0.000000,-0.308953,-0.085761 LLEG_JOINT2:0.995290,0.042586,0.000000,0.087093 LLEG_JOINT4:0.993099,0.092689,0.000000,-0.071853 RARM_JOINT2:0.780196,0.000000,-0.066173,0.622025 RARM_JOINT3:0.961660,0.000000,0.200788,0.186803 RLEG_JOINT2:0.998640,-0.011400,-0.000000,-0.050867 RLEG_JOINT4:0.992446,0.122032,0.000000,0.012598 WAIST:0.995419,0.000000,-0.095605,-0.000173 WAIST_JOINT0:0.985730,0.000000,-0.168333,-0.000247 WAIST_JOINT1:0.996972,0.061911,0.000000,-0.047062 END:
KINECT_DATA_Sensor  AnkleLeft:0.080363,0.791665,-0.108901,-0.595776 AnkleRight:0.075579,0.737583,0.089192,0.665059 ElbowLeft:-0.457147,0.874284,-0.013619,-0.162661 ElbowRight:0.044125,0.818508,0.187735,0.541160 FootLeft:0.000000,0.000000,0.000000,0.000000 FootRight:0.000000,0.000000,0.000000,0.000000 HandLeft:-0.132393,-0.196699,-0.466419,0.852194 HandRight:-0.121720,0.827679,0.007873,-0.547786 HandTipLeft:0.000000,0.000000,0.000000,0.000000 HandTipRight:0.000000,0.000000,0.000000,0.000000 Head:0.000000,0.000000,0.000000,0.000000 HipLeft:0.181358,-0.669712,0.689456,-0.207954 HipRight:-0.054172,0.688303,0.712307,-0.126184 KneeLeft:-0.039620,0.770376,-0.088306,-0.630201 KneeRight:-0.041162,0.638256,0.032264,0.768045 Neck:0.168547,-0.049579,0.981340,-0.078135 ShoulderLeft:-0.108201,0.755341,-0.617553,0.190737 ShoulderRight:0.115698,0.761223,0.634134,0.070908 SpineBase:0.093705,-0.037841,0.993984,-0.042229 SpineMid:0.130563,-0.039384,0.989817,-0.040794 SpineShoulder:0.168385,-0.044678,0.982999,-0.057993 ThumbLeft:0.000000,0.000000,0.000000,0.000000 ThumbRight:0.000000,0.000000,0.000000,0.000000 WristLeft:-0.163471,-0.188524,-0.536377,0.806248 WristRight:-0.074753,0.837430,0.076304,-0.536004 END:
KINECT_DATA POSITION:-1.865526,-0.384701,-4.263842 HEAD_JOINT1:0.977510,0.155860,-0.000000,0.142062 LARM_JOINT2:0.826406,0.000000,-0.490753,-0.276071 LARM_JOINT3:0.947220,0.000000,-0.310371,-0.080278 LLEG_JOINT2:0.995283,0.041951,0.000000,0.087470 LLEG_JOINT4:0.993065,0.093508,0.000000,-0.071260 RARM_JOINT2:0.781426,0.000000,-0.067073,0.620383 RARM_JOINT3:0.961094,0.000000,0.201875,0.188535 RLEG_JOINT2:0.998668,-0.011047,-0.000000,-0.050400 RLEG_JOINT4:0.992547,0.121192,0.000000,0.012790 WAIST:0.995422,0.000000,-0.095581,-0.000297 WAIST_JOINT0:0.985745,0.000000,-0.168246,-0.000231 WAIST_JOINT1:0.997081,0.061338,0.000000,-0.045457 END:
KINECT_DATA_Sensor  AnkleLeft:0.079880,0.791684,-0.109585,-0.595691 AnkleRight:0.075241,0.736378,0.088636,0.666506 ElbowLeft:-0.456199,0.874460,-0.011456,-0.164535 ElbowRight:0.044186,0.818650,0.188254,0.540759 FootLeft:0.000000,0.000000,0.000000,0.000000 FootRight:0.000000,0.000000,0.000000,0.000000 HandLeft:-0.084754,-0.278820,-0.487497,0.823057 HandRight:-0.128160,0.810495,0.011972,-0.571428 HandTipLeft:0.000000,0.000000,0.000000,0.000000 HandTipRight:0.000000,0.000000,0.000000,0.000000 Head:0.000000,0.000000,0.000000,0.000000 HipLeft:0.181303,-0.669773,0.689394,-0.208013 HipRight:-0.054633,0.688279,0.712359,-0.125827 KneeLeft:-0.040233,0.770319,-0.087969,-0.630279 KneeRight:-0.040686,0.638193,0.032209,0.768126 Neck:0.168366,-0.047753,0.981517,-0.077446 ShoulderLeft:-0.109127,0.754130,-0.618864,0.190755 ShoulderRight:0.114623,0.761164,0.634468,0.070291 SpineBase:0.093742,-0.037032,0.994024,-0.041921 SpineMid:0.130482,-0.038558,0.989872,-0.040521 SpineShoulder:0.168188,-0.043311,0.983128,-0.057412 ThumbLeft:0.000000,0.000000,0.000000,0.000000 ThumbRight:0.000000,0.000000,0.000000,0.000000 WristLeft:-0.106998,-0.269347,-0.550548,0.782880 WristRight:-0.072449,0.821867,0.078450,-0.559581 END:
KINECT_DATA POSITION:-1.871520,-0.403608,-4.264116 HEAD_JOINT1:0.977095,0.154426,-0.000000,0.146419 LARM_JOINT2:0.832060,0.000000,-0.478504,-0.280554 LARM_JOINT3:0.946215,0.000000,-0.316133,-0.068833 LLEG_JOINT2:0.995295,0.042726,0.000000,0.086960 LLEG_JOINT4:0.992994,0.091254,0.000000,-0.075066 RARM_JOINT2:0.779900,0.000000,-0.066054,0.622409 RARM_JOINT3:0.960272,0.000000,0.205638,0.188655 RLEG_JOINT2:0.998626,-0.012405,-0.000000,-0.050912 RLEG_JOINT4:0.992364,0.122836,0.000000,0.011183 WAIST:0.995412,0.000000,-0.095687,0.000134 WAIST_JOINT0:0.985806,0.000000,-0.167886,0.000472 WAIST_JOINT1:0.997007,0.061110,0.000000,-0.047365 END:
KINECT_DATA_Sensor  AnkleLeft:0.081629,0.791308,-0.105991,-0.596603 AnkleRight:0.075583,0.742843,0.089483,0.659139 ElbowLeft:-0.450176,0.871096,-0.007082,-0.196169 ElbowRight:0.043657,0.818986,0.186931,0.540752 FootLeft:0.000000,0.000000,0.000000,0.000000 FootRight:0.000000,0.000000,0.000000,0.000000 HandLeft:-0.049658,-0.282203,-0.473456,0.832908 HandRight:-0.144425,0.798152,0.025845,-0.584317 HandTipLeft:0.000000,0.000000,0.000000,0.000000 HandTipRight:0.000000,0.000000,0.000000,0.000000 Head:0.000000,0.000000,0.000000,0.000000 HipLeft:0.181528,-0.669651,0.689518,-0.207797 HipRight:-0.054583,0.688729,0.711967,-0.125602 KneeLeft:-0.039645,0.770442,-0.088544,-0.630085 KneeRight:-0.041752,0.638147,0.031446,0.768138 Neck:0.168133,-0.049852,0.981459,-0.077359 ShoulderLeft:-0.109707,0.754870,-0.617851,0.190776 ShoulderRight:0.113734,0.761893,0.633755,0.070275 SpineBase:0.093820,-0.037129,0.994023,-0.041676 SpineMid:0.130455,-0.038643,0.989882,-0.040277 SpineShoulder:0.168000,-0.044564,0.983114,-0.057251 ThumbLeft:0.000000,0.000000,0.000000,0.000000 ThumbRight:0.000000,0.000000,0.000000,0.000000 WristLeft:-0.095218,-0.274582,-0.564497,0.772581 WristRight:-0.070912,0.811620,0.079423,-0.574401 END:
KINECT_DATA POSITION:-1.932298,-0.663958,-4.187655 HEAD_JOINT1:0.976278,0.163295,-0.000000,0.142185 LARM_JOINT2:0.861403,0.000000,-0.437371,-0.258246 LARM_JOINT3:0.939568,0.000000,-0.332705,-0.080747 LLEG_JOINT2:0.995157,0.044720,0.000000,0.087532 LLEG_JOINT4:0.993264,0.087682,0.000000,-0.075755 RARM_JOINT2:0.781160,0.000000,-0.064485,0.620992 RARM_JOINT3:0.960082,0.000000,0.204790,0.190536 RLEG_JOINT2:0.998770,-0.012638,-0.000000,-0.047938 RLEG_JOINT4:0.992412,0.122716,0.000000,0.007730 WAIST:0.995168,0.000000,-0.098190,-0.000357 WAIST_JOINT0:0.986418,0.000000,-0.164241,0.002218 WAIST_JOINT1:0.997401,0.056504,0.000000,-0.044696 END:
KINECT_DATA_Sensor  AnkleLeft:0.080115,0.789805,-0.105059,-0.598959 AnkleRight:0.073487,0.730362,0.091176,0.672947 ElbowLeft:-0.460303,0.861897,-0.061659,-0.203599 ElbowRight:0.041021,0.824302,0.184023,0.533835 FootLeft:0.000000,0.000000,0.000000,0.000000 FootRight:0.000000,0.000000,0.000000,0.000000 HandLeft:-0.036559,-0.216156,-0.472827,0.853449 HandRight:-0.154319,0.795713,0.040169,-0.584305 HandTipLeft:0.000000,0.000000,0.000000,0.000000 HandTipRight:0.000000,0.000000,0.000000,0.000000 Head:0.000000,0.000000,0.000000,0.000000 HipLeft:0.183642,-0.670429,0.688476,-0.206884 HipRight:-0.054104,0.689428,0.712159,-0.120793 KneeLeft:-0.038639,0.772342,-0.090021,-0.627607 KneeRight:-0.040330,0.636037,0.029433,0.770042 Neck:0.165385,-0.046338,0.982526,-0.071717 ShoulderLeft:-0.114642,0.753521,-0.619073,0.189239 ShoulderRight:0.105176,0.762791,0.634528,0.066802 SpineBase:0.096527,-0.036473,0.993909,-0.038704 SpineMid:0.130405,-0.037773,0.990033,-0.037436 SpineShoulder:0.165183,-0.042343,0.983910,-0.053314 ThumbLeft:0.000000,0.000000,0.000000,0.000000 ThumbRight:0.000000,0.000000,0.000000,0.000000 WristLeft:-0.102449,-0.223377,-0.557510,0.792962 WristRight:-0.073472,0.809247,0.077837,-0.577635 END:
KINECT_DATA POSITION:-2.087309,-1.225416,-3.943110 HEAD_JOINT1:0.975143,0.172686,-0.000000,0.138838 LARM_JOINT2:0.880674,0.000000,-0.444282,-0.164395 LARM_JOINT3:0.957925,0.000000,-0.227583,-0.174889 LLEG_JOINT2:0.994688,0.046897,0.000000,0.091628 LLEG_JOINT4:0.993835,0.084435,0.000000,-0.071852 RARM_JOINT2:0.782656,0.000000,-0.064965,0.619055 RARM_JOINT3:0.959120,0.000000,0.204531,0.195591 RLEG_JOINT2:0.999058,-0.009118,-0.000000,-0.042417 RLEG_JOINT4:0.992676,0.120662,0.000000,0.005984 WAIST:0.995644,0.000000,-0.093173,-0.003550 WAIST_JOINT0:0.987812,0.000000,-0.155643,-0.001356 WAIST_JOINT1:0.997926,0.051823,0.000000,-0.038176 END:
KINECT_DATA_Sensor  AnkleLeft:0.075980,0.786209,-0.107075,-0.603853 AnkleRight:0.074204,0.733073,0.091757,0.669835 ElbowLeft:-0.487458,0.840298,-0.236086,0.023406 ElbowRight:0.035660,0.825264,0.181849,0.533478 FootLeft:0.000000,0.000000,0.000000,0.000000 FootRight:0.000000,0.000000,0.000000,0.000000 HandLeft:0.003853,-0.136911,-0.454793,0.880002 HandRight:-0.166111,0.768259,0.029577,-0.617503 HandTipLeft:0.000000,0.000000,0.000000,0.000000 HandTipRight:0.000000,0.000000,0.000000,0.000000 Head:0.000000,0.000000,0.000000,0.000000 HipLeft:0.182367,-0.674320,0.686833,-0.200735 HipRight:-0.060120,0.687696,0.713840,-0.117866 KneeLeft:-0.037614,0.769653,-0.092290,-0.630637 KneeRight:-0.036525,0.639303,0.029435,0.767523 Neck:0.157991,-0.042586,0.984333,-0.065686 ShoulderLeft:-0.119037,0.764405,-0.605529,0.186683 ShoulderRight:0.089003,0.768292,0.631172,0.058552 SpineBase:0.092051,-0.034963,0.994595,-0.032938 SpineMid:0.124384,-0.036017,0.991071,-0.031783 SpineShoulder:0.157750,-0.039488,0.985500,-0.048423 ThumbLeft:0.000000,0.000000,0.000000,0.000000 ThumbRight:0.000000,0.000000,0.000000,0.000000 WristLeft:-0.033637,-0.155016,-0.457573,0.874909 WristRight:-0.076652,0.786477,0.084736,-0.606958 END:
KINECT_DATA POSITION:-2.006505,-1.600724,-3.835189 HEAD_JOINT1:0.975092,0.177239,-0.000000,0.133350 LARM_JOINT2:0.852243,0.000000,-0.474651,-0.219973 LARM_JOINT3:0.988926,0.000000,-0.133210,-0.065433 LLEG_JOINT2:0.994976,0.037039,0.000000,0.093016 LLEG_JOINT4:0.993399,0.092912,0.000000,-0.067268 RARM_JOINT2:0.784553,0.000000,-0.069925,0.616106 RARM_JOINT3:0.958557,0.000000,0.211711,0.190646 RLEG_JOINT2:0.999053,-0.000683,-0.000000,-0.043507 RLEG_JOINT4:0.993082,0.116537,0.000000,0.014377 WAIST:0.997979,0.000000,-0.063381,-0.004648 WAIST_JOINT0:0.990480,0.000000,-0.137603,-0.003750 WAIST_JOINT1:0.998130,0.052340,0.000000,-0.031576 END:
KINECT_DATA_Sensor  AnkleLeft:0.076399,0.777263,-0.106015,-0.615456 AnkleRight:0.075188,0.729543,0.093754,0.673294 ElbowLeft:-0.496947,0.847062,-0.093301,-0.163783 ElbowRight:0.032092,0.831574,0.183132,0.523371 FootLeft:0.000000,0.000000,0.000000,0.000000 FootRight:0.000000,0.000000,0.000000,0.000000 HandLeft:0.068197,-0.033681,-0.407551,0.910009 HandRight:-0.173850,0.773126,0.025895,-0.609411 HandTipLeft:0.000000,0.000000,0.000000,0.000000 HandTipRight:0.000000,0.000000,0.000000,0.000000 Head:0.000000,0.000000,0.000000,0.000000 HipLeft:0.164660,-0.681213,0.688691,-0.185852 HipRight:-0.081064,0.686132,0.710100,-0.135678 KneeLeft:-0.041724,0.749714,-0.086161,-0.654801 KneeRight:-0.032485,0.661415,0.035540,0.748473 Neck:0.140684,-0.038456,0.987190,-0.064696 ShoulderLeft:-0.107029,0.776811,-0.595827,0.173494 ShoulderRight:0.076460,0.773607,0.627364,0.045836 SpineBase:0.062564,-0.031231,0.997052,-0.031581 SpineMid:0.100883,-0.032423,0.993906,-0.030356 SpineShoulder:0.140385,-0.036443,0.988296,-0.047273 ThumbLeft:0.000000,0.000000,0.000000,0.000000 ThumbRight:0.000000,0.000000,0.000000,0.000000 WristLeft:0.031167,-0.050711,-0.518458,0.853029 WristRight:-0.079938,0.792918,0.083578,-0.598253 END:
KINECT_DATA POSITION:-1.860411,-1.751192,-3.707397 HEAD_JOINT1:0.976496,0.182224,-0.000000,0.115109 LARM_JOINT2:0.859088,0.000000,-0.446088,-0.250945 LARM_JOINT3:0.990733,0.000000,-0.131152,-0.035310 LLEG_JOINT2:0.995464,0.031839,0.000000,0.089652 LLEG_JOINT4:0.993655,0.092784,0.000000,-0.063570 RARM_JOINT2:0.793302,0.000000,-0.061665,0.605698 RARM_JOINT3:0.959956,0.000000,0.203315,0.192735 RLEG_JOINT2:0.998884,0.004229,0.000000,-0.047035 RLEG_JOINT4:0.993301,0.113936,0.000000,0.019265 WAIST:0.999178,0.000000,-0.040460,-0.002444 WAIST_JOINT0:0.993741,0.000000,-0.111708,-0.000269 WAIST_JOINT1:0.998519,0.049319,0.000000,-0.022987 END:
KINECT_DATA_Sensor  AnkleLeft:0.073591,0.764803,-0.102415,-0.631800 AnkleRight:0.064278,0.653331,0.103258,0.747238 ElbowLeft:-0.473333,0.846328,-0.109280,-0.218502 ElbowRight:0.021005,0.851133,0.182710,0.491680 FootLeft:0.000000,0.000000,0.000000,0.000000 FootRight:0.000000,0.000000,0.000000,0.000000 HandLeft:-0.020864,0.144775,-0.481560,0.864121 HandRight:-0.172328,0.724220,0.016549,-0.667483 HandTipLeft:0.000000,0.000000,0.000000,0.000000 HandTipRight:0.000000,0.000000,0.000000,0.000000 Head:0.000000,0.000000,0.000000,0.000000 HipLeft:0.151685,-0.682368,0.693799,-0.173231 HipRight:-0.098339,0.684549,0.707082,-0.147501 KneeLeft:-0.042349,0.734075,-0.082593,-0.672695 KneeRight:-0.030448,0.678104,0.039213,0.733287 Neck:0.113750,-0.028255,0.991177,-0.061895 ShoulderLeft:-0.084230,0.781286,-0.600732,0.147035 ShoulderRight:0.062954,0.779695,0.622203,0.031242 SpineBase:0.039783,-0.025663,0.998444,-0.029463 SpineMid:0.076074,-0.026717,0.996336,-0.028510 SpineShoulder:0.113532,-0.026636,0.992203,-0.043980 ThumbLeft:0.000000,0.000000,0.000000,0.000000 ThumbRight:0.000000,0.000000,0.000000,0.000000 WristLeft:-0.001163,0.153794,-0.497759,0.853570 WristRight:-0.079056,0.747051,0.085955,-0.654428 END:
KINECT_DATA POSITION:-1.928218,-1.779322,-3.659976 HEAD_JOINT1:0.978105,0.188808,-0.000000,0.087532 LARM_JOINT2:0.865333,0.000000,-0.445832,-0.228983 LARM_JOINT3:0.990170,0.000000,-0.134216,-0.039364 LLEG_JOINT2:0.995749,0.027152,0.000000,0.088015 LLEG_JOINT4:0.994456,0.092213,0.000000,-0.050540 RARM_JOINT2:0.805346,0.000000,-0.039848,0.591465 RARM_JOINT3:0.960255,0.000000,0.195770,0.198957 RLEG_JOINT2:0.998885,0.010505,0.000000,-0.046016 RLEG_JOINT4:0.993616,0.110252,0.000000,0.023901 WAIST:0.999855,0.000000,-0.016904,-0.002046 WAIST_JOINT0:0.995720,0.000000,-0.092418,0.000455 WAIST_JOINT1:0.998744,0.048080,0.000000,-0.014087 END:
KINECT_DATA_Sensor  AnkleLeft:0.065195,0.756134,-0.105365,-0.642581 AnkleRight:0.077014,0.734771,0.095732,0.667095 ElbowLeft:-0.477233,0.843840,-0.173432,-0.173503 ElbowRight:0.002073,0.878815,0.184330,0.440115 FootLeft:0.000000,0.000000,0.000000,0.000000 FootRight:0.000000,0.000000,0.000000,0.000000 HandLeft:0.171778,-0.010945,-0.493578,0.852498 HandRight:0.181589,-0.696420,-0.015793,0.694100 HandTipLeft:0.000000,0.000000,0.000000,0.000000 HandTipRight:0.000000,0.000000,0.000000,0.000000 Head:0.000000,0.000000,0.000000,0.000000 HipLeft:0.137341,-0.684138,0.697771,-0.161888 HipRight:-0.114767,0.682283,0.704869,-0.156454 KneeLeft:-0.042774,0.717743,-0.079359,-0.690448 KneeRight:-0.025834,0.694913,0.041857,0.717410 Neck:0.092810,-0.020943,0.993576,-0.061281 ShoulderLeft:-0.065943,0.783286,-0.605031,0.126696 ShoulderRight:0.053586,0.784329,0.617717,0.019548 SpineBase:0.016534,-0.016615,0.999342,-0.027693 SpineMid:0.054149,-0.017646,0.998010,-0.027048 SpineShoulder:0.092760,-0.018295,0.994617,-0.042404 ThumbLeft:0.000000,0.000000,0.000000,0.000000 ThumbRight:0.000000,0.000000,0.000000,0.000000 WristLeft:0.117828,-0.041305,-0.485970,0.865011 WristRight:-0.083728,0.721997,0.086187,-0.681383 END:
KINECT_DATA POSITION:-2.334855,-1.849211,-3.682756 HEAD_JOINT1:0.979469,0.188971,-0.000000,0.070223 LARM_JOINT2:0.864616,0.000000,-0.458542,-0.205373 LARM_JOINT3:0.992069,0.000000,-0.111489,-0.058053 LLEG_JOINT2:0.996047,0.023218,0.000000,0.085737 LLEG_JOINT4:0.994793,0.093163,0.000000,-0.041331 RARM_JOINT2:0.805428,0.000000,-0.058095,0.589840 RARM_JOINT3:0.960040,0.000000,0.195149,0.200601 RLEG_JOINT2:0.998952,0.013269,0.000000,-0.043800 RLEG_JOINT4:0.993954,0.107168,0.000000,0.023892 WAIST:1.000000,0.000000,0.000172,-0.000488 WAIST_JOINT0:0.998347,0.000000,-0.057242,0.005206 WAIST_JOINT1:0.998877,0.046357,0.000000,-0.009829 END:
KINECT_DATA_Sensor  AnkleLeft:0.058171,0.738768,-0.109328,-0.662484 AnkleRight:0.078697,0.754101,0.093118,0.645343 ElbowLeft:-0.461406,0.846348,-0.261758,-0.047775 ElbowRight:0.011120,0.881128,0.185323,0.434909 FootLeft:0.000000,0.000000,0.000000,0.000000 FootRight:0.000000,0.000000,0.000000,0.000000 HandLeft:0.146939,0.077620,-0.531979,0.830290 HandRight:-0.158443,0.711219,-0.000802,-0.684882 HandTipLeft:0.000000,0.000000,0.000000,0.000000 HandTipRight:0.000000,0.000000,0.000000,0.000000 Head:0.000000,0.000000,0.000000,0.000000 HipLeft:0.124255,-0.685071,0.702160,-0.149032 HipRight:-0.125308,0.681813,0.702840,-0.159512 KneeLeft:-0.043697,0.705635,-0.076795,-0.703045 KneeRight:-0.021909,0.707026,0.040712,0.705675 Neck:0.058716,-0.014775,0.996351,-0.060157 ShoulderLeft:-0.049286,0.786555,-0.606901,0.102823 ShoulderRight:0.026286,0.789115,0.613603,-0.009928 SpineBase:-0.000382,-0.009606,0.999644,-0.024892 SpineMid:0.028824,-0.010329,0.999228,-0.024601 SpineShoulder:0.058698,-0.012477,0.997356,-0.040996 ThumbLeft:0.000000,0.000000,0.000000,0.000000 ThumbRight:0.000000,0.000000,0.000000,0.000000 WristLeft:0.097324,0.055082,-0.473432,0.873703 WristRight:-0.088616,0.731636,0.075872,-0.671639 END:
KINECT_DATA POSITION:-2.789252,-1.891362,-3.745759 HEAD_JOINT1:0.980301,0.189892,-0.000000,0.054328 LARM_JOINT2:0.865927,0.000000,-0.437008,-0.243300 LARM_JOINT3:0.990851,0.000000,-0.134886,0.004485 LLEG_JOINT2:0.996364,0.020403,0.000000,0.082716 LLEG_JOINT4:0.995242,0.090463,0.000000,-0.036181 RARM_JOINT2:0.808750,0.000000,-0.061367,0.584943 RARM_JOINT3:0.958438,0.000000,0.199010,0.204429 RLEG_JOINT2:0.998909,0.014545,0.000000,-0.044377 RLEG_JOINT4:0.994003,0.106573,0.000000,0.024480 WAIST:0.999901,-0.000000,0.013714,0.003006 WAIST_JOINT0:0.999366,0.000000,-0.034553,0.008579 WAIST_JOINT1:0.998903,0.046165,0.000000,-0.007843 END:
KINECT_DATA_Sensor  AnkleLeft:0.051375,0.727628,-0.109404,-0.675240 AnkleRight:0.070820,0.697231,0.099381,0.706383 ElbowLeft:-0.493222,0.783133,-0.098361,-0.365731 ElbowRight:0.011749,0.888970,0.186778,0.417981 FootLeft:0.000000,0.000000,0.000000,0.000000 FootRight:0.000000,0.000000,0.000000,0.000000 HandLeft:0.129973,0.106539,-0.509296,0.844022 HandRight:0.171243,-0.676487,-0.014347,0.716125 HandTipLeft:0.000000,0.000000,0.000000,0.000000 HandTipRight:0.000000,0.000000,0.000000,0.000000 Head:0.000000,0.000000,0.000000,0.000000 HipLeft:0.113695,-0.684313,0.706680,-0.139256 HipRight:-0.133208,0.682653,0.699459,-0.164308 KneeLeft:0.045050,-0.695768,0.075706,0.712844 KneeRight:-0.019510,0.716630,0.039263,0.696074 Neck:0.036335,-0.009114,0.997474,-0.060359 ShoulderLeft:-0.037320,0.787765,-0.608613,0.087313 ShoulderRight:0.009378,0.792572,0.608999,-0.029351 SpineBase:-0.013966,-0.004988,0.999603,-0.023968 SpineMid:0.010923,-0.005583,0.999641,-0.023836 SpineShoulder:0.036350,-0.007348,0.998471,-0.041002 ThumbLeft:0.000000,0.000000,0.000000,0.000000 ThumbRight:0.000000,0.000000,0.000000,0.000000 WristLeft:0.115223,0.094130,-0.528198,0.835985 WristRight:0.085378,-0.681743,-0.075681,0.722640 END:
KINECT_DATA POSITION:-3.155866,-1.886828,-3.814042 HEAD_JOINT1:0.981100,0.187879,-0.000000,0.046310 LARM_JOINT2:0.870544,0.000000,-0.427182,-0.244271 LARM_JOINT3:0.989092,0.000000,-0.144552,0.028300 LLEG_JOINT2:0.996553,0.018055,0.000000,0.080971 LLEG_JOINT4:0.995613,0.087382,0.000000,-0.033456 RARM_JOINT2:0.811327,0.000000,-0.059017,0.581606 RARM_JOINT3:0.958124,0.000000,0.193878,0.210737 RLEG_JOINT2:0.998877,0.015036,0.000000,-0.044932 RLEG_JOINT4:0.993670,0.108284,0.000000,0.029926 WAIST:0.999712,-0.000000,0.023624,0.004111 WAIST_JOINT0:0.999678,0.000000,-0.023180,0.010283 WAIST_JOINT1:0.998930,0.045994,0.000000,-0.004835 END:
KINECT_DATA_Sensor  AnkleLeft:0.047014,0.722011,-0.106943,-0.681947 AnkleRight:0.075534,0.702908,0.097696,0.700479 ElbowLeft:-0.495713,0.757312,-0.089685,-0.415575 ElbowRight:0.008599,0.894693,0.186174,0.405944 FootLeft:0.000000,0.000000,0.000000,0.000000 FootRight:0.000000,0.000000,0.000000,0.000000 HandLeft:0.128989,0.204537,-0.537446,0.807885 HandRight:0.172025,-0.661860,0.016000,0.729447 HandTipLeft:0.000000,0.000000,0.000000,0.000000 HandTipRight:0.000000,0.000000,0.000000,0.000000 Head:0.000000,0.000000,0.000000,0.000000 HipLeft:0.106031,-0.684485,0.708904,-0.133015 HipRight:-0.140081,0.682090,0.697642,-0.168600 KneeLeft:0.045613,-0.688562,0.074015,0.719948 KneeRight:-0.019202,0.723493,0.039003,0.688961 Neck:0.024473,-0.005349,0.997861,-0.060381 ShoulderLeft:-0.031802,0.786322,-0.611812,0.079831 ShoulderRight:-0.000376,0.794234,0.606280,-0.040222 SpineBase:-0.023826,-0.001145,0.999437,-0.023584 SpineMid:0.000131,-0.001710,0.999721,-0.023549 SpineShoulder:0.024542,-0.003604,0.998851,-0.041004 ThumbLeft:0.000000,0.000000,0.000000,0.000000 ThumbRight:0.000000,0.000000,0.000000,0.000000 WristLeft:0.075780,0.168045,-0.553767,0.812010 WristRight:0.088770,-0.667582,-0.075458,0.735364 END:
KINECT_DATA POSITION:-3.362454,-1.906560,-3.834975 HEAD_JOINT1:0.980762,0.189323,-0.000000,0.047574 LARM_JOINT2:0.870342,0.000000,-0.426621,-0.245967 LARM_JOINT3:0.989134,0.000000,-0.144826,0.025295 LLEG_JOINT2:0.996596,0.016818,0.000000,0.080709 LLEG_JOINT4:0.995521,0.089423,0.000000,-0.030681 RARM_JOINT2:0.809263,0.000000,-0.061932,0.584173 RARM_JOINT3:0.958241,0.000000,0.193137,0.210885 RLEG_JOINT2:0.998901,0.015326,0.000000,-0.044294 RLEG_JOINT4:0.993463,0.110740,0.000000,0.027705 WAIST:0.999604,-0.000000,0.027605,0.005372 WAIST_JOINT0:0.999771,0.000000,-0.017987,0.011604 WAIST_JOINT1:0.998957,0.045318,0.000000,-0.005534 END:
KINECT_DATA_Sensor  AnkleLeft:0.050169,0.746968,-0.108100,-0.654091 AnkleRight:0.076741,0.705676,0.100192,0.697205 ElbowLeft:-0.497375,0.742563,-0.076329,-0.442033 ElbowRight:0.009864,0.893973,0.183452,0.408731 FootLeft:0.000000,0.000000,0.000000,0.000000 FootRight:0.000000,0.000000,0.000000,0.000000 HandLeft:0.163333,0.119469,-0.502299,0.840681 HandRight:0.173858,-0.654399,0.028219,0.735349 HandTipLeft:0.000000,0.000000,0.000000,0.000000 HandTipRight:0.000000,0.000000,0.000000,0.000000 Head:0.000000,0.000000,0.000000,0.000000 HipLeft:0.103724,-0.684149,0.710143,-0.129917 HipRight:-0.142965,0.682382,0.696279,-0.170618 KneeLeft:0.046945,-0.685544,0.074028,0.722734 KneeRight:-0.017816,0.726300,0.037795,0.686107 Neck:0.019463,-0.004842,0.998018,-0.059641 ShoulderLeft:-0.029916,0.786087,-0.612679,0.076136 ShoulderRight:-0.004934,0.794778,0.605261,-0.044301 SpineBase:-0.027845,-0.000669,0.999349,-0.022915 SpineMid:-0.004376,-0.001207,0.999728,-0.022893 SpineShoulder:0.019529,-0.003138,0.998991,-0.040322 ThumbLeft:0.000000,0.000000,0.000000,0.000000 ThumbRight:0.000000,0.000000,0.000000,0.000000 WristLeft:0.137835,0.094131,-0.548224,0.819507 WristRight:0.089797,-0.660467,-0.075377,0.741645 END:
KINECT_DATA POSITION:-3.477760,-1.936980,-3.810894 HEAD_JOINT1:0.980462,0.190927,-0.000000,0.047333 LARM_JOINT2:0.870069,0.000000,-0.424569,-0.250441 LARM_JOINT3:0.985554,0.000000,-0.166441,0.031321 LLEG_JOINT2:0.996629,0.016960,0.000000,0.080272 LLEG_JOINT4:0.995754,0.088230,0.000000,-0.026258 RARM_JOINT2:0.809865,0.000000,-0.062507,0.583276 RARM_JOINT3:0.958677,0.000000,0.192993,0.209028 RLEG_JOINT2:0.998871,0.015562,0.000000,-0.044880 RLEG_JOINT4:0.993415,0.110478,0.000000,0.030347 WAIST:0.999548,-0.000000,0.029454,0.005974 WAIST_JOINT0:0.999831,0.000000,-0.013371,0.012585 WAIST_JOINT1:0.998965,0.045110,0.000000,-0.005769 END:
KINECT_DATA_Sensor  AnkleLeft:0.042003,0.717422,-0.112869,-0.686150 AnkleRight:0.083529,0.742435,0.094260,0.657973 ElbowLeft:-0.493513,0.745057,-0.079795,-0.441551 ElbowRight:0.009654,0.895072,0.184170,0.405998 FootLeft:0.000000,0.000000,0.000000,0.000000 FootRight:0.000000,0.000000,0.000000,0.000000 HandLeft:0.113308,0.131344,-0.544498,0.820629 HandRight:0.163336,-0.663262,0.022811,0.729989 HandTipLeft:0.000000,0.000000,0.000000,0.000000 HandTipRight:0.000000,0.000000,0.000000,0.000000 Head:0.000000,0.000000,0.000000,0.000000 HipLeft:0.102550,-0.683982,0.710745,-0.128428 HipRight:-0.144238,0.682527,0.695649,-0.171535 KneeLeft:0.046835,-0.684188,0.074313,0.723996 KneeRight:-0.017732,0.727585,0.037904,0.684740 Neck:0.015132,-0.004364,0.998108,-0.059435 ShoulderLeft:-0.026680,0.787051,-0.612080,0.072090 ShoulderRight:-0.007275,0.795572,0.603985,-0.047056 SpineBase:-0.029713,-0.000438,0.999302,-0.022639 SpineMid:-0.007468,-0.000941,0.999716,-0.022624 SpineShoulder:0.015194,-0.002750,0.999076,-0.040117 ThumbLeft:0.000000,0.000000,0.000000,0.000000 ThumbRight:0.000000,0.000000,0.000000,0.000000 WristLeft:0.109158,0.126542,-0.553971,0.815591 WristRight:0.091437,-0.669504,-0.073702,0.733466 END:
KINECT_DATA POSITION:-3.595872,-1.945644,-3.770244 HEAD_JOINT1:0.980195,0.192480,-0.000000,0.046569 LARM_JOINT2:0.862805,0.000000,-0.446665,-0.236765 LARM_JOINT3:0.986907,0.000000,-0.159507,0.023904 LLEG_JOINT2:0.996672,0.016968,0.000000,0.079730 LLEG_JOINT4:0.995765,0.087957,0.000000,-0.026769 RARM_JOINT2:0.809738,0.000000,-0.063323,0.583364 RARM_JOINT3:0.959426,0.000000,0.189046,0.209196 RLEG_JOINT2:0.998871,0.015443,0.000000,-0.044934 RLEG_JOINT4:0.993267,0.111490,0.000000,0.031469 WAIST:0.999525,-0.000000,0.030089,0.006596 WAIST_JOINT0:0.999824,0.000000,-0.013456,0.013065 WAIST_JOINT1:0.998960,0.045221,0.000000,-0.005861 END:
KINECT_DATA_Sensor  AnkleLeft:0.042195,0.717416,-0.112303,-0.686237 AnkleRight:0.080291,0.707618,0.098031,0.695140 ElbowLeft:-0.507030,0.749570,-0.071848,-0.419409 ElbowRight:0.009796,0.893756,0.183928,0.408992 FootLeft:0.000000,0.000000,0.000000,0.000000 FootRight:0.000000,0.000000,0.000000,0.000000 HandLeft:0.120890,0.093354,-0.534652,0.831154 HandRight:0.149618,-0.661524,0.039331,0.733794 HandTipLeft:0.000000,0.000000,0.000000,0.000000 HandTipRight:0.000000,0.000000,0.000000,0.000000 Head:0.000000,0.000000,0.000000,0.000000 HipLeft:0.101821,-0.683636,0.711268,-0.127955 HipRight:-0.144632,0.682841,0.695172,-0.171891 KneeLeft:0.046852,-0.683707,0.074388,0.724442 KneeRight:-0.017440,0.728042,0.037400,0.684289 Neck:0.015240,-0.003932,0.998100,-0.059568 ShoulderLeft:-0.027354,0.787502,-0.611401,0.072668 ShoulderRight:-0.007843,0.796493,0.602737,-0.047388 SpineBase:-0.030364,0.000089,0.999281,-0.022717 SpineMid:-0.007737,-0.000426,0.999712,-0.022713 SpineShoulder:0.015314,-0.002285,0.999070,-0.040237 ThumbLeft:0.000000,0.000000,0.000000,0.000000 ThumbRight:0.000000,0.000000,0.000000,0.000000 WristLeft:0.119358,0.086902,-0.560293,0.815030 WristRight:0.092143,-0.668611,-0.074834,0.734077 END:
KINECT_DATA POSITION:-3.673567,-1.957241,-3.737271 HEAD_JOINT1:0.979857,0.193859,-0.000000,0.047941 LARM_JOINT2:0.866414,0.000000,-0.452061,-0.212056 LARM_JOINT3:0.981779,0.000000,-0.187289,0.032147 LLEG_JOINT2:0.996677,0.016845,0.000000,0.079691 LLEG_JOINT4:0.995603,0.090317,0.000000,-0.024869 RARM_JOINT2:0.809797,0.000000,-0.062721,0.583349 RARM_JOINT3:0.958955,0.000000,0.192700,0.208021 RLEG_JOINT2:0.998845,0.014736,0.000000,-0.045731 RLEG_JOINT4:0.992966,0.113430,0.000000,0.033933 WAIST:0.999533,-0.000000,0.029764,0.006867 WAIST_JOINT0:0.999794,0.000000,-0.015691,0.012882 WAIST_JOINT1:0.998962,0.045181,0.000000,-0.005782 END:
KINECT_DATA_Sensor  AnkleLeft:0.049638,0.758705,-0.112475,-0.639729 AnkleRight:0.087814,0.744238,0.092922,0.655564 ElbowLeft:-0.521546,0.759359,-0.101758,-0.375512 ElbowRight:0.009599,0.893929,0.183444,0.408836 FootLeft:0.000000,0.000000,0.000000,0.000000 FootRight:0.000000,0.000000,0.000000,0.000000 HandLeft:0.056065,0.130313,-0.613314,0.776995 HandRight:0.159777,-0.656055,0.024890,0.737186 HandTipLeft:0.000000,0.000000,0.000000,0.000000 HandTipRight:0.000000,0.000000,0.000000,0.000000 Head:0.000000,0.000000,0.000000,0.000000 HipLeft:0.101920,-0.683387,0.711471,-0.128076 HipRight:-0.144551,0.683030,0.695059,-0.171662 KneeLeft:0.047129,-0.683919,0.074452,0.724217 KneeRight:-0.018301,0.727803,0.037248,0.684529 Neck:0.017238,-0.003634,0.998071,-0.059532 ShoulderLeft:-0.029076,0.787264,-0.611404,0.074532 ShoulderRight:-0.007034,0.796879,0.602340,-0.046043 SpineBase:-0.030044,0.000384,0.999291,-0.022681 SpineMid:-0.006583,-0.000149,0.999721,-0.022684 SpineShoulder:0.017319,-0.001996,0.999039,-0.040219 ThumbLeft:0.000000,0.000000,0.000000,0.000000 ThumbRight:0.000000,0.000000,0.000000,0.000000 WristLeft:0.060790,0.140764,-0.579261,0.800592 WristRight:0.091282,-0.662421,-0.075504,0.739706 END:
KINECT_DATA POSITION:-3.704856,-1.965672,-3.702044 HEAD_JOINT1:0.980149,0.192632,-0.000000,0.046902 LARM_JOINT2:0.872338,0.000000,-0.458719,-0.169124 LARM_JOINT3:0.980494,0.000000,-0.192648,0.038958 LLEG_JOINT2:0.996735,0.016378,0.000000,0.079066 LLEG_JOINT4:0.995623,0.090580,0.000000,-0.023031 RARM_JOINT2:0.809509,0.000000,-0.061287,0.583900 RARM_JOINT3:0.957663,0.000000,0.197413,0.209544 RLEG_JOINT2:0.998841,0.015165,0.000000,-0.045673 RLEG_JOINT4:0.993162,0.111511,0.000000,0.034557 WAIST:0.999532,-0.000000,0.029682,0.007467 WAIST_JOINT0:0.999796,0.000000,-0.014763,0.013774 WAIST_JOINT1:0.998951,0.045411,0.000000,-0.005818 END:
KINECT_DATA_Sensor  AnkleLeft:0.041347,0.718232,-0.116546,-0.684726 AnkleRight:0.082404,0.706510,0.095725,0.696340 ElbowLeft:-0.549749,0.749668,-0.124824,-0.346689 ElbowRight:0.009195,0.894056,0.182050,0.409191 FootLeft:0.000000,0.000000,0.000000,0.000000 FootRight:0.000000,0.000000,0.000000,0.000000 HandLeft:0.176560,0.007304,-0.629481,0.756655 HandRight:0.178756,-0.634127,0.013356,0.752164 HandTipLeft:0.000000,0.000000,0.000000,0.000000 HandTipRight:0.000000,0.000000,0.000000,0.000000 Head:0.000000,0.000000,0.000000,0.000000 HipLeft:0.101779,-0.682934,0.711892,-0.128267 HipRight:-0.144492,0.683414,0.694687,-0.171689 KneeLeft:0.047474,-0.683939,0.074095,0.724212 KneeRight:-0.017536,0.727780,0.037099,0.684581 Neck:0.016445,-0.003038,0.998070,-0.059812 ShoulderLeft:-0.028007,0.786612,-0.612368,0.073902 ShoulderRight:-0.006988,0.796749,0.602469,-0.046623 SpineBase:-0.029980,0.000895,0.999289,-0.022845 SpineMid:-0.006932,0.000368,0.999715,-0.022859 SpineShoulder:0.016536,-0.001413,0.999043,-0.040468 ThumbLeft:0.000000,0.000000,0.000000,0.000000 ThumbRight:0.000000,0.000000,0.000000,0.000000 WristLeft:0.157652,0.000282,-0.585754,0.795008 WristRight:0.090614,-0.640188,-0.078285,0.758828 END:
KINECT_DATA POSITION:-3.691129,-1.958509,-3.694510 HEAD_JOINT1:0.980329,0.190932,-0.000000,0.050007 LARM_JOINT2:0.869947,0.000000,-0.466670,-0.159407 LARM_JOINT3:0.984350,0.000000,-0.176076,0.007254 LLEG_JOINT2:0.996744,0.017437,0.000000,0.078729 LLEG_JOINT4:0.995790,0.086724,0.000000,-0.029691 RARM_JOINT2:0.810008,0.000000,-0.058209,0.583523 RARM_JOINT3:0.958752,0.000000,0.187549,0.213589 RLEG_JOINT2:0.998848,0.014389,0.000000,-0.045780 RLEG_JOINT4:0.993062,0.112998,0.000000,0.032536 WAIST:0.999598,-0.000000,0.027146,0.008176 WAIST_JOINT0:0.999729,0.000000,-0.018315,0.014359 WAIST_JOINT1:0.998938,0.045650,0.000000,-0.006271 END:
KINECT_DATA_Sensor  AnkleLeft:0.042830,0.719997,-0.110100,-0.683847 AnkleRight:0.082063,0.704565,0.097020,0.698170 ElbowLeft:-0.551631,0.763845,-0.147431,-0.300846 ElbowRight:0.008253,0.895119,0.181414,0.407165 FootLeft:0.000000,0.000000,0.000000,0.000000 FootRight:0.000000,0.000000,0.000000,0.000000 HandLeft:0.116630,0.048734,-0.601440,0.788855 HandRight:0.163429,-0.643585,0.050600,0.746009 HandTipLeft:0.000000,0.000000,0.000000,0.000000 HandTipRight:0.000000,0.000000,0.000000,0.000000 Head:0.000000,0.000000,0.000000,0.000000 HipLeft:0.103390,-0.682059,0.712217,-0.129819 HipRight:-0.143220,0.684057,0.694617,-0.170472 KneeLeft:0.047140,-0.685787,0.074974,0.722394 KneeRight:-0.017541,0.726058,0.036165,0.686457 Neck:0.019906,-0.002708,0.997986,-0.060161 ShoulderLeft:-0.030499,0.785312,-0.613509,0.077208 ShoulderRight:-0.005062,0.796660,0.602774,-0.044380 SpineBase:-0.027472,0.001206,0.999360,-0.022885 SpineMid:-0.003943,0.000667,0.999730,-0.022907 SpineShoulder:0.020007,-0.001112,0.998971,-0.040699 ThumbLeft:0.000000,0.000000,0.000000,0.000000 ThumbRight:0.000000,0.000000,0.000000,0.000000 WristLeft:0.121843,0.056430,-0.582745,0.801485 WristRight:0.093266,-0.651253,-0.076826,0.749178 END:
KINECT_DATA POSITION:-3.689425,-1.958401,-3.685153 HEAD_JOINT1:0.980302,0.190664,-0.000000,0.051519 LARM_JOINT2:0.866158,0.000000,-0.463035,-0.188069 LARM_JOINT3:0.983548,0.000000,-0.178872,0.025255 LLEG_JOINT2:0.996736,0.017116,0.000000,0.078897 LLEG_JOINT4:0.995388,0.091111,0.000000,-0.030015 RARM_JOINT2:0.811540,0.000000,-0.056209,0.581587 RARM_JOINT3:0.959848,0.000000,0.186344,0.209684 RLEG_JOINT2:0.998859,0.014332,0.000000,-0.045563 RLEG_JOINT4:0.993004,0.113692,0.000000,0.031891 WAIST:0.999617,-0.000000,0.026435,0.008135 WAIST_JOINT0:0.999681,0.000000,-0.021100,0.013874 WAIST_JOINT1:0.998913,0.046200,0.000000,-0.006262 END:
KINECT_DATA_Sensor  AnkleLeft:0.046178,0.720975,-0.112483,-0.682209 AnkleRight:0.082085,0.703036,0.097866,0.699589 ElbowLeft:-0.538256,0.759562,-0.110304,-0.348107 ElbowRight:0.007041,0.896318,0.183205,0.403732 FootLeft:0.000000,0.000000,0.000000,0.000000 FootRight:0.000000,0.000000,0.000000,0.000000 HandLeft:0.030179,0.177955,-0.615959,0.766822 HandRight:0.144372,-0.665622,0.040999,0.731042 HandTipLeft:0.000000,0.000000,0.000000,0.000000 HandTipRight:0.000000,0.000000,0.000000,0.000000 Head:0.000000,0.000000,0.000000,0.000000 HipLeft:0.103540,-0.681992,0.712149,-0.130426 HipRight:-0.142535,0.684116,0.694770,-0.170185 KneeLeft:0.047511,-0.686278,0.074815,0.721920 KneeRight:-0.017422,0.725573,0.036020,0.686981 Neck:0.022242,-0.002921,0.997897,-0.060812 ShoulderLeft:-0.030522,0.784792,-0.613994,0.078625 ShoulderRight:-0.002079,0.796723,0.602876,-0.042053 SpineBase:-0.026762,0.001265,0.999371,-0.023216 SpineMid:-0.002418,0.000699,0.999727,-0.023240 SpineShoulder:0.022353,-0.001197,0.998899,-0.041220 ThumbLeft:0.000000,0.000000,0.000000,0.000000 ThumbRight:0.000000,0.000000,0.000000,0.000000 WristLeft:0.023969,0.177934,-0.592166,0.785560 WristRight:0.094806,-0.673106,-0.074372,0.729664 END:
KINECT_DATA POSITION:-3.668505,-1.953414,-3.653538 HEAD_JOINT1:0.979681,0.193581,-0.000000,0.052461 LARM_JOINT2:0.863721,0.000000,-0.468844,-0.184854 LARM_JOINT3:0.985255,0.000000,-0.170522,0.013964 LLEG_JOINT2:0.996771,0.017847,0.000000,0.078285 LLEG_JOINT4:0.995632,0.089411,0.000000,-0.026898 RARM_JOINT2:0.810696,0.000000,-0.058230,0.582564 RARM_JOINT3:0.959043,0.000000,0.190538,0.209600 RLEG_JOINT2:0.998843,0.013791,0.000000,-0.046075 RLEG_JOINT4:0.992894,0.114684,0.000000,0.031757 WAIST:0.999623,-0.000000,0.026043,0.008646 WAIST_JOINT0:0.999674,0.000000,-0.021061,0.014432 WAIST_JOINT1:0.998870,0.047018,0.000000,-0.006936 END:
KINECT_DATA_Sensor  AnkleLeft:0.043463,0.721395,-0.114192,-0.681661 AnkleRight:0.086291,0.730853,0.094786,0.670390 ElbowLeft:-0.543606,0.750983,-0.092295,-0.363315 ElbowRight:0.009034,0.894429,0.183250,0.407842 FootLeft:0.000000,0.000000,0.000000,0.000000 FootRight:0.000000,0.000000,0.000000,0.000000 HandLeft:0.140087,0.032316,-0.543602,0.826939 HandRight:0.155725,-0.648907,0.031302,0.744103 HandTipLeft:0.000000,0.000000,0.000000,0.000000 HandTipRight:0.000000,0.000000,0.000000,0.000000 Head:0.000000,0.000000,0.000000,0.000000 HipLeft:0.103385,-0.681537,0.712504,-0.130987 HipRight:-0.141828,0.684406,0.694579,-0.170390 KneeLeft:0.046943,-0.686578,0.075220,0.721629 KneeRight:-0.017788,0.725315,0.035628,0.687265 Neck:0.022322,-0.003198,0.997844,-0.061640 ShoulderLeft:-0.030133,0.784150,-0.614737,0.079360 ShoulderRight:-0.001547,0.796364,0.603312,-0.042620 SpineBase:-0.026403,0.001306,0.999366,-0.023837 SpineMid:-0.002187,0.000728,0.999713,-0.023861 SpineShoulder:0.022439,-0.001364,0.998865,-0.042003 ThumbLeft:0.000000,0.000000,0.000000,0.000000 ThumbRight:0.000000,0.000000,0.000000,0.000000 WristLeft:0.135683,0.021332,-0.586804,0.797995 WristRight:0.092114,-0.655684,-0.076467,0.745484 END:
KINECT_DATA POSITION:-3.663406,-1.956065,-3.619576 HEAD_JOINT1:0.979661,0.193533,-0.000000,0.053007 LARM_JOINT2:0.863128,0.000000,-0.467991,-0.189720 LARM_JOINT3:0.985050,0.000000,-0.171017,0.020742 LLEG_JOINT2:0.996810,0.017957,0.000000,0.077767 LLEG_JOINT4:0.995513,0.091241,0.000000,-0.025096 RARM_JOINT2:0.810064,0.000000,-0.059984,0.583265 RARM_JOINT3:0.959059,0.000000,0.189471,0.210492 RLEG_JOINT2:0.998847,0.013886,0.000000,-0.045944 RLEG_JOINT4:0.992963,0.114039,0.000000,0.031920 WAIST:0.999644,-0.000000,0.025198,0.008826 WAIST_JOINT0:0.999685,0.000000,-0.020443,0.014533 WAIST_JOINT1:0.998845,0.047506,0.000000,-0.007210 END:
KINECT_DATA_Sensor  AnkleLeft:0.043802,0.720981,-0.116624,-0.681665 AnkleRight:0.082540,0.703308,0.097332,0.699336 ElbowLeft:-0.540679,0.749719,-0.085355,-0.371889 ElbowRight:0.010809,0.892967,0.183302,0.410966 FootLeft:0.000000,0.000000,0.000000,0.000000 FootRight:0.000000,0.000000,0.000000,0.000000 HandLeft:0.038216,0.181756,-0.569439,0.800777 HandRight:0.154558,-0.637112,0.036368,0.754240 HandTipLeft:0.000000,0.000000,0.000000,0.000000 HandTipRight:0.000000,0.000000,0.000000,0.000000 Head:0.000000,0.000000,0.000000,0.000000 HipLeft:0.103599,-0.681263,0.712572,-0.131870 HipRight:-0.141024,0.684558,0.694614,-0.170304 KneeLeft:0.046693,-0.687198,0.075011,0.721077 KneeRight:-0.017465,0.724751,0.035501,0.687874 Neck:0.021685,-0.003239,0.997828,-0.062110 ShoulderLeft:-0.029153,0.783948,-0.615082,0.079058 ShoulderRight:-0.001366,0.796232,0.603439,-0.043303 SpineBase:-0.025574,0.001361,0.999375,-0.024375 SpineMid:-0.002079,0.000787,0.999700,-0.024401 SpineShoulder:0.021803,-0.001379,0.998858,-0.042495 ThumbLeft:0.000000,0.000000,0.000000,0.000000 ThumbRight:0.000000,0.000000,0.000000,0.000000 WristLeft:0.025951,0.167737,-0.600909,0.781088 WristRight:0.090171,-0.643921,-0.077575,0.755789 END:
KINECT_DATA POSITION:-3.646348,-1.955098,-3.600454 HEAD_JOINT1:0.979764,0.192930,-0.000000,0.053301 LARM_JOINT2:0.862499,0.000000,-0.467809,-0.193004 LARM_JOINT3:0.985243,0.000000,-0.169796,0.021595 LLEG_JOINT2:0.996827,0.018237,0.000000,0.077477 LLEG_JOINT4:0.995111,0.094601,0.000000,-0.028380 RARM_JOINT2:0.809949,0.000000,-0.059334,0.583491 RARM_JOINT3:0.957719,0.000000,0.196138,0.210484 RLEG_JOINT2:0.998842,0.013182,0.000000,-0.046268 RLEG_JOINT4:0.992791,0.115341,0.000000,0.032583 WAIST:0.999643,-0.000000,0.025172,0.008950 WAIST_JOINT0:0.999702,0.000000,-0.019452,0.014776 WAIST_JOINT1:0.998812,0.048162,0.000000,-0.007414 END:
KINECT_DATA_Sensor  AnkleLeft:0.052906,0.744413,-0.114481,-0.655701 AnkleRight:0.086212,0.724089,0.094879,0.677688 ElbowLeft:-0.539434,0.743860,-0.073669,-0.387630 ElbowRight:0.011122,0.893371,0.183229,0.410112 FootLeft:0.000000,0.000000,0.000000,0.000000 FootRight:0.000000,0.000000,0.000000,0.000000 HandLeft:0.063520,0.154218,-0.550876,0.817751 HandRight:0.172856,-0.646315,0.020240,0.742959 HandTipLeft:0.000000,0.000000,0.000000,0.000000 HandTipRight:0.000000,0.000000,0.000000,0.000000 Head:0.000000,0.000000,0.000000,0.000000 HipLeft:0.103234,-0.681129,0.712703,-0.132142 HipRight:-0.140605,0.684582,0.694612,-0.170560 KneeLeft:0.046379,-0.687228,0.075081,0.721061 KneeRight:-0.018096,0.724725,0.035127,0.687904 Neck:0.020682,-0.003332,0.997806,-0.062802 ShoulderLeft:-0.027461,0.783624,-0.615668,0.078310 ShoulderRight:-0.000933,0.796015,0.603667,-0.044111 SpineBase:-0.025561,0.001363,0.999363,-0.024878 SpineMid:-0.002565,0.000790,0.999686,-0.024902 SpineShoulder:0.020800,-0.001450,0.998852,-0.043127 ThumbLeft:0.000000,0.000000,0.000000,0.000000 ThumbRight:0.000000,0.000000,0.000000,0.000000 WristLeft:0.049417,0.135613,-0.603361,0.784297 WristRight:0.091187,-0.652506,-0.075914,0.748437 END:
KINECT_DATA POSITION:-3.562070,-1.965254,-3.575516 HEAD_JOINT1:0.980463,0.192546,-0.000000,0.040227 LARM_JOINT2:0.863165,0.000000,-0.461986,-0.203752 LARM_JOINT3:0.984628,0.000000,-0.172280,0.028752 LLEG_JOINT2:0.997009,0.017554,0.000000,0.075260 LLEG_JOINT4:0.995694,0.089658,0.000000,-0.023553 RARM_JOINT2:0.820380,0.000000,-0.025880,0.571232 RARM_JOINT3:0.956361,0.000000,0.215298,0.197535 RLEG_JOINT2:0.998711,0.015342,0.000000,-0.048388 RLEG_JOINT4:0.992849,0.113822,0.000000,0.035985 WAIST:0.999541,-0.000000,0.028767,0.009486 WAIST_JOINT0:0.999844,0.000000,-0.010720,0.014023 WAIST_JOINT1:0.998822,0.047998,0.000000,-0.007119 END:
KINECT_DATA_Sensor  AnkleLeft:0.042350,0.715896,-0.115146,-0.687344 AnkleRight:0.088800,0.735108,0.093181,0.665619 ElbowLeft:-0.532584,0.737081,-0.066561,-0.410653 ElbowRight:-0.016831,0.904938,0.185560,0.382584 FootLeft:0.000000,0.000000,0.000000,0.000000 FootRight:0.000000,0.000000,0.000000,0.000000 HandLeft:0.114639,0.111887,-0.535644,0.829111 HandRight:0.168781,-0.524217,-0.107339,0.827761 HandTipLeft:0.000000,0.000000,0.000000,0.000000 HandTipRight:0.000000,0.000000,0.000000,0.000000 Head:0.000000,0.000000,0.000000,0.000000 HipLeft:0.100784,-0.681190,0.713374,-0.130078 HipRight:-0.143233,0.684530,0.693665,-0.172427 KneeLeft:0.045494,-0.684668,0.073518,0.723709 KneeRight:-0.017921,0.727206,0.037687,0.685150 Neck:0.012076,-0.002102,0.997965,-0.062569 ShoulderLeft:-0.023922,0.784106,-0.615865,0.072916 ShoulderRight:-0.008461,0.795371,0.603795,-0.052389 SpineBase:-0.029147,0.002550,0.999266,-0.024720 SpineMid:-0.008629,0.002042,0.999654,-0.024767 SpineShoulder:0.012171,-0.000644,0.999001,-0.043004 ThumbLeft:0.000000,0.000000,0.000000,0.000000 ThumbRight:0.000000,0.000000,0.000000,0.000000 WristLeft:0.090480,0.084643,-0.600768,0.789764 WristRight:0.091217,-0.533468,-0.105379,0.834258 END:
KINECT_DATA POSITION:-3.495667,-1.993862,-3.583121 HEAD_JOINT1:0.982630,0.185436,-0.000000,0.007203 LARM_JOINT2:0.862615,0.000000,-0.451354,-0.228418 LARM_JOINT3:0.982885,0.000000,-0.176930,0.051319 LLEG_JOINT2:0.997197,0.016024,0.000000,0.073080 LLEG_JOINT4:0.995786,0.089716,0.000000,-0.019007 RARM_JOINT2:0.829514,0.000000,0.016993,0.558228 RARM_JOINT3:0.955844,0.000000,0.202431,0.213037 RLEG_JOINT2:0.998571,0.015076,0.000000,-0.051272 RLEG_JOINT4:0.992558,0.114525,0.000000,0.041387 WAIST:0.999262,-0.000000,0.037216,0.009478 WAIST_JOINT0:0.999750,-0.000000,0.015710,0.015905 WAIST_JOINT1:0.998935,0.045974,0.000000,-0.003797 END:
KINECT_DATA_Sensor  AnkleLeft:0.050701,0.768725,-0.111585,-0.627725 AnkleRight:0.087542,0.722397,0.094791,0.679334 ElbowLeft:-0.519028,0.712237,-0.041160,-0.470781 ElbowRight:-0.047714,0.927774,0.182214,0.322111 FootLeft:0.000000,0.000000,0.000000,0.000000 FootRight:0.000000,0.000000,0.000000,0.000000 HandLeft:0.124134,0.143454,-0.531254,0.825700 HandRight:0.190633,-0.446057,-0.099343,0.868806 HandTipLeft:0.000000,0.000000,0.000000,0.000000 HandTipRight:0.000000,0.000000,0.000000,0.000000 Head:0.000000,0.000000,0.000000,0.000000 HipLeft:0.094559,-0.682712,0.713814,-0.124232 HipRight:-0.148539,0.684074,0.692061,-0.176155 KneeLeft:0.044574,-0.678577,0.071194,0.729711 KneeRight:-0.020595,0.732881,0.039253,0.678911 Neck:-0.013338,0.002764,0.998088,-0.060281 ShoulderLeft:-0.015907,0.784884,-0.616809,0.057024 ShoulderRight:-0.033339,0.795270,0.600491,-0.076450 SpineBase:-0.037542,0.004109,0.998996,-0.024100 SpineMid:-0.025507,0.003818,0.999376,-0.024148 SpineShoulder:-0.013296,0.002873,0.999057,-0.041240 ThumbLeft:0.000000,0.000000,0.000000,0.000000 ThumbRight:0.000000,0.000000,0.000000,0.000000 WristLeft:0.089409,0.105804,-0.610614,0.779719 WristRight:0.099518,-0.457164,-0.118048,0.875878 END:
KINECT_DATA POSITION:-3.449216,-2.022102,-3.613031 HEAD_JOINT1:0.982676,0.185325,0.000000,-0.001768 LARM_JOINT2:0.859573,0.000000,-0.452352,-0.237723 LARM_JOINT3:0.981106,0.000000,-0.185173,0.056057 LLEG_JOINT2:0.997389,0.013490,0.000000,0.070944 LLEG_JOINT4:0.995757,0.090951,0.000000,-0.013980 RARM_JOINT2:0.833514,0.000000,0.035195,0.551377 RARM_JOINT3:0.957664,0.000000,0.193324,0.213319 RLEG_JOINT2:0.998460,0.016579,0.000000,-0.052936 RLEG_JOINT4:0.992427,0.114612,0.000000,0.044191 WAIST:0.998945,-0.000000,0.044854,0.009842 WAIST_JOINT0:0.999409,-0.000000,0.029516,0.017641 WAIST_JOINT1:0.998958,0.045627,0.000000,-0.001104 END:
KINECT_DATA_Sensor  AnkleLeft:0.049218,0.767375,-0.112850,-0.629268 AnkleRight:0.089255,0.729577,0.095230,0.671329 ElbowLeft:-0.513620,0.711999,-0.042342,-0.476926 ElbowRight:-0.062257,0.935301,0.180119,0.298150 FootLeft:0.000000,0.000000,0.000000,0.000000 FootRight:0.000000,0.000000,0.000000,0.000000 HandLeft:0.161995,0.064659,-0.536392,0.825749 HandRight:0.166544,-0.409418,-0.088218,0.892669 HandTipLeft:0.000000,0.000000,0.000000,0.000000 HandTipRight:0.000000,0.000000,0.000000,0.000000 Head:0.000000,0.000000,0.000000,0.000000 HipLeft:0.088377,-0.683558,0.714742,-0.118669 HipRight:-0.152548,0.683770,0.690760,-0.178991 KneeLeft:0.044785,-0.672959,0.068445,0.735143 KneeRight:-0.020899,0.738049,0.041020,0.673174 Neck:-0.026840,0.006052,0.997799,-0.060337 ShoulderLeft:-0.011888,0.783683,-0.619054,0.049719 ShoulderRight:-0.046949,0.794812,0.598300,-0.090035 SpineBase:-0.045149,0.005733,0.998680,-0.023805 SpineMid:-0.036038,0.005515,0.999050,-0.023857 SpineShoulder:-0.026784,0.005771,0.998787,-0.040910 ThumbLeft:0.000000,0.000000,0.000000,0.000000 ThumbRight:0.000000,0.000000,0.000000,0.000000 WristLeft:0.142745,0.039314,-0.597575,0.788024 WristRight:0.104597,-0.418264,-0.126422,0.893383 END:
KINECT_DATA POSITION:-3.406867,-2.036174,-3.653586 HEAD_JOINT1:0.982645,0.185467,0.000000,-0.003262 LARM_JOINT2:0.857829,0.000000,-0.454912,-0.239132 LARM_JOINT3:0.980855,0.000000,-0.184454,0.062456 LLEG_JOINT2:0.997543,0.012073,0.000000,0.069016 LLEG_JOINT4:0.995611,0.092293,0.000000,-0.015490 RARM_JOINT2:0.834720,0.000000,0.033172,0.549674 RARM_JOINT3:0.961322,0.000000,0.172909,0.214390 RLEG_JOINT2:0.998368,0.018272,0.000000,-0.054112 RLEG_JOINT4:0.992464,0.113776,0.000000,0.045506 WAIST:0.998772,-0.000000,0.048352,0.010779 WAIST_JOINT0:0.999376,-0.000000,0.030417,0.017928 WAIST_JOINT1:0.998936,0.046108,0.000000,-0.000054 END:
KINECT_DATA_Sensor  AnkleLeft:0.049703,0.758545,-0.111037,-0.640164 AnkleRight:0.089958,0.729946,0.095638,0.670775 ElbowLeft:-0.513342,0.711069,-0.041993,-0.478642 ElbowRight:-0.061213,0.936141,0.180844,0.295277 FootLeft:0.000000,0.000000,0.000000,0.000000 FootRight:0.000000,0.000000,0.000000,0.000000 HandLeft:0.102176,0.164599,-0.567274,0.800417 HandRight:0.125609,-0.613521,0.007947,0.779584 HandTipLeft:0.000000,0.000000,0.000000,0.000000 HandTipRight:0.000000,0.000000,0.000000,0.000000 Head:0.000000,0.000000,0.000000,0.000000 HipLeft:0.085721,-0.682947,0.715942,-0.116884 HipRight:-0.154437,0.683728,0.689946,-0.180663 KneeLeft:0.044994,-0.670354,0.066853,0.737653 KneeRight:-0.020134,0.740459,0.042306,0.670466 Neck:-0.028172,0.007703,0.997701,-0.061152 ShoulderLeft:-0.012011,0.782338,-0.620710,0.050220 ShoulderRight:-0.048940,0.794703,0.597929,-0.092378 SpineBase:-0.048661,0.007042,0.998499,-0.024120 SpineMid:-0.038453,0.006795,0.998944,-0.024190 SpineShoulder:-0.028081,0.007470,0.998720,-0.041401 ThumbLeft:0.000000,0.000000,0.000000,0.000000 ThumbRight:0.000000,0.000000,0.000000,0.000000 WristLeft:0.071822,0.135178,-0.609502,0.777866 WristRight:0.128816,-0.620883,-0.096114,0.767250 END:
KINECT_DATA POSITION:-3.387813,-2.054020,-3.648686 HEAD_JOINT1:0.982747,0.184948,0.000000,-0.001651 LARM_JOINT2:0.857585,0.000000,-0.456415,-0.237137 LARM_JOINT3:0.980831,0.000000,-0.187183,0.054153 LLEG_JOINT2:0.997593,0.011955,0.000000,0.068307 LLEG_JOINT4:0.995785,0.090922,0.000000,-0.012027 RARM_JOINT2:0.833486,0.000000,0.027742,0.551844 RARM_JOINT3:0.959824,0.000000,0.169646,0.223514 RLEG_JOINT2:0.998355,0.018514,0.000000,-0.054266 RLEG_JOINT4:0.992733,0.111925,0.000000,0.044192 WAIST:0.998732,-0.000000,0.049086,0.011215 WAIST_JOINT0:0.999311,-0.000000,0.032066,0.018706 WAIST_JOINT1:0.998893,0.047049,-0.000000,0.000070 END:
KINECT_DATA_Sensor  AnkleLeft:-0.035690,-0.693080,0.116767,0.710445 AnkleRight:0.088511,0.734165,0.094738,0.666478 ElbowLeft:0.515135,-0.702875,0.034016,0.489331 ElbowRight:-0.053609,0.939226,0.180945,0.286773 FootLeft:0.000000,0.000000,0.000000,0.000000 FootRight:0.000000,0.000000,0.000000,0.000000 HandLeft:0.138611,0.085344,-0.519936,0.838552 HandRight:0.146483,-0.463277,0.001029,0.874023 HandTipLeft:0.000000,0.000000,0.000000,0.000000 HandTipRight:0.000000,0.000000,0.000000,0.000000 Head:0.000000,0.000000,0.000000,0.000000 HipLeft:0.085367,-0.682493,0.716358,-0.117243 HipRight:-0.155045,0.683739,0.689600,-0.181420 KneeLeft:0.044870,-0.669814,0.066583,0.738175 KneeRight:-0.019813,0.740973,0.042260,0.669911 Neck:-0.029923,0.007953,0.997587,-0.062146 ShoulderLeft:-0.009502,0.782157,-0.621082,0.048964 ShoulderRight:-0.048662,0.795247,0.597013,-0.093753 SpineBase:-0.049403,0.007734,0.998448,-0.024501 SpineMid:-0.039671,0.007495,0.998882,-0.024575 SpineShoulder:-0.029803,0.008058,0.998627,-0.042330 ThumbLeft:0.000000,0.000000,0.000000,0.000000 ThumbRight:0.000000,0.000000,0.000000,0.000000 WristLeft:0.127446,0.059253,-0.610668,0.779314 WristRight:0.107712,-0.472371,-0.107536,0.868159 END:
KINECT_DATA POSITION:-3.370383,-2.069885,-3.609085 HEAD_JOINT1:0.982468,0.186415,-0.000000,0.002274 LARM_JOINT2:0.857112,0.000000,-0.458914,-0.234001 LARM_JOINT3:0.980486,0.000000,-0.189417,0.052625 LLEG_JOINT2:0.997593,0.012620,0.000000,0.068184 LLEG_JOINT4:0.995964,0.088635,0.000000,-0.014098 RARM_JOINT2:0.830805,0.000000,0.021042,0.556166 RARM_JOINT3:0.960417,0.000000,0.172489,0.218740 RLEG_JOINT2:0.998334,0.018867,0.000000,-0.054525 RLEG_JOINT4:0.992759,0.111299,0.000000,0.045196 WAIST:0.998755,-0.000000,0.048537,0.011514 WAIST_JOINT0:0.999340,-0.000000,0.031029,0.018887 WAIST_JOINT1:0.998864,0.047646,0.000000,-0.000551 END:
KINECT_DATA_Sensor  AnkleLeft:-0.035562,-0.693700,0.114307,0.710246 AnkleRight:0.088664,0.730453,0.094227,0.670596 ElbowLeft:-0.516937,0.706207,-0.035980,-0.482445 ElbowRight:-0.047458,0.937133,0.178973,0.295800 FootLeft:0.000000,0.000000,0.000000,0.000000 FootRight:0.000000,0.000000,0.000000,0.000000 HandLeft:0.080122,0.153931,-0.538671,0.824451 HandRight:0.140706,-0.427126,-0.016210,0.893030 HandTipLeft:0.000000,0.000000,0.000000,0.000000 HandTipRight:0.000000,0.000000,0.000000,0.000000 Head:0.000000,0.000000,0.000000,0.000000 HipLeft:0.085976,-0.682048,0.716562,-0.118146 HipRight:-0.154855,0.683830,0.689531,-0.181505 KneeLeft:0.044535,-0.670227,0.067131,0.737771 KneeRight:-0.019528,0.740625,0.042500,0.670289 Neck:-0.028773,0.007323,0.997588,-0.062736 ShoulderLeft:-0.009753,0.782568,-0.620472,0.050062 ShoulderRight:-0.047369,0.795589,0.596772,-0.093050 SpineBase:-0.048869,0.007886,0.998467,-0.024757 SpineMid:-0.038814,0.007636,0.998909,-0.024835 SpineShoulder:-0.028636,0.007777,0.998639,-0.042888 ThumbLeft:0.000000,0.000000,0.000000,0.000000 ThumbRight:0.000000,0.000000,0.000000,0.000000 WristLeft:0.069063,0.130745,-0.618235,0.771960 WristRight:0.102021,-0.435064,-0.109440,0.887882 END:
