EastLYD/RoboCupatHomeSim/InteractiveCleanUp/JapanOpen2016/Motion_Data/File9.dat
KINECT_DATA POSITION:29.777775,-4.051294,-8.851755 HEAD_JOINT1:0.979418,0.190164,-0.000000,0.067662 LARM_JOINT2:0.812428,0.000000,-0.034872,-0.582017 LARM_JOINT3:0.973928,0.000000,-0.180446,-0.137488 LLEG_JOINT2:0.999082,0.034111,0.000000,0.025930 LLEG_JOINT4:0.996747,0.074257,0.000000,-0.031340 RARM_JOINT2:0.809638,0.000000,-0.015451,0.586726 RARM_JOINT3:0.967833,0.000000,0.198752,0.154264 RLEG_JOINT2:0.999662,0.009017,0.000000,-0.024397 RLEG_JOINT4:0.993495,0.109552,0.000000,0.031080 WAIST:0.999927,-0.000000,0.007655,0.009371 WAIST_JOINT0:0.999826,-0.000000,0.011277,0.014867 WAIST_JOINT1:0.997344,0.072780,0.000000,-0.002844 END:
KINECT_DATA_Sensor  AnkleLeft:-0.074869,-0.699762,0.078050,0.706142 AnkleRight:0.097036,0.729566,0.069777,0.673386 ElbowLeft:-0.035945,0.880921,-0.169949,-0.440230 ElbowRight:-0.000130,0.872177,0.172651,0.457710 FootLeft:0.000000,0.000000,0.000000,0.000000 FootRight:0.000000,0.000000,0.000000,0.000000 HandLeft:0.046476,-0.588451,-0.085347,0.802671 HandRight:-0.020932,0.709490,-0.111919,0.695457 HandTipLeft:0.000000,0.000000,0.000000,0.000000 HandTipRight:0.000000,0.000000,0.000000,0.000000 Head:0.000000,0.000000,0.000000,0.000000 HipLeft:0.105995,-0.674388,0.711329,-0.167265 HipRight:-0.120467,0.684167,0.696857,-0.178306 KneeLeft:0.000471,-0.701182,0.049029,0.711295 KneeRight:-0.004425,0.712732,0.016921,0.701218 Neck:-0.011949,0.005851,0.995959,-0.088824 ShoulderLeft:0.028921,0.773917,-0.630050,0.057027 ShoulderRight:0.013697,0.788051,0.610975,-0.074148 SpineBase:-0.008215,0.006663,0.998762,-0.048599 SpineMid:-0.009921,0.006746,0.998747,-0.048588 SpineShoulder:-0.011801,0.006315,0.997627,-0.067531 ThumbLeft:0.000000,0.000000,0.000000,0.000000 ThumbRight:0.000000,0.000000,0.000000,0.000000 WristLeft:0.101283,-0.580755,-0.096877,0.801923 WristRight:-0.091461,0.697156,-0.081122,0.706419 END:
KINECT_DATA POSITION:29.987896,-4.006240,-8.950531 HEAD_JOINT1:0.978589,0.192467,-0.000000,0.072931 LARM_JOINT2:0.813851,0.000000,-0.035191,-0.580007 LARM_JOINT3:0.973624,0.000000,-0.182595,-0.136802 LLEG_JOINT2:0.999080,0.035156,0.000000,0.024550 LLEG_JOINT4:0.996973,0.071200,0.000000,-0.031232 RARM_JOINT2:0.807423,0.000000,-0.019969,0.589636 RARM_JOINT3:0.966905,0.000000,0.202095,0.155730 RLEG_JOINT2:0.999633,0.008311,0.000000,-0.025786 RLEG_JOINT4:0.993675,0.108219,0.000000,0.029989 WAIST:0.999949,-0.000000,0.003760,0.009344 WAIST_JOINT0:0.999870,-0.000000,0.007297,0.014399 WAIST_JOINT1:0.997356,0.072497,0.000000,-0.004945 END:
KINECT_DATA_Sensor  AnkleLeft:0.074273,0.704769,-0.075835,-0.701451 AnkleRight:0.094367,0.729279,0.069541,0.674101 ElbowLeft:-0.036328,0.885075,-0.170026,-0.431757 ElbowRight:0.003450,0.867843,0.172945,0.465754 FootLeft:0.000000,0.000000,0.000000,0.000000 FootRight:0.000000,0.000000,0.000000,0.000000 HandLeft:0.063748,-0.629957,-0.089977,0.768762 HandRight:0.002765,0.553966,-0.125318,0.823049 HandTipLeft:0.000000,0.000000,0.000000,0.000000 HandTipRight:0.000000,0.000000,0.000000,0.000000 Head:0.000000,0.000000,0.000000,0.000000 HipLeft:0.109053,-0.674017,0.710800,-0.169031 HipRight:-0.117829,0.684647,0.697308,-0.176452 KneeLeft:-0.001094,-0.703904,0.048788,0.708617 KneeRight:-0.005832,0.710081,0.017461,0.703879 Neck:-0.007912,0.003924,0.996034,-0.088532 ShoulderLeft:0.025977,0.774148,-0.629609,0.060112 ShoulderRight:0.016036,0.787615,0.611866,-0.070893 SpineBase:-0.004410,0.004986,0.998806,-0.048396 SpineMid:-0.006020,0.005064,0.998798,-0.048388 SpineShoulder:-0.007785,0.004485,0.997695,-0.067266 ThumbLeft:0.000000,0.000000,0.000000,0.000000 ThumbRight:0.000000,0.000000,0.000000,0.000000 WristLeft:0.103811,-0.624006,-0.091991,0.769010 WristRight:-0.073575,0.541047,-0.095932,0.832257 END:
KINECT_DATA POSITION:30.115723,-3.998202,-8.971107 HEAD_JOINT1:0.977846,0.194115,-0.000000,0.078337 LARM_JOINT2:0.814629,0.000000,-0.035656,-0.578885 LARM_JOINT3:0.972374,0.000000,-0.187079,-0.139606 LLEG_JOINT2:0.999081,0.035334,0.000000,0.024277 LLEG_JOINT4:0.997031,0.070624,0.000000,-0.030689 RARM_JOINT2:0.806183,0.000000,-0.022575,0.591236 RARM_JOINT3:0.966934,0.000000,0.203421,0.153813 RLEG_JOINT2:0.999634,0.008343,0.000000,-0.025737 RLEG_JOINT4:0.993653,0.108483,0.000000,0.029751 WAIST:0.999957,-0.000000,0.002109,0.008998 WAIST_JOINT0:0.999909,-0.000000,0.003746,0.012938 WAIST_JOINT1:0.997376,0.072104,0.000000,-0.006476 END:
KINECT_DATA_Sensor  AnkleLeft:-0.073529,-0.702323,0.076031,0.703956 AnkleRight:0.092447,0.709856,0.072476,0.694482 ElbowLeft:-0.036988,0.886197,-0.169163,-0.429733 ElbowRight:0.005493,0.867198,0.173609,0.466687 FootLeft:0.000000,0.000000,0.000000,0.000000 FootRight:0.000000,0.000000,0.000000,0.000000 HandLeft:0.058901,-0.595151,-0.113927,0.793313 HandRight:-0.005094,0.501425,-0.125026,0.856105 HandTipLeft:0.000000,0.000000,0.000000,0.000000 HandTipRight:0.000000,0.000000,0.000000,0.000000 Head:0.000000,0.000000,0.000000,0.000000 HipLeft:0.110516,-0.674237,0.710307,-0.169277 HipRight:-0.116415,0.684696,0.697738,-0.175502 KneeLeft:-0.001585,-0.705066,0.048488,0.707480 KneeRight:-0.005978,0.708986,0.017715,0.704975 Neck:-0.004157,0.001947,0.996098,-0.088135 ShoulderLeft:0.022530,0.775304,-0.628009,0.063251 ShoulderRight:0.017465,0.786866,0.613086,-0.068287 SpineBase:-0.002804,0.003379,0.998834,-0.048072 SpineMid:-0.003368,0.003406,0.998832,-0.048070 SpineShoulder:-0.004054,0.002603,0.997748,-0.066896 ThumbLeft:0.000000,0.000000,0.000000,0.000000 ThumbRight:0.000000,0.000000,0.000000,0.000000 WristLeft:0.098878,-0.588316,-0.098336,0.796516 WristRight:-0.066964,0.491489,-0.098230,0.862731 END:
KINECT_DATA POSITION:30.199633,-3.990187,-8.960093 HEAD_JOINT1:0.977498,0.194495,-0.000000,0.081668 LARM_JOINT2:0.816121,0.000000,-0.035831,-0.576769 LARM_JOINT3:0.972331,0.000000,-0.184542,-0.143240 LLEG_JOINT2:0.999078,0.035186,0.000000,0.024581 LLEG_JOINT4:0.996841,0.073156,0.000000,-0.030916 RARM_JOINT2:0.805710,0.000000,-0.022200,0.591894 RARM_JOINT3:0.964592,0.000000,0.212633,0.156044 RLEG_JOINT2:0.999653,0.008531,0.000000,-0.024926 RLEG_JOINT4:0.993641,0.108800,0.000000,0.028998 WAIST:0.999964,0.000000,-0.000068,0.008532 WAIST_JOINT0:0.999920,-0.000000,0.001309,0.012552 WAIST_JOINT1:0.997392,0.071811,0.000000,-0.007169 END:
KINECT_DATA_Sensor  AnkleLeft:-0.075231,-0.702629,0.077705,0.703288 AnkleRight:0.094309,0.723789,0.070831,0.679867 ElbowLeft:-0.037472,0.889413,-0.170319,-0.422529 ElbowRight:0.006154,0.868677,0.173601,0.463923 FootLeft:0.000000,0.000000,0.000000,0.000000 FootRight:0.000000,0.000000,0.000000,0.000000 HandLeft:0.054401,-0.620900,-0.103063,0.775179 HandRight:-0.073805,0.744920,-0.143501,0.647345 HandTipLeft:0.000000,0.000000,0.000000,0.000000 HandTipRight:0.000000,0.000000,0.000000,0.000000 Head:0.000000,0.000000,0.000000,0.000000 HipLeft:0.112170,-0.674374,0.709684,-0.170257 HipRight:-0.115078,0.684723,0.698218,-0.174367 KneeLeft:0.001502,0.706620,-0.048287,-0.705942 KneeRight:-0.005547,0.707476,0.017630,0.706496 Neck:-0.001717,0.000875,0.996134,-0.087820 ShoulderLeft:0.020882,0.775957,-0.627101,0.064798 ShoulderRight:0.019011,0.787117,0.612966,-0.066015 SpineBase:-0.000630,0.002491,0.998850,-0.047882 SpineMid:-0.001070,0.002512,0.998849,-0.047880 SpineShoulder:-0.001623,0.001603,0.997775,-0.066632 ThumbLeft:0.000000,0.000000,0.000000,0.000000 ThumbRight:0.000000,0.000000,0.000000,0.000000 WristLeft:0.100155,-0.613523,-0.097804,0.777169 WristRight:-0.094185,0.747997,-0.071997,0.653028 END:
KINECT_DATA POSITION:30.440411,-4.028306,-8.802616 HEAD_JOINT1:0.979217,0.188442,-0.000000,0.074995 LARM_JOINT2:0.815402,0.000000,-0.036065,-0.577771 LARM_JOINT3:0.973276,0.000000,-0.182209,-0.139760 LLEG_JOINT2:0.999004,0.036755,0.000000,0.025290 LLEG_JOINT4:0.997059,0.070124,0.000000,-0.030904 RARM_JOINT2:0.802748,0.000000,0.001236,0.596317 RARM_JOINT3:0.929947,0.000000,0.316114,0.187806 RLEG_JOINT2:0.999666,0.008558,0.000000,-0.024393 RLEG_JOINT4:0.993715,0.108594,0.000000,0.027166 WAIST:0.999978,0.000000,-0.001437,0.006422 WAIST_JOINT0:0.999909,-0.000000,0.003310,0.013065 WAIST_JOINT1:0.997539,0.069828,0.000000,-0.006275 END:
KINECT_DATA_Sensor  AnkleLeft:0.075112,0.704267,-0.075771,-0.701872 AnkleRight:0.092289,0.725841,0.072654,0.677760 ElbowLeft:-0.039367,0.888247,-0.166991,-0.426124 ElbowRight:-0.011640,0.865241,0.160177,0.474938 FootLeft:0.000000,0.000000,0.000000,0.000000 FootRight:0.000000,0.000000,0.000000,0.000000 HandLeft:0.046846,-0.563902,-0.094975,0.819024 HandRight:-0.162036,0.693595,-0.304371,0.632478 HandTipLeft:0.000000,0.000000,0.000000,0.000000 HandTipRight:0.000000,0.000000,0.000000,0.000000 Head:0.000000,0.000000,0.000000,0.000000 HipLeft:0.114269,-0.675806,0.708011,-0.170147 HipRight:-0.115251,0.683841,0.699606,-0.172131 KneeLeft:0.003548,0.707716,-0.048417,-0.704827 KneeRight:-0.006614,0.706384,0.018780,0.707548 Neck:-0.003682,-0.000092,0.996326,-0.085564 ShoulderLeft:0.020726,0.776955,-0.626155,0.061970 ShoulderRight:0.016378,0.788214,0.611612,-0.066190 SpineBase:0.000925,0.001829,0.998935,-0.046092 SpineMid:-0.001264,0.001930,0.998935,-0.046088 SpineShoulder:-0.003602,0.000762,0.997895,-0.064751 ThumbLeft:0.000000,0.000000,0.000000,0.000000 ThumbRight:0.000000,0.000000,0.000000,0.000000 WristLeft:0.094189,-0.557233,-0.107915,0.817908 WristRight:-0.127055,0.721776,-0.176550,0.657059 END:
KINECT_DATA POSITION:30.792862,-4.102950,-8.549833 HEAD_JOINT1:0.980777,0.184887,-0.000000,0.062400 LARM_JOINT2:0.813257,0.000000,-0.032800,-0.580980 LARM_JOINT3:0.974159,0.000000,-0.180288,-0.136057 LLEG_JOINT2:0.998990,0.039296,0.000000,0.021775 LLEG_JOINT4:0.997126,0.069867,0.000000,-0.029305 RARM_JOINT2:0.806204,0.000000,0.053607,0.589204 RARM_JOINT3:0.926857,0.000000,0.333022,0.173301 RLEG_JOINT2:0.999614,0.007943,0.000000,-0.026612 RLEG_JOINT4:0.993153,0.113193,0.000000,0.028893 WAIST:0.999982,0.000000,-0.001265,0.005893 WAIST_JOINT0:0.999755,-0.000000,0.014840,0.016426 WAIST_JOINT1:0.997688,0.067852,0.000000,-0.003793 END:
KINECT_DATA_Sensor  AnkleLeft:-0.077727,-0.697402,0.076392,0.708345 AnkleRight:0.094990,0.729520,0.075512,0.673108 ElbowLeft:-0.039781,0.883025,-0.165396,-0.437410 ElbowRight:-0.049768,0.876055,0.142825,0.457878 FootLeft:0.000000,0.000000,0.000000,0.000000 FootRight:0.000000,0.000000,0.000000,0.000000 HandLeft:0.049233,-0.620003,-0.075288,0.779426 HandRight:-0.198167,0.686015,-0.330404,0.617209 HandTipLeft:0.000000,0.000000,0.000000,0.000000 HandTipRight:0.000000,0.000000,0.000000,0.000000 Head:0.000000,0.000000,0.000000,0.000000 HipLeft:0.115466,-0.676413,0.707598,-0.168637 HipRight:-0.117595,0.684109,0.699673,-0.169184 KneeLeft:0.008211,0.707613,-0.047354,-0.704964 KneeRight:-0.008997,0.706316,0.020287,0.707549 Neck:-0.015579,0.002471,0.996346,-0.083940 ShoulderLeft:0.022781,0.775699,-0.628325,0.054588 ShoulderRight:0.003054,0.791233,0.606655,-0.076884 SpineBase:0.000928,0.004033,0.999067,-0.042988 SpineMid:-0.007120,0.004380,0.999042,-0.042954 SpineShoulder:-0.015447,0.003545,0.997913,-0.062601 ThumbLeft:0.000000,0.000000,0.000000,0.000000 ThumbRight:0.000000,0.000000,0.000000,0.000000 WristLeft:0.105233,-0.612727,-0.102209,0.776559 WristRight:-0.147304,0.718273,-0.213726,0.645528 END:
KINECT_DATA POSITION:31.263224,-4.167894,-8.260846 HEAD_JOINT1:0.981142,0.185342,-0.000000,0.054851 LARM_JOINT2:0.811695,0.000000,-0.028341,-0.583393 LARM_JOINT3:0.973698,0.000000,-0.184068,-0.134282 LLEG_JOINT2:0.999030,0.041427,0.000000,0.014958 LLEG_JOINT4:0.997390,0.068008,0.000000,-0.024234 RARM_JOINT2:0.806152,0.000000,0.157920,0.570247 RARM_JOINT3:0.939047,0.000000,0.315805,0.135858 RLEG_JOINT2:0.999422,0.010516,0.000000,-0.032321 RLEG_JOINT4:0.993571,0.109428,0.000000,0.029007 WAIST:0.999974,-0.000000,0.001568,0.007060 WAIST_JOINT0:0.999328,-0.000000,0.030948,0.019627 WAIST_JOINT1:0.997850,0.065521,0.000000,-0.001398 END:
KINECT_DATA_Sensor  AnkleLeft:0.080526,0.714383,-0.073842,-0.691172 AnkleRight:0.090934,0.731724,0.078131,0.670974 ElbowLeft:-0.040036,0.877052,-0.166573,-0.448810 ElbowRight:-0.121906,0.898567,0.105204,0.408225 FootLeft:0.000000,0.000000,0.000000,0.000000 FootRight:0.000000,0.000000,0.000000,0.000000 HandLeft:0.050917,-0.572409,-0.083996,0.814064 HandRight:-0.317383,0.827400,-0.265197,0.379930 HandTipLeft:0.000000,0.000000,0.000000,0.000000 HandTipRight:0.000000,0.000000,0.000000,0.000000 Head:0.000000,0.000000,0.000000,0.000000 HipLeft:0.114681,-0.676203,0.708563,-0.165939 HipRight:-0.121601,0.685198,0.698262,-0.167772 KneeLeft:-0.013819,-0.705450,0.044818,0.707206 KneeRight:-0.010469,0.708211,0.025279,0.705471 Neck:-0.031730,0.006315,0.996107,-0.082003 ShoulderLeft:0.027031,0.774630,-0.630325,0.043671 ShoulderRight:-0.013690,0.792914,0.602366,-0.090852 SpineBase:-0.001820,0.007736,0.999163,-0.040126 SpineMid:-0.016433,0.008322,0.999030,-0.040009 SpineShoulder:-0.031500,0.007857,0.997674,-0.059938 ThumbLeft:0.000000,0.000000,0.000000,0.000000 ThumbRight:0.000000,0.000000,0.000000,0.000000 WristLeft:0.104047,-0.565397,-0.106795,0.811231 WristRight:-0.232605,0.864042,-0.195979,0.401146 END:
KINECT_DATA POSITION:31.665659,-4.185115,-8.209610 HEAD_JOINT1:0.981142,0.185944,-0.000000,0.052770 LARM_JOINT2:0.810820,0.000000,-0.024524,-0.584781 LARM_JOINT3:0.973038,0.000000,-0.183428,-0.139827 LLEG_JOINT2:0.999119,0.041470,0.000000,0.006514 LLEG_JOINT4:0.997560,0.067253,0.000000,-0.018728 RARM_JOINT2:0.802219,0.000000,0.227801,0.551862 RARM_JOINT3:0.944177,0.000000,0.313867,0.100089 RLEG_JOINT2:0.999079,0.012086,0.000000,-0.041174 RLEG_JOINT4:0.993393,0.108567,0.000000,0.037210 WAIST:0.999926,-0.000000,0.005956,0.010613 WAIST_JOINT0:0.998801,-0.000000,0.042740,0.023858 WAIST_JOINT1:0.997901,0.064741,0.000000,-0.001654 END:
KINECT_DATA_Sensor  AnkleLeft:-0.076707,-0.681726,0.076724,0.723518 AnkleRight:0.091692,0.722465,0.078412,0.680799 ElbowLeft:-0.038895,0.872093,-0.169212,-0.457502 ElbowRight:-0.173081,0.892793,0.070318,0.409901 FootLeft:0.000000,0.000000,0.000000,0.000000 FootRight:0.000000,0.000000,0.000000,0.000000 HandLeft:0.032489,-0.582132,-0.083087,0.808185 HandRight:-0.024442,0.290970,-0.428768,0.854925 HandTipLeft:0.000000,0.000000,0.000000,0.000000 HandTipRight:0.000000,0.000000,0.000000,0.000000 Head:0.000000,0.000000,0.000000,0.000000 HipLeft:0.111905,-0.674238,0.711280,-0.164195 HipRight:-0.125689,0.687208,0.695133,-0.169519 KneeLeft:-0.017430,-0.702050,0.041273,0.710717 KneeRight:-0.013281,0.711286,0.030043,0.702134 Neck:-0.043300,0.010264,0.995729,-0.080893 ShoulderLeft:0.029512,0.773210,-0.632347,0.037590 ShoulderRight:-0.026439,0.794520,0.597952,-0.102433 SpineBase:-0.006295,0.012291,0.999119,-0.039627 SpineMid:-0.024337,0.013004,0.998842,-0.039399 SpineShoulder:-0.043079,0.011123,0.997263,-0.059044 ThumbLeft:0.000000,0.000000,0.000000,0.000000 ThumbRight:0.000000,0.000000,0.000000,0.000000 WristLeft:0.108306,-0.571137,-0.104415,0.806951 WristRight:-0.026253,0.298156,-0.356381,0.885102 END:
KINECT_DATA POSITION:31.921524,-4.217677,-8.136045 HEAD_JOINT1:0.980597,0.189501,-0.000000,0.050179 LARM_JOINT2:0.808860,0.000000,-0.022620,-0.587565 LARM_JOINT3:0.972930,0.000000,-0.184483,-0.139188 LLEG_JOINT2:0.999111,0.042107,0.000000,0.001925 LLEG_JOINT4:0.997716,0.065507,0.000000,-0.016509 RARM_JOINT2:0.795073,0.000000,0.292664,0.531231 RARM_JOINT3:0.955803,0.000000,0.285527,0.070104 RLEG_JOINT2:0.998854,0.013453,0.000000,-0.045926 RLEG_JOINT4:0.993247,0.109368,0.000000,0.038726 WAIST:0.999884,-0.000000,0.008462,0.012656 WAIST_JOINT0:0.998141,-0.000000,0.053490,0.029219 WAIST_JOINT1:0.997943,0.064111,0.000000,-0.000394 END:
KINECT_DATA_Sensor  AnkleLeft:0.080110,0.716469,-0.071463,-0.689310 AnkleRight:0.093275,0.732849,0.079701,0.669239 ElbowLeft:-0.038365,0.868549,-0.169562,-0.464112 ElbowRight:-0.216943,0.888680,0.034621,0.402474 FootLeft:0.000000,0.000000,0.000000,0.000000 FootRight:0.000000,0.000000,0.000000,0.000000 HandLeft:0.030749,-0.571392,-0.086558,0.815521 HandRight:-0.065848,0.365251,-0.413004,0.831675 HandTipLeft:0.000000,0.000000,0.000000,0.000000 HandTipRight:0.000000,0.000000,0.000000,0.000000 Head:0.000000,0.000000,0.000000,0.000000 HipLeft:0.110295,-0.673068,0.712932,-0.162919 HipRight:-0.128066,0.688405,0.693404,-0.169964 KneeLeft:-0.019735,-0.700069,0.039831,0.712690 KneeRight:-0.014360,0.713052,0.032857,0.700193 Neck:-0.053906,0.015054,0.995227,-0.079939 ShoulderLeft:0.031415,0.771275,-0.634899,0.032430 ShoulderRight:-0.038657,0.797087,0.591891,-0.113242 SpineBase:-0.008835,0.015235,0.999083,-0.039022 SpineMid:-0.030872,0.016092,0.998645,-0.038677 SpineShoulder:-0.053760,0.014378,0.996751,-0.058229 ThumbLeft:0.000000,0.000000,0.000000,0.000000 ThumbRight:0.000000,0.000000,0.000000,0.000000 WristLeft:0.109111,-0.559645,-0.103962,0.814913 WristRight:-0.067003,0.367854,-0.384530,0.843997 END:
KINECT_DATA POSITION:32.118992,-4.207690,-8.125723 HEAD_JOINT1:0.979845,0.194108,-0.000000,0.047182 LARM_JOINT2:0.807120,0.000000,-0.022180,-0.589971 LARM_JOINT3:0.972088,0.000000,-0.188498,-0.139693 LLEG_JOINT2:0.999122,0.041834,0.000000,-0.002073 LLEG_JOINT4:0.997653,0.067053,0.000000,-0.013883 RARM_JOINT2:0.781055,0.000000,0.341595,0.522748 RARM_JOINT3:0.964578,0.000000,0.258707,0.051578 RLEG_JOINT2:0.998622,0.015058,0.000000,-0.050279 RLEG_JOINT4:0.993321,0.108440,0.000000,0.039424 WAIST:0.999832,-0.000000,0.010834,0.014767 WAIST_JOINT0:0.997935,-0.000000,0.056496,0.030547 WAIST_JOINT1:0.997949,0.064005,-0.000000,0.000367 END:
KINECT_DATA_Sensor  AnkleLeft:0.080409,0.712247,-0.072937,-0.693483 AnkleRight:0.092859,0.737435,0.081016,0.664080 ElbowLeft:-0.037666,0.867296,-0.169721,-0.466448 ElbowRight:-0.240587,0.884219,-0.004771,0.400316 FootLeft:0.000000,0.000000,0.000000,0.000000 FootRight:0.000000,0.000000,0.000000,0.000000 HandLeft:0.043226,-0.618557,-0.101201,0.777995 HandRight:-0.069892,0.416600,-0.414107,0.806272 HandTipLeft:0.000000,0.000000,0.000000,0.000000 HandTipRight:0.000000,0.000000,0.000000,0.000000 Head:0.000000,0.000000,0.000000,0.000000 HipLeft:0.108587,-0.671775,0.714611,-0.162046 HipRight:-0.129978,0.689513,0.691688,-0.171012 KneeLeft:-0.020910,-0.698223,0.038209,0.714554 KneeRight:-0.014952,0.714766,0.035504,0.698302 Neck:-0.056063,0.018634,0.995075,-0.079599 ShoulderLeft:0.032577,0.769499,-0.637062,0.031014 ShoulderRight:-0.040703,0.794882,0.594313,-0.115315 SpineBase:-0.011271,0.017671,0.999018,-0.039030 SpineMid:-0.033178,0.018522,0.998531,-0.038633 SpineShoulder:-0.055965,0.016783,0.996602,-0.058054 ThumbLeft:0.000000,0.000000,0.000000,0.000000 ThumbRight:0.000000,0.000000,0.000000,0.000000 WristLeft:0.115243,-0.605710,-0.095809,0.781444 WristRight:-0.091159,0.408972,-0.395728,0.817209 END:
KINECT_DATA POSITION:32.367992,-4.279663,-8.098316 HEAD_JOINT1:0.978882,0.199312,-0.000000,0.045445 LARM_JOINT2:0.805195,0.000000,-0.021682,-0.592614 LARM_JOINT3:0.971874,0.000000,-0.188918,-0.140613 LLEG_JOINT2:0.999065,0.042766,0.000000,-0.006385 LLEG_JOINT4:0.997818,0.065232,0.000000,-0.010200 RARM_JOINT2:0.800448,0.000000,0.471781,0.369737 RARM_JOINT3:0.968474,0.000000,0.167438,0.184454 RLEG_JOINT2:0.998351,0.018691,0.000000,-0.054275 RLEG_JOINT4:0.993610,0.105112,0.000000,0.041106 WAIST:0.999753,-0.000000,0.014743,0.016617 WAIST_JOINT0:0.997025,-0.000000,0.068861,0.034619 WAIST_JOINT1:0.997996,0.063251,-0.000000,0.001579 END:
KINECT_DATA_Sensor  AnkleLeft:-0.074667,-0.666966,0.077455,0.737280 AnkleRight:0.088825,0.711393,0.085675,0.691874 ElbowLeft:-0.036495,0.867298,-0.169713,-0.466539 ElbowRight:-0.354756,0.914424,0.167794,-0.099108 FootLeft:0.000000,0.000000,0.000000,0.000000 FootRight:0.000000,0.000000,0.000000,0.000000 HandLeft:0.042723,-0.577831,-0.106079,0.808105 HandRight:-0.036224,0.351516,-0.429193,0.831215 HandTipLeft:0.000000,0.000000,0.000000,0.000000 HandTipRight:0.000000,0.000000,0.000000,0.000000 Head:0.000000,0.000000,0.000000,0.000000 HipLeft:0.106855,-0.670786,0.716131,-0.160576 HipRight:-0.133545,0.690161,0.689828,-0.173150 KneeLeft:-0.023375,-0.695213,0.036953,0.717473 KneeRight:-0.014151,0.717646,0.039493,0.695143 Neck:-0.069169,0.021341,0.994279,-0.078543 ShoulderLeft:0.031056,0.768212,-0.638850,0.027502 ShoulderRight:-0.059732,0.798102,0.585101,-0.130847 SpineBase:-0.015245,0.019426,0.998942,-0.038804 SpineMid:-0.041616,0.020444,0.998191,-0.038278 SpineShoulder:-0.068952,0.020338,0.995782,-0.057004 ThumbLeft:0.000000,0.000000,0.000000,0.000000 ThumbRight:0.000000,0.000000,0.000000,0.000000 WristLeft:0.109378,-0.566231,-0.101142,0.810672 WristRight:0.004600,0.386162,-0.325681,0.863012 END:
KINECT_DATA POSITION:32.457523,-4.300735,-8.070791 HEAD_JOINT1:0.978514,0.201186,-0.000000,0.045102 LARM_JOINT2:0.804385,0.000000,-0.021606,-0.593715 LARM_JOINT3:0.971829,0.000000,-0.190063,-0.139371 LLEG_JOINT2:0.999035,0.043493,0.000000,-0.006073 LLEG_JOINT4:0.997754,0.065795,0.000000,-0.012563 RARM_JOINT2:0.795518,0.000000,0.482785,0.366156 RARM_JOINT3:0.974136,0.000000,0.155951,0.163520 RLEG_JOINT2:0.998252,0.019639,0.000000,-0.055746 RLEG_JOINT4:0.993606,0.103990,0.000000,0.043976 WAIST:0.999734,-0.000000,0.016210,0.016420 WAIST_JOINT0:0.996760,-0.000000,0.072537,0.034763 WAIST_JOINT1:0.998016,0.062893,-0.000000,0.002906 END:
KINECT_DATA_Sensor  AnkleLeft:-0.077134,-0.664349,0.076830,0.739451 AnkleRight:0.089715,0.714710,0.084499,0.688477 ElbowLeft:-0.036284,0.866917,-0.169461,-0.467355 ElbowRight:-0.363760,0.911654,0.160575,-0.103831 FootLeft:0.000000,0.000000,0.000000,0.000000 FootRight:0.000000,0.000000,0.000000,0.000000 HandLeft:0.054909,-0.612494,-0.105597,0.781464 HandRight:-0.058772,0.334916,-0.439722,0.831277 HandTipLeft:0.000000,0.000000,0.000000,0.000000 HandTipRight:0.000000,0.000000,0.000000,0.000000 Head:0.000000,0.000000,0.000000,0.000000 HipLeft:0.106365,-0.670926,0.716165,-0.160164 HipRight:-0.134818,0.689681,0.689795,-0.174205 KneeLeft:-0.023858,-0.694132,0.037491,0.718475 KneeRight:-0.014760,0.718655,0.041301,0.693982 Neck:-0.072826,0.022420,0.994032,-0.078066 ShoulderLeft:0.030872,0.767704,-0.639524,0.026216 ShoulderRight:-0.064933,0.797354,0.584619,-0.135019 SpineBase:-0.016670,0.019929,0.998916,-0.038626 SpineMid:-0.044142,0.020984,0.998079,-0.038063 SpineShoulder:-0.072583,0.021523,0.995524,-0.056574 ThumbLeft:0.000000,0.000000,0.000000,0.000000 ThumbRight:0.000000,0.000000,0.000000,0.000000 WristLeft:0.113806,-0.601962,-0.096074,0.784512 WristRight:-0.005051,0.375214,-0.334134,0.864606 END:
KINECT_DATA POSITION:32.475235,-4.323299,-8.046341 HEAD_JOINT1:0.978226,0.202577,-0.000000,0.045119 LARM_JOINT2:0.803728,0.000000,-0.021843,-0.594595 LARM_JOINT3:0.971292,0.000000,-0.191062,-0.141731 LLEG_JOINT2:0.999053,0.042995,0.000000,-0.006709 LLEG_JOINT4:0.997828,0.064974,0.000000,-0.010885 RARM_JOINT2:0.781669,0.000000,0.471129,0.408694 RARM_JOINT3:0.983027,0.000000,0.161686,0.086687 RLEG_JOINT2:0.998137,0.020045,0.000000,-0.057623 RLEG_JOINT4:0.993375,0.105113,0.000000,0.046445 WAIST:0.999691,-0.000000,0.018180,0.016946 WAIST_JOINT0:0.996453,-0.000000,0.076038,0.036057 WAIST_JOINT1:0.998045,0.062411,-0.000000,0.003465 END:
KINECT_DATA_Sensor  AnkleLeft:0.079597,0.705401,-0.072245,-0.700610 AnkleRight:0.091948,0.720324,0.084332,0.682324 ElbowLeft:-0.036108,0.867179,-0.169308,-0.466939 ElbowRight:-0.360038,0.927437,0.059065,0.082126 FootLeft:0.000000,0.000000,0.000000,0.000000 FootRight:0.000000,0.000000,0.000000,0.000000 HandLeft:0.050377,-0.578804,-0.115626,0.805655 HandRight:-0.041155,0.291585,-0.440565,0.848049 HandTipLeft:0.000000,0.000000,0.000000,0.000000 HandTipRight:0.000000,0.000000,0.000000,0.000000 Head:0.000000,0.000000,0.000000,0.000000 HipLeft:0.105593,-0.670862,0.716564,-0.159157 HipRight:-0.136693,0.689865,0.689011,-0.175111 KneeLeft:-0.023619,-0.692706,0.036990,0.719883 KneeRight:-0.015559,0.720036,0.042475,0.692461 Neck:-0.076219,0.023780,0.993808,-0.077273 ShoulderLeft:0.030234,0.767137,-0.640271,0.025318 ShoulderRight:-0.070292,0.797584,0.582735,-0.139064 SpineBase:-0.018659,0.020286,0.998885,-0.038336 SpineMid:-0.046842,0.021360,0.997960,-0.037748 SpineShoulder:-0.076001,0.022446,0.995276,-0.056094 ThumbLeft:0.000000,0.000000,0.000000,0.000000 ThumbRight:0.000000,0.000000,0.000000,0.000000 WristLeft:0.109221,-0.567971,-0.101138,0.809475 WristRight:-0.025745,0.305747,-0.383911,0.870901 END:
KINECT_DATA POSITION:32.449654,-4.333363,-8.056283 HEAD_JOINT1:0.977812,0.204605,-0.000000,0.044957 LARM_JOINT2:0.802940,0.000000,-0.023219,-0.595608 LARM_JOINT3:0.972221,0.000000,-0.183423,-0.145400 LLEG_JOINT2:0.999093,0.042201,0.000000,-0.005655 LLEG_JOINT4:0.997758,0.066345,0.000000,-0.008828 RARM_JOINT2:0.779345,0.000000,0.468559,0.416021 RARM_JOINT3:0.985888,0.000000,0.154789,0.063758 RLEG_JOINT2:0.998153,0.021227,0.000000,-0.056924 RLEG_JOINT4:0.993745,0.102031,0.000000,0.045400 WAIST:0.999637,-0.000000,0.021194,0.016607 WAIST_JOINT0:0.996139,-0.000000,0.079321,0.037623 WAIST_JOINT1:0.998083,0.061690,-0.000000,0.004863 END:
KINECT_DATA_Sensor  AnkleLeft:0.079101,0.710474,-0.073599,-0.695380 AnkleRight:0.089774,0.722183,0.083781,0.680715 ElbowLeft:-0.035722,0.869731,-0.168675,-0.462429 ElbowRight:-0.358241,0.922443,0.029792,0.140978 FootLeft:0.000000,0.000000,0.000000,0.000000 FootRight:0.000000,0.000000,0.000000,0.000000 HandLeft:0.049027,-0.692089,-0.092364,0.714198 HandRight:-0.066177,0.282137,-0.428152,0.855982 HandTipLeft:0.000000,0.000000,0.000000,0.000000 HandTipRight:0.000000,0.000000,0.000000,0.000000 Head:0.000000,0.000000,0.000000,0.000000 HipLeft:0.103778,-0.671614,0.716570,-0.157138 HipRight:-0.138388,0.689480,0.688808,-0.176094 KneeLeft:-0.022632,-0.690605,0.036854,0.721937 KneeRight:-0.014636,0.722153,0.043001,0.690240 Neck:-0.079401,0.024800,0.993602,-0.076386 ShoulderLeft:0.029252,0.766455,-0.641162,0.024549 ShoulderRight:-0.075719,0.797993,0.580587,-0.142803 SpineBase:-0.021630,0.020479,0.998836,-0.037941 SpineMid:-0.049930,0.021546,0.997822,-0.037345 SpineShoulder:-0.079189,0.023253,0.995047,-0.055401 ThumbLeft:0.000000,0.000000,0.000000,0.000000 ThumbRight:0.000000,0.000000,0.000000,0.000000 WristLeft:0.120568,-0.679176,-0.085928,0.718888 WristRight:-0.035706,0.299331,-0.396608,0.867080 END:
KINECT_DATA POSITION:32.277977,-4.309149,-8.120287 HEAD_JOINT1:0.977778,0.204711,-0.000000,0.045216 LARM_JOINT2:0.802867,0.000000,-0.024196,-0.595667 LARM_JOINT3:0.973134,0.000000,-0.180976,-0.142330 LLEG_JOINT2:0.999184,0.040370,0.000000,-0.001442 LLEG_JOINT4:0.997678,0.067150,0.000000,-0.011348 RARM_JOINT2:0.775001,0.000000,0.453896,0.439719 RARM_JOINT3:0.985919,0.000000,0.166009,0.020114 RLEG_JOINT2:0.998307,0.021416,0.000000,-0.054088 RLEG_JOINT4:0.993518,0.102959,0.000000,0.048188 WAIST:0.999594,-0.000000,0.024335,0.014807 WAIST_JOINT0:0.996214,-0.000000,0.078700,0.036940 WAIST_JOINT1:0.998087,0.061430,-0.000000,0.006923 END:
KINECT_DATA_Sensor  AnkleLeft:-0.073743,-0.661364,0.077549,0.742392 AnkleRight:0.092783,0.722202,0.082444,0.680455 ElbowLeft:-0.034780,0.872269,-0.168750,-0.457668 ElbowRight:-0.337161,0.893027,-0.034311,0.296052 FootLeft:0.000000,0.000000,0.000000,0.000000 FootRight:0.000000,0.000000,0.000000,0.000000 HandLeft:0.055572,-0.630143,-0.082764,0.770053 HandRight:-0.113530,0.324764,-0.412351,0.843567 HandTipLeft:0.000000,0.000000,0.000000,0.000000 HandTipRight:0.000000,0.000000,0.000000,0.000000 Head:0.000000,0.000000,0.000000,0.000000 HipLeft:0.101859,-0.673135,0.715795,-0.155408 HipRight:-0.140178,0.687732,0.689719,-0.177937 KneeLeft:-0.019758,-0.688577,0.037259,0.723936 KneeRight:-0.013900,0.724255,0.042366,0.688089 Neck:-0.078355,0.024517,0.993701,-0.076269 ShoulderLeft:0.029743,0.765619,-0.642133,0.024643 ShoulderRight:-0.073929,0.795895,0.584032,-0.141397 SpineBase:-0.024643,0.020037,0.998777,-0.037896 SpineMid:-0.050963,0.021029,0.997780,-0.037354 SpineShoulder:-0.078133,0.023103,0.995140,-0.055298 ThumbLeft:0.000000,0.000000,0.000000,0.000000 ThumbRight:0.000000,0.000000,0.000000,0.000000 WristLeft:0.111038,-0.621981,-0.094675,0.769316 WristRight:-0.077290,0.339647,-0.422859,0.836574 END:
KINECT_DATA POSITION:32.081779,-4.294716,-8.204174 HEAD_JOINT1:0.977986,0.203400,-0.000000,0.046614 LARM_JOINT2:0.804057,0.000000,-0.026005,-0.593983 LARM_JOINT3:0.972059,0.000000,-0.185062,-0.144408 LLEG_JOINT2:0.999260,0.038408,0.000000,0.001950 LLEG_JOINT4:0.997506,0.069481,0.000000,-0.012407 RARM_JOINT2:0.769618,0.000000,0.509753,0.384500 RARM_JOINT3:0.992788,0.000000,0.103133,0.061123 RLEG_JOINT2:0.998490,0.022039,0.000000,-0.050314 RLEG_JOINT4:0.993676,0.101297,0.000000,0.048434 WAIST:0.999580,-0.000000,0.025935,0.012959 WAIST_JOINT0:0.996471,-0.000000,0.075994,0.035633 WAIST_JOINT1:0.998058,0.061710,-0.000000,0.008494 END:
KINECT_DATA_Sensor  AnkleLeft:0.078754,0.707388,-0.073052,-0.698616 AnkleRight:0.092746,0.717103,0.081235,0.685976 ElbowLeft:-0.035421,0.873964,-0.170008,-0.453905 ElbowRight:-0.386315,0.919245,0.073148,-0.019952 FootLeft:0.000000,0.000000,0.000000,0.000000 FootRight:0.000000,0.000000,0.000000,0.000000 HandLeft:0.063231,-0.614192,-0.101102,0.780095 HandRight:-0.109396,0.296691,-0.435235,0.842957 HandTipLeft:0.000000,0.000000,0.000000,0.000000 HandTipRight:0.000000,0.000000,0.000000,0.000000 Head:0.000000,0.000000,0.000000,0.000000 HipLeft:0.100729,-0.674517,0.714772,-0.154860 HipRight:-0.141194,0.686198,0.690735,-0.179112 KneeLeft:-0.017355,-0.687643,0.037012,0.724897 KneeRight:-0.012126,0.725317,0.041482,0.687058 Neck:-0.075597,0.023853,0.993896,-0.076731 ShoulderLeft:0.030014,0.765201,-0.642569,0.025906 ShoulderRight:-0.070018,0.794352,0.587277,-0.138591 SpineBase:-0.026122,0.019442,0.998738,-0.038226 SpineMid:-0.050369,0.020364,0.997809,-0.037743 SpineShoulder:-0.075378,0.022495,0.995342,-0.055739 ThumbLeft:0.000000,0.000000,0.000000,0.000000 ThumbRight:0.000000,0.000000,0.000000,0.000000 WristLeft:0.108858,-0.606638,-0.096468,0.781559 WristRight:-0.060538,0.324598,-0.378551,0.864680 END:
KINECT_DATA POSITION:31.923527,-4.265990,-8.265471 HEAD_JOINT1:0.978134,0.202024,-0.000000,0.049396 LARM_JOINT2:0.805241,0.000000,-0.028424,-0.592266 LARM_JOINT3:0.971498,0.000000,-0.187515,-0.145019 LLEG_JOINT2:0.999274,0.037782,0.000000,0.004882 LLEG_JOINT4:0.997265,0.072519,0.000000,-0.014282 RARM_JOINT2:0.766401,0.000000,0.526619,0.367834 RARM_JOINT3:0.993956,0.000000,0.092324,0.059390 RLEG_JOINT2:0.998623,0.021237,0.000000,-0.047980 RLEG_JOINT4:0.993922,0.100382,0.000000,0.045194 WAIST:0.999551,-0.000000,0.027404,0.012147 WAIST_JOINT0:0.996443,-0.000000,0.076201,0.035973 WAIST_JOINT1:0.998028,0.062105,-0.000000,0.009065 END:
KINECT_DATA_Sensor  AnkleLeft:-0.079762,-0.699070,0.075498,0.706568 AnkleRight:0.091696,0.731011,0.079643,0.671470 ElbowLeft:-0.036448,0.875688,-0.171140,-0.450059 ElbowRight:-0.399318,0.910374,0.087171,-0.064534 FootLeft:0.000000,0.000000,0.000000,0.000000 FootRight:0.000000,0.000000,0.000000,0.000000 HandLeft:0.072748,-0.612741,-0.108638,0.779393 HandRight:-0.101865,0.262562,-0.448397,0.848307 HandTipLeft:0.000000,0.000000,0.000000,0.000000 HandTipRight:0.000000,0.000000,0.000000,0.000000 Head:0.000000,0.000000,0.000000,0.000000 HipLeft:0.099586,-0.675248,0.714393,-0.154162 HipRight:-0.141803,0.685388,0.691121,-0.180244 KneeLeft:-0.015504,-0.686688,0.038097,0.725788 KneeRight:-0.011636,0.726278,0.039835,0.686148 Neck:-0.075869,0.023520,0.993845,-0.077214 ShoulderLeft:0.030309,0.764502,-0.643366,0.026435 ShoulderRight:-0.070167,0.794010,0.587541,-0.139357 SpineBase:-0.027548,0.018889,0.998696,-0.038609 SpineMid:-0.051243,0.019800,0.997761,-0.038150 SpineShoulder:-0.075666,0.022085,0.995304,-0.056193 ThumbLeft:0.000000,0.000000,0.000000,0.000000 ThumbRight:0.000000,0.000000,0.000000,0.000000 WristLeft:0.108799,-0.606495,-0.096969,0.781616 WristRight:-0.051397,0.292562,-0.385734,0.873484 END:
KINECT_DATA POSITION:31.823530,-4.261197,-8.331287 HEAD_JOINT1:0.978218,0.201733,-0.000000,0.048927 LARM_JOINT2:0.805278,0.000000,-0.030533,-0.592111 LARM_JOINT3:0.973001,0.000000,-0.179221,-0.145425 LLEG_JOINT2:0.999330,0.035904,0.000000,0.007103 LLEG_JOINT4:0.997167,0.073911,0.000000,-0.013956 RARM_JOINT2:0.771806,0.000000,0.526217,0.356948 RARM_JOINT3:0.993563,0.000000,0.093270,0.064289 RLEG_JOINT2:0.998697,0.021313,0.000000,-0.046379 RLEG_JOINT4:0.993804,0.101049,0.000000,0.046293 WAIST:0.999485,-0.000000,0.030043,0.011295 WAIST_JOINT0:0.995982,-0.000000,0.081630,0.036823 WAIST_JOINT1:0.998008,0.062286,-0.000000,0.009976 END:
KINECT_DATA_Sensor  AnkleLeft:0.079614,0.707868,-0.075024,-0.697822 AnkleRight:0.093042,0.730332,0.079446,0.672046 ElbowLeft:-0.037006,0.875791,-0.170806,-0.449940 ElbowRight:-0.407244,0.908891,0.082225,-0.036183 FootLeft:0.000000,0.000000,0.000000,0.000000 FootRight:0.000000,0.000000,0.000000,0.000000 HandLeft:0.048456,-0.546501,-0.090495,0.831143 HandRight:-0.123972,0.305015,-0.422539,0.844428 HandTipLeft:0.000000,0.000000,0.000000,0.000000 HandTipRight:0.000000,0.000000,0.000000,0.000000 Head:0.000000,0.000000,0.000000,0.000000 HipLeft:0.097755,-0.676139,0.714085,-0.152850 HipRight:-0.143320,0.684460,0.691333,-0.181746 KneeLeft:-0.013298,-0.684917,0.037761,0.727520 KneeRight:-0.011149,0.728050,0.039339,0.684304 Neck:-0.081951,0.023681,0.993347,-0.077367 ShoulderLeft:0.029744,0.764450,-0.643491,0.025518 ShoulderRight:-0.079021,0.794954,0.583216,-0.147187 SpineBase:-0.030117,0.018833,0.998615,-0.038821 SpineMid:-0.055540,0.019815,0.997524,-0.038329 SpineShoulder:-0.081763,0.022191,0.994810,-0.056348 ThumbLeft:0.000000,0.000000,0.000000,0.000000 ThumbRight:0.000000,0.000000,0.000000,0.000000 WristLeft:0.100676,-0.539301,-0.105394,0.829404 WristRight:-0.073598,0.330219,-0.393957,0.854598 END:
KINECT_DATA POSITION:31.734610,-4.230182,-8.374369 HEAD_JOINT1:0.978204,0.202202,-0.000000,0.047240 LARM_JOINT2:0.804964,0.000000,-0.030577,-0.592535 LARM_JOINT3:0.972893,0.000000,-0.180134,-0.145020 LLEG_JOINT2:0.999305,0.036073,0.000000,0.009409 LLEG_JOINT4:0.997439,0.069954,0.000000,-0.014874 RARM_JOINT2:0.757186,0.000000,0.546260,0.358147 RARM_JOINT3:0.996400,0.000000,0.067424,0.051384 RLEG_JOINT2:0.998778,0.021831,0.000000,-0.044341 RLEG_JOINT4:0.993980,0.098879,0.000000,0.047192 WAIST:0.999455,-0.000000,0.031346,0.010340 WAIST_JOINT0:0.997181,-0.000000,0.067941,0.031854 WAIST_JOINT1:0.998008,0.062140,-0.000000,0.010878 END:
KINECT_DATA_Sensor  AnkleLeft:-0.072479,-0.667859,0.076874,0.736751 AnkleRight:0.091786,0.718947,0.078725,0.684466 ElbowLeft:-0.036828,0.874939,-0.170239,-0.451822 ElbowRight:-0.407489,0.896195,0.104707,-0.140798 FootLeft:0.000000,0.000000,0.000000,0.000000 FootRight:0.000000,0.000000,0.000000,0.000000 HandLeft:0.060830,-0.633105,-0.087853,0.766655 HandRight:-0.120077,0.248132,-0.453959,0.847309 HandTipLeft:0.000000,0.000000,0.000000,0.000000 HandTipRight:0.000000,0.000000,0.000000,0.000000 Head:0.000000,0.000000,0.000000,0.000000 HipLeft:0.096894,-0.676926,0.713634,-0.152017 HipRight:-0.144188,0.683651,0.691820,-0.182251 KneeLeft:-0.012562,-0.684031,0.038854,0.728309 KneeRight:-0.010047,0.728924,0.038971,0.683411 Neck:-0.067637,0.022340,0.994435,-0.077619 ShoulderLeft:0.032366,0.764155,-0.643628,0.027604 ShoulderRight:-0.056993,0.790603,0.595931,-0.128706 SpineBase:-0.031348,0.018679,0.998584,-0.038721 SpineMid:-0.049100,0.019365,0.997868,-0.038383 SpineShoulder:-0.067417,0.021172,0.995894,-0.056589 ThumbLeft:0.000000,0.000000,0.000000,0.000000 ThumbRight:0.000000,0.000000,0.000000,0.000000 WristLeft:0.111710,-0.625296,-0.093893,0.766623 WristRight:-0.051814,0.287100,-0.386411,0.874972 END:
KINECT_DATA POSITION:31.685421,-4.181383,-8.447242 HEAD_JOINT1:0.977954,0.203391,-0.000000,0.047305 LARM_JOINT2:0.804921,0.000000,-0.031500,-0.592545 LARM_JOINT3:0.973298,0.000000,-0.178529,-0.144288 LLEG_JOINT2:0.999298,0.035999,0.000000,0.010402 LLEG_JOINT4:0.997424,0.069803,0.000000,-0.016509 RARM_JOINT2:0.756455,0.000000,0.548648,0.356035 RARM_JOINT3:0.996754,0.000000,0.062398,0.050864 RLEG_JOINT2:0.998845,0.020791,0.000000,-0.043324 RLEG_JOINT4:0.993721,0.101326,0.000000,0.047446 WAIST:0.999466,-0.000000,0.031126,0.009952 WAIST_JOINT0:0.997159,-0.000000,0.068351,0.031661 WAIST_JOINT1:0.998028,0.061761,-0.000000,0.011191 END:
KINECT_DATA_Sensor  AnkleLeft:0.077659,0.712979,-0.071262,-0.693218 AnkleRight:0.092172,0.707825,0.080593,0.695696 ElbowLeft:-0.037631,0.875607,-0.169691,-0.450668 ElbowRight:-0.407264,0.891187,0.114672,-0.163621 FootLeft:0.000000,0.000000,0.000000,0.000000 FootRight:0.000000,0.000000,0.000000,0.000000 HandLeft:0.057674,-0.614795,-0.087164,0.781731 HandRight:-0.134217,0.269712,-0.452881,0.839130 HandTipLeft:0.000000,0.000000,0.000000,0.000000 HandTipRight:0.000000,0.000000,0.000000,0.000000 Head:0.000000,0.000000,0.000000,0.000000 HipLeft:0.097112,-0.677252,0.713306,-0.151965 HipRight:-0.144292,0.683535,0.692010,-0.181883 KneeLeft:-0.012095,-0.684218,0.039257,0.728120 KneeRight:-0.010285,0.728727,0.037793,0.683683 Neck:-0.068108,0.022276,0.994437,-0.077198 ShoulderLeft:0.031842,0.764418,-0.643352,0.027367 ShoulderRight:-0.058137,0.790758,0.595510,-0.129185 SpineBase:-0.031099,0.018709,0.998602,-0.038424 SpineMid:-0.049203,0.019403,0.997874,-0.038078 SpineShoulder:-0.067884,0.021170,0.995883,-0.056215 ThumbLeft:0.000000,0.000000,0.000000,0.000000 ThumbRight:0.000000,0.000000,0.000000,0.000000 WristLeft:0.109513,-0.607083,-0.096121,0.781165 WristRight:-0.066267,0.308512,-0.382879,0.868235 END:
KINECT_DATA POSITION:31.631733,-4.145512,-8.539081 HEAD_JOINT1:0.977887,0.203630,-0.000000,0.047663 LARM_JOINT2:0.804857,0.000000,-0.030946,-0.592662 LARM_JOINT3:0.973171,0.000000,-0.178301,-0.145421 LLEG_JOINT2:0.999408,0.032817,0.000000,0.010338 LLEG_JOINT4:0.997246,0.072724,0.000000,-0.014581 RARM_JOINT2:0.755336,0.000000,0.549078,0.357746 RARM_JOINT3:0.996786,0.000000,0.061902,0.050859 RLEG_JOINT2:0.998920,0.020291,0.000000,-0.041805 RLEG_JOINT4:0.994013,0.099538,0.000000,0.045049 WAIST:0.999496,-0.000000,0.030192,0.009836 WAIST_JOINT0:0.997212,-0.000000,0.067634,0.031511 WAIST_JOINT1:0.998062,0.061274,-0.000000,0.010886 END:
KINECT_DATA_Sensor  AnkleLeft:-0.071511,-0.668226,0.077210,0.736477 AnkleRight:0.091412,0.720089,0.077862,0.683413 ElbowLeft:-0.038038,0.874877,-0.169077,-0.452278 ElbowRight:-0.407434,0.891933,0.112428,-0.160664 FootLeft:0.000000,0.000000,0.000000,0.000000 FootRight:0.000000,0.000000,0.000000,0.000000 HandLeft:0.052713,-0.631528,-0.087198,0.768629 HandRight:-0.139448,0.291310,-0.446575,0.834424 HandTipLeft:0.000000,0.000000,0.000000,0.000000 HandTipRight:0.000000,0.000000,0.000000,0.000000 Head:0.000000,0.000000,0.000000,0.000000 HipLeft:0.097873,-0.677298,0.713134,-0.152079 HipRight:-0.143869,0.683648,0.692191,-0.181106 KneeLeft:-0.009873,-0.685014,0.036966,0.727525 KneeRight:-0.009564,0.728092,0.036484,0.684442 Neck:-0.067353,0.021870,0.994539,-0.076667 ShoulderLeft:0.031175,0.764723,-0.643020,0.027436 ShoulderRight:-0.057758,0.790946,0.595525,-0.128133 SpineBase:-0.030169,0.018450,0.998651,-0.038024 SpineMid:-0.048359,0.019140,0.997935,-0.037682 SpineShoulder:-0.067128,0.020832,0.995969,-0.055732 ThumbLeft:0.000000,0.000000,0.000000,0.000000 ThumbRight:0.000000,0.000000,0.000000,0.000000 WristLeft:0.112066,-0.622298,-0.094900,0.768883 WristRight:-0.076119,0.327025,-0.382019,0.861000 END:
KINECT_DATA POSITION:31.620037,-4.139683,-8.599520 HEAD_JOINT1:0.977837,0.203828,-0.000000,0.047840 LARM_JOINT2:0.804534,0.000000,-0.030955,-0.593099 LARM_JOINT3:0.974306,0.000000,-0.174311,-0.142630 LLEG_JOINT2:0.999395,0.033067,0.000000,0.010760 LLEG_JOINT4:0.997295,0.071749,0.000000,-0.015948 RARM_JOINT2:0.758783,0.000000,0.545015,0.356660 RARM_JOINT3:0.996407,0.000000,0.065870,0.053240 RLEG_JOINT2:0.998930,0.019783,0.000000,-0.041795 RLEG_JOINT4:0.993929,0.100550,0.000000,0.044663 WAIST:0.999504,-0.000000,0.029905,0.009885 WAIST_JOINT0:0.996972,-0.000000,0.070681,0.032422 WAIST_JOINT1:0.998054,0.061416,-0.000000,0.010749 END:
KINECT_DATA_Sensor  AnkleLeft:0.076559,0.716535,-0.071087,-0.689683 AnkleRight:0.091502,0.719474,0.078478,0.683978 ElbowLeft:-0.038097,0.873996,-0.168469,-0.454200 ElbowRight:-0.406443,0.894065,0.113453,-0.150269 FootLeft:0.000000,0.000000,0.000000,0.000000 FootRight:0.000000,0.000000,0.000000,0.000000 HandLeft:0.047670,-0.621773,-0.071211,0.778495 HandRight:-0.124311,0.258381,-0.450942,0.845244 HandTipLeft:0.000000,0.000000,0.000000,0.000000 HandTipRight:0.000000,0.000000,0.000000,0.000000 Head:0.000000,0.000000,0.000000,0.000000 HipLeft:0.097986,-0.677196,0.713143,-0.152417 HipRight:-0.143656,0.683672,0.692201,-0.181144 KneeLeft:-0.009724,-0.685219,0.037484,0.727307 KneeRight:-0.009860,0.727878,0.036077,0.684686 Neck:-0.070621,0.022053,0.994305,-0.076708 ShoulderLeft:0.031388,0.764778,-0.642983,0.026482 ShoulderRight:-0.061889,0.791928,0.592962,-0.131970 SpineBase:-0.029886,0.018450,0.998652,-0.038213 SpineMid:-0.049832,0.019209,0.997856,-0.037837 SpineShoulder:-0.070404,0.020968,0.995736,-0.055801 ThumbLeft:0.000000,0.000000,0.000000,0.000000 ThumbRight:0.000000,0.000000,0.000000,0.000000 WristLeft:0.111448,-0.613301,-0.095789,0.776057 WristRight:-0.061522,0.294299,-0.383568,0.873200 END:
KINECT_DATA POSITION:31.590736,-4.129008,-8.672869 HEAD_JOINT1:0.977435,0.205574,-0.000000,0.048593 LARM_JOINT2:0.804361,0.000000,-0.030006,-0.593383 LARM_JOINT3:0.973069,0.000000,-0.177596,-0.146959 LLEG_JOINT2:0.999387,0.033035,0.000000,0.011566 LLEG_JOINT4:0.997206,0.072887,0.000000,-0.016374 RARM_JOINT2:0.757308,0.000000,0.546744,0.357150 RARM_JOINT3:0.996692,0.000000,0.064584,0.049339 RLEG_JOINT2:0.998938,0.019395,0.000000,-0.041789 RLEG_JOINT4:0.993811,0.102001,0.000000,0.044001 WAIST:0.999477,-0.000000,0.030711,0.010113 WAIST_JOINT0:0.997060,-0.000000,0.069777,0.031676 WAIST_JOINT1:0.998095,0.060832,-0.000000,0.010276 END:
KINECT_DATA_Sensor  AnkleLeft:0.077165,0.716872,-0.072069,-0.689164 AnkleRight:0.090886,0.711702,0.080702,0.691887 ElbowLeft:-0.037933,0.872656,-0.168019,-0.456950 ElbowRight:-0.404833,0.889230,0.121848,-0.174739 FootLeft:0.000000,0.000000,0.000000,0.000000 FootRight:0.000000,0.000000,0.000000,0.000000 HandLeft:0.038780,-0.605022,-0.092910,0.789818 HandRight:-0.139034,0.275689,-0.462049,0.831370 HandTipLeft:0.000000,0.000000,0.000000,0.000000 HandTipRight:0.000000,0.000000,0.000000,0.000000 Head:0.000000,0.000000,0.000000,0.000000 HipLeft:0.097901,-0.677236,0.713289,-0.151611 HipRight:-0.144397,0.683767,0.691877,-0.181433 KneeLeft:-0.009013,-0.684623,0.038196,0.727840 KneeRight:-0.009996,0.728440,0.035616,0.684110 Neck:-0.069406,0.021565,0.994445,-0.076141 ShoulderLeft:0.030892,0.765124,-0.642596,0.026483 ShoulderRight:-0.060747,0.791102,0.594552,-0.130288 SpineBase:-0.030714,0.018273,0.998648,-0.037746 SpineMid:-0.049649,0.018986,0.997886,-0.037392 SpineShoulder:-0.069187,0.020566,0.995859,-0.055273 ThumbLeft:0.000000,0.000000,0.000000,0.000000 ThumbRight:0.000000,0.000000,0.000000,0.000000 WristLeft:0.109675,-0.593546,-0.098482,0.791187 WristRight:-0.070899,0.316744,-0.378578,0.866790 END:
KINECT_DATA POSITION:31.559494,-4.114785,-8.732939 HEAD_JOINT1:0.977155,0.206700,-0.000000,0.049425 LARM_JOINT2:0.804328,0.000000,-0.029529,-0.593451 LARM_JOINT3:0.973088,0.000000,-0.178168,-0.146139 LLEG_JOINT2:0.999396,0.032849,0.000000,0.011309 LLEG_JOINT4:0.997371,0.070588,0.000000,-0.016354 RARM_JOINT2:0.754079,0.000000,0.552634,0.354910 RARM_JOINT3:0.996729,0.000000,0.057847,0.056432 RLEG_JOINT2:0.998965,0.018118,0.000000,-0.041730 RLEG_JOINT4:0.993565,0.104294,0.000000,0.044174 WAIST:0.999493,-0.000000,0.030137,0.010266 WAIST_JOINT0:0.997175,-0.000000,0.068586,0.030641 WAIST_JOINT1:0.998128,0.060415,-0.000000,0.009565 END:
KINECT_DATA_Sensor  AnkleLeft:0.074231,0.707182,-0.071563,-0.699472 AnkleRight:0.091017,0.703557,0.082142,0.699983 ElbowLeft:-0.038214,0.871828,-0.167347,-0.458748 ElbowRight:-0.403397,0.877925,0.138142,-0.217796 FootLeft:0.000000,0.000000,0.000000,0.000000 FootRight:0.000000,0.000000,0.000000,0.000000 HandLeft:0.034820,-0.564838,-0.096903,0.818752 HandRight:-0.149339,0.303004,-0.455920,0.823422 HandTipLeft:0.000000,0.000000,0.000000,0.000000 HandTipRight:0.000000,0.000000,0.000000,0.000000 Head:0.000000,0.000000,0.000000,0.000000 HipLeft:0.098595,-0.677169,0.713276,-0.151525 HipRight:-0.144154,0.683996,0.691817,-0.180995 KneeLeft:-0.008927,-0.685030,0.038001,0.727469 KneeRight:-0.010697,0.728030,0.034547,0.684591 Neck:-0.067881,0.020916,0.994594,-0.075746 ShoulderLeft:0.030132,0.765381,-0.642305,0.026970 ShoulderRight:-0.059502,0.789846,0.596710,-0.128608 SpineBase:-0.030171,0.017846,0.998687,-0.037346 SpineMid:-0.048625,0.018534,0.997959,-0.037009 SpineShoulder:-0.067663,0.020003,0.995998,-0.054867 ThumbLeft:0.000000,0.000000,0.000000,0.000000 ThumbRight:0.000000,0.000000,0.000000,0.000000 WristLeft:0.105285,-0.553661,-0.103729,0.819521 WristRight:-0.080047,0.344497,-0.371823,0.858290 END:
KINECT_DATA POSITION:31.563456,-4.105224,-8.756518 HEAD_JOINT1:0.977316,0.206125,-0.000000,0.048636 LARM_JOINT2:0.804249,0.000000,-0.029643,-0.593552 LARM_JOINT3:0.973047,0.000000,-0.181601,-0.142126 LLEG_JOINT2:0.999403,0.032498,0.000000,0.011705 LLEG_JOINT4:0.997256,0.071871,0.000000,-0.017733 RARM_JOINT2:0.754929,0.000000,0.546458,0.362582 RARM_JOINT3:0.996440,0.000000,0.068634,0.048960 RLEG_JOINT2:0.998984,0.017557,0.000000,-0.041499 RLEG_JOINT4:0.993618,0.104167,0.000000,0.043278 WAIST:0.999497,-0.000000,0.030063,0.010136 WAIST_JOINT0:0.997235,-0.000000,0.067821,0.030391 WAIST_JOINT1:0.998113,0.060571,-0.000000,0.010050 END:
KINECT_DATA_Sensor  AnkleLeft:0.075963,0.710065,-0.071022,-0.696414 AnkleRight:0.092769,0.727423,0.078997,0.675285 ElbowLeft:-0.038033,0.872449,-0.167621,-0.457482 ElbowRight:-0.410384,0.901311,0.087416,-0.107623 FootLeft:0.000000,0.000000,0.000000,0.000000 FootRight:0.000000,0.000000,0.000000,0.000000 HandLeft:0.063512,-0.634489,-0.094738,0.764470 HandRight:-0.113247,0.262329,-0.446196,0.848096 HandTipLeft:0.000000,0.000000,0.000000,0.000000 HandTipRight:0.000000,0.000000,0.000000,0.000000 Head:0.000000,0.000000,0.000000,0.000000 HipLeft:0.098437,-0.677234,0.713202,-0.151682 HipRight:-0.144051,0.683940,0.691912,-0.180921 KneeLeft:-0.008490,-0.685108,0.037957,0.727403 KneeRight:-0.011003,0.727947,0.034073,0.684698 Neck:-0.067113,0.021310,0.994623,-0.075946 ShoulderLeft:0.030550,0.765063,-0.642659,0.027101 ShoulderRight:-0.058098,0.789393,0.597659,-0.127623 SpineBase:-0.030079,0.018055,0.998681,-0.037481 SpineMid:-0.048202,0.018732,0.997971,-0.037147 SpineShoulder:-0.066895,0.020297,0.996035,-0.055029 ThumbLeft:0.000000,0.000000,0.000000,0.000000 ThumbRight:0.000000,0.000000,0.000000,0.000000 WristLeft:0.113810,-0.626214,-0.093452,0.765617 WristRight:-0.059813,0.292450,-0.392885,0.869791 END:
KINECT_DATA POSITION:31.578218,-4.137759,-8.765769 HEAD_JOINT1:0.977343,0.206143,-0.000000,0.048027 LARM_JOINT2:0.804642,0.000000,-0.029811,-0.593011 LARM_JOINT3:0.972825,0.000000,-0.183220,-0.141573 LLEG_JOINT2:0.999386,0.032924,0.000000,0.012005 LLEG_JOINT4:0.997371,0.070702,0.000000,-0.015878 RARM_JOINT2:0.771021,0.000000,0.529858,0.353239 RARM_JOINT3:0.994173,0.000000,0.086385,0.064481 RLEG_JOINT2:0.999013,0.016633,0.000000,-0.041187 RLEG_JOINT4:0.993718,0.102978,0.000000,0.043825 WAIST:0.999501,-0.000000,0.030042,0.009765 WAIST_JOINT0:0.995909,-0.000000,0.082521,0.036813 WAIST_JOINT1:0.998098,0.060699,-0.000000,0.010785 END:
KINECT_DATA_Sensor  AnkleLeft:-0.069041,-0.659850,0.076905,0.744256 AnkleRight:0.090786,0.719873,0.078188,0.683686 ElbowLeft:-0.038154,0.873227,-0.168602,-0.455623 ElbowRight:-0.402899,0.899237,0.120062,-0.120959 FootLeft:0.000000,0.000000,0.000000,0.000000 FootRight:0.000000,0.000000,0.000000,0.000000 HandLeft:0.060525,-0.543124,-0.102114,0.831219 HandRight:-0.135004,0.276118,-0.459135,0.833504 HandTipLeft:0.000000,0.000000,0.000000,0.000000 HandTipRight:0.000000,0.000000,0.000000,0.000000 Head:0.000000,0.000000,0.000000,0.000000 HipLeft:0.098350,-0.677424,0.712979,-0.151937 HipRight:-0.144180,0.683703,0.692134,-0.180866 KneeLeft:-0.008856,-0.685131,0.038207,0.727363 KneeRight:-0.011674,0.727870,0.033448,0.684800 Neck:-0.083124,0.023057,0.993387,-0.075774 ShoulderLeft:0.027868,0.764866,-0.643110,0.024740 ShoulderRight:-0.082470,0.795780,0.581389,-0.148053 SpineBase:-0.030018,0.018365,0.998675,-0.037561 SpineMid:-0.056069,0.019339,0.997551,-0.037069 SpineShoulder:-0.082953,0.021505,0.994813,-0.054807 ThumbLeft:0.000000,0.000000,0.000000,0.000000 ThumbRight:0.000000,0.000000,0.000000,0.000000 WristLeft:0.102459,-0.536753,-0.106103,0.830747 WristRight:-0.065197,0.317696,-0.378284,0.867018 END:
KINECT_DATA POSITION:31.580833,-4.151585,-8.765888 HEAD_JOINT1:0.977407,0.206000,-0.000000,0.047333 LARM_JOINT2:0.805280,0.000000,-0.030518,-0.592109 LARM_JOINT3:0.972539,0.000000,-0.184530,-0.141831 LLEG_JOINT2:0.999376,0.033134,0.000000,0.012228 LLEG_JOINT4:0.997417,0.069665,0.000000,-0.017511 RARM_JOINT2:0.766605,0.000000,0.536071,0.353476 RARM_JOINT3:0.995017,0.000000,0.077112,0.063205 RLEG_JOINT2:0.999020,0.016875,0.000000,-0.040927 RLEG_JOINT4:0.993828,0.102139,0.000000,0.043275 WAIST:0.999515,-0.000000,0.029648,0.009514 WAIST_JOINT0:0.996250,-0.000000,0.079100,0.035051 WAIST_JOINT1:0.998066,0.061120,-0.000000,0.011310 END:
KINECT_DATA_Sensor  AnkleLeft:-0.069747,-0.661603,0.075049,0.742822 AnkleRight:0.090441,0.723371,0.077611,0.680097 ElbowLeft:-0.037913,0.876020,-0.169949,-0.449744 ElbowRight:-0.405054,0.897516,0.116882,-0.129362 FootLeft:0.000000,0.000000,0.000000,0.000000 FootRight:0.000000,0.000000,0.000000,0.000000 HandLeft:0.065316,-0.507884,-0.109372,0.851954 HandRight:-0.128826,0.274327,-0.447329,0.841454 HandTipLeft:0.000000,0.000000,0.000000,0.000000 HandTipRight:0.000000,0.000000,0.000000,0.000000 Head:0.000000,0.000000,0.000000,0.000000 HipLeft:0.098420,-0.677436,0.712850,-0.152442 HipRight:-0.143955,0.683524,0.692394,-0.180726 KneeLeft:-0.009023,-0.685428,0.038341,0.727074 KneeRight:-0.011481,0.727587,0.033630,0.685094 Neck:-0.079333,0.023169,0.993646,-0.076405 ShoulderLeft:0.027884,0.764629,-0.643329,0.026340 ShoulderRight:-0.077454,0.793658,0.585926,-0.144216 SpineBase:-0.029597,0.018579,0.998675,-0.037789 SpineMid:-0.053991,0.019497,0.997653,-0.037324 SpineShoulder:-0.079154,0.021603,0.995095,-0.055253 ThumbLeft:0.000000,0.000000,0.000000,0.000000 ThumbRight:0.000000,0.000000,0.000000,0.000000 WristLeft:0.096424,-0.503130,-0.109480,0.851808 WristRight:-0.065678,0.310153,-0.381025,0.868511 END:
KINECT_DATA POSITION:31.583754,-4.183948,-8.743513 HEAD_JOINT1:0.977333,0.206179,-0.000000,0.048058 LARM_JOINT2:0.805890,0.000000,-0.031265,-0.591239 LARM_JOINT3:0.972923,0.000000,-0.181450,-0.143168 LLEG_JOINT2:0.999371,0.032996,0.000000,0.013031 LLEG_JOINT4:0.997223,0.071717,0.000000,-0.020065 RARM_JOINT2:0.768745,0.000000,0.533861,0.352169 RARM_JOINT3:0.994626,0.000000,0.079155,0.066734 RLEG_JOINT2:0.999027,0.017206,0.000000,-0.040618 RLEG_JOINT4:0.993573,0.103960,0.000000,0.044768 WAIST:0.999534,-0.000000,0.029148,0.009025 WAIST_JOINT0:0.995992,-0.000000,0.081778,0.036226 WAIST_JOINT1:0.998028,0.061652,-0.000000,0.011758 END:
KINECT_DATA_Sensor  AnkleLeft:0.077207,0.707020,-0.070145,-0.699458 AnkleRight:0.092667,0.720467,0.078529,0.682769 ElbowLeft:-0.037775,0.878050,-0.170933,-0.445402 ElbowRight:-0.401034,0.894795,0.129115,-0.147796 FootLeft:0.000000,0.000000,0.000000,0.000000 FootRight:0.000000,0.000000,0.000000,0.000000 HandLeft:0.072023,-0.607188,-0.095151,0.785546 HandRight:-0.127853,0.264972,-0.457801,0.838965 HandTipLeft:0.000000,0.000000,0.000000,0.000000 HandTipRight:0.000000,0.000000,0.000000,0.000000 Head:0.000000,0.000000,0.000000,0.000000 HipLeft:0.098472,-0.677687,0.712495,-0.152951 HipRight:-0.143549,0.683286,0.692772,-0.180503 KneeLeft:-0.008702,-0.685830,0.038492,0.726691 KneeRight:-0.011355,0.727225,0.034014,0.685462 Neck:-0.082276,0.023334,0.993360,-0.076960 ShoulderLeft:0.025625,0.764859,-0.643089,0.027769 ShoulderRight:-0.083896,0.794782,0.582158,-0.149585 SpineBase:-0.029058,0.018629,0.998680,-0.038039 SpineMid:-0.055151,0.019617,0.997579,-0.037539 SpineShoulder:-0.082093,0.021834,0.994828,-0.055688 ThumbLeft:0.000000,0.000000,0.000000,0.000000 ThumbRight:0.000000,0.000000,0.000000,0.000000 WristLeft:0.107619,-0.601743,-0.096081,0.785552 WristRight:-0.061329,0.304744,-0.374616,0.873517 END:
KINECT_DATA POSITION:31.588306,-4.194998,-8.703780 HEAD_JOINT1:0.977272,0.206324,-0.000000,0.048691 LARM_JOINT2:0.806128,0.000000,-0.030962,-0.590930 LARM_JOINT3:0.972693,0.000000,-0.182729,-0.143106 LLEG_JOINT2:0.999368,0.033167,0.000000,0.012795 LLEG_JOINT4:0.997136,0.073103,0.000000,-0.019367 RARM_JOINT2:0.765913,0.000000,0.536861,0.353776 RARM_JOINT3:0.994251,0.000000,0.086231,0.063476 RLEG_JOINT2:0.999007,0.017374,0.000000,-0.041023 RLEG_JOINT4:0.993547,0.104788,0.000000,0.043403 WAIST:0.999546,-0.000000,0.028702,0.009124 WAIST_JOINT0:0.996605,-0.000000,0.075127,0.033672 WAIST_JOINT1:0.998013,0.061933,-0.000000,0.011550 END:
KINECT_DATA_Sensor  AnkleLeft:-0.077227,-0.699901,0.072431,0.706349 AnkleRight:0.092155,0.719903,0.080378,0.683218 ElbowLeft:-0.037465,0.878295,-0.171393,-0.444767 ElbowRight:-0.403518,0.896778,0.119708,-0.136503 FootLeft:0.000000,0.000000,0.000000,0.000000 FootRight:0.000000,0.000000,0.000000,0.000000 HandLeft:0.075140,-0.604481,-0.097734,0.787022 HandRight:-0.102415,0.244993,-0.472958,0.840119 HandTipLeft:0.000000,0.000000,0.000000,0.000000 HandTipRight:0.000000,0.000000,0.000000,0.000000 Head:0.000000,0.000000,0.000000,0.000000 HipLeft:0.098730,-0.677527,0.712532,-0.153324 HipRight:-0.143238,0.683358,0.692785,-0.180426 KneeLeft:-0.008904,-0.686144,0.038516,0.726391 KneeRight:-0.011446,0.726926,0.034352,0.685761 Neck:-0.075102,0.022685,0.993908,-0.077406 ShoulderLeft:0.027114,0.764808,-0.643031,0.029046 ShoulderRight:-0.072605,0.792403,0.589098,-0.140676 SpineBase:-0.028622,0.018578,0.998688,-0.038179 SpineMid:-0.051396,0.019444,0.997775,-0.037745 SpineShoulder:-0.074898,0.021393,0.995382,-0.056104 ThumbLeft:0.000000,0.000000,0.000000,0.000000 ThumbRight:0.000000,0.000000,0.000000,0.000000 WristLeft:0.107045,-0.599527,-0.096317,0.787294 WristRight:-0.047097,0.281953,-0.380313,0.879572 END:
KINECT_DATA POSITION:31.589546,-4.219074,-8.620358 HEAD_JOINT1:0.977584,0.205081,-0.000000,0.047656 LARM_JOINT2:0.805830,0.000000,-0.029649,-0.591404 LARM_JOINT3:0.971709,0.000000,-0.187443,-0.143687 LLEG_JOINT2:0.999365,0.033193,0.000000,0.012976 LLEG_JOINT4:0.997088,0.073047,0.000000,-0.021883 RARM_JOINT2:0.813242,0.000000,0.475895,0.334907 RARM_JOINT3:0.963396,0.000000,0.248794,0.099850 RLEG_JOINT2:0.999020,0.016793,0.000000,-0.040957 RLEG_JOINT4:0.993481,0.104864,0.000000,0.044712 WAIST:0.999593,-0.000000,0.027142,0.008743 WAIST_JOINT0:0.996428,-0.000000,0.076701,0.035339 WAIST_JOINT1:0.998051,0.061337,-0.000000,0.011507 END:
KINECT_DATA_Sensor  AnkleLeft:-0.075022,-0.662098,0.074662,0.741906 AnkleRight:0.092307,0.715649,0.079630,0.687739 ElbowLeft:-0.037967,0.876234,-0.170478,-0.449122 ElbowRight:-0.407367,0.902763,0.101180,0.093987 FootLeft:0.000000,0.000000,0.000000,0.000000 FootRight:0.000000,0.000000,0.000000,0.000000 HandLeft:0.074700,-0.596990,-0.113914,0.790599 HandRight:0.014578,0.188123,-0.536204,0.822729 HandTipLeft:0.000000,0.000000,0.000000,0.000000 HandTipRight:0.000000,0.000000,0.000000,0.000000 Head:0.000000,0.000000,0.000000,0.000000 HipLeft:0.100416,-0.677686,0.712042,-0.153801 HipRight:-0.143043,0.683439,0.693085,-0.179116 KneeLeft:-0.009017,-0.687278,0.038419,0.725322 KneeRight:-0.012003,0.725831,0.034183,0.686918 Neck:-0.077458,0.022407,0.993812,-0.076391 ShoulderLeft:0.026541,0.765185,-0.642652,0.028027 ShoulderRight:-0.076186,0.795515,0.583903,-0.142861 SpineBase:-0.027047,0.018409,0.998769,-0.037277 SpineMid:-0.051744,0.019326,0.997795,-0.036810 SpineShoulder:-0.077245,0.021352,0.995236,-0.055528 ThumbLeft:0.000000,0.000000,0.000000,0.000000 ThumbRight:0.000000,0.000000,0.000000,0.000000 WristLeft:0.107605,-0.591115,-0.098426,0.793294 WristRight:0.046375,0.225085,-0.440064,0.868061 END:
KINECT_DATA POSITION:31.472439,-4.175235,-8.441698 HEAD_JOINT1:0.979017,0.198704,-0.000000,0.045199 LARM_JOINT2:0.805712,0.000000,-0.024814,-0.591788 LARM_JOINT3:0.971300,0.000000,-0.187541,-0.146302 LLEG_JOINT2:0.999274,0.035051,0.000000,0.014900 LLEG_JOINT4:0.997150,0.072693,0.000000,-0.020194 RARM_JOINT2:0.856921,0.000000,0.373056,0.355691 RARM_JOINT3:0.891451,0.000000,0.429402,0.144666 RLEG_JOINT2:0.999156,0.015219,0.000000,-0.038152 RLEG_JOINT4:0.993440,0.106788,0.000000,0.040907 WAIST:0.999663,-0.000000,0.024807,0.007589 WAIST_JOINT0:0.997929,-0.000000,0.058380,0.027006 WAIST_JOINT1:0.998309,0.057134,-0.000000,0.010743 END:
KINECT_DATA_Sensor  AnkleLeft:0.079153,0.711088,-0.072607,-0.694850 AnkleRight:0.092558,0.725609,0.079655,0.677185 ElbowLeft:-0.039665,0.871922,-0.167982,-0.458214 ElbowRight:-0.363866,0.893110,0.141656,0.223359 FootLeft:0.000000,0.000000,0.000000,0.000000 FootRight:0.000000,0.000000,0.000000,0.000000 HandLeft:-0.072498,0.699839,0.112512,-0.701648 HandRight:0.182993,0.193196,-0.595393,0.758087 HandTipLeft:0.000000,0.000000,0.000000,0.000000 HandTipRight:0.000000,0.000000,0.000000,0.000000 Head:0.000000,0.000000,0.000000,0.000000 HipLeft:0.104009,-0.678690,0.710751,-0.152954 HipRight:-0.143139,0.683407,0.693819,-0.176300 KneeLeft:-0.009778,-0.688926,0.040313,0.723644 KneeRight:-0.011779,0.724225,0.031965,0.688722 Neck:-0.058249,0.018591,0.995589,-0.071166 ShoulderLeft:0.025942,0.767519,-0.639846,0.028944 ShoulderRight:-0.050621,0.790642,0.598997,-0.116298 SpineBase:-0.024709,0.016656,0.998965,-0.034372 SpineMid:-0.041084,0.017217,0.998425,-0.034095 SpineShoulder:-0.057969,0.018838,0.996777,-0.052152 ThumbLeft:0.000000,0.000000,0.000000,0.000000 ThumbRight:0.000000,0.000000,0.000000,0.000000 WristLeft:0.123172,-0.687189,-0.085368,0.710854 WristRight:0.120891,0.181015,-0.472800,0.853861 END:
KINECT_DATA POSITION:31.349203,-4.123091,-8.341896 HEAD_JOINT1:0.979584,0.195290,-0.000000,0.047725 LARM_JOINT2:0.806641,0.000000,-0.022629,-0.590608 LARM_JOINT3:0.970672,0.000000,-0.188076,-0.149744 LLEG_JOINT2:0.999273,0.035048,0.000000,0.014993 LLEG_JOINT4:0.997113,0.073928,0.000000,-0.017327 RARM_JOINT2:0.851103,0.000000,0.349092,0.392121 RARM_JOINT3:0.854493,0.000000,0.498920,0.144639 RLEG_JOINT2:0.999179,0.015939,0.000000,-0.037234 RLEG_JOINT4:0.993675,0.105316,0.000000,0.038970 WAIST:0.999624,-0.000000,0.026384,0.007422 WAIST_JOINT0:0.998180,-0.000000,0.054689,0.025429 WAIST_JOINT1:0.998552,0.052732,-0.000000,0.010687 END:
KINECT_DATA_Sensor  AnkleLeft:0.078472,0.711087,-0.075257,-0.694647 AnkleRight:0.092183,0.736431,0.078782,0.665556 ElbowLeft:-0.042297,0.870961,-0.168166,-0.459737 ElbowRight:-0.341770,0.886915,0.110620,0.290411 FootLeft:0.000000,0.000000,0.000000,0.000000 FootRight:0.000000,0.000000,0.000000,0.000000 HandLeft:0.057472,-0.622956,-0.124265,0.770182 HandRight:0.253479,0.244056,-0.632885,0.689667 HandTipLeft:0.000000,0.000000,0.000000,0.000000 HandTipRight:0.000000,0.000000,0.000000,0.000000 Head:0.000000,0.000000,0.000000,0.000000 HipLeft:0.105072,-0.679361,0.710546,-0.150177 HipRight:-0.145643,0.683404,0.693453,-0.175699 KneeLeft:-0.009884,-0.687756,0.040237,0.724759 KneeRight:-0.010790,0.725390,0.031946,0.687512 Neck:-0.054262,0.017919,0.996134,-0.066727 ShoulderLeft:0.021735,0.769411,-0.637783,0.027704 ShoulderRight:-0.049426,0.791110,0.599791,-0.109328 SpineBase:-0.026308,0.015886,0.999026,-0.031664 SpineMid:-0.039941,0.016317,0.998574,-0.031444 SpineShoulder:-0.053983,0.018220,0.997224,-0.047933 ThumbLeft:0.000000,0.000000,0.000000,0.000000 ThumbRight:0.000000,0.000000,0.000000,0.000000 WristLeft:0.116781,-0.611026,-0.100245,0.776505 WristRight:0.146443,0.194157,-0.519095,0.819389 END:
KINECT_DATA POSITION:31.153301,-4.076226,-8.357501 HEAD_JOINT1:0.983497,0.178539,-0.000000,0.029274 LARM_JOINT2:0.801835,0.000000,-0.028049,-0.596887 LARM_JOINT3:0.972505,0.000000,-0.179896,-0.147890 LLEG_JOINT2:0.999322,0.032970,0.000000,0.016412 LLEG_JOINT4:0.996938,0.076220,0.000000,-0.017495 RARM_JOINT2:0.831863,0.000000,0.374753,0.409346 RARM_JOINT3:0.823017,0.000000,0.555770,0.117313 RLEG_JOINT2:0.999101,0.014848,0.000000,-0.039720 RLEG_JOINT4:0.992675,0.110550,0.000000,0.048742 WAIST:0.999324,-0.000000,0.035853,0.008101 WAIST_JOINT0:0.997555,-0.000000,0.064968,0.025737 WAIST_JOINT1:0.998557,0.050566,-0.000000,0.018100 END:
KINECT_DATA_Sensor  AnkleLeft:0.080019,0.722718,-0.073941,-0.682501 AnkleRight:0.098113,0.726146,0.079265,0.675872 ElbowLeft:-0.047463,0.863932,-0.165650,-0.473212 ElbowRight:-0.342564,0.887206,0.054624,0.304191 FootLeft:0.000000,0.000000,0.000000,0.000000 FootRight:0.000000,0.000000,0.000000,0.000000 HandLeft:0.039166,-0.635202,-0.093988,0.765605 HandRight:-0.300714,-0.246951,0.683133,-0.617993 HandTipLeft:0.000000,0.000000,0.000000,0.000000 HandTipRight:0.000000,0.000000,0.000000,0.000000 Head:0.000000,0.000000,0.000000,0.000000 HipLeft:0.101373,-0.679873,0.711780,-0.144449 HipRight:-0.155015,0.683228,0.691117,-0.177559 KneeLeft:-0.007244,-0.680824,0.040197,0.731307 KneeRight:-0.013228,0.731792,0.032209,0.680638 Neck:-0.066017,0.027615,0.995232,-0.066280 ShoulderLeft:0.027711,0.769548,-0.637790,0.015910 ShoulderRight:-0.058809,0.795074,0.592392,-0.116059 SpineBase:-0.035671,0.020926,0.998749,-0.028106 SpineMid:-0.050488,0.021341,0.998110,-0.027792 SpineShoulder:-0.065758,0.025310,0.996484,-0.045327 ThumbLeft:0.000000,0.000000,0.000000,0.000000 ThumbRight:0.000000,0.000000,0.000000,0.000000 WristLeft:0.126555,-0.619415,-0.102618,0.767970 WristRight:0.214929,0.220375,-0.573928,0.758846 END:
KINECT_DATA POSITION:30.855677,-3.936354,-8.472979 HEAD_JOINT1:0.984158,0.175526,-0.000000,0.024994 LARM_JOINT2:0.800630,0.000000,-0.030453,-0.598385 LARM_JOINT3:0.973571,0.000000,-0.175975,-0.145578 LLEG_JOINT2:0.999517,0.024560,0.000000,0.019021 LLEG_JOINT4:0.996151,0.086689,0.000000,-0.012991 RARM_JOINT2:0.850556,0.000000,0.376873,0.366772 RARM_JOINT3:0.791006,0.000000,0.592839,0.151165 RLEG_JOINT2:0.999037,0.017783,0.000000,-0.040105 RLEG_JOINT4:0.992371,0.110369,0.000000,0.054942 WAIST:0.998179,-0.000000,0.059663,0.008889 WAIST_JOINT0:0.995334,-0.000000,0.093294,0.024624 WAIST_JOINT1:0.998729,0.046693,-0.000000,0.018986 END:
KINECT_DATA_Sensor  AnkleLeft:-0.072434,-0.653224,0.084828,0.748903 AnkleRight:0.100649,0.724023,0.081720,0.677483 ElbowLeft:-0.048331,0.853799,-0.164209,-0.491657 ElbowRight:-0.375856,0.886610,0.081281,0.256999 FootLeft:0.000000,0.000000,0.000000,0.000000 FootRight:0.000000,0.000000,0.000000,0.000000 HandLeft:0.040236,-0.588340,-0.084300,0.803201 HandRight:0.227258,-0.650204,0.664493,-0.289893 HandTipLeft:0.000000,0.000000,0.000000,0.000000 HandTipRight:0.000000,0.000000,0.000000,0.000000 Head:0.000000,0.000000,0.000000,0.000000 HipLeft:0.088657,-0.681541,0.714836,-0.129040 HipRight:-0.170351,0.680526,0.687522,-0.187559 KneeLeft:0.000517,-0.663393,0.036809,0.747365 KneeRight:-0.011902,0.747980,0.033643,0.662761 Neck:-0.094100,0.027773,0.993238,-0.062061 ShoulderLeft:0.034016,0.767556,-0.640079,-0.000240 ShoulderRight:-0.089902,0.787823,0.592368,-0.142663 SpineBase:-0.059463,0.022908,0.997647,-0.025278 SpineMid:-0.076349,0.023332,0.996497,-0.024887 SpineShoulder:-0.093814,0.026291,0.994358,-0.041962 ThumbLeft:0.000000,0.000000,0.000000,0.000000 ThumbRight:0.000000,0.000000,0.000000,0.000000 WristLeft:0.127822,-0.574396,-0.107360,0.801377 WristRight:-0.211058,0.693542,-0.616719,0.306777 END:
KINECT_DATA POSITION:30.485088,-3.419033,-8.571207 HEAD_JOINT1:0.987106,0.159585,-0.000000,0.012446 LARM_JOINT2:0.795921,0.000000,-0.044801,-0.603741 LARM_JOINT3:0.975174,0.000000,-0.171076,-0.140603 LLEG_JOINT2:0.999612,0.018420,0.000000,0.020873 LLEG_JOINT4:0.995754,0.091353,0.000000,-0.011319 RARM_JOINT2:0.808225,0.000000,0.500998,0.309473 RARM_JOINT3:0.872053,0.000000,0.480898,0.090889 RLEG_JOINT2:0.998994,0.021622,0.000000,-0.039277 RLEG_JOINT4:0.992687,0.105600,0.000000,0.058499 WAIST:0.996699,-0.000000,0.080547,0.010191 WAIST_JOINT0:0.993346,-0.000000,0.113773,0.017851 WAIST_JOINT1:0.998561,0.047886,-0.000000,0.024135 END:
KINECT_DATA_Sensor  AnkleLeft:-0.076486,-0.697078,0.079835,0.708420 AnkleRight:0.100946,0.725110,0.081278,0.676327 ElbowLeft:-0.051228,0.852488,-0.160924,-0.494715 ElbowRight:-0.450597,0.879324,0.002235,0.154101 FootLeft:0.000000,0.000000,0.000000,0.000000 FootRight:0.000000,0.000000,0.000000,0.000000 HandLeft:0.054433,-0.558546,-0.084518,0.823359 HandRight:-0.371402,0.723163,-0.565395,0.139370 HandTipLeft:0.000000,0.000000,0.000000,0.000000 HandTipRight:0.000000,0.000000,0.000000,0.000000 Head:0.000000,0.000000,0.000000,0.000000 HipLeft:0.076841,-0.682881,0.716646,-0.119109 HipRight:-0.185736,0.678135,0.682170,-0.200697 KneeLeft:0.006673,-0.647747,0.035040,0.761020 KneeRight:-0.008686,0.761881,0.034721,0.646728 Neck:-0.114119,0.034061,0.990776,-0.064652 ShoulderLeft:0.054353,0.763863,-0.642783,-0.019718 ShoulderRight:-0.096483,0.774714,0.605445,-0.154744 SpineBase:-0.080299,0.026195,0.996105,-0.025327 SpineMid:-0.096810,0.026611,0.994636,-0.024889 SpineShoulder:-0.113834,0.031344,0.992053,-0.043476 ThumbLeft:0.000000,0.000000,0.000000,0.000000 ThumbRight:0.000000,0.000000,0.000000,0.000000 WristLeft:0.126386,-0.548018,-0.107859,0.819798 WristRight:-0.332930,0.763401,-0.537077,0.133883 END:
KINECT_DATA POSITION:30.375656,-3.220519,-8.608246 HEAD_JOINT1:0.989258,0.146029,-0.000000,0.006700 LARM_JOINT2:0.789079,0.000000,-0.062035,-0.611152 LARM_JOINT3:0.975749,0.000000,-0.171717,-0.135742 LLEG_JOINT2:0.999646,0.015514,0.000000,0.021609 LLEG_JOINT4:0.995629,0.092968,0.000000,-0.008954 RARM_JOINT2:0.764564,0.000000,0.576300,0.288653 RARM_JOINT3:0.924765,0.000000,0.379455,0.028691 RLEG_JOINT2:0.999019,0.023683,0.000000,-0.037413 RLEG_JOINT4:0.992916,0.103121,0.000000,0.059024 WAIST:0.995868,-0.000000,0.090330,0.009300 WAIST_JOINT0:0.989791,-0.000000,0.141612,0.016123 WAIST_JOINT1:0.998290,0.050648,-0.000000,0.029193 END:
KINECT_DATA_Sensor  AnkleLeft:-0.075191,-0.692520,0.079882,0.713008 AnkleRight:0.106692,0.778663,0.073416,0.613930 ElbowLeft:-0.056802,0.849877,-0.151313,-0.501584 ElbowRight:-0.471962,0.865545,-0.089582,0.141628 FootLeft:0.000000,0.000000,0.000000,0.000000 FootRight:0.000000,0.000000,0.000000,0.000000 HandLeft:0.054216,-0.529040,-0.108176,0.839926 HandRight:-0.487238,0.747530,-0.451376,-0.007602 HandTipLeft:0.000000,0.000000,0.000000,0.000000 HandTipRight:0.000000,0.000000,0.000000,0.000000 Head:0.000000,0.000000,0.000000,0.000000 HipLeft:0.069570,-0.683590,0.717269,-0.115713 HipRight:-0.192068,0.675417,0.681353,-0.206592 KneeLeft:0.008468,-0.640462,0.033112,0.767229 KneeRight:-0.006973,0.768204,0.035581,0.639177 Neck:-0.142890,0.038889,0.986661,-0.067598 ShoulderLeft:0.079315,0.745042,-0.661183,-0.038180 ShoulderRight:-0.113940,0.750838,0.626272,-0.176193 SpineBase:-0.089914,0.029036,0.995157,-0.027100 SpineMid:-0.115964,0.029736,0.992459,-0.026330 SpineShoulder:-0.142599,0.035755,0.988066,-0.045956 ThumbLeft:0.000000,0.000000,0.000000,0.000000 ThumbRight:0.000000,0.000000,0.000000,0.000000 WristLeft:0.125012,-0.516664,-0.115539,0.839096 WristRight:-0.468931,0.770445,-0.431844,-0.005379 END:
KINECT_DATA POSITION:30.402815,-3.217002,-8.678412 HEAD_JOINT1:0.988797,0.148734,-0.000000,0.012639 LARM_JOINT2:0.788375,0.000000,-0.080490,-0.609906 LARM_JOINT3:0.979179,0.000000,-0.157017,-0.128661 LLEG_JOINT2:0.999747,0.015376,0.000000,0.016416 LLEG_JOINT4:0.995771,0.091699,0.000000,-0.005576 RARM_JOINT2:0.755540,0.000000,0.596305,0.271256 RARM_JOINT3:0.944227,0.000000,0.328774,-0.018509 RLEG_JOINT2:0.998768,0.022916,0.000000,-0.044016 RLEG_JOINT4:0.992423,0.105046,0.000000,0.063741 WAIST:0.995668,-0.000000,0.092014,0.013404 WAIST_JOINT0:0.981895,-0.000000,0.182052,0.052333 WAIST_JOINT1:0.998282,0.052192,-0.000000,0.026614 END:
KINECT_DATA_Sensor  AnkleLeft:0.074152,0.705656,-0.079109,-0.700209 AnkleRight:0.102437,0.726809,0.081326,0.674271 ElbowLeft:-0.065431,0.862177,-0.148865,-0.479800 ElbowRight:-0.477478,0.850436,-0.131699,0.177283 FootLeft:0.000000,0.000000,0.000000,0.000000 FootRight:0.000000,0.000000,0.000000,0.000000 HandLeft:0.063501,-0.541353,-0.102699,0.832080 HandRight:0.698767,-0.578287,0.062227,0.416456 HandTipLeft:0.000000,0.000000,0.000000,0.000000 HandTipRight:0.000000,0.000000,0.000000,0.000000 Head:0.000000,0.000000,0.000000,0.000000 HipLeft:0.067192,-0.681191,0.719759,-0.115803 HipRight:-0.192348,0.677688,0.678226,-0.209167 KneeLeft:0.008116,-0.639098,0.031932,0.768419 KneeRight:-0.009714,0.769312,0.036292,0.637768 Neck:-0.184804,0.042697,0.979551,-0.067106 ShoulderLeft:-0.135656,-0.657565,0.738389,0.063149 ShoulderRight:-0.132486,0.708581,0.666330,-0.190694 SpineBase:-0.091747,0.030870,0.994889,-0.028741 SpineMid:-0.137830,0.032171,0.989557,-0.027277 SpineShoulder:-0.184555,0.039113,0.980980,-0.045690 ThumbLeft:0.000000,0.000000,0.000000,0.000000 ThumbRight:0.000000,0.000000,0.000000,0.000000 WristLeft:0.125451,-0.530702,-0.105159,0.831600 WristRight:0.643987,-0.634597,0.031172,0.426141 END:
KINECT_DATA POSITION:30.409237,-3.669119,-8.705974 HEAD_JOINT1:0.990800,0.134802,-0.000000,0.011989 LARM_JOINT2:0.791589,0.000000,-0.057188,-0.608372 LARM_JOINT3:0.975090,0.000000,-0.180220,-0.129305 LLEG_JOINT2:0.999541,0.019772,0.000000,0.022967 LLEG_JOINT4:0.996278,0.085786,0.000000,-0.008404 RARM_JOINT2:0.753152,0.000000,0.609471,0.247601 RARM_JOINT3:0.953311,0.000000,0.300544,-0.029515 RLEG_JOINT2:0.999157,0.018029,0.000000,-0.036883 RLEG_JOINT4:0.992157,0.108838,0.000000,0.061479 WAIST:0.996870,-0.000000,0.078827,0.006002 WAIST_JOINT0:0.984964,-0.000000,0.172712,0.003957 WAIST_JOINT1:0.997684,0.058672,-0.000000,0.034407 END:
KINECT_DATA_Sensor  AnkleLeft:0.073421,0.705209,-0.077738,-0.700889 AnkleRight:0.102169,0.724629,0.080206,0.676788 ElbowLeft:-0.051459,0.849302,-0.159854,-0.500485 ElbowRight:-0.489606,0.842147,-0.130290,0.184662 FootLeft:0.000000,0.000000,0.000000,0.000000 FootRight:0.000000,0.000000,0.000000,0.000000 HandLeft:0.073828,-0.530362,-0.100507,0.838549 HandRight:0.709081,-0.565397,-0.005860,0.421303 HandTipLeft:0.000000,0.000000,0.000000,0.000000 HandTipRight:0.000000,0.000000,0.000000,0.000000 Head:0.000000,0.000000,0.000000,0.000000 HipLeft:0.071465,-0.685865,0.712633,-0.128980 HipRight:-0.183844,0.675852,0.683757,-0.204700 KneeLeft:0.004071,-0.649584,0.034551,0.759494 KneeRight:-0.012117,0.760107,0.033414,0.648824 Neck:-0.172040,0.043742,0.981298,-0.074452 ShoulderLeft:0.121247,0.712748,-0.688088,-0.061837 ShoulderRight:-0.123726,0.697278,0.680960,-0.186517 SpineBase:-0.077976,0.032167,0.995866,-0.033714 SpineMid:-0.124483,0.033709,0.991127,-0.032172 SpineShoulder:-0.171751,0.040427,0.982929,-0.052126 ThumbLeft:0.000000,0.000000,0.000000,0.000000 ThumbRight:0.000000,0.000000,0.000000,0.000000 WristLeft:0.124938,-0.522194,-0.108375,0.836635 WristRight:0.639582,-0.627190,-0.027364,0.443643 END:
KINECT_DATA POSITION:30.486280,-3.917655,-8.761740 HEAD_JOINT1:0.991956,0.125411,-0.000000,0.017187 LARM_JOINT2:0.793030,0.000000,-0.058690,-0.606348 LARM_JOINT3:0.973078,0.000000,-0.189909,-0.130590 LLEG_JOINT2:0.999547,0.018421,0.000000,0.023793 LLEG_JOINT4:0.996193,0.086894,0.000000,-0.006937 RARM_JOINT2:0.765649,0.000000,0.602585,0.225106 RARM_JOINT3:0.962445,0.000000,0.266466,-0.051910 RLEG_JOINT2:0.999265,0.018681,0.000000,-0.033462 RLEG_JOINT4:0.992137,0.108645,0.000000,0.062138 WAIST:0.996499,-0.000000,0.083497,0.004213 WAIST_JOINT0:0.985940,0.000000,0.166912,-0.007960 WAIST_JOINT1:0.997357,0.063038,-0.000000,0.036127 END:
KINECT_DATA_Sensor  AnkleLeft:-0.073070,-0.699067,0.078050,0.707018 AnkleRight:0.102772,0.717806,0.081247,0.683806 ElbowLeft:-0.048186,0.848398,-0.163456,-0.501180 ElbowRight:-0.496672,0.829259,-0.135177,0.217657 FootLeft:0.000000,0.000000,0.000000,0.000000 FootRight:0.000000,0.000000,0.000000,0.000000 HandLeft:0.094546,-0.540589,-0.116133,0.827851 HandRight:0.700571,-0.633591,-0.019602,0.327687 HandTipLeft:0.000000,0.000000,0.000000,0.000000 HandTipRight:0.000000,0.000000,0.000000,0.000000 Head:0.000000,0.000000,0.000000,0.000000 HipLeft:0.063177,-0.686572,0.713018,-0.127409 HipRight:-0.182760,0.672852,0.685907,-0.208326 KneeLeft:0.004216,-0.646422,0.033047,0.762252 KneeRight:-0.010535,0.762901,0.032885,0.645592 Neck:-0.164530,0.042397,0.982304,-0.078816 ShoulderLeft:0.126091,0.730741,-0.667664,-0.065910 ShoulderRight:-0.105140,0.703227,0.680366,-0.177538 SpineBase:-0.082331,0.032772,0.995319,-0.038564 SpineMid:-0.122913,0.034320,0.991126,-0.037193 SpineShoulder:-0.164266,0.039477,0.983944,-0.057563 ThumbLeft:0.000000,0.000000,0.000000,0.000000 ThumbRight:0.000000,0.000000,0.000000,0.000000 WristLeft:0.125749,-0.534630,-0.106569,0.828856 WristRight:0.642062,-0.674562,-0.009249,0.364194 END:
KINECT_DATA POSITION:31.125439,-4.944526,-8.910894 HEAD_JOINT1:0.990282,0.136518,-0.000000,0.026554 LARM_JOINT2:0.792202,0.000000,-0.058762,-0.607423 LARM_JOINT3:0.971893,0.000000,-0.187262,-0.142676 LLEG_JOINT2:0.999875,0.015531,0.000000,-0.002787 LLEG_JOINT4:0.995966,0.089569,0.000000,0.005350 RARM_JOINT2:0.804787,0.000000,0.587964,0.081339 RARM_JOINT3:0.972953,0.000000,0.230993,-0.002267 RLEG_JOINT2:0.997963,0.028413,0.000000,-0.057126 RLEG_JOINT4:0.992474,0.099337,0.000000,0.071602 WAIST:0.994756,-0.000000,0.100046,0.021234 WAIST_JOINT0:0.979815,-0.000000,0.173569,0.099176 WAIST_JOINT1:0.997993,0.059466,-0.000000,0.021782 END:
KINECT_DATA_Sensor  AnkleLeft:-0.062199,-0.604193,0.085294,0.789815 AnkleRight:0.101007,0.714233,0.082396,0.687662 ElbowLeft:-0.047550,0.848835,-0.164554,-0.500140 ElbowRight:-0.597010,0.791284,0.109884,-0.073304 FootLeft:0.000000,0.000000,0.000000,0.000000 FootRight:0.000000,0.000000,0.000000,0.000000 HandLeft:0.083944,-0.530960,-0.125711,0.833806 HandRight:0.681228,-0.556409,0.390019,-0.272437 HandTipLeft:0.000000,0.000000,0.000000,0.000000 HandTipRight:0.000000,0.000000,0.000000,0.000000 Head:0.000000,0.000000,0.000000,0.000000 HipLeft:0.051940,-0.675986,0.726171,-0.114103 HipRight:-0.190719,0.680929,0.673493,-0.215337 KneeLeft:0.001209,-0.633015,0.022682,0.773806 KneeRight:-0.011208,0.774671,0.043167,0.630789 Neck:-0.180250,0.042432,0.979980,-0.073129 ShoulderLeft:0.117367,0.734182,-0.665480,-0.065867 ShoulderRight:-0.112590,0.835426,0.496545,-0.206955 SpineBase:-0.099959,0.037808,0.993567,-0.037456 SpineMid:-0.138961,0.039252,0.988867,-0.035940 SpineShoulder:-0.179842,0.041442,0.981372,-0.053371 ThumbLeft:0.000000,0.000000,0.000000,0.000000 ThumbRight:0.000000,0.000000,0.000000,0.000000 WristLeft:0.123789,-0.522893,-0.110501,0.836091 WristRight:-0.391441,0.800599,-0.404831,0.204759 END:
KINECT_DATA POSITION:31.146748,-5.009131,-8.956230 HEAD_JOINT1:0.986019,0.163362,-0.000000,0.032865 LARM_JOINT2:0.794659,0.000000,-0.039611,-0.605763 LARM_JOINT3:0.970981,0.000000,-0.186932,-0.149175 LLEG_JOINT2:0.999877,0.015300,0.000000,-0.003490 LLEG_JOINT4:0.995900,0.090208,0.000000,0.006777 RARM_JOINT2:0.816529,0.000000,0.572106,0.077298 RARM_JOINT3:0.972890,0.000000,0.230703,0.016164 RLEG_JOINT2:0.997994,0.027847,0.000000,-0.056863 RLEG_JOINT4:0.992616,0.099305,0.000000,0.069660 WAIST:0.994801,-0.000000,0.099588,0.021286 WAIST_JOINT0:0.982402,-0.000000,0.166356,0.084918 WAIST_JOINT1:0.998444,0.052013,-0.000000,0.020091 END:
KINECT_DATA_Sensor  AnkleLeft:0.073135,0.706578,-0.076927,-0.699629 AnkleRight:0.097871,0.701608,0.084576,0.700725 ElbowLeft:-0.041576,0.846475,-0.169216,-0.503109 ElbowRight:-0.602562,0.787639,0.118863,-0.049145 FootLeft:0.000000,0.000000,0.000000,0.000000 FootRight:0.000000,0.000000,0.000000,0.000000 HandLeft:0.081898,-0.532957,-0.114910,0.834293 HandRight:0.749349,-0.606892,-0.057871,0.258475 HandTipLeft:0.000000,0.000000,0.000000,0.000000 HandTipRight:0.000000,0.000000,0.000000,0.000000 Head:0.000000,0.000000,0.000000,0.000000 HipLeft:0.054887,-0.676131,0.726330,-0.110816 HipRight:-0.191764,0.681532,0.673463,-0.212576 KneeLeft:0.000988,-0.633203,0.022035,0.773671 KneeRight:-0.011294,0.774471,0.042539,0.631077 Neck:-0.170338,0.041704,0.982309,-0.065685 ShoulderLeft:0.087253,0.749345,-0.654310,-0.052410 ShoulderRight:-0.132657,0.830737,0.500350,-0.204763 SpineBase:-0.099589,0.036216,0.993809,-0.033389 SpineMid:-0.133965,0.037351,0.989761,-0.032114 SpineShoulder:-0.170047,0.039119,0.983567,-0.046361 ThumbLeft:0.000000,0.000000,0.000000,0.000000 ThumbRight:0.000000,0.000000,0.000000,0.000000 WristLeft:0.122496,-0.525540,-0.109020,0.834816 WristRight:-0.577926,0.752589,0.026007,-0.314540 END:
KINECT_DATA POSITION:31.080118,-5.000576,-8.973778 HEAD_JOINT1:0.984674,0.171852,-0.000000,0.029747 LARM_JOINT2:0.794411,0.000000,-0.038614,-0.606152 LARM_JOINT3:0.969566,0.000000,-0.192214,-0.151642 LLEG_JOINT2:0.999880,0.015347,0.000000,-0.001974 LLEG_JOINT4:0.995989,0.089250,0.000000,0.006363 RARM_JOINT2:0.819707,0.000000,0.565067,0.093700 RARM_JOINT3:0.970499,0.000000,0.241096,-0.002144 RLEG_JOINT2:0.998129,0.025575,0.000000,-0.055539 RLEG_JOINT4:0.992623,0.101057,0.000000,0.066984 WAIST:0.995161,-0.000000,0.096114,0.020425 WAIST_JOINT0:0.983278,-0.000000,0.164123,0.078915 WAIST_JOINT1:0.998456,0.050730,-0.000000,0.022639 END:
KINECT_DATA_Sensor  AnkleLeft:0.072574,0.713352,-0.076529,-0.692824 AnkleRight:0.097888,0.713642,0.083178,0.688632 ElbowLeft:-0.041622,0.851704,-0.170477,-0.493767 ElbowRight:-0.595023,0.797352,0.100048,-0.012955 FootLeft:0.000000,0.000000,0.000000,0.000000 FootRight:0.000000,0.000000,0.000000,0.000000 HandLeft:0.096784,-0.526844,-0.143001,0.832237 HandRight:-0.624112,0.613668,-0.449058,0.179562 HandTipLeft:0.000000,0.000000,0.000000,0.000000 HandTipRight:0.000000,0.000000,0.000000,0.000000 Head:0.000000,0.000000,0.000000,0.000000 HipLeft:0.057977,-0.676375,0.725805,-0.111188 HipRight:-0.190791,0.681967,0.674571,-0.208503 KneeLeft:0.001331,-0.635875,0.022675,0.771457 KneeRight:-0.012132,0.772166,0.040642,0.634004 Neck:-0.168101,0.044114,0.982632,-0.065038 ShoulderLeft:0.075883,0.752686,-0.652378,-0.045920 ShoulderRight:-0.142915,0.827203,0.502572,-0.206716 SpineBase:-0.096060,0.036601,0.994213,-0.031211 SpineMid:-0.131062,0.037679,0.990206,-0.029900 SpineShoulder:-0.167791,0.040946,0.983949,-0.044887 ThumbLeft:0.000000,0.000000,0.000000,0.000000 ThumbRight:0.000000,0.000000,0.000000,0.000000 WristLeft:0.118907,-0.521374,-0.107878,0.838089 WristRight:-0.464855,0.773932,-0.350924,0.248578 END:
KINECT_DATA POSITION:31.022947,-4.961967,-8.975267 HEAD_JOINT1:0.985090,0.169448,-0.000000,0.029756 LARM_JOINT2:0.795322,0.000000,-0.041139,-0.604789 LARM_JOINT3:0.970925,0.000000,-0.185362,-0.151477 LLEG_JOINT2:0.999877,0.015635,0.000000,-0.001143 LLEG_JOINT4:0.995998,0.089258,0.000000,0.004553 RARM_JOINT2:0.810073,0.000000,0.564921,0.156991 RARM_JOINT3:0.966885,0.000000,0.235227,-0.099008 RLEG_JOINT2:0.998152,0.026803,0.000000,-0.054538 RLEG_JOINT4:0.992975,0.099669,0.000000,0.063776 WAIST:0.995325,-0.000000,0.094354,0.020632 WAIST_JOINT0:0.982661,-0.000000,0.167298,0.079935 WAIST_JOINT1:0.998333,0.052853,-0.000000,0.023205 END:
KINECT_DATA_Sensor  AnkleLeft:-0.071151,-0.696600,0.078018,0.709647 AnkleRight:0.098109,0.727417,0.081949,0.674183 ElbowLeft:-0.041431,0.855812,-0.172816,-0.485803 ElbowRight:-0.549872,0.787905,-0.107402,0.255562 FootLeft:0.000000,0.000000,0.000000,0.000000 FootRight:0.000000,0.000000,0.000000,0.000000 HandLeft:0.084588,-0.494009,-0.123445,0.856482 HandRight:0.712902,-0.645499,-0.137093,0.237293 HandTipLeft:0.000000,0.000000,0.000000,0.000000 HandTipRight:0.000000,0.000000,0.000000,0.000000 Head:0.000000,0.000000,0.000000,0.000000 HipLeft:0.059527,-0.675731,0.726017,-0.112886 HipRight:-0.190055,0.682028,0.674862,-0.208034 KneeLeft:0.001800,-0.637216,0.023668,0.770320 KneeRight:-0.010330,0.771126,0.040849,0.635287 Neck:-0.171033,0.045201,0.981908,-0.067532 ShoulderLeft:0.075554,0.751007,-0.654515,-0.043463 ShoulderRight:-0.148358,0.824033,0.503896,-0.212247 SpineBase:-0.094319,0.036513,0.994376,-0.031430 SpineMid:-0.131604,0.037668,0.990131,-0.030036 SpineShoulder:-0.170708,0.041991,0.983324,-0.046571 ThumbLeft:0.000000,0.000000,0.000000,0.000000 ThumbRight:0.000000,0.000000,0.000000,0.000000 WristLeft:0.112572,-0.488693,-0.111282,0.857976 WristRight:0.669032,-0.666149,-0.074135,0.321162 END:
KINECT_DATA POSITION:30.950386,-4.874544,-9.002077 HEAD_JOINT1:0.982682,0.182762,-0.000000,0.030567 LARM_JOINT2:0.796614,0.000000,-0.036317,-0.603397 LARM_JOINT3:0.971580,0.000000,-0.184953,-0.147728 LLEG_JOINT2:0.999862,0.016628,0.000000,0.000046 LLEG_JOINT4:0.996196,0.087139,0.000000,-0.000951 RARM_JOINT2:0.815946,0.000000,0.562221,0.134681 RARM_JOINT3:0.970922,0.000000,0.215664,-0.103920 RLEG_JOINT2:0.998169,0.025954,0.000000,-0.054642 RLEG_JOINT4:0.993091,0.099224,0.000000,0.062654 WAIST:0.995568,-0.000000,0.091665,0.021034 WAIST_JOINT0:0.981627,-0.000000,0.162053,0.100731 WAIST_JOINT1:0.998506,0.049877,-0.000000,0.022316 END:
KINECT_DATA_Sensor  AnkleLeft:-0.071508,-0.691390,0.075079,0.715003 AnkleRight:0.096284,0.720569,0.081909,0.681763 ElbowLeft:-0.041477,0.857028,-0.174559,-0.483023 ElbowRight:-0.567103,0.772334,-0.106062,0.265791 FootLeft:0.000000,0.000000,0.000000,0.000000 FootRight:0.000000,0.000000,0.000000,0.000000 HandLeft:0.102696,-0.492437,-0.110120,0.857224 HandRight:0.651411,-0.618619,0.324553,-0.296041 HandTipLeft:0.000000,0.000000,0.000000,0.000000 HandTipRight:0.000000,0.000000,0.000000,0.000000 Head:0.000000,0.000000,0.000000,0.000000 HipLeft:0.062800,-0.675427,0.725920,-0.113555 HipRight:-0.189916,0.682994,0.674601,-0.205828 KneeLeft:0.002106,-0.639161,0.025535,0.768646 KneeRight:-0.010521,0.769426,0.040046,0.637392 Neck:-0.167581,0.044667,0.982763,-0.064014 ShoulderLeft:0.068517,0.748423,-0.658550,-0.038473 ShoulderRight:-0.150583,0.845909,0.467117,-0.208723 SpineBase:-0.091666,0.036519,0.994682,-0.029524 SpineMid:-0.128385,0.037586,0.990612,-0.028153 SpineShoulder:-0.167236,0.041719,0.984065,-0.043679 ThumbLeft:0.000000,0.000000,0.000000,0.000000 ThumbRight:0.000000,0.000000,0.000000,0.000000 WristLeft:0.112630,-0.490931,-0.111071,0.856717 WristRight:-0.569279,0.696883,-0.383419,0.208006 END:
KINECT_DATA POSITION:30.923590,-4.790452,-9.034622 HEAD_JOINT1:0.983714,0.176582,-0.000000,0.033546 LARM_JOINT2:0.798630,0.000000,-0.037851,-0.600630 LARM_JOINT3:0.969335,0.000000,-0.191381,-0.154152 LLEG_JOINT2:0.999852,0.017175,0.000000,0.001326 LLEG_JOINT4:0.996498,0.083614,0.000000,-0.000758 RARM_JOINT2:0.819500,0.000000,0.554970,0.142925 RARM_JOINT3:0.968565,0.000000,0.223596,-0.109026 RLEG_JOINT2:0.998261,0.025162,0.000000,-0.053306 RLEG_JOINT4:0.992979,0.101510,0.000000,0.060739 WAIST:0.995877,-0.000000,0.088390,0.020408 WAIST_JOINT0:0.983174,-0.000000,0.157654,0.092267 WAIST_JOINT1:0.998329,0.052585,-0.000000,0.023952 END:
KINECT_DATA_Sensor  AnkleLeft:0.069910,0.708035,-0.072977,-0.698909 AnkleRight:0.104860,0.786546,0.072921,0.604179 ElbowLeft:-0.041790,0.859014,-0.179010,-0.477812 ElbowRight:-0.530986,0.710023,-0.201964,0.416091 FootLeft:0.000000,0.000000,0.000000,0.000000 FootRight:0.000000,0.000000,0.000000,0.000000 HandLeft:0.104544,-0.535255,-0.127366,0.828463 HandRight:0.746373,-0.514302,0.175536,0.384197 HandTipLeft:0.000000,0.000000,0.000000,0.000000 HandTipRight:0.000000,0.000000,0.000000,0.000000 Head:0.000000,0.000000,0.000000,0.000000 HipLeft:0.063916,-0.675211,0.725551,-0.116539 HipRight:-0.187830,0.682848,0.675760,-0.204418 KneeLeft:0.002097,-0.641727,0.026468,0.766474 KneeRight:-0.010273,0.767238,0.039104,0.640087 Neck:-0.165273,0.045603,0.982925,-0.066817 ShoulderLeft:0.069841,0.749745,-0.656995,-0.036906 ShoulderRight:-0.145834,0.842888,0.474557,-0.207527 SpineBase:-0.088331,0.037244,0.994922,-0.030672 SpineMid:-0.125558,0.038367,0.990912,-0.029255 SpineShoulder:-0.164887,0.042986,0.984287,-0.046298 ThumbLeft:0.000000,0.000000,0.000000,0.000000 ThumbRight:0.000000,0.000000,0.000000,0.000000 WristLeft:0.118207,-0.532034,-0.105493,0.831768 WristRight:-0.673649,0.734165,0.038239,-0.075741 END:
KINECT_DATA POSITION:30.907532,-4.718620,-9.077501 HEAD_JOINT1:0.984008,0.174596,-0.000000,0.035277 LARM_JOINT2:0.798428,0.000000,-0.041769,-0.600640 LARM_JOINT3:0.970856,0.000000,-0.182861,-0.154918 LLEG_JOINT2:0.999843,0.017574,0.000000,0.002251 LLEG_JOINT4:0.996393,0.084809,0.000000,-0.002736 RARM_JOINT2:0.835188,0.000000,0.508620,0.209207 RARM_JOINT3:0.952293,0.000000,0.265539,-0.150426 RLEG_JOINT2:0.998268,0.022625,0.000000,-0.054306 RLEG_JOINT4:0.992750,0.102840,0.000000,0.062216 WAIST:0.996119,-0.000000,0.085733,0.019914 WAIST_JOINT0:0.983510,-0.000000,0.153863,0.095046 WAIST_JOINT1:0.998268,0.053431,-0.000000,0.024598 END:
KINECT_DATA_Sensor  AnkleLeft:-0.070635,-0.696870,0.074149,0.709849 AnkleRight:0.098864,0.739158,0.079163,0.661517 ElbowLeft:-0.043855,0.861664,-0.178109,-0.473169 ElbowRight:-0.497834,0.749767,-0.133198,0.415053 FootLeft:0.000000,0.000000,0.000000,0.000000 FootRight:0.000000,0.000000,0.000000,0.000000 HandLeft:0.079172,-0.506863,-0.111940,0.851053 HandRight:-0.604715,0.650444,-0.374671,0.266203 HandTipLeft:0.000000,0.000000,0.000000,0.000000 HandTipRight:0.000000,0.000000,0.000000,0.000000 Head:0.000000,0.000000,0.000000,0.000000 HipLeft:0.064895,-0.675237,0.725073,-0.118796 HipRight:-0.186060,0.682889,0.676537,-0.203329 KneeLeft:0.002070,-0.643799,0.027114,0.764711 KneeRight:-0.012887,0.765326,0.038222,0.642377 Neck:-0.164137,0.046063,0.983027,-0.067790 ShoulderLeft:0.074718,0.744967,-0.661839,-0.037563 ShoulderRight:-0.138975,0.847350,0.469931,-0.204572 SpineBase:-0.085632,0.037571,0.995120,-0.031482 SpineMid:-0.123625,0.038748,0.991118,-0.030022 SpineShoulder:-0.163750,0.043322,0.984429,-0.046989 ThumbLeft:0.000000,0.000000,0.000000,0.000000 ThumbRight:0.000000,0.000000,0.000000,0.000000 WristLeft:0.113742,-0.501094,-0.110622,0.850724 WristRight:-0.588598,0.666359,-0.372358,0.266212 END:
KINECT_DATA POSITION:30.876408,-4.650266,-9.143591 HEAD_JOINT1:0.981924,0.186121,-0.000000,0.034408 LARM_JOINT2:0.799133,0.000000,-0.038102,-0.599945 LARM_JOINT3:0.970776,0.000000,-0.180866,-0.157735 LLEG_JOINT2:0.999845,0.017433,0.000000,0.002458 LLEG_JOINT4:0.996360,0.085182,0.000000,-0.003187 RARM_JOINT2:0.814787,0.000000,0.554776,0.168361 RARM_JOINT3:0.967147,0.000000,0.223248,-0.121602 RLEG_JOINT2:0.998295,0.022202,0.000000,-0.053987 RLEG_JOINT4:0.992556,0.103791,0.000000,0.063717 WAIST:0.996199,-0.000000,0.084673,0.020440 WAIST_JOINT0:0.983673,-0.000000,0.155808,0.090058 WAIST_JOINT1:0.998434,0.050614,-0.000000,0.023827 END:
KINECT_DATA_Sensor  AnkleLeft:-0.070801,-0.699821,0.074343,0.706902 AnkleRight:0.099078,0.721284,0.080536,0.680770 ElbowLeft:-0.043748,0.863142,-0.179088,-0.470106 ElbowRight:-0.532790,0.758368,-0.147111,0.345501 FootLeft:0.000000,0.000000,0.000000,0.000000 FootRight:0.000000,0.000000,0.000000,0.000000 HandLeft:0.077047,-0.521084,-0.114511,0.842272 HandRight:-0.608436,0.649862,-0.370657,0.264761 HandTipLeft:0.000000,0.000000,0.000000,0.000000 HandTipRight:0.000000,0.000000,0.000000,0.000000 Head:0.000000,0.000000,0.000000,0.000000 HipLeft:0.066626,-0.674926,0.725157,-0.119096 HipRight:-0.186402,0.683563,0.676023,-0.202457 KneeLeft:0.002697,-0.644562,0.027568,0.764050 KneeRight:-0.012489,0.764676,0.037348,0.643210 Neck:-0.164989,0.045942,0.983124,-0.064300 ShoulderLeft:0.068103,0.746173,-0.661272,-0.036156 ShoulderRight:-0.148433,0.840426,0.478431,-0.206775 SpineBase:-0.084607,0.037756,0.995235,-0.030384 SpineMid:-0.123548,0.038917,0.991154,-0.028881 SpineShoulder:-0.164597,0.043265,0.984421,-0.044182 ThumbLeft:0.000000,0.000000,0.000000,0.000000 ThumbRight:0.000000,0.000000,0.000000,0.000000 WristLeft:0.114812,-0.514355,-0.106877,0.843110 WristRight:-0.576340,0.679083,-0.379625,0.250127 END:
KINECT_DATA POSITION:30.831989,-4.637988,-9.167910 HEAD_JOINT1:0.982846,0.181244,-0.000000,0.034129 LARM_JOINT2:0.799253,0.000000,-0.038493,-0.599761 LARM_JOINT3:0.970050,0.000000,-0.184366,-0.158150 LLEG_JOINT2:0.999833,0.018022,0.000000,0.003086 LLEG_JOINT4:0.996487,0.083631,0.000000,-0.004385 RARM_JOINT2:0.820195,0.000000,0.547143,0.167078 RARM_JOINT3:0.962645,0.000000,0.243719,-0.117967 RLEG_JOINT2:0.998325,0.022883,0.000000,-0.053129 RLEG_JOINT4:0.992979,0.100848,0.000000,0.061829 WAIST:0.996232,-0.000000,0.084299,0.020396 WAIST_JOINT0:0.984234,-0.000000,0.155016,0.085165 WAIST_JOINT1:0.998292,0.053140,-0.000000,0.024277 END:
KINECT_DATA_Sensor  AnkleLeft:-0.061715,-0.616733,0.080723,0.780587 AnkleRight:0.097507,0.726757,0.078604,0.675380 ElbowLeft:-0.042617,0.861555,-0.180182,-0.472696 ElbowRight:-0.536603,0.767983,-0.122148,0.327628 FootLeft:0.000000,0.000000,0.000000,0.000000 FootRight:0.000000,0.000000,0.000000,0.000000 HandLeft:0.076980,-0.525315,-0.116686,0.839347 HandRight:-0.612601,0.650149,-0.363103,0.264921 HandTipLeft:0.000000,0.000000,0.000000,0.000000 HandTipRight:0.000000,0.000000,0.000000,0.000000 Head:0.000000,0.000000,0.000000,0.000000 HipLeft:0.066463,-0.674971,0.725033,-0.119684 HipRight:-0.186043,0.683619,0.676053,-0.202496 KneeLeft:0.002624,-0.644836,0.028401,0.763788 KneeRight:-0.011405,0.764468,0.037356,0.643477 Neck:-0.164342,0.046314,0.982991,-0.067635 ShoulderLeft:0.069274,0.749002,-0.657962,-0.035808 ShoulderRight:-0.145790,0.838349,0.482702,-0.207159 SpineBase:-0.084220,0.038033,0.995244,-0.030831 SpineMid:-0.123015,0.039208,0.991196,-0.029322 SpineShoulder:-0.163930,0.043665,0.984410,-0.046458 ThumbLeft:0.000000,0.000000,0.000000,0.000000 ThumbRight:0.000000,0.000000,0.000000,0.000000 WristLeft:0.115746,-0.518226,-0.107100,0.840580 WristRight:-0.571927,0.685110,-0.386223,0.233145 END:
KINECT_DATA POSITION:30.827110,-4.601402,-9.186518 HEAD_JOINT1:0.981194,0.189624,-0.000000,0.036064 LARM_JOINT2:0.799801,0.000000,-0.035965,-0.599187 LARM_JOINT3:0.969791,0.000000,-0.183470,-0.160764 LLEG_JOINT2:0.999841,0.017656,0.000000,0.002610 LLEG_JOINT4:0.996164,0.087483,0.000000,-0.002028 RARM_JOINT2:0.816342,0.000000,0.554655,0.161068 RARM_JOINT3:0.967582,0.000000,0.228997,-0.106516 RLEG_JOINT2:0.998293,0.024367,0.000000,-0.053075 RLEG_JOINT4:0.993071,0.099392,0.000000,0.062706 WAIST:0.996236,-0.000000,0.084136,0.020845 WAIST_JOINT0:0.984436,-0.000000,0.154428,0.083886 WAIST_JOINT1:0.998450,0.050764,-0.000000,0.022828 END:
KINECT_DATA_Sensor  AnkleLeft:0.072792,0.708969,-0.076288,-0.697313 AnkleRight:0.098122,0.722526,0.078338,0.679847 ElbowLeft:-0.042327,0.863175,-0.180129,-0.469778 ElbowRight:-0.545454,0.772737,-0.115770,0.303239 FootLeft:0.000000,0.000000,0.000000,0.000000 FootRight:0.000000,0.000000,0.000000,0.000000 HandLeft:0.076010,-0.531312,-0.119291,0.835284 HandRight:-0.611691,0.633464,-0.383045,0.278987 HandTipLeft:0.000000,0.000000,0.000000,0.000000 HandTipRight:0.000000,0.000000,0.000000,0.000000 Head:0.000000,0.000000,0.000000,0.000000 HipLeft:0.067377,-0.674729,0.725220,-0.119404 HipRight:-0.186499,0.684024,0.675618,-0.202161 KneeLeft:0.002918,-0.644935,0.028121,0.763715 KneeRight:-0.010073,0.764491,0.038142,0.643427 Neck:-0.163413,0.045089,0.983419,-0.064421 ShoulderLeft:0.065090,0.749105,-0.658343,-0.034494 ShoulderRight:-0.149573,0.836431,0.485116,-0.206578 SpineBase:-0.084091,0.037962,0.995283,-0.030002 SpineMid:-0.122498,0.039093,0.991288,-0.028512 SpineShoulder:-0.163008,0.042717,0.984702,-0.044337 ThumbLeft:0.000000,0.000000,0.000000,0.000000 ThumbRight:0.000000,0.000000,0.000000,0.000000 WristLeft:0.115038,-0.524002,-0.106884,0.837117 WristRight:-0.552857,0.687759,-0.392854,0.258849 END:
KINECT_DATA POSITION:30.830616,-4.602505,-9.191668 HEAD_JOINT1:0.982180,0.184322,-0.000000,0.036721 LARM_JOINT2:0.799322,0.000000,-0.037915,-0.599705 LARM_JOINT3:0.969042,0.000000,-0.187771,-0.160309 LLEG_JOINT2:0.999847,0.017320,0.000000,0.002331 LLEG_JOINT4:0.996074,0.088491,0.000000,-0.002524 RARM_JOINT2:0.819059,0.000000,0.552378,0.154983 RARM_JOINT3:0.966419,0.000000,0.237258,-0.098705 RLEG_JOINT2:0.998300,0.024079,0.000000,-0.053070 RLEG_JOINT4:0.993303,0.097263,0.000000,0.062369 WAIST:0.996257,-0.000000,0.083896,0.020797 WAIST_JOINT0:0.984909,-0.000000,0.151216,0.084185 WAIST_JOINT1:0.998295,0.053456,-0.000000,0.023439 END:
KINECT_DATA_Sensor  AnkleLeft:-0.072949,-0.701283,0.076836,0.704966 AnkleRight:0.103156,0.783372,0.067243,0.609233 ElbowLeft:-0.041303,0.863266,-0.180246,-0.469656 ElbowRight:-0.549817,0.776827,-0.101203,0.289826 FootLeft:0.000000,0.000000,0.000000,0.000000 FootRight:0.000000,0.000000,0.000000,0.000000 HandLeft:0.087053,-0.559178,-0.122602,0.815298 HandRight:-0.605881,0.645428,-0.380835,0.267010 HandTipLeft:0.000000,0.000000,0.000000,0.000000 HandTipRight:0.000000,0.000000,0.000000,0.000000 Head:0.000000,0.000000,0.000000,0.000000 HipLeft:0.066797,-0.674825,0.725071,-0.120093 HipRight:-0.185928,0.684038,0.675649,-0.202539 KneeLeft:0.002964,-0.645170,0.027659,0.763532 KneeRight:-0.010280,0.764294,0.037959,0.643668 Neck:-0.161203,0.045745,0.983525,-0.067815 ShoulderLeft:0.068750,0.748851,-0.658290,-0.033903 ShoulderRight:-0.142067,0.839073,0.483789,-0.204257 SpineBase:-0.083837,0.038179,0.995270,-0.030851 SpineMid:-0.121279,0.039315,0.991404,-0.029390 SpineShoulder:-0.160803,0.043102,0.984928,-0.046916 ThumbLeft:0.000000,0.000000,0.000000,0.000000 ThumbRight:0.000000,0.000000,0.000000,0.000000 WristLeft:0.117776,-0.553050,-0.104101,0.818185 WristRight:-0.552398,0.694244,-0.388502,0.248895 END:
KINECT_DATA POSITION:30.850719,-4.634013,-9.194195 HEAD_JOINT1:0.982732,0.181259,-0.000000,0.037183 LARM_JOINT2:0.797882,0.000000,-0.042328,-0.601326 LARM_JOINT3:0.970461,0.000000,-0.183391,-0.156755 LLEG_JOINT2:0.999863,0.016343,0.000000,0.002724 LLEG_JOINT4:0.995732,0.092237,0.000000,-0.003109 RARM_JOINT2:0.813328,0.000000,0.562119,0.150067 RARM_JOINT3:0.970469,0.000000,0.220389,-0.098070 RLEG_JOINT2:0.998317,0.023120,0.000000,-0.053188 RLEG_JOINT4:0.993223,0.097959,0.000000,0.062553 WAIST:0.996331,-0.000000,0.083191,0.020112 WAIST_JOINT0:0.984580,-0.000000,0.150517,0.089143 WAIST_JOINT1:0.998185,0.055043,-0.000000,0.024435 END:
KINECT_DATA_Sensor  AnkleLeft:-0.074655,-0.691940,0.078838,0.713744 AnkleRight:0.094243,0.708023,0.078738,0.695429 ElbowLeft:-0.042410,0.864289,-0.177701,-0.468645 ElbowRight:-0.550379,0.773704,-0.115064,0.291933 FootLeft:0.000000,0.000000,0.000000,0.000000 FootRight:0.000000,0.000000,0.000000,0.000000 HandLeft:0.083508,-0.570795,-0.109163,0.809508 HandRight:-0.605551,0.643583,-0.392920,0.254405 HandTipLeft:0.000000,0.000000,0.000000,0.000000 HandTipRight:0.000000,0.000000,0.000000,0.000000 Head:0.000000,0.000000,0.000000,0.000000 HipLeft:0.066422,-0.675332,0.724483,-0.120995 HipRight:-0.185115,0.683770,0.676159,-0.202487 KneeLeft:0.003486,-0.645824,0.026853,0.763006 KneeRight:-0.011440,0.763726,0.037805,0.644331 Neck:-0.161364,0.046352,0.983340,-0.069687 ShoulderLeft:0.074624,0.744426,-0.662601,-0.034933 ShoulderRight:-0.135963,0.841950,0.481052,-0.203035 SpineBase:-0.083081,0.038302,0.995303,-0.031662 SpineMid:-0.120986,0.039482,0.991410,-0.030178 SpineShoulder:-0.160980,0.043420,0.984813,-0.048414 ThumbLeft:0.000000,0.000000,0.000000,0.000000 ThumbRight:0.000000,0.000000,0.000000,0.000000 WristLeft:0.118644,-0.564589,-0.102873,0.810296 WristRight:-0.553937,0.694856,-0.377773,0.260033 END:
KINECT_DATA POSITION:30.869997,-4.661706,-9.180284 HEAD_JOINT1:0.983541,0.176836,-0.000000,0.037093 LARM_JOINT2:0.797573,0.000000,-0.042794,-0.601702 LARM_JOINT3:0.970143,0.000000,-0.186615,-0.154912 LLEG_JOINT2:0.999858,0.016661,0.000000,0.002451 LLEG_JOINT4:0.996009,0.089216,0.000000,-0.002627 RARM_JOINT2:0.813683,0.000000,0.559268,0.158557 RARM_JOINT3:0.966991,0.000000,0.230666,-0.108264 RLEG_JOINT2:0.998303,0.023074,0.000000,-0.053468 RLEG_JOINT4:0.993125,0.099255,0.000000,0.062064 WAIST:0.996366,-0.000000,0.082790,0.020040 WAIST_JOINT0:0.984604,-0.000000,0.150230,0.089362 WAIST_JOINT1:0.998101,0.056357,-0.000000,0.024854 END:
KINECT_DATA_Sensor  AnkleLeft:0.074183,0.709190,-0.075665,-0.697009 AnkleRight:0.094030,0.704856,0.080582,0.698458 ElbowLeft:-0.041795,0.863828,-0.177779,-0.469520 ElbowRight:-0.541154,0.771737,-0.123787,0.310243 FootLeft:0.000000,0.000000,0.000000,0.000000 FootRight:0.000000,0.000000,0.000000,0.000000 HandLeft:0.088923,-0.545313,-0.117949,0.825115 HandRight:-0.621274,0.661533,-0.352116,0.228924 HandTipLeft:0.000000,0.000000,0.000000,0.000000 HandTipRight:0.000000,0.000000,0.000000,0.000000 Head:0.000000,0.000000,0.000000,0.000000 HipLeft:0.065564,-0.675220,0.724476,-0.122121 HipRight:-0.184171,0.683606,0.676433,-0.202985 KneeLeft:0.003019,-0.646172,0.026804,0.762715 KneeRight:-0.011716,0.763415,0.038011,0.644682 Neck:-0.160803,0.046675,0.983338,-0.070780 ShoulderLeft:0.077883,0.743703,-0.663000,-0.035670 ShoulderRight:-0.131495,0.841396,0.483711,-0.201955 SpineBase:-0.082655,0.038631,0.995281,-0.033039 SpineMid:-0.120517,0.039862,0.991409,-0.031543 SpineShoulder:-0.160423,0.043780,0.984818,-0.049808 ThumbLeft:0.000000,0.000000,0.000000,0.000000 ThumbRight:0.000000,0.000000,0.000000,0.000000 WristLeft:0.115433,-0.540319,-0.105517,0.826799 WristRight:-0.577775,0.701391,-0.358372,0.214000 END:
KINECT_DATA POSITION:30.856895,-4.684630,-9.160662 HEAD_JOINT1:0.982859,0.180315,-0.000000,0.038393 LARM_JOINT2:0.798362,0.000000,-0.039487,-0.600882 LARM_JOINT3:0.969591,0.000000,-0.189685,-0.154639 LLEG_JOINT2:0.999849,0.017176,0.000000,0.002799 LLEG_JOINT4:0.996391,0.084863,0.000000,-0.002001 RARM_JOINT2:0.815029,0.000000,0.559645,0.150087 RARM_JOINT3:0.969854,0.000000,0.221326,-0.101968 RLEG_JOINT2:0.998382,0.023196,0.000000,-0.051913 RLEG_JOINT4:0.993172,0.100274,0.000000,0.059627 WAIST:0.996412,-0.000000,0.082319,0.019647 WAIST_JOINT0:0.985140,-0.000000,0.147773,0.087535 WAIST_JOINT1:0.998150,0.055541,-0.000000,0.024747 END:
KINECT_DATA_Sensor  AnkleLeft:-0.069556,-0.699103,0.075092,0.707657 AnkleRight:0.096745,0.730191,0.078680,0.671767 ElbowLeft:-0.040409,0.863808,-0.179120,-0.469168 ElbowRight:-0.551800,0.777458,-0.104061,0.283279 FootLeft:0.000000,0.000000,0.000000,0.000000 FootRight:0.000000,0.000000,0.000000,0.000000 HandLeft:0.101064,-0.552465,-0.121788,0.818375 HandRight:0.705196,-0.651335,-0.161379,0.228950 HandTipLeft:0.000000,0.000000,0.000000,0.000000 HandTipRight:0.000000,0.000000,0.000000,0.000000 Head:0.000000,0.000000,0.000000,0.000000 HipLeft:0.065212,-0.675485,0.724192,-0.122531 HipRight:-0.183442,0.683444,0.676830,-0.202863 KneeLeft:0.002578,-0.646540,0.027129,0.762393 KneeRight:-0.010706,0.763100,0.037386,0.645110 Neck:-0.158632,0.045902,0.983809,-0.069633 ShoulderLeft:0.073495,0.746297,-0.660704,-0.033306 ShoulderRight:-0.133120,0.842650,0.481513,-0.200911 SpineBase:-0.082156,0.038593,0.995306,-0.033578 SpineMid:-0.119180,0.039818,0.991554,-0.032117 SpineShoulder:-0.158245,0.043291,0.985222,-0.049223 ThumbLeft:0.000000,0.000000,0.000000,0.000000 ThumbRight:0.000000,0.000000,0.000000,0.000000 WristLeft:0.115888,-0.549295,-0.103423,0.821066 WristRight:0.663412,-0.675709,-0.106166,0.303367 END:
KINECT_DATA POSITION:30.822643,-4.651069,-9.160292 HEAD_JOINT1:0.981197,0.188645,-0.000000,0.040813 LARM_JOINT2:0.800284,0.000000,-0.037251,-0.598463 LARM_JOINT3:0.969576,0.000000,-0.187822,-0.156988 LLEG_JOINT2:0.999838,0.017819,0.000000,0.002597 LLEG_JOINT4:0.996484,0.083614,0.000000,-0.005393 RARM_JOINT2:0.812345,0.000000,0.562205,0.154987 RARM_JOINT3:0.971299,0.000000,0.215617,-0.100437 RLEG_JOINT2:0.998355,0.023377,0.000000,-0.052356 RLEG_JOINT4:0.993125,0.099237,0.000000,0.062084 WAIST:0.996422,-0.000000,0.082044,0.020302 WAIST_JOINT0:0.985314,-0.000000,0.148571,0.084167 WAIST_JOINT1:0.998319,0.053327,-0.000000,0.022693 END:
KINECT_DATA_Sensor  AnkleLeft:-0.068734,-0.679875,0.074231,0.726317 AnkleRight:0.097584,0.723738,0.077210,0.678764 ElbowLeft:-0.041157,0.864601,-0.180693,-0.467034 ElbowRight:-0.549795,0.776924,-0.110563,0.286164 FootLeft:0.000000,0.000000,0.000000,0.000000 FootRight:0.000000,0.000000,0.000000,0.000000 HandLeft:0.097418,-0.551250,-0.118337,0.820140 HandRight:-0.624035,0.633229,-0.365063,0.276280 HandTipLeft:0.000000,0.000000,0.000000,0.000000 HandTipRight:0.000000,0.000000,0.000000,0.000000 Head:0.000000,0.000000,0.000000,0.000000 HipLeft:0.066322,-0.674926,0.724701,-0.122003 HipRight:-0.183547,0.683846,0.676547,-0.202360 KneeLeft:0.002426,-0.646639,0.027855,0.762283 KneeRight:-0.010447,0.762993,0.037356,0.645242 Neck:-0.158435,0.044294,0.984073,-0.067364 ShoulderLeft:0.067010,0.747873,-0.659721,-0.031029 ShoulderRight:-0.140677,0.837687,0.487398,-0.202322 SpineBase:-0.081952,0.038071,0.995373,-0.032650 SpineMid:-0.118983,0.039261,0.991629,-0.031209 SpineShoulder:-0.158035,0.042003,0.985423,-0.046936 ThumbLeft:0.000000,0.000000,0.000000,0.000000 ThumbRight:0.000000,0.000000,0.000000,0.000000 WristLeft:0.116192,-0.547542,-0.103902,0.822132 WristRight:-0.552822,0.698670,-0.378114,0.251551 END:
