EastLYD/RoboCupatHomeSim/InteractiveCleanUp/JapanOpen2016/Motion_Data/File60.dat
KINECT_DATA POSITION:20.504967,-4.276022,-1.286995 HEAD_JOINT1:0.977406,0.182240,-0.000000,0.107081 LARM_JOINT2:0.814069,0.000000,-0.074486,-0.575972 LARM_JOINT3:0.958569,0.000000,-0.205764,-0.196992 LLEG_JOINT2:0.997744,0.025912,0.000000,0.061938 LLEG_JOINT4:0.995420,0.086374,0.000000,-0.040961 RARM_JOINT2:0.782619,0.000000,0.007161,0.622460 RARM_JOINT3:0.949146,0.000000,0.274748,0.153740 RLEG_JOINT2:0.999478,0.004321,0.000000,-0.032018 RLEG_JOINT4:0.994163,0.104362,0.000000,0.027349 WAIST:0.999991,0.000000,-0.000856,-0.004155 WAIST_JOINT0:0.999799,0.000000,-0.009643,0.017598 WAIST_JOINT1:0.996850,0.078461,0.000000,-0.011540 END:
KINECT_DATA_Sensor  AnkleLeft:0.068673,0.709299,-0.090024,-0.695754 AnkleRight:0.072227,0.712090,0.081537,0.693587 ElbowLeft:-0.039360,0.926577,-0.144894,-0.344836 ElbowRight:0.000437,0.866526,0.147425,0.476862 FootLeft:0.000000,0.000000,0.000000,0.000000 FootRight:0.000000,0.000000,0.000000,0.000000 HandLeft:-0.050616,0.791796,0.195184,-0.576542 HandRight:0.183831,-0.411042,-0.223918,0.864356 HandTipLeft:0.000000,0.000000,0.000000,0.000000 HandTipRight:0.000000,0.000000,0.000000,0.000000 Head:0.000000,0.000000,0.000000,0.000000 HipLeft:0.112948,-0.681640,0.702085,-0.172298 HipRight:-0.116330,0.671606,0.707391,-0.187109 KneeLeft:-0.022531,0.707134,-0.059190,-0.704237 KneeRight:-0.022468,0.706780,0.028673,0.706495 Neck:0.007979,-0.017645,0.995316,-0.094719 ShoulderLeft:0.015421,0.783609,-0.616122,0.078183 ShoulderRight:0.027348,0.798776,0.597818,-0.061830 SpineBase:0.000566,-0.013634,0.998479,-0.053409 SpineMid:0.004101,-0.013824,0.998471,-0.053361 SpineShoulder:0.007850,-0.015657,0.997172,-0.073085 ThumbLeft:0.000000,0.000000,0.000000,0.000000 ThumbRight:0.000000,0.000000,0.000000,0.000000 WristLeft:-0.091923,0.791948,0.148333,-0.585120 WristRight:0.102922,-0.429001,-0.139697,0.886482 END:
KINECT_DATA POSITION:20.428391,-4.272345,-1.279187 HEAD_JOINT1:0.977308,0.181844,-0.000000,0.108639 LARM_JOINT2:0.814126,0.000000,-0.074497,-0.575890 LARM_JOINT3:0.959930,0.000000,-0.200174,-0.196122 LLEG_JOINT2:0.997673,0.025927,0.000000,0.063052 LLEG_JOINT4:0.995320,0.086592,0.000000,-0.042893 RARM_JOINT2:0.782525,0.000000,0.005875,0.622592 RARM_JOINT3:0.949335,0.000000,0.273793,0.154277 RLEG_JOINT2:0.999498,0.003987,0.000000,-0.031417 RLEG_JOINT4:0.993996,0.105758,0.000000,0.028054 WAIST:0.999989,0.000000,-0.001599,-0.004459 WAIST_JOINT0:0.999799,0.000000,-0.010445,0.017110 WAIST_JOINT1:0.996862,0.078285,0.000000,-0.011749 END:
KINECT_DATA_Sensor  AnkleLeft:0.069531,0.709575,-0.089441,-0.695463 AnkleRight:0.073741,0.711419,0.081500,0.694120 ElbowLeft:-0.039417,0.927090,-0.144437,-0.343640 ElbowRight:0.001096,0.866028,0.148145,0.477544 FootLeft:0.000000,0.000000,0.000000,0.000000 FootRight:0.000000,0.000000,0.000000,0.000000 HandLeft:-0.032136,0.771338,0.179054,-0.609873 HandRight:0.185128,-0.432215,-0.216145,0.855686 HandTipLeft:0.000000,0.000000,0.000000,0.000000 HandTipRight:0.000000,0.000000,0.000000,0.000000 Head:0.000000,0.000000,0.000000,0.000000 HipLeft:0.113433,-0.681831,0.701793,-0.172412 HipRight:-0.115749,0.671548,0.707681,-0.186583 KneeLeft:-0.023140,0.707645,-0.059756,-0.703657 KneeRight:-0.022477,0.706272,0.028241,0.707020 Neck:0.008806,-0.018066,0.995319,-0.094526 ShoulderLeft:0.014837,0.783796,-0.615840,0.078638 ShoulderRight:0.027820,0.798510,0.598234,-0.061031 SpineBase:0.001314,-0.014121,0.998480,-0.053267 SpineMid:0.004877,-0.014311,0.998469,-0.053216 SpineShoulder:0.008664,-0.016125,0.997170,-0.072920 ThumbLeft:0.000000,0.000000,0.000000,0.000000 ThumbRight:0.000000,0.000000,0.000000,0.000000 WristLeft:-0.085100,0.767180,0.152248,-0.617262 WristRight:0.105743,-0.449316,-0.137245,0.876412 END:
KINECT_DATA POSITION:20.383102,-4.270018,-1.281691 HEAD_JOINT1:0.977131,0.181563,-0.000000,0.110683 LARM_JOINT2:0.813911,0.000000,-0.074316,-0.576217 LARM_JOINT3:0.958794,0.000000,-0.204064,-0.197665 LLEG_JOINT2:0.997662,0.025368,0.000000,0.063455 LLEG_JOINT4:0.995425,0.084274,0.000000,-0.045025 RARM_JOINT2:0.782014,0.000000,0.004941,0.623242 RARM_JOINT3:0.949104,0.000000,0.273661,0.155922 RLEG_JOINT2:0.999490,0.004656,0.000000,-0.031577 RLEG_JOINT4:0.994011,0.105146,0.000000,0.029788 WAIST:0.999988,0.000000,-0.001923,-0.004600 WAIST_JOINT0:0.999788,0.000000,-0.011865,0.016827 WAIST_JOINT1:0.996878,0.078082,0.000000,-0.011697 END:
KINECT_DATA_Sensor  AnkleLeft:0.073007,0.744319,-0.082547,-0.658669 AnkleRight:0.074716,0.710473,0.080552,0.695095 ElbowLeft:-0.039470,0.926903,-0.143952,-0.344340 ElbowRight:0.001750,0.865161,0.147780,0.479223 FootLeft:0.000000,0.000000,0.000000,0.000000 FootRight:0.000000,0.000000,0.000000,0.000000 HandLeft:-0.008980,-0.609862,-0.197956,0.767334 HandRight:0.203670,-0.483069,-0.199684,0.827822 HandTipLeft:0.000000,0.000000,0.000000,0.000000 HandTipRight:0.000000,0.000000,0.000000,0.000000 Head:0.000000,0.000000,0.000000,0.000000 HipLeft:0.113488,-0.681929,0.701701,-0.172363 HipRight:-0.115481,0.671560,0.707829,-0.186141 KneeLeft:-0.023743,0.707854,-0.059536,-0.703445 KneeRight:-0.022206,0.706026,0.028931,0.707246 Neck:0.010219,-0.018252,0.995327,-0.094269 ShoulderLeft:0.014405,0.783744,-0.615854,0.079133 ShoulderRight:0.029196,0.798196,0.598756,-0.059345 SpineBase:0.001652,-0.014111,0.998486,-0.053146 SpineMid:0.005755,-0.014330,0.998470,-0.053087 SpineShoulder:0.010083,-0.016259,0.997169,-0.072714 ThumbLeft:0.000000,0.000000,0.000000,0.000000 ThumbRight:0.000000,0.000000,0.000000,0.000000 WristLeft:0.047036,-0.600548,-0.168393,0.780240 WristRight:0.113851,-0.501181,-0.130825,0.847786 END:
KINECT_DATA POSITION:20.342880,-4.269011,-1.277184 HEAD_JOINT1:0.977054,0.181293,-0.000000,0.111792 LARM_JOINT2:0.813402,0.000000,-0.073585,-0.577028 LARM_JOINT3:0.960034,0.000000,-0.202837,-0.192850 LLEG_JOINT2:0.997635,0.025567,0.000000,0.063809 LLEG_JOINT4:0.995118,0.087149,0.000000,-0.046312 RARM_JOINT2:0.781771,0.000000,0.004352,0.623551 RARM_JOINT3:0.947257,0.000000,0.279679,0.156476 RLEG_JOINT2:0.999514,0.004465,0.000000,-0.030847 RLEG_JOINT4:0.994340,0.102444,0.000000,0.028169 WAIST:0.999986,0.000000,-0.002636,-0.004680 WAIST_JOINT0:0.999780,0.000000,-0.012663,0.016724 WAIST_JOINT1:0.996944,0.077260,0.000000,-0.011566 END:
KINECT_DATA_Sensor  AnkleLeft:0.075526,0.741295,-0.084205,-0.661579 AnkleRight:0.072019,0.710405,0.079196,0.695605 ElbowLeft:-0.039839,0.926180,-0.142997,-0.346635 ElbowRight:0.001788,0.864929,0.147232,0.479809 FootLeft:0.000000,0.000000,0.000000,0.000000 FootRight:0.000000,0.000000,0.000000,0.000000 HandLeft:-0.053666,0.804344,0.179069,-0.563990 HandRight:0.199983,-0.397344,-0.242218,0.862238 HandTipLeft:0.000000,0.000000,0.000000,0.000000 HandTipRight:0.000000,0.000000,0.000000,0.000000 Head:0.000000,0.000000,0.000000,0.000000 HipLeft:0.114151,-0.681963,0.701549,-0.172408 HipRight:-0.115320,0.671694,0.707926,-0.185387 KneeLeft:-0.023839,0.708369,-0.059852,-0.702896 KneeRight:-0.021866,0.705526,0.028349,0.707779 Neck:0.011029,-0.018161,0.995420,-0.093205 ShoulderLeft:0.013631,0.783523,-0.616156,0.079103 ShoulderRight:0.029431,0.797980,0.599156,-0.058086 SpineBase:0.002373,-0.014117,0.998509,-0.052671 SpineMid:0.006521,-0.014336,0.998491,-0.052612 SpineShoulder:0.010901,-0.016153,0.997216,-0.071981 ThumbLeft:0.000000,0.000000,0.000000,0.000000 ThumbRight:0.000000,0.000000,0.000000,0.000000 WristLeft:-0.095173,0.801988,0.147235,-0.571034 WristRight:0.101613,-0.421014,-0.140931,0.890259 END:
KINECT_DATA POSITION:20.337069,-4.272501,-1.257551 HEAD_JOINT1:0.977033,0.181781,-0.000000,0.111187 LARM_JOINT2:0.813426,0.000000,-0.073085,-0.577058 LARM_JOINT3:0.959845,0.000000,-0.202706,-0.193929 LLEG_JOINT2:0.997629,0.025062,0.000000,0.064095 LLEG_JOINT4:0.995262,0.086878,0.000000,-0.043654 RARM_JOINT2:0.781776,0.000000,0.003716,0.623548 RARM_JOINT3:0.945858,0.000000,0.282936,0.159060 RLEG_JOINT2:0.999530,0.004475,0.000000,-0.030321 RLEG_JOINT4:0.994315,0.102988,0.000000,0.027048 WAIST:0.999985,0.000000,-0.002728,-0.004703 WAIST_JOINT0:0.999777,0.000000,-0.012723,0.016858 WAIST_JOINT1:0.996984,0.076776,0.000000,-0.011308 END:
KINECT_DATA_Sensor  AnkleLeft:0.075114,0.757690,-0.084035,-0.642807 AnkleRight:0.072006,0.710395,0.080013,0.695523 ElbowLeft:-0.040012,0.926164,-0.143225,-0.346564 ElbowRight:0.001742,0.864284,0.147050,0.481026 FootLeft:0.000000,0.000000,0.000000,0.000000 FootRight:0.000000,0.000000,0.000000,0.000000 HandLeft:-0.010248,-0.579143,-0.188329,0.793108 HandRight:0.266935,-0.576436,-0.194028,0.747543 HandTipLeft:0.000000,0.000000,0.000000,0.000000 HandTipRight:0.000000,0.000000,0.000000,0.000000 Head:0.000000,0.000000,0.000000,0.000000 HipLeft:0.114455,-0.681992,0.701492,-0.172327 HipRight:-0.115599,0.671746,0.707901,-0.185126 KneeLeft:-0.024389,0.708416,-0.059676,-0.702845 KneeRight:-0.021504,0.705456,0.028002,0.707874 Neck:0.011084,-0.017900,0.995480,-0.092605 ShoulderLeft:0.013162,0.783322,-0.616440,0.078964 ShoulderRight:0.029012,0.798051,0.599103,-0.057859 SpineBase:0.002475,-0.013968,0.998530,-0.052317 SpineMid:0.006601,-0.014184,0.998511,-0.052259 SpineShoulder:0.010961,-0.015911,0.997251,-0.071538 ThumbLeft:0.000000,0.000000,0.000000,0.000000 ThumbRight:0.000000,0.000000,0.000000,0.000000 WristLeft:0.041811,-0.570249,-0.170272,0.802543 WristRight:0.130460,-0.602780,-0.116602,0.778486 END:
KINECT_DATA POSITION:20.375967,-4.248478,-1.223826 HEAD_JOINT1:0.977044,0.181447,-0.000000,0.111631 LARM_JOINT2:0.813460,0.000000,-0.072799,-0.577047 LARM_JOINT3:0.960011,0.000000,-0.202793,-0.193014 LLEG_JOINT2:0.997703,0.026441,0.000000,0.062364 LLEG_JOINT4:0.995541,0.084008,0.000000,-0.042910 RARM_JOINT2:0.782201,0.000000,0.001834,0.623023 RARM_JOINT3:0.927540,0.000000,0.327556,0.179932 RLEG_JOINT2:0.999508,0.004408,0.000000,-0.031039 RLEG_JOINT4:0.994122,0.104853,0.000000,0.026976 WAIST:0.999986,0.000000,-0.003232,-0.004068 WAIST_JOINT0:0.999774,0.000000,-0.012867,0.016906 WAIST_JOINT1:0.997013,0.076336,0.000000,-0.011707 END:
KINECT_DATA_Sensor  AnkleLeft:0.068126,0.711057,-0.087885,-0.694287 AnkleRight:0.075764,0.731422,0.078980,0.673085 ElbowLeft:-0.040457,0.926057,-0.143382,-0.346732 ElbowRight:0.002282,0.863246,0.147943,0.482611 FootLeft:0.000000,0.000000,0.000000,0.000000 FootRight:0.000000,0.000000,0.000000,0.000000 HandLeft:-0.047980,0.785659,0.182563,-0.589159 HandRight:0.291370,-0.312891,-0.348839,0.833975 HandTipLeft:0.000000,0.000000,0.000000,0.000000 HandTipRight:0.000000,0.000000,0.000000,0.000000 Head:0.000000,0.000000,0.000000,0.000000 HipLeft:0.114874,-0.681596,0.701845,-0.172175 HipRight:-0.115630,0.672382,0.707504,-0.184308 KneeLeft:-0.022664,0.708837,-0.059868,-0.702462 KneeRight:-0.021596,0.705098,0.028023,0.708227 Neck:0.011248,-0.017520,0.995533,-0.092095 ShoulderLeft:0.012901,0.783204,-0.616623,0.078747 ShoulderRight:0.028922,0.798033,0.599174,-0.057427 SpineBase:0.002946,-0.013386,0.998566,-0.051755 SpineMid:0.006934,-0.013592,0.998546,-0.051701 SpineShoulder:0.011121,-0.015641,0.997282,-0.071141 ThumbLeft:0.000000,0.000000,0.000000,0.000000 ThumbRight:0.000000,0.000000,0.000000,0.000000 WristLeft:-0.091115,0.783339,0.149429,-0.596446 WristRight:0.117440,-0.372999,-0.162485,0.905913 END:
KINECT_DATA POSITION:20.633074,-4.193152,-1.110613 HEAD_JOINT1:0.977056,0.180936,-0.000000,0.112357 LARM_JOINT2:0.813024,0.000000,-0.072944,-0.577643 LARM_JOINT3:0.959780,0.000000,-0.204095,-0.192790 LLEG_JOINT2:0.997925,0.027767,0.000000,0.058097 LLEG_JOINT4:0.995491,0.085956,0.000000,-0.040106 RARM_JOINT2:0.784229,0.000000,-0.002884,0.620465 RARM_JOINT3:0.902945,0.000000,0.383670,0.193618 RLEG_JOINT2:0.999379,0.005394,0.000000,-0.034825 RLEG_JOINT4:0.994115,0.104453,0.000000,0.028725 WAIST:0.999990,0.000000,-0.002822,-0.003464 WAIST_JOINT0:0.999779,0.000000,-0.013036,0.016498 WAIST_JOINT1:0.997078,0.075610,0.000000,-0.010928 END:
KINECT_DATA_Sensor  AnkleLeft:0.078181,0.764948,-0.083431,-0.633862 AnkleRight:0.077109,0.747295,0.078624,0.655303 ElbowLeft:-0.041440,0.925587,-0.143681,-0.347746 ElbowRight:0.002688,0.859254,0.151042,0.488735 FootLeft:0.000000,0.000000,0.000000,0.000000 FootRight:0.000000,0.000000,0.000000,0.000000 HandLeft:-0.054269,0.791443,0.185224,-0.579970 HandRight:0.274780,-0.236209,-0.448265,0.817166 HandTipLeft:0.000000,0.000000,0.000000,0.000000 HandTipRight:0.000000,0.000000,0.000000,0.000000 Head:0.000000,0.000000,0.000000,0.000000 HipLeft:0.114799,-0.681363,0.702183,-0.171768 HipRight:-0.117593,0.673319,0.706708,-0.182694 KneeLeft:-0.019097,0.708760,-0.058234,-0.702783 KneeRight:-0.023154,0.705135,0.030965,0.708018 Neck:0.011547,-0.016354,0.995627,-0.091251 ShoulderLeft:0.012184,0.783310,-0.616528,0.078548 ShoulderRight:0.028484,0.797708,0.599674,-0.056928 SpineBase:0.002649,-0.010121,0.998683,-0.050233 SpineMid:0.007046,-0.010342,0.998661,-0.050188 SpineShoulder:0.011464,-0.014306,0.997347,-0.070441 ThumbLeft:0.000000,0.000000,0.000000,0.000000 ThumbRight:0.000000,0.000000,0.000000,0.000000 WristLeft:-0.094206,0.789953,0.148176,-0.587489 WristRight:0.139850,-0.298007,-0.204070,0.921948 END:
KINECT_DATA POSITION:20.917353,-4.176447,-0.945950 HEAD_JOINT1:0.977000,0.180686,-0.000000,0.113243 LARM_JOINT2:0.812194,0.000000,-0.072912,-0.578813 LARM_JOINT3:0.959569,0.000000,-0.204053,-0.193880 LLEG_JOINT2:0.998180,0.029970,0.000000,0.052328 LLEG_JOINT4:0.996042,0.081731,0.000000,-0.034928 RARM_JOINT2:0.788007,0.000000,-0.008326,0.615610 RARM_JOINT3:0.882476,0.000000,0.406422,0.236765 RLEG_JOINT2:0.999169,0.007804,0.000000,-0.040005 RLEG_JOINT4:0.994230,0.102595,0.000000,0.031312 WAIST:0.999995,0.000000,-0.002600,-0.001977 WAIST_JOINT0:0.999798,0.000000,-0.012674,0.015607 WAIST_JOINT1:0.997170,0.074457,0.000000,-0.010386 END:
KINECT_DATA_Sensor  AnkleLeft:0.069035,0.710887,-0.088805,-0.694254 AnkleRight:0.072320,0.710369,0.083875,0.695062 ElbowLeft:-0.042490,0.925508,-0.143912,-0.347734 ElbowRight:0.000920,0.851192,0.156133,0.501093 FootLeft:0.000000,0.000000,0.000000,0.000000 FootRight:0.000000,0.000000,0.000000,0.000000 HandLeft:-0.055830,0.800063,0.187918,-0.566982 HandRight:0.237655,-0.009775,-0.416106,0.877656 HandTipLeft:0.000000,0.000000,0.000000,0.000000 HandTipRight:0.000000,0.000000,0.000000,0.000000 Head:0.000000,0.000000,0.000000,0.000000 HipLeft:0.115311,-0.680591,0.702989,-0.171191 HipRight:-0.119384,0.674819,0.705354,-0.181225 KneeLeft:-0.014488,0.708730,-0.056776,-0.703042 KneeRight:-0.024051,0.705155,0.035280,0.707767 Neck:0.011396,-0.015234,0.995703,-0.090633 ShoulderLeft:0.010902,0.783590,-0.616274,0.077935 ShoulderRight:0.026913,0.796969,0.600743,-0.056771 SpineBase:0.002423,-0.007407,0.998791,-0.048530 SpineMid:0.006965,-0.007628,0.998770,-0.048496 SpineShoulder:0.011454,-0.012031,0.997469,-0.069128 ThumbLeft:0.000000,0.000000,0.000000,0.000000 ThumbRight:0.000000,0.000000,0.000000,0.000000 WristLeft:-0.097495,0.798938,0.146658,-0.575052 WristRight:0.108967,-0.057755,-0.283959,0.950872 END:
KINECT_DATA POSITION:21.297777,-4.182085,-0.528908 HEAD_JOINT1:0.977097,0.180075,-0.000000,0.113379 LARM_JOINT2:0.810671,0.000000,-0.071377,-0.581135 LARM_JOINT3:0.959325,0.000000,-0.203780,-0.195368 LLEG_JOINT2:0.998459,0.034965,0.000000,0.043090 LLEG_JOINT4:0.996421,0.078975,0.000000,-0.030132 RARM_JOINT2:0.795100,0.000000,-0.008722,0.606415 RARM_JOINT3:0.856975,0.000000,0.440722,0.267128 RLEG_JOINT2:0.998703,0.013976,0.000000,-0.048949 RLEG_JOINT4:0.994677,0.096894,0.000000,0.035054 WAIST:0.999999,0.000000,-0.000177,0.001474 WAIST_JOINT0:0.999819,0.000000,-0.011787,0.014967 WAIST_JOINT1:0.997354,0.071896,0.000000,-0.010776 END:
KINECT_DATA_Sensor  AnkleLeft:0.077405,0.754557,-0.084487,-0.646154 AnkleRight:0.074534,0.738570,0.082725,0.664918 ElbowLeft:-0.043231,0.924520,-0.144083,-0.350191 ElbowRight:-0.005865,0.851633,0.162230,0.498366 FootLeft:0.000000,0.000000,0.000000,0.000000 FootRight:0.000000,0.000000,0.000000,0.000000 HandLeft:-0.053616,0.790177,0.188639,-0.580655 HandRight:0.330677,-0.145109,-0.356751,0.861582 HandTipLeft:0.000000,0.000000,0.000000,0.000000 HandTipRight:0.000000,0.000000,0.000000,0.000000 Head:0.000000,0.000000,0.000000,0.000000 HipLeft:0.116698,-0.679054,0.704912,-0.168424 HipRight:-0.125012,0.677608,0.702007,-0.180017 KneeLeft:-0.006716,0.707063,-0.056243,-0.704878 KneeRight:-0.023638,0.706825,0.043481,0.705655 Neck:0.010747,-0.013793,0.995821,-0.089633 ShoulderLeft:0.009052,0.783900,-0.616214,0.075496 ShoulderRight:0.024116,0.796413,0.601709,-0.055594 SpineBase:-0.000105,-0.003405,0.999014,-0.044260 SpineMid:0.005522,-0.003654,0.998999,-0.044240 SpineShoulder:0.011003,-0.008874,0.997718,-0.066030 ThumbLeft:0.000000,0.000000,0.000000,0.000000 ThumbRight:0.000000,0.000000,0.000000,0.000000 WristLeft:-0.096746,0.788579,0.149109,-0.588685 WristRight:0.190566,-0.196420,-0.306766,0.911591 END:
KINECT_DATA POSITION:21.282108,-4.176880,-0.508010 HEAD_JOINT1:0.977328,0.179380,-0.000000,0.112490 LARM_JOINT2:0.809891,0.000000,-0.071371,-0.582222 LARM_JOINT3:0.959524,0.000000,-0.201440,-0.196815 LLEG_JOINT2:0.998450,0.034681,0.000000,0.043518 LLEG_JOINT4:0.995999,0.083966,0.000000,-0.030582 RARM_JOINT2:0.797323,0.000000,-0.004021,0.603539 RARM_JOINT3:0.842394,0.000000,0.478218,0.248355 RLEG_JOINT2:0.998719,0.013236,0.000000,-0.048835 RLEG_JOINT4:0.994562,0.097374,0.000000,0.036950 WAIST:0.999999,-0.000000,0.000374,0.000966 WAIST_JOINT0:0.999843,0.000000,-0.010513,0.014288 WAIST_JOINT1:0.997401,0.071419,0.000000,-0.009472 END:
KINECT_DATA_Sensor  AnkleLeft:0.081871,0.757300,-0.086597,-0.642102 AnkleRight:0.071952,0.711529,0.084437,0.693844 ElbowLeft:-0.043526,0.923876,-0.143414,-0.352123 ElbowRight:-0.013473,0.844450,0.162297,0.510277 FootLeft:0.000000,0.000000,0.000000,0.000000 FootRight:0.000000,0.000000,0.000000,0.000000 HandLeft:-0.016419,-0.580405,-0.192525,0.791072 HandRight:0.311738,-0.192253,-0.401341,0.839514 HandTipLeft:0.000000,0.000000,0.000000,0.000000 HandTipRight:0.000000,0.000000,0.000000,0.000000 Head:0.000000,0.000000,0.000000,0.000000 HipLeft:0.116101,-0.679329,0.704749,-0.168408 HipRight:-0.125003,0.677049,0.702407,-0.180563 KneeLeft:-0.006830,0.706696,-0.055989,-0.705265 KneeRight:-0.024466,0.707172,0.043222,0.705295 Neck:0.009698,-0.012233,0.995932,-0.088743 ShoulderLeft:0.009221,0.783967,-0.616227,0.074663 ShoulderRight:0.022779,0.795681,0.602625,-0.056710 SpineBase:-0.000625,-0.003662,0.998992,-0.044727 SpineMid:0.004674,-0.003900,0.998982,-0.044707 SpineShoulder:0.009876,-0.008314,0.997756,-0.065699 ThumbLeft:0.000000,0.000000,0.000000,0.000000 ThumbRight:0.000000,0.000000,0.000000,0.000000 WristLeft:0.047022,-0.568662,-0.171675,0.803082 WristRight:0.209211,-0.232484,-0.323906,0.892898 END:
KINECT_DATA POSITION:21.225538,-4.179851,-0.396740 HEAD_JOINT1:0.977365,0.179899,-0.000000,0.111328 LARM_JOINT2:0.809161,0.000000,-0.070459,-0.583347 LARM_JOINT3:0.959147,0.000000,-0.203602,-0.196427 LLEG_JOINT2:0.998414,0.035092,0.000000,0.044012 LLEG_JOINT4:0.996351,0.080438,0.000000,-0.028520 RARM_JOINT2:0.798004,0.000000,-0.002171,0.602649 RARM_JOINT3:0.832373,0.000000,0.504877,0.228592 RLEG_JOINT2:0.998780,0.014826,0.000000,-0.047109 RLEG_JOINT4:0.994566,0.097420,0.000000,0.036709 WAIST:0.999998,-0.000000,0.001943,0.000469 WAIST_JOINT0:0.999865,0.000000,-0.008854,0.013813 WAIST_JOINT1:0.997470,0.070570,0.000000,-0.008624 END:
KINECT_DATA_Sensor  AnkleLeft:0.074882,0.731051,-0.089057,-0.672328 AnkleRight:0.073628,0.712147,0.085019,0.692963 ElbowLeft:-0.042960,0.923475,-0.142665,-0.353547 ElbowRight:-0.019765,0.833550,0.161298,0.528002 FootLeft:0.000000,0.000000,0.000000,0.000000 FootRight:0.000000,0.000000,0.000000,0.000000 HandLeft:-0.012374,-0.570789,-0.199668,0.796354 HandRight:0.311891,-0.196624,-0.437008,0.820419 HandTipLeft:0.000000,0.000000,0.000000,0.000000 HandTipRight:0.000000,0.000000,0.000000,0.000000 Head:0.000000,0.000000,0.000000,0.000000 HipLeft:0.115090,-0.679860,0.704667,-0.167303 HipRight:-0.125527,0.676410,0.702702,-0.181443 KneeLeft:-0.006448,0.705616,-0.056287,-0.706326 KneeRight:-0.022538,0.708334,0.043441,0.704179 Neck:0.008228,-0.011606,0.996071,-0.087409 ShoulderLeft:0.009405,0.784504,-0.615717,0.073195 ShoulderRight:0.020986,0.795433,0.602918,-0.057751 SpineBase:-0.002178,-0.004410,0.998983,-0.044827 SpineMid:0.003104,-0.004647,0.998980,-0.044804 SpineShoulder:0.008361,-0.008187,0.997817,-0.064994 ThumbLeft:0.000000,0.000000,0.000000,0.000000 ThumbRight:0.000000,0.000000,0.000000,0.000000 WristLeft:0.045018,-0.560599,-0.172778,0.808610 WristRight:0.213103,-0.239711,-0.349313,0.880401 END:
KINECT_DATA POSITION:21.161621,-4.183232,-0.301039 HEAD_JOINT1:0.977760,0.178872,-0.000000,0.109503 LARM_JOINT2:0.808547,0.000000,-0.071001,-0.584132 LARM_JOINT3:0.959862,0.000000,-0.200339,-0.196286 LLEG_JOINT2:0.998302,0.035992,0.000000,0.045802 LLEG_JOINT4:0.996236,0.080755,0.000000,-0.031516 RARM_JOINT2:0.798814,0.000000,0.000153,0.601578 RARM_JOINT3:0.821381,0.000000,0.523315,0.226881 RLEG_JOINT2:0.998841,0.016117,0.000000,-0.045350 RLEG_JOINT4:0.994845,0.094841,0.000000,0.035904 WAIST:0.999992,0.000000,0.004071,-0.000516 WAIST_JOINT0:0.999882,0.000000,-0.007093,0.013620 WAIST_JOINT1:0.997487,0.070516,0.000000,-0.006888 END:
KINECT_DATA_Sensor  AnkleLeft:0.079036,0.741668,-0.086643,-0.660436 AnkleRight:0.072432,0.713283,0.084367,0.692000 ElbowLeft:-0.042946,0.922825,-0.142334,-0.355374 ElbowRight:-0.026061,0.821260,0.160083,0.547015 FootLeft:0.000000,0.000000,0.000000,0.000000 FootRight:0.000000,0.000000,0.000000,0.000000 HandLeft:-0.056703,0.832562,0.181894,-0.520134 HandRight:0.330344,-0.201058,-0.404333,0.828833 HandTipLeft:0.000000,0.000000,0.000000,0.000000 HandTipRight:0.000000,0.000000,0.000000,0.000000 Head:0.000000,0.000000,0.000000,0.000000 HipLeft:0.113501,-0.680661,0.704354,-0.166444 HipRight:-0.126641,0.675345,0.703191,-0.182740 KneeLeft:0.006247,-0.704181,0.057511,0.707660 KneeRight:-0.021169,0.709805,0.043764,0.702718 Neck:0.006442,-0.010579,0.996131,-0.087000 ShoulderLeft:0.011577,0.784434,-0.616012,0.071126 ShoulderRight:0.020807,0.795297,0.603020,-0.058616 SpineBase:-0.004214,-0.004520,0.998958,-0.045210 SpineMid:0.001152,-0.004762,0.998967,-0.045185 SpineShoulder:0.006533,-0.007741,0.997831,-0.065048 ThumbLeft:0.000000,0.000000,0.000000,0.000000 ThumbRight:0.000000,0.000000,0.000000,0.000000 WristLeft:-0.109022,0.829825,0.141372,-0.528695 WristRight:0.227148,-0.249496,-0.383113,0.859873 END:
KINECT_DATA POSITION:21.093229,-4.202162,-0.151908 HEAD_JOINT1:0.977267,0.181559,-0.000000,0.109477 LARM_JOINT2:0.808407,0.000000,-0.070584,-0.584376 LARM_JOINT3:0.959413,0.000000,-0.202424,-0.196343 LLEG_JOINT2:0.998230,0.036609,0.000000,0.046861 LLEG_JOINT4:0.996446,0.078667,0.000000,-0.030119 RARM_JOINT2:0.797911,0.000000,0.005068,0.602753 RARM_JOINT3:0.820636,0.000000,0.521260,0.234188 RLEG_JOINT2:0.998870,0.016993,0.000000,-0.044378 RLEG_JOINT4:0.994625,0.096612,0.000000,0.037255 WAIST:0.999979,0.000000,0.006459,-0.000982 WAIST_JOINT0:0.999896,0.000000,-0.005062,0.013528 WAIST_JOINT1:0.997531,0.069987,0.000000,-0.005771 END:
KINECT_DATA_Sensor  AnkleLeft:0.072390,0.706265,-0.090740,-0.698367 AnkleRight:0.075329,0.713917,0.085141,0.690940 ElbowLeft:-0.042741,0.922325,-0.142807,-0.356504 ElbowRight:-0.024911,0.836604,0.156426,0.524409 FootLeft:0.000000,0.000000,0.000000,0.000000 FootRight:0.000000,0.000000,0.000000,0.000000 HandLeft:-0.021137,-0.526086,-0.196607,0.827123 HandRight:0.319759,-0.197380,-0.426091,0.822947 HandTipLeft:0.000000,0.000000,0.000000,0.000000 HandTipRight:0.000000,0.000000,0.000000,0.000000 Head:0.000000,0.000000,0.000000,0.000000 HipLeft:0.112218,-0.681308,0.704285,-0.164950 HipRight:-0.128391,0.674713,0.703186,-0.183867 KneeLeft:0.006077,-0.702524,0.058384,0.709235 KneeRight:-0.020296,0.711471,0.043982,0.701044 Neck:0.004526,-0.009851,0.996208,-0.086325 ShoulderLeft:0.011972,0.784414,-0.616194,0.069687 ShoulderRight:0.018683,0.795065,0.603230,-0.060298 SpineBase:-0.006555,-0.004517,0.998960,-0.044893 SpineMid:-0.001005,-0.004767,0.998981,-0.044867 SpineShoulder:0.004590,-0.007363,0.997876,-0.064556 ThumbLeft:0.000000,0.000000,0.000000,0.000000 ThumbRight:0.000000,0.000000,0.000000,0.000000 WristLeft:0.036942,-0.515591,-0.174502,0.838064 WristRight:0.239155,-0.232251,-0.369544,0.867353 END:
KINECT_DATA POSITION:21.042416,-4.214534,-0.045288 HEAD_JOINT1:0.977010,0.182728,-0.000000,0.109828 LARM_JOINT2:0.808510,0.000000,-0.070823,-0.584205 LARM_JOINT3:0.958871,0.000000,-0.202741,-0.198650 LLEG_JOINT2:0.998353,0.033977,0.000000,0.046223 LLEG_JOINT4:0.996295,0.081851,0.000000,-0.026377 RARM_JOINT2:0.795463,0.000000,0.013069,0.605861 RARM_JOINT3:0.822954,0.000000,0.525660,0.215473 RLEG_JOINT2:0.998858,0.017168,0.000000,-0.044584 RLEG_JOINT4:0.994570,0.097122,0.000000,0.037378 WAIST:0.999973,0.000000,0.007286,-0.000806 WAIST_JOINT0:0.999899,0.000000,-0.004523,0.013490 WAIST_JOINT1:0.997566,0.069491,0.000000,-0.005707 END:
KINECT_DATA_Sensor  AnkleLeft:0.078080,0.760871,-0.087290,-0.638247 AnkleRight:0.075781,0.714176,0.085639,0.690562 ElbowLeft:-0.043091,0.922784,-0.143084,-0.355160 ElbowRight:-0.028999,0.835745,0.148994,0.527722 FootLeft:0.000000,0.000000,0.000000,0.000000 FootRight:0.000000,0.000000,0.000000,0.000000 HandLeft:-0.038569,0.753450,0.200810,-0.624901 HandRight:0.308304,-0.211759,-0.438569,0.817168 HandTipLeft:0.000000,0.000000,0.000000,0.000000 HandTipRight:0.000000,0.000000,0.000000,0.000000 Head:0.000000,0.000000,0.000000,0.000000 HipLeft:0.111959,-0.681412,0.704429,-0.164081 HipRight:-0.129064,0.674804,0.702928,-0.184048 KneeLeft:0.007592,-0.701895,0.056214,0.710018 KneeRight:-0.020231,0.712063,0.044111,0.700437 Neck:0.004067,-0.009553,0.996261,-0.085771 ShoulderLeft:0.011654,0.784728,-0.615859,0.069167 ShoulderRight:0.017736,0.795209,0.603043,-0.060562 SpineBase:-0.007397,-0.004586,0.998974,-0.044443 SpineMid:-0.001672,-0.004841,0.999000,-0.044416 SpineShoulder:0.004117,-0.007240,0.997910,-0.064073 ThumbLeft:0.000000,0.000000,0.000000,0.000000 ThumbRight:0.000000,0.000000,0.000000,0.000000 WristLeft:-0.089587,0.752384,0.154026,-0.634168 WristRight:0.244410,-0.238239,-0.374035,0.862325 END:
KINECT_DATA POSITION:20.939070,-4.228377,0.093377 HEAD_JOINT1:0.977156,0.182712,-0.000000,0.108545 LARM_JOINT2:0.808279,0.000000,-0.071390,-0.584457 LARM_JOINT3:0.959750,0.000000,-0.199615,-0.197570 LLEG_JOINT2:0.998262,0.035988,0.000000,0.046658 LLEG_JOINT4:0.996335,0.080964,0.000000,-0.027593 RARM_JOINT2:0.791303,0.000000,0.024960,0.610915 RARM_JOINT3:0.827339,0.000000,0.527788,0.192225 RLEG_JOINT2:0.998855,0.017855,0.000000,-0.044381 RLEG_JOINT4:0.994374,0.098499,0.000000,0.038971 WAIST:0.999959,0.000000,0.009017,-0.000710 WAIST_JOINT0:0.999903,0.000000,-0.002313,0.013742 WAIST_JOINT1:0.997600,0.069006,0.000000,-0.005719 END:
KINECT_DATA_Sensor  AnkleLeft:0.075156,0.727397,-0.091107,-0.675977 AnkleRight:0.079219,0.721490,0.085139,0.682589 ElbowLeft:-0.043640,0.922079,-0.142542,-0.357138 ElbowRight:-0.034856,0.832996,0.137515,0.534782 FootLeft:0.000000,0.000000,0.000000,0.000000 FootRight:0.000000,0.000000,0.000000,0.000000 HandLeft:-0.037280,0.764597,0.189913,-0.614763 HandRight:0.287687,-0.196915,-0.455954,0.818881 HandTipLeft:0.000000,0.000000,0.000000,0.000000 HandTipRight:0.000000,0.000000,0.000000,0.000000 Head:0.000000,0.000000,0.000000,0.000000 HipLeft:0.111192,-0.681678,0.704614,-0.162697 HipRight:-0.130215,0.674651,0.702641,-0.184893 KneeLeft:0.006422,-0.700683,0.058014,0.711082 KneeRight:-0.019611,0.713303,0.044359,0.699176 Neck:0.001939,-0.009377,0.996320,-0.085173 ShoulderLeft:0.011469,0.784600,-0.616139,0.068143 ShoulderRight:0.014798,0.795256,0.602823,-0.062881 SpineBase:-0.009145,-0.004933,0.998975,-0.044065 SpineMid:-0.003635,-0.005176,0.999010,-0.044037 SpineShoulder:0.001963,-0.007296,0.997946,-0.063614 ThumbLeft:0.000000,0.000000,0.000000,0.000000 ThumbRight:0.000000,0.000000,0.000000,0.000000 WristLeft:-0.092965,0.761231,0.152754,-0.623338 WristRight:0.235939,-0.217550,-0.389390,0.863354 END:
KINECT_DATA POSITION:20.902189,-4.237555,0.164747 HEAD_JOINT1:0.977302,0.182733,-0.000000,0.107190 LARM_JOINT2:0.808236,0.000000,-0.072198,-0.584416 LARM_JOINT3:0.959620,0.000000,-0.199770,-0.198045 LLEG_JOINT2:0.998223,0.036672,0.000000,0.046958 LLEG_JOINT4:0.996299,0.081685,0.000000,-0.026765 RARM_JOINT2:0.789206,0.000000,0.030740,0.613359 RARM_JOINT3:0.832403,0.000000,0.523673,0.181306 RLEG_JOINT2:0.998852,0.019789,0.000000,-0.043615 RLEG_JOINT4:0.994422,0.098325,0.000000,0.038163 WAIST:0.999948,0.000000,0.010128,-0.000711 WAIST_JOINT0:0.999906,0.000000,-0.000095,0.013689 WAIST_JOINT1:0.997604,0.068982,0.000000,-0.005325 END:
KINECT_DATA_Sensor  AnkleLeft:0.072435,0.703611,-0.095249,-0.700437 AnkleRight:0.079570,0.715990,0.087197,0.688058 ElbowLeft:-0.043852,0.922607,-0.142770,-0.355654 ElbowRight:-0.036904,0.832951,0.131740,0.536167 FootLeft:0.000000,0.000000,0.000000,0.000000 FootRight:0.000000,0.000000,0.000000,0.000000 HandLeft:-0.009409,-0.585952,-0.197133,0.785946 HandRight:0.258640,-0.167551,-0.464506,0.830220 HandTipLeft:0.000000,0.000000,0.000000,0.000000 HandTipRight:0.000000,0.000000,0.000000,0.000000 Head:0.000000,0.000000,0.000000,0.000000 HipLeft:0.110318,-0.681851,0.704758,-0.161944 HipRight:-0.130710,0.674532,0.702546,-0.185339 KneeLeft:0.006074,-0.699900,0.058714,0.711797 KneeRight:-0.017755,0.714112,0.045181,0.698346 Neck:-0.000186,-0.008863,0.996332,-0.085115 ShoulderLeft:0.012406,0.784564,-0.616311,0.066826 ShoulderRight:0.012980,0.794971,0.603019,-0.064975 SpineBase:-0.010250,-0.004853,0.998964,-0.044081 SpineMid:-0.005257,-0.005074,0.999002,-0.044056 SpineShoulder:-0.000173,-0.006948,0.997950,-0.063613 ThumbLeft:0.000000,0.000000,0.000000,0.000000 ThumbRight:0.000000,0.000000,0.000000,0.000000 WristLeft:0.050252,-0.575120,-0.170903,0.798438 WristRight:0.218956,-0.181475,-0.399513,0.871501 END:
KINECT_DATA POSITION:20.890274,-4.239194,0.180435 HEAD_JOINT1:0.977309,0.183400,-0.000000,0.105978 LARM_JOINT2:0.808326,0.000000,-0.073122,-0.584177 LARM_JOINT3:0.959750,0.000000,-0.199065,-0.198123 LLEG_JOINT2:0.998185,0.037728,0.000000,0.046937 LLEG_JOINT4:0.996305,0.081285,0.000000,-0.027721 RARM_JOINT2:0.788562,0.000000,0.037378,0.613819 RARM_JOINT3:0.839179,0.000000,0.516795,0.169416 RLEG_JOINT2:0.998828,0.021222,0.000000,-0.043490 RLEG_JOINT4:0.994485,0.097246,0.000000,0.039276 WAIST:0.999950,0.000000,0.009919,-0.000836 WAIST_JOINT0:0.999905,-0.000000,0.000428,0.013763 WAIST_JOINT1:0.997590,0.069214,0.000000,-0.004777 END:
KINECT_DATA_Sensor  AnkleLeft:0.073567,0.703131,-0.094975,-0.700838 AnkleRight:0.081554,0.723250,0.085753,0.680371 ElbowLeft:-0.044187,0.923631,-0.143234,-0.352756 ElbowRight:-0.040140,0.833390,0.127742,0.536220 FootLeft:0.000000,0.000000,0.000000,0.000000 FootRight:0.000000,0.000000,0.000000,0.000000 HandLeft:-0.041531,0.764386,0.192476,-0.613956 HandRight:0.243197,-0.167819,-0.467590,0.833098 HandTipLeft:0.000000,0.000000,0.000000,0.000000 HandTipRight:0.000000,0.000000,0.000000,0.000000 Head:0.000000,0.000000,0.000000,0.000000 HipLeft:0.110186,-0.681862,0.704695,-0.162259 HipRight:-0.130521,0.674479,0.702662,-0.185225 KneeLeft:0.005225,-0.700073,0.059349,0.711582 KneeRight:-0.016739,0.713965,0.046208,0.698454 Neck:-0.000666,-0.008314,0.996318,-0.085329 ShoulderLeft:0.012331,0.784412,-0.616481,0.067062 ShoulderRight:0.012260,0.794877,0.603048,-0.065981 SpineBase:-0.010019,-0.004566,0.998958,-0.044292 SpineMid:-0.005379,-0.004771,0.998994,-0.044270 SpineShoulder:-0.000650,-0.006488,0.997937,-0.063871 ThumbLeft:0.000000,0.000000,0.000000,0.000000 ThumbRight:0.000000,0.000000,0.000000,0.000000 WristLeft:-0.091922,0.762268,0.151674,-0.622490 WristRight:0.211719,-0.176695,-0.397158,0.875340 END:
KINECT_DATA POSITION:20.872780,-4.242793,0.196433 HEAD_JOINT1:0.977467,0.183002,-0.000000,0.105203 LARM_JOINT2:0.808168,0.000000,-0.073810,-0.584309 LARM_JOINT3:0.960179,0.000000,-0.195833,-0.199265 LLEG_JOINT2:0.998144,0.038815,0.000000,0.046934 LLEG_JOINT4:0.996476,0.078141,0.000000,-0.030485 RARM_JOINT2:0.786640,0.000000,0.045904,0.615703 RARM_JOINT3:0.840314,0.000000,0.517266,0.162197 RLEG_JOINT2:0.998818,0.021352,0.000000,-0.043669 RLEG_JOINT4:0.994652,0.094985,0.000000,0.040571 WAIST:0.999947,0.000000,0.010212,-0.000943 WAIST_JOINT0:0.999901,-0.000000,0.000966,0.014003 WAIST_JOINT1:0.997600,0.069105,0.000000,-0.004234 END:
KINECT_DATA_Sensor  AnkleLeft:0.074011,0.702661,-0.091520,-0.701722 AnkleRight:0.079810,0.716425,0.084427,0.687923 ElbowLeft:-0.044453,0.924415,-0.143293,-0.350639 ElbowRight:-0.044173,0.832280,0.120886,0.539208 FootLeft:0.000000,0.000000,0.000000,0.000000 FootRight:0.000000,0.000000,0.000000,0.000000 HandLeft:-0.035177,0.772226,0.185866,-0.606534 HandRight:0.257182,-0.165153,-0.475496,0.824915 HandTipLeft:0.000000,0.000000,0.000000,0.000000 HandTipRight:0.000000,0.000000,0.000000,0.000000 Head:0.000000,0.000000,0.000000,0.000000 HipLeft:0.109806,-0.681997,0.704670,-0.162057 HipRight:-0.130642,0.674442,0.702690,-0.185169 KneeLeft:0.004348,-0.699887,0.060032,0.711713 KneeRight:-0.016865,0.714151,0.046497,0.698242 Neck:-0.001217,-0.007798,0.996335,-0.085169 ShoulderLeft:0.012680,0.784242,-0.616745,0.066560 ShoulderRight:0.011879,0.795010,0.602840,-0.066345 SpineBase:-0.010291,-0.004309,0.998957,-0.044283 SpineMid:-0.005791,-0.004509,0.998993,-0.044263 SpineShoulder:-0.001203,-0.006078,0.997944,-0.063791 ThumbLeft:0.000000,0.000000,0.000000,0.000000 ThumbRight:0.000000,0.000000,0.000000,0.000000 WristLeft:-0.092720,0.768382,0.151180,-0.614928 WristRight:0.211795,-0.182051,-0.398287,0.873709 END:
KINECT_DATA POSITION:20.836222,-4.252409,0.185382 HEAD_JOINT1:0.977512,0.183037,-0.000000,0.104726 LARM_JOINT2:0.807640,0.000000,-0.073423,-0.585087 LARM_JOINT3:0.960420,0.000000,-0.195523,-0.198402 LLEG_JOINT2:0.998124,0.038662,0.000000,0.047468 LLEG_JOINT4:0.996674,0.076991,0.000000,-0.026727 RARM_JOINT2:0.785496,0.000000,0.050218,0.616825 RARM_JOINT3:0.840544,0.000000,0.518511,0.156944 RLEG_JOINT2:0.998851,0.020934,0.000000,-0.043103 RLEG_JOINT4:0.994307,0.097956,0.000000,0.041919 WAIST:0.999948,0.000000,0.010138,-0.001258 WAIST_JOINT0:0.999897,-0.000000,0.001600,0.014272 WAIST_JOINT1:0.997608,0.069014,0.000000,-0.003877 END:
KINECT_DATA_Sensor  AnkleLeft:0.070333,0.702960,-0.093518,-0.701537 AnkleRight:0.083392,0.721165,0.084452,0.682521 ElbowLeft:-0.044368,0.923388,-0.142450,-0.353685 ElbowRight:-0.045838,0.832875,0.117448,0.538910 FootLeft:0.000000,0.000000,0.000000,0.000000 FootRight:0.000000,0.000000,0.000000,0.000000 HandLeft:-0.023044,-0.561097,-0.187643,0.805872 HandRight:0.274450,-0.198414,-0.471978,0.813969 HandTipLeft:0.000000,0.000000,0.000000,0.000000 HandTipRight:0.000000,0.000000,0.000000,0.000000 Head:0.000000,0.000000,0.000000,0.000000 HipLeft:0.109646,-0.682207,0.704488,-0.162072 HipRight:-0.130469,0.674279,0.702925,-0.184991 KneeLeft:0.004613,-0.699956,0.060083,0.711639 KneeRight:-0.016975,0.714080,0.046025,0.698343 Neck:-0.001887,-0.007663,0.996347,-0.085031 ShoulderLeft:0.013300,0.784170,-0.616901,0.065832 ShoulderRight:0.011645,0.795230,0.602521,-0.066644 SpineBase:-0.010189,-0.004290,0.998955,-0.044344 SpineMid:-0.006074,-0.004473,0.998989,-0.044326 SpineShoulder:-0.001875,-0.005985,0.997948,-0.063728 ThumbLeft:0.000000,0.000000,0.000000,0.000000 ThumbRight:0.000000,0.000000,0.000000,0.000000 WristLeft:0.044300,-0.548406,-0.171545,0.817227 WristRight:0.228242,-0.215622,-0.390238,0.865521 END:
KINECT_DATA POSITION:20.796007,-4.247652,0.141323 HEAD_JOINT1:0.977507,0.183499,-0.000000,0.103959 LARM_JOINT2:0.807039,0.000000,-0.072716,-0.586003 LARM_JOINT3:0.961118,0.000000,-0.193367,-0.197133 LLEG_JOINT2:0.998129,0.037850,0.000000,0.048025 LLEG_JOINT4:0.996568,0.078393,0.000000,-0.026595 RARM_JOINT2:0.784992,0.000000,0.050397,0.617453 RARM_JOINT3:0.842635,0.000000,0.515017,0.157235 RLEG_JOINT2:0.998871,0.021572,0.000000,-0.042316 RLEG_JOINT4:0.994564,0.096112,0.000000,0.040055 WAIST:0.999948,0.000000,0.010149,-0.001376 WAIST_JOINT0:0.999887,-0.000000,0.003096,0.014678 WAIST_JOINT1:0.997641,0.068549,0.000000,-0.003790 END:
KINECT_DATA_Sensor  AnkleLeft:0.070282,0.702175,-0.094399,-0.702210 AnkleRight:0.082259,0.725970,0.083926,0.677612 ElbowLeft:-0.044320,0.922248,-0.141390,-0.357077 ElbowRight:-0.045769,0.833368,0.116529,0.538353 FootLeft:0.000000,0.000000,0.000000,0.000000 FootRight:0.000000,0.000000,0.000000,0.000000 HandLeft:-0.024098,0.764264,0.179969,-0.618815 HandRight:0.264594,-0.186935,-0.470034,0.821044 HandTipLeft:0.000000,0.000000,0.000000,0.000000 HandTipRight:0.000000,0.000000,0.000000,0.000000 Head:0.000000,0.000000,0.000000,0.000000 HipLeft:0.109641,-0.682376,0.704388,-0.161798 HipRight:-0.130529,0.674309,0.702965,-0.184685 KneeLeft:0.005500,-0.699946,0.059831,0.711664 KneeRight:-0.016050,0.714095,0.046013,0.698350 Neck:-0.003415,-0.007586,0.996390,-0.084482 ShoulderLeft:0.014679,0.783929,-0.617380,0.063891 ShoulderRight:0.011081,0.795307,0.602381,-0.067086 SpineBase:-0.010187,-0.004249,0.998967,-0.044078 SpineMid:-0.006829,-0.004397,0.998996,-0.044063 SpineShoulder:-0.003404,-0.005902,0.997971,-0.063304 ThumbLeft:0.000000,0.000000,0.000000,0.000000 ThumbRight:0.000000,0.000000,0.000000,0.000000 WristLeft:-0.092417,0.758226,0.151618,-0.627347 WristRight:0.221805,-0.202174,-0.392240,0.869526 END:
KINECT_DATA POSITION:20.784565,-4.245872,0.111282 HEAD_JOINT1:0.977568,0.183187,-0.000000,0.103940 LARM_JOINT2:0.806309,0.000000,-0.071689,-0.587134 LARM_JOINT3:0.960928,0.000000,-0.194349,-0.197092 LLEG_JOINT2:0.998105,0.038027,0.000000,0.048372 LLEG_JOINT4:0.996635,0.077230,0.000000,-0.027478 RARM_JOINT2:0.784665,0.000000,0.049695,0.617925 RARM_JOINT3:0.842944,0.000000,0.514635,0.156830 RLEG_JOINT2:0.998860,0.021439,0.000000,-0.042656 RLEG_JOINT4:0.994569,0.096165,0.000000,0.039803 WAIST:0.999951,0.000000,0.009814,-0.001209 WAIST_JOINT0:0.999884,-0.000000,0.003178,0.014911 WAIST_JOINT1:0.997692,0.067794,0.000000,-0.003800 END:
KINECT_DATA_Sensor  AnkleLeft:0.069753,0.702206,-0.093503,-0.702352 AnkleRight:0.080906,0.717461,0.085136,0.686626 ElbowLeft:-0.043800,0.922513,-0.140446,-0.356829 ElbowRight:-0.045646,0.832481,0.115829,0.539884 FootLeft:0.000000,0.000000,0.000000,0.000000 FootRight:0.000000,0.000000,0.000000,0.000000 HandLeft:-0.027707,0.766494,0.187530,-0.613638 HandRight:0.263877,-0.186658,-0.469310,0.821751 HandTipLeft:0.000000,0.000000,0.000000,0.000000 HandTipRight:0.000000,0.000000,0.000000,0.000000 Head:0.000000,0.000000,0.000000,0.000000 HipLeft:0.110022,-0.682307,0.704442,-0.161596 HipRight:-0.130601,0.674585,0.702854,-0.184052 KneeLeft:0.005752,-0.700178,0.060319,0.711392 KneeRight:-0.016254,0.713858,0.046043,0.698586 Neck:-0.003521,-0.007396,0.996462,-0.083646 ShoulderLeft:0.014172,0.783893,-0.617491,0.063378 ShoulderRight:0.010424,0.795640,0.601994,-0.066718 SpineBase:-0.009855,-0.004027,0.998994,-0.043567 SpineMid:-0.006709,-0.004164,0.999020,-0.043554 SpineShoulder:-0.003504,-0.005672,0.998017,-0.062583 ThumbLeft:0.000000,0.000000,0.000000,0.000000 ThumbRight:0.000000,0.000000,0.000000,0.000000 WristLeft:-0.092508,0.762295,0.150463,-0.622663 WristRight:0.220506,-0.202434,-0.392758,0.869562 END:
KINECT_DATA POSITION:20.775564,-4.238193,0.064194 HEAD_JOINT1:0.977869,0.182203,-0.000000,0.102834 LARM_JOINT2:0.805752,0.000000,-0.071030,-0.587978 LARM_JOINT3:0.960787,0.000000,-0.196197,-0.195944 LLEG_JOINT2:0.998088,0.039273,0.000000,0.047723 LLEG_JOINT4:0.996351,0.080109,0.000000,-0.029435 RARM_JOINT2:0.784746,0.000000,0.048347,0.617929 RARM_JOINT3:0.840881,0.000000,0.518447,0.155345 RLEG_JOINT2:0.998860,0.021554,0.000000,-0.042592 RLEG_JOINT4:0.994793,0.093922,0.000000,0.039558 WAIST:0.999949,0.000000,0.010063,-0.001176 WAIST_JOINT0:0.999878,-0.000000,0.002923,0.015370 WAIST_JOINT1:0.997762,0.066767,0.000000,-0.003551 END:
KINECT_DATA_Sensor  AnkleLeft:0.079285,0.736775,-0.090490,-0.665349 AnkleRight:0.079221,0.717545,0.083819,0.686897 ElbowLeft:-0.043852,0.922637,-0.139727,-0.356784 ElbowRight:-0.046008,0.830457,0.115542,0.543023 FootLeft:0.000000,0.000000,0.000000,0.000000 FootRight:0.000000,0.000000,0.000000,0.000000 HandLeft:-0.041842,0.779901,0.191256,-0.594495 HandRight:0.273175,-0.202407,-0.467272,0.816127 HandTipLeft:0.000000,0.000000,0.000000,0.000000 HandTipRight:0.000000,0.000000,0.000000,0.000000 Head:0.000000,0.000000,0.000000,0.000000 HipLeft:0.110191,-0.682437,0.704459,-0.160855 HipRight:-0.131206,0.674747,0.702741,-0.183459 KneeLeft:0.004413,-0.700020,0.060751,0.711521 KneeRight:-0.016116,0.714026,0.046053,0.698417 Neck:-0.003361,-0.007153,0.996554,-0.082564 ShoulderLeft:0.013432,0.783761,-0.617735,0.062783 ShoulderRight:0.009877,0.796324,0.601200,-0.065804 SpineBase:-0.010095,-0.003744,0.999028,-0.042738 SpineMid:-0.006745,-0.003887,0.999057,-0.042725 SpineShoulder:-0.003338,-0.005415,0.998082,-0.061575 ThumbLeft:0.000000,0.000000,0.000000,0.000000 ThumbRight:0.000000,0.000000,0.000000,0.000000 WristLeft:-0.096053,0.777667,0.148301,-0.603337 WristRight:0.228628,-0.219399,-0.393217,0.863119 END:
KINECT_DATA POSITION:20.753189,-4.228636,0.013745 HEAD_JOINT1:0.977622,0.183775,-0.000000,0.102380 LARM_JOINT2:0.805659,0.000000,-0.070744,-0.588140 LARM_JOINT3:0.961434,0.000000,-0.193439,-0.195515 LLEG_JOINT2:0.998111,0.038208,0.000000,0.048104 LLEG_JOINT4:0.996487,0.079619,0.000000,-0.025960 RARM_JOINT2:0.784228,0.000000,0.049691,0.618480 RARM_JOINT3:0.841570,0.000000,0.517566,0.154551 RLEG_JOINT2:0.998883,0.020494,0.000000,-0.042579 RLEG_JOINT4:0.994892,0.093277,0.000000,0.038590 WAIST:0.999954,0.000000,0.009546,-0.001292 WAIST_JOINT0:0.999876,-0.000000,0.002320,0.015551 WAIST_JOINT1:0.997806,0.066106,0.000000,-0.003528 END:
KINECT_DATA_Sensor  AnkleLeft:0.070839,0.702562,-0.096086,-0.701539 AnkleRight:0.080979,0.747606,0.079788,0.654341 ElbowLeft:-0.044425,0.922299,-0.139268,-0.357764 ElbowRight:-0.046934,0.830144,0.114002,0.543748 FootLeft:0.000000,0.000000,0.000000,0.000000 FootRight:0.000000,0.000000,0.000000,0.000000 HandLeft:-0.033783,0.778319,0.185051,-0.599028 HandRight:0.272307,-0.198721,-0.468474,0.816634 HandTipLeft:0.000000,0.000000,0.000000,0.000000 HandTipRight:0.000000,0.000000,0.000000,0.000000 Head:0.000000,0.000000,0.000000,0.000000 HipLeft:0.110762,-0.682578,0.704261,-0.160732 HipRight:-0.131236,0.674898,0.702783,-0.182717 KneeLeft:0.005393,-0.700382,0.060193,0.711205 KneeRight:-0.016910,0.713643,0.045377,0.698834 Neck:-0.002816,-0.007240,0.996612,-0.081877 ShoulderLeft:0.012848,0.783760,-0.617767,0.062602 ShoulderRight:0.009993,0.796697,0.600820,-0.064731 SpineBase:-0.009568,-0.003678,0.999059,-0.042149 SpineMid:-0.006204,-0.003820,0.999085,-0.042137 SpineShoulder:-0.002790,-0.005452,0.998124,-0.060925 ThumbLeft:0.000000,0.000000,0.000000,0.000000 ThumbRight:0.000000,0.000000,0.000000,0.000000 WristLeft:-0.095988,0.774170,0.148523,-0.607773 WristRight:0.226883,-0.216329,-0.394817,0.863623 END:
KINECT_DATA POSITION:20.772663,-4.233805,-0.067866 HEAD_JOINT1:0.977803,0.182640,-0.000000,0.102680 LARM_JOINT2:0.805813,0.000000,-0.070857,-0.587916 LARM_JOINT3:0.961117,0.000000,-0.195786,-0.194736 LLEG_JOINT2:0.998174,0.037147,0.000000,0.047626 LLEG_JOINT4:0.996398,0.079661,0.000000,-0.029075 RARM_JOINT2:0.783875,0.000000,0.049518,0.618942 RARM_JOINT3:0.841830,0.000000,0.517197,0.154369 RLEG_JOINT2:0.998883,0.020784,0.000000,-0.042437 RLEG_JOINT4:0.995170,0.091214,0.000000,0.036273 WAIST:0.999954,0.000000,0.009592,-0.000839 WAIST_JOINT0:0.999874,-0.000000,0.001947,0.015723 WAIST_JOINT1:0.997819,0.065905,0.000000,-0.003781 END:
KINECT_DATA_Sensor  AnkleLeft:0.077191,0.739439,-0.089067,-0.662826 AnkleRight:0.074828,0.717721,0.083347,0.687263 ElbowLeft:-0.044907,0.922114,-0.139578,-0.358061 ElbowRight:-0.046694,0.829501,0.113285,0.544899 FootLeft:0.000000,0.000000,0.000000,0.000000 FootRight:0.000000,0.000000,0.000000,0.000000 HandLeft:-0.041921,0.777393,0.188775,-0.598553 HandRight:0.271716,-0.196473,-0.467160,0.818126 HandTipLeft:0.000000,0.000000,0.000000,0.000000 HandTipRight:0.000000,0.000000,0.000000,0.000000 Head:0.000000,0.000000,0.000000,0.000000 HipLeft:0.110801,-0.682359,0.704522,-0.160493 HipRight:-0.131367,0.675295,0.702434,-0.182498 KneeLeft:0.006138,-0.700313,0.059430,0.711331 KneeRight:-0.016288,0.713705,0.045164,0.698799 Neck:-0.002407,-0.007102,0.996630,-0.081686 ShoulderLeft:0.011832,0.783822,-0.617646,0.063212 ShoulderRight:0.009483,0.796909,0.600552,-0.064677 SpineBase:-0.009640,-0.003395,0.999070,-0.041886 SpineMid:-0.006029,-0.003546,0.999098,-0.041874 SpineShoulder:-0.002373,-0.005276,0.998138,-0.060715 ThumbLeft:0.000000,0.000000,0.000000,0.000000 ThumbRight:0.000000,0.000000,0.000000,0.000000 WristLeft:-0.096749,0.774551,0.148490,-0.607175 WristRight:0.225778,-0.214584,-0.396168,0.863730 END:
KINECT_DATA POSITION:20.766869,-4.228330,-0.098884 HEAD_JOINT1:0.977973,0.181587,-0.000000,0.102932 LARM_JOINT2:0.805855,0.000000,-0.071814,-0.587742 LARM_JOINT3:0.960490,0.000000,-0.198324,-0.195258 LLEG_JOINT2:0.998183,0.036798,0.000000,0.047705 LLEG_JOINT4:0.996284,0.080475,0.000000,-0.030675 RARM_JOINT2:0.783969,0.000000,0.049421,0.618830 RARM_JOINT3:0.841519,0.000000,0.518756,0.150792 RLEG_JOINT2:0.998921,0.018759,0.000000,-0.042496 RLEG_JOINT4:0.994548,0.097358,0.000000,0.037356 WAIST:0.999955,0.000000,0.009432,-0.000821 WAIST_JOINT0:0.999873,-0.000000,0.001733,0.015875 WAIST_JOINT1:0.997808,0.066068,0.000000,-0.003767 END:
KINECT_DATA_Sensor  AnkleLeft:0.073596,0.702354,-0.092370,-0.701962 AnkleRight:0.078514,0.717060,0.085468,0.687282 ElbowLeft:-0.045470,0.922389,-0.139478,-0.357320 ElbowRight:-0.046618,0.829095,0.113495,0.545479 FootLeft:0.000000,0.000000,0.000000,0.000000 FootRight:0.000000,0.000000,0.000000,0.000000 HandLeft:-0.050846,0.789325,0.195536,-0.579782 HandRight:0.262379,-0.192892,-0.474696,0.817688 HandTipLeft:0.000000,0.000000,0.000000,0.000000 HandTipRight:0.000000,0.000000,0.000000,0.000000 Head:0.000000,0.000000,0.000000,0.000000 HipLeft:0.110638,-0.682325,0.704558,-0.160593 HipRight:-0.131008,0.675338,0.702489,-0.182385 KneeLeft:0.006465,-0.700422,0.059254,0.711235 KneeRight:-0.017733,0.713568,0.043749,0.698994 Neck:-0.002205,-0.007037,0.996614,-0.081890 ShoulderLeft:0.011769,0.783571,-0.617933,0.063532 ShoulderRight:0.009677,0.796848,0.600632,-0.064656 SpineBase:-0.009479,-0.003365,0.999064,-0.042076 SpineMid:-0.005848,-0.003518,0.999092,-0.042063 SpineShoulder:-0.002173,-0.005248,0.998130,-0.060866 ThumbLeft:0.000000,0.000000,0.000000,0.000000 ThumbRight:0.000000,0.000000,0.000000,0.000000 WristLeft:-0.100332,0.788319,0.147026,-0.588957 WristRight:0.222083,-0.207528,-0.398468,0.865352 END:
KINECT_DATA POSITION:20.670889,-4.210268,-0.129390 HEAD_JOINT1:0.978189,0.180528,-0.000000,0.102742 LARM_JOINT2:0.806108,0.000000,-0.072699,-0.587285 LARM_JOINT3:0.959932,0.000000,-0.198727,-0.197580 LLEG_JOINT2:0.998160,0.036062,0.000000,0.048749 LLEG_JOINT4:0.996404,0.078780,0.000000,-0.031193 RARM_JOINT2:0.784452,0.000000,0.049054,0.618247 RARM_JOINT3:0.841077,0.000000,0.520116,0.148555 RLEG_JOINT2:0.998943,0.020226,0.000000,-0.041287 RLEG_JOINT4:0.994666,0.095854,0.000000,0.038110 WAIST:0.999955,0.000000,0.009376,-0.001196 WAIST_JOINT0:0.999876,-0.000000,0.000830,0.015716 WAIST_JOINT1:0.997797,0.066262,0.000000,-0.003291 END:
KINECT_DATA_Sensor  AnkleLeft:0.071790,0.703075,-0.090774,-0.701636 AnkleRight:0.079519,0.716404,0.084391,0.687983 ElbowLeft:-0.046133,0.922516,-0.139790,-0.356784 ElbowRight:-0.046693,0.828656,0.114275,0.545977 FootLeft:0.000000,0.000000,0.000000,0.000000 FootRight:0.000000,0.000000,0.000000,0.000000 HandLeft:-0.037502,0.764677,0.198249,-0.612014 HandRight:0.263316,-0.204253,-0.474227,0.814895 HandTipLeft:0.000000,0.000000,0.000000,0.000000 HandTipRight:0.000000,0.000000,0.000000,0.000000 Head:0.000000,0.000000,0.000000,0.000000 HipLeft:0.110377,-0.682597,0.704335,-0.160597 HipRight:-0.130852,0.675148,0.702743,-0.182225 KneeLeft:0.007461,-0.700472,0.059221,0.711180 KneeRight:-0.016103,0.713536,0.044213,0.699037 Neck:-0.001318,-0.006988,0.996598,-0.082109 ShoulderLeft:0.010936,0.783476,-0.617953,0.064646 ShoulderRight:0.009970,0.796773,0.600758,-0.064364 SpineBase:-0.009388,-0.003297,0.999061,-0.042168 SpineMid:-0.005361,-0.003467,0.999091,-0.042154 SpineShoulder:-0.001284,-0.005198,0.998120,-0.061054 ThumbLeft:0.000000,0.000000,0.000000,0.000000 ThumbRight:0.000000,0.000000,0.000000,0.000000 WristLeft:-0.094460,0.762476,0.153261,-0.621464 WristRight:0.226015,-0.217155,-0.396633,0.862811 END:
KINECT_DATA POSITION:20.562340,-4.199452,-0.141656 HEAD_JOINT1:0.978141,0.178875,-0.000000,0.106037 LARM_JOINT2:0.806732,0.000000,-0.072750,-0.586422 LARM_JOINT3:0.960088,0.000000,-0.196660,-0.198886 LLEG_JOINT2:0.998118,0.035845,0.000000,0.049748 LLEG_JOINT4:0.996371,0.079297,0.000000,-0.030946 RARM_JOINT2:0.784655,0.000000,0.048119,0.618063 RARM_JOINT3:0.841540,0.000000,0.519028,0.149732 RLEG_JOINT2:0.998975,0.020307,0.000000,-0.040447 RLEG_JOINT4:0.994853,0.093841,0.000000,0.038231 WAIST:0.999956,0.000000,0.009311,-0.001143 WAIST_JOINT0:0.999875,-0.000000,0.000604,0.015805 WAIST_JOINT1:0.997803,0.066159,0.000000,-0.003461 END:
KINECT_DATA_Sensor  AnkleLeft:0.071146,0.703319,-0.091887,-0.701311 AnkleRight:0.078824,0.716343,0.082354,0.688373 ElbowLeft:-0.046740,0.922240,-0.140558,-0.357116 ElbowRight:-0.046174,0.829761,0.115096,0.544167 FootLeft:0.000000,0.000000,0.000000,0.000000 FootRight:0.000000,0.000000,0.000000,0.000000 HandLeft:-0.016830,-0.598380,-0.192386,0.777590 HandRight:0.261494,-0.204572,-0.474872,0.815026 HandTipLeft:0.000000,0.000000,0.000000,0.000000 HandTipRight:0.000000,0.000000,0.000000,0.000000 Head:0.000000,0.000000,0.000000,0.000000 HipLeft:0.110560,-0.682598,0.704319,-0.160536 HipRight:-0.131012,0.675203,0.702661,-0.182220 KneeLeft:0.008354,-0.700501,0.059821,0.711091 KneeRight:-0.015408,0.713512,0.043646,0.699112 Neck:-0.001052,-0.007147,0.996605,-0.082015 ShoulderLeft:0.011101,0.783432,-0.618023,0.064484 ShoulderRight:0.010486,0.796604,0.601034,-0.063800 SpineBase:-0.009333,-0.003343,0.999068,-0.042005 SpineMid:-0.005199,-0.003517,0.999098,-0.041990 SpineShoulder:-0.001016,-0.005312,0.998127,-0.060943 ThumbLeft:0.000000,0.000000,0.000000,0.000000 ThumbRight:0.000000,0.000000,0.000000,0.000000 WristLeft:0.054214,-0.584504,-0.172887,0.790902 WristRight:0.225494,-0.216343,-0.394153,0.864287 END:
KINECT_DATA POSITION:20.469700,-4.188084,-0.180399 HEAD_JOINT1:0.978149,0.178524,-0.000000,0.106556 LARM_JOINT2:0.806722,0.000000,-0.068881,-0.586902 LARM_JOINT3:0.959631,0.000000,-0.198560,-0.199204 LLEG_JOINT2:0.998106,0.035806,0.000000,0.050019 LLEG_JOINT4:0.996594,0.078038,0.000000,-0.026640 RARM_JOINT2:0.784497,0.000000,0.047179,0.618335 RARM_JOINT3:0.840484,0.000000,0.520200,0.151586 RLEG_JOINT2:0.999015,0.019355,0.000000,-0.039924 RLEG_JOINT4:0.994761,0.095168,0.000000,0.037339 WAIST:0.999955,0.000000,0.009450,-0.001236 WAIST_JOINT0:0.999871,0.000000,-0.001069,0.016012 WAIST_JOINT1:0.997800,0.066204,0.000000,-0.003403 END:
KINECT_DATA_Sensor  AnkleLeft:0.067331,0.704874,-0.094102,-0.699831 AnkleRight:0.078653,0.715533,0.083062,0.689149 ElbowLeft:-0.044005,0.921349,-0.141524,-0.359375 ElbowRight:-0.045439,0.829671,0.115352,0.544311 FootLeft:0.000000,0.000000,0.000000,0.000000 FootRight:0.000000,0.000000,0.000000,0.000000 HandLeft:-0.019527,-0.574312,-0.192255,0.795501 HandRight:0.262452,-0.197382,-0.477265,0.815094 HandTipLeft:0.000000,0.000000,0.000000,0.000000 HandTipRight:0.000000,0.000000,0.000000,0.000000 Head:0.000000,0.000000,0.000000,0.000000 HipLeft:0.110482,-0.682686,0.704259,-0.160476 HipRight:-0.131149,0.675104,0.702685,-0.182397 KneeLeft:0.008497,-0.700406,0.059923,0.711174 KneeRight:-0.015777,0.713602,0.042664,0.699073 Neck:0.000608,-0.007327,0.996602,-0.082038 ShoulderLeft:0.008977,0.782971,-0.618412,0.066654 ShoulderRight:0.010482,0.796591,0.601108,-0.063268 SpineBase:-0.009466,-0.003422,0.999066,-0.042027 SpineMid:-0.004444,-0.003634,0.999101,-0.042009 SpineShoulder:0.000646,-0.005471,0.998124,-0.060980 ThumbLeft:0.000000,0.000000,0.000000,0.000000 ThumbRight:0.000000,0.000000,0.000000,0.000000 WristLeft:0.048160,-0.561348,-0.174012,0.807644 WristRight:0.222891,-0.211172,-0.395061,0.865825 END:
KINECT_DATA POSITION:20.433352,-4.185580,-0.174594 HEAD_JOINT1:0.978309,0.178219,-0.000000,0.105595 LARM_JOINT2:0.806564,0.000000,-0.068924,-0.587115 LARM_JOINT3:0.959965,0.000000,-0.197703,-0.198444 LLEG_JOINT2:0.998120,0.035237,0.000000,0.050143 LLEG_JOINT4:0.996468,0.079333,0.000000,-0.027512 RARM_JOINT2:0.785174,0.000000,0.046157,0.617553 RARM_JOINT3:0.840335,0.000000,0.519580,0.154512 RLEG_JOINT2:0.999016,0.018965,0.000000,-0.040087 RLEG_JOINT4:0.994712,0.095120,0.000000,0.038744 WAIST:0.999952,0.000000,0.009744,-0.001067 WAIST_JOINT0:0.999878,-0.000000,0.000300,0.015638 WAIST_JOINT1:0.997829,0.065779,0.000000,-0.003378 END:
KINECT_DATA_Sensor  AnkleLeft:0.068210,0.703987,-0.094206,-0.700624 AnkleRight:0.079348,0.716085,0.081739,0.688654 ElbowLeft:-0.044353,0.921220,-0.141315,-0.359745 ElbowRight:-0.045599,0.830231,0.116305,0.543240 FootLeft:0.000000,0.000000,0.000000,0.000000 FootRight:0.000000,0.000000,0.000000,0.000000 HandLeft:-0.024179,0.735101,0.187913,-0.650946 HandRight:0.266324,-0.199637,-0.473340,0.815577 HandTipLeft:0.000000,0.000000,0.000000,0.000000 HandTipRight:0.000000,0.000000,0.000000,0.000000 Head:0.000000,0.000000,0.000000,0.000000 HipLeft:0.110457,-0.682661,0.704364,-0.160138 HipRight:-0.131533,0.675230,0.702493,-0.182393 KneeLeft:0.009093,-0.700179,0.059735,0.711406 KneeRight:-0.016060,0.713807,0.042377,0.698875 Neck:-0.000744,-0.007063,0.996644,-0.081545 ShoulderLeft:0.010271,0.783490,-0.617936,0.064758 ShoulderRight:0.010031,0.796633,0.601025,-0.063602 SpineBase:-0.009767,-0.003288,0.999075,-0.041749 SpineMid:-0.005266,-0.003476,0.999109,-0.041733 SpineShoulder:-0.000706,-0.005225,0.998149,-0.060586 ThumbLeft:0.000000,0.000000,0.000000,0.000000 ThumbRight:0.000000,0.000000,0.000000,0.000000 WristLeft:-0.086734,0.729705,0.158698,-0.659411 WristRight:0.225158,-0.214422,-0.393867,0.864983 END:
KINECT_DATA POSITION:20.412821,-4.183810,-0.173879 HEAD_JOINT1:0.978556,0.179104,-0.000000,0.101730 LARM_JOINT2:0.806212,0.000000,-0.068609,-0.587635 LARM_JOINT3:0.959349,0.000000,-0.201205,-0.197905 LLEG_JOINT2:0.998120,0.034833,0.000000,0.050434 LLEG_JOINT4:0.996623,0.079766,0.000000,-0.019488 RARM_JOINT2:0.785791,0.000000,0.045195,0.616838 RARM_JOINT3:0.838928,0.000000,0.521515,0.155636 RLEG_JOINT2:0.999035,0.018164,0.000000,-0.039979 RLEG_JOINT4:0.994572,0.096914,0.000000,0.037864 WAIST:0.999954,0.000000,0.009477,-0.001188 WAIST_JOINT0:0.999877,-0.000000,0.000752,0.015666 WAIST_JOINT1:0.997858,0.065364,0.000000,-0.002731 END:
KINECT_DATA_Sensor  AnkleLeft:0.062654,0.704746,-0.100140,-0.699556 AnkleRight:0.079523,0.716367,0.082980,0.688192 ElbowLeft:-0.044746,0.920613,-0.141113,-0.361326 ElbowRight:-0.045698,0.829470,0.116831,0.544280 FootLeft:0.000000,0.000000,0.000000,0.000000 FootRight:0.000000,0.000000,0.000000,0.000000 HandLeft:-0.061453,0.824709,0.189937,-0.529153 HandRight:0.272862,-0.205419,-0.472308,0.812573 HandTipLeft:0.000000,0.000000,0.000000,0.000000 HandTipRight:0.000000,0.000000,0.000000,0.000000 Head:0.000000,0.000000,0.000000,0.000000 HipLeft:0.110682,-0.682740,0.704246,-0.160167 HipRight:-0.131661,0.675290,0.702545,-0.181879 KneeLeft:0.009517,-0.700372,0.059573,0.711224 KneeRight:-0.016621,0.713592,0.041818,0.699115 Neck:-0.001261,-0.006389,0.996684,-0.081110 ShoulderLeft:0.009999,0.783692,-0.617731,0.064302 ShoulderRight:0.009056,0.797217,0.600227,-0.063955 SpineBase:-0.009475,-0.002910,0.999092,-0.041425 SpineMid:-0.005376,-0.003080,0.999123,-0.041412 SpineShoulder:-0.001220,-0.004644,0.998175,-0.060200 ThumbLeft:0.000000,0.000000,0.000000,0.000000 ThumbRight:0.000000,0.000000,0.000000,0.000000 WristLeft:-0.111278,0.822985,0.143316,-0.538307 WristRight:0.228308,-0.222378,-0.393122,0.862484 END:
KINECT_DATA POSITION:20.422949,-4.198802,-0.142050 HEAD_JOINT1:0.978870,0.178687,-0.000000,0.099426 LARM_JOINT2:0.806076,0.000000,-0.069144,-0.587758 LARM_JOINT3:0.960311,0.000000,-0.198930,-0.195522 LLEG_JOINT2:0.998088,0.035213,0.000000,0.050794 LLEG_JOINT4:0.996192,0.081563,0.000000,-0.030820 RARM_JOINT2:0.785885,0.000000,0.046656,0.616610 RARM_JOINT3:0.837246,0.000000,0.523995,0.156361 RLEG_JOINT2:0.999052,0.018579,0.000000,-0.039368 RLEG_JOINT4:0.994674,0.095788,0.000000,0.038046 WAIST:0.999953,0.000000,0.009600,-0.001228 WAIST_JOINT0:0.999874,-0.000000,0.001446,0.015800 WAIST_JOINT1:0.997861,0.065311,0.000000,-0.002947 END:
KINECT_DATA_Sensor  AnkleLeft:0.075579,0.732406,-0.090596,-0.670568 AnkleRight:0.078822,0.710584,0.082647,0.694281 ElbowLeft:-0.045139,0.920280,-0.140463,-0.362377 ElbowRight:-0.046446,0.831857,0.116667,0.540597 FootLeft:0.000000,0.000000,0.000000,0.000000 FootRight:0.000000,0.000000,0.000000,0.000000 HandLeft:-0.041080,0.769930,0.184918,-0.609364 HandRight:0.277079,-0.203783,-0.483925,0.804684 HandTipLeft:0.000000,0.000000,0.000000,0.000000 HandTipRight:0.000000,0.000000,0.000000,0.000000 Head:0.000000,0.000000,0.000000,0.000000 HipLeft:0.110739,-0.682830,0.704201,-0.159942 HipRight:-0.131842,0.675293,0.702524,-0.181817 KneeLeft:0.009460,-0.700290,0.060070,0.711264 KneeRight:-0.015927,0.713691,0.041712,0.699036 Neck:-0.001978,-0.006717,0.996683,-0.081082 ShoulderLeft:0.010712,0.783936,-0.617498,0.063451 ShoulderRight:0.008884,0.797496,0.599832,-0.064205 SpineBase:-0.009597,-0.002963,0.999100,-0.041213 SpineMid:-0.005786,-0.003120,0.999129,-0.041202 SpineShoulder:-0.001931,-0.004834,0.998177,-0.060136 ThumbLeft:0.000000,0.000000,0.000000,0.000000 ThumbRight:0.000000,0.000000,0.000000,0.000000 WristLeft:-0.097091,0.765350,0.153647,-0.617418 WristRight:0.231065,-0.220770,-0.391701,0.862809 END:
KINECT_DATA POSITION:20.443645,-4.208797,-0.144339 HEAD_JOINT1:0.979656,0.176372,-0.000000,0.095745 LARM_JOINT2:0.805814,0.000000,-0.070003,-0.588017 LARM_JOINT3:0.961292,0.000000,-0.196181,-0.193471 LLEG_JOINT2:0.998093,0.035353,0.000000,0.050596 LLEG_JOINT4:0.996371,0.079736,0.000000,-0.029775 RARM_JOINT2:0.785992,0.000000,0.047599,0.616402 RARM_JOINT3:0.837959,0.000000,0.523029,0.155774 RLEG_JOINT2:0.999079,0.018722,0.000000,-0.038606 RLEG_JOINT4:0.994778,0.095316,0.000000,0.036485 WAIST:0.999948,0.000000,0.010087,-0.001329 WAIST_JOINT0:0.999872,-0.000000,0.001869,0.015868 WAIST_JOINT1:0.997857,0.065377,0.000000,-0.002705 END:
KINECT_DATA_Sensor  AnkleLeft:0.069933,0.702846,-0.093114,-0.701745 AnkleRight:0.078632,0.717028,0.082412,0.687675 ElbowLeft:-0.045452,0.920366,-0.140019,-0.362292 ElbowRight:-0.047296,0.831169,0.116197,0.541682 FootLeft:0.000000,0.000000,0.000000,0.000000 FootRight:0.000000,0.000000,0.000000,0.000000 HandLeft:-0.034278,0.753921,0.177924,-0.631484 HandRight:0.273609,-0.201922,-0.477377,0.810232 HandTipLeft:0.000000,0.000000,0.000000,0.000000 HandTipRight:0.000000,0.000000,0.000000,0.000000 Head:0.000000,0.000000,0.000000,0.000000 HipLeft:0.110339,-0.682978,0.704188,-0.159639 HipRight:-0.132170,0.675194,0.702515,-0.181979 KneeLeft:0.009121,-0.699955,0.059959,0.711607 KneeRight:-0.015375,0.714031,0.041344,0.698723 Neck:-0.002418,-0.006548,0.996670,-0.081247 ShoulderLeft:0.011072,0.783944,-0.617518,0.063089 ShoulderRight:0.008676,0.797620,0.599635,-0.064535 SpineBase:-0.010068,-0.002802,0.999097,-0.041183 SpineMid:-0.006241,-0.002959,0.999128,-0.041172 SpineShoulder:-0.002377,-0.004748,0.998174,-0.060171 ThumbLeft:0.000000,0.000000,0.000000,0.000000 ThumbRight:0.000000,0.000000,0.000000,0.000000 WristLeft:-0.092856,0.747832,0.155270,-0.638761 WristRight:0.231120,-0.217351,-0.395803,0.861790 END:
KINECT_DATA POSITION:20.502850,-4.215776,-0.101233 HEAD_JOINT1:0.987023,0.151219,-0.000000,0.054022 LARM_JOINT2:0.803669,0.000000,-0.074134,-0.590440 LARM_JOINT3:0.960473,0.000000,-0.205005,-0.188320 LLEG_JOINT2:0.998114,0.035199,0.000000,0.050296 LLEG_JOINT4:0.996310,0.080791,0.000000,-0.028986 RARM_JOINT2:0.792084,0.000000,0.045187,0.608737 RARM_JOINT3:0.836040,0.000000,0.524680,0.160463 RLEG_JOINT2:0.999067,0.018464,0.000000,-0.039045 RLEG_JOINT4:0.994699,0.096052,0.000000,0.036718 WAIST:0.999941,0.000000,0.010705,-0.001708 WAIST_JOINT0:0.999860,-0.000000,0.005098,0.015959 WAIST_JOINT1:0.997770,0.066745,-0.000000,0.000961 END:
KINECT_DATA_Sensor  AnkleLeft:0.070394,0.701023,-0.093909,-0.703415 AnkleRight:0.078693,0.718814,0.083040,0.685725 ElbowLeft:-0.047572,0.918608,-0.138898,-0.366884 ElbowRight:-0.048428,0.832435,0.123309,0.538054 FootLeft:0.000000,0.000000,0.000000,0.000000 FootRight:0.000000,0.000000,0.000000,0.000000 HandLeft:-0.086144,0.829715,0.186678,-0.518945 HandRight:0.274198,-0.198539,-0.477572,0.810755 HandTipLeft:0.000000,0.000000,0.000000,0.000000 HandTipRight:0.000000,0.000000,0.000000,0.000000 Head:0.000000,0.000000,0.000000,0.000000 HipLeft:0.109064,-0.683092,0.704176,-0.160086 HipRight:-0.132667,0.674876,0.702699,-0.182088 KneeLeft:0.008716,-0.699558,0.059375,0.712052 KneeRight:-0.016166,0.714369,0.041725,0.698337 Neck:-0.006092,-0.002498,0.996548,-0.082759 ShoulderLeft:0.014506,0.784529,-0.616924,0.060905 ShoulderRight:0.007268,0.800044,0.596014,-0.068151 SpineBase:-0.010580,-0.001102,0.999071,-0.041754 SpineMid:-0.008349,-0.001195,0.999092,-0.041751 SpineShoulder:-0.006056,-0.001520,0.998083,-0.061580 ThumbLeft:0.000000,0.000000,0.000000,0.000000 ThumbRight:0.000000,0.000000,0.000000,0.000000 WristLeft:-0.117150,0.829921,0.139323,-0.527348 WristRight:0.227916,-0.215960,-0.392765,0.864379 END:
KINECT_DATA POSITION:20.532188,-4.242198,-0.036943 HEAD_JOINT1:0.985531,0.153988,-0.000000,0.070832 LARM_JOINT2:0.803563,0.000000,-0.072498,-0.590788 LARM_JOINT3:0.962859,0.000000,-0.191530,-0.190310 LLEG_JOINT2:0.998158,0.034489,0.000000,0.049909 LLEG_JOINT4:0.996133,0.082319,0.000000,-0.030716 RARM_JOINT2:0.792805,0.000000,0.060813,0.606433 RARM_JOINT3:0.833452,0.000000,0.529877,0.156804 RLEG_JOINT2:0.999045,0.019474,0.000000,-0.039104 RLEG_JOINT4:0.994547,0.096947,0.000000,0.038428 WAIST:0.999913,0.000000,0.013016,-0.002079 WAIST_JOINT0:0.999878,-0.000000,0.002787,0.015366 WAIST_JOINT1:0.997853,0.065473,0.000000,-0.001411 END:
KINECT_DATA_Sensor  AnkleLeft:0.073241,0.701756,-0.092253,-0.702612 AnkleRight:0.083186,0.739968,0.081230,0.662517 ElbowLeft:-0.046297,0.917561,-0.136290,-0.370626 ElbowRight:-0.062853,0.831236,0.118310,0.539535 FootLeft:0.000000,0.000000,0.000000,0.000000 FootRight:0.000000,0.000000,0.000000,0.000000 HandLeft:-0.026723,0.776886,0.172765,-0.604885 HandRight:0.287303,-0.177971,-0.473117,0.813599 HandTipLeft:0.000000,0.000000,0.000000,0.000000 HandTipRight:0.000000,0.000000,0.000000,0.000000 Head:0.000000,0.000000,0.000000,0.000000 HipLeft:0.108594,-0.683607,0.704120,-0.158439 HipRight:-0.134473,0.674165,0.702690,-0.183427 KneeLeft:0.008557,-0.697922,0.058362,0.713741 KneeRight:-0.015855,0.715994,0.042717,0.696618 Neck:-0.003930,-0.006617,0.996690,-0.080932 ShoulderLeft:0.015119,0.786518,-0.614511,0.059479 ShoulderRight:0.010924,0.801171,0.594989,-0.063206 SpineBase:-0.012896,-0.002052,0.999068,-0.041149 SpineMid:-0.008384,-0.002237,0.999116,-0.041140 SpineShoulder:-0.003848,-0.004382,0.998157,-0.060401 ThumbLeft:0.000000,0.000000,0.000000,0.000000 ThumbRight:0.000000,0.000000,0.000000,0.000000 WristLeft:-0.101247,0.768991,0.149624,-0.613200 WristRight:0.230829,-0.203562,-0.413150,0.857081 END:
KINECT_DATA POSITION:20.555904,-4.256510,-0.013101 HEAD_JOINT1:0.985075,0.153866,-0.000000,0.077152 LARM_JOINT2:0.803005,0.000000,-0.071820,-0.591628 LARM_JOINT3:0.962155,0.000000,-0.198807,-0.186371 LLEG_JOINT2:0.998197,0.033199,0.000000,0.050008 LLEG_JOINT4:0.996126,0.083010,0.000000,-0.029041 RARM_JOINT2:0.795770,0.000000,0.094928,0.598113 RARM_JOINT3:0.826571,0.000000,0.544649,0.141904 RLEG_JOINT2:0.999038,0.019547,0.000000,-0.039247 RLEG_JOINT4:0.994417,0.098047,0.000000,0.039015 WAIST:0.999892,0.000000,0.014533,-0.002207 WAIST_JOINT0:0.999835,-0.000000,0.009475,0.015466 WAIST_JOINT1:0.997841,0.065657,0.000000,-0.001861 END:
KINECT_DATA_Sensor  AnkleLeft:-0.071517,-0.698399,0.093179,0.706004 AnkleRight:0.084320,0.742281,0.081736,0.659719 ElbowLeft:-0.044773,0.917264,-0.135252,-0.371926 ElbowRight:-0.089402,0.829405,0.106538,0.541058 FootLeft:0.000000,0.000000,0.000000,0.000000 FootRight:0.000000,0.000000,0.000000,0.000000 HandLeft:-0.058480,0.781917,0.185170,-0.592366 HandRight:0.278769,-0.106345,-0.485842,0.821545 HandTipLeft:0.000000,0.000000,0.000000,0.000000 HandTipRight:0.000000,0.000000,0.000000,0.000000 Head:0.000000,0.000000,0.000000,0.000000 HipLeft:0.107742,-0.683937,0.704119,-0.157603 HipRight:-0.135207,0.673841,0.702565,-0.184553 KneeLeft:0.009376,-0.696825,0.057461,0.714874 KneeRight:-0.016059,0.717052,0.042938,0.695510 Neck:-0.010244,-0.006895,0.996616,-0.081261 ShoulderLeft:0.016058,0.786803,-0.614353,0.057034 ShoulderRight:0.003780,0.800310,0.595381,-0.070784 SpineBase:-0.014418,-0.002550,0.999040,-0.041290 SpineMid:-0.012296,-0.002637,0.999068,-0.041284 SpineShoulder:-0.010191,-0.004772,0.998102,-0.060552 ThumbLeft:0.000000,0.000000,0.000000,0.000000 ThumbRight:0.000000,0.000000,0.000000,0.000000 WristLeft:-0.102661,0.779468,0.147501,-0.600111 WristRight:0.223802,-0.136769,-0.469339,0.843165 END:
KINECT_DATA POSITION:20.570629,-4.272680,-0.176537 HEAD_JOINT1:0.986058,0.150989,-0.000000,0.069945 LARM_JOINT2:0.802001,0.000000,-0.070607,-0.593135 LARM_JOINT3:0.963526,0.000000,-0.191813,-0.186614 LLEG_JOINT2:0.998133,0.031557,0.000000,0.052293 LLEG_JOINT4:0.996132,0.082593,0.000000,-0.030004 RARM_JOINT2:0.822423,0.000000,0.304249,0.480680 RARM_JOINT3:0.881285,0.000000,0.466101,0.078015 RLEG_JOINT2:0.999109,0.018381,0.000000,-0.038001 RLEG_JOINT4:0.994093,0.099914,0.000000,0.042377 WAIST:0.999851,0.000000,0.016708,-0.004251 WAIST_JOINT0:0.999807,-0.000000,0.007867,0.017999 WAIST_JOINT1:0.997741,0.067174,0.000000,-0.000210 END:
KINECT_DATA_Sensor  AnkleLeft:-0.071025,-0.699261,0.090910,0.705496 AnkleRight:0.083517,0.719555,0.083570,0.684311 ElbowLeft:-0.041568,0.916030,-0.134249,-0.375683 ElbowRight:-0.263637,0.881338,0.082233,0.383376 FootLeft:0.000000,0.000000,0.000000,0.000000 FootRight:0.000000,0.000000,0.000000,0.000000 HandLeft:-0.031375,0.770628,0.170271,-0.613316 HandRight:0.306696,-0.073395,-0.568971,0.759489 HandTipLeft:0.000000,0.000000,0.000000,0.000000 HandTipRight:0.000000,0.000000,0.000000,0.000000 Head:0.000000,0.000000,0.000000,0.000000 HipLeft:0.104378,-0.685354,0.703234,-0.157663 HipRight:-0.134646,0.672020,0.703910,-0.186466 KneeLeft:0.010573,-0.695369,0.056545,0.716347 KneeRight:-0.017516,0.718416,0.042645,0.694084 Neck:-0.009542,-0.007973,0.996431,-0.083493 ShoulderLeft:0.020389,0.786585,-0.614643,0.055520 ShoulderRight:0.009323,0.804542,0.589966,-0.067569 SpineBase:-0.016412,-0.002823,0.998911,-0.043585 SpineMid:-0.012939,-0.002974,0.998962,-0.043575 SpineShoulder:-0.009466,-0.005414,0.998026,-0.061842 ThumbLeft:0.000000,0.000000,0.000000,0.000000 ThumbRight:0.000000,0.000000,0.000000,0.000000 WristLeft:-0.097211,0.763651,0.148574,-0.620736 WristRight:0.244348,-0.095582,-0.449117,0.854079 END:
KINECT_DATA POSITION:20.578468,-4.267285,-0.416815 HEAD_JOINT1:0.988204,0.140468,-0.000000,0.061002 LARM_JOINT2:0.799525,0.000000,-0.071825,-0.596323 LARM_JOINT3:0.962540,0.000000,-0.199364,-0.183769 LLEG_JOINT2:0.998241,0.024701,0.000000,0.053890 LLEG_JOINT4:0.995656,0.088950,0.000000,-0.027520 RARM_JOINT2:0.822337,0.000000,0.478523,0.307860 RARM_JOINT3:0.920736,0.000000,0.386331,0.054706 RLEG_JOINT2:0.999154,0.018593,0.000000,-0.036677 RLEG_JOINT4:0.994391,0.097100,0.000000,0.041922 WAIST:0.999713,0.000000,0.023277,-0.005702 WAIST_JOINT0:0.998840,-0.000000,0.044445,0.018526 WAIST_JOINT1:0.997605,0.069149,-0.000000,0.001508 END:
KINECT_DATA_Sensor  AnkleLeft:-0.067603,-0.679522,0.093510,0.724525 AnkleRight:0.083811,0.749253,0.079636,0.652115 ElbowLeft:-0.037852,0.914930,-0.131451,-0.379726 ElbowRight:-0.431262,0.880568,0.101859,0.168042 FootLeft:0.000000,0.000000,0.000000,0.000000 FootRight:0.000000,0.000000,0.000000,0.000000 HandLeft:-0.059527,0.765030,0.192788,-0.611570 HandRight:-0.020320,-0.140388,0.807224,-0.572947 HandTipLeft:0.000000,0.000000,0.000000,0.000000 HandTipRight:0.000000,0.000000,0.000000,0.000000 Head:0.000000,0.000000,0.000000,0.000000 HipLeft:0.098477,-0.686922,0.703040,-0.155484 HipRight:-0.136512,0.669852,0.704319,-0.191307 KneeLeft:0.015238,-0.690620,0.052034,0.721182 KneeRight:-0.017701,0.722868,0.042810,0.689432 Neck:-0.045458,-0.005704,0.995255,-0.085844 ShoulderLeft:0.021422,0.786132,-0.615937,0.046478 ShoulderRight:-0.036257,0.800934,0.586569,-0.114576 SpineBase:-0.022829,-0.003299,0.998666,-0.046192 SpineMid:-0.034011,-0.002782,0.998348,-0.046226 SpineShoulder:-0.045471,-0.003740,0.996911,-0.063936 ThumbLeft:0.000000,0.000000,0.000000,0.000000 ThumbRight:0.000000,0.000000,0.000000,0.000000 WristLeft:-0.095004,0.765085,0.147075,-0.619668 WristRight:0.061862,0.302488,-0.516302,0.798815 END:
KINECT_DATA POSITION:20.521107,-4.246547,-0.583577 HEAD_JOINT1:0.990034,0.132198,-0.000000,0.048536 LARM_JOINT2:0.798981,0.000000,-0.074188,-0.596763 LARM_JOINT3:0.959455,0.000000,-0.206864,-0.191450 LLEG_JOINT2:0.998095,0.019415,0.000000,0.058560 LLEG_JOINT4:0.995240,0.093768,0.000000,-0.026567 RARM_JOINT2:0.806712,0.000000,0.526370,0.268608 RARM_JOINT3:0.921742,0.000000,0.387645,-0.011080 RLEG_JOINT2:0.999295,0.018002,0.000000,-0.032951 RLEG_JOINT4:0.994513,0.094477,0.000000,0.044921 WAIST:0.999488,0.000000,0.030490,-0.009669 WAIST_JOINT0:0.998004,-0.000000,0.062451,0.009384 WAIST_JOINT1:0.997535,0.070082,-0.000000,0.003566 END:
KINECT_DATA_Sensor  AnkleLeft:-0.066334,-0.669554,0.094437,0.733743 AnkleRight:0.082213,0.747954,0.076928,0.654131 ElbowLeft:-0.037388,0.910594,-0.128633,-0.390991 ElbowRight:-0.474768,0.858532,0.047943,0.187672 FootLeft:0.000000,0.000000,0.000000,0.000000 FootRight:0.000000,0.000000,0.000000,0.000000 HandLeft:-0.035497,0.724901,0.222181,-0.651072 HandRight:-0.070445,-0.101736,0.827032,-0.548367 HandTipLeft:0.000000,0.000000,0.000000,0.000000 HandTipRight:0.000000,0.000000,0.000000,0.000000 Head:0.000000,0.000000,0.000000,0.000000 HipLeft:0.093383,-0.690661,0.700871,-0.151812 HipRight:-0.139444,0.666309,0.705955,-0.195488 KneeLeft:0.019088,-0.685474,0.049156,0.726185 KneeRight:-0.018485,0.727623,0.042526,0.684408 Neck:-0.064526,-0.007234,0.994093,-0.086970 ShoulderLeft:0.026778,0.787094,-0.615071,0.038124 ShoulderRight:-0.055886,0.792544,0.591662,-0.136702 SpineBase:-0.029734,-0.005437,0.998428,-0.047195 SpineMid:-0.046979,-0.004621,0.997765,-0.047282 SpineShoulder:-0.064614,-0.005284,0.995774,-0.065054 ThumbLeft:0.000000,0.000000,0.000000,0.000000 ThumbRight:0.000000,0.000000,0.000000,0.000000 WristLeft:-0.089954,0.726485,0.159653,-0.662298 WristRight:0.109122,0.251783,-0.570824,0.773859 END:
KINECT_DATA POSITION:20.492126,-4.198822,-0.812054 HEAD_JOINT1:0.990785,0.128457,-0.000000,0.042939 LARM_JOINT2:0.796915,0.000000,-0.068860,-0.600154 LARM_JOINT3:0.966388,0.000000,-0.187866,-0.175502 LLEG_JOINT2:0.997986,0.016320,0.000000,0.061304 LLEG_JOINT4:0.995268,0.094226,0.000000,-0.023723 RARM_JOINT2:0.817503,0.000000,0.532005,0.220590 RARM_JOINT3:0.926942,0.000000,0.374996,-0.012518 RLEG_JOINT2:0.999362,0.016432,0.000000,-0.031707 RLEG_JOINT4:0.994035,0.097602,0.000000,0.048670 WAIST:0.999236,0.000000,0.037043,-0.012454 WAIST_JOINT0:0.997400,-0.000000,0.071908,0.004809 WAIST_JOINT1:0.997396,0.071865,-0.000000,0.006092 END:
KINECT_DATA_Sensor  AnkleLeft:-0.063200,-0.664673,0.094380,0.738450 AnkleRight:0.083029,0.739471,0.078661,0.663401 ElbowLeft:-0.029559,0.907448,-0.127512,-0.399257 ElbowRight:-0.509852,0.829698,0.032072,0.224996 FootLeft:0.000000,0.000000,0.000000,0.000000 FootRight:0.000000,0.000000,0.000000,0.000000 HandLeft:-0.046747,0.800767,0.145473,-0.579158 HandRight:-0.007337,0.249905,-0.630478,0.734841 HandTipLeft:0.000000,0.000000,0.000000,0.000000 HandTipRight:0.000000,0.000000,0.000000,0.000000 Head:0.000000,0.000000,0.000000,0.000000 HipLeft:0.088785,-0.692999,0.699561,-0.149946 HipRight:-0.142507,0.662998,0.706981,-0.200756 KneeLeft:0.020891,-0.680784,0.047268,0.730659 KneeRight:-0.020853,0.731890,0.042414,0.679782 Neck:-0.074021,-0.007483,0.993275,-0.088710 ShoulderLeft:0.034056,0.788417,-0.613367,0.031929 ShoulderRight:-0.060922,0.788091,0.594858,-0.146099 SpineBase:-0.036018,-0.006768,0.998115,-0.049233 SpineMid:-0.054909,-0.005835,0.997254,-0.049353 SpineShoulder:-0.074164,-0.005833,0.994973,-0.067040 ThumbLeft:0.000000,0.000000,0.000000,0.000000 ThumbRight:0.000000,0.000000,0.000000,0.000000 WristLeft:-0.101244,0.793675,0.137974,-0.583775 WristRight:0.048150,0.290727,-0.625014,0.722853 END:
KINECT_DATA POSITION:20.544136,-4.171441,-0.963211 HEAD_JOINT1:0.990726,0.130338,-0.000000,0.038396 LARM_JOINT2:0.797628,0.000000,-0.070740,-0.598987 LARM_JOINT3:0.966260,0.000000,-0.191839,-0.171869 LLEG_JOINT2:0.998100,0.014023,0.000000,0.059995 LLEG_JOINT4:0.995131,0.096063,0.000000,-0.022049 RARM_JOINT2:0.859165,0.000000,0.485305,0.162218 RARM_JOINT3:0.925615,0.000000,0.374794,0.052592 RLEG_JOINT2:0.999282,0.015477,0.000000,-0.034578 RLEG_JOINT4:0.993760,0.097940,0.000000,0.053370 WAIST:0.999035,0.000000,0.042142,-0.012363 WAIST_JOINT0:0.996963,-0.000000,0.077678,0.005488 WAIST_JOINT1:0.997275,0.073476,-0.000000,0.006622 END:
KINECT_DATA_Sensor  AnkleLeft:-0.063136,-0.661324,0.094089,0.741493 AnkleRight:0.085096,0.755177,0.075715,0.645549 ElbowLeft:-0.029721,0.904493,-0.129299,-0.405328 ElbowRight:-0.521449,0.826573,0.177383,0.115772 FootLeft:0.000000,0.000000,0.000000,0.000000 FootRight:0.000000,0.000000,0.000000,0.000000 HandLeft:-0.077313,0.833245,0.156656,-0.524581 HandRight:-0.086660,-0.246479,0.750309,-0.607269 HandTipLeft:0.000000,0.000000,0.000000,0.000000 HandTipRight:0.000000,0.000000,0.000000,0.000000 Head:0.000000,0.000000,0.000000,0.000000 HipLeft:0.084530,-0.693220,0.700281,-0.148011 HipRight:-0.144345,0.661878,0.706631,-0.204341 KneeLeft:0.021481,-0.677035,0.044963,0.734262 KneeRight:-0.023721,0.735244,0.043525,0.675987 Neck:-0.079583,-0.007114,0.992696,-0.090390 ShoulderLeft:0.038126,0.788677,-0.612937,0.029038 ShoulderRight:-0.064042,0.787766,0.593497,-0.151936 SpineBase:-0.041061,-0.006640,0.997838,-0.050893 SpineMid:-0.060216,-0.005662,0.996865,-0.051011 SpineShoulder:-0.079743,-0.005570,0.994432,-0.068670 ThumbLeft:0.000000,0.000000,0.000000,0.000000 ThumbRight:0.000000,0.000000,0.000000,0.000000 WristLeft:-0.111801,0.831239,0.122462,-0.530609 WristRight:0.028136,0.233600,-0.543337,0.805869 END:
KINECT_DATA POSITION:20.563545,-4.144017,-1.026773 HEAD_JOINT1:0.991059,0.129155,-0.000000,0.033470 LARM_JOINT2:0.796605,0.000000,-0.074660,-0.599872 LARM_JOINT3:0.965118,0.000000,-0.193385,-0.176494 LLEG_JOINT2:0.998236,0.010427,0.000000,0.058447 LLEG_JOINT4:0.995128,0.096699,0.000000,-0.019242 RARM_JOINT2:0.843859,0.000000,0.509020,0.169707 RARM_JOINT3:0.946678,0.000000,0.321478,-0.021262 RLEG_JOINT2:0.999174,0.013911,0.000000,-0.038174 RLEG_JOINT4:0.993214,0.101182,0.000000,0.057347 WAIST:0.998862,0.000000,0.046265,-0.011606 WAIST_JOINT0:0.996553,-0.000000,0.082479,0.008858 WAIST_JOINT1:0.996976,0.077387,-0.000000,0.007068 END:
KINECT_DATA_Sensor  AnkleLeft:-0.060075,-0.658976,0.093271,0.743936 AnkleRight:0.084132,0.735022,0.079358,0.668106 ElbowLeft:-0.028838,0.901123,-0.129094,-0.412892 ElbowRight:-0.535602,0.815481,0.082862,0.203114 FootLeft:0.000000,0.000000,0.000000,0.000000 FootRight:0.000000,0.000000,0.000000,0.000000 HandLeft:-0.026461,-0.508287,-0.183538,0.840986 HandRight:-0.142375,-0.093534,0.709037,-0.684286 HandTipLeft:0.000000,0.000000,0.000000,0.000000 HandTipRight:0.000000,0.000000,0.000000,0.000000 Head:0.000000,0.000000,0.000000,0.000000 HipLeft:0.081244,-0.692788,0.701348,-0.146816 HipRight:-0.146000,0.661123,0.705943,-0.207951 KneeLeft:0.023419,-0.673880,0.042053,0.737271 KneeRight:-0.027043,0.737950,0.044194,0.672864 Neck:-0.083823,-0.005446,0.991919,-0.095081 ShoulderLeft:0.044791,0.789549,-0.611470,0.026639 ShoulderRight:-0.062623,0.790620,0.588698,-0.156313 SpineBase:-0.045203,-0.006592,0.997572,-0.052560 SpineMid:-0.064479,-0.005575,0.996512,-0.052678 SpineShoulder:-0.084091,-0.004933,0.993817,-0.072329 ThumbLeft:0.000000,0.000000,0.000000,0.000000 ThumbRight:0.000000,0.000000,0.000000,0.000000 WristLeft:0.045509,-0.494678,-0.160415,0.852930 WristRight:0.101435,0.070607,-0.589030,0.798605 END:
KINECT_DATA POSITION:20.537445,-4.109867,-1.058304 HEAD_JOINT1:0.991379,0.127388,-0.000000,0.030651 LARM_JOINT2:0.795816,0.000000,-0.075865,-0.600768 LARM_JOINT3:0.965347,0.000000,-0.193928,-0.174632 LLEG_JOINT2:0.998254,0.008916,0.000000,0.058390 LLEG_JOINT4:0.994990,0.097786,0.000000,-0.020789 RARM_JOINT2:0.798435,0.000000,0.586967,0.134055 RARM_JOINT3:0.988686,0.000000,0.142241,-0.047621 RLEG_JOINT2:0.999151,0.014372,0.000000,-0.038623 RLEG_JOINT4:0.993632,0.098346,0.000000,0.054986 WAIST:0.998770,0.000000,0.048257,-0.011376 WAIST_JOINT0:0.996274,-0.000000,0.085770,0.009013 WAIST_JOINT1:0.996726,0.080363,-0.000000,0.008861 END:
KINECT_DATA_Sensor  AnkleLeft:-0.060825,-0.656876,0.091913,0.745900 AnkleRight:0.083222,0.759697,0.076666,0.640357 ElbowLeft:-0.027201,0.899278,-0.130432,-0.416591 ElbowRight:-0.564279,0.796312,-0.032726,0.215419 FootLeft:0.000000,0.000000,0.000000,0.000000 FootRight:0.000000,0.000000,0.000000,0.000000 HandLeft:-0.045529,0.793002,0.174252,-0.581990 HandRight:-0.551202,0.653699,-0.334914,0.395836 HandTipLeft:0.000000,0.000000,0.000000,0.000000 HandTipRight:0.000000,0.000000,0.000000,0.000000 Head:0.000000,0.000000,0.000000,0.000000 HipLeft:0.078845,-0.692540,0.701849,-0.146900 HipRight:-0.146427,0.660623,0.705763,-0.209847 KneeLeft:0.024561,-0.672416,0.041224,0.738616 KneeRight:-0.026977,0.739242,0.044635,0.671417 Neck:-0.087034,-0.003149,0.991363,-0.098057 ShoulderLeft:0.050279,0.790082,-0.610438,0.024669 ShoulderRight:-0.061225,0.791040,0.587359,-0.159739 SpineBase:-0.047130,-0.005808,0.997402,-0.054172 SpineMid:-0.067081,-0.004722,0.996259,-0.054277 SpineShoulder:-0.087318,-0.003100,0.993323,-0.075338 ThumbLeft:0.000000,0.000000,0.000000,0.000000 ThumbRight:0.000000,0.000000,0.000000,0.000000 WristLeft:-0.105237,0.790261,0.127490,-0.590050 WristRight:-0.502517,0.692638,-0.348660,0.382316 END:
KINECT_DATA POSITION:20.403921,-4.045538,-1.070833 HEAD_JOINT1:0.992077,0.122194,-0.000000,0.029185 LARM_JOINT2:0.797182,0.000000,-0.074067,-0.599179 LARM_JOINT3:0.963336,0.000000,-0.198773,-0.180200 LLEG_JOINT2:0.998342,0.006634,0.000000,0.057175 LLEG_JOINT4:0.994790,0.099754,0.000000,-0.021022 RARM_JOINT2:0.815178,0.000000,0.559170,0.151046 RARM_JOINT3:0.986958,0.000000,0.144897,-0.070132 RLEG_JOINT2:0.999163,0.014326,0.000000,-0.038305 RLEG_JOINT4:0.993469,0.099705,0.000000,0.055486 WAIST:0.998645,0.000000,0.051013,-0.010323 WAIST_JOINT0:0.996152,-0.000000,0.087073,0.009937 WAIST_JOINT1:0.996440,0.083519,-0.000000,0.011455 END:
KINECT_DATA_Sensor  AnkleLeft:-0.061255,-0.655936,0.091130,0.746788 AnkleRight:0.085093,0.760064,0.076683,0.639673 ElbowLeft:-0.024742,0.897361,-0.137448,-0.418616 ElbowRight:-0.546414,0.778796,-0.057737,0.302612 FootLeft:0.000000,0.000000,0.000000,0.000000 FootRight:0.000000,0.000000,0.000000,0.000000 HandLeft:-0.044958,0.786610,0.186480,-0.586898 HandRight:0.291619,-0.446611,0.699163,-0.476097 HandTipLeft:0.000000,0.000000,0.000000,0.000000 HandTipRight:0.000000,0.000000,0.000000,0.000000 Head:0.000000,0.000000,0.000000,0.000000 HipLeft:0.074722,-0.691599,0.703044,-0.147770 HipRight:-0.147000,0.660464,0.704992,-0.212520 KneeLeft:0.026045,-0.670474,0.039631,0.740416 KneeRight:-0.026139,0.741002,0.043586,0.669577 Neck:-0.088676,0.000247,0.990935,-0.100916 ShoulderLeft:0.055870,0.789022,-0.611356,0.023809 ShoulderRight:-0.057798,0.791773,0.586238,-0.161490 SpineBase:-0.049764,-0.003046,0.997125,-0.057060 SpineMid:-0.069197,-0.001933,0.995965,-0.057108 SpineShoulder:-0.088906,0.000159,0.992934,-0.078603 ThumbLeft:0.000000,0.000000,0.000000,0.000000 ThumbRight:0.000000,0.000000,0.000000,0.000000 WristLeft:-0.105081,0.786522,0.123732,-0.595845 WristRight:-0.338895,0.412342,-0.483559,0.693754 END:
KINECT_DATA POSITION:20.210539,-4.010670,-1.022351 HEAD_JOINT1:0.992147,0.119905,-0.000000,0.035608 LARM_JOINT2:0.797724,0.000000,-0.074758,-0.598370 LARM_JOINT3:0.961832,0.000000,-0.201069,-0.185608 LLEG_JOINT2:0.998347,0.005734,0.000000,0.057187 LLEG_JOINT4:0.994783,0.100362,0.000000,-0.018294 RARM_JOINT2:0.815872,0.000000,0.558089,0.151291 RARM_JOINT3:0.985778,0.000000,0.148536,-0.078604 RLEG_JOINT2:0.999199,0.015082,0.000000,-0.037066 RLEG_JOINT4:0.993408,0.099907,0.000000,0.056203 WAIST:0.998606,0.000000,0.051902,-0.009607 WAIST_JOINT0:0.996181,-0.000000,0.086680,0.010532 WAIST_JOINT1:0.996278,0.085281,-0.000000,0.012522 END:
KINECT_DATA_Sensor  AnkleLeft:-0.058955,-0.656639,0.093284,0.746088 AnkleRight:0.085468,0.742757,0.077943,0.659494 ElbowLeft:-0.023775,0.898858,-0.140445,-0.414444 ElbowRight:-0.539880,0.760316,-0.090194,0.349734 FootLeft:0.000000,0.000000,0.000000,0.000000 FootRight:0.000000,0.000000,0.000000,0.000000 HandLeft:-0.032166,-0.515957,-0.201498,0.831957 HandRight:-0.331963,0.407112,-0.525608,0.669176 HandTipLeft:0.000000,0.000000,0.000000,0.000000 HandTipRight:0.000000,0.000000,0.000000,0.000000 Head:0.000000,0.000000,0.000000,0.000000 HipLeft:0.071914,-0.690968,0.703721,-0.148892 HipRight:-0.146435,0.660630,0.704566,-0.213802 KneeLeft:0.027178,-0.669913,0.039579,0.740886 KneeRight:-0.024245,0.741557,0.042793,0.669085 Neck:-0.088895,0.001796,0.990753,-0.102486 ShoulderLeft:0.059006,0.786964,-0.613698,0.024104 ShoulderRight:-0.055065,0.791663,0.586568,-0.161790 SpineBase:-0.050551,-0.001002,0.996957,-0.059340 SpineMid:-0.069654,0.000136,0.995804,-0.059348 SpineShoulder:-0.089082,0.001803,0.992771,-0.080422 ThumbLeft:0.000000,0.000000,0.000000,0.000000 ThumbRight:0.000000,0.000000,0.000000,0.000000 WristLeft:0.048737,-0.500150,-0.153287,0.850869 WristRight:-0.320945,0.415215,-0.548878,0.650633 END:
KINECT_DATA POSITION:20.098017,-3.990897,-0.994027 HEAD_JOINT1:0.991482,0.122581,-0.000000,0.044013 LARM_JOINT2:0.798279,0.000000,-0.073589,-0.597775 LARM_JOINT3:0.963323,0.000000,-0.195827,-0.183465 LLEG_JOINT2:0.998342,0.005609,0.000000,0.057291 LLEG_JOINT4:0.994693,0.101023,0.000000,-0.019486 RARM_JOINT2:0.820408,0.000000,0.556410,0.131674 RARM_JOINT3:0.988290,0.000000,0.135977,-0.069238 RLEG_JOINT2:0.999202,0.015747,0.000000,-0.036697 RLEG_JOINT4:0.993561,0.098414,0.000000,0.056141 WAIST:0.998557,0.000000,0.052958,-0.008907 WAIST_JOINT0:0.996155,-0.000000,0.086916,0.011013 WAIST_JOINT1:0.996237,0.085792,-0.000000,0.012323 END:
KINECT_DATA_Sensor  AnkleLeft:-0.059767,-0.656323,0.093220,0.746310 AnkleRight:0.087400,0.759600,0.074606,0.640159 ElbowLeft:-0.022490,0.899142,-0.142292,-0.413268 ElbowRight:-0.557710,0.771664,-0.053975,0.300968 FootLeft:0.000000,0.000000,0.000000,0.000000 FootRight:0.000000,0.000000,0.000000,0.000000 HandLeft:-0.022656,-0.548577,-0.177564,0.816713 HandRight:-0.315171,0.325936,-0.549117,0.702071 HandTipLeft:0.000000,0.000000,0.000000,0.000000 HandTipRight:0.000000,0.000000,0.000000,0.000000 Head:0.000000,0.000000,0.000000,0.000000 HipLeft:0.070531,-0.690478,0.704326,-0.148967 HipRight:-0.146646,0.660732,0.704072,-0.214967 KneeLeft:0.027784,-0.669117,0.040105,0.741554 KneeRight:-0.023070,0.742300,0.042527,0.668318 Neck:-0.089180,0.002084,0.990686,-0.102874 ShoulderLeft:0.059452,0.786177,-0.614644,0.024567 ShoulderRight:-0.055092,0.791199,0.586988,-0.162524 SpineBase:-0.051620,-0.000373,0.996845,-0.060298 SpineMid:-0.070315,0.000758,0.995701,-0.060294 SpineShoulder:-0.089354,0.002145,0.992702,-0.080951 ThumbLeft:0.000000,0.000000,0.000000,0.000000 ThumbRight:0.000000,0.000000,0.000000,0.000000 WristLeft:0.054239,-0.534118,-0.149663,0.830287 WristRight:-0.270011,0.359484,-0.567785,0.689555 END:
KINECT_DATA POSITION:20.018810,-3.981222,-0.975525 HEAD_JOINT1:0.990999,0.124267,-0.000000,0.049785 LARM_JOINT2:0.799026,0.000000,-0.072906,-0.596860 LARM_JOINT3:0.962964,0.000000,-0.195632,-0.185552 LLEG_JOINT2:0.998385,0.004732,0.000000,0.056616 LLEG_JOINT4:0.994829,0.099690,0.000000,-0.019438 RARM_JOINT2:0.825261,0.000000,0.556577,0.095744 RARM_JOINT3:0.992438,0.000000,0.115351,-0.041961 RLEG_JOINT2:0.999129,0.015707,0.000000,-0.038660 RLEG_JOINT4:0.993272,0.100081,0.000000,0.058260 WAIST:0.998502,0.000000,0.054191,-0.007602 WAIST_JOINT0:0.996197,-0.000000,0.086343,0.011642 WAIST_JOINT1:0.996085,0.087417,-0.000000,0.013155 END:
KINECT_DATA_Sensor  AnkleLeft:-0.057918,-0.656911,0.092020,0.746087 AnkleRight:0.089324,0.759058,0.074964,0.640494 ElbowLeft:-0.020788,0.900245,-0.146224,-0.409568 ElbowRight:-0.582827,0.785056,0.012504,0.209388 FootLeft:0.000000,0.000000,0.000000,0.000000 FootRight:0.000000,0.000000,0.000000,0.000000 HandLeft:-0.018388,-0.552942,-0.174266,0.814585 HandRight:-0.308009,0.278515,-0.566336,0.711916 HandTipLeft:0.000000,0.000000,0.000000,0.000000 HandTipRight:0.000000,0.000000,0.000000,0.000000 Head:0.000000,0.000000,0.000000,0.000000 HipLeft:0.068455,-0.689567,0.705352,-0.149299 HipRight:-0.146684,0.661261,0.703182,-0.216225 KneeLeft:0.028849,-0.668202,0.039984,0.742345 KneeRight:-0.023682,0.743091,0.042866,0.667397 Neck:-0.088887,0.004048,0.990529,-0.104571 ShoulderLeft:0.060894,0.785198,-0.615714,0.025558 ShoulderRight:-0.053418,0.791551,0.586551,-0.162950 SpineBase:-0.052874,0.001143,0.996691,-0.061718 SpineMid:-0.070797,0.002254,0.995579,-0.061687 SpineShoulder:-0.089040,0.003965,0.992595,-0.082533 ThumbLeft:0.000000,0.000000,0.000000,0.000000 ThumbRight:0.000000,0.000000,0.000000,0.000000 WristLeft:0.054111,-0.539685,-0.146754,0.827210 WristRight:-0.253485,0.320320,-0.558320,0.722093 END:
KINECT_DATA POSITION:19.946148,-3.955797,-0.955975 HEAD_JOINT1:0.990133,0.128383,-0.000000,0.056155 LARM_JOINT2:0.799374,0.000000,-0.072104,-0.596492 LARM_JOINT3:0.962557,0.000000,-0.197335,-0.185856 LLEG_JOINT2:0.998410,0.004978,0.000000,0.056149 LLEG_JOINT4:0.994669,0.100912,0.000000,-0.021207 RARM_JOINT2:0.829238,0.000000,0.550267,0.097831 RARM_JOINT3:0.992100,0.000000,0.119589,-0.037902 RLEG_JOINT2:0.999114,0.017084,0.000000,-0.038466 RLEG_JOINT4:0.993740,0.096566,0.000000,0.056174 WAIST:0.998557,0.000000,0.053366,-0.006010 WAIST_JOINT0:0.995612,-0.000000,0.092747,0.012413 WAIST_JOINT1:0.995953,0.088937,-0.000000,0.012958 END:
KINECT_DATA_Sensor  AnkleLeft:-0.058775,-0.653076,0.092830,0.749279 AnkleRight:0.087999,0.762363,0.073052,0.636963 ElbowLeft:-0.019476,0.900686,-0.148714,-0.407761 ElbowRight:-0.580043,0.777761,-0.001787,0.242144 FootLeft:0.000000,0.000000,0.000000,0.000000 FootRight:0.000000,0.000000,0.000000,0.000000 HandLeft:-0.014475,-0.550398,-0.179496,0.815251 HandRight:-0.305020,0.318516,-0.544126,0.713749 HandTipLeft:0.000000,0.000000,0.000000,0.000000 HandTipRight:0.000000,0.000000,0.000000,0.000000 Head:0.000000,0.000000,0.000000,0.000000 HipLeft:0.067899,-0.688066,0.706530,-0.150898 HipRight:-0.145713,0.662113,0.702453,-0.216643 KneeLeft:0.029514,-0.668783,0.040898,0.741745 KneeRight:-0.021458,0.742636,0.042652,0.667992 Neck:-0.094406,0.006106,0.989855,-0.106006 ShoulderLeft:0.060177,0.783104,-0.618394,0.026740 ShoulderRight:-0.062361,0.786109,0.590260,-0.172444 SpineBase:-0.052130,0.002527,0.996640,-0.063130 SpineMid:-0.073133,0.003858,0.995319,-0.063062 SpineShoulder:-0.094543,0.005939,0.991958,-0.083941 ThumbLeft:0.000000,0.000000,0.000000,0.000000 ThumbRight:0.000000,0.000000,0.000000,0.000000 WristLeft:0.053460,-0.538300,-0.143773,0.828676 WristRight:-0.283043,0.335418,-0.547129,0.712763 END:
KINECT_DATA POSITION:19.870081,-3.948783,-0.901461 HEAD_JOINT1:0.990070,0.128961,-0.000000,0.055955 LARM_JOINT2:0.799206,0.000000,-0.072320,-0.596691 LARM_JOINT3:0.962057,0.000000,-0.199685,-0.185937 LLEG_JOINT2:0.998435,0.005227,0.000000,0.055678 LLEG_JOINT4:0.994654,0.101329,0.000000,-0.019901 RARM_JOINT2:0.829630,0.000000,0.550090,0.095473 RARM_JOINT3:0.990297,0.000000,0.135421,-0.031190 RLEG_JOINT2:0.999115,0.017299,0.000000,-0.038333 RLEG_JOINT4:0.993759,0.097163,0.000000,0.054788 WAIST:0.998631,0.000000,0.052085,-0.004863 WAIST_JOINT0:0.996074,-0.000000,0.087590,0.012825 WAIST_JOINT1:0.995906,0.089536,-0.000000,0.012450 END:
KINECT_DATA_Sensor  AnkleLeft:-0.058062,-0.656285,0.094573,0.746308 AnkleRight:0.088330,0.759790,0.073802,0.639898 ElbowLeft:-0.019036,0.902181,-0.149194,-0.404288 ElbowRight:-0.580290,0.788395,0.029664,0.202031 FootLeft:0.000000,0.000000,0.000000,0.000000 FootRight:0.000000,0.000000,0.000000,0.000000 HandLeft:-0.048182,0.760101,0.186628,-0.620560 HandRight:-0.299296,0.333656,-0.552751,0.702540 HandTipLeft:0.000000,0.000000,0.000000,0.000000 HandTipRight:0.000000,0.000000,0.000000,0.000000 Head:0.000000,0.000000,0.000000,0.000000 HipLeft:0.067789,-0.686940,0.707327,-0.152336 HipRight:-0.144512,0.662887,0.702017,-0.216494 KneeLeft:0.029880,-0.669712,0.041482,0.740859 KneeRight:-0.020356,0.741830,0.041936,0.668966 Neck:-0.090144,0.006441,0.990200,-0.106477 ShoulderLeft:0.059948,0.781975,-0.619733,0.029217 ShoulderRight:-0.056888,0.788047,0.589530,-0.167930 SpineBase:-0.050913,0.003535,0.996635,-0.064144 SpineMid:-0.070373,0.004788,0.995450,-0.064063 SpineShoulder:-0.090242,0.006439,0.992306,-0.084518 ThumbLeft:0.000000,0.000000,0.000000,0.000000 ThumbRight:0.000000,0.000000,0.000000,0.000000 WristLeft:-0.092345,0.762814,0.119251,-0.628782 WristRight:-0.275817,0.351801,-0.542923,0.710911 END:
KINECT_DATA POSITION:19.859894,-3.951242,-0.845063 HEAD_JOINT1:0.989908,0.129851,-0.000000,0.056761 LARM_JOINT2:0.799515,0.000000,-0.071975,-0.596318 LARM_JOINT3:0.962896,0.000000,-0.197488,-0.183931 LLEG_JOINT2:0.998435,0.005896,0.000000,0.055620 LLEG_JOINT4:0.994419,0.103663,0.000000,-0.019641 RARM_JOINT2:0.816458,0.000000,0.568936,0.098535 RARM_JOINT3:0.990127,0.000000,0.134086,-0.040854 RLEG_JOINT2:0.999144,0.017437,0.000000,-0.037511 RLEG_JOINT4:0.993756,0.098147,0.000000,0.053068 WAIST:0.998611,0.000000,0.052447,-0.005054 WAIST_JOINT0:0.996266,-0.000000,0.085406,0.012679 WAIST_JOINT1:0.995832,0.090467,-0.000000,0.011624 END:
KINECT_DATA_Sensor  AnkleLeft:-0.060510,-0.657201,0.096461,0.745064 AnkleRight:0.088179,0.758807,0.075564,0.640879 ElbowLeft:-0.017859,0.901695,-0.149082,-0.405465 ElbowRight:-0.578581,0.788665,-0.002704,0.207954 FootLeft:0.000000,0.000000,0.000000,0.000000 FootRight:0.000000,0.000000,0.000000,0.000000 HandLeft:-0.051165,0.783887,0.171612,-0.594519 HandRight:-0.285489,0.338779,-0.574384,0.688337 HandTipLeft:0.000000,0.000000,0.000000,0.000000 HandTipRight:0.000000,0.000000,0.000000,0.000000 Head:0.000000,0.000000,0.000000,0.000000 HipLeft:0.067068,-0.687116,0.707234,-0.152298 HipRight:-0.143991,0.662555,0.702210,-0.217228 KneeLeft:0.029192,-0.669442,0.041763,0.741114 KneeRight:-0.019800,0.742101,0.041618,0.668702 Neck:-0.088086,0.004947,0.990280,-0.107530 ShoulderLeft:0.061351,0.782421,-0.619003,0.029809 ShoulderRight:-0.052443,0.789117,0.589242,-0.165343 SpineBase:-0.051277,0.002835,0.996572,-0.064865 SpineMid:-0.069531,0.004023,0.995465,-0.064802 SpineShoulder:-0.088178,0.005228,0.992421,-0.085427 ThumbLeft:0.000000,0.000000,0.000000,0.000000 ThumbRight:0.000000,0.000000,0.000000,0.000000 WristLeft:-0.095878,0.784285,0.116033,-0.601864 WristRight:-0.262332,0.357989,-0.553584,0.704678 END:
KINECT_DATA POSITION:19.953438,-3.973974,-0.764465 HEAD_JOINT1:0.989878,0.131907,-0.000000,0.052368 LARM_JOINT2:0.799254,0.000000,-0.071538,-0.596721 LARM_JOINT3:0.964205,0.000000,-0.196122,-0.178453 LLEG_JOINT2:0.998448,0.005330,0.000000,0.055442 LLEG_JOINT4:0.995042,0.098259,0.000000,-0.015401 RARM_JOINT2:0.799170,0.000000,0.593485,0.095407 RARM_JOINT3:0.992029,0.000000,0.119614,-0.039623 RLEG_JOINT2:0.999090,0.017347,0.000000,-0.038970 RLEG_JOINT4:0.993633,0.098038,0.000000,0.055510 WAIST:0.998445,0.000000,0.055454,-0.005627 WAIST_JOINT0:0.996146,-0.000000,0.086706,0.013225 WAIST_JOINT1:0.995753,0.091408,-0.000000,0.010965 END:
KINECT_DATA_Sensor  AnkleLeft:-0.054296,-0.657470,0.094795,0.745519 AnkleRight:0.082163,0.709894,0.081893,0.694690 ElbowLeft:-0.016488,0.898196,-0.147904,-0.413639 ElbowRight:-0.580454,0.799695,-0.002669,0.153473 FootLeft:0.000000,0.000000,0.000000,0.000000 FootRight:0.000000,0.000000,0.000000,0.000000 HandLeft:-0.051871,0.787744,0.152289,-0.594623 HandRight:0.033002,-0.394242,0.845018,-0.359762 HandTipLeft:0.000000,0.000000,0.000000,0.000000 HandTipRight:0.000000,0.000000,0.000000,0.000000 Head:0.000000,0.000000,0.000000,0.000000 HipLeft:0.064923,-0.687717,0.707067,-0.151280 HipRight:-0.144945,0.661268,0.702360,-0.220013 KneeLeft:0.028958,-0.667203,0.040944,0.743186 KneeRight:-0.021465,0.744065,0.042879,0.666385 Neck:-0.089355,0.003248,0.990077,-0.108408 ShoulderLeft:0.065571,0.782773,-0.618232,0.027488 ShoulderRight:-0.049411,0.790084,0.588288,-0.165052 SpineBase:-0.054245,0.001564,0.996340,-0.066045 SpineMid:-0.071679,0.002720,0.995237,-0.066008 SpineShoulder:-0.089482,0.003569,0.992223,-0.086445 ThumbLeft:0.000000,0.000000,0.000000,0.000000 ThumbRight:0.000000,0.000000,0.000000,0.000000 WristLeft:-0.097864,0.785182,0.115603,-0.600456 WristRight:-0.147961,0.180748,-0.575478,0.783749 END:
KINECT_DATA POSITION:20.053907,-3.988483,-0.757420 HEAD_JOINT1:0.990089,0.132039,-0.000000,0.047857 LARM_JOINT2:0.798324,0.000000,-0.071296,-0.597992 LARM_JOINT3:0.964231,0.000000,-0.197853,-0.176386 LLEG_JOINT2:0.998482,0.005112,0.000000,0.054836 LLEG_JOINT4:0.994709,0.101038,0.000000,-0.018607 RARM_JOINT2:0.808745,0.000000,0.582045,0.084587 RARM_JOINT3:0.990461,0.000000,0.135832,-0.023181 RLEG_JOINT2:0.999043,0.018235,0.000000,-0.039761 RLEG_JOINT4:0.993720,0.097079,0.000000,0.055643 WAIST:0.998305,0.000000,0.057897,-0.005842 WAIST_JOINT0:0.995942,-0.000000,0.089006,0.013333 WAIST_JOINT1:0.995683,0.092211,-0.000000,0.010628 END:
KINECT_DATA_Sensor  AnkleLeft:-0.059108,-0.655186,0.093404,0.747338 AnkleRight:0.087143,0.760853,0.076366,0.638496 ElbowLeft:-0.015383,0.894562,-0.146239,-0.422063 ElbowRight:-0.554370,0.803595,0.192925,-0.098435 FootLeft:0.000000,0.000000,0.000000,0.000000 FootRight:0.000000,0.000000,0.000000,0.000000 HandLeft:-0.052666,0.790113,0.156097,-0.590408 HandRight:0.280555,-0.329100,0.647649,-0.627321 HandTipLeft:0.000000,0.000000,0.000000,0.000000 HandTipRight:0.000000,0.000000,0.000000,0.000000 Head:0.000000,0.000000,0.000000,0.000000 HipLeft:0.063222,-0.688092,0.707071,-0.150274 HipRight:-0.145899,0.660446,0.702269,-0.222131 KneeLeft:0.028459,-0.665378,0.040274,0.744876 KneeRight:-0.021709,0.745702,0.044179,0.664458 Neck:-0.091555,0.002508,0.989784,-0.109270 ShoulderLeft:0.069439,0.783177,-0.617412,0.024790 ShoulderRight:-0.048106,0.790430,0.587673,-0.165970 SpineBase:-0.056681,0.000749,0.996156,-0.066781 SpineMid:-0.074025,0.001912,0.995018,-0.066758 SpineShoulder:-0.091717,0.002737,0.991951,-0.087258 ThumbLeft:0.000000,0.000000,0.000000,0.000000 ThumbRight:0.000000,0.000000,0.000000,0.000000 WristLeft:-0.100223,0.787983,0.114059,-0.596681 WristRight:-0.225944,0.394196,-0.492361,0.742388 END:
KINECT_DATA POSITION:20.116251,-3.983604,-0.762844 HEAD_JOINT1:0.990367,0.130572,-0.000000,0.046090 LARM_JOINT2:0.798294,0.000000,-0.071685,-0.597987 LARM_JOINT3:0.964347,0.000000,-0.199546,-0.173827 LLEG_JOINT2:0.998475,0.004475,0.000000,0.055025 LLEG_JOINT4:0.994710,0.101024,0.000000,-0.018625 RARM_JOINT2:0.805509,0.000000,0.585634,0.090490 RARM_JOINT3:0.990578,0.000000,0.133734,-0.029515 RLEG_JOINT2:0.999030,0.019190,0.000000,-0.039637 RLEG_JOINT4:0.993832,0.095911,0.000000,0.055665 WAIST:0.998216,0.000000,0.059382,-0.006265 WAIST_JOINT0:0.995814,-0.000000,0.090426,0.013293 WAIST_JOINT1:0.995644,0.092719,-0.000000,0.009849 END:
KINECT_DATA_Sensor  AnkleLeft:-0.058982,-0.654369,0.092704,0.748149 AnkleRight:0.086682,0.761647,0.076574,0.637587 ElbowLeft:-0.015149,0.892343,-0.145100,-0.427130 ElbowRight:-0.556690,0.808312,0.173117,-0.082212 FootLeft:0.000000,0.000000,0.000000,0.000000 FootRight:0.000000,0.000000,0.000000,0.000000 HandLeft:-0.055130,0.776982,0.160482,-0.606222 HandRight:0.682083,-0.668707,-0.177184,0.237066 HandTipLeft:0.000000,0.000000,0.000000,0.000000 HandTipRight:0.000000,0.000000,0.000000,0.000000 Head:0.000000,0.000000,0.000000,0.000000 HipLeft:0.062097,-0.688598,0.706883,-0.149306 HipRight:-0.145992,0.659792,0.702498,-0.223286 KneeLeft:0.028700,-0.664210,0.039740,0.745937 KneeRight:-0.021337,0.746729,0.045087,0.663255 Neck:-0.092818,0.001147,0.989610,-0.109798 ShoulderLeft:0.071838,0.783590,-0.616674,0.023208 ShoulderRight:-0.047106,0.790380,0.587683,-0.166462 SpineBase:-0.058169,-0.000437,0.996041,-0.067214 SpineMid:-0.075425,0.000728,0.994883,-0.067212 SpineShoulder:-0.093016,0.001373,0.991788,-0.087769 ThumbLeft:0.000000,0.000000,0.000000,0.000000 ThumbRight:0.000000,0.000000,0.000000,0.000000 WristLeft:-0.099144,0.775654,0.114657,-0.612687 WristRight:-0.524984,0.791178,0.148401,-0.276417 END:
KINECT_DATA POSITION:20.178972,-3.972851,-0.762296 HEAD_JOINT1:0.990524,0.130619,-0.000000,0.042445 LARM_JOINT2:0.798046,0.000000,-0.072104,-0.598268 LARM_JOINT3:0.964183,0.000000,-0.201484,-0.172499 LLEG_JOINT2:0.998487,0.004519,0.000000,0.054808 LLEG_JOINT4:0.994588,0.102061,0.000000,-0.019472 RARM_JOINT2:0.802360,0.000000,0.588964,0.096643 RARM_JOINT3:0.991247,0.000000,0.126956,-0.036216 RLEG_JOINT2:0.999063,0.017914,0.000000,-0.039401 RLEG_JOINT4:0.993551,0.098407,0.000000,0.056322 WAIST:0.998154,0.000000,0.060356,-0.006707 WAIST_JOINT0:0.995724,-0.000000,0.091435,0.013134 WAIST_JOINT1:0.995649,0.092657,-0.000000,0.009906 END:
KINECT_DATA_Sensor  AnkleLeft:-0.060883,-0.653404,0.092279,0.748893 AnkleRight:0.087791,0.761954,0.077267,0.636984 ElbowLeft:-0.015510,0.890724,-0.144214,-0.430781 ElbowRight:-0.549099,0.807871,0.183876,-0.109658 FootLeft:0.000000,0.000000,0.000000,0.000000 FootRight:0.000000,0.000000,0.000000,0.000000 HandLeft:-0.065409,0.797854,0.162163,-0.576935 HandRight:0.689294,-0.654835,-0.190277,0.244661 HandTipLeft:0.000000,0.000000,0.000000,0.000000 HandTipRight:0.000000,0.000000,0.000000,0.000000 Head:0.000000,0.000000,0.000000,0.000000 HipLeft:0.061481,-0.689056,0.706631,-0.148641 HipRight:-0.146158,0.659330,0.702718,-0.223852 KneeLeft:0.028169,-0.663492,0.039326,0.746618 KneeRight:-0.022361,0.747344,0.044269,0.662583 Neck:-0.093793,0.000764,0.989529,-0.109706 ShoulderLeft:0.072924,0.783942,-0.616145,0.021991 ShoulderRight:-0.047167,0.790536,0.587351,-0.166871 SpineBase:-0.059120,-0.001128,0.995977,-0.067329 SpineMid:-0.076414,0.000042,0.994800,-0.067339 SpineShoulder:-0.094014,0.000881,0.991696,-0.087749 ThumbLeft:0.000000,0.000000,0.000000,0.000000 ThumbRight:0.000000,0.000000,0.000000,0.000000 WristLeft:-0.104802,0.797444,0.110898,-0.583782 WristRight:-0.514605,0.791367,0.158699,-0.289369 END:
KINECT_DATA POSITION:20.259117,-3.962464,-0.774741 HEAD_JOINT1:0.990278,0.132311,-0.000000,0.042928 LARM_JOINT2:0.797929,0.000000,-0.072583,-0.598365 LARM_JOINT3:0.964171,0.000000,-0.199617,-0.174720 LLEG_JOINT2:0.998501,0.003363,0.000000,0.054635 LLEG_JOINT4:0.994380,0.104644,0.000000,-0.016065 RARM_JOINT2:0.802161,0.000000,0.589226,0.096696 RARM_JOINT3:0.991266,0.000000,0.126085,-0.038667 RLEG_JOINT2:0.999005,0.020112,0.000000,-0.039812 RLEG_JOINT4:0.993659,0.096388,0.000000,0.057888 WAIST:0.998091,0.000000,0.061339,-0.007178 WAIST_JOINT0:0.995680,-0.000000,0.091980,0.012715 WAIST_JOINT1:0.995649,0.092678,-0.000000,0.009709 END:
KINECT_DATA_Sensor  AnkleLeft:-0.060354,-0.653372,0.095182,0.748601 AnkleRight:0.088305,0.762120,0.077071,0.636738 ElbowLeft:-0.015363,0.890499,-0.143324,-0.431549 ElbowRight:-0.549387,0.807684,0.183289,-0.110566 FootLeft:0.000000,0.000000,0.000000,0.000000 FootRight:0.000000,0.000000,0.000000,0.000000 HandLeft:-0.044575,0.762937,0.166243,-0.623140 HandRight:0.558629,-0.500719,-0.449976,0.484494 HandTipLeft:0.000000,0.000000,0.000000,0.000000 HandTipRight:0.000000,0.000000,0.000000,0.000000 Head:0.000000,0.000000,0.000000,0.000000 HipLeft:0.061036,-0.689502,0.706346,-0.148111 HipRight:-0.146413,0.658788,0.702937,-0.224592 KneeLeft:0.028549,-0.662720,0.038128,0.747351 KneeRight:-0.021577,0.748026,0.046506,0.661687 Neck:-0.094091,-0.000040,0.989498,-0.109726 ShoulderLeft:0.073565,0.783912,-0.616120,0.021602 ShoulderRight:-0.046932,0.789415,0.588836,-0.167014 SpineBase:-0.060086,-0.001954,0.995908,-0.067475 SpineMid:-0.077073,-0.000802,0.994738,-0.067498 SpineShoulder:-0.094332,0.000062,0.991662,-0.087794 ThumbLeft:0.000000,0.000000,0.000000,0.000000 ThumbRight:0.000000,0.000000,0.000000,0.000000 WristLeft:-0.098037,0.761190,0.118058,-0.630112 WristRight:0.401482,-0.598637,-0.360072,0.592278 END:
