EastLYD/RoboCupatHomeSim/InteractiveCleanUp/JapanOpen2016/Motion_Data/File21.dat
KINECT_DATA POSITION:49.069672,0.947684,-12.897432 HEAD_JOINT1:0.981300,0.163738,-0.000000,0.101192 LARM_JOINT2:0.838699,0.000000,-0.032304,-0.543637 LARM_JOINT3:0.951787,0.000000,-0.238989,-0.192317 LLEG_JOINT2:0.997185,0.008161,0.000000,0.074537 LLEG_JOINT4:0.994541,0.098593,0.000000,-0.034179 RARM_JOINT2:0.813381,0.000000,-0.061729,0.578447 RARM_JOINT3:0.949351,0.000000,0.278133,0.146204 RLEG_JOINT2:0.998077,0.023236,0.000000,-0.057463 RLEG_JOINT4:0.995342,0.085017,0.000000,0.045458 WAIST:0.999969,-0.000000,0.007634,0.002023 WAIST_JOINT0:0.999602,0.000000,-0.027918,0.003986 WAIST_JOINT1:0.997820,0.064364,0.000000,-0.014604 END:
KINECT_DATA_Sensor  AnkleLeft:0.063393,0.802561,-0.095243,-0.585496 AnkleRight:0.070470,0.718423,0.082398,0.687104 ElbowLeft:-0.051533,0.885273,-0.191656,-0.420600 ElbowRight:-0.003947,0.823807,0.209847,0.526584 FootLeft:0.000000,0.000000,0.000000,0.000000 FootRight:0.000000,0.000000,0.000000,0.000000 HandLeft:-0.084066,0.722480,0.192142,-0.658815 HandRight:-0.265805,0.952313,-0.057948,0.138169 HandTipLeft:0.000000,0.000000,0.000000,0.000000 HandTipRight:0.000000,0.000000,0.000000,0.000000 Head:0.000000,0.000000,0.000000,0.000000 HipLeft:0.114258,-0.679353,0.707469,-0.157840 HipRight:-0.126458,0.675736,0.703176,-0.181471 KneeLeft:0.047929,-0.699417,0.060247,0.710556 KneeRight:-0.023109,0.712493,0.055490,0.699100 Neck:0.026284,-0.017015,0.996387,-0.078941 ShoulderLeft:0.025593,0.782220,-0.619674,0.059005 ShoulderRight:0.060180,0.782883,0.619032,-0.016503 SpineBase:-0.008241,-0.011156,0.999053,-0.041238 SpineMid:0.008833,-0.011859,0.999048,-0.041042 SpineShoulder:0.026223,-0.014688,0.997813,-0.058869 ThumbLeft:0.000000,0.000000,0.000000,0.000000 ThumbRight:0.000000,0.000000,0.000000,0.000000 WristLeft:-0.136774,0.720407,0.126727,-0.668018 WristRight:-0.159683,0.973107,0.020627,0.164736 END:
KINECT_DATA POSITION:49.055969,0.929901,-12.920070 HEAD_JOINT1:0.982037,0.161304,-0.000000,0.097902 LARM_JOINT2:0.838394,0.000000,-0.033290,-0.544048 LARM_JOINT3:0.953699,0.000000,-0.235135,-0.187534 LLEG_JOINT2:0.997200,0.008239,0.000000,0.074329 LLEG_JOINT4:0.994619,0.098852,0.000000,-0.031005 RARM_JOINT2:0.817261,0.000000,-0.052950,0.573830 RARM_JOINT3:0.936155,0.000000,0.307681,0.170136 RLEG_JOINT2:0.998054,0.022632,0.000000,-0.058100 RLEG_JOINT4:0.995059,0.088500,0.000000,0.044993 WAIST:0.999962,-0.000000,0.008486,0.002217 WAIST_JOINT0:0.999677,0.000000,-0.025088,0.004182 WAIST_JOINT1:0.997851,0.063976,0.000000,-0.014188 END:
KINECT_DATA_Sensor  AnkleLeft:0.065230,0.821292,-0.095820,-0.558608 AnkleRight:0.072476,0.723869,0.084545,0.680891 ElbowLeft:-0.052808,0.884179,-0.191152,-0.422966 ElbowRight:-0.010310,0.832418,0.210786,0.512390 FootLeft:0.000000,0.000000,0.000000,0.000000 FootRight:0.000000,0.000000,0.000000,0.000000 HandLeft:-0.080727,0.709101,0.173624,-0.678612 HandRight:-0.301762,0.940272,-0.099197,0.122426 HandTipLeft:0.000000,0.000000,0.000000,0.000000 HandTipRight:0.000000,0.000000,0.000000,0.000000 Head:0.000000,0.000000,0.000000,0.000000 HipLeft:0.113893,-0.679317,0.707725,-0.157104 HipRight:-0.127224,0.675767,0.702978,-0.181588 KneeLeft:0.047812,-0.698828,0.060331,0.711135 KneeRight:-0.023900,0.713069,0.055350,0.698497 Neck:0.023550,-0.016157,0.996498,-0.078589 ShoulderLeft:0.026837,0.782538,-0.619418,0.056875 ShoulderRight:0.057867,0.783449,0.618473,-0.018706 SpineBase:-0.009088,-0.010862,0.999065,-0.040852 SpineMid:0.007037,-0.011520,0.999081,-0.040671 SpineShoulder:0.023478,-0.014052,0.997911,-0.058520 ThumbLeft:0.000000,0.000000,0.000000,0.000000 ThumbRight:0.000000,0.000000,0.000000,0.000000 WristLeft:-0.135602,0.703418,0.130369,-0.685433 WristRight:-0.185912,0.970102,-0.002269,0.155990 END:
KINECT_DATA POSITION:49.038391,0.916108,-12.894320 HEAD_JOINT1:0.982387,0.162687,-0.000000,0.091912 LARM_JOINT2:0.835480,0.000000,-0.027588,-0.548828 LARM_JOINT3:0.956346,0.000000,-0.230692,-0.179396 LLEG_JOINT2:0.997266,0.008432,0.000000,0.073410 LLEG_JOINT4:0.994893,0.095604,0.000000,-0.032353 RARM_JOINT2:0.821793,0.000000,-0.044411,0.568053 RARM_JOINT3:0.931268,0.000000,0.315195,0.182737 RLEG_JOINT2:0.997937,0.021641,0.000000,-0.060451 RLEG_JOINT4:0.994750,0.091651,0.000000,0.045529 WAIST:0.999931,-0.000000,0.011392,0.002986 WAIST_JOINT0:0.999905,0.000000,-0.012222,0.006413 WAIST_JOINT1:0.997947,0.062688,0.000000,-0.013122 END:
KINECT_DATA_Sensor  AnkleLeft:0.059479,0.793975,-0.095520,-0.597446 AnkleRight:0.073937,0.732405,0.086222,0.671329 ElbowLeft:-0.050818,0.875252,-0.188919,-0.442336 ElbowRight:-0.017589,0.842082,0.211517,0.495832 FootLeft:0.000000,0.000000,0.000000,0.000000 FootRight:0.000000,0.000000,0.000000,0.000000 HandLeft:0.051773,-0.623599,-0.163639,0.762670 HandRight:-0.288799,0.923435,-0.138775,0.211200 HandTipLeft:0.000000,0.000000,0.000000,0.000000 HandTipRight:0.000000,0.000000,0.000000,0.000000 Head:0.000000,0.000000,0.000000,0.000000 HipLeft:0.113111,-0.679274,0.708203,-0.155699 HipRight:-0.130111,0.676034,0.701757,-0.183266 KneeLeft:0.047400,-0.696787,0.060488,0.713150 KneeRight:-0.025896,0.715055,0.055670,0.696367 Neck:0.010851,-0.013417,0.996866,-0.077204 ShoulderLeft:0.033874,0.781826,-0.620824,0.046669 ShoulderRight:0.048626,0.785069,0.616839,-0.028489 SpineBase:-0.012008,-0.010071,0.999072,-0.040112 SpineMid:-0.000770,-0.010521,0.999144,-0.039996 SpineShoulder:0.010756,-0.011876,0.998219,-0.057457 ThumbLeft:0.000000,0.000000,0.000000,0.000000 ThumbRight:0.000000,0.000000,0.000000,0.000000 WristLeft:0.124147,-0.606548,-0.140604,0.772604 WristRight:-0.195592,0.949317,-0.035419,0.243487 END:
KINECT_DATA POSITION:49.024029,0.908519,-12.824202 HEAD_JOINT1:0.982850,0.164796,-0.000000,0.082753 LARM_JOINT2:0.832723,0.000000,-0.020214,-0.553321 LARM_JOINT3:0.956457,0.000000,-0.236201,-0.171459 LLEG_JOINT2:0.997309,0.008377,0.000000,0.072828 LLEG_JOINT4:0.994780,0.096782,0.000000,-0.032341 RARM_JOINT2:0.824944,0.000000,-0.037958,0.563939 RARM_JOINT3:0.924505,0.000000,0.329793,0.191121 RLEG_JOINT2:0.997870,0.021086,0.000000,-0.061738 RLEG_JOINT4:0.994502,0.093502,0.000000,0.047140 WAIST:0.999849,-0.000000,0.017017,0.003531 WAIST_JOINT0:0.999967,0.000000,-0.001663,0.007979 WAIST_JOINT1:0.998055,0.061332,0.000000,-0.011149 END:
KINECT_DATA_Sensor  AnkleLeft:0.066662,0.825705,-0.091883,-0.552562 AnkleRight:0.076181,0.745228,0.085814,0.656862 ElbowLeft:-0.048165,0.862963,-0.188236,-0.466414 ElbowRight:-0.024362,0.848769,0.210497,0.484446 FootLeft:0.000000,0.000000,0.000000,0.000000 FootRight:0.000000,0.000000,0.000000,0.000000 HandLeft:0.056809,-0.596123,-0.158486,0.785043 HandRight:-0.335191,0.928851,-0.127916,0.092310 HandTipLeft:0.000000,0.000000,0.000000,0.000000 HandTipRight:0.000000,0.000000,0.000000,0.000000 Head:0.000000,0.000000,0.000000,0.000000 HipLeft:0.110918,-0.679638,0.708849,-0.152720 HipRight:-0.135240,0.675776,0.700307,-0.186031 KneeLeft:0.047086,-0.692825,0.060673,0.717004 KneeRight:-0.027150,0.718902,0.055623,0.692350 Neck:0.000446,-0.010660,0.997062,-0.075847 ShoulderLeft:0.039737,0.780851,-0.622310,0.037724 ShoulderRight:0.041151,0.786252,0.615486,-0.035939 SpineBase:-0.017589,-0.008627,0.999052,-0.038886 SpineMid:-0.008756,-0.008971,0.999168,-0.038808 SpineShoulder:0.000354,-0.009445,0.998376,-0.056170 ThumbLeft:0.000000,0.000000,0.000000,0.000000 ThumbRight:0.000000,0.000000,0.000000,0.000000 WristLeft:0.128227,-0.579379,-0.143007,0.792103 WristRight:-0.209803,0.968808,-0.025027,0.129492 END:
KINECT_DATA POSITION:49.070419,0.929384,-12.707699 HEAD_JOINT1:0.983458,0.165779,-0.000000,0.072998 LARM_JOINT2:0.830882,0.000000,-0.015733,-0.556227 LARM_JOINT3:0.956214,0.000000,-0.240137,-0.167301 LLEG_JOINT2:0.997299,0.009062,0.000000,0.072883 LLEG_JOINT4:0.995122,0.093867,0.000000,-0.030356 RARM_JOINT2:0.836106,0.000000,0.010472,0.548468 RARM_JOINT3:0.897053,0.000000,0.390073,0.207698 RLEG_JOINT2:0.997828,0.021892,0.000000,-0.062132 RLEG_JOINT4:0.994443,0.093032,0.000000,0.049268 WAIST:0.999743,-0.000000,0.022513,0.002821 WAIST_JOINT0:0.999907,-0.000000,0.009624,0.009669 WAIST_JOINT1:0.998217,0.059210,0.000000,-0.007541 END:
KINECT_DATA_Sensor  AnkleLeft:0.060588,0.798362,-0.094208,-0.591668 AnkleRight:0.076920,0.750786,0.085457,0.650462 ElbowLeft:-0.047780,0.854020,-0.188353,-0.482586 ElbowRight:-0.070443,0.852379,0.201320,0.477450 FootLeft:0.000000,0.000000,0.000000,0.000000 FootRight:0.000000,0.000000,0.000000,0.000000 HandLeft:-0.087209,0.699262,0.157549,-0.691814 HandRight:-0.323386,0.931201,-0.147480,0.080844 HandTipLeft:0.000000,0.000000,0.000000,0.000000 HandTipRight:0.000000,0.000000,0.000000,0.000000 Head:0.000000,0.000000,0.000000,0.000000 HipLeft:0.108688,-0.680711,0.708936,-0.149090 HipRight:-0.140534,0.674750,0.699865,-0.187486 KneeLeft:0.045792,-0.689092,0.060941,0.720654 KneeRight:-0.027700,0.722572,0.056813,0.688400 Neck:-0.010606,-0.007172,0.997223,-0.073358 ShoulderLeft:0.044463,0.779315,-0.624389,0.028786 ShoulderRight:0.031650,0.786978,0.614563,-0.044446 SpineBase:-0.022932,-0.006983,0.999031,-0.036924 SpineMid:-0.016951,-0.007204,0.999150,-0.036881 SpineShoulder:-0.010708,-0.006630,0.998445,-0.054301 ThumbLeft:0.000000,0.000000,0.000000,0.000000 ThumbRight:0.000000,0.000000,0.000000,0.000000 WristLeft:0.153144,-0.680442,-0.118376,0.706777 WristRight:-0.313492,0.940250,-0.086411,0.100928 END:
KINECT_DATA POSITION:49.237473,0.950947,-12.521660 HEAD_JOINT1:0.984958,0.161602,-0.000000,0.061179 LARM_JOINT2:0.829411,0.000000,-0.010371,-0.558542 LARM_JOINT3:0.956683,0.000000,-0.240172,-0.164542 LLEG_JOINT2:0.997498,0.008864,0.000000,0.070140 LLEG_JOINT4:0.995085,0.095443,0.000000,-0.026408 RARM_JOINT2:0.842242,0.000000,0.154150,0.516591 RARM_JOINT3:0.919807,0.000000,0.353991,0.169250 RLEG_JOINT2:0.997692,0.023210,0.000000,-0.063810 RLEG_JOINT4:0.994088,0.095184,0.000000,0.052244 WAIST:0.999586,-0.000000,0.028583,0.003307 WAIST_JOINT0:0.999390,-0.000000,0.031294,0.015476 WAIST_JOINT1:0.998402,0.056420,0.000000,-0.003196 END:
KINECT_DATA_Sensor  AnkleLeft:0.062862,0.803840,-0.095023,-0.583833 AnkleRight:0.078904,0.745198,0.088062,0.656276 ElbowLeft:-0.047859,0.845557,-0.190954,-0.496265 ElbowRight:-0.170926,0.891080,0.154271,0.391103 FootLeft:0.000000,0.000000,0.000000,0.000000 FootRight:0.000000,0.000000,0.000000,0.000000 HandLeft:0.081317,-0.652929,-0.154691,0.736982 HandRight:-0.379503,0.868927,0.006900,-0.317641 HandTipLeft:0.000000,0.000000,0.000000,0.000000 HandTipRight:0.000000,0.000000,0.000000,0.000000 Head:0.000000,0.000000,0.000000,0.000000 HipLeft:0.106296,-0.681252,0.709696,-0.144665 HipRight:-0.146947,0.674906,0.698231,-0.188100 KneeLeft:0.044027,-0.684940,0.059427,0.724836 KneeRight:-0.028027,0.726659,0.058399,0.683938 Neck:-0.032095,-0.000820,0.997018,-0.070170 ShoulderLeft:0.051505,0.775946,-0.628525,0.014584 ShoulderRight:0.011128,0.790391,0.609170,-0.063800 SpineBase:-0.028877,-0.003521,0.999001,-0.033918 SpineMid:-0.030625,-0.003462,0.998949,-0.033924 SpineShoulder:-0.032214,-0.001468,0.998134,-0.051845 ThumbLeft:0.000000,0.000000,0.000000,0.000000 ThumbRight:0.000000,0.000000,0.000000,0.000000 WristLeft:0.152781,-0.634329,-0.122040,0.747925 WristRight:-0.367302,0.876632,0.030717,-0.309292 END:
KINECT_DATA POSITION:49.339241,0.907838,-12.510693 HEAD_JOINT1:0.985720,0.160364,-0.000000,0.051375 LARM_JOINT2:0.828125,0.000000,-0.005742,-0.560515 LARM_JOINT3:0.955776,0.000000,-0.241683,-0.167578 LLEG_JOINT2:0.997753,0.007865,0.000000,0.066540 LLEG_JOINT4:0.995059,0.096216,0.000000,-0.024496 RARM_JOINT2:0.811441,0.000000,0.283405,0.511122 RARM_JOINT3:0.960244,0.000000,0.270289,0.069828 RLEG_JOINT2:0.997395,0.024466,0.000000,-0.067860 RLEG_JOINT4:0.993937,0.095177,0.000000,0.055058 WAIST:0.999485,-0.000000,0.031602,0.005625 WAIST_JOINT0:0.998026,-0.000000,0.055943,0.028528 WAIST_JOINT1:0.998431,0.055977,-0.000000,0.001162 END:
KINECT_DATA_Sensor  AnkleLeft:0.060928,0.791966,-0.096256,-0.599844 AnkleRight:0.080828,0.751505,0.087766,0.648848 ElbowLeft:-0.046725,0.841716,-0.196377,-0.500766 ElbowRight:-0.238954,0.889941,0.054822,0.384578 FootLeft:0.000000,0.000000,0.000000,0.000000 FootRight:0.000000,0.000000,0.000000,0.000000 HandLeft:0.075703,-0.625823,-0.167457,0.758006 HandRight:-0.376260,0.823922,0.104137,-0.410776 HandTipLeft:0.000000,0.000000,0.000000,0.000000 HandTipRight:0.000000,0.000000,0.000000,0.000000 Head:0.000000,0.000000,0.000000,0.000000 HipLeft:0.103558,-0.680219,0.711422,-0.143025 HipRight:-0.149830,0.676500,0.695906,-0.188719 KneeLeft:0.043756,-0.682792,0.057879,0.727001 KneeRight:-0.028659,0.728750,0.060364,0.681512 Neck:-0.057250,0.007393,0.995834,-0.070584 ShoulderLeft:0.051535,0.770998,-0.634705,0.007390 ShoulderRight:-0.021194,0.799915,0.592216,-0.094695 SpineBase:-0.031911,0.000470,0.998932,-0.033425 SpineMid:-0.044633,0.000896,0.998444,-0.033417 SpineShoulder:-0.057311,0.006124,0.997030,-0.051086 ThumbLeft:0.000000,0.000000,0.000000,0.000000 ThumbRight:0.000000,0.000000,0.000000,0.000000 WristLeft:0.151170,-0.605027,-0.120061,0.772448 WristRight:-0.375115,0.824408,0.104276,-0.410813 END:
KINECT_DATA POSITION:49.480129,0.881056,-12.518930 HEAD_JOINT1:0.985394,0.163392,-0.000000,0.047986 LARM_JOINT2:0.826964,0.000000,-0.003140,-0.562247 LARM_JOINT3:0.957393,0.000000,-0.235131,-0.167665 LLEG_JOINT2:0.998050,0.007078,0.000000,0.062020 LLEG_JOINT4:0.995124,0.095726,0.000000,-0.023763 RARM_JOINT2:0.800522,0.000000,0.330196,0.500135 RARM_JOINT3:0.967867,0.000000,0.249143,0.034081 RLEG_JOINT2:0.997044,0.024752,0.000000,-0.072734 RLEG_JOINT4:0.993566,0.096447,0.000000,0.059364 WAIST:0.999353,-0.000000,0.035016,0.008181 WAIST_JOINT0:0.997122,-0.000000,0.068537,0.032405 WAIST_JOINT1:0.998331,0.057655,-0.000000,0.003450 END:
KINECT_DATA_Sensor  AnkleLeft:0.059966,0.785000,-0.094792,-0.609257 AnkleRight:0.082295,0.748635,0.088209,0.651915 ElbowLeft:-0.043752,0.839858,-0.200723,-0.502429 ElbowRight:-0.262139,0.875861,0.010593,0.405017 FootLeft:0.000000,0.000000,0.000000,0.000000 FootRight:0.000000,0.000000,0.000000,0.000000 HandLeft:0.075675,-0.676212,-0.141822,0.718956 HandRight:-0.390636,0.830980,0.102465,-0.382591 HandTipLeft:0.000000,0.000000,0.000000,0.000000 HandTipRight:0.000000,0.000000,0.000000,0.000000 Head:0.000000,0.000000,0.000000,0.000000 HipLeft:0.099871,-0.678692,0.713655,-0.141771 HipRight:-0.152024,0.677851,0.693781,-0.189934 KneeLeft:0.042870,-0.680386,0.055975,0.729454 KneeRight:-0.030438,0.731079,0.061990,0.678789 Neck:-0.070433,0.012601,0.994791,-0.072601 ShoulderLeft:0.054055,0.766971,-0.639387,0.004204 ShoulderRight:-0.036124,0.800794,0.587424,-0.111166 SpineBase:-0.035358,0.004551,0.998785,-0.034023 SpineMid:-0.052854,0.005147,0.998012,-0.033938 SpineShoulder:-0.070422,0.011299,0.996073,-0.052451 ThumbLeft:0.000000,0.000000,0.000000,0.000000 ThumbRight:0.000000,0.000000,0.000000,0.000000 WristLeft:0.158022,-0.654451,-0.102789,0.732227 WristRight:-0.400970,0.826696,0.106360,-0.380110 END:
KINECT_DATA POSITION:49.647934,0.883320,-12.526536 HEAD_JOINT1:0.984940,0.166645,-0.000000,0.046071 LARM_JOINT2:0.826360,0.000000,-0.001278,-0.563141 LARM_JOINT3:0.956572,0.000000,-0.236223,-0.170789 LLEG_JOINT2:0.998335,0.006245,0.000000,0.057344 LLEG_JOINT4:0.995291,0.094414,0.000000,-0.021948 RARM_JOINT2:0.796927,0.000000,0.374488,0.473990 RARM_JOINT3:0.974820,0.000000,0.222388,0.016428 RLEG_JOINT2:0.996581,0.025374,0.000000,-0.078625 RLEG_JOINT4:0.993535,0.095436,0.000000,0.061485 WAIST:0.999112,-0.000000,0.040776,0.010615 WAIST_JOINT0:0.995827,-0.000000,0.083251,0.037393 WAIST_JOINT1:0.998245,0.059060,-0.000000,0.004264 END:
KINECT_DATA_Sensor  AnkleLeft:0.058325,0.778460,-0.093179,-0.617994 AnkleRight:0.079643,0.746460,0.089954,0.654494 ElbowLeft:-0.040882,0.836811,-0.204174,-0.506349 ElbowRight:-0.293029,0.871585,-0.014997,0.392745 FootLeft:0.000000,0.000000,0.000000,0.000000 FootRight:0.000000,0.000000,0.000000,0.000000 HandLeft:0.073026,-0.666641,-0.149154,0.726643 HandRight:-0.401106,0.834374,0.106748,-0.362684 HandTipLeft:0.000000,0.000000,0.000000,0.000000 HandTipRight:0.000000,0.000000,0.000000,0.000000 Head:0.000000,0.000000,0.000000,0.000000 HipLeft:0.094921,-0.677403,0.716023,-0.139380 HipRight:-0.155721,0.678620,0.691432,-0.192740 KneeLeft:0.041743,-0.676274,0.053904,0.733488 KneeRight:-0.033008,0.734951,0.064526,0.674236 Neck:-0.085611,0.016068,0.993447,-0.074001 ShoulderLeft:0.056487,0.763200,-0.643689,0.000658 ShoulderRight:-0.054006,0.800951,0.581952,-0.129975 SpineBase:-0.041146,0.008464,0.998514,-0.034731 SpineMid:-0.063211,0.009230,0.997360,-0.034535 SpineShoulder:-0.085563,0.014739,0.994781,-0.053592 ThumbLeft:0.000000,0.000000,0.000000,0.000000 ThumbRight:0.000000,0.000000,0.000000,0.000000 WristLeft:0.156895,-0.643741,-0.099943,0.742289 WristRight:-0.418110,0.826558,0.107276,-0.361216 END:
KINECT_DATA POSITION:49.723869,0.888326,-12.484873 HEAD_JOINT1:0.984197,0.171381,-0.000000,0.044552 LARM_JOINT2:0.825746,0.000000,-0.000553,-0.564041 LARM_JOINT3:0.955287,0.000000,-0.237584,-0.176011 LLEG_JOINT2:0.998507,0.005058,0.000000,0.054387 LLEG_JOINT4:0.995255,0.095157,0.000000,-0.020334 RARM_JOINT2:0.797995,0.000000,0.480220,0.364134 RARM_JOINT3:0.984706,0.000000,0.140663,0.102801 RLEG_JOINT2:0.996329,0.027099,0.000000,-0.081207 RLEG_JOINT4:0.993335,0.096953,0.000000,0.062330 WAIST:0.998954,-0.000000,0.043971,0.012581 WAIST_JOINT0:0.994721,-0.000000,0.094620,0.039724 WAIST_JOINT1:0.998191,0.059939,-0.000000,0.004663 END:
KINECT_DATA_Sensor  AnkleLeft:0.056766,0.769474,-0.093852,-0.629189 AnkleRight:0.081833,0.749204,0.092132,0.650775 ElbowLeft:-0.039466,0.835081,-0.206051,-0.508551 ElbowRight:-0.380172,0.913408,0.130338,-0.064546 FootLeft:0.000000,0.000000,0.000000,0.000000 FootRight:0.000000,0.000000,0.000000,0.000000 HandLeft:-0.085891,0.754835,0.151515,-0.632368 HandRight:-0.427263,0.733361,0.206576,-0.486779 HandTipLeft:0.000000,0.000000,0.000000,0.000000 HandTipRight:0.000000,0.000000,0.000000,0.000000 Head:0.000000,0.000000,0.000000,0.000000 HipLeft:0.092361,-0.676196,0.717568,-0.139013 HipRight:-0.157950,0.679427,0.689542,-0.194837 KneeLeft:0.041863,-0.673954,0.052419,0.735721 KneeRight:-0.032578,0.737211,0.066031,0.671638 Neck:-0.097443,0.018655,0.992265,-0.074608 ShoulderLeft:0.059343,0.760208,-0.646957,-0.002988 ShoulderRight:-0.067204,0.799518,0.579312,-0.143709 SpineBase:-0.044380,0.011289,0.998318,-0.035565 SpineMid:-0.070640,0.012221,0.996804,-0.035256 SpineShoulder:-0.097356,0.017445,0.993616,-0.054261 ThumbLeft:0.000000,0.000000,0.000000,0.000000 ThumbRight:0.000000,0.000000,0.000000,0.000000 WristLeft:-0.170299,0.748345,0.072964,-0.636910 WristRight:-0.342294,0.763089,0.123536,-0.534105 END:
KINECT_DATA POSITION:49.816547,0.865595,-12.352669 HEAD_JOINT1:0.982745,0.178876,-0.000000,0.047067 LARM_JOINT2:0.825544,0.000000,0.001516,-0.564335 LARM_JOINT3:0.954416,0.000000,-0.239516,-0.178107 LLEG_JOINT2:0.998758,0.005269,0.000000,0.049547 LLEG_JOINT4:0.995430,0.093791,0.000000,-0.017981 RARM_JOINT2:0.787889,0.000000,0.504550,0.353072 RARM_JOINT3:0.987534,0.000000,0.116468,0.105886 RLEG_JOINT2:0.995760,0.031567,0.000000,-0.086403 RLEG_JOINT4:0.993614,0.091096,0.000000,0.066581 WAIST:0.998607,-0.000000,0.050195,0.016258 WAIST_JOINT0:0.992751,-0.000000,0.110504,0.047270 WAIST_JOINT1:0.998228,0.059446,-0.000000,0.002747 END:
KINECT_DATA_Sensor  AnkleLeft:0.058692,0.786930,-0.091757,-0.607352 AnkleRight:0.079054,0.732032,0.092211,0.670355 ElbowLeft:-0.037672,0.831878,-0.208014,-0.513119 ElbowRight:-0.396053,0.903128,0.126422,-0.107323 FootLeft:0.000000,0.000000,0.000000,0.000000 FootRight:0.000000,0.000000,0.000000,0.000000 HandLeft:-0.094131,0.766221,0.149719,-0.617761 HandRight:-0.406150,0.757558,0.161623,-0.484794 HandTipLeft:0.000000,0.000000,0.000000,0.000000 HandTipRight:0.000000,0.000000,0.000000,0.000000 Head:0.000000,0.000000,0.000000,0.000000 HipLeft:0.089603,-0.674593,0.719958,-0.136218 HipRight:-0.163148,0.681199,0.685529,-0.198497 KneeLeft:0.040789,-0.669341,0.051770,0.740026 KneeRight:-0.031267,0.741677,0.069995,0.666362 Neck:-0.112607,0.020697,0.990675,-0.073857 ShoulderLeft:0.058909,0.758427,-0.649056,-0.006684 ShoulderRight:-0.088341,0.800833,0.569774,-0.161927 SpineBase:-0.050747,0.014084,0.998004,-0.034833 SpineMid:-0.081259,0.015143,0.995985,-0.034386 SpineShoulder:-0.112522,0.019289,0.992025,-0.053414 ThumbLeft:0.000000,0.000000,0.000000,0.000000 ThumbRight:0.000000,0.000000,0.000000,0.000000 WristLeft:-0.172898,0.760107,0.068409,-0.622627 WristRight:-0.353921,0.775365,0.119403,-0.509206 END:
KINECT_DATA POSITION:49.875946,0.828758,-12.228119 HEAD_JOINT1:0.981645,0.184587,-0.000000,0.047969 LARM_JOINT2:0.824881,0.000000,0.004481,-0.565289 LARM_JOINT3:0.954850,0.000000,-0.238384,-0.177296 LLEG_JOINT2:0.998933,0.004533,0.000000,0.045964 LLEG_JOINT4:0.995522,0.092886,0.000000,-0.017526 RARM_JOINT2:0.788998,0.000000,0.496904,0.361342 RARM_JOINT3:0.986864,0.000000,0.125442,0.101807 RLEG_JOINT2:0.995246,0.035919,0.000000,-0.090528 RLEG_JOINT4:0.993881,0.087480,0.000000,0.067439 WAIST:0.998159,-0.000000,0.057623,0.018954 WAIST_JOINT0:0.991538,-0.000000,0.119014,0.051848 WAIST_JOINT1:0.998286,0.058515,-0.000000,0.001115 END:
KINECT_DATA_Sensor  AnkleLeft:0.051398,0.736875,-0.093867,-0.667505 AnkleRight:0.079318,0.744974,0.092593,0.655857 ElbowLeft:-0.035544,0.826073,-0.208662,-0.522303 ElbowRight:-0.396990,0.910958,0.097886,-0.054530 FootLeft:0.000000,0.000000,0.000000,0.000000 FootRight:0.000000,0.000000,0.000000,0.000000 HandLeft:-0.085612,0.731652,0.148749,-0.659719 HandRight:-0.404633,0.796483,0.117391,-0.433711 HandTipLeft:0.000000,0.000000,0.000000,0.000000 HandTipRight:0.000000,0.000000,0.000000,0.000000 Head:0.000000,0.000000,0.000000,0.000000 HipLeft:0.086637,-0.673437,0.722095,-0.132498 HipRight:-0.169217,0.681641,0.682285,-0.203022 KneeLeft:0.040567,-0.663770,0.050723,0.745112 KneeRight:-0.030114,0.746878,0.073783,0.660169 Neck:-0.120468,0.021305,0.989807,-0.072908 ShoulderLeft:0.058548,0.757494,-0.650146,-0.009223 ShoulderRight:-0.099473,0.801989,0.563743,-0.170620 SpineBase:-0.058280,0.015646,0.997601,-0.033915 SpineMid:-0.088888,0.016680,0.995341,-0.033418 SpineShoulder:-0.120378,0.019924,0.991149,-0.052299 ThumbLeft:0.000000,0.000000,0.000000,0.000000 ThumbRight:0.000000,0.000000,0.000000,0.000000 WristLeft:-0.170701,0.724679,0.073625,-0.663537 WristRight:-0.376214,0.805246,0.087949,-0.449786 END:
KINECT_DATA POSITION:49.919537,0.796490,-12.102222 HEAD_JOINT1:0.982943,0.179194,-0.000000,0.041389 LARM_JOINT2:0.823936,0.000000,0.002660,-0.566677 LARM_JOINT3:0.954715,0.000000,-0.238897,-0.177332 LLEG_JOINT2:0.999002,0.004469,0.000000,0.044438 LLEG_JOINT4:0.995615,0.092414,0.000000,-0.014476 RARM_JOINT2:0.795027,0.000000,0.496631,0.348266 RARM_JOINT3:0.984289,0.000000,0.135454,0.113258 RLEG_JOINT2:0.995057,0.038643,0.000000,-0.091475 RLEG_JOINT4:0.993863,0.085966,0.000000,0.069621 WAIST:0.997831,-0.000000,0.062768,0.019846 WAIST_JOINT0:0.992004,-0.000000,0.115690,0.050439 WAIST_JOINT1:0.998170,0.060378,-0.000000,0.003323 END:
KINECT_DATA_Sensor  AnkleLeft:0.055840,0.774279,-0.091850,-0.623648 AnkleRight:0.080852,0.746496,0.092576,0.653939 ElbowLeft:-0.034381,0.824506,-0.210245,-0.524218 ElbowRight:-0.401706,0.907400,0.106325,-0.062865 FootLeft:0.000000,0.000000,0.000000,0.000000 FootRight:0.000000,0.000000,0.000000,0.000000 HandLeft:-0.097084,0.765088,0.141880,-0.620552 HandRight:-0.394825,0.746575,0.146606,-0.515021 HandTipLeft:0.000000,0.000000,0.000000,0.000000 HandTipRight:0.000000,0.000000,0.000000,0.000000 Head:0.000000,0.000000,0.000000,0.000000 HipLeft:0.082145,-0.672738,0.723606,-0.130656 HipRight:-0.171668,0.681035,0.681438,-0.205824 KneeLeft:0.040040,-0.659997,0.050309,0.748512 KneeRight:-0.028816,0.750440,0.075604,0.655968 Neck:-0.118355,0.023861,0.989836,-0.075155 ShoulderLeft:0.066152,0.755363,-0.651841,-0.012396 ShoulderRight:-0.088439,0.801988,0.567260,-0.164951 SpineBase:-0.063426,0.017727,0.997207,-0.035230 SpineMid:-0.090461,0.018677,0.995119,-0.034736 SpineShoulder:-0.118241,0.022212,0.991256,-0.054193 ThumbLeft:0.000000,0.000000,0.000000,0.000000 ThumbRight:0.000000,0.000000,0.000000,0.000000 WristLeft:-0.174363,0.758557,0.062465,-0.624729 WristRight:-0.370307,0.753356,0.116927,-0.530713 END:
KINECT_DATA POSITION:49.820282,0.840099,-12.038445 HEAD_JOINT1:0.983439,0.178095,-0.000000,0.033625 LARM_JOINT2:0.824193,0.000000,0.002440,-0.566304 LARM_JOINT3:0.954073,0.000000,-0.243144,-0.175004 LLEG_JOINT2:0.998900,0.004950,0.000000,0.046622 LLEG_JOINT4:0.995560,0.092831,0.000000,-0.015602 RARM_JOINT2:0.837743,0.000000,0.445383,0.315944 RARM_JOINT3:0.943210,0.000000,0.291118,0.160015 RLEG_JOINT2:0.995494,0.035850,0.000000,-0.087789 RLEG_JOINT4:0.993682,0.090613,0.000000,0.066227 WAIST:0.997932,-0.000000,0.061668,0.018112 WAIST_JOINT0:0.992870,-0.000000,0.108307,0.049787 WAIST_JOINT1:0.997860,0.065185,-0.000000,0.005150 END:
KINECT_DATA_Sensor  AnkleLeft:0.055129,0.762379,-0.092979,-0.638039 AnkleRight:0.082280,0.752659,0.094010,0.646449 ElbowLeft:-0.031885,0.822150,-0.212490,-0.527163 ElbowRight:-0.401868,0.903867,0.138706,0.047833 FootLeft:0.000000,0.000000,0.000000,0.000000 FootRight:0.000000,0.000000,0.000000,0.000000 HandLeft:-0.094692,0.739870,0.145615,-0.649940 HandRight:-0.511563,0.734688,0.037787,-0.443971 HandTipLeft:0.000000,0.000000,0.000000,0.000000 HandTipRight:0.000000,0.000000,0.000000,0.000000 Head:0.000000,0.000000,0.000000,0.000000 HipLeft:0.079501,-0.673214,0.723123,-0.132497 HipRight:-0.168520,0.679724,0.683666,-0.205373 KneeLeft:0.039929,-0.660958,0.051018,0.747621 KneeRight:-0.029062,0.749556,0.072324,0.657336 Neck:-0.112166,0.022992,0.990129,-0.080838 ShoulderLeft:0.075452,0.751971,-0.654758,-0.011757 ShoulderRight:-0.070192,0.801639,0.572720,-0.156334 SpineBase:-0.062211,0.018432,0.997161,-0.038207 SpineMid:-0.086754,0.019368,0.995326,-0.037742 SpineShoulder:-0.111981,0.022223,0.991708,-0.059010 ThumbLeft:0.000000,0.000000,0.000000,0.000000 ThumbRight:0.000000,0.000000,0.000000,0.000000 WristLeft:-0.171572,0.733762,0.066927,-0.653970 WristRight:-0.426917,0.771504,0.026916,-0.470956 END:
KINECT_DATA POSITION:49.616615,0.932007,-12.157286 HEAD_JOINT1:0.981240,0.190759,-0.000000,0.027910 LARM_JOINT2:0.823412,0.000000,0.001187,-0.567443 LARM_JOINT3:0.953393,0.000000,-0.243309,-0.178444 LLEG_JOINT2:0.998704,0.003720,0.000000,0.050750 LLEG_JOINT4:0.995350,0.094656,0.000000,-0.017842 RARM_JOINT2:0.847845,0.000000,0.427920,0.313119 RARM_JOINT3:0.924218,0.000000,0.342045,0.169783 RLEG_JOINT2:0.995900,0.033187,0.000000,-0.084152 RLEG_JOINT4:0.993385,0.094088,0.000000,0.065827 WAIST:0.998020,-0.000000,0.060896,0.015714 WAIST_JOINT0:0.993018,-0.000000,0.106686,0.050328 WAIST_JOINT1:0.997284,0.073207,-0.000000,0.008139 END:
KINECT_DATA_Sensor  AnkleLeft:0.054637,0.753556,-0.093773,-0.648364 AnkleRight:0.083333,0.749707,0.094357,0.649686 ElbowLeft:-0.026234,0.820982,-0.214686,-0.528403 ElbowRight:-0.393037,0.904161,0.143012,0.086957 FootLeft:0.000000,0.000000,0.000000,0.000000 FootRight:0.000000,0.000000,0.000000,0.000000 HandLeft:0.031220,-0.577280,-0.163418,0.799417 HandRight:-0.527350,0.725324,0.013450,-0.442297 HandTipLeft:0.000000,0.000000,0.000000,0.000000 HandTipRight:0.000000,0.000000,0.000000,0.000000 Head:0.000000,0.000000,0.000000,0.000000 HipLeft:0.074987,-0.674008,0.722203,-0.136059 HipRight:-0.163752,0.677376,0.686514,-0.207475 KneeLeft:0.041910,-0.661631,0.051587,0.746877 KneeRight:-0.029764,0.748798,0.069628,0.658459 Neck:-0.111349,0.023218,0.989462,-0.089593 ShoulderLeft:0.085066,0.746943,-0.659374,-0.008093 ShoulderRight:-0.059690,0.797654,0.578986,-0.157988 SpineBase:-0.061304,0.018077,0.996977,-0.044171 SpineMid:-0.085927,0.019163,0.995158,-0.043710 SpineShoulder:-0.111129,0.022878,0.991281,-0.066993 ThumbLeft:0.000000,0.000000,0.000000,0.000000 ThumbRight:0.000000,0.000000,0.000000,0.000000 WristLeft:0.145995,-0.544754,-0.105599,0.819010 WristRight:-0.447736,0.759080,0.000285,-0.472578 END:
KINECT_DATA POSITION:49.594486,0.930491,-12.155604 HEAD_JOINT1:0.976346,0.214092,-0.000000,0.030232 LARM_JOINT2:0.823484,0.000000,0.011955,-0.567213 LARM_JOINT3:0.954394,0.000000,-0.236591,-0.182092 LLEG_JOINT2:0.998795,0.002347,0.000000,0.049017 LLEG_JOINT4:0.995442,0.094243,0.000000,-0.014601 RARM_JOINT2:0.817725,0.000000,0.468419,0.334528 RARM_JOINT3:0.958645,0.000000,0.243716,0.146980 RLEG_JOINT2:0.995775,0.036432,0.000000,-0.084290 RLEG_JOINT4:0.993644,0.090003,0.000000,0.067605 WAIST:0.997875,-0.000000,0.063034,0.016509 WAIST_JOINT0:0.993238,-0.000000,0.103593,0.052403 WAIST_JOINT1:0.997564,0.069473,-0.000000,0.006231 END:
KINECT_DATA_Sensor  AnkleLeft:0.053598,0.763075,-0.093684,-0.637234 AnkleRight:0.081365,0.730786,0.094813,0.671075 ElbowLeft:-0.020092,0.820626,-0.216297,-0.528568 ElbowRight:-0.399018,0.910256,0.100795,0.045369 FootLeft:0.000000,0.000000,0.000000,0.000000 FootRight:0.000000,0.000000,0.000000,0.000000 HandLeft:0.047228,-0.689721,-0.142184,0.708405 HandRight:-0.442940,0.746692,0.048431,-0.493872 HandTipLeft:0.000000,0.000000,0.000000,0.000000 HandTipRight:0.000000,0.000000,0.000000,0.000000 Head:0.000000,0.000000,0.000000,0.000000 HipLeft:0.073303,-0.673712,0.722811,-0.135214 HipRight:-0.164768,0.677529,0.685651,-0.209018 KneeLeft:0.042274,-0.660032,0.050005,0.748378 KneeRight:-0.027309,0.750414,0.071508,0.656521 Neck:-0.108434,0.021136,0.990332,-0.083892 ShoulderLeft:0.080169,0.745348,-0.661808,-0.006350 ShoulderRight:-0.060925,0.798980,0.577962,-0.154528 SpineBase:-0.063487,0.018560,0.996810,-0.044666 SpineMid:-0.085534,0.019544,0.995160,-0.044244 SpineShoulder:-0.108190,0.021472,0.991837,-0.063974 ThumbLeft:0.000000,0.000000,0.000000,0.000000 ThumbRight:0.000000,0.000000,0.000000,0.000000 WristLeft:0.154849,-0.659676,-0.078998,0.731169 WristRight:-0.423054,0.756293,0.052674,-0.496259 END:
KINECT_DATA POSITION:49.658318,0.870781,-12.128723 HEAD_JOINT1:0.979007,0.202883,-0.000000,0.019589 LARM_JOINT2:0.817813,0.000000,0.028377,-0.574783 LARM_JOINT3:0.953082,0.000000,-0.243272,-0.180148 LLEG_JOINT2:0.999060,0.001734,0.000000,0.043306 LLEG_JOINT4:0.995531,0.093605,0.000000,-0.012466 RARM_JOINT2:0.807422,0.000000,0.485168,0.335683 RARM_JOINT3:0.970545,0.000000,0.192272,0.145170 RLEG_JOINT2:0.995213,0.041537,0.000000,-0.088459 RLEG_JOINT4:0.993885,0.085921,0.000000,0.069361 WAIST:0.997500,-0.000000,0.067661,0.020370 WAIST_JOINT0:0.993946,-0.000000,0.097575,0.050508 WAIST_JOINT1:0.997273,0.073381,-0.000000,0.007879 END:
KINECT_DATA_Sensor  AnkleLeft:0.053764,0.768691,-0.092138,-0.630661 AnkleRight:0.077395,0.698437,0.098945,0.704561 ElbowLeft:-0.005645,0.807604,-0.219909,-0.547160 ElbowRight:-0.397611,0.912421,0.096679,-0.006877 FootLeft:0.000000,0.000000,0.000000,0.000000 FootRight:0.000000,0.000000,0.000000,0.000000 HandLeft:0.037648,-0.614819,-0.136920,0.775779 HandRight:-0.398569,0.789551,0.049913,-0.463961 HandTipLeft:0.000000,0.000000,0.000000,0.000000 HandTipRight:0.000000,0.000000,0.000000,0.000000 Head:0.000000,0.000000,0.000000,0.000000 HipLeft:0.069100,-0.671723,0.725158,-0.134756 HipRight:-0.167025,0.679180,0.682006,-0.213742 KneeLeft:0.041537,-0.656549,0.048165,0.751597 KneeRight:-0.024703,0.753865,0.075203,0.652244 Neck:-0.103309,0.026787,0.990287,-0.089113 ShoulderLeft:0.080064,0.744652,-0.662633,-0.000945 ShoulderRight:-0.054635,0.799399,0.578614,-0.152257 SpineBase:-0.068358,0.021034,0.996335,-0.046913 SpineMid:-0.085518,0.021839,0.995009,-0.046544 SpineShoulder:-0.103124,0.025390,0.992041,-0.067646 ThumbLeft:0.000000,0.000000,0.000000,0.000000 ThumbRight:0.000000,0.000000,0.000000,0.000000 WristLeft:0.144644,-0.586977,-0.086184,0.791902 WristRight:-0.403266,0.785775,0.039042,-0.467344 END:
KINECT_DATA POSITION:49.727970,0.829554,-12.155509 HEAD_JOINT1:0.977634,0.209393,-0.000000,0.019638 LARM_JOINT2:0.817482,0.000000,0.027731,-0.575287 LARM_JOINT3:0.951575,0.000000,-0.249884,-0.179064 LLEG_JOINT2:0.999242,0.000346,0.000000,0.038925 LLEG_JOINT4:0.995523,0.094203,0.000000,-0.007755 RARM_JOINT2:0.806331,0.000000,0.479119,0.346809 RARM_JOINT3:0.975692,0.000000,0.177978,0.127863 RLEG_JOINT2:0.994854,0.043171,0.000000,-0.091665 RLEG_JOINT4:0.994044,0.083567,0.000000,0.069950 WAIST:0.997139,-0.000000,0.072101,0.022678 WAIST_JOINT0:0.991795,-0.000000,0.113727,0.058391 WAIST_JOINT1:0.997472,0.070733,-0.000000,0.006793 END:
KINECT_DATA_Sensor  AnkleLeft:0.052319,0.768526,-0.093410,-0.630797 AnkleRight:0.079114,0.723193,0.096314,0.679306 ElbowLeft:-0.007553,0.806013,-0.219011,-0.549837 ElbowRight:-0.390429,0.915515,0.095180,-0.018414 FootLeft:0.000000,0.000000,0.000000,0.000000 FootRight:0.000000,0.000000,0.000000,0.000000 HandLeft:0.068782,-0.629460,-0.157242,0.757842 HandRight:-0.413286,0.780687,0.088065,-0.460399 HandTipLeft:0.000000,0.000000,0.000000,0.000000 HandTipRight:0.000000,0.000000,0.000000,0.000000 Head:0.000000,0.000000,0.000000,0.000000 HipLeft:0.065862,-0.670777,0.726853,-0.131928 HipRight:-0.170294,0.680160,0.679568,-0.215800 KneeLeft:0.041208,-0.653214,0.045693,0.754669 KneeRight:-0.024807,0.756941,0.076745,0.648486 Neck:-0.119503,0.028472,0.988788,-0.084893 ShoulderLeft:0.081816,0.742016,-0.665321,-0.008206 ShoulderRight:-0.074812,0.801499,0.568901,-0.168385 SpineBase:-0.072929,0.022530,0.995983,-0.046820 SpineMid:-0.095817,0.023601,0.994042,-0.046289 SpineShoulder:-0.119305,0.027247,0.990356,-0.064952 ThumbLeft:0.000000,0.000000,0.000000,0.000000 ThumbRight:0.000000,0.000000,0.000000,0.000000 WristLeft:0.149016,-0.606391,-0.082027,0.776760 WristRight:-0.390067,0.784511,0.051750,-0.479283 END:
KINECT_DATA POSITION:49.737648,0.843096,-12.197697 HEAD_JOINT1:0.977793,0.208727,-0.000000,0.018818 LARM_JOINT2:0.817251,0.000000,0.016963,-0.576032 LARM_JOINT3:0.952408,0.000000,-0.248355,-0.176743 LLEG_JOINT2:0.999310,-0.000708,0.000000,0.037122 LLEG_JOINT4:0.995560,0.094030,0.000000,-0.004396 RARM_JOINT2:0.799292,0.000000,0.483903,0.356329 RARM_JOINT3:0.983279,0.000000,0.158050,0.090457 RLEG_JOINT2:0.994733,0.043571,0.000000,-0.092776 RLEG_JOINT4:0.993973,0.083186,0.000000,0.071404 WAIST:0.997021,-0.000000,0.073525,0.023291 WAIST_JOINT0:0.991492,-0.000000,0.115213,0.060577 WAIST_JOINT1:0.997502,0.070177,-0.000000,0.008077 END:
KINECT_DATA_Sensor  AnkleLeft:0.050015,0.766251,-0.094658,-0.633559 AnkleRight:0.079452,0.722553,0.095967,0.679996 ElbowLeft:-0.014633,0.810221,-0.216205,-0.544595 ElbowRight:-0.389658,0.918166,0.071673,0.001100 FootLeft:0.000000,0.000000,0.000000,0.000000 FootRight:0.000000,0.000000,0.000000,0.000000 HandLeft:-0.093565,0.695520,0.160966,-0.693965 HandRight:-0.421282,0.750908,0.157667,-0.483529 HandTipLeft:0.000000,0.000000,0.000000,0.000000 HandTipRight:0.000000,0.000000,0.000000,0.000000 Head:0.000000,0.000000,0.000000,0.000000 HipLeft:0.064282,-0.670191,0.727723,-0.130883 HipRight:-0.171101,0.680319,0.679268,-0.215605 KneeLeft:0.041218,-0.652247,0.044113,0.755599 KneeRight:-0.025079,0.757903,0.077287,0.647287 Neck:-0.121315,0.030200,0.988540,-0.084618 ShoulderLeft:0.091458,0.737072,-0.669389,-0.016676 ShoulderRight:-0.066774,0.801762,0.571031,-0.163224 SpineBase:-0.074330,0.024083,0.995846,-0.046755 SpineMid:-0.097417,0.025161,0.993853,-0.046184 SpineShoulder:-0.121065,0.029113,0.990131,-0.064313 ThumbLeft:0.000000,0.000000,0.000000,0.000000 ThumbRight:0.000000,0.000000,0.000000,0.000000 WristLeft:0.157425,-0.672212,-0.068805,0.720149 WristRight:-0.386363,0.758953,0.093696,-0.515688 END:
KINECT_DATA POSITION:49.577393,0.889719,-12.385249 HEAD_JOINT1:0.974421,0.222693,-0.000000,0.030183 LARM_JOINT2:0.818461,0.000000,0.032068,-0.573666 LARM_JOINT3:0.950644,0.000000,-0.253175,-0.179384 LLEG_JOINT2:0.999149,-0.001961,0.000000,0.041189 LLEG_JOINT4:0.995081,0.098790,0.000000,-0.007326 RARM_JOINT2:0.817795,0.000000,0.471725,0.329679 RARM_JOINT3:0.967465,0.000000,0.237459,0.087321 RLEG_JOINT2:0.995239,0.036462,0.000000,-0.090384 RLEG_JOINT4:0.993296,0.091598,0.000000,0.070514 WAIST:0.997396,-0.000000,0.069226,0.020206 WAIST_JOINT0:0.992828,-0.000000,0.105515,0.056209 WAIST_JOINT1:0.997701,0.067504,-0.000000,0.005974 END:
KINECT_DATA_Sensor  AnkleLeft:0.058075,0.795934,-0.092662,-0.595425 AnkleRight:0.084913,0.755098,0.093341,0.643354 ElbowLeft:-0.008041,0.804947,-0.217904,-0.551828 ElbowRight:-0.409451,0.905382,0.076230,0.082597 FootLeft:0.000000,0.000000,0.000000,0.000000 FootRight:0.000000,0.000000,0.000000,0.000000 HandLeft:0.053110,-0.536961,-0.167021,0.825201 HandRight:-0.516797,0.770919,0.064364,-0.366691 HandTipLeft:0.000000,0.000000,0.000000,0.000000 HandTipRight:0.000000,0.000000,0.000000,0.000000 Head:0.000000,0.000000,0.000000,0.000000 HipLeft:0.067586,-0.671870,0.725823,-0.131161 HipRight:-0.167459,0.679051,0.682576,-0.211984 KneeLeft:0.042774,-0.655427,0.044066,0.752758 KneeRight:-0.029781,0.754579,0.072699,0.651489 Neck:-0.111036,0.024514,0.990051,-0.082877 ShoulderLeft:0.073947,0.743235,-0.664919,-0.003957 ShoulderRight:-0.071523,0.801460,0.571902,-0.159606 SpineBase:-0.069882,0.021131,0.996303,-0.045285 SpineMid:-0.090044,0.022044,0.994683,-0.044847 SpineShoulder:-0.110794,0.024074,0.991639,-0.061629 ThumbLeft:0.000000,0.000000,0.000000,0.000000 ThumbRight:0.000000,0.000000,0.000000,0.000000 WristLeft:0.139685,-0.512579,-0.102736,0.840950 WristRight:-0.442781,0.802983,0.036574,-0.397273 END:
KINECT_DATA POSITION:49.300049,0.996330,-12.666821 HEAD_JOINT1:0.976522,0.214051,-0.000000,0.024211 LARM_JOINT2:0.818243,0.000000,0.020236,-0.574516 LARM_JOINT3:0.951082,0.000000,-0.252996,-0.177302 LLEG_JOINT2:0.998855,-0.005712,0.000000,0.047498 LLEG_JOINT4:0.994682,0.102426,0.000000,-0.010777 RARM_JOINT2:0.836270,0.000000,0.459904,0.298564 RARM_JOINT3:0.940663,0.000000,0.315985,0.123720 RLEG_JOINT2:0.996025,0.031626,0.000000,-0.083276 RLEG_JOINT4:0.993096,0.095858,0.000000,0.067608 WAIST:0.997568,-0.000000,0.067669,0.016694 WAIST_JOINT0:0.992818,-0.000000,0.105996,0.055467 WAIST_JOINT1:0.997366,0.071911,-0.000000,0.009524 END:
KINECT_DATA_Sensor  AnkleLeft:0.051126,0.748645,-0.096447,-0.653923 AnkleRight:0.084945,0.750828,0.092954,0.648384 ElbowLeft:-0.012328,0.808278,-0.215189,-0.547931 ElbowRight:-0.423991,0.892405,0.093325,0.123031 FootLeft:0.000000,0.000000,0.000000,0.000000 FootRight:0.000000,0.000000,0.000000,0.000000 HandLeft:-0.093529,0.740036,0.158216,-0.646968 HandRight:-0.505603,0.738275,0.004440,-0.446426 HandTipLeft:0.000000,0.000000,0.000000,0.000000 HandTipRight:0.000000,0.000000,0.000000,0.000000 Head:0.000000,0.000000,0.000000,0.000000 HipLeft:0.065336,-0.673633,0.723742,-0.134713 HipRight:-0.163438,0.676232,0.685826,-0.213638 KneeLeft:0.047307,-0.656595,0.043832,0.751481 KneeRight:-0.030010,0.753202,0.066895,0.653690 Neck:-0.111796,0.025327,0.989426,-0.088858 ShoulderLeft:0.084871,0.740621,-0.666498,-0.007633 ShoulderRight:-0.060999,0.799367,0.576549,-0.157741 SpineBase:-0.068109,0.019377,0.996242,-0.049875 SpineMid:-0.089650,0.020451,0.994535,-0.049444 SpineShoulder:-0.111622,0.024095,0.991280,-0.065754 ThumbLeft:0.000000,0.000000,0.000000,0.000000 ThumbRight:0.000000,0.000000,0.000000,0.000000 WristLeft:-0.164202,0.738448,0.057592,-0.651471 WristRight:-0.486545,0.754965,0.028106,-0.438762 END:
KINECT_DATA POSITION:49.250759,1.003072,-12.685132 HEAD_JOINT1:0.975064,0.220116,-0.000000,0.028259 LARM_JOINT2:0.818662,0.000000,0.029604,-0.573513 LARM_JOINT3:0.951050,0.000000,-0.256075,-0.173002 LLEG_JOINT2:0.998806,-0.007633,0.000000,0.048261 LLEG_JOINT4:0.994558,0.103739,0.000000,-0.009622 RARM_JOINT2:0.831397,0.000000,0.457397,0.315544 RARM_JOINT3:0.946424,0.000000,0.295180,0.130959 RLEG_JOINT2:0.996020,0.032177,0.000000,-0.083122 RLEG_JOINT4:0.993254,0.093593,0.000000,0.068461 WAIST:0.997541,-0.000000,0.068202,0.016114 WAIST_JOINT0:0.992086,-0.000000,0.111328,0.058064 WAIST_JOINT1:0.997502,0.070264,-0.000000,0.007273 END:
KINECT_DATA_Sensor  AnkleLeft:0.050978,0.754968,-0.096703,-0.646586 AnkleRight:0.083805,0.749382,0.091724,0.650377 ElbowLeft:-0.007445,0.803504,-0.216137,-0.554627 ElbowRight:-0.404602,0.905118,0.124061,0.040838 FootLeft:0.000000,0.000000,0.000000,0.000000 FootRight:0.000000,0.000000,0.000000,0.000000 HandLeft:-0.101245,0.729371,0.140184,-0.661903 HandRight:-0.552375,0.737605,0.078581,-0.380323 HandTipLeft:0.000000,0.000000,0.000000,0.000000 HandTipRight:0.000000,0.000000,0.000000,0.000000 Head:0.000000,0.000000,0.000000,0.000000 HipLeft:0.065633,-0.674263,0.723311,-0.133725 HipRight:-0.163940,0.675929,0.686044,-0.213514 KneeLeft:0.048834,-0.656111,0.042747,0.751868 KneeRight:-0.029977,0.753556,0.067598,0.653212 Neck:-0.116574,0.021771,0.989231,-0.085777 ShoulderLeft:0.074739,0.743938,-0.664054,-0.001881 ShoulderRight:-0.078344,0.800578,0.569468,-0.169246 SpineBase:-0.068622,0.018541,0.996261,-0.049097 SpineMid:-0.092171,0.019697,0.994359,-0.048644 SpineShoulder:-0.116347,0.021905,0.990876,-0.064407 ThumbLeft:0.000000,0.000000,0.000000,0.000000 ThumbRight:0.000000,0.000000,0.000000,0.000000 WristLeft:-0.163169,0.725157,0.061477,-0.666141 WristRight:-0.436376,0.774146,-0.005331,-0.458525 END:
KINECT_DATA POSITION:49.288029,0.986931,-12.648368 HEAD_JOINT1:0.974144,0.223713,-0.000000,0.031555 LARM_JOINT2:0.821904,0.000000,0.020667,-0.569251 LARM_JOINT3:0.952947,0.000000,-0.249649,-0.171952 LLEG_JOINT2:0.998841,-0.007131,0.000000,0.047597 LLEG_JOINT4:0.994504,0.104151,0.000000,-0.010702 RARM_JOINT2:0.814752,0.000000,0.473802,0.334202 RARM_JOINT3:0.966172,0.000000,0.233034,0.110486 RLEG_JOINT2:0.995900,0.034058,0.000000,-0.083804 RLEG_JOINT4:0.993361,0.091301,0.000000,0.069989 WAIST:0.997395,-0.000000,0.070113,0.016958 WAIST_JOINT0:0.992189,-0.000000,0.110577,0.057744 WAIST_JOINT1:0.997647,0.068330,-0.000000,0.005593 END:
KINECT_DATA_Sensor  AnkleLeft:0.053612,0.762197,-0.095574,-0.638002 AnkleRight:0.082827,0.738391,0.091976,0.662917 ElbowLeft:-0.014477,0.810202,-0.216286,-0.544595 ElbowRight:-0.405990,0.908022,0.080994,0.064088 FootLeft:0.000000,0.000000,0.000000,0.000000 FootRight:0.000000,0.000000,0.000000,0.000000 HandLeft:0.075257,-0.563278,-0.152291,0.808617 HandRight:-0.469206,0.707092,0.105495,-0.518399 HandTipLeft:0.000000,0.000000,0.000000,0.000000 HandTipRight:0.000000,0.000000,0.000000,0.000000 Head:0.000000,0.000000,0.000000,0.000000 HipLeft:0.066155,-0.674111,0.723708,-0.132077 HipRight:-0.166504,0.676304,0.684775,-0.214414 KneeLeft:0.048561,-0.654582,0.043239,0.753190 KneeRight:-0.028795,0.754966,0.068796,0.651509 Neck:-0.115813,0.020778,0.989560,-0.083230 ShoulderLeft:0.079930,0.742285,-0.665254,-0.007898 ShoulderRight:-0.071424,0.800439,0.572417,-0.162893 SpineBase:-0.070608,0.018404,0.996200,-0.047561 SpineMid:-0.092808,0.019460,0.994377,-0.047139 SpineShoulder:-0.115622,0.020757,0.991098,-0.062658 ThumbLeft:0.000000,0.000000,0.000000,0.000000 ThumbRight:0.000000,0.000000,0.000000,0.000000 WristLeft:0.144446,-0.544479,-0.098838,0.820310 WristRight:-0.423674,0.727648,0.101160,-0.529902 END:
KINECT_DATA POSITION:49.351398,0.963132,-12.581992 HEAD_JOINT1:0.975773,0.216758,-0.000000,0.029728 LARM_JOINT2:0.821350,0.000000,0.022797,-0.569969 LARM_JOINT3:0.952741,0.000000,-0.249117,-0.173855 LLEG_JOINT2:0.998918,-0.006445,0.000000,0.046066 LLEG_JOINT4:0.994697,0.102392,0.000000,-0.009725 RARM_JOINT2:0.809105,0.000000,0.482862,0.334953 RARM_JOINT3:0.974080,0.000000,0.199020,0.107517 RLEG_JOINT2:0.995716,0.034670,0.000000,-0.085719 RLEG_JOINT4:0.993190,0.091720,0.000000,0.071844 WAIST:0.997234,-0.000000,0.072122,0.017958 WAIST_JOINT0:0.992540,-0.000000,0.107934,0.056696 WAIST_JOINT1:0.997558,0.069498,-0.000000,0.006893 END:
KINECT_DATA_Sensor  AnkleLeft:0.052464,0.760390,-0.095295,-0.640292 AnkleRight:0.083211,0.734264,0.092893,0.667310 ElbowLeft:-0.012303,0.808098,-0.218707,-0.546802 ElbowRight:-0.405168,0.910025,0.083034,0.028262 FootLeft:0.000000,0.000000,0.000000,0.000000 FootRight:0.000000,0.000000,0.000000,0.000000 HandLeft:0.057207,-0.499984,-0.147349,0.851488 HandRight:-0.448276,0.750724,0.101027,-0.474612 HandTipLeft:0.000000,0.000000,0.000000,0.000000 HandTipRight:0.000000,0.000000,0.000000,0.000000 Head:0.000000,0.000000,0.000000,0.000000 HipLeft:0.065699,-0.673699,0.724354,-0.130860 HipRight:-0.168692,0.676722,0.683537,-0.215332 KneeLeft:0.047684,-0.653093,0.043312,0.754533 KneeRight:-0.029290,0.756329,0.069731,0.649804 Neck:-0.113456,0.023513,0.989616,-0.085060 ShoulderLeft:0.079883,0.742562,-0.664966,-0.006419 ShoulderRight:-0.068403,0.800924,0.572612,-0.161111 SpineBase:-0.072661,0.019235,0.996074,-0.046767 SpineMid:-0.092724,0.020174,0.994407,-0.046369 SpineShoulder:-0.113331,0.022282,0.991260,-0.063742 ThumbLeft:0.000000,0.000000,0.000000,0.000000 ThumbRight:0.000000,0.000000,0.000000,0.000000 WristLeft:0.137078,-0.480125,-0.109328,0.859498 WristRight:-0.412057,0.763764,0.082110,-0.490033 END:
KINECT_DATA POSITION:49.418789,0.932881,-12.492514 HEAD_JOINT1:0.975318,0.218418,-0.000000,0.032388 LARM_JOINT2:0.821721,0.000000,0.025063,-0.569339 LARM_JOINT3:0.950955,0.000000,-0.251613,-0.179934 LLEG_JOINT2:0.999004,-0.005888,0.000000,0.044231 LLEG_JOINT4:0.994910,0.100348,0.000000,-0.009234 RARM_JOINT2:0.802402,0.000000,0.492357,0.337248 RARM_JOINT3:0.979926,0.000000,0.169029,0.105704 RLEG_JOINT2:0.995538,0.037789,0.000000,-0.086463 RLEG_JOINT4:0.993632,0.089310,0.000000,0.068695 WAIST:0.996962,-0.000000,0.075442,0.019394 WAIST_JOINT0:0.992566,-0.000000,0.107640,0.056806 WAIST_JOINT1:0.997670,0.067991,-0.000000,0.005697 END:
KINECT_DATA_Sensor  AnkleLeft:0.050804,0.754947,-0.094623,-0.646931 AnkleRight:0.082428,0.744331,0.094231,0.655971 ElbowLeft:-0.011428,0.806664,-0.219668,-0.548551 ElbowRight:-0.406817,0.909617,0.083834,-0.008228 FootLeft:0.000000,0.000000,0.000000,0.000000 FootRight:0.000000,0.000000,0.000000,0.000000 HandLeft:0.071337,-0.600162,-0.162748,0.779891 HandRight:-0.419217,0.729530,0.138603,-0.522333 HandTipLeft:0.000000,0.000000,0.000000,0.000000 HandTipRight:0.000000,0.000000,0.000000,0.000000 Head:0.000000,0.000000,0.000000,0.000000 HipLeft:0.065045,-0.673191,0.725315,-0.128458 HipRight:-0.172023,0.677289,0.681722,-0.216661 KneeLeft:0.046979,-0.650554,0.043411,0.756761 KneeRight:-0.027057,0.758737,0.071432,0.646904 Neck:-0.113093,0.022931,0.989887,-0.082509 ShoulderLeft:0.077830,0.742634,-0.665132,-0.006047 ShoulderRight:-0.070098,0.801014,0.572381,-0.160759 SpineBase:-0.076056,0.020009,0.995874,-0.045268 SpineMid:-0.094209,0.020832,0.994321,-0.044895 SpineShoulder:-0.112930,0.022208,0.991382,-0.062573 ThumbLeft:0.000000,0.000000,0.000000,0.000000 ThumbRight:0.000000,0.000000,0.000000,0.000000 WristLeft:0.149270,-0.577362,-0.090466,0.797614 WristRight:-0.394298,0.736471,0.111796,-0.538183 END:
KINECT_DATA POSITION:49.484562,0.920375,-12.419248 HEAD_JOINT1:0.977195,0.210356,-0.000000,0.029005 LARM_JOINT2:0.820016,0.000000,0.023028,-0.571878 LARM_JOINT3:0.950586,0.000000,-0.252110,-0.181180 LLEG_JOINT2:0.999071,-0.005336,0.000000,0.042774 LLEG_JOINT4:0.994806,0.101242,0.000000,-0.010572 RARM_JOINT2:0.802603,0.000000,0.493665,0.334849 RARM_JOINT3:0.981886,0.000000,0.160638,0.100478 RLEG_JOINT2:0.995329,0.039963,0.000000,-0.087879 RLEG_JOINT4:0.993858,0.086021,0.000000,0.069613 WAIST:0.996875,-0.000000,0.076371,0.020195 WAIST_JOINT0:0.992497,-0.000000,0.108199,0.056944 WAIST_JOINT1:0.997599,0.068825,-0.000000,0.007752 END:
KINECT_DATA_Sensor  AnkleLeft:0.050659,0.737291,-0.094933,-0.666951 AnkleRight:0.081179,0.740935,0.093739,0.660029 ElbowLeft:-0.011961,0.806314,-0.219132,-0.549268 ElbowRight:-0.406713,0.909216,0.086684,-0.019902 FootLeft:0.000000,0.000000,0.000000,0.000000 FootRight:0.000000,0.000000,0.000000,0.000000 HandLeft:0.077722,-0.650678,-0.165028,0.737118 HandRight:-0.422450,0.742772,0.151087,-0.496989 HandTipLeft:0.000000,0.000000,0.000000,0.000000 HandTipRight:0.000000,0.000000,0.000000,0.000000 Head:0.000000,0.000000,0.000000,0.000000 HipLeft:0.064058,-0.672560,0.725967,-0.128575 HipRight:-0.172895,0.677651,0.681018,-0.217050 KneeLeft:0.046145,-0.649971,0.043269,0.757322 KneeRight:-0.026209,0.759455,0.073407,0.645873 Neck:-0.114091,0.025882,0.989625,-0.083399 ShoulderLeft:0.081915,0.740974,-0.666463,-0.008584 ShoulderRight:-0.067162,0.801184,0.572697,-0.160037 SpineBase:-0.076977,0.021743,0.995753,-0.045578 SpineMid:-0.095173,0.022573,0.994179,-0.045173 SpineShoulder:-0.113902,0.024896,0.991150,-0.063461 ThumbLeft:0.000000,0.000000,0.000000,0.000000 ThumbRight:0.000000,0.000000,0.000000,0.000000 WristLeft:0.155309,-0.627171,-0.080970,0.758933 WristRight:-0.392787,0.749753,0.103564,-0.522363 END:
KINECT_DATA POSITION:49.438786,0.922383,-12.402272 HEAD_JOINT1:0.976132,0.214530,-0.000000,0.033821 LARM_JOINT2:0.820968,0.000000,0.027513,-0.570311 LARM_JOINT3:0.947992,0.000000,-0.258220,-0.186100 LLEG_JOINT2:0.999011,-0.004449,0.000000,0.044233 LLEG_JOINT4:0.995102,0.098356,0.000000,-0.009868 RARM_JOINT2:0.810101,0.000000,0.479646,0.337160 RARM_JOINT3:0.974783,0.000000,0.201607,0.095673 RLEG_JOINT2:0.995458,0.038134,0.000000,-0.087228 RLEG_JOINT4:0.993423,0.089916,0.000000,0.070890 WAIST:0.997068,-0.000000,0.074026,0.019382 WAIST_JOINT0:0.992313,-0.000000,0.109673,0.057323 WAIST_JOINT1:0.997783,0.066276,-0.000000,0.006096 END:
KINECT_DATA_Sensor  AnkleLeft:0.052172,0.767077,-0.092990,-0.632633 AnkleRight:0.085076,0.748777,0.093194,0.650699 ElbowLeft:-0.011649,0.805766,-0.218989,-0.550136 ElbowRight:-0.401501,0.910227,0.100688,-0.012074 FootLeft:0.000000,0.000000,0.000000,0.000000 FootRight:0.000000,0.000000,0.000000,0.000000 HandLeft:0.082605,-0.654787,-0.182836,0.728698 HandRight:-0.495294,0.731129,0.177369,-0.434368 HandTipLeft:0.000000,0.000000,0.000000,0.000000 HandTipRight:0.000000,0.000000,0.000000,0.000000 Head:0.000000,0.000000,0.000000,0.000000 HipLeft:0.066354,-0.672802,0.725408,-0.129299 HipRight:-0.171800,0.677670,0.681996,-0.214778 KneeLeft:0.045917,-0.651736,0.044303,0.755757 KneeRight:-0.027293,0.757808,0.072263,0.647889 Neck:-0.114972,0.023379,0.989801,-0.080802 ShoulderLeft:0.075007,0.743239,-0.664776,-0.006528 ShoulderRight:-0.075649,0.801520,0.570346,-0.162936 SpineBase:-0.074578,0.021282,0.995992,-0.044552 SpineMid:-0.094340,0.022162,0.994315,-0.044120 SpineShoulder:-0.114755,0.023077,0.991265,-0.060773 ThumbLeft:0.000000,0.000000,0.000000,0.000000 ThumbRight:0.000000,0.000000,0.000000,0.000000 WristLeft:0.156717,-0.631418,-0.083584,0.754828 WristRight:-0.400881,0.760018,0.063736,-0.507548 END:
KINECT_DATA POSITION:49.295910,0.927338,-12.434328 HEAD_JOINT1:0.976986,0.210576,-0.000000,0.034009 LARM_JOINT2:0.820913,0.000000,0.020492,-0.570685 LARM_JOINT3:0.949384,0.000000,-0.255226,-0.183110 LLEG_JOINT2:0.998905,-0.004405,0.000000,0.046571 LLEG_JOINT4:0.994973,0.099676,0.000000,-0.009674 RARM_JOINT2:0.819805,0.000000,0.467171,0.331166 RARM_JOINT3:0.964309,0.000000,0.243914,0.103021 RLEG_JOINT2:0.995620,0.035655,0.000000,-0.086420 RLEG_JOINT4:0.993270,0.091813,0.000000,0.070608 WAIST:0.997336,-0.000000,0.070467,0.018862 WAIST_JOINT0:0.991034,-0.000000,0.119168,0.060422 WAIST_JOINT1:0.997776,0.066441,-0.000000,0.005352 END:
KINECT_DATA_Sensor  AnkleLeft:0.053144,0.776076,-0.095042,-0.621167 AnkleRight:0.086652,0.757244,0.091090,0.640917 ElbowLeft:-0.015960,0.810659,-0.215317,-0.544258 ElbowRight:-0.400940,0.909233,0.111080,0.014267 FootLeft:0.000000,0.000000,0.000000,0.000000 FootRight:0.000000,0.000000,0.000000,0.000000 HandLeft:0.048783,-0.518037,-0.188924,0.832806 HandRight:-0.540200,0.705754,0.164515,-0.427819 HandTipLeft:0.000000,0.000000,0.000000,0.000000 HandTipRight:0.000000,0.000000,0.000000,0.000000 Head:0.000000,0.000000,0.000000,0.000000 HipLeft:0.068863,-0.672854,0.724841,-0.130884 HipRight:-0.169516,0.677882,0.682948,-0.212889 KneeLeft:0.047162,-0.654281,0.045610,0.753400 KneeRight:-0.028389,0.755364,0.070369,0.650898 Neck:-0.123565,0.023508,0.988723,-0.081272 ShoulderLeft:0.076988,0.743034,-0.664735,-0.010018 ShoulderRight:-0.085387,0.800785,0.567291,-0.172144 SpineBase:-0.071036,0.020080,0.996286,-0.044318 SpineMid:-0.096834,0.021222,0.994111,-0.043783 SpineShoulder:-0.123403,0.022744,0.990252,-0.060453 ThumbLeft:0.000000,0.000000,0.000000,0.000000 ThumbRight:0.000000,0.000000,0.000000,0.000000 WristLeft:0.138615,-0.490917,-0.113617,0.852571 WristRight:-0.411122,0.749438,0.058136,-0.515695 END:
KINECT_DATA POSITION:49.255337,0.918786,-12.430084 HEAD_JOINT1:0.978245,0.205162,-0.000000,0.030759 LARM_JOINT2:0.820058,0.000000,0.015383,-0.572073 LARM_JOINT3:0.951389,0.000000,-0.250042,-0.179827 LLEG_JOINT2:0.998886,-0.004284,0.000000,0.046998 LLEG_JOINT4:0.995006,0.099318,0.000000,-0.009987 RARM_JOINT2:0.819139,0.000000,0.469595,0.329382 RARM_JOINT3:0.965913,0.000000,0.232131,0.114574 RLEG_JOINT2:0.995608,0.035498,0.000000,-0.086629 RLEG_JOINT4:0.993261,0.091703,0.000000,0.070877 WAIST:0.997372,-0.000000,0.069995,0.018678 WAIST_JOINT0:0.990487,-0.000000,0.123204,0.061298 WAIST_JOINT1:0.997671,0.067906,-0.000000,0.006386 END:
KINECT_DATA_Sensor  AnkleLeft:0.054184,0.784449,-0.094198,-0.610599 AnkleRight:0.085346,0.749223,0.091973,0.650324 ElbowLeft:-0.017527,0.813226,-0.213550,-0.541066 ElbowRight:-0.402498,0.908970,0.106264,0.021832 FootLeft:0.000000,0.000000,0.000000,0.000000 FootRight:0.000000,0.000000,0.000000,0.000000 HandLeft:0.078665,-0.675910,-0.158673,0.715388 HandRight:-0.481735,0.732222,0.160820,-0.453784 HandTipLeft:0.000000,0.000000,0.000000,0.000000 HandTipRight:0.000000,0.000000,0.000000,0.000000 Head:0.000000,0.000000,0.000000,0.000000 HipLeft:0.068922,-0.672856,0.724724,-0.131490 HipRight:-0.169276,0.677756,0.683148,-0.212840 KneeLeft:0.047233,-0.654660,0.045867,0.753051 KneeRight:-0.028741,0.755023,0.070537,0.651259 Neck:-0.127709,0.024842,0.988017,-0.083038 ShoulderLeft:0.080630,0.742297,-0.665090,-0.012249 ShoulderRight:-0.087226,0.800379,0.566337,-0.176205 SpineBase:-0.070542,0.020307,0.996302,-0.044644 SpineMid:-0.098647,0.021559,0.993913,-0.044053 SpineShoulder:-0.127553,0.023855,0.989623,-0.061707 ThumbLeft:0.000000,0.000000,0.000000,0.000000 ThumbRight:0.000000,0.000000,0.000000,0.000000 WristLeft:0.157828,-0.652816,-0.085077,0.735991 WristRight:-0.417110,0.746217,0.056518,-0.515738 END:
KINECT_DATA POSITION:49.276424,0.899106,-12.374889 HEAD_JOINT1:0.976543,0.212195,-0.000000,0.036568 LARM_JOINT2:0.821508,0.000000,0.016285,-0.569964 LARM_JOINT3:0.952866,0.000000,-0.244946,-0.179021 LLEG_JOINT2:0.998932,-0.003772,0.000000,0.046046 LLEG_JOINT4:0.995038,0.098980,0.000000,-0.010143 RARM_JOINT2:0.811539,0.000000,0.478342,0.335550 RARM_JOINT3:0.973119,0.000000,0.200705,0.112947 RLEG_JOINT2:0.995446,0.035953,0.000000,-0.088283 RLEG_JOINT4:0.993001,0.091719,0.000000,0.074413 WAIST:0.997338,-0.000000,0.070361,0.019154 WAIST_JOINT0:0.991182,-0.000000,0.118010,0.060261 WAIST_JOINT1:0.997849,0.065433,-0.000000,0.003903 END:
KINECT_DATA_Sensor  AnkleLeft:0.052868,0.772615,-0.094710,-0.625541 AnkleRight:0.084941,0.731924,0.093015,0.669642 ElbowLeft:-0.018672,0.814333,-0.213336,-0.539445 ElbowRight:-0.404334,0.909192,0.099107,0.007889 FootLeft:0.000000,0.000000,0.000000,0.000000 FootRight:0.000000,0.000000,0.000000,0.000000 HandLeft:-0.080782,0.703280,0.144200,-0.691431 HandRight:-0.449237,0.711240,0.148929,-0.519753 HandTipLeft:0.000000,0.000000,0.000000,0.000000 HandTipRight:0.000000,0.000000,0.000000,0.000000 Head:0.000000,0.000000,0.000000,0.000000 HipLeft:0.069932,-0.672809,0.724888,-0.130287 HipRight:-0.170366,0.678160,0.682531,-0.212665 KneeLeft:0.046552,-0.654326,0.045829,0.753386 KneeRight:-0.029376,0.755291,0.071622,0.650802 Neck:-0.122646,0.022020,0.988999,-0.079717 ShoulderLeft:0.078866,0.743383,-0.664080,-0.012642 ShoulderRight:-0.081615,0.802291,0.566770,-0.168640 SpineBase:-0.070963,0.019722,0.996347,-0.043223 SpineMid:-0.096321,0.020816,0.994216,-0.042707 SpineShoulder:-0.122473,0.021656,0.990445,-0.059588 ThumbLeft:0.000000,0.000000,0.000000,0.000000 ThumbRight:0.000000,0.000000,0.000000,0.000000 WristLeft:0.160385,-0.677486,-0.078754,0.713503 WristRight:-0.397721,0.727516,0.106927,-0.548730 END:
KINECT_DATA POSITION:49.308830,0.891638,-12.326014 HEAD_JOINT1:0.977011,0.210225,-0.000000,0.035416 LARM_JOINT2:0.820771,0.000000,0.014487,-0.571074 LARM_JOINT3:0.952858,0.000000,-0.247255,-0.175860 LLEG_JOINT2:0.998974,-0.003084,0.000000,0.045188 LLEG_JOINT4:0.994998,0.099569,0.000000,-0.008125 RARM_JOINT2:0.801948,0.000000,0.474238,0.363287 RARM_JOINT3:0.979169,0.000000,0.186618,0.080016 RLEG_JOINT2:0.995379,0.037997,0.000000,-0.088187 RLEG_JOINT4:0.993201,0.090557,0.000000,0.073151 WAIST:0.997262,-0.000000,0.071317,0.019535 WAIST_JOINT0:0.990918,-0.000000,0.119900,0.060879 WAIST_JOINT1:0.997818,0.065825,-0.000000,0.005195 END:
KINECT_DATA_Sensor  AnkleLeft:0.052481,0.766902,-0.097020,-0.632213 AnkleRight:0.085080,0.734783,0.093970,0.666352 ElbowLeft:-0.019636,0.813871,-0.213181,-0.540169 ElbowRight:-0.391394,0.915145,0.048235,0.083634 FootLeft:0.000000,0.000000,0.000000,0.000000 FootRight:0.000000,0.000000,0.000000,0.000000 HandLeft:0.085026,-0.650496,-0.151237,0.739428 HandRight:-0.428393,0.712698,0.160201,-0.531862 HandTipLeft:0.000000,0.000000,0.000000,0.000000 HandTipRight:0.000000,0.000000,0.000000,0.000000 Head:0.000000,0.000000,0.000000,0.000000 HipLeft:0.069951,-0.672638,0.725170,-0.129592 HipRight:-0.171568,0.678226,0.682022,-0.213120 KneeLeft:0.045708,-0.653618,0.045932,0.754045 KneeRight:-0.027761,0.756049,0.072795,0.649862 Neck:-0.124642,0.024475,0.988633,-0.080438 ShoulderLeft:0.080768,0.742797,-0.664471,-0.014376 ShoulderRight:-0.082395,0.802624,0.565741,-0.170129 SpineBase:-0.071938,0.019875,0.996298,-0.042665 SpineMid:-0.097860,0.020980,0.994087,-0.042133 SpineShoulder:-0.124528,0.023071,0.990140,-0.059853 ThumbLeft:0.000000,0.000000,0.000000,0.000000 ThumbRight:0.000000,0.000000,0.000000,0.000000 WristLeft:0.155871,-0.630378,-0.087845,0.755388 WristRight:-0.403232,0.720159,0.131624,-0.549044 END:
KINECT_DATA POSITION:49.345284,0.875723,-12.287939 HEAD_JOINT1:0.976549,0.211784,-0.000000,0.038730 LARM_JOINT2:0.821434,0.000000,0.014363,-0.570123 LARM_JOINT3:0.953040,0.000000,-0.247353,-0.174733 LLEG_JOINT2:0.999020,-0.002437,0.000000,0.044191 LLEG_JOINT4:0.995290,0.096697,0.000000,-0.006947 RARM_JOINT2:0.800104,0.000000,0.471693,0.370592 RARM_JOINT3:0.980486,0.000000,0.182685,0.072619 RLEG_JOINT2:0.995262,0.039809,0.000000,-0.088708 RLEG_JOINT4:0.993401,0.089872,0.000000,0.071258 WAIST:0.997152,-0.000000,0.072623,0.020347 WAIST_JOINT0:0.991225,-0.000000,0.117864,0.059838 WAIST_JOINT1:0.997910,0.064499,-0.000000,0.003882 END:
KINECT_DATA_Sensor  AnkleLeft:0.049835,0.764488,-0.096773,-0.635382 AnkleRight:0.085297,0.741979,0.095107,0.658138 ElbowLeft:-0.020788,0.813528,-0.213167,-0.540648 ElbowRight:-0.388165,0.914998,0.036254,0.103883 FootLeft:0.000000,0.000000,0.000000,0.000000 FootRight:0.000000,0.000000,0.000000,0.000000 HandLeft:0.065613,-0.523856,-0.164171,0.833257 HandRight:-0.417341,0.720618,0.166852,-0.527918 HandTipLeft:0.000000,0.000000,0.000000,0.000000 HandTipRight:0.000000,0.000000,0.000000,0.000000 Head:0.000000,0.000000,0.000000,0.000000 HipLeft:0.069867,-0.672288,0.725689,-0.128541 HipRight:-0.172994,0.678534,0.681123,-0.213860 KneeLeft:0.045100,-0.652597,0.046214,0.754949 KneeRight:-0.026494,0.757036,0.073881,0.648642 Neck:-0.122594,0.023226,0.989067,-0.078593 ShoulderLeft:0.079609,0.742974,-0.664412,-0.014439 ShoulderRight:-0.080734,0.802401,0.567205,-0.167071 SpineBase:-0.073300,0.019928,0.996226,-0.041988 SpineMid:-0.097507,0.020943,0.994149,-0.041491 SpineShoulder:-0.122438,0.022443,0.990484,-0.058711 ThumbLeft:0.000000,0.000000,0.000000,0.000000 ThumbRight:0.000000,0.000000,0.000000,0.000000 WristLeft:0.141180,-0.503155,-0.110972,0.845334 WristRight:-0.407322,0.720953,0.132493,-0.544757 END:
KINECT_DATA POSITION:49.375633,0.866871,-12.270796 HEAD_JOINT1:0.976900,0.209840,-0.000000,0.040425 LARM_JOINT2:0.820580,0.000000,0.028561,-0.570817 LARM_JOINT3:0.949837,0.000000,-0.257598,-0.177350 LLEG_JOINT2:0.999034,-0.002265,0.000000,0.043891 LLEG_JOINT4:0.995426,0.095131,0.000000,-0.008766 RARM_JOINT2:0.801209,0.000000,0.483176,0.352994 RARM_JOINT3:0.981683,0.000000,0.169345,0.087300 RLEG_JOINT2:0.995270,0.040337,0.000000,-0.088372 RLEG_JOINT4:0.993672,0.085571,0.000000,0.072756 WAIST:0.997149,-0.000000,0.072674,0.020324 WAIST_JOINT0:0.992567,-0.000000,0.107941,0.056214 WAIST_JOINT1:0.997891,0.064797,-0.000000,0.003981 END:
KINECT_DATA_Sensor  AnkleLeft:0.049596,0.763718,-0.094311,-0.636695 AnkleRight:0.080201,0.713416,0.094650,0.689671 ElbowLeft:-0.012329,0.805091,-0.217054,-0.551873 ElbowRight:-0.400847,0.912762,0.057777,0.053369 FootLeft:0.000000,0.000000,0.000000,0.000000 FootRight:0.000000,0.000000,0.000000,0.000000 HandLeft:0.076401,-0.546298,-0.166999,0.817210 HandRight:0.487020,-0.687729,-0.116357,0.525644 HandTipLeft:0.000000,0.000000,0.000000,0.000000 HandTipRight:0.000000,0.000000,0.000000,0.000000 Head:0.000000,0.000000,0.000000,0.000000 HipLeft:0.069702,-0.672331,0.725691,-0.128395 HipRight:-0.172876,0.678565,0.681161,-0.213735 KneeLeft:0.044756,-0.652578,0.046085,0.754993 KneeRight:-0.025912,0.757100,0.074074,0.648568 Neck:-0.113024,0.022455,0.990174,-0.079221 ShoulderLeft:0.067574,0.746848,-0.661546,-0.002816 ShoulderRight:-0.080737,0.803258,0.566997,-0.163621 SpineBase:-0.073348,0.019956,0.996222,-0.041982 SpineMid:-0.092765,0.020771,0.994602,-0.041585 SpineShoulder:-0.112838,0.021955,0.991605,-0.059197 ThumbLeft:0.000000,0.000000,0.000000,0.000000 ThumbRight:0.000000,0.000000,0.000000,0.000000 WristLeft:0.145068,-0.526615,-0.106565,0.830828 WristRight:-0.398351,0.747956,0.128871,-0.515045 END:
KINECT_DATA POSITION:49.381168,0.872143,-12.204754 HEAD_JOINT1:0.978184,0.204310,-0.000000,0.037593 LARM_JOINT2:0.821544,0.000000,0.019320,-0.569817 LARM_JOINT3:0.950571,0.000000,-0.254572,-0.177788 LLEG_JOINT2:0.999011,-0.001573,0.000000,0.044444 LLEG_JOINT4:0.994675,0.102456,0.000000,-0.011192 RARM_JOINT2:0.804679,0.000000,0.476061,0.354765 RARM_JOINT3:0.975709,0.000000,0.202052,0.084655 RLEG_JOINT2:0.995311,0.040914,0.000000,-0.087642 RLEG_JOINT4:0.994011,0.085021,0.000000,0.068661 WAIST:0.997130,-0.000000,0.073047,0.019906 WAIST_JOINT0:0.992323,-0.000000,0.110002,0.056529 WAIST_JOINT1:0.997925,0.064148,-0.000000,0.005590 END:
KINECT_DATA_Sensor  AnkleLeft:0.052834,0.730000,-0.099191,-0.674143 AnkleRight:0.081360,0.743067,0.093619,0.657623 ElbowLeft:-0.019112,0.809698,-0.216024,-0.545306 ElbowRight:-0.399542,0.910805,0.045999,0.093195 FootLeft:0.000000,0.000000,0.000000,0.000000 FootRight:0.000000,0.000000,0.000000,0.000000 HandLeft:0.102158,-0.671658,-0.163803,0.715268 HandRight:-0.432041,0.767632,0.130240,-0.455103 HandTipLeft:0.000000,0.000000,0.000000,0.000000 HandTipRight:0.000000,0.000000,0.000000,0.000000 Head:0.000000,0.000000,0.000000,0.000000 HipLeft:0.069392,-0.672629,0.725510,-0.128023 HipRight:-0.173489,0.678376,0.681330,-0.213303 KneeLeft:0.044281,-0.652373,0.046678,0.755162 KneeRight:-0.025307,0.757355,0.074311,0.648267 Neck:-0.115224,0.023926,0.989950,-0.078420 ShoulderLeft:0.075279,0.744895,-0.662842,-0.010248 ShoulderRight:-0.075204,0.803426,0.568429,-0.160433 SpineBase:-0.073649,0.020678,0.996201,-0.041614 SpineMid:-0.094026,0.021526,0.994485,-0.041182 SpineShoulder:-0.115035,0.023210,0.991358,-0.058637 ThumbLeft:0.000000,0.000000,0.000000,0.000000 ThumbRight:0.000000,0.000000,0.000000,0.000000 WristLeft:0.161868,-0.653159,-0.081636,0.735199 WristRight:-0.438588,0.757130,0.072484,-0.478687 END:
KINECT_DATA POSITION:49.349289,0.886717,-12.073315 HEAD_JOINT1:0.981011,0.191756,-0.000000,0.029098 LARM_JOINT2:0.820462,0.000000,0.013646,-0.571538 LARM_JOINT3:0.953236,0.000000,-0.245185,-0.176709 LLEG_JOINT2:0.998984,-0.000618,0.000000,0.045059 LLEG_JOINT4:0.995117,0.098360,0.000000,-0.008216 RARM_JOINT2:0.812423,0.000000,0.461157,0.356797 RARM_JOINT3:0.962187,0.000000,0.255153,0.095360 RLEG_JOINT2:0.995304,0.042271,0.000000,-0.087084 RLEG_JOINT4:0.994057,0.084700,0.000000,0.068390 WAIST:0.996924,-0.000000,0.075714,0.020234 WAIST_JOINT0:0.990007,-0.000000,0.128099,0.058957 WAIST_JOINT1:0.998034,0.062132,-0.000000,0.008267 END:
KINECT_DATA_Sensor  AnkleLeft:0.052184,0.754594,-0.098529,-0.646650 AnkleRight:0.083083,0.751022,0.093383,0.648338 ElbowLeft:-0.025395,0.807550,-0.214062,-0.548995 ElbowRight:-0.395531,0.909039,0.043759,0.123647 FootLeft:0.000000,0.000000,0.000000,0.000000 FootRight:0.000000,0.000000,0.000000,0.000000 HandLeft:0.071691,-0.653202,-0.150422,0.738621 HandRight:0.496644,-0.693439,-0.083881,0.515220 HandTipLeft:0.000000,0.000000,0.000000,0.000000 HandTipRight:0.000000,0.000000,0.000000,0.000000 Head:0.000000,0.000000,0.000000,0.000000 HipLeft:0.069599,-0.672554,0.725814,-0.126572 HipRight:-0.177470,0.678247,0.680203,-0.214033 KneeLeft:0.044094,-0.650380,0.048082,0.756802 KneeRight:-0.023995,0.759199,0.074638,0.646120 Neck:-0.132701,0.028415,0.987843,-0.075827 ShoulderLeft:0.084289,0.742593,-0.663981,-0.024080 ShoulderRight:-0.089491,0.801093,0.565769,-0.173630 SpineBase:-0.076256,0.022183,0.996045,-0.039836 SpineMid:-0.104031,0.023286,0.993528,-0.039201 SpineShoulder:-0.132539,0.026818,0.989208,-0.056397 ThumbLeft:0.000000,0.000000,0.000000,0.000000 ThumbRight:0.000000,0.000000,0.000000,0.000000 WristLeft:0.164764,-0.625746,-0.087403,0.757401 WristRight:-0.448316,0.722147,0.091655,-0.518764 END:
KINECT_DATA POSITION:49.324203,0.891085,-11.999523 HEAD_JOINT1:0.983117,0.182005,-0.000000,0.018818 LARM_JOINT2:0.817727,0.000000,0.019809,-0.575265 LARM_JOINT3:0.953327,0.000000,-0.246068,-0.174981 LLEG_JOINT2:0.998994,-0.000045,0.000000,0.044846 LLEG_JOINT4:0.995294,0.096558,0.000000,-0.008110 RARM_JOINT2:0.812959,0.000000,0.450988,0.368386 RARM_JOINT3:0.952471,0.000000,0.290833,0.090638 RLEG_JOINT2:0.995104,0.044233,0.000000,-0.088381 RLEG_JOINT4:0.993555,0.086622,0.000000,0.073115 WAIST:0.996405,-0.000000,0.082097,0.020883 WAIST_JOINT0:0.988092,-0.000000,0.141638,0.060114 WAIST_JOINT1:0.998276,0.057471,-0.000000,0.011878 END:
KINECT_DATA_Sensor  AnkleLeft:0.052974,0.761450,-0.097039,-0.638726 AnkleRight:0.085165,0.735334,0.096580,0.665359 ElbowLeft:-0.025961,0.797015,-0.213680,-0.564299 ElbowRight:-0.389307,0.903030,0.013667,0.181082 FootLeft:0.000000,0.000000,0.000000,0.000000 FootRight:0.000000,0.000000,0.000000,0.000000 HandLeft:0.052792,-0.545851,-0.155208,0.821688 HandRight:0.499905,-0.659744,-0.070016,0.556714 HandTipLeft:0.000000,0.000000,0.000000,0.000000 HandTipRight:0.000000,0.000000,0.000000,0.000000 Head:0.000000,0.000000,0.000000,0.000000 HipLeft:0.068497,-0.672533,0.726439,-0.123669 HipRight:-0.185624,0.677841,0.677690,-0.216361 KneeLeft:0.043753,-0.645608,0.048946,0.760842 KneeRight:-0.023798,0.763463,0.076276,0.640890 Neck:-0.145981,0.032892,0.986201,-0.070821 ShoulderLeft:0.089332,0.740674,-0.664856,-0.037259 ShoulderRight:-0.102022,0.800197,0.562536,-0.181188 SpineBase:-0.082543,0.024973,0.995571,-0.037437 SpineMid:-0.113767,0.026137,0.992488,-0.036634 SpineShoulder:-0.145754,0.031166,0.987478,-0.051694 ThumbLeft:0.000000,0.000000,0.000000,0.000000 ThumbRight:0.000000,0.000000,0.000000,0.000000 WristLeft:0.158958,-0.515668,-0.106982,0.835089 WristRight:0.481921,-0.677423,-0.105299,0.545676 END:
KINECT_DATA POSITION:49.323158,0.945767,-11.946333 HEAD_JOINT1:0.984265,0.176329,-0.000000,0.011438 LARM_JOINT2:0.815770,0.000000,0.024996,-0.577837 LARM_JOINT3:0.952693,0.000000,-0.246730,-0.177486 LLEG_JOINT2:0.999072,-0.001031,0.000000,0.043067 LLEG_JOINT4:0.995594,0.093686,0.000000,-0.003907 RARM_JOINT2:0.841124,0.000000,0.439037,0.315844 RARM_JOINT3:0.904679,0.000000,0.393341,0.163823 RLEG_JOINT2:0.994760,0.045610,0.000000,-0.091498 RLEG_JOINT4:0.992956,0.088244,0.000000,0.079064 WAIST:0.995561,-0.000000,0.091678,0.021300 WAIST_JOINT0:0.988846,-0.000000,0.138459,0.054897 WAIST_JOINT1:0.998437,0.053912,-0.000000,0.014713 END:
KINECT_DATA_Sensor  AnkleLeft:0.050199,0.763880,-0.096342,-0.636149 AnkleRight:0.088909,0.744040,0.097092,0.655037 ElbowLeft:-0.023629,0.790335,-0.214021,-0.573592 ElbowRight:-0.416576,0.900524,0.098845,0.075838 FootLeft:0.000000,0.000000,0.000000,0.000000 FootRight:0.000000,0.000000,0.000000,0.000000 HandLeft:0.079276,-0.646536,-0.159599,0.741778 HandRight:-0.104317,-0.383391,0.599117,-0.695118 HandTipLeft:0.000000,0.000000,0.000000,0.000000 HandTipRight:0.000000,0.000000,0.000000,0.000000 Head:0.000000,0.000000,0.000000,0.000000 HipLeft:0.064968,-0.672381,0.727879,-0.117795 HipRight:-0.194748,0.676353,0.675614,-0.219466 KneeLeft:0.043335,-0.638409,0.047526,0.767006 KneeRight:-0.025857,0.769674,0.078679,0.633042 Neck:-0.143001,0.034806,0.986763,-0.068107 ShoulderLeft:0.093680,0.739949,-0.664580,-0.045083 ShoulderRight:-0.092807,0.799134,0.568976,-0.170409 SpineBase:-0.092006,0.027841,0.994767,-0.034614 SpineMid:-0.117041,0.028704,0.992133,-0.033902 SpineShoulder:-0.142688,0.033358,0.988009,-0.048644 ThumbLeft:0.000000,0.000000,0.000000,0.000000 ThumbRight:0.000000,0.000000,0.000000,0.000000 WristLeft:0.172633,-0.616378,-0.079882,0.764130 WristRight:0.104848,0.421930,-0.486926,0.757552 END:
KINECT_DATA POSITION:49.204338,1.092818,-12.001371 HEAD_JOINT1:0.985435,0.169900,-0.000000,0.007166 LARM_JOINT2:0.817406,0.000000,0.021553,-0.575659 LARM_JOINT3:0.952250,0.000000,-0.245413,-0.181640 LLEG_JOINT2:0.999136,-0.005046,0.000000,0.041251 LLEG_JOINT4:0.995113,0.098741,0.000000,-0.001122 RARM_JOINT2:0.854438,0.000000,0.414704,0.312981 RARM_JOINT3:0.874902,0.000000,0.451360,0.175561 RLEG_JOINT2:0.994464,0.047462,0.000000,-0.093752 RLEG_JOINT4:0.992715,0.087976,0.000000,0.082321 WAIST:0.994515,-0.000000,0.101846,0.023812 WAIST_JOINT0:0.988564,-0.000000,0.141180,0.052993 WAIST_JOINT1:0.998526,0.052704,-0.000000,0.012966 END:
KINECT_DATA_Sensor  AnkleLeft:0.053515,0.779058,-0.097281,-0.617042 AnkleRight:0.091817,0.753869,0.096251,0.643418 ElbowLeft:-0.024226,0.791320,-0.215832,-0.571527 ElbowRight:-0.416813,0.894693,0.092453,0.131318 FootLeft:0.000000,0.000000,0.000000,0.000000 FootRight:0.000000,0.000000,0.000000,0.000000 HandLeft:0.072877,-0.569618,-0.169172,0.801003 HandRight:0.149074,0.385901,-0.559908,0.717886 HandTipLeft:0.000000,0.000000,0.000000,0.000000 HandTipRight:0.000000,0.000000,0.000000,0.000000 Head:0.000000,0.000000,0.000000,0.000000 HipLeft:0.059099,-0.671603,0.730469,-0.108958 HipRight:-0.200552,0.676916,0.672538,-0.221937 KneeLeft:0.046752,-0.630392,0.045637,0.773522 KneeRight:-0.025596,0.776351,0.079352,0.624761 Neck:-0.145425,0.034658,0.986464,-0.067378 ShoulderLeft:0.095925,0.741674,-0.661996,-0.049791 ShoulderRight:-0.093153,0.799270,0.568759,-0.170304 SpineBase:-0.102258,0.029279,0.993813,-0.031979 SpineMid:-0.123357,0.029952,0.991415,-0.031349 SpineShoulder:-0.145108,0.033213,0.987716,-0.047508 ThumbLeft:0.000000,0.000000,0.000000,0.000000 ThumbRight:0.000000,0.000000,0.000000,0.000000 WristLeft:0.164445,-0.540309,-0.095003,0.819755 WristRight:0.156723,0.403348,-0.531836,0.727942 END:
KINECT_DATA POSITION:49.054016,1.203540,-12.162315 HEAD_JOINT1:0.986710,0.162417,-0.000000,0.004889 LARM_JOINT2:0.817726,0.000000,0.021543,-0.575205 LARM_JOINT3:0.950529,0.000000,-0.251440,-0.182406 LLEG_JOINT2:0.999034,-0.009138,0.000000,0.042985 LLEG_JOINT4:0.994837,0.101396,0.000000,-0.004320 RARM_JOINT2:0.856228,0.000000,0.401469,0.325109 RARM_JOINT3:0.869465,0.000000,0.466134,0.163555 RLEG_JOINT2:0.994560,0.048694,0.000000,-0.092078 RLEG_JOINT4:0.992863,0.086109,0.000000,0.082515 WAIST:0.993824,-0.000000,0.108509,0.023244 WAIST_JOINT0:0.988560,-0.000000,0.141528,0.052134 WAIST_JOINT1:0.998528,0.052599,-0.000000,0.013251 END:
KINECT_DATA_Sensor  AnkleLeft:0.050024,0.750519,-0.096399,-0.651864 AnkleRight:0.091248,0.755068,0.095970,0.642134 ElbowLeft:-0.022755,0.788305,-0.216173,-0.575610 ElbowRight:-0.406947,0.896357,0.083084,0.155031 FootLeft:0.000000,0.000000,0.000000,0.000000 FootRight:0.000000,0.000000,0.000000,0.000000 HandLeft:0.096215,-0.597320,-0.173927,0.776982 HandRight:-0.153155,-0.429651,0.586480,-0.669317 HandTipLeft:0.000000,0.000000,0.000000,0.000000 HandTipRight:0.000000,0.000000,0.000000,0.000000 Head:0.000000,0.000000,0.000000,0.000000 HipLeft:0.055629,-0.673294,0.729813,-0.104658 HipRight:-0.205024,0.676145,0.670924,-0.225064 KneeLeft:0.050436,-0.625135,0.044223,0.777629 KneeRight:-0.024552,0.780601,0.079373,0.619483 Neck:-0.145992,0.033625,0.986390,-0.067759 ShoulderLeft:0.092548,0.743306,-0.660848,-0.047015 ShoulderRight:-0.097580,0.799055,0.567313,-0.173626 SpineBase:-0.108860,0.029428,0.993138,-0.030979 SpineMid:-0.126936,0.029987,0.990990,-0.030438 SpineShoulder:-0.145684,0.032287,0.987655,-0.047654 ThumbLeft:0.000000,0.000000,0.000000,0.000000 ThumbRight:0.000000,0.000000,0.000000,0.000000 WristLeft:0.169459,-0.572380,-0.089512,0.797278 WristRight:0.122713,0.428609,-0.546947,0.708580 END:
KINECT_DATA POSITION:48.940502,1.360737,-12.384701 HEAD_JOINT1:0.987414,0.158080,-0.000000,0.004928 LARM_JOINT2:0.819137,0.000000,0.020072,-0.573247 LARM_JOINT3:0.950730,0.000000,-0.249302,-0.184285 LLEG_JOINT2:0.998916,-0.012572,0.000000,0.044826 LLEG_JOINT4:0.994922,0.100604,0.000000,-0.003121 RARM_JOINT2:0.862390,0.000000,0.393341,0.318694 RARM_JOINT3:0.858783,0.000000,0.489096,0.152566 RLEG_JOINT2:0.994675,0.048829,0.000000,-0.090761 RLEG_JOINT4:0.992998,0.082475,0.000000,0.084578 WAIST:0.993429,-0.000000,0.112353,0.021801 WAIST_JOINT0:0.988023,-0.000000,0.145756,0.050655 WAIST_JOINT1:0.998588,0.051276,-0.000000,0.013914 END:
KINECT_DATA_Sensor  AnkleLeft:0.045825,0.747133,-0.095761,-0.656142 AnkleRight:0.091411,0.765338,0.091374,0.630517 ElbowLeft:-0.023987,0.788186,-0.216873,-0.575459 ElbowRight:-0.410277,0.893611,0.092126,0.156986 FootLeft:0.000000,0.000000,0.000000,0.000000 FootRight:0.000000,0.000000,0.000000,0.000000 HandLeft:0.108190,-0.669441,-0.157061,0.717966 HandRight:0.203085,0.316672,-0.594107,0.710994 HandTipLeft:0.000000,0.000000,0.000000,0.000000 HandTipRight:0.000000,0.000000,0.000000,0.000000 Head:0.000000,0.000000,0.000000,0.000000 HipLeft:0.054576,-0.675142,0.728554,-0.102050 HipRight:-0.208389,0.675066,0.670400,-0.226769 KneeLeft:0.053143,-0.622082,0.042632,0.779982 KneeRight:-0.024819,0.782946,0.079515,0.616488 Neck:-0.149941,0.032711,0.985908,-0.066577 ShoulderLeft:0.089519,0.745475,-0.658801,-0.047261 ShoulderRight:-0.106198,0.797367,0.566375,-0.179297 SpineBase:-0.112617,0.028904,0.992774,-0.029680 SpineMid:-0.130782,0.029442,0.990545,-0.029145 SpineShoulder:-0.149648,0.031430,0.987147,-0.046466 ThumbLeft:0.000000,0.000000,0.000000,0.000000 ThumbRight:0.000000,0.000000,0.000000,0.000000 WristLeft:0.179017,-0.645614,-0.074356,0.738652 WristRight:0.202844,0.347356,-0.534747,0.743131 END:
KINECT_DATA POSITION:48.830833,1.295750,-12.608635 HEAD_JOINT1:0.988186,0.152484,-0.000000,0.015389 LARM_JOINT2:0.820930,0.000000,0.021294,-0.570632 LARM_JOINT3:0.948793,0.000000,-0.257353,-0.183196 LLEG_JOINT2:0.998751,-0.013923,0.000000,0.047982 LLEG_JOINT4:0.994297,0.106404,0.000000,-0.007196 RARM_JOINT2:0.880447,0.000000,0.404974,0.246596 RARM_JOINT3:0.869291,0.000000,0.479068,0.121764 RLEG_JOINT2:0.995194,0.044545,0.000000,-0.087205 RLEG_JOINT4:0.992544,0.087895,0.000000,0.084443 WAIST:0.994171,-0.000000,0.105999,0.019683 WAIST_JOINT0:0.989632,-0.000000,0.137004,0.043111 WAIST_JOINT1:0.998911,0.045288,-0.000000,0.011233 END:
KINECT_DATA_Sensor  AnkleLeft:0.045188,0.711356,-0.098477,-0.694430 AnkleRight:0.090677,0.737683,0.094423,0.662334 ElbowLeft:-0.029251,0.791036,-0.213412,-0.572592 ElbowRight:-0.470648,0.857876,0.122144,0.166192 FootLeft:0.000000,0.000000,0.000000,0.000000 FootRight:0.000000,0.000000,0.000000,0.000000 HandLeft:0.118112,-0.608364,-0.194042,0.760454 HandRight:0.039628,-0.476502,0.619174,-0.622895 HandTipLeft:0.000000,0.000000,0.000000,0.000000 HandTipRight:0.000000,0.000000,0.000000,0.000000 Head:0.000000,0.000000,0.000000,0.000000 HipLeft:0.060651,-0.676637,0.726799,-0.101227 HipRight:-0.205892,0.675849,0.672674,-0.219880 KneeLeft:0.054863,-0.626838,0.042489,0.776053 KneeRight:-0.025684,0.778745,0.075683,0.622229 Neck:-0.140313,0.027906,0.987895,-0.059976 ShoulderLeft:0.076733,0.749603,-0.656052,-0.042473 ShoulderRight:-0.106874,0.792970,0.575350,-0.169556 SpineBase:-0.106196,0.026757,0.993667,-0.025134 SpineMid:-0.122764,0.027173,0.991757,-0.024684 SpineShoulder:-0.140012,0.027457,0.988937,-0.040586 ThumbLeft:0.000000,0.000000,0.000000,0.000000 ThumbRight:0.000000,0.000000,0.000000,0.000000 WristLeft:0.174735,-0.586952,-0.092922,0.785061 WristRight:-0.002037,-0.516248,0.587486,-0.623172 END:
KINECT_DATA POSITION:48.689404,1.215027,-12.701321 HEAD_JOINT1:0.988269,0.148885,-0.000000,0.034012 LARM_JOINT2:0.825584,0.000000,0.015048,-0.564079 LARM_JOINT3:0.945314,0.000000,-0.263623,-0.192054 LLEG_JOINT2:0.998519,-0.011933,0.000000,0.053079 LLEG_JOINT4:0.994395,0.105636,0.000000,-0.004505 RARM_JOINT2:0.870515,0.000000,0.426156,0.246159 RARM_JOINT3:0.918227,0.000000,0.391675,0.058727 RLEG_JOINT2:0.996097,0.035573,0.000000,-0.080779 RLEG_JOINT4:0.992535,0.093460,0.000000,0.078356 WAIST:0.996134,-0.000000,0.086400,0.015859 WAIST_JOINT0:0.992014,-0.000000,0.120588,0.036981 WAIST_JOINT1:0.999156,0.040288,-0.000000,0.008048 END:
KINECT_DATA_Sensor  AnkleLeft:0.047940,0.758380,-0.101426,-0.642086 AnkleRight:0.089973,0.737634,0.090918,0.662974 ElbowLeft:-0.040501,0.807681,-0.210300,-0.549350 ElbowRight:-0.486309,0.843057,0.094825,0.209206 FootLeft:0.000000,0.000000,0.000000,0.000000 FootRight:0.000000,0.000000,0.000000,0.000000 HandLeft:0.130945,-0.661902,-0.213791,0.706422 HandRight:0.127241,-0.452389,0.608321,-0.639609 HandTipLeft:0.000000,0.000000,0.000000,0.000000 HandTipRight:0.000000,0.000000,0.000000,0.000000 Head:0.000000,0.000000,0.000000,0.000000 HipLeft:0.072322,-0.679358,0.722435,-0.106446 HipRight:-0.191683,0.679133,0.678595,-0.203824 KneeLeft:0.054478,-0.641828,0.044149,0.763636 KneeRight:-0.027564,0.765820,0.068112,0.638844 Neck:-0.123289,0.021654,0.990632,-0.054573 ShoulderLeft:0.060416,0.757033,-0.649730,-0.033198 ShoulderRight:-0.100339,0.794971,0.578208,-0.153718 SpineBase:-0.086516,0.022912,0.995758,-0.021352 SpineMid:-0.104413,0.023292,0.994041,-0.020936 SpineShoulder:-0.123017,0.021916,0.991532,-0.035379 ThumbLeft:0.000000,0.000000,0.000000,0.000000 ThumbRight:0.000000,0.000000,0.000000,0.000000 WristLeft:0.181384,-0.643186,-0.098828,0.737323 WristRight:0.111529,-0.475212,0.572581,-0.658700 END:
KINECT_DATA POSITION:48.477131,1.192271,-12.888837 HEAD_JOINT1:0.987808,0.147213,-0.000000,0.050631 LARM_JOINT2:0.829814,0.000000,0.014403,-0.557855 LARM_JOINT3:0.948401,0.000000,-0.253139,-0.190936 LLEG_JOINT2:0.998326,-0.009056,0.000000,0.057125 LLEG_JOINT4:0.994349,0.105628,0.000000,-0.010652 RARM_JOINT2:0.896600,0.000000,0.392148,0.205738 RARM_JOINT3:0.880859,0.000000,0.462261,0.101994 RLEG_JOINT2:0.996767,0.029258,0.000000,-0.074827 RLEG_JOINT4:0.992816,0.096382,0.000000,0.070905 WAIST:0.997740,-0.000000,0.065839,0.013415 WAIST_JOINT0:0.995012,-0.000000,0.094585,0.031709 WAIST_JOINT1:0.999199,0.039674,-0.000000,0.005264 END:
KINECT_DATA_Sensor  AnkleLeft:0.047745,0.750624,-0.101850,-0.651085 AnkleRight:0.090214,0.748662,0.086137,0.651112 ElbowLeft:-0.045183,0.821796,-0.211460,-0.527157 ElbowRight:-0.497216,0.822915,0.174415,0.212523 FootLeft:0.000000,0.000000,0.000000,0.000000 FootRight:0.000000,0.000000,0.000000,0.000000 HandLeft:0.106020,-0.662199,-0.188801,0.717360 HandRight:0.102066,-0.455069,0.598287,-0.651573 HandTipLeft:0.000000,0.000000,0.000000,0.000000 HandTipRight:0.000000,0.000000,0.000000,0.000000 Head:0.000000,0.000000,0.000000,0.000000 HipLeft:0.084001,-0.679862,0.719614,-0.113525 HipRight:-0.177093,0.681308,0.684366,-0.190000 KneeLeft:0.053931,-0.657278,0.046456,0.750280 KneeRight:-0.027394,0.752161,0.061921,0.655492 Neck:-0.096816,0.016756,0.993689,-0.054114 ShoulderLeft:0.053126,0.762950,-0.643854,-0.023195 ShoulderRight:-0.071738,0.799110,0.583745,-0.124575 SpineBase:-0.065957,0.018544,0.997461,-0.019436 SpineMid:-0.080969,0.018834,0.996355,-0.019155 SpineShoulder:-0.096569,0.017411,0.994569,-0.034689 ThumbLeft:0.000000,0.000000,0.000000,0.000000 ThumbRight:0.000000,0.000000,0.000000,0.000000 WristLeft:0.174981,-0.639338,-0.106706,0.741109 WristRight:0.085657,-0.471476,0.582309,-0.656726 END:
KINECT_DATA POSITION:48.418251,1.192659,-13.069749 HEAD_JOINT1:0.987005,0.150251,-0.000000,0.056968 LARM_JOINT2:0.831450,0.000000,0.015483,-0.555384 LARM_JOINT3:0.949335,0.000000,-0.249476,-0.191115 LLEG_JOINT2:0.998223,-0.008056,0.000000,0.059040 LLEG_JOINT4:0.994264,0.106141,0.000000,-0.013176 RARM_JOINT2:0.890441,0.000000,0.397379,0.221820 RARM_JOINT3:0.885298,0.000000,0.459488,0.071542 RLEG_JOINT2:0.996980,0.024578,0.000000,-0.073665 RLEG_JOINT4:0.992873,0.097712,0.000000,0.068229 WAIST:0.998388,-0.000000,0.055494,0.011934 WAIST_JOINT0:0.995559,-0.000000,0.089097,0.030388 WAIST_JOINT1:0.999181,0.040138,-0.000000,0.005092 END:
KINECT_DATA_Sensor  AnkleLeft:0.055825,0.797790,-0.098110,-0.592274 AnkleRight:0.087018,0.743774,0.084717,0.657306 ElbowLeft:-0.046303,0.827564,-0.212857,-0.517384 ElbowRight:-0.491834,0.821478,0.153130,0.244590 FootLeft:0.000000,0.000000,0.000000,0.000000 FootRight:0.000000,0.000000,0.000000,0.000000 HandLeft:-0.108373,0.714823,0.169769,-0.669673 HandRight:0.139771,-0.477066,0.618987,-0.608052 HandTipLeft:0.000000,0.000000,0.000000,0.000000 HandTipRight:0.000000,0.000000,0.000000,0.000000 Head:0.000000,0.000000,0.000000,0.000000 HipLeft:0.091461,-0.679865,0.717753,-0.119371 HipRight:-0.172236,0.681479,0.686771,-0.185115 KneeLeft:0.053798,-0.664988,0.047041,0.743427 KneeRight:-0.029983,0.745049,0.059074,0.663712 Neck:-0.091101,0.015894,0.994217,-0.054594 ShoulderLeft:0.048500,0.765926,-0.640838,-0.018238 ShoulderRight:-0.068839,0.800138,0.583444,-0.120969 SpineBase:-0.055595,0.016693,0.998136,-0.018858 SpineMid:-0.072935,0.017019,0.997019,-0.018565 SpineShoulder:-0.090883,0.016283,0.995111,-0.035048 ThumbLeft:0.000000,0.000000,0.000000,0.000000 ThumbRight:0.000000,0.000000,0.000000,0.000000 WristLeft:0.179018,-0.688923,-0.096898,0.695664 WristRight:0.139547,-0.489684,0.583257,-0.632889 END:
KINECT_DATA POSITION:48.367767,1.215851,-13.349295 HEAD_JOINT1:0.986733,0.150933,-0.000000,0.059810 LARM_JOINT2:0.832125,0.000000,0.014667,-0.554394 LARM_JOINT3:0.950525,0.000000,-0.246011,-0.189685 LLEG_JOINT2:0.998140,-0.008805,0.000000,0.060322 LLEG_JOINT4:0.994075,0.108011,0.000000,-0.012167 RARM_JOINT2:0.886871,0.000000,0.403631,0.224813 RARM_JOINT3:0.889732,0.000000,0.451928,0.064323 RLEG_JOINT2:0.997106,0.021641,0.000000,-0.072875 RLEG_JOINT4:0.992719,0.099021,0.000000,0.068590 WAIST:0.998638,-0.000000,0.050959,0.011160 WAIST_JOINT0:0.995903,-0.000000,0.085901,0.028255 WAIST_JOINT1:0.999138,0.041210,-0.000000,0.005033 END:
KINECT_DATA_Sensor  AnkleLeft:0.055604,0.799784,-0.100309,-0.589230 AnkleRight:0.084994,0.727653,0.084647,0.675375 ElbowLeft:-0.046868,0.830367,-0.213209,-0.512676 ElbowRight:-0.491976,0.820558,0.144955,0.252255 FootLeft:0.000000,0.000000,0.000000,0.000000 FootRight:0.000000,0.000000,0.000000,0.000000 HandLeft:0.063474,-0.550694,-0.179046,0.812803 HandRight:0.091579,-0.419754,0.620271,-0.656265 HandTipLeft:0.000000,0.000000,0.000000,0.000000 HandTipRight:0.000000,0.000000,0.000000,0.000000 Head:0.000000,0.000000,0.000000,0.000000 HipLeft:0.096070,-0.679860,0.716335,-0.124197 HipRight:-0.171569,0.681032,0.687258,-0.185567 KneeLeft:0.054844,-0.668283,0.046733,0.740409 KneeRight:-0.031624,0.741858,0.057079,0.667374 Neck:-0.087816,0.015405,0.994460,-0.055672 ShoulderLeft:0.047064,0.767358,-0.639307,-0.015259 ShoulderRight:-0.066029,0.799063,0.585635,-0.119042 SpineBase:-0.051060,0.015459,0.998387,-0.019403 SpineMid:-0.069045,0.015806,0.997305,-0.019121 SpineShoulder:-0.087617,0.015629,0.995377,-0.036100 ThumbLeft:0.000000,0.000000,0.000000,0.000000 ThumbRight:0.000000,0.000000,0.000000,0.000000 WristLeft:0.152494,-0.524784,-0.132473,0.826921 WristRight:0.093543,-0.426282,0.595983,-0.674046 END:
KINECT_DATA POSITION:48.337967,1.256258,-13.645339 HEAD_JOINT1:0.986692,0.150873,-0.000000,0.060633 LARM_JOINT2:0.832589,0.000000,0.012282,-0.553755 LARM_JOINT3:0.954805,0.000000,-0.235496,-0.181353 LLEG_JOINT2:0.998109,-0.011313,0.000000,0.060418 LLEG_JOINT4:0.994309,0.105828,0.000000,-0.012218 RARM_JOINT2:0.886992,0.000000,0.404484,0.222795 RARM_JOINT3:0.889663,0.000000,0.453622,0.052226 RLEG_JOINT2:0.997071,0.020848,0.000000,-0.073590 RLEG_JOINT4:0.992925,0.097274,0.000000,0.068098 WAIST:0.998530,-0.000000,0.053040,0.011157 WAIST_JOINT0:0.995597,-0.000000,0.089090,0.029138 WAIST_JOINT1:0.999081,0.042559,-0.000000,0.005009 END:
KINECT_DATA_Sensor  AnkleLeft:0.050307,0.790510,-0.098625,-0.602359 AnkleRight:0.085375,0.754765,0.080495,0.645416 ElbowLeft:-0.046597,0.831301,-0.213863,-0.510911 ElbowRight:-0.478093,0.839808,0.187815,0.175712 FootLeft:0.000000,0.000000,0.000000,0.000000 FootRight:0.000000,0.000000,0.000000,0.000000 HandLeft:0.072734,-0.574543,-0.143785,0.802456 HandRight:0.195063,-0.331135,0.758795,-0.525861 HandTipLeft:0.000000,0.000000,0.000000,0.000000 HandTipRight:0.000000,0.000000,0.000000,0.000000 Head:0.000000,0.000000,0.000000,0.000000 HipLeft:0.094397,-0.679967,0.716404,-0.124497 HipRight:-0.172469,0.680343,0.686882,-0.188629 KneeLeft:0.056696,-0.666641,0.045215,0.741843 KneeRight:-0.032827,0.743174,0.056886,0.665867 Neck:-0.091105,0.015367,0.994102,-0.056781 ShoulderLeft:0.050598,0.766018,-0.640604,-0.016829 ShoulderRight:-0.066801,0.798455,0.585684,-0.122399 SpineBase:-0.053155,0.015043,0.998252,-0.021004 SpineMid:-0.071749,0.015432,0.997088,-0.020720 SpineShoulder:-0.090920,0.015528,0.995030,-0.037513 ThumbLeft:0.000000,0.000000,0.000000,0.000000 ThumbRight:0.000000,0.000000,0.000000,0.000000 WristLeft:0.156015,-0.553405,-0.120140,0.809301 WristRight:-0.173048,0.583751,-0.517894,0.600896 END:
KINECT_DATA POSITION:48.311981,1.296087,-13.781464 HEAD_JOINT1:0.986696,0.151400,-0.000000,0.059241 LARM_JOINT2:0.833588,0.000000,0.015349,-0.552174 LARM_JOINT3:0.953422,0.000000,-0.239783,-0.183002 LLEG_JOINT2:0.998064,-0.011810,0.000000,0.061064 LLEG_JOINT4:0.994278,0.105736,0.000000,-0.015227 RARM_JOINT2:0.887399,0.000000,0.404934,0.220347 RARM_JOINT3:0.891351,0.000000,0.450440,0.050959 RLEG_JOINT2:0.997133,0.020401,0.000000,-0.072870 RLEG_JOINT4:0.993328,0.095827,0.000000,0.064159 WAIST:0.998458,-0.000000,0.054411,0.010995 WAIST_JOINT0:0.995382,-0.000000,0.091190,0.029977 WAIST_JOINT1:0.999043,0.043391,-0.000000,0.005472 END:
KINECT_DATA_Sensor  AnkleLeft:0.048087,0.769932,-0.097688,-0.628768 AnkleRight:0.081424,0.755334,0.081683,0.645111 ElbowLeft:-0.044839,0.828473,-0.217118,-0.514277 ElbowRight:-0.482260,0.836497,0.180398,0.187495 FootLeft:0.000000,0.000000,0.000000,0.000000 FootRight:0.000000,0.000000,0.000000,0.000000 HandLeft:0.083046,-0.603680,-0.149911,0.778589 HandRight:0.213539,-0.343693,0.738399,-0.539485 HandTipLeft:0.000000,0.000000,0.000000,0.000000 HandTipRight:0.000000,0.000000,0.000000,0.000000 Head:0.000000,0.000000,0.000000,0.000000 HipLeft:0.092891,-0.680218,0.716405,-0.124256 HipRight:-0.172884,0.679959,0.686783,-0.189989 KneeLeft:0.057331,-0.665596,0.045316,0.742726 KneeRight:-0.032797,0.744073,0.056129,0.664928 Neck:-0.093339,0.015745,0.993841,-0.057617 ShoulderLeft:0.052697,0.764864,-0.641787,-0.017756 ShoulderRight:-0.067670,0.798213,0.585416,-0.124758 SpineBase:-0.054518,0.015145,0.998159,-0.021861 SpineMid:-0.073551,0.015559,0.996937,-0.021568 SpineShoulder:-0.093163,0.015759,0.994787,-0.038350 ThumbLeft:0.000000,0.000000,0.000000,0.000000 ThumbRight:0.000000,0.000000,0.000000,0.000000 WristLeft:0.161774,-0.582073,-0.111387,0.789058 WristRight:-0.167810,0.568130,-0.531262,0.605664 END:
KINECT_DATA POSITION:48.300869,1.317564,-13.873995 HEAD_JOINT1:0.986995,0.150680,-0.000000,0.055997 LARM_JOINT2:0.833390,0.000000,0.014931,-0.552484 LARM_JOINT3:0.951741,0.000000,-0.243935,-0.186237 LLEG_JOINT2:0.998068,-0.012158,0.000000,0.060931 LLEG_JOINT4:0.994319,0.105297,0.000000,-0.015537 RARM_JOINT2:0.886534,0.000000,0.411320,0.211835 RARM_JOINT3:0.896783,0.000000,0.437775,0.064296 RLEG_JOINT2:0.997151,0.019348,0.000000,-0.072903 RLEG_JOINT4:0.992990,0.099027,0.000000,0.064534 WAIST:0.998451,-0.000000,0.054450,0.011427 WAIST_JOINT0:0.995153,-0.000000,0.093302,0.031056 WAIST_JOINT1:0.998964,0.044970,-0.000000,0.006981 END:
KINECT_DATA_Sensor  AnkleLeft:0.047857,0.772836,-0.097025,-0.625316 AnkleRight:0.081425,0.739201,0.084677,0.663160 ElbowLeft:-0.044581,0.827920,-0.218982,-0.514401 ElbowRight:-0.495842,0.825108,0.156203,0.221217 FootLeft:0.000000,0.000000,0.000000,0.000000 FootRight:0.000000,0.000000,0.000000,0.000000 HandLeft:0.089025,-0.638593,-0.163546,0.746677 HandRight:0.050594,-0.451075,0.749322,-0.482171 HandTipLeft:0.000000,0.000000,0.000000,0.000000 HandTipRight:0.000000,0.000000,0.000000,0.000000 Head:0.000000,0.000000,0.000000,0.000000 HipLeft:0.092045,-0.679811,0.716746,-0.125139 HipRight:-0.172485,0.680089,0.686557,-0.190704 KneeLeft:0.057804,-0.665567,0.045293,0.742716 KneeRight:-0.033229,0.744062,0.055058,0.665009 Neck:-0.095697,0.018480,0.993435,-0.059891 ShoulderLeft:0.054807,0.763546,-0.643164,-0.018277 ShoulderRight:-0.068779,0.798415,0.584369,-0.127736 SpineBase:-0.054565,0.015825,0.998120,-0.022982 SpineMid:-0.074766,0.016287,0.996811,-0.022657 SpineShoulder:-0.095543,0.017542,0.994480,-0.039661 ThumbLeft:0.000000,0.000000,0.000000,0.000000 ThumbRight:0.000000,0.000000,0.000000,0.000000 WristLeft:0.166956,-0.615086,-0.102970,0.763670 WristRight:0.141359,-0.458668,0.559766,-0.675502 END:
KINECT_DATA POSITION:48.217140,1.320319,-14.093483 HEAD_JOINT1:0.987932,0.148472,-0.000000,0.044112 LARM_JOINT2:0.832043,0.000000,0.005826,-0.554680 LARM_JOINT3:0.953142,0.000000,-0.233454,-0.192405 LLEG_JOINT2:0.998106,-0.017210,0.000000,0.059067 LLEG_JOINT4:0.993946,0.109081,0.000000,-0.013120 RARM_JOINT2:0.841224,0.000000,0.525106,0.128863 RARM_JOINT3:0.967009,0.000000,0.230373,0.108725 RLEG_JOINT2:0.997003,0.020125,0.000000,-0.074705 RLEG_JOINT4:0.993089,0.095686,0.000000,0.067957 WAIST:0.998036,-0.000000,0.061112,0.013774 WAIST_JOINT0:0.993541,-0.000000,0.107003,0.037766 WAIST_JOINT1:0.998675,0.050068,-0.000000,0.011867 END:
KINECT_DATA_Sensor  AnkleLeft:0.045853,0.769215,-0.098301,-0.629717 AnkleRight:0.082097,0.745288,0.080362,0.656771 ElbowLeft:-0.044736,0.831079,-0.222800,-0.507609 ElbowRight:-0.563579,0.811772,0.143570,0.052838 FootLeft:0.000000,0.000000,0.000000,0.000000 FootRight:0.000000,0.000000,0.000000,0.000000 HandLeft:0.063091,-0.663992,-0.145486,0.730731 HandRight:0.473509,-0.645252,-0.178349,0.572390 HandTipLeft:0.000000,0.000000,0.000000,0.000000 HandTipRight:0.000000,0.000000,0.000000,0.000000 Head:0.000000,0.000000,0.000000,0.000000 HipLeft:0.084924,-0.678050,0.719507,-0.123875 HipRight:-0.175027,0.679911,0.684676,-0.195715 KneeLeft:0.061759,-0.660552,0.042533,0.747026 KneeRight:-0.032827,0.748556,0.054901,0.659979 Neck:-0.110757,0.026322,0.991312,-0.065877 ShoulderLeft:0.059418,0.760278,-0.646571,-0.019817 ShoulderRight:-0.084384,0.801812,0.572716,-0.148234 SpineBase:-0.061256,0.019425,0.997584,-0.026411 SpineMid:-0.085576,0.020064,0.995792,-0.025929 SpineShoulder:-0.110540,0.024575,0.992582,-0.044251 ThumbLeft:0.000000,0.000000,0.000000,0.000000 ThumbRight:0.000000,0.000000,0.000000,0.000000 WristLeft:0.167791,-0.633836,-0.096218,0.748893 WristRight:-0.494100,0.660160,0.269453,-0.497443 END:
KINECT_DATA POSITION:48.090416,1.315954,-14.601874 HEAD_JOINT1:0.985447,0.163469,-0.000000,0.046607 LARM_JOINT2:0.830025,0.000000,-0.013776,-0.557556 LARM_JOINT3:0.954224,0.000000,-0.220046,-0.202574 LLEG_JOINT2:0.998088,-0.029484,0.000000,0.054325 LLEG_JOINT4:0.993388,0.114616,0.000000,-0.006523 RARM_JOINT2:0.834806,0.000000,0.546924,0.063030 RARM_JOINT3:0.967370,0.000000,0.217520,0.129924 RLEG_JOINT2:0.996602,0.024539,0.000000,-0.078621 RLEG_JOINT4:0.993481,0.088146,0.000000,0.072290 WAIST:0.996562,-0.000000,0.080942,0.017710 WAIST_JOINT0:0.989088,-0.000000,0.138578,0.050010 WAIST_JOINT1:0.997748,0.064240,-0.000000,0.019292 END:
KINECT_DATA_Sensor  AnkleLeft:0.044640,0.795148,-0.095998,-0.597102 AnkleRight:0.080448,0.751696,0.077247,0.650011 ElbowLeft:-0.038076,0.838625,-0.230605,-0.492016 ElbowRight:-0.583183,0.787502,0.190164,-0.059797 FootLeft:0.000000,0.000000,0.000000,0.000000 FootRight:0.000000,0.000000,0.000000,0.000000 HandLeft:-0.042513,0.705869,0.130036,-0.695006 HandRight:0.464795,-0.648128,-0.221914,0.560937 HandTipLeft:0.000000,0.000000,0.000000,0.000000 HandTipRight:0.000000,0.000000,0.000000,0.000000 Head:0.000000,0.000000,0.000000,0.000000 HipLeft:0.064656,-0.675376,0.724878,-0.119328 HipRight:-0.181469,0.677304,0.680918,-0.211374 KneeLeft:0.070144,-0.645719,0.034785,0.759550 KneeRight:-0.031437,0.761716,0.057173,0.644617 Neck:-0.145649,0.037172,0.985263,-0.081617 ShoulderLeft:0.075387,0.751855,-0.654606,-0.022849 ShoulderRight:-0.116551,0.801219,0.553612,-0.194879 SpineBase:-0.081135,0.025261,0.995714,-0.036497 SpineMid:-0.112808,0.026410,0.992625,-0.035674 SpineShoulder:-0.145305,0.035396,0.987078,-0.057533 ThumbLeft:0.000000,0.000000,0.000000,0.000000 ThumbRight:0.000000,0.000000,0.000000,0.000000 WristLeft:0.161949,-0.672529,-0.078866,0.717815 WristRight:0.496250,-0.630733,-0.236782,0.547582 END:
KINECT_DATA POSITION:48.059006,1.371466,-15.117216 HEAD_JOINT1:0.982689,0.177474,-0.000000,0.053158 LARM_JOINT2:0.830097,0.000000,-0.015352,-0.557408 LARM_JOINT3:0.955576,0.000000,-0.211820,-0.204954 LLEG_JOINT2:0.998140,-0.036828,0.000000,0.048588 LLEG_JOINT4:0.992909,0.118623,0.000000,-0.007724 RARM_JOINT2:0.838663,0.000000,0.544651,-0.000409 RARM_JOINT3:0.967643,0.000000,0.208446,0.142187 RLEG_JOINT2:0.996201,0.027731,0.000000,-0.082549 RLEG_JOINT4:0.994281,0.078913,0.000000,0.071957 WAIST:0.995499,-0.000000,0.092271,0.021615 WAIST_JOINT0:0.988458,-0.000000,0.141095,0.055157 WAIST_JOINT1:0.996929,0.075660,-0.000000,0.020211 END:
KINECT_DATA_Sensor  AnkleLeft:0.039292,0.759277,-0.092990,-0.642889 AnkleRight:0.075469,0.763880,0.072919,0.636769 ElbowLeft:-0.023152,0.843075,-0.239296,-0.481067 ElbowRight:-0.585098,0.747746,0.272181,-0.156375 FootLeft:0.000000,0.000000,0.000000,0.000000 FootRight:0.000000,0.000000,0.000000,0.000000 HandLeft:0.026346,-0.605919,-0.115619,0.786639 HandRight:0.534055,-0.647290,-0.212599,0.500602 HandTipLeft:0.000000,0.000000,0.000000,0.000000 HandTipRight:0.000000,0.000000,0.000000,0.000000 Head:0.000000,0.000000,0.000000,0.000000 HipLeft:0.050414,-0.672670,0.728458,-0.119680 HipRight:-0.182672,0.676132,0.677856,-0.223578 KneeLeft:0.074612,-0.637377,0.029113,0.766378 KneeRight:-0.030445,0.769143,0.058884,0.635630 Neck:-0.150585,0.039840,0.983335,-0.093751 ShoulderLeft:0.087525,0.743707,-0.662545,-0.016512 ShoulderRight:-0.112293,0.798250,0.554694,-0.206162 SpineBase:-0.092628,0.028662,0.994201,-0.046513 SpineMid:-0.121045,0.029981,0.991142,-0.045674 SpineShoulder:-0.150156,0.038790,0.985487,-0.069028 ThumbLeft:0.000000,0.000000,0.000000,0.000000 ThumbRight:0.000000,0.000000,0.000000,0.000000 WristLeft:0.137583,-0.580276,-0.081802,0.798535 WristRight:-0.487540,0.683352,0.213361,-0.499812 END:
KINECT_DATA POSITION:48.069370,1.405043,-15.381336 HEAD_JOINT1:0.982437,0.178264,-0.000000,0.055127 LARM_JOINT2:0.830106,0.000000,-0.011446,-0.557489 LARM_JOINT3:0.952701,0.000000,-0.221197,-0.208404 LLEG_JOINT2:0.998170,-0.039351,0.000000,0.045924 LLEG_JOINT4:0.992986,0.118186,0.000000,-0.003226 RARM_JOINT2:0.839922,0.000000,0.542330,-0.020241 RARM_JOINT3:0.965159,0.000000,0.219683,0.142156 RLEG_JOINT2:0.995949,0.030114,0.000000,-0.084729 RLEG_JOINT4:0.994298,0.076815,0.000000,0.073969 WAIST:0.994872,-0.000000,0.098538,0.022824 WAIST_JOINT0:0.988345,-0.000000,0.141032,0.057313 WAIST_JOINT1:0.996528,0.080629,-0.000000,0.020751 END:
KINECT_DATA_Sensor  AnkleLeft:0.037064,0.765302,-0.093289,-0.635796 AnkleRight:0.074922,0.760236,0.073665,0.641094 ElbowLeft:-0.015512,0.837869,-0.243562,-0.488276 ElbowRight:-0.599642,0.742866,0.261364,-0.142370 FootLeft:0.000000,0.000000,0.000000,0.000000 FootRight:0.000000,0.000000,0.000000,0.000000 HandLeft:0.030404,-0.559895,-0.134778,0.816963 HandRight:0.496964,-0.608379,-0.249365,0.566321 HandTipLeft:0.000000,0.000000,0.000000,0.000000 HandTipRight:0.000000,0.000000,0.000000,0.000000 Head:0.000000,0.000000,0.000000,0.000000 HipLeft:0.041538,-0.672044,0.729620,-0.119524 HipRight:-0.182876,0.675141,0.676753,-0.229668 KneeLeft:0.075624,-0.632999,0.026720,0.769986 KneeRight:-0.030227,0.773147,0.060972,0.630565 Neck:-0.152043,0.040265,0.982663,-0.098156 ShoulderLeft:0.092769,0.739684,-0.666412,-0.012530 ShoulderRight:-0.109680,0.796897,0.555353,-0.210973 SpineBase:-0.098875,0.030924,0.993247,-0.052230 SpineMid:-0.124885,0.032282,0.990313,-0.051401 SpineShoulder:-0.151612,0.039511,0.984835,-0.074511 ThumbLeft:0.000000,0.000000,0.000000,0.000000 ThumbRight:0.000000,0.000000,0.000000,0.000000 WristLeft:0.131662,-0.535212,-0.085555,0.829997 WristRight:0.480812,-0.619372,-0.257766,0.564583 END:
KINECT_DATA POSITION:47.979122,1.374377,-15.621567 HEAD_JOINT1:0.982830,0.177618,-0.000000,0.049977 LARM_JOINT2:0.834154,0.000000,-0.016998,-0.551270 LARM_JOINT3:0.948342,0.000000,-0.229357,-0.219185 LLEG_JOINT2:0.998096,-0.041600,0.000000,0.045545 LLEG_JOINT4:0.992920,0.118629,0.000000,-0.006117 RARM_JOINT2:0.842919,0.000000,0.535749,-0.049602 RARM_JOINT3:0.955499,0.000000,0.254033,0.149961 RLEG_JOINT2:0.995881,0.031300,0.000000,-0.085096 RLEG_JOINT4:0.994035,0.076574,0.000000,0.077660 WAIST:0.994443,-0.000000,0.102597,0.023610 WAIST_JOINT0:0.987406,-0.000000,0.146740,0.059130 WAIST_JOINT1:0.996301,0.083416,-0.000000,0.020665 END:
KINECT_DATA_Sensor  AnkleLeft:0.034697,0.747543,-0.090871,-0.657053 AnkleRight:0.076642,0.748000,0.073764,0.655119 ElbowLeft:-0.016101,0.841058,-0.250347,-0.479258 ElbowRight:-0.611971,0.727677,0.274416,-0.143779 FootLeft:0.000000,0.000000,0.000000,0.000000 FootRight:0.000000,0.000000,0.000000,0.000000 HandLeft:0.063318,-0.687384,-0.159546,0.705719 HandRight:0.525073,-0.581848,-0.228401,0.577567 HandTipLeft:0.000000,0.000000,0.000000,0.000000 HandTipRight:0.000000,0.000000,0.000000,0.000000 Head:0.000000,0.000000,0.000000,0.000000 HipLeft:0.035537,-0.671345,0.730427,-0.120455 HipRight:-0.182727,0.673984,0.676226,-0.234679 KneeLeft:0.077632,-0.630062,0.025830,0.772223 KneeRight:-0.029525,0.775712,0.061376,0.627402 Neck:-0.158224,0.040928,0.981447,-0.100255 ShoulderLeft:0.099622,0.736965,-0.668386,-0.014761 ShoulderRight:-0.111418,0.794959,0.555230,-0.217592 SpineBase:-0.102928,0.032075,0.992535,-0.057018 SpineMid:-0.130005,0.033621,0.989353,-0.056120 SpineShoulder:-0.157865,0.039823,0.983614,-0.077432 ThumbLeft:0.000000,0.000000,0.000000,0.000000 ThumbRight:0.000000,0.000000,0.000000,0.000000 WristLeft:0.143931,-0.664435,-0.063914,0.730565 WristRight:0.487235,-0.606563,-0.247330,0.577505 END:
KINECT_DATA POSITION:47.942875,1.202859,-15.916896 HEAD_JOINT1:0.983688,0.172137,-0.000000,0.052225 LARM_JOINT2:0.835911,0.000000,-0.020086,-0.548498 LARM_JOINT3:0.949009,0.000000,-0.226340,-0.219437 LLEG_JOINT2:0.998103,-0.043359,0.000000,0.043699 LLEG_JOINT4:0.992729,0.120228,0.000000,-0.005874 RARM_JOINT2:0.847339,0.000000,0.528413,-0.052872 RARM_JOINT3:0.940697,0.000000,0.303526,0.151531 RLEG_JOINT2:0.995709,0.030624,0.000000,-0.087320 RLEG_JOINT4:0.994245,0.075024,0.000000,0.076481 WAIST:0.994391,-0.000000,0.102691,0.025324 WAIST_JOINT0:0.984824,-0.000000,0.159416,0.068612 WAIST_JOINT1:0.996071,0.086773,-0.000000,0.017673 END:
KINECT_DATA_Sensor  AnkleLeft:0.035896,0.758461,-0.090204,-0.644447 AnkleRight:0.075712,0.765339,0.070949,0.635208 ElbowLeft:-0.016253,0.840944,-0.252182,-0.478491 ElbowRight:-0.625114,0.735104,0.244248,-0.095902 FootLeft:0.000000,0.000000,0.000000,0.000000 FootRight:0.000000,0.000000,0.000000,0.000000 HandLeft:0.030531,-0.600715,-0.143549,0.785877 HandRight:0.494889,-0.604328,-0.195255,0.593083 HandTipLeft:0.000000,0.000000,0.000000,0.000000 HandTipRight:0.000000,0.000000,0.000000,0.000000 Head:0.000000,0.000000,0.000000,0.000000 HipLeft:0.032890,-0.669577,0.731668,-0.123478 HipRight:-0.180461,0.673979,0.675744,-0.237815 KneeLeft:0.079040,-0.630028,0.024506,0.772151 KneeRight:-0.030484,0.775723,0.061043,0.627374 Neck:-0.172656,0.041752,0.978726,-0.102671 ShoulderLeft:0.104807,0.738224,-0.666089,-0.019148 ShoulderRight:-0.124676,0.804184,0.532030,-0.233856 SpineBase:-0.103191,0.032521,0.992237,-0.061314 SpineMid:-0.137207,0.034608,0.988108,-0.060161 SpineShoulder:-0.172514,0.039279,0.980967,-0.080000 ThumbLeft:0.000000,0.000000,0.000000,0.000000 ThumbRight:0.000000,0.000000,0.000000,0.000000 WristLeft:0.135996,-0.573258,-0.082877,0.803748 WristRight:0.517952,-0.591985,-0.202619,0.583288 END:
