EastLYD/RoboCupatHomeSim/InteractiveCleanUp/JapanOpen2016/Motion_Data/File6.dat
KINECT_DATA POSITION:19.554169,-1.494144,-9.141970 HEAD_JOINT1:0.979408,0.167065,-0.000000,0.113357 LARM_JOINT2:0.843119,0.000000,-0.023002,-0.537235 LARM_JOINT3:0.972562,0.000000,-0.152741,-0.175479 LLEG_JOINT2:0.997353,0.021480,0.000000,0.069461 LLEG_JOINT4:0.994186,0.095580,0.000000,-0.049584 RARM_JOINT2:0.793335,0.000000,-0.033833,0.607844 RARM_JOINT3:0.979662,0.000000,0.164896,0.114332 RLEG_JOINT2:0.998271,0.006703,0.000000,-0.058392 RLEG_JOINT4:0.995948,0.077986,0.000000,0.044783 WAIST:0.999697,0.000000,-0.023964,-0.005631 WAIST_JOINT0:0.999141,0.000000,-0.041419,0.001416 WAIST_JOINT1:0.996215,0.085473,0.000000,-0.015829 END:
KINECT_DATA_Sensor  AnkleLeft:0.071839,0.725230,-0.092891,-0.678419 AnkleRight:0.048869,0.693053,0.071361,0.715679 ElbowLeft:-0.019621,0.921238,-0.203364,-0.331027 ElbowRight:0.024876,0.842096,0.186340,0.505502 FootLeft:0.000000,0.000000,0.000000,0.000000 FootRight:0.000000,0.000000,0.000000,0.000000 HandLeft:-0.070941,0.853177,0.021373,0.516333 HandRight:0.012604,-0.692623,-0.044542,0.719813 HandTipLeft:0.000000,0.000000,0.000000,0.000000 HandTipRight:0.000000,0.000000,0.000000,0.000000 Head:0.000000,0.000000,0.000000,0.000000 HipLeft:0.128892,-0.676221,0.699237,-0.192821 HipRight:-0.093605,0.672889,0.712443,-0.175738 KneeLeft:-0.031459,0.722603,-0.059515,-0.687977 KneeRight:-0.039317,0.689813,0.050938,0.721122 Neck:0.041128,-0.022003,0.993702,-0.101890 ShoulderLeft:-0.010934,0.785745,-0.607623,0.115237 ShoulderRight:0.043562,0.787443,0.612913,-0.048724 SpineBase:0.023451,-0.017546,0.997755,-0.060219 SpineMid:0.032037,-0.018063,0.997517,-0.060066 SpineShoulder:0.040952,-0.020433,0.995728,-0.080195 ThumbLeft:0.000000,0.000000,0.000000,0.000000 ThumbRight:0.000000,0.000000,0.000000,0.000000 WristLeft:-0.065059,0.857620,-0.066105,0.505850 WristRight:0.005698,-0.691556,-0.078219,0.718053 END:
KINECT_DATA POSITION:19.559967,-1.515627,-9.135127 HEAD_JOINT1:0.979329,0.167201,-0.000000,0.113834 LARM_JOINT2:0.842292,0.000000,-0.022642,-0.538546 LARM_JOINT3:0.972712,0.000000,-0.156262,-0.171501 LLEG_JOINT2:0.997383,0.021115,0.000000,0.069148 LLEG_JOINT4:0.994397,0.094099,0.000000,-0.048172 RARM_JOINT2:0.792627,0.000000,-0.031878,0.608873 RARM_JOINT3:0.980120,0.000000,0.164031,0.111617 RLEG_JOINT2:0.998391,0.005761,0.000000,-0.056403 RLEG_JOINT4:0.995774,0.082045,0.000000,0.041270 WAIST:0.999686,0.000000,-0.024457,-0.005513 WAIST_JOINT0:0.999049,0.000000,-0.043587,0.001040 WAIST_JOINT1:0.996267,0.084834,0.000000,-0.015996 END:
KINECT_DATA_Sensor  AnkleLeft:0.069999,0.728513,-0.092202,-0.675180 AnkleRight:0.050171,0.691743,0.074533,0.716533 ElbowLeft:-0.020257,0.920093,-0.201749,-0.335135 ElbowRight:0.023445,0.841807,0.184324,0.506790 FootLeft:0.000000,0.000000,0.000000,0.000000 FootRight:0.000000,0.000000,0.000000,0.000000 HandLeft:-0.074260,0.793244,0.000640,0.604359 HandRight:0.006667,-0.673313,-0.047739,0.737785 HandTipLeft:0.000000,0.000000,0.000000,0.000000 HandTipRight:0.000000,0.000000,0.000000,0.000000 Head:0.000000,0.000000,0.000000,0.000000 HipLeft:0.129515,-0.676137,0.699207,-0.192808 HipRight:-0.093546,0.673063,0.712389,-0.175319 KneeLeft:-0.031602,0.722915,-0.059100,-0.687679 KneeRight:-0.038527,0.689544,0.048780,0.721572 Neck:0.043305,-0.022120,0.993689,-0.101086 ShoulderLeft:-0.011413,0.785862,-0.607409,0.115523 ShoulderRight:0.045827,0.787143,0.613368,-0.045655 SpineBase:0.023920,-0.017710,0.997764,-0.059839 SpineMid:0.033348,-0.018274,0.997494,-0.059669 SpineShoulder:0.043126,-0.020604,0.995682,-0.079578 ThumbLeft:0.000000,0.000000,0.000000,0.000000 ThumbRight:0.000000,0.000000,0.000000,0.000000 WristLeft:-0.060299,0.798308,-0.073158,0.594740 WristRight:0.004678,-0.672146,-0.079221,0.736154 END:
KINECT_DATA POSITION:19.568687,-1.529849,-9.167803 HEAD_JOINT1:0.979935,0.163127,-0.000000,0.114525 LARM_JOINT2:0.842347,0.000000,-0.023199,-0.538435 LARM_JOINT3:0.973247,0.000000,-0.156227,-0.168476 LLEG_JOINT2:0.997392,0.020868,0.000000,0.069089 LLEG_JOINT4:0.994206,0.095521,0.000000,-0.049289 RARM_JOINT2:0.792470,0.000000,-0.032011,0.609070 RARM_JOINT3:0.979058,0.000000,0.168635,0.114048 RLEG_JOINT2:0.998292,0.006480,0.000000,-0.058067 RLEG_JOINT4:0.995734,0.080695,0.000000,0.044745 WAIST:0.999685,0.000000,-0.024541,-0.005324 WAIST_JOINT0:0.999038,0.000000,-0.043841,0.001096 WAIST_JOINT1:0.996301,0.084394,0.000000,-0.016167 END:
KINECT_DATA_Sensor  AnkleLeft:0.071540,0.728498,-0.092327,-0.675018 AnkleRight:0.051038,0.691357,0.072655,0.717037 ElbowLeft:-0.021644,0.919298,-0.201447,-0.337406 ElbowRight:0.022919,0.840749,0.183978,0.508692 FootLeft:0.000000,0.000000,0.000000,0.000000 FootRight:0.000000,0.000000,0.000000,0.000000 HandLeft:-0.063892,0.698551,-0.014609,0.712553 HandRight:0.009097,-0.401771,-0.059672,0.913749 HandTipLeft:0.000000,0.000000,0.000000,0.000000 HandTipRight:0.000000,0.000000,0.000000,0.000000 Head:0.000000,0.000000,0.000000,0.000000 HipLeft:0.129750,-0.676065,0.699289,-0.192603 HipRight:-0.093575,0.673231,0.712269,-0.175146 KneeLeft:-0.031871,0.722938,-0.059009,-0.687650 KneeRight:-0.039010,0.689457,0.050353,0.721521 Neck:0.043629,-0.022044,0.993722,-0.100637 ShoulderLeft:-0.012138,0.786051,-0.607135,0.115603 ShoulderRight:0.045483,0.787264,0.613268,-0.045260 SpineBase:0.023976,-0.017841,0.997776,-0.059589 SpineMid:0.033527,-0.018411,0.997500,-0.059415 SpineShoulder:0.043440,-0.020627,0.995703,-0.079141 ThumbLeft:0.000000,0.000000,0.000000,0.000000 ThumbRight:0.000000,0.000000,0.000000,0.000000 WristLeft:-0.051099,0.705579,-0.082564,0.701948 WristRight:-0.020608,-0.402125,-0.077709,0.912048 END:
KINECT_DATA POSITION:19.583548,-1.564641,-9.211278 HEAD_JOINT1:0.980720,0.158455,-0.000000,0.114368 LARM_JOINT2:0.842404,0.000000,-0.023641,-0.538328 LARM_JOINT3:0.972881,0.000000,-0.157242,-0.169640 LLEG_JOINT2:0.997412,0.021056,0.000000,0.068752 LLEG_JOINT4:0.994198,0.094631,0.000000,-0.051144 RARM_JOINT2:0.789327,0.000000,-0.023701,0.613515 RARM_JOINT3:0.965658,0.000000,0.217555,0.142037 RLEG_JOINT2:0.998147,0.005899,0.000000,-0.060568 RLEG_JOINT4:0.995631,0.079792,0.000000,0.048498 WAIST:0.999673,0.000000,-0.025088,-0.004911 WAIST_JOINT0:0.999061,0.000000,-0.043245,0.002838 WAIST_JOINT1:0.996413,0.082952,0.000000,-0.016719 END:
KINECT_DATA_Sensor  AnkleLeft:0.070730,0.717506,-0.091822,-0.686842 AnkleRight:0.053095,0.711015,0.068924,0.697773 ElbowLeft:-0.024001,0.918410,-0.200628,-0.340141 ElbowRight:0.017268,0.838500,0.175865,0.515453 FootLeft:0.000000,0.000000,0.000000,0.000000 FootRight:0.000000,0.000000,0.000000,0.000000 HandLeft:-0.071246,0.704380,-0.011198,0.706150 HandRight:0.121858,-0.441712,-0.113777,0.881530 HandTipLeft:0.000000,0.000000,0.000000,0.000000 HandTipRight:0.000000,0.000000,0.000000,0.000000 Head:0.000000,0.000000,0.000000,0.000000 HipLeft:0.130737,-0.675842,0.699406,-0.192295 HipRight:-0.093728,0.673645,0.712023,-0.174473 KneeLeft:-0.031824,0.723293,-0.059184,-0.687264 KneeRight:-0.040834,0.689005,0.051498,0.721770 Neck:0.042995,-0.021973,0.993909,-0.099063 ShoulderLeft:-0.013848,0.786664,-0.606434,0.114916 ShoulderRight:0.042890,0.789432,0.610663,-0.045269 SpineBase:0.024469,-0.018045,0.997808,-0.058778 SpineMid:0.033450,-0.018573,0.997547,-0.058614 SpineShoulder:0.042794,-0.020661,0.995836,-0.077799 ThumbLeft:0.000000,0.000000,0.000000,0.000000 ThumbRight:0.000000,0.000000,0.000000,0.000000 WristLeft:-0.053183,0.711855,-0.084588,0.695183 WristRight:0.024834,-0.450718,-0.109273,0.885605 END:
KINECT_DATA POSITION:19.740377,-1.709762,-9.282708 HEAD_JOINT1:0.983200,0.146091,-0.000000,0.109431 LARM_JOINT2:0.841245,0.000000,-0.024824,-0.540083 LARM_JOINT3:0.974233,0.000000,-0.149498,-0.168878 LLEG_JOINT2:0.997580,0.021575,0.000000,0.066089 LLEG_JOINT4:0.994247,0.094632,0.000000,-0.050183 RARM_JOINT2:0.779495,0.000000,0.079008,0.621406 RARM_JOINT3:0.954924,0.000000,0.269718,0.123989 RLEG_JOINT2:0.997724,-0.003343,-0.000000,-0.067345 RLEG_JOINT4:0.993836,0.096331,0.000000,0.054872 WAIST:0.999645,0.000000,-0.026394,-0.003576 WAIST_JOINT0:0.999422,0.000000,-0.033033,0.008012 WAIST_JOINT1:0.996740,0.078601,0.000000,-0.018207 END:
KINECT_DATA_Sensor  AnkleLeft:0.072359,0.726613,-0.091196,-0.677112 AnkleRight:0.059502,0.710161,0.072769,0.697736 ElbowLeft:-0.029040,0.917385,-0.196355,-0.344972 ElbowRight:-0.048302,0.847903,0.121456,0.513786 FootLeft:0.000000,0.000000,0.000000,0.000000 FootRight:0.000000,0.000000,0.000000,0.000000 HandLeft:-0.047936,0.786671,0.014008,0.615349 HandRight:0.171874,-0.303895,-0.234410,0.907281 HandTipLeft:0.000000,0.000000,0.000000,0.000000 HandTipRight:0.000000,0.000000,0.000000,0.000000 Head:0.000000,0.000000,0.000000,0.000000 HipLeft:0.133669,-0.675238,0.699811,-0.190920 HipRight:-0.094721,0.675047,0.711142,-0.172092 KneeLeft:-0.030559,0.724211,-0.058623,-0.686402 KneeRight:-0.051213,0.687682,0.049169,0.722533 Neck:0.032637,-0.020792,0.994767,-0.094558 ShoulderLeft:-0.011063,0.787960,-0.606613,0.104965 ShoulderRight:0.032167,0.794815,0.603857,-0.050899 SpineBase:0.025647,-0.018220,0.997945,-0.055818 SpineMid:0.028884,-0.018401,0.997857,-0.055759 SpineShoulder:0.032382,-0.019948,0.996541,-0.073893 ThumbLeft:0.000000,0.000000,0.000000,0.000000 ThumbRight:0.000000,0.000000,0.000000,0.000000 WristLeft:-0.069271,0.789230,-0.080721,0.604816 WristRight:0.083286,-0.325173,-0.206279,0.919116 END:
KINECT_DATA POSITION:20.008564,-1.781216,-9.181023 HEAD_JOINT1:0.984217,0.144918,-0.000000,0.101563 LARM_JOINT2:0.837845,0.000000,-0.018007,-0.545612 LARM_JOINT3:0.974978,0.000000,-0.149766,-0.164279 LLEG_JOINT2:0.997785,0.022837,0.000000,0.062483 LLEG_JOINT4:0.994892,0.088762,0.000000,-0.048080 RARM_JOINT2:0.784574,0.000000,0.190307,0.590107 RARM_JOINT3:0.957378,0.000000,0.274668,0.089358 RLEG_JOINT2:0.997699,-0.004799,-0.000000,-0.067631 RLEG_JOINT4:0.993344,0.101920,0.000000,0.053673 WAIST:0.999684,0.000000,-0.024913,-0.003451 WAIST_JOINT0:0.999840,0.000000,-0.013750,0.011456 WAIST_JOINT1:0.997260,0.072041,0.000000,-0.016801 END:
KINECT_DATA_Sensor  AnkleLeft:0.068778,0.714952,-0.088067,-0.690186 AnkleRight:0.061228,0.706921,0.076905,0.700428 ElbowLeft:-0.030593,0.910777,-0.191595,-0.364474 ElbowRight:-0.133394,0.868366,0.087409,0.469582 FootLeft:0.000000,0.000000,0.000000,0.000000 FootRight:0.000000,0.000000,0.000000,0.000000 HandLeft:-0.038248,0.818826,0.015710,0.572551 HandRight:-0.352624,0.933558,-0.060255,0.022258 HandTipLeft:0.000000,0.000000,0.000000,0.000000 HandTipRight:0.000000,0.000000,0.000000,0.000000 Head:0.000000,0.000000,0.000000,0.000000 HipLeft:0.135755,-0.675988,0.699613,-0.187490 HipRight:-0.099145,0.675707,0.710555,-0.169415 KneeLeft:-0.027058,0.723524,-0.057194,-0.687394 KneeRight:-0.052463,0.688476,0.048194,0.721752 Neck:0.013363,-0.017526,0.995897,-0.087772 ShoulderLeft:-0.008549,0.787748,-0.609297,0.090208 ShoulderRight:0.009683,0.797874,0.599088,-0.066307 SpineBase:0.024305,-0.016879,0.998267,-0.050876 SpineMid:0.018650,-0.016591,0.998388,-0.050971 SpineShoulder:0.013039,-0.017584,0.997460,-0.067777 ThumbLeft:0.000000,0.000000,0.000000,0.000000 ThumbRight:0.000000,0.000000,0.000000,0.000000 WristLeft:-0.078510,0.818278,-0.081355,0.563594 WristRight:-0.297045,0.953720,-0.035858,0.029938 END:
KINECT_DATA POSITION:20.184574,-1.785070,-9.059906 HEAD_JOINT1:0.985074,0.144806,-0.000000,0.093066 LARM_JOINT2:0.835050,0.000000,-0.018652,-0.549858 LARM_JOINT3:0.974007,0.000000,-0.153463,-0.166615 LLEG_JOINT2:0.997970,0.022738,0.000000,0.059491 LLEG_JOINT4:0.995008,0.089381,0.000000,-0.044376 RARM_JOINT2:0.782928,0.000000,0.291295,0.549700 RARM_JOINT3:0.962171,0.000000,0.269074,0.042729 RLEG_JOINT2:0.997667,-0.001660,-0.000000,-0.068249 RLEG_JOINT4:0.994086,0.097547,0.000000,0.047718 WAIST:0.999792,0.000000,-0.020195,-0.002781 WAIST_JOINT0:0.999885,-0.000000,0.000834,0.015141 WAIST_JOINT1:0.997433,0.069986,0.000000,-0.015135 END:
KINECT_DATA_Sensor  AnkleLeft:0.069856,0.721677,-0.088112,-0.683036 AnkleRight:0.056637,0.715788,0.080373,0.691361 ElbowLeft:-0.029901,0.910890,-0.188429,-0.365896 ElbowRight:-0.212077,0.843323,0.036875,0.492412 FootLeft:0.000000,0.000000,0.000000,0.000000 FootRight:0.000000,0.000000,0.000000,0.000000 HandLeft:-0.070402,0.708636,0.001714,0.702051 HandRight:-0.338309,0.939667,-0.049809,-0.009549 HandTipLeft:0.000000,0.000000,0.000000,0.000000 HandTipRight:0.000000,0.000000,0.000000,0.000000 Head:0.000000,0.000000,0.000000,0.000000 HipLeft:0.134600,-0.676606,0.700273,-0.183589 HipRight:-0.104701,0.676135,0.709270,-0.169752 KneeLeft:-0.025155,0.720434,-0.055663,-0.690828 KneeRight:-0.050376,0.691767,0.050094,0.718617 Neck:-0.001105,-0.014468,0.996217,-0.085680 ShoulderLeft:-0.008087,0.786971,-0.611302,0.083186 ShoulderRight:-0.008677,0.800191,0.594104,-0.081605 SpineBase:0.019688,-0.014680,0.998559,-0.047710 SpineMid:0.009167,-0.014177,0.998711,-0.047862 SpineShoulder:-0.001457,-0.015117,0.997720,-0.065765 ThumbLeft:0.000000,0.000000,0.000000,0.000000 ThumbRight:0.000000,0.000000,0.000000,0.000000 WristLeft:-0.063445,0.717143,-0.091683,0.687949 WristRight:-0.396154,0.917801,-0.026511,0.000471 END:
KINECT_DATA POSITION:20.230917,-1.793709,-8.888710 HEAD_JOINT1:0.987324,0.137546,-0.000000,0.079194 LARM_JOINT2:0.832065,0.000000,-0.023289,-0.554189 LARM_JOINT3:0.973932,0.000000,-0.152565,-0.167872 LLEG_JOINT2:0.998052,0.022940,0.000000,0.058013 LLEG_JOINT4:0.994704,0.094608,0.000000,-0.040171 RARM_JOINT2:0.779176,0.000000,0.374959,0.502285 RARM_JOINT3:0.968590,0.000000,0.248482,0.009546 RLEG_JOINT2:0.997645,0.002368,0.000000,-0.068553 RLEG_JOINT4:0.994399,0.093893,0.000000,0.048526 WAIST:0.999893,0.000000,-0.014378,-0.002863 WAIST_JOINT0:0.999837,-0.000000,0.008621,0.015868 WAIST_JOINT1:0.997428,0.070994,0.000000,-0.009879 END:
KINECT_DATA_Sensor  AnkleLeft:0.073341,0.724460,-0.092627,-0.679117 AnkleRight:0.056738,0.720009,0.080631,0.686926 ElbowLeft:-0.029477,0.912326,-0.187532,-0.362801 ElbowRight:-0.272152,0.842337,-0.002686,0.465182 FootLeft:0.000000,0.000000,0.000000,0.000000 FootRight:0.000000,0.000000,0.000000,0.000000 HandLeft:-0.074266,0.824963,0.013821,0.560115 HandRight:-0.400179,0.915292,-0.034071,-0.030585 HandTipLeft:0.000000,0.000000,0.000000,0.000000 HandTipRight:0.000000,0.000000,0.000000,0.000000 Head:0.000000,0.000000,0.000000,0.000000 HipLeft:0.131420,-0.677501,0.700875,-0.180263 HipRight:-0.109410,0.675693,0.708581,-0.171411 KneeLeft:-0.023553,0.716560,-0.054879,-0.694964 KneeRight:-0.048037,0.695846,0.052888,0.714628 Neck:-0.009257,-0.008437,0.996122,-0.087081 ShoulderLeft:-0.003947,0.784993,-0.614462,0.078782 ShoulderRight:-0.015449,0.799766,0.593311,-0.090096 SpineBase:0.014018,-0.012460,0.998746,-0.046412 SpineMid:0.002173,-0.011909,0.998842,-0.046556 SpineShoulder:-0.009665,-0.010490,0.997695,-0.066337 ThumbLeft:0.000000,0.000000,0.000000,0.000000 ThumbRight:0.000000,0.000000,0.000000,0.000000 WristLeft:-0.078430,0.829059,-0.077257,0.548217 WristRight:-0.439337,0.897668,-0.023863,-0.024615 END:
KINECT_DATA POSITION:20.244303,-1.826990,-8.671701 HEAD_JOINT1:0.986577,0.143223,-0.000000,0.078438 LARM_JOINT2:0.830822,0.000000,-0.022409,-0.556086 LARM_JOINT3:0.974011,0.000000,-0.152547,-0.167429 LLEG_JOINT2:0.998108,0.024293,0.000000,0.056479 LLEG_JOINT4:0.994974,0.092773,0.000000,-0.037679 RARM_JOINT2:0.783976,0.000000,0.419885,0.457250 RARM_JOINT3:0.973036,0.000000,0.229446,0.023573 RLEG_JOINT2:0.997611,0.007417,0.000000,-0.068682 RLEG_JOINT4:0.994813,0.088745,0.000000,0.049707 WAIST:0.999954,0.000000,-0.009063,-0.003092 WAIST_JOINT0:0.999569,-0.000000,0.024229,0.016572 WAIST_JOINT1:0.997590,0.068793,0.000000,-0.009085 END:
KINECT_DATA_Sensor  AnkleLeft:0.071929,0.713285,-0.093272,-0.690906 AnkleRight:0.057300,0.728292,0.079890,0.678177 ElbowLeft:-0.028680,0.911247,-0.185729,-0.366484 ElbowRight:-0.320176,0.871630,0.011699,0.370959 FootLeft:0.000000,0.000000,0.000000,0.000000 FootRight:0.000000,0.000000,0.000000,0.000000 HandLeft:-0.079940,0.832075,0.012452,0.548730 HandRight:-0.434146,0.891144,0.021241,-0.130109 HandTipLeft:0.000000,0.000000,0.000000,0.000000 HandTipRight:0.000000,0.000000,0.000000,0.000000 Head:0.000000,0.000000,0.000000,0.000000 HipLeft:0.129864,-0.678827,0.701138,-0.175312 HipRight:-0.114355,0.675369,0.707999,-0.171864 KneeLeft:-0.021037,0.713029,-0.054745,-0.698677 KneeRight:-0.044945,0.699665,0.056435,0.710819 Neck:-0.024078,-0.008118,0.996160,-0.083782 ShoulderLeft:-0.007909,0.785666,-0.614063,0.074795 ShoulderRight:-0.038817,0.798377,0.590921,-0.109086 SpineBase:0.008787,-0.011937,0.998953,-0.043283 SpineMid:-0.007749,-0.011219,0.998962,-0.043474 SpineShoulder:-0.024421,-0.009575,0.997571,-0.064529 ThumbLeft:0.000000,0.000000,0.000000,0.000000 ThumbRight:0.000000,0.000000,0.000000,0.000000 WristLeft:-0.079126,0.836519,-0.075992,0.536842 WristRight:-0.442622,0.886455,0.010237,-0.134825 END:
KINECT_DATA POSITION:20.221720,-1.816165,-8.516682 HEAD_JOINT1:0.986374,0.146035,-0.000000,0.075767 LARM_JOINT2:0.830905,0.000000,-0.023813,-0.555904 LARM_JOINT3:0.973888,0.000000,-0.158157,-0.162875 LLEG_JOINT2:0.998136,0.023132,0.000000,0.056476 LLEG_JOINT4:0.994838,0.094709,0.000000,-0.036424 RARM_JOINT2:0.783541,0.000000,0.488730,0.383676 RARM_JOINT3:0.979075,0.000000,0.199437,0.040462 RLEG_JOINT2:0.997696,0.010941,0.000000,-0.066951 RLEG_JOINT4:0.994886,0.088525,0.000000,0.048631 WAIST:0.999986,0.000000,-0.003708,-0.003882 WAIST_JOINT0:0.999157,-0.000000,0.037536,0.016603 WAIST_JOINT1:0.997685,0.067568,0.000000,-0.007761 END:
KINECT_DATA_Sensor  AnkleLeft:0.072433,0.707748,-0.093956,-0.696433 AnkleRight:0.059663,0.735073,0.082195,0.670337 ElbowLeft:-0.028854,0.911776,-0.185771,-0.365131 ElbowRight:-0.390017,0.887760,0.033496,0.242171 FootLeft:0.000000,0.000000,0.000000,0.000000 FootRight:0.000000,0.000000,0.000000,0.000000 HandLeft:-0.086517,0.631537,-0.045873,0.769137 HandRight:-0.466382,0.868084,0.036269,-0.166142 HandTipLeft:0.000000,0.000000,0.000000,0.000000 HandTipRight:0.000000,0.000000,0.000000,0.000000 Head:0.000000,0.000000,0.000000,0.000000 HipLeft:0.126874,-0.680247,0.701233,-0.171580 HipRight:-0.118125,0.674378,0.707888,-0.173653 KneeLeft:-0.020991,0.709328,-0.053485,-0.702533 KneeRight:-0.042067,0.703508,0.058014,0.707065 Neck:-0.036670,-0.007517,0.995837,-0.083116 ShoulderLeft:-0.009966,0.785887,-0.614237,0.070676 ShoulderRight:-0.057615,0.796073,0.589443,-0.124523 SpineBase:0.003538,-0.011540,0.999037,-0.042174 SpineMid:-0.016603,-0.010688,0.998906,-0.042398 SpineShoulder:-0.037030,-0.008952,0.997278,-0.063133 ThumbLeft:0.000000,0.000000,0.000000,0.000000 ThumbRight:0.000000,0.000000,0.000000,0.000000 WristLeft:-0.051847,0.633258,-0.096251,0.766180 WristRight:-0.456462,0.871995,0.018927,-0.175810 END:
KINECT_DATA POSITION:20.218380,-1.805985,-8.403420 HEAD_JOINT1:0.986528,0.146467,-0.000000,0.072866 LARM_JOINT2:0.830953,0.000000,-0.025493,-0.555758 LARM_JOINT3:0.974676,0.000000,-0.154797,-0.161385 LLEG_JOINT2:0.998137,0.022524,0.000000,0.056696 LLEG_JOINT4:0.995131,0.092183,0.000000,-0.034872 RARM_JOINT2:0.782876,0.000000,0.509207,0.357509 RARM_JOINT3:0.981840,0.000000,0.183842,0.046817 RLEG_JOINT2:0.997681,0.014308,0.000000,-0.066537 RLEG_JOINT4:0.995165,0.084252,0.000000,0.050472 WAIST:0.999990,0.000000,0.000647,-0.004388 WAIST_JOINT0:0.998850,-0.000000,0.044990,0.016588 WAIST_JOINT1:0.997733,0.066953,0.000000,-0.006774 END:
KINECT_DATA_Sensor  AnkleLeft:-0.066879,-0.683442,0.094470,0.720770 AnkleRight:0.059881,0.738926,0.080499,0.666275 ElbowLeft:-0.030122,0.910143,-0.185642,-0.369147 ElbowRight:-0.412043,0.890088,0.046624,0.189182 FootLeft:0.000000,0.000000,0.000000,0.000000 FootRight:0.000000,0.000000,0.000000,0.000000 HandLeft:-0.083214,0.824414,-0.019685,0.559491 HandRight:-0.485324,0.856484,0.037518,-0.171721 HandTipLeft:0.000000,0.000000,0.000000,0.000000 HandTipRight:0.000000,0.000000,0.000000,0.000000 Head:0.000000,0.000000,0.000000,0.000000 HipLeft:0.124398,-0.681159,0.701377,-0.169171 HipRight:-0.121104,0.673496,0.707687,-0.175829 KneeLeft:-0.020976,0.706292,-0.052956,-0.705626 KneeRight:-0.039983,0.706609,0.060290,0.703896 Neck:-0.043952,-0.007213,0.995565,-0.082860 ShoulderLeft:-0.010469,0.785742,-0.614720,0.067961 ShoulderRight:-0.067875,0.794704,0.588349,-0.132983 SpineBase:-0.000749,-0.011255,0.999059,-0.041879 SpineMid:-0.022352,-0.010347,0.998809,-0.042113 SpineShoulder:-0.044317,-0.008571,0.997031,-0.062384 ThumbLeft:0.000000,0.000000,0.000000,0.000000 ThumbRight:0.000000,0.000000,0.000000,0.000000 WristLeft:-0.077640,0.826736,-0.079547,0.551500 WristRight:-0.456560,0.870747,0.024794,-0.180935 END:
KINECT_DATA POSITION:20.234413,-1.783939,-8.241105 HEAD_JOINT1:0.986774,0.146336,-0.000000,0.069740 LARM_JOINT2:0.830454,0.000000,-0.025964,-0.556482 LARM_JOINT3:0.974912,0.000000,-0.154164,-0.160561 LLEG_JOINT2:0.998087,0.022930,0.000000,0.057410 LLEG_JOINT4:0.995085,0.093499,0.000000,-0.032606 RARM_JOINT2:0.782495,0.000000,0.558035,0.276222 RARM_JOINT3:0.983998,0.000000,0.147284,0.100280 RLEG_JOINT2:0.997715,0.016205,0.000000,-0.065587 RLEG_JOINT4:0.995102,0.085060,0.000000,0.050360 WAIST:0.999981,0.000000,0.002994,-0.005481 WAIST_JOINT0:0.998677,-0.000000,0.049030,0.015490 WAIST_JOINT1:0.997802,0.066053,0.000000,-0.005308 END:
KINECT_DATA_Sensor  AnkleLeft:0.072208,0.720564,-0.093012,-0.683317 AnkleRight:0.061623,0.740837,0.082564,0.663737 ElbowLeft:-0.032077,0.906456,-0.184527,-0.378495 ElbowRight:-0.456833,0.876556,0.148162,-0.031629 FootLeft:0.000000,0.000000,0.000000,0.000000 FootRight:0.000000,0.000000,0.000000,0.000000 HandLeft:-0.082530,0.803258,-0.015659,0.589679 HandRight:-0.459845,0.866435,0.097791,-0.168135 HandTipLeft:0.000000,0.000000,0.000000,0.000000 HandTipRight:0.000000,0.000000,0.000000,0.000000 Head:0.000000,0.000000,0.000000,0.000000 HipLeft:0.122952,-0.682359,0.700920,-0.167273 HipRight:-0.122906,0.672715,0.708059,-0.176068 KneeLeft:0.020283,-0.704739,0.053035,0.707191 KneeRight:-0.038876,0.708213,0.061649,0.702226 Neck:-0.048249,-0.006988,0.995418,-0.082261 ShoulderLeft:-0.009569,0.785301,-0.615610,0.065075 ShoulderRight:-0.072729,0.792987,0.589202,-0.136832 SpineBase:-0.002986,-0.010915,0.999093,-0.041057 SpineMid:-0.025596,-0.009983,0.998769,-0.041294 SpineShoulder:-0.048609,-0.008227,0.996896,-0.061381 ThumbLeft:0.000000,0.000000,0.000000,0.000000 ThumbRight:0.000000,0.000000,0.000000,0.000000 WristLeft:-0.074706,0.806870,-0.086417,0.579580 WristRight:-0.441520,0.870795,-0.000212,-0.216280 END:
KINECT_DATA POSITION:20.210415,-1.802853,-8.145356 HEAD_JOINT1:0.986957,0.146147,-0.000000,0.067504 LARM_JOINT2:0.830241,0.000000,-0.025681,-0.556813 LARM_JOINT3:0.974464,0.000000,-0.151614,-0.165630 LLEG_JOINT2:0.998110,0.022811,0.000000,0.057055 LLEG_JOINT4:0.995172,0.093362,0.000000,-0.030279 RARM_JOINT2:0.797648,0.000000,0.533844,0.280658 RARM_JOINT3:0.973848,0.000000,0.214252,0.075607 RLEG_JOINT2:0.997683,0.017213,0.000000,-0.065816 RLEG_JOINT4:0.995200,0.083961,0.000000,0.050265 WAIST:0.999977,0.000000,0.003800,-0.005563 WAIST_JOINT0:0.998587,-0.000000,0.051052,0.014724 WAIST_JOINT1:0.997844,0.065444,0.000000,-0.005014 END:
KINECT_DATA_Sensor  AnkleLeft:0.070999,0.721394,-0.094040,-0.682427 AnkleRight:0.061292,0.741979,0.082804,0.662461 ElbowLeft:-0.032323,0.905847,-0.184245,-0.380067 ElbowRight:-0.467371,0.868535,0.083190,0.142445 FootLeft:0.000000,0.000000,0.000000,0.000000 FootRight:0.000000,0.000000,0.000000,0.000000 HandLeft:-0.083687,0.829470,0.008243,0.552185 HandRight:-0.456689,0.870088,0.051951,-0.177996 HandTipLeft:0.000000,0.000000,0.000000,0.000000 HandTipRight:0.000000,0.000000,0.000000,0.000000 Head:0.000000,0.000000,0.000000,0.000000 HipLeft:0.122623,-0.682651,0.700931,-0.166273 HipRight:-0.123676,0.672698,0.707976,-0.175930 KneeLeft:0.020013,-0.704187,0.052661,0.707776 KneeRight:-0.038428,0.708776,0.062556,0.701603 Neck:-0.050612,-0.006734,0.995349,-0.081695 ShoulderLeft:-0.009327,0.785522,-0.615506,0.063400 ShoulderRight:-0.075635,0.792625,0.588845,-0.138877 SpineBase:-0.003778,-0.010795,0.999117,-0.040421 SpineMid:-0.027161,-0.009846,0.998755,-0.040663 SpineShoulder:-0.050974,-0.007997,0.996818,-0.060760 ThumbLeft:0.000000,0.000000,0.000000,0.000000 ThumbRight:0.000000,0.000000,0.000000,0.000000 WristLeft:-0.079339,0.834400,-0.083108,0.539050 WristRight:-0.508288,0.837151,-0.012915,-0.201629 END:
KINECT_DATA POSITION:20.173052,-1.818792,-8.081412 HEAD_JOINT1:0.987075,0.146347,-0.000000,0.065311 LARM_JOINT2:0.829580,0.000000,-0.024659,-0.557843 LARM_JOINT3:0.975110,0.000000,-0.147500,-0.165544 LLEG_JOINT2:0.998105,0.023141,0.000000,0.057025 LLEG_JOINT4:0.994906,0.095671,0.000000,-0.031765 RARM_JOINT2:0.798834,0.000000,0.540158,0.264751 RARM_JOINT3:0.972447,0.000000,0.215425,0.089101 RLEG_JOINT2:0.997666,0.017861,0.000000,-0.065902 RLEG_JOINT4:0.995066,0.082843,0.000000,0.054599 WAIST:0.999968,0.000000,0.005626,-0.005628 WAIST_JOINT0:0.998445,-0.000000,0.053921,0.014128 WAIST_JOINT1:0.997888,0.064801,0.000000,-0.004532 END:
KINECT_DATA_Sensor  AnkleLeft:0.073699,0.716278,-0.094906,-0.687391 AnkleRight:0.063557,0.743008,0.079517,0.661496 ElbowLeft:-0.031548,0.904968,-0.183706,-0.382479 ElbowRight:-0.478603,0.864197,0.090814,0.125917 FootLeft:0.000000,0.000000,0.000000,0.000000 FootRight:0.000000,0.000000,0.000000,0.000000 HandLeft:-0.066913,0.870496,0.019378,0.487221 HandRight:-0.442949,0.878455,0.032189,-0.176286 HandTipLeft:0.000000,0.000000,0.000000,0.000000 HandTipRight:0.000000,0.000000,0.000000,0.000000 Head:0.000000,0.000000,0.000000,0.000000 HipLeft:0.121775,-0.682991,0.701045,-0.165016 HipRight:-0.125145,0.672482,0.707746,-0.176641 KneeLeft:0.019606,-0.702921,0.052870,0.709029 KneeRight:-0.038185,0.710050,0.063061,0.700282 Neck:-0.053802,-0.006372,0.995240,-0.081005 ShoulderLeft:-0.007600,0.785617,-0.615703,0.060484 ShoulderRight:-0.078100,0.792186,0.588612,-0.140986 SpineBase:-0.005587,-0.010618,0.999129,-0.039961 SpineMid:-0.029650,-0.009652,0.998705,-0.040205 SpineShoulder:-0.054161,-0.007638,0.996691,-0.060120 ThumbLeft:0.000000,0.000000,0.000000,0.000000 ThumbRight:0.000000,0.000000,0.000000,0.000000 WristLeft:-0.085952,0.871723,-0.076617,0.476279 WristRight:-0.512578,0.836698,-0.022756,-0.191527 END:
KINECT_DATA POSITION:20.151361,-1.822537,-8.073592 HEAD_JOINT1:0.987324,0.145934,-0.000000,0.062414 LARM_JOINT2:0.828479,0.000000,-0.022774,-0.559557 LARM_JOINT3:0.974488,0.000000,-0.152009,-0.165123 LLEG_JOINT2:0.998105,0.022784,0.000000,0.057155 LLEG_JOINT4:0.995065,0.094551,0.000000,-0.030096 RARM_JOINT2:0.799924,0.000000,0.544960,0.251277 RARM_JOINT3:0.973226,0.000000,0.208402,0.096948 RLEG_JOINT2:0.997688,0.018854,0.000000,-0.065301 RLEG_JOINT4:0.995310,0.082528,0.000000,0.050472 WAIST:0.999960,0.000000,0.006866,-0.005804 WAIST_JOINT0:0.998302,-0.000000,0.056496,0.014216 WAIST_JOINT1:0.997940,0.064052,0.000000,-0.003515 END:
KINECT_DATA_Sensor  AnkleLeft:0.072667,0.723059,-0.094232,-0.680459 AnkleRight:0.061614,0.744775,0.082717,0.659297 ElbowLeft:-0.031083,0.902352,-0.182913,-0.389021 ElbowRight:-0.486056,0.861980,0.106210,0.097258 FootLeft:0.000000,0.000000,0.000000,0.000000 FootRight:0.000000,0.000000,0.000000,0.000000 HandLeft:-0.076605,0.805478,0.006579,0.587616 HandRight:-0.443284,0.878823,0.041980,-0.171485 HandTipLeft:0.000000,0.000000,0.000000,0.000000 HandTipRight:0.000000,0.000000,0.000000,0.000000 Head:0.000000,0.000000,0.000000,0.000000 HipLeft:0.121147,-0.683295,0.701009,-0.164369 HipRight:-0.126280,0.672307,0.707613,-0.177030 KneeLeft:0.019757,-0.702055,0.052617,0.709901 KneeRight:-0.037255,0.710928,0.063425,0.699407 Neck:-0.056837,-0.005532,0.995149,-0.080107 ShoulderLeft:-0.005386,0.785122,-0.616657,0.057341 ShoulderRight:-0.079902,0.792168,0.588036,-0.142477 SpineBase:-0.006790,-0.010104,0.999139,-0.039657 SpineMid:-0.031751,-0.009110,0.998658,-0.039897 SpineShoulder:-0.057180,-0.006793,0.996573,-0.059389 ThumbLeft:0.000000,0.000000,0.000000,0.000000 ThumbRight:0.000000,0.000000,0.000000,0.000000 WristLeft:-0.078454,0.810185,-0.086972,0.574353 WristRight:-0.508313,0.839072,-0.024120,-0.192340 END:
KINECT_DATA POSITION:20.145241,-1.826631,-8.073258 HEAD_JOINT1:0.987335,0.146175,-0.000000,0.061657 LARM_JOINT2:0.827998,0.000000,-0.022441,-0.560281 LARM_JOINT3:0.974124,0.000000,-0.156350,-0.163211 LLEG_JOINT2:0.998112,0.022530,0.000000,0.057140 LLEG_JOINT4:0.995119,0.093306,0.000000,-0.032116 RARM_JOINT2:0.800256,0.000000,0.544799,0.250569 RARM_JOINT3:0.973741,0.000000,0.207132,0.094475 RLEG_JOINT2:0.997688,0.018081,0.000000,-0.065509 RLEG_JOINT4:0.995380,0.081495,0.000000,0.050764 WAIST:0.999958,0.000000,0.007113,-0.005835 WAIST_JOINT0:0.998276,-0.000000,0.056821,0.014734 WAIST_JOINT1:0.997981,0.063432,0.000000,-0.003177 END:
KINECT_DATA_Sensor  AnkleLeft:0.071081,0.709031,-0.093155,-0.695373 AnkleRight:0.060287,0.745111,0.081500,0.659191 ElbowLeft:-0.031256,0.901969,-0.182286,-0.390187 ElbowRight:-0.486646,0.861726,0.107724,0.094863 FootLeft:0.000000,0.000000,0.000000,0.000000 FootRight:0.000000,0.000000,0.000000,0.000000 HandLeft:-0.086873,0.809291,-0.005480,0.580923 HandRight:-0.032643,0.188091,-0.453040,0.870811 HandTipLeft:0.000000,0.000000,0.000000,0.000000 HandTipRight:0.000000,0.000000,0.000000,0.000000 Head:0.000000,0.000000,0.000000,0.000000 HipLeft:0.121079,-0.683406,0.700991,-0.164037 HipRight:-0.126605,0.672348,0.707562,-0.176848 KneeLeft:0.019892,-0.701880,0.052412,0.710085 KneeRight:-0.037987,0.711064,0.063034,0.699265 Neck:-0.057430,-0.005267,0.995173,-0.079400 ShoulderLeft:-0.004908,0.784659,-0.617348,0.056284 ShoulderRight:-0.080220,0.792661,0.587397,-0.142191 SpineBase:-0.007027,-0.009909,0.999152,-0.039346 SpineMid:-0.032158,-0.008916,0.998659,-0.039583 SpineShoulder:-0.057763,-0.006502,0.996577,-0.058783 ThumbLeft:0.000000,0.000000,0.000000,0.000000 ThumbRight:0.000000,0.000000,0.000000,0.000000 WristLeft:-0.079807,0.813941,-0.086570,0.568890 WristRight:0.004778,0.199104,-0.506299,0.839045 END:
KINECT_DATA POSITION:20.128942,-1.826034,-8.117807 HEAD_JOINT1:0.987286,0.146494,-0.000000,0.061698 LARM_JOINT2:0.827726,0.000000,-0.021521,-0.560720 LARM_JOINT3:0.974918,0.000000,-0.150249,-0.164195 LLEG_JOINT2:0.998081,0.023211,0.000000,0.057413 LLEG_JOINT4:0.995281,0.092302,0.000000,-0.029932 RARM_JOINT2:0.804292,0.000000,0.544331,0.238365 RARM_JOINT3:0.970286,0.000000,0.215749,0.109528 RLEG_JOINT2:0.997719,0.019440,0.000000,-0.064650 RLEG_JOINT4:0.995472,0.080870,0.000000,0.049961 WAIST:0.999959,0.000000,0.006839,-0.006006 WAIST_JOINT0:0.998344,-0.000000,0.055761,0.014158 WAIST_JOINT1:0.998054,0.062278,0.000000,-0.002986 END:
KINECT_DATA_Sensor  AnkleLeft:0.070411,0.717789,-0.093759,-0.686317 AnkleRight:0.059862,0.737561,0.082729,0.667515 ElbowLeft:-0.031344,0.902294,-0.181748,-0.389681 ElbowRight:-0.489594,0.859323,0.135232,0.059779 FootLeft:0.000000,0.000000,0.000000,0.000000 FootRight:0.000000,0.000000,0.000000,0.000000 HandLeft:-0.070523,0.815462,0.008459,0.574436 HandRight:-0.016492,0.184406,-0.460221,0.868285 HandTipLeft:0.000000,0.000000,0.000000,0.000000 HandTipRight:0.000000,0.000000,0.000000,0.000000 Head:0.000000,0.000000,0.000000,0.000000 HipLeft:0.121617,-0.683630,0.700787,-0.163576 HipRight:-0.127033,0.672464,0.707603,-0.175934 KneeLeft:0.019489,-0.702116,0.052958,0.709824 KneeRight:-0.036522,0.710910,0.063528,0.699455 Neck:-0.056791,-0.005430,0.995299,-0.078270 ShoulderLeft:-0.006218,0.784212,-0.617908,0.056231 ShoulderRight:-0.080744,0.792409,0.587930,-0.141093 SpineBase:-0.006734,-0.009657,0.999192,-0.038421 SpineMid:-0.031679,-0.008695,0.998713,-0.038650 SpineShoulder:-0.057108,-0.006498,0.996683,-0.057622 ThumbLeft:0.000000,0.000000,0.000000,0.000000 ThumbRight:0.000000,0.000000,0.000000,0.000000 WristLeft:-0.080809,0.818723,-0.085552,0.562000 WristRight:0.012024,0.193598,-0.496166,0.846283 END:
KINECT_DATA POSITION:20.103901,-1.823614,-8.188259 HEAD_JOINT1:0.987406,0.145904,-0.000000,0.061176 LARM_JOINT2:0.827685,0.000000,-0.021473,-0.560782 LARM_JOINT3:0.974455,0.000000,-0.154158,-0.163318 LLEG_JOINT2:0.998051,0.022972,0.000000,0.058028 LLEG_JOINT4:0.995053,0.094166,0.000000,-0.031649 RARM_JOINT2:0.806208,0.000000,0.543705,0.233267 RARM_JOINT3:0.968904,0.000000,0.220392,0.112485 RLEG_JOINT2:0.997738,0.019105,0.000000,-0.064447 RLEG_JOINT4:0.995494,0.079502,0.000000,0.051683 WAIST:0.999951,0.000000,0.007792,-0.006098 WAIST_JOINT0:0.998313,-0.000000,0.056320,0.014117 WAIST_JOINT1:0.998043,0.062478,0.000000,-0.002770 END:
KINECT_DATA_Sensor  AnkleLeft:0.071419,0.708904,-0.094734,-0.695255 AnkleRight:0.060539,0.744738,0.079723,0.659806 ElbowLeft:-0.030844,0.902182,-0.181938,-0.389891 ElbowRight:-0.493304,0.856886,0.134334,0.065965 FootLeft:0.000000,0.000000,0.000000,0.000000 FootRight:0.000000,0.000000,0.000000,0.000000 HandLeft:-0.080446,0.810541,-0.002842,0.580123 HandRight:-0.026697,0.173857,-0.455504,0.872684 HandTipLeft:0.000000,0.000000,0.000000,0.000000 HandTipRight:0.000000,0.000000,0.000000,0.000000 Head:0.000000,0.000000,0.000000,0.000000 HipLeft:0.120797,-0.683841,0.700856,-0.163003 HipRight:-0.127501,0.672317,0.707556,-0.176345 KneeLeft:0.019971,-0.701430,0.053188,0.710471 KneeRight:-0.036737,0.711562,0.063180,0.698812 Neck:-0.057533,-0.005384,0.995237,-0.078516 ShoulderLeft:-0.005144,0.784098,-0.618129,0.055506 ShoulderRight:-0.080622,0.792435,0.587814,-0.141499 SpineBase:-0.007671,-0.009491,0.999185,-0.038481 SpineMid:-0.032518,-0.008531,0.998685,-0.038705 SpineShoulder:-0.057850,-0.006433,0.996630,-0.057798 ThumbLeft:0.000000,0.000000,0.000000,0.000000 ThumbRight:0.000000,0.000000,0.000000,0.000000 WristLeft:-0.080104,0.814326,-0.085870,0.568404 WristRight:0.028855,0.193130,-0.502317,0.842345 END:
KINECT_DATA POSITION:20.072206,-1.809502,-8.255493 HEAD_JOINT1:0.987355,0.146062,-0.000000,0.061604 LARM_JOINT2:0.828434,0.000000,-0.022525,-0.559634 LARM_JOINT3:0.974069,0.000000,-0.157107,-0.162807 LLEG_JOINT2:0.998060,0.021693,0.000000,0.058359 LLEG_JOINT4:0.995086,0.093846,0.000000,-0.031565 RARM_JOINT2:0.794888,0.000000,0.566863,0.216378 RARM_JOINT3:0.975332,0.000000,0.186371,0.118297 RLEG_JOINT2:0.997745,0.018362,0.000000,-0.064559 RLEG_JOINT4:0.995298,0.082377,0.000000,0.050947 WAIST:0.999952,0.000000,0.007869,-0.005857 WAIST_JOINT0:0.999120,-0.000000,0.039643,0.013732 WAIST_JOINT1:0.998038,0.062534,0.000000,-0.003050 END:
KINECT_DATA_Sensor  AnkleLeft:0.070784,0.716100,-0.093388,-0.688091 AnkleRight:0.060664,0.736015,0.082375,0.669191 ElbowLeft:-0.031314,0.903730,-0.182912,-0.385791 ElbowRight:-0.503980,0.851164,0.146456,0.008591 FootLeft:0.000000,0.000000,0.000000,0.000000 FootRight:0.000000,0.000000,0.000000,0.000000 HandLeft:-0.092608,0.858271,-0.008292,0.504704 HandRight:-0.003222,0.143510,-0.448012,0.882428 HandTipLeft:0.000000,0.000000,0.000000,0.000000 HandTipRight:0.000000,0.000000,0.000000,0.000000 Head:0.000000,0.000000,0.000000,0.000000 HipLeft:0.120664,-0.683742,0.701014,-0.162838 HipRight:-0.127477,0.672495,0.707388,-0.176359 KneeLeft:0.021285,-0.701306,0.052698,0.710591 KneeRight:-0.037175,0.711616,0.062556,0.698790 Neck:-0.040840,-0.006769,0.996054,-0.078501 ShoulderLeft:-0.003303,0.783905,-0.618035,0.059285 ShoulderRight:-0.056286,0.794777,0.592273,-0.119891 SpineBase:-0.007766,-0.009454,0.999185,-0.038470 SpineMid:-0.024341,-0.008814,0.998919,-0.038621 SpineShoulder:-0.041119,-0.007444,0.997458,-0.057725 ThumbLeft:0.000000,0.000000,0.000000,0.000000 ThumbRight:0.000000,0.000000,0.000000,0.000000 WristLeft:-0.086213,0.861138,-0.078368,0.494840 WristRight:0.027612,0.152486,-0.494542,0.855228 END:
KINECT_DATA POSITION:20.037888,-1.802474,-8.336151 HEAD_JOINT1:0.987032,0.146908,-0.000000,0.064700 LARM_JOINT2:0.829292,0.000000,-0.023245,-0.558331 LARM_JOINT3:0.973837,0.000000,-0.157099,-0.164201 LLEG_JOINT2:0.998051,0.022652,0.000000,0.058146 LLEG_JOINT4:0.995221,0.092688,0.000000,-0.030719 RARM_JOINT2:0.792390,0.000000,0.569715,0.218045 RARM_JOINT3:0.976573,0.000000,0.178311,0.120456 RLEG_JOINT2:0.997740,0.017763,0.000000,-0.064808 RLEG_JOINT4:0.995293,0.083211,0.000000,0.049674 WAIST:0.999967,0.000000,0.006117,-0.005397 WAIST_JOINT0:0.999196,-0.000000,0.037635,0.013833 WAIST_JOINT1:0.998037,0.062508,0.000000,-0.003929 END:
KINECT_DATA_Sensor  AnkleLeft:0.071257,0.728526,-0.093012,-0.674923 AnkleRight:0.060281,0.735040,0.083181,0.670196 ElbowLeft:-0.032103,0.905495,-0.183705,-0.381184 ElbowRight:-0.500502,0.851608,0.155357,-0.011259 FootLeft:0.000000,0.000000,0.000000,0.000000 FootRight:0.000000,0.000000,0.000000,0.000000 HandLeft:-0.091178,0.677009,-0.033639,0.729530 HandRight:-0.032672,0.160056,-0.453278,0.876272 HandTipLeft:0.000000,0.000000,0.000000,0.000000 HandTipRight:0.000000,0.000000,0.000000,0.000000 Head:0.000000,0.000000,0.000000,0.000000 HipLeft:0.121503,-0.683323,0.701119,-0.163519 HipRight:-0.126014,0.673104,0.707326,-0.175335 KneeLeft:0.020875,-0.702546,0.053501,0.709317 KneeRight:-0.037347,0.710417,0.062039,0.700045 Neck:-0.038542,-0.007157,0.996147,-0.078451 ShoulderLeft:-0.004728,0.784117,-0.617598,0.060916 ShoulderRight:-0.054693,0.794850,0.592706,-0.117991 SpineBase:-0.006061,-0.009690,0.999191,-0.038546 SpineMid:-0.022342,-0.009061,0.998960,-0.038699 SpineShoulder:-0.038819,-0.007778,0.997548,-0.057717 ThumbLeft:0.000000,0.000000,0.000000,0.000000 ThumbRight:0.000000,0.000000,0.000000,0.000000 WristLeft:-0.059098,0.678572,-0.099795,0.725319 WristRight:0.018176,0.180227,-0.486052,0.854951 END:
KINECT_DATA POSITION:20.003929,-1.802136,-8.355654 HEAD_JOINT1:0.986954,0.146098,-0.000000,0.067654 LARM_JOINT2:0.830095,0.000000,-0.023003,-0.557148 LARM_JOINT3:0.973437,0.000000,-0.156943,-0.166702 LLEG_JOINT2:0.998087,0.022422,0.000000,0.057622 LLEG_JOINT4:0.995153,0.093210,0.000000,-0.031342 RARM_JOINT2:0.791112,0.000000,0.570391,0.220901 RARM_JOINT3:0.977503,0.000000,0.176027,0.116197 RLEG_JOINT2:0.997725,0.017054,0.000000,-0.065227 RLEG_JOINT4:0.995465,0.080241,0.000000,0.051097 WAIST:0.999972,0.000000,0.005436,-0.005100 WAIST_JOINT0:0.999199,-0.000000,0.037263,0.014612 WAIST_JOINT1:0.998024,0.062685,0.000000,-0.004241 END:
KINECT_DATA_Sensor  AnkleLeft:0.070149,0.715605,-0.094009,-0.688586 AnkleRight:0.058756,0.737110,0.079526,0.668500 ElbowLeft:-0.032132,0.906223,-0.185154,-0.378743 ElbowRight:-0.499819,0.852902,0.150658,-0.006474 FootLeft:0.000000,0.000000,0.000000,0.000000 FootRight:0.000000,0.000000,0.000000,0.000000 HandLeft:-0.098669,0.848031,-0.003097,0.520671 HandRight:-0.046299,0.167616,-0.455058,0.873318 HandTipLeft:0.000000,0.000000,0.000000,0.000000 HandTipRight:0.000000,0.000000,0.000000,0.000000 Head:0.000000,0.000000,0.000000,0.000000 HipLeft:0.121769,-0.683065,0.701246,-0.163855 HipRight:-0.125439,0.673394,0.707226,-0.175035 KneeLeft:0.020921,-0.703007,0.053158,0.708884 KneeRight:-0.037896,0.709937,0.061642,0.700538 Neck:-0.037981,-0.007093,0.996152,-0.078660 ShoulderLeft:-0.006412,0.784366,-0.617124,0.062351 ShoulderRight:-0.055690,0.795582,0.591541,-0.118432 SpineBase:-0.005405,-0.009707,0.999190,-0.038670 SpineMid:-0.021731,-0.009074,0.998969,-0.038823 SpineShoulder:-0.038259,-0.007747,0.997560,-0.057885 ThumbLeft:0.000000,0.000000,0.000000,0.000000 ThumbRight:0.000000,0.000000,0.000000,0.000000 WristLeft:-0.083907,0.852910,-0.079504,0.509100 WristRight:0.013218,0.191985,-0.487175,0.851838 END:
KINECT_DATA POSITION:19.983648,-1.804375,-8.362782 HEAD_JOINT1:0.986950,0.146052,-0.000000,0.067809 LARM_JOINT2:0.830103,0.000000,-0.022815,-0.557143 LARM_JOINT3:0.973812,0.000000,-0.154948,-0.166380 LLEG_JOINT2:0.998106,0.021834,0.000000,0.057516 LLEG_JOINT4:0.995016,0.094286,0.000000,-0.032446 RARM_JOINT2:0.793249,0.000000,0.564032,0.229400 RARM_JOINT3:0.976706,0.000000,0.182134,0.113460 RLEG_JOINT2:0.997740,0.017229,0.000000,-0.064945 RLEG_JOINT4:0.995347,0.081414,0.000000,0.051541 WAIST:0.999973,0.000000,0.005277,-0.005088 WAIST_JOINT0:0.999023,-0.000000,0.041733,0.014548 WAIST_JOINT1:0.998017,0.062805,0.000000,-0.004115 END:
KINECT_DATA_Sensor  AnkleLeft:0.069677,0.703593,-0.094696,-0.700810 AnkleRight:0.060333,0.737463,0.079820,0.667935 ElbowLeft:-0.032024,0.906134,-0.185382,-0.378851 ElbowRight:-0.496144,0.856685,0.140024,0.018033 FootLeft:0.000000,0.000000,0.000000,0.000000 FootRight:0.000000,0.000000,0.000000,0.000000 HandLeft:-0.089977,0.786221,-0.010742,0.611266 HandRight:-0.044286,0.161146,-0.448555,0.877992 HandTipLeft:0.000000,0.000000,0.000000,0.000000 HandTipRight:0.000000,0.000000,0.000000,0.000000 Head:0.000000,0.000000,0.000000,0.000000 HipLeft:0.121817,-0.683024,0.701241,-0.164012 HipRight:-0.125368,0.673420,0.707228,-0.174978 KneeLeft:0.021284,-0.703103,0.052674,0.708816 KneeRight:-0.037554,0.709839,0.061565,0.700663 Neck:-0.042430,-0.006562,0.995962,-0.078846 ShoulderLeft:-0.007349,0.784250,-0.617312,0.061835 ShoulderRight:-0.062623,0.794665,0.590789,-0.124714 SpineBase:-0.005243,-0.009607,0.999190,-0.038719 SpineMid:-0.023844,-0.008884,0.998919,-0.038891 SpineShoulder:-0.042718,-0.007333,0.997374,-0.058024 ThumbLeft:0.000000,0.000000,0.000000,0.000000 ThumbRight:0.000000,0.000000,0.000000,0.000000 WristLeft:-0.074620,0.792168,-0.088235,0.599264 WristRight:0.020373,0.185785,-0.490491,0.851168 END:
KINECT_DATA POSITION:19.971180,-1.807270,-8.352053 HEAD_JOINT1:0.986752,0.147195,-0.000000,0.068220 LARM_JOINT2:0.829964,0.000000,-0.022319,-0.557370 LARM_JOINT3:0.973443,0.000000,-0.155301,-0.168197 LLEG_JOINT2:0.998080,0.022455,0.000000,0.057732 LLEG_JOINT4:0.994971,0.094526,0.000000,-0.033127 RARM_JOINT2:0.787302,0.000000,0.565970,0.244610 RARM_JOINT3:0.979444,0.000000,0.173474,0.102938 RLEG_JOINT2:0.997742,0.017036,0.000000,-0.064971 RLEG_JOINT4:0.995331,0.081128,0.000000,0.052284 WAIST:0.999977,0.000000,0.004573,-0.005090 WAIST_JOINT0:0.999309,-0.000000,0.034254,0.014433 WAIST_JOINT1:0.998002,0.063047,0.000000,-0.004132 END:
KINECT_DATA_Sensor  AnkleLeft:0.071096,0.708014,-0.094590,-0.696214 AnkleRight:0.059961,0.732346,0.079348,0.673630 ElbowLeft:-0.031793,0.905715,-0.185309,-0.379909 ElbowRight:-0.491501,0.862110,0.116312,0.040810 FootLeft:0.000000,0.000000,0.000000,0.000000 FootRight:0.000000,0.000000,0.000000,0.000000 HandLeft:-0.090419,0.654654,-0.021976,0.750180 HandRight:-0.034509,0.141832,-0.441270,0.885423 HandTipLeft:0.000000,0.000000,0.000000,0.000000 HandTipRight:0.000000,0.000000,0.000000,0.000000 Head:0.000000,0.000000,0.000000,0.000000 HipLeft:0.122304,-0.682871,0.701158,-0.164640 HipRight:-0.125048,0.673456,0.707297,-0.174791 KneeLeft:0.021031,-0.703619,0.053247,0.708268 KneeRight:-0.037670,0.709339,0.061471,0.701170 Neck:-0.035080,-0.007083,0.996224,-0.079102 ShoulderLeft:-0.006329,0.783926,-0.617550,0.063658 ShoulderRight:-0.051793,0.795533,0.592590,-0.115247 SpineBase:-0.004538,-0.009553,0.999189,-0.038842 SpineMid:-0.019859,-0.008956,0.999002,-0.038984 SpineShoulder:-0.035350,-0.007679,0.997649,-0.058200 ThumbLeft:0.000000,0.000000,0.000000,0.000000 ThumbRight:0.000000,0.000000,0.000000,0.000000 WristLeft:-0.055761,0.656181,-0.101472,0.745668 WristRight:0.028582,0.164232,-0.493952,0.853360 END:
KINECT_DATA POSITION:19.950926,-1.804846,-8.323598 HEAD_JOINT1:0.986455,0.149101,-0.000000,0.068379 LARM_JOINT2:0.829916,0.000000,-0.022214,-0.557445 LARM_JOINT3:0.973839,0.000000,-0.154168,-0.166945 LLEG_JOINT2:0.998098,0.021920,0.000000,0.057622 LLEG_JOINT4:0.994766,0.096393,0.000000,-0.033883 RARM_JOINT2:0.774312,0.000000,0.573571,0.267315 RARM_JOINT3:0.983326,0.000000,0.150440,0.102166 RLEG_JOINT2:0.997738,0.016622,0.000000,-0.065131 RLEG_JOINT4:0.995346,0.080641,0.000000,0.052754 WAIST:0.999976,0.000000,0.004808,-0.004920 WAIST_JOINT0:0.999359,-0.000000,0.032725,0.014508 WAIST_JOINT1:0.997964,0.063640,0.000000,-0.004106 END:
KINECT_DATA_Sensor  AnkleLeft:0.072718,0.708780,-0.094861,-0.695229 AnkleRight:0.059583,0.732397,0.078422,0.673717 ElbowLeft:-0.031402,0.905139,-0.185634,-0.381153 ElbowRight:-0.476488,0.871726,0.114245,0.000981 FootLeft:0.000000,0.000000,0.000000,0.000000 FootRight:0.000000,0.000000,0.000000,0.000000 HandLeft:-0.081557,0.649002,-0.020598,0.756122 HandRight:-0.061359,0.143869,-0.434806,0.886837 HandTipLeft:0.000000,0.000000,0.000000,0.000000 HandTipRight:0.000000,0.000000,0.000000,0.000000 Head:0.000000,0.000000,0.000000,0.000000 HipLeft:0.121927,-0.682724,0.701333,-0.164782 HipRight:-0.125024,0.673471,0.707189,-0.175184 KneeLeft:0.021442,-0.703424,0.052916,0.708474 KneeRight:-0.037971,0.709501,0.061162,0.701017 Neck:-0.033678,-0.007014,0.996220,-0.079764 ShoulderLeft:-0.004958,0.783537,-0.618036,0.063851 ShoulderRight:-0.048543,0.795633,0.593115,-0.113250 SpineBase:-0.004780,-0.009400,0.999175,-0.039211 SpineMid:-0.019291,-0.008830,0.999000,-0.039343 SpineShoulder:-0.033943,-0.007581,0.997667,-0.058746 ThumbLeft:0.000000,0.000000,0.000000,0.000000 ThumbRight:0.000000,0.000000,0.000000,0.000000 WristLeft:-0.055116,0.650258,-0.102055,0.750807 WristRight:0.032159,0.180531,-0.470556,0.863106 END:
KINECT_DATA POSITION:19.936525,-1.806328,-8.281803 HEAD_JOINT1:0.985678,0.153806,-0.000000,0.069159 LARM_JOINT2:0.829601,0.000000,-0.021937,-0.557926 LARM_JOINT3:0.974026,0.000000,-0.154215,-0.165802 LLEG_JOINT2:0.998101,0.022084,0.000000,0.057501 LLEG_JOINT4:0.994866,0.095761,0.000000,-0.032722 RARM_JOINT2:0.774224,0.000000,0.539869,0.330331 RARM_JOINT3:0.984420,0.000000,0.168756,0.049393 RLEG_JOINT2:0.997734,0.017619,0.000000,-0.064941 RLEG_JOINT4:0.995322,0.081817,0.000000,0.051388 WAIST:0.999974,0.000000,0.005574,-0.004644 WAIST_JOINT0:0.999375,-0.000000,0.031953,0.015114 WAIST_JOINT1:0.997933,0.064140,0.000000,-0.003870 END:
KINECT_DATA_Sensor  AnkleLeft:0.072425,0.714687,-0.094777,-0.689199 AnkleRight:0.060415,0.731944,0.080666,0.673871 ElbowLeft:-0.030783,0.904369,-0.185855,-0.382920 ElbowRight:-0.437736,0.889600,0.054280,0.118549 FootLeft:0.000000,0.000000,0.000000,0.000000 FootRight:0.000000,0.000000,0.000000,0.000000 HandLeft:-0.080601,0.818332,-0.001011,0.569065 HandRight:0.028657,0.139684,-0.559404,0.816538 HandTipLeft:0.000000,0.000000,0.000000,0.000000 HandTipRight:0.000000,0.000000,0.000000,0.000000 Head:0.000000,0.000000,0.000000,0.000000 HipLeft:0.121197,-0.682561,0.701629,-0.164738 HipRight:-0.125402,0.673493,0.706925,-0.175892 KneeLeft:0.021391,-0.702877,0.053160,0.708999 KneeRight:-0.036980,0.710083,0.061516,0.700450 Neck:-0.033038,-0.006639,0.996204,-0.080264 ShoulderLeft:-0.003643,0.783100,-0.618610,0.063745 ShoulderRight:-0.046370,0.796153,0.592820,-0.112051 SpineBase:-0.005549,-0.008997,0.999159,-0.039613 SpineMid:-0.019359,-0.008448,0.998987,-0.039733 SpineShoulder:-0.033294,-0.007197,0.997664,-0.059212 ThumbLeft:0.000000,0.000000,0.000000,0.000000 ThumbRight:0.000000,0.000000,0.000000,0.000000 WristLeft:-0.079249,0.822143,-0.084495,0.557369 WristRight:0.004965,0.133189,-0.461574,0.877032 END:
KINECT_DATA POSITION:19.921045,-1.805533,-8.197128 HEAD_JOINT1:0.985365,0.155690,-0.000000,0.069403 LARM_JOINT2:0.829796,0.000000,-0.018228,-0.557769 LARM_JOINT3:0.973168,0.000000,-0.158201,-0.167082 LLEG_JOINT2:0.998016,0.024744,0.000000,0.057892 LLEG_JOINT4:0.995176,0.092271,0.000000,-0.033328 RARM_JOINT2:0.812302,0.000000,0.489068,0.317770 RARM_JOINT3:0.956000,0.000000,0.282226,0.080074 RLEG_JOINT2:0.997767,0.016001,0.000000,-0.064844 RLEG_JOINT4:0.995124,0.084384,0.000000,0.051062 WAIST:0.999985,0.000000,0.002058,-0.005065 WAIST_JOINT0:0.999514,-0.000000,0.027497,0.014664 WAIST_JOINT1:0.997959,0.063734,0.000000,-0.003973 END:
KINECT_DATA_Sensor  AnkleLeft:0.071396,0.713642,-0.094378,-0.690442 AnkleRight:0.060964,0.729500,0.081543,0.676361 ElbowLeft:-0.029959,0.903405,-0.186481,-0.384950 ElbowRight:-0.435711,0.870451,0.080730,0.214368 FootLeft:0.000000,0.000000,0.000000,0.000000 FootRight:0.000000,0.000000,0.000000,0.000000 HandLeft:-0.090993,0.815199,-0.001561,0.571987 HandRight:0.061533,0.204876,-0.484997,0.847949 HandTipLeft:0.000000,0.000000,0.000000,0.000000 HandTipRight:0.000000,0.000000,0.000000,0.000000 Head:0.000000,0.000000,0.000000,0.000000 HipLeft:0.124150,-0.682441,0.700747,-0.166776 HipRight:-0.124157,0.673747,0.707364,-0.174027 KneeLeft:-0.019671,0.705474,-0.054932,-0.706330 KneeRight:-0.038153,0.707549,0.060715,0.703017 Neck:-0.028366,-0.007096,0.996369,-0.079958 ShoulderLeft:-0.003685,0.783130,-0.618472,0.064701 ShoulderRight:-0.040236,0.795960,0.594647,-0.105947 SpineBase:-0.002018,-0.009226,0.999194,-0.039026 SpineMid:-0.015266,-0.008708,0.999079,-0.039145 SpineShoulder:-0.028613,-0.007555,0.997832,-0.058791 ThumbLeft:0.000000,0.000000,0.000000,0.000000 ThumbRight:0.000000,0.000000,0.000000,0.000000 WristLeft:-0.079031,0.820799,-0.084797,0.559332 WristRight:0.017875,0.177976,-0.507120,0.843110 END:
KINECT_DATA POSITION:19.918432,-1.812693,-8.148087 HEAD_JOINT1:0.985009,0.156581,-0.000000,0.072387 LARM_JOINT2:0.830110,0.000000,-0.017874,-0.557313 LARM_JOINT3:0.972440,0.000000,-0.163828,-0.165894 LLEG_JOINT2:0.997960,0.026264,0.000000,0.058195 LLEG_JOINT4:0.995219,0.091845,0.000000,-0.033234 RARM_JOINT2:0.804434,0.000000,0.508366,0.307327 RARM_JOINT3:0.963572,0.000000,0.252722,0.087524 RLEG_JOINT2:0.997810,0.014462,0.000000,-0.064550 RLEG_JOINT4:0.994871,0.086923,0.000000,0.051728 WAIST:0.999982,0.000000,-0.001900,-0.005639 WAIST_JOINT0:0.999623,-0.000000,0.023780,0.013757 WAIST_JOINT1:0.998012,0.062821,0.000000,-0.005009 END:
KINECT_DATA_Sensor  AnkleLeft:0.071868,0.715996,-0.095305,-0.687824 AnkleRight:0.062493,0.728423,0.081498,0.677386 ElbowLeft:-0.032297,0.902103,-0.184927,-0.388548 ElbowRight:-0.445349,0.874712,0.091174,0.168018 FootLeft:0.000000,0.000000,0.000000,0.000000 FootRight:0.000000,0.000000,0.000000,0.000000 HandLeft:-0.091851,0.802294,-0.009755,0.589740 HandRight:0.047719,0.173843,-0.473829,0.861968 HandTipLeft:0.000000,0.000000,0.000000,0.000000 HandTipRight:0.000000,0.000000,0.000000,0.000000 Head:0.000000,0.000000,0.000000,0.000000 HipLeft:0.127536,-0.682353,0.699708,-0.168931 HipRight:-0.122696,0.673912,0.707973,-0.171935 KneeLeft:-0.018632,0.708340,-0.055725,-0.703421 KneeRight:-0.039221,0.704698,0.059959,0.705880 Neck:-0.024245,-0.008967,0.996563,-0.078702 ShoulderLeft:-0.006245,0.783861,-0.617303,0.066789 ShoulderRight:-0.037313,0.795353,0.596372,-0.101790 SpineBase:0.001952,-0.009780,0.999216,-0.038322 SpineMid:-0.011189,-0.009276,0.999155,-0.038448 SpineShoulder:-0.024454,-0.008793,0.997975,-0.058059 ThumbLeft:0.000000,0.000000,0.000000,0.000000 ThumbRight:0.000000,0.000000,0.000000,0.000000 WristLeft:-0.084826,0.806980,-0.087779,0.577825 WristRight:0.026792,0.160164,-0.493977,0.854176 END:
KINECT_DATA POSITION:19.925236,-1.809499,-8.200121 HEAD_JOINT1:0.985206,0.156534,-0.000000,0.069761 LARM_JOINT2:0.830166,0.000000,-0.011665,-0.557394 LARM_JOINT3:0.975156,0.000000,-0.150669,-0.162390 LLEG_JOINT2:0.998001,0.025117,0.000000,0.057986 LLEG_JOINT4:0.995089,0.093167,0.000000,-0.033425 RARM_JOINT2:0.797390,0.000000,0.513294,0.317329 RARM_JOINT3:0.971513,0.000000,0.225319,0.073442 RLEG_JOINT2:0.997846,0.016225,0.000000,-0.063568 RLEG_JOINT4:0.995112,0.085249,0.000000,0.049847 WAIST:0.999984,0.000000,0.001914,-0.005313 WAIST_JOINT0:0.999102,-0.000000,0.038896,0.016789 WAIST_JOINT1:0.998003,0.063045,0.000000,-0.003956 END:
KINECT_DATA_Sensor  AnkleLeft:0.071590,0.707190,-0.095741,-0.696844 AnkleRight:0.062386,0.735339,0.081855,0.669839 ElbowLeft:-0.026686,0.901149,-0.188666,-0.389390 ElbowRight:-0.442015,0.875879,0.068193,0.181130 FootLeft:0.000000,0.000000,0.000000,0.000000 FootRight:0.000000,0.000000,0.000000,0.000000 HandLeft:-0.056867,0.847647,0.000033,0.527504 HandRight:0.019242,0.173180,-0.452367,0.874644 HandTipLeft:0.000000,0.000000,0.000000,0.000000 HandTipRight:0.000000,0.000000,0.000000,0.000000 Head:0.000000,0.000000,0.000000,0.000000 HipLeft:0.123806,-0.682669,0.700713,-0.166239 HipRight:-0.123799,0.673684,0.707664,-0.173308 KneeLeft:-0.019305,0.705606,-0.055083,-0.706196 KneeRight:-0.037260,0.707476,0.060151,0.703186 Neck:-0.039269,-0.006475,0.996074,-0.079072 ShoulderLeft:-0.004950,0.783037,-0.618881,0.061757 ShoulderRight:-0.055985,0.795739,0.591080,-0.119538 SpineBase:-0.001855,-0.009208,0.999203,-0.038793 SpineMid:-0.020559,-0.008480,0.998993,-0.038959 SpineShoulder:-0.039540,-0.007140,0.997491,-0.058284 ThumbLeft:0.000000,0.000000,0.000000,0.000000 ThumbRight:0.000000,0.000000,0.000000,0.000000 WristLeft:-0.078287,0.847284,-0.081324,0.519006 WristRight:0.010820,0.164347,-0.493397,0.854068 END:
KINECT_DATA POSITION:19.913118,-1.794384,-8.266330 HEAD_JOINT1:0.985164,0.156764,-0.000000,0.069837 LARM_JOINT2:0.830814,0.000000,-0.012661,-0.556406 LARM_JOINT3:0.970886,0.000000,-0.170557,-0.168199 LLEG_JOINT2:0.997908,0.026483,0.000000,0.058973 LLEG_JOINT4:0.995436,0.089465,0.000000,-0.033201 RARM_JOINT2:0.800595,0.000000,0.511973,0.311337 RARM_JOINT3:0.969173,0.000000,0.231811,0.083472 RLEG_JOINT2:0.997892,0.014245,0.000000,-0.063321 RLEG_JOINT4:0.995012,0.086516,0.000000,0.049657 WAIST:0.999982,0.000000,0.000881,-0.005990 WAIST_JOINT0:0.999500,-0.000000,0.028125,0.014426 WAIST_JOINT1:0.998036,0.062523,0.000000,-0.003962 END:
KINECT_DATA_Sensor  AnkleLeft:0.070502,0.716106,-0.093790,-0.688059 AnkleRight:0.060943,0.729835,0.082205,0.675921 ElbowLeft:-0.028488,0.901240,-0.188489,-0.389136 ElbowRight:-0.443302,0.878670,0.088759,0.153444 FootLeft:0.000000,0.000000,0.000000,0.000000 FootRight:0.000000,0.000000,0.000000,0.000000 HandLeft:-0.118630,0.802606,-0.022790,0.584150 HandRight:0.023197,0.176668,-0.471726,0.863553 HandTipLeft:0.000000,0.000000,0.000000,0.000000 HandTipRight:0.000000,0.000000,0.000000,0.000000 Head:0.000000,0.000000,0.000000,0.000000 HipLeft:0.124499,-0.683034,0.700191,-0.166426 HipRight:-0.123167,0.673421,0.708265,-0.172324 KneeLeft:-0.018610,0.706404,-0.056247,-0.705325 KneeRight:-0.038912,0.706660,0.059085,0.704008 Neck:-0.028626,-0.007982,0.996472,-0.078494 ShoulderLeft:-0.005817,0.783382,-0.618117,0.064877 ShoulderRight:-0.042719,0.795242,0.595317,-0.106592 SpineBase:-0.000788,-0.009605,0.999214,-0.038458 SpineMid:-0.014759,-0.009066,0.999105,-0.038588 SpineShoulder:-0.028872,-0.008293,0.997881,-0.057715 ThumbLeft:0.000000,0.000000,0.000000,0.000000 ThumbRight:0.000000,0.000000,0.000000,0.000000 WristLeft:-0.079169,0.811163,-0.086531,0.572939 WristRight:0.013412,0.170009,-0.484673,0.857910 END:
KINECT_DATA POSITION:19.877468,-1.783753,-8.316624 HEAD_JOINT1:0.985560,0.154982,-0.000000,0.068198 LARM_JOINT2:0.830577,0.000000,-0.014775,-0.556708 LARM_JOINT3:0.973473,0.000000,-0.156200,-0.167186 LLEG_JOINT2:0.997863,0.026902,0.000000,0.059553 LLEG_JOINT4:0.995465,0.088518,0.000000,-0.034841 RARM_JOINT2:0.798987,0.000000,0.514822,0.310770 RARM_JOINT3:0.964134,0.000000,0.245844,0.100032 RLEG_JOINT2:0.997933,0.014014,0.000000,-0.062710 RLEG_JOINT4:0.994892,0.088277,0.000000,0.048969 WAIST:0.999980,0.000000,0.000003,-0.006385 WAIST_JOINT0:0.999546,-0.000000,0.026812,0.013773 WAIST_JOINT1:0.998098,0.061541,0.000000,-0.003579 END:
KINECT_DATA_Sensor  AnkleLeft:0.070009,0.709169,-0.093208,-0.695335 AnkleRight:0.061823,0.729033,0.083521,0.676545 ElbowLeft:-0.030796,0.902111,-0.186998,-0.387659 ElbowRight:-0.442851,0.881780,0.098700,0.128859 FootLeft:0.000000,0.000000,0.000000,0.000000 FootRight:0.000000,0.000000,0.000000,0.000000 HandLeft:-0.074442,0.749770,-0.006389,0.657467 HandRight:0.086928,0.204153,-0.484360,0.846262 HandTipLeft:0.000000,0.000000,0.000000,0.000000 HandTipRight:0.000000,0.000000,0.000000,0.000000 Head:0.000000,0.000000,0.000000,0.000000 HipLeft:0.125381,-0.683266,0.699784,-0.166523 HipRight:-0.123089,0.673390,0.708551,-0.171321 KneeLeft:-0.018494,0.707057,-0.056655,-0.704640 KneeRight:-0.038877,0.706020,0.058797,0.704675 Neck:-0.027346,-0.008006,0.996591,-0.077429 ShoulderLeft:-0.007148,0.783991,-0.617325,0.064934 ShoulderRight:-0.042378,0.795474,0.595352,-0.104792 SpineBase:0.000116,-0.009606,0.999240,-0.037788 SpineMid:-0.013665,-0.009084,0.999146,-0.037917 SpineShoulder:-0.027587,-0.008298,0.997972,-0.056759 ThumbLeft:0.000000,0.000000,0.000000,0.000000 ThumbRight:0.000000,0.000000,0.000000,0.000000 WristLeft:-0.072552,0.755441,-0.094272,0.644327 WristRight:0.023016,0.170060,-0.476477,0.862276 END:
KINECT_DATA POSITION:20.091206,-1.772809,-8.252657 HEAD_JOINT1:0.985900,0.156196,-0.000000,0.060038 LARM_JOINT2:0.827687,0.000000,-0.020508,-0.560814 LARM_JOINT3:0.974855,0.000000,-0.145366,-0.168900 LLEG_JOINT2:0.998322,0.024110,0.000000,0.052640 LLEG_JOINT4:0.995435,0.091047,0.000000,-0.028617 RARM_JOINT2:0.794003,0.000000,0.519465,0.315776 RARM_JOINT3:0.954021,0.000000,0.272797,0.124198 RLEG_JOINT2:0.997119,0.021998,0.000000,-0.072594 RLEG_JOINT4:0.995295,0.078449,0.000000,0.056863 WAIST:0.999874,0.000000,0.015747,-0.001849 WAIST_JOINT0:0.998858,-0.000000,0.046016,0.012875 WAIST_JOINT1:0.998289,0.058445,0.000000,-0.002010 END:
KINECT_DATA_Sensor  AnkleLeft:0.069412,0.703565,-0.094210,-0.700930 AnkleRight:0.060813,0.739300,0.081431,0.665663 ElbowLeft:-0.032202,0.902159,-0.185912,-0.387954 ElbowRight:-0.442212,0.887738,0.091085,0.089856 FootLeft:0.000000,0.000000,0.000000,0.000000 FootRight:0.000000,0.000000,0.000000,0.000000 HandLeft:-0.066305,0.861377,0.017559,0.503314 HandRight:0.155014,0.260311,-0.498770,0.812058 HandTipLeft:0.000000,0.000000,0.000000,0.000000 HandTipRight:0.000000,0.000000,0.000000,0.000000 Head:0.000000,0.000000,0.000000,0.000000 HipLeft:0.118842,-0.682381,0.703530,-0.158988 HipRight:-0.137997,0.674412,0.702375,-0.181093 KneeLeft:0.017946,-0.695694,0.053299,0.716133 KneeRight:-0.038016,0.717120,0.067682,0.692613 Neck:-0.046186,-0.001010,0.996236,-0.073341 ShoulderLeft:-0.005032,0.783112,-0.619475,0.054403 ShoulderRight:-0.065543,0.791267,0.595175,-0.123964 SpineBase:-0.015751,-0.004629,0.999237,-0.035427 SpineMid:-0.030987,-0.004089,0.998881,-0.035493 SpineShoulder:-0.046517,-0.003599,0.997463,-0.053759 ThumbLeft:0.000000,0.000000,0.000000,0.000000 ThumbRight:0.000000,0.000000,0.000000,0.000000 WristLeft:-0.084559,0.862854,-0.081328,0.491649 WristRight:0.061702,0.212920,-0.472269,0.853123 END:
KINECT_DATA POSITION:20.108133,-1.688387,-8.247018 HEAD_JOINT1:0.986464,0.153618,-0.000000,0.057361 LARM_JOINT2:0.826730,0.000000,-0.024145,-0.562080 LARM_JOINT3:0.975244,0.000000,-0.140514,-0.170748 LLEG_JOINT2:0.998516,0.020665,0.000000,0.050395 LLEG_JOINT4:0.995244,0.094061,0.000000,-0.025324 RARM_JOINT2:0.816952,0.000000,0.504383,0.279620 RARM_JOINT3:0.925254,0.000000,0.334816,0.178334 RLEG_JOINT2:0.996684,0.027951,0.000000,-0.076417 RLEG_JOINT4:0.995326,0.074579,0.000000,0.061360 WAIST:0.999534,-0.000000,0.030514,0.001063 WAIST_JOINT0:0.998137,-0.000000,0.059888,0.011687 WAIST_JOINT1:0.998325,0.057819,0.000000,-0.001951 END:
KINECT_DATA_Sensor  AnkleLeft:0.071364,0.719281,-0.093156,-0.684737 AnkleRight:0.063185,0.746226,0.081422,0.657667 ElbowLeft:-0.031191,0.900638,-0.186587,-0.391234 ElbowRight:-0.453835,0.878730,0.140987,0.044609 FootLeft:0.000000,0.000000,0.000000,0.000000 FootRight:0.000000,0.000000,0.000000,0.000000 HandLeft:-0.052031,0.861097,0.014700,0.505559 HandRight:0.172249,0.293194,-0.501893,0.795280 HandTipLeft:0.000000,0.000000,0.000000,0.000000 HandTipRight:0.000000,0.000000,0.000000,0.000000 Head:0.000000,0.000000,0.000000,0.000000 HipLeft:0.111082,-0.680410,0.708614,-0.150231 HipRight:-0.146960,0.672690,0.700353,-0.188141 KneeLeft:0.020181,-0.684822,0.051636,0.726598 KneeRight:-0.035598,0.727522,0.072049,0.681361 Neck:-0.060456,0.000918,0.995504,-0.072912 ShoulderLeft:0.002428,0.782373,-0.621245,0.044048 ShoulderRight:-0.076911,0.788106,0.595415,-0.135846 SpineBase:-0.030648,-0.003307,0.998919,-0.034786 SpineMid:-0.045575,-0.002787,0.998350,-0.034832 SpineShoulder:-0.060759,-0.001492,0.996747,-0.052920 ThumbLeft:0.000000,0.000000,0.000000,0.000000 ThumbRight:0.000000,0.000000,0.000000,0.000000 WristLeft:-0.085293,0.860222,-0.081778,0.496039 WristRight:0.107498,0.269032,-0.464606,0.836784 END:
KINECT_DATA POSITION:19.960981,-1.398662,-8.369279 HEAD_JOINT1:0.987115,0.150003,-0.000000,0.055698 LARM_JOINT2:0.825956,0.000000,-0.026786,-0.563098 LARM_JOINT3:0.974125,0.000000,-0.145266,-0.173145 LLEG_JOINT2:0.998366,0.015138,0.000000,0.055104 LLEG_JOINT4:0.994871,0.098301,0.000000,-0.023837 RARM_JOINT2:0.820905,0.000000,0.493426,0.287483 RARM_JOINT3:0.912549,0.000000,0.365357,0.183760 RLEG_JOINT2:0.996725,0.031239,0.000000,-0.074583 RLEG_JOINT4:0.995488,0.069550,0.000000,0.064543 WAIST:0.999051,0.000000,0.043545,-0.000209 WAIST_JOINT0:0.997307,-0.000000,0.073146,0.005300 WAIST_JOINT1:0.998281,0.058601,-0.000000,0.000109 END:
KINECT_DATA_Sensor  AnkleLeft:0.069910,0.720077,-0.094228,-0.683903 AnkleRight:0.063334,0.753068,0.078594,0.650154 ElbowLeft:-0.029772,0.895867,-0.185983,-0.402426 ElbowRight:-0.449460,0.881919,0.127463,0.062912 FootLeft:0.000000,0.000000,0.000000,0.000000 FootRight:0.000000,0.000000,0.000000,0.000000 HandLeft:-0.071776,0.643446,-0.009721,0.762057 HandRight:0.220340,0.262416,-0.479016,0.808166 HandTipLeft:0.000000,0.000000,0.000000,0.000000 HandTipRight:0.000000,0.000000,0.000000,0.000000 Head:0.000000,0.000000,0.000000,0.000000 HipLeft:0.104263,-0.682774,0.708569,-0.144496 HipRight:-0.154537,0.670046,0.699068,-0.196113 KneeLeft:0.025885,-0.675104,0.050724,0.735521 KneeRight:-0.033851,0.736393,0.073650,0.671680 Neck:-0.073328,0.000895,0.994571,-0.073824 ShoulderLeft:0.007451,0.783654,-0.620037,0.037215 ShoulderRight:-0.088996,0.779563,0.601580,-0.149877 SpineBase:-0.043587,-0.003920,0.998417,-0.035322 SpineMid:-0.058519,-0.003391,0.997654,-0.035376 SpineShoulder:-0.073651,-0.001453,0.995836,-0.053702 ThumbLeft:0.000000,0.000000,0.000000,0.000000 ThumbRight:0.000000,0.000000,0.000000,0.000000 WristLeft:-0.052341,0.644292,-0.107512,0.755373 WristRight:0.165630,0.239640,-0.466068,0.835416 END:
KINECT_DATA POSITION:19.924355,-1.029114,-8.625770 HEAD_JOINT1:0.987539,0.148880,-0.000000,0.050997 LARM_JOINT2:0.824295,0.000000,-0.026495,-0.565541 LARM_JOINT3:0.976962,0.000000,-0.142389,-0.158966 LLEG_JOINT2:0.998122,0.010709,0.000000,0.060319 LLEG_JOINT4:0.994417,0.102468,0.000000,-0.025199 RARM_JOINT2:0.803026,0.000000,0.529757,0.272960 RARM_JOINT3:0.921713,0.000000,0.347916,0.171466 RLEG_JOINT2:0.997084,0.029049,0.000000,-0.070574 RLEG_JOINT4:0.994932,0.073447,0.000000,0.068666 WAIST:0.998743,0.000000,0.049932,-0.004427 WAIST_JOINT0:0.997704,-0.000000,0.067393,0.006712 WAIST_JOINT1:0.998212,0.059581,-0.000000,0.004847 END:
KINECT_DATA_Sensor  AnkleLeft:0.069816,0.708981,-0.094128,-0.695422 AnkleRight:0.066136,0.749648,0.078316,0.653851 ElbowLeft:-0.029184,0.887517,-0.183991,-0.421437 ElbowRight:-0.468568,0.876452,0.109126,0.019170 FootLeft:0.000000,0.000000,0.000000,0.000000 FootRight:0.000000,0.000000,0.000000,0.000000 HandLeft:-0.039014,0.861124,-0.003681,0.506882 HandRight:0.242917,0.297341,-0.507347,0.771478 HandTipLeft:0.000000,0.000000,0.000000,0.000000 HandTipRight:0.000000,0.000000,0.000000,0.000000 Head:0.000000,0.000000,0.000000,0.000000 HipLeft:0.100423,-0.686920,0.705311,-0.143501 HipRight:-0.159232,0.666940,0.699623,-0.200909 KneeLeft:0.029365,-0.670451,0.048812,0.739764 KneeRight:-0.035818,0.740409,0.072083,0.667319 Neck:-0.067780,-0.000029,0.994877,-0.075005 ShoulderLeft:0.017688,0.782954,-0.620949,0.033063 ShoulderRight:-0.070688,0.782638,0.602998,-0.137385 SpineBase:-0.049646,-0.003711,0.998097,-0.036393 SpineMid:-0.058842,-0.003375,0.997597,-0.036426 SpineShoulder:-0.068073,-0.001905,0.996168,-0.054880 ThumbLeft:0.000000,0.000000,0.000000,0.000000 ThumbRight:0.000000,0.000000,0.000000,0.000000 WristLeft:-0.081942,0.857355,-0.089572,0.500205 WristRight:0.159605,0.265982,-0.468146,0.827417 END:
KINECT_DATA POSITION:19.991426,-0.660683,-8.907366 HEAD_JOINT1:0.987832,0.148599,-0.000000,0.045894 LARM_JOINT2:0.822938,0.000000,-0.030331,-0.567321 LARM_JOINT3:0.976289,0.000000,-0.147977,-0.157994 LLEG_JOINT2:0.998034,0.007432,0.000000,0.062225 LLEG_JOINT4:0.994179,0.105297,0.000000,-0.022822 RARM_JOINT2:0.786013,0.000000,0.556236,0.269786 RARM_JOINT3:0.918026,0.000000,0.362225,0.161309 RLEG_JOINT2:0.997252,0.026934,0.000000,-0.069021 RLEG_JOINT4:0.994786,0.073823,0.000000,0.070366 WAIST:0.998528,0.000000,0.053720,-0.007531 WAIST_JOINT0:0.997550,-0.000000,0.069684,0.006142 WAIST_JOINT1:0.998074,0.061379,-0.000000,0.009005 END:
KINECT_DATA_Sensor  AnkleLeft:0.070331,0.714331,-0.093841,-0.689911 AnkleRight:0.064759,0.751034,0.077424,0.652502 ElbowLeft:-0.029425,0.885798,-0.182406,-0.425705 ElbowRight:-0.479378,0.874301,0.074130,0.017263 FootLeft:0.000000,0.000000,0.000000,0.000000 FootRight:0.000000,0.000000,0.000000,0.000000 HandLeft:-0.066653,0.869774,-0.006361,0.488887 HandRight:0.218471,0.334447,-0.509142,0.762358 HandTipLeft:0.000000,0.000000,0.000000,0.000000 HandTipRight:0.000000,0.000000,0.000000,0.000000 Head:0.000000,0.000000,0.000000,0.000000 HipLeft:0.096925,-0.689659,0.703048,-0.143873 HipRight:-0.161370,0.664703,0.700386,-0.203934 KneeLeft:0.030687,-0.667798,0.045977,0.742288 KneeRight:-0.038549,0.742643,0.071529,0.664740 Neck:-0.070116,0.000379,0.994576,-0.076832 ShoulderLeft:0.024071,0.781185,-0.623082,0.030650 ShoulderRight:-0.067399,0.780056,0.606436,-0.138582 SpineBase:-0.053132,-0.002719,0.997851,-0.038247 SpineMid:-0.061739,-0.002389,0.997356,-0.038269 SpineShoulder:-0.070374,-0.001126,0.995894,-0.056941 ThumbLeft:0.000000,0.000000,0.000000,0.000000 ThumbRight:0.000000,0.000000,0.000000,0.000000 WristLeft:-0.081395,0.869290,-0.089075,0.479349 WristRight:0.176906,0.321143,-0.491404,0.789996 END:
KINECT_DATA POSITION:20.041801,-0.474006,-9.006035 HEAD_JOINT1:0.988164,0.147895,-0.000000,0.040736 LARM_JOINT2:0.822871,0.000000,-0.017423,-0.567960 LARM_JOINT3:0.974648,0.000000,-0.157114,-0.159302 LLEG_JOINT2:0.997861,0.006730,0.000000,0.065022 LLEG_JOINT4:0.994206,0.104437,0.000000,-0.025436 RARM_JOINT2:0.775033,0.000000,0.569350,0.274162 RARM_JOINT3:0.917221,0.000000,0.366566,0.155999 RLEG_JOINT2:0.997444,0.024764,0.000000,-0.067019 RLEG_JOINT4:0.994680,0.074858,0.000000,0.070774 WAIST:0.998553,0.000000,0.052794,-0.010195 WAIST_JOINT0:0.998120,-0.000000,0.061104,0.004694 WAIST_JOINT1:0.997996,0.062133,-0.000000,0.011964 END:
KINECT_DATA_Sensor  AnkleLeft:0.068984,0.702773,-0.092328,-0.702016 AnkleRight:0.063541,0.746760,0.077156,0.657540 ElbowLeft:-0.022288,0.877571,-0.186141,-0.441274 ElbowRight:-0.480045,0.875302,0.056482,0.014607 FootLeft:0.000000,0.000000,0.000000,0.000000 FootRight:0.000000,0.000000,0.000000,0.000000 HandLeft:-0.065016,0.725529,-0.025340,0.684645 HandRight:0.208515,0.350149,-0.527078,0.745725 HandTipLeft:0.000000,0.000000,0.000000,0.000000 HandTipRight:0.000000,0.000000,0.000000,0.000000 Head:0.000000,0.000000,0.000000,0.000000 HipLeft:0.097123,-0.691266,0.701036,-0.145832 HipRight:-0.161305,0.663195,0.701877,-0.203769 KneeLeft:0.031237,-0.668643,0.045679,0.741522 KneeRight:-0.040354,0.741783,0.070475,0.665704 Neck:-0.061774,-0.000012,0.995054,-0.077795 ShoulderLeft:0.012826,0.780702,-0.623319,0.042574 ShoulderRight:-0.068165,0.778605,0.608499,-0.137322 SpineBase:-0.051972,-0.002265,0.997885,-0.038972 SpineMid:-0.056995,-0.002069,0.997611,-0.038983 SpineShoulder:-0.061995,-0.001168,0.996400,-0.057805 ThumbLeft:0.000000,0.000000,0.000000,0.000000 ThumbRight:0.000000,0.000000,0.000000,0.000000 WristLeft:-0.057161,0.730420,-0.105981,0.672300 WristRight:0.186425,0.351437,-0.500182,0.769127 END:
KINECT_DATA POSITION:20.105963,-0.303222,-9.041619 HEAD_JOINT1:0.988296,0.147711,-0.000000,0.038119 LARM_JOINT2:0.821176,0.000000,-0.026590,-0.570055 LARM_JOINT3:0.976153,0.000000,-0.152469,-0.154527 LLEG_JOINT2:0.997952,0.006640,0.000000,0.063614 LLEG_JOINT4:0.993929,0.107420,0.000000,-0.023806 RARM_JOINT2:0.768500,0.000000,0.574818,0.281054 RARM_JOINT3:0.918102,0.000000,0.367357,0.148789 RLEG_JOINT2:0.997318,0.024735,0.000000,-0.068881 RLEG_JOINT4:0.994451,0.077456,0.000000,0.071182 WAIST:0.998572,0.000000,0.052664,-0.008993 WAIST_JOINT0:0.997657,-0.000000,0.068245,0.004742 WAIST_JOINT1:0.997997,0.062283,-0.000000,0.011091 END:
KINECT_DATA_Sensor  AnkleLeft:0.072195,0.716409,-0.093768,-0.687570 AnkleRight:0.065540,0.750205,0.078746,0.653220 ElbowLeft:-0.026909,0.881695,-0.181230,-0.434794 ElbowRight:-0.477799,0.877245,0.041340,0.020999 FootLeft:0.000000,0.000000,0.000000,0.000000 FootRight:0.000000,0.000000,0.000000,0.000000 HandLeft:-0.070359,0.838922,-0.018018,0.539383 HandRight:0.159432,0.420446,-0.545822,0.707025 HandTipLeft:0.000000,0.000000,0.000000,0.000000 HandTipRight:0.000000,0.000000,0.000000,0.000000 Head:0.000000,0.000000,0.000000,0.000000 HipLeft:0.097788,-0.690527,0.701586,-0.146247 HipRight:-0.161666,0.664079,0.700885,-0.204017 KneeLeft:0.031221,-0.668691,0.045414,0.741496 KneeRight:-0.040895,0.741723,0.070860,0.665698 Neck:-0.068846,0.000750,0.994555,-0.078229 ShoulderLeft:0.022153,0.779198,-0.625456,0.034117 ShoulderRight:-0.068068,0.776513,0.610597,-0.139875 SpineBase:-0.051920,-0.001797,0.997896,-0.038782 SpineMid:-0.060471,-0.001465,0.997415,-0.038796 SpineShoulder:-0.069067,-0.000385,0.995936,-0.057802 ThumbLeft:0.000000,0.000000,0.000000,0.000000 ThumbRight:0.000000,0.000000,0.000000,0.000000 WristLeft:-0.075195,0.839677,-0.093887,0.529597 WristRight:0.144070,0.423958,-0.522337,0.725718 END:
KINECT_DATA POSITION:20.063587,-0.161517,-9.118843 HEAD_JOINT1:0.988365,0.147357,-0.000000,0.037677 LARM_JOINT2:0.822845,0.000000,-0.013087,-0.568115 LARM_JOINT3:0.973621,0.000000,-0.160564,-0.162114 LLEG_JOINT2:0.997854,0.006634,0.000000,0.065142 LLEG_JOINT4:0.994260,0.104011,0.000000,-0.025069 RARM_JOINT2:0.769858,0.000000,0.553788,0.317235 RARM_JOINT3:0.909678,0.000000,0.386373,0.152322 RLEG_JOINT2:0.997462,0.024386,0.000000,-0.066899 RLEG_JOINT4:0.994735,0.076311,0.000000,0.068409 WAIST:0.998556,0.000000,0.052819,-0.009796 WAIST_JOINT0:0.996988,0.000000,0.076489,-0.012818 WAIST_JOINT1:0.997974,0.062536,-0.000000,0.011729 END:
KINECT_DATA_Sensor  AnkleLeft:0.068418,0.705854,-0.092377,-0.698967 AnkleRight:0.063885,0.754751,0.078409,0.648168 ElbowLeft:-0.019078,0.876235,-0.187647,-0.443438 ElbowRight:-0.450579,0.890348,0.026184,0.059776 FootLeft:0.000000,0.000000,0.000000,0.000000 FootRight:0.000000,0.000000,0.000000,0.000000 HandLeft:-0.077263,0.836974,-0.012599,0.541614 HandRight:0.185592,0.396619,-0.526501,0.728729 HandTipLeft:0.000000,0.000000,0.000000,0.000000 HandTipRight:0.000000,0.000000,0.000000,0.000000 Head:0.000000,0.000000,0.000000,0.000000 HipLeft:0.097619,-0.691139,0.701006,-0.146245 HipRight:-0.161539,0.663560,0.701352,-0.204205 KneeLeft:0.031670,-0.668580,0.045987,0.741541 KneeRight:-0.040241,0.741829,0.069832,0.665728 Neck:-0.076263,0.001217,0.993974,-0.078725 ShoulderLeft:0.006605,0.781724,-0.622109,0.042940 ShoulderRight:-0.095043,0.754048,0.629345,-0.162179 SpineBase:-0.052028,-0.002304,0.997883,-0.038963 SpineMid:-0.064214,-0.001828,0.997173,-0.038989 SpineShoulder:-0.076515,-0.000161,0.995378,-0.058030 ThumbLeft:0.000000,0.000000,0.000000,0.000000 ThumbRight:0.000000,0.000000,0.000000,0.000000 WristLeft:-0.074235,0.839372,-0.092659,0.530432 WristRight:0.181744,0.395929,-0.524348,0.731620 END:
KINECT_DATA POSITION:20.045151,-0.162633,-9.123230 HEAD_JOINT1:0.988334,0.147565,-0.000000,0.037688 LARM_JOINT2:0.823743,0.000000,-0.002177,-0.566959 LARM_JOINT3:0.972036,0.000000,-0.163862,-0.168214 LLEG_JOINT2:0.997864,0.007834,0.000000,0.064849 LLEG_JOINT4:0.994317,0.102987,0.000000,-0.026986 RARM_JOINT2:0.762350,0.000000,0.574295,0.298341 RARM_JOINT3:0.917854,0.000000,0.369152,0.145843 RLEG_JOINT2:0.997448,0.024810,0.000000,-0.066953 RLEG_JOINT4:0.994704,0.075214,0.000000,0.070054 WAIST:0.998589,0.000000,0.052241,-0.009489 WAIST_JOINT0:0.998307,0.000000,0.057872,-0.005802 WAIST_JOINT1:0.997997,0.062231,-0.000000,0.011391 END:
KINECT_DATA_Sensor  AnkleLeft:0.069675,0.706417,-0.091009,-0.698454 AnkleRight:0.063712,0.745082,0.077485,0.659386 ElbowLeft:-0.013318,0.871765,-0.192155,-0.450472 ElbowRight:-0.467615,0.882871,0.023775,0.036194 FootLeft:0.000000,0.000000,0.000000,0.000000 FootRight:0.000000,0.000000,0.000000,0.000000 HandLeft:-0.076536,0.826289,-0.001614,0.558020 HandRight:0.186731,0.361134,-0.520332,0.750978 HandTipLeft:0.000000,0.000000,0.000000,0.000000 HandTipRight:0.000000,0.000000,0.000000,0.000000 Head:0.000000,0.000000,0.000000,0.000000 HipLeft:0.097975,-0.690982,0.701130,-0.146155 HipRight:-0.161062,0.663969,0.701248,-0.203607 KneeLeft:0.030827,-0.669024,0.046765,0.741127 KneeRight:-0.039740,0.741488,0.069988,0.666121 Neck:-0.058160,-0.000178,0.995220,-0.078446 ShoulderLeft:-0.001138,0.782069,-0.620913,0.053231 ShoulderRight:-0.078037,0.766958,0.620494,-0.143782 SpineBase:-0.051485,-0.002395,0.997921,-0.038697 SpineMid:-0.054961,-0.002260,0.997736,-0.038706 SpineShoulder:-0.058368,-0.001159,0.996627,-0.057682 ThumbLeft:0.000000,0.000000,0.000000,0.000000 ThumbRight:0.000000,0.000000,0.000000,0.000000 WristLeft:-0.071699,0.830301,-0.093253,0.544759 WristRight:0.200889,0.369557,-0.516132,0.746109 END:
KINECT_DATA POSITION:19.994448,-0.131504,-9.157312 HEAD_JOINT1:0.990355,0.134761,-0.000000,0.032203 LARM_JOINT2:0.821400,0.000000,-0.035208,-0.569264 LARM_JOINT3:0.975930,0.000000,-0.147717,-0.160437 LLEG_JOINT2:0.997827,0.007986,0.000000,0.065410 LLEG_JOINT4:0.994917,0.097244,0.000000,-0.026166 RARM_JOINT2:0.762669,0.000000,0.578789,0.288684 RARM_JOINT3:0.920418,0.000000,0.363752,0.143232 RLEG_JOINT2:0.997445,0.023988,0.000000,-0.067297 RLEG_JOINT4:0.994717,0.076332,0.000000,0.068640 WAIST:0.998614,0.000000,0.051807,-0.009310 WAIST_JOINT0:0.997355,0.000000,0.072659,-0.001908 WAIST_JOINT1:0.997660,0.067010,-0.000000,0.013578 END:
KINECT_DATA_Sensor  AnkleLeft:0.064842,0.711856,-0.088389,-0.693718 AnkleRight:0.063741,0.752749,0.077970,0.650558 ElbowLeft:-0.026952,0.890071,-0.183157,-0.416534 ElbowRight:-0.470245,0.881525,0.023903,0.034814 FootLeft:0.000000,0.000000,0.000000,0.000000 FootRight:0.000000,0.000000,0.000000,0.000000 HandLeft:-0.074383,0.851473,-0.002421,0.519090 HandRight:0.164207,0.379056,-0.517421,0.749418 HandTipLeft:0.000000,0.000000,0.000000,0.000000 HandTipRight:0.000000,0.000000,0.000000,0.000000 Head:0.000000,0.000000,0.000000,0.000000 HipLeft:0.097327,-0.690587,0.701278,-0.147738 HipRight:-0.160389,0.663973,0.701234,-0.204171 KneeLeft:0.031236,-0.669382,0.047398,0.740747 KneeRight:-0.040401,0.741137,0.069492,0.666524 Neck:-0.072747,0.003715,0.993744,-0.084653 ShoulderLeft:0.032416,0.779736,-0.624547,0.030051 ShoulderRight:-0.063246,0.768888,0.619926,-0.143189 SpineBase:-0.050998,-0.001479,0.997893,-0.040088 SpineMid:-0.062031,-0.001035,0.997268,-0.040102 SpineShoulder:-0.073024,0.001826,0.995394,-0.062088 ThumbLeft:0.000000,0.000000,0.000000,0.000000 ThumbRight:0.000000,0.000000,0.000000,0.000000 WristLeft:-0.075095,0.853691,-0.087645,0.507830 WristRight:0.185358,0.386251,-0.521610,0.737818 END:
KINECT_DATA POSITION:19.995295,-0.121024,-9.224558 HEAD_JOINT1:0.988823,0.145097,-0.000000,0.034290 LARM_JOINT2:0.823352,0.000000,-0.007610,-0.567481 LARM_JOINT3:0.972278,0.000000,-0.162592,-0.168048 LLEG_JOINT2:0.997880,0.007103,0.000000,0.064693 LLEG_JOINT4:0.994359,0.102833,0.000000,-0.026011 RARM_JOINT2:0.766586,0.000000,0.573819,0.288232 RARM_JOINT3:0.924665,0.000000,0.357481,0.131157 RLEG_JOINT2:0.997402,0.022714,0.000000,-0.068366 RLEG_JOINT4:0.994591,0.077013,0.000000,0.069701 WAIST:0.998720,0.000000,0.049811,-0.008740 WAIST_JOINT0:0.998353,0.000000,0.057375,-0.000494 WAIST_JOINT1:0.997857,0.064081,-0.000000,0.013254 END:
KINECT_DATA_Sensor  AnkleLeft:-0.063642,-0.676832,0.094702,0.727241 AnkleRight:0.063090,0.744923,0.077626,0.659609 ElbowLeft:-0.014849,0.877879,-0.192990,-0.438022 ElbowRight:-0.471673,0.880459,0.031463,0.036428 FootLeft:0.000000,0.000000,0.000000,0.000000 FootRight:0.000000,0.000000,0.000000,0.000000 HandLeft:-0.080612,0.830727,-0.010801,0.550707 HandRight:0.142120,0.345024,-0.549744,0.747356 HandTipLeft:0.000000,0.000000,0.000000,0.000000 HandTipRight:0.000000,0.000000,0.000000,0.000000 Head:0.000000,0.000000,0.000000,0.000000 HipLeft:0.098604,-0.690194,0.701336,-0.148451 HipRight:-0.159671,0.664927,0.700933,-0.202659 KneeLeft:0.031924,-0.670814,0.046599,0.739471 KneeRight:-0.041526,0.739764,0.068929,0.668037 Neck:-0.058070,0.002981,0.995030,-0.080830 ShoulderLeft:0.006679,0.778829,-0.625162,0.050531 ShoulderRight:-0.070221,0.770851,0.617440,-0.140091 SpineBase:-0.049042,-0.000870,0.998016,-0.039486 SpineMid:-0.053698,-0.000686,0.997776,-0.039489 SpineShoulder:-0.058264,0.001568,0.996529,-0.059431 ThumbLeft:0.000000,0.000000,0.000000,0.000000 ThumbRight:0.000000,0.000000,0.000000,0.000000 WristLeft:-0.070702,0.834339,-0.090580,0.539142 WristRight:0.174689,0.375768,-0.518837,0.747724 END:
KINECT_DATA POSITION:19.986046,-0.146978,-9.283363 HEAD_JOINT1:0.987902,0.150633,-0.000000,0.036873 LARM_JOINT2:0.823770,0.000000,-0.004874,-0.566904 LARM_JOINT3:0.971493,0.000000,-0.165933,-0.169317 LLEG_JOINT2:0.997955,0.006406,0.000000,0.063595 LLEG_JOINT4:0.994431,0.102085,0.000000,-0.026202 RARM_JOINT2:0.771682,0.000000,0.565037,0.291958 RARM_JOINT3:0.917467,0.000000,0.372508,0.139615 RLEG_JOINT2:0.997341,0.023600,0.000000,-0.068954 RLEG_JOINT4:0.994787,0.075338,0.000000,0.068725 WAIST:0.998711,0.000000,0.050136,-0.007974 WAIST_JOINT0:0.998468,0.000000,0.055325,-0.000074 WAIST_JOINT1:0.997988,0.062138,-0.000000,0.012595 END:
KINECT_DATA_Sensor  AnkleLeft:0.068651,0.721204,-0.089178,-0.683520 AnkleRight:0.061769,0.744072,0.077720,0.660682 ElbowLeft:-0.014746,0.877478,-0.193911,-0.438422 ElbowRight:-0.469107,0.881113,0.033213,0.049750 FootLeft:0.000000,0.000000,0.000000,0.000000 FootRight:0.000000,0.000000,0.000000,0.000000 HandLeft:-0.094181,0.848894,-0.014360,0.519906 HandRight:0.192487,0.355874,-0.536572,0.740535 HandTipLeft:0.000000,0.000000,0.000000,0.000000 HandTipRight:0.000000,0.000000,0.000000,0.000000 Head:0.000000,0.000000,0.000000,0.000000 HipLeft:0.098783,-0.689888,0.701811,-0.147507 HipRight:-0.160368,0.665612,0.700285,-0.202100 KneeLeft:0.032231,-0.670523,0.045867,0.739768 KneeRight:-0.040839,0.740063,0.069432,0.667697 Neck:-0.056066,0.002787,0.995320,-0.078664 ShoulderLeft:0.000034,0.779574,-0.624029,0.053396 ShoulderRight:-0.074254,0.772225,0.615332,-0.139719 SpineBase:-0.049427,-0.000368,0.998035,-0.038517 SpineMid:-0.052864,-0.000235,0.997859,-0.038518 SpineShoulder:-0.056227,0.001645,0.996758,-0.057526 ThumbLeft:0.000000,0.000000,0.000000,0.000000 ThumbRight:0.000000,0.000000,0.000000,0.000000 WristLeft:-0.073139,0.853499,-0.088507,0.508288 WristRight:0.181918,0.358369,-0.520057,0.753670 END:
KINECT_DATA POSITION:19.956984,-0.119802,-9.310616 HEAD_JOINT1:0.990648,0.131238,-0.000000,0.037322 LARM_JOINT2:0.822664,0.000000,-0.033963,-0.567512 LARM_JOINT3:0.974633,0.000000,-0.156823,-0.159680 LLEG_JOINT2:0.997922,0.006896,0.000000,0.064067 LLEG_JOINT4:0.994426,0.101673,0.000000,-0.027922 RARM_JOINT2:0.763318,0.000000,0.579791,0.284936 RARM_JOINT3:0.915176,0.000000,0.377805,0.140412 RLEG_JOINT2:0.997367,0.022654,0.000000,-0.068888 RLEG_JOINT4:0.994555,0.077367,0.000000,0.069812 WAIST:0.998785,0.000000,0.048617,-0.008052 WAIST_JOINT0:0.997731,-0.000000,0.067321,0.000437 WAIST_JOINT1:0.997498,0.069446,-0.000000,0.013231 END:
KINECT_DATA_Sensor  AnkleLeft:-0.062833,-0.671182,0.093041,0.732741 AnkleRight:0.064234,0.749885,0.076984,0.653926 ElbowLeft:-0.025648,0.890660,-0.187027,-0.413628 ElbowRight:-0.470732,0.880927,0.023084,0.042969 FootLeft:0.000000,0.000000,0.000000,0.000000 FootRight:0.000000,0.000000,0.000000,0.000000 HandLeft:-0.090788,0.816459,-0.029577,0.569454 HandRight:0.230997,0.341991,-0.516297,0.750414 HandTipLeft:0.000000,0.000000,0.000000,0.000000 HandTipRight:0.000000,0.000000,0.000000,0.000000 Head:0.000000,0.000000,0.000000,0.000000 HipLeft:0.098038,-0.689389,0.701904,-0.149873 HipRight:-0.158061,0.665350,0.700913,-0.202600 KneeLeft:0.032203,-0.671702,0.046437,0.738663 KneeRight:-0.041394,0.738969,0.068791,0.668938 Neck:-0.067630,0.004379,0.993798,-0.088159 ShoulderLeft:0.029743,0.778949,-0.625344,0.036048 ShoulderRight:-0.059251,0.771492,0.617605,-0.140901 SpineBase:-0.047846,-0.000175,0.998018,-0.040876 SpineMid:-0.057864,0.000236,0.997487,-0.040876 SpineShoulder:-0.067864,0.002824,0.995630,-0.064087 ThumbLeft:0.000000,0.000000,0.000000,0.000000 ThumbRight:0.000000,0.000000,0.000000,0.000000 WristLeft:-0.067962,0.820821,-0.091900,0.559633 WristRight:0.214660,0.335548,-0.513712,0.759887 END:
KINECT_DATA POSITION:19.888752,-0.119747,-9.298742 HEAD_JOINT1:0.989199,0.141288,-0.000000,0.039019 LARM_JOINT2:0.824214,0.000000,-0.016257,-0.566045 LARM_JOINT3:0.972587,0.000000,-0.162791,-0.166051 LLEG_JOINT2:0.997939,0.007675,0.000000,0.063711 LLEG_JOINT4:0.994440,0.102070,0.000000,-0.025916 RARM_JOINT2:0.759719,0.000000,0.582984,0.288021 RARM_JOINT3:0.916065,0.000000,0.374246,0.144101 RLEG_JOINT2:0.997401,0.023217,0.000000,-0.068208 RLEG_JOINT4:0.994892,0.074843,0.000000,0.067731 WAIST:0.998711,0.000000,0.050200,-0.007549 WAIST_JOINT0:0.998421,0.000000,0.056145,-0.001763 WAIST_JOINT1:0.997759,0.065841,-0.000000,0.011912 END:
KINECT_DATA_Sensor  AnkleLeft:0.067645,0.709775,-0.091685,-0.695152 AnkleRight:0.061313,0.744549,0.076939,0.660279 ElbowLeft:-0.017877,0.883710,-0.192446,-0.426264 ElbowRight:-0.472820,0.880191,0.018812,0.036744 FootLeft:0.000000,0.000000,0.000000,0.000000 FootRight:0.000000,0.000000,0.000000,0.000000 HandLeft:-0.090498,0.839196,-0.023277,0.535740 HandRight:0.216539,0.359805,-0.514661,0.747513 HandTipLeft:0.000000,0.000000,0.000000,0.000000 HandTipRight:0.000000,0.000000,0.000000,0.000000 Head:0.000000,0.000000,0.000000,0.000000 HipLeft:0.097643,-0.689500,0.702199,-0.148232 HipRight:-0.158941,0.665613,0.700292,-0.203196 KneeLeft:0.031662,-0.670481,0.047108,0.739752 KneeRight:-0.040252,0.740148,0.068343,0.667750 Neck:-0.056924,0.001992,0.994978,-0.082302 ShoulderLeft:0.008422,0.781301,-0.622023,0.050846 ShoulderRight:-0.066606,0.772413,0.616127,-0.139030 SpineBase:-0.049507,-0.000829,0.997964,-0.040205 SpineMid:-0.053334,-0.000675,0.997767,-0.040208 SpineShoulder:-0.057055,0.001414,0.996492,-0.061200 ThumbLeft:0.000000,0.000000,0.000000,0.000000 ThumbRight:0.000000,0.000000,0.000000,0.000000 WristLeft:-0.071559,0.842941,-0.088240,0.525874 WristRight:0.210113,0.355281,-0.517918,0.749259 END:
KINECT_DATA POSITION:19.800779,-0.094936,-9.280336 HEAD_JOINT1:0.988707,0.144763,-0.000000,0.038767 LARM_JOINT2:0.824003,0.000000,-0.025165,-0.566027 LARM_JOINT3:0.974761,0.000000,-0.148968,-0.166282 LLEG_JOINT2:0.997810,0.007521,0.000000,0.065719 LLEG_JOINT4:0.994541,0.101190,0.000000,-0.025456 RARM_JOINT2:0.764552,0.000000,0.561055,0.317298 RARM_JOINT3:0.900931,0.000000,0.410327,0.141264 RLEG_JOINT2:0.997459,0.024529,0.000000,-0.066885 RLEG_JOINT4:0.994861,0.073281,0.000000,0.069874 WAIST:0.998646,0.000000,0.051334,-0.008419 WAIST_JOINT0:0.997091,0.000000,0.075443,-0.010853 WAIST_JOINT1:0.997820,0.064867,-0.000000,0.012151 END:
KINECT_DATA_Sensor  AnkleLeft:0.066391,0.712067,-0.091965,-0.692889 AnkleRight:0.063982,0.754058,0.074242,0.649455 ElbowLeft:-0.022468,0.889684,-0.188961,-0.415032 ElbowRight:-0.450349,0.890016,0.011903,0.070111 FootLeft:0.000000,0.000000,0.000000,0.000000 FootRight:0.000000,0.000000,0.000000,0.000000 HandLeft:-0.067995,0.828800,-0.005883,0.555367 HandRight:0.233513,0.374049,-0.547094,0.711511 HandTipLeft:0.000000,0.000000,0.000000,0.000000 HandTipRight:0.000000,0.000000,0.000000,0.000000 Head:0.000000,0.000000,0.000000,0.000000 HipLeft:0.097972,-0.690324,0.701422,-0.147857 HipRight:-0.160151,0.664934,0.700397,-0.204103 KneeLeft:0.032447,-0.669612,0.047925,0.740453 KneeRight:-0.039070,0.740944,0.069007,0.666869 Neck:-0.075121,0.002774,0.993870,-0.081067 ShoulderLeft:0.012821,0.781315,-0.622630,0.041410 ShoulderRight:-0.087125,0.756609,0.628268,-0.158845 SpineBase:-0.050608,-0.001605,0.997924,-0.039809 SpineMid:-0.062940,-0.001113,0.997222,-0.039826 SpineShoulder:-0.075309,0.001775,0.995333,-0.060315 ThumbLeft:0.000000,0.000000,0.000000,0.000000 ThumbRight:0.000000,0.000000,0.000000,0.000000 WristLeft:-0.070630,0.830937,-0.088833,0.544669 WristRight:0.214814,0.373897,-0.530167,0.730054 END:
KINECT_DATA POSITION:19.804760,-0.306626,-9.384298 HEAD_JOINT1:0.987665,0.152047,-0.000000,0.037405 LARM_JOINT2:0.820516,0.000000,-0.038056,-0.570355 LARM_JOINT3:0.976308,0.000000,-0.142913,-0.162478 LLEG_JOINT2:0.997984,0.004844,0.000000,0.063282 LLEG_JOINT4:0.993959,0.106445,0.000000,-0.026749 RARM_JOINT2:0.757356,0.000000,0.585095,0.289959 RARM_JOINT3:0.893343,0.000000,0.432189,0.123087 RLEG_JOINT2:0.997403,0.024280,0.000000,-0.067812 RLEG_JOINT4:0.994990,0.072980,0.000000,0.068326 WAIST:0.998443,0.000000,0.055360,-0.006849 WAIST_JOINT0:0.997224,0.000000,0.074422,-0.002333 WAIST_JOINT1:0.997818,0.065125,-0.000000,0.010886 END:
KINECT_DATA_Sensor  AnkleLeft:-0.067919,-0.692294,0.093150,0.712348 AnkleRight:0.062263,0.753803,0.074993,0.649831 ElbowLeft:-0.027236,0.894439,-0.180600,-0.408191 ElbowRight:-0.473043,0.879255,-0.000431,0.056037 FootLeft:0.000000,0.000000,0.000000,0.000000 FootRight:0.000000,0.000000,0.000000,0.000000 HandLeft:-0.076245,0.656891,-0.023261,0.749760 HandRight:0.195414,0.399142,-0.581536,0.681406 HandTipLeft:0.000000,0.000000,0.000000,0.000000 HandTipRight:0.000000,0.000000,0.000000,0.000000 Head:0.000000,0.000000,0.000000,0.000000 HipLeft:0.093630,-0.690000,0.702998,-0.144663 HipRight:-0.160765,0.665443,0.699200,-0.206054 KneeLeft:0.033719,-0.666490,0.045581,0.743355 KneeRight:-0.039073,0.743706,0.068199,0.663870 Neck:-0.074809,0.002546,0.993873,-0.081324 ShoulderLeft:0.026389,0.777353,-0.627637,0.033124 ShoulderRight:-0.072496,0.764939,0.622488,-0.148732 SpineBase:-0.054721,-0.001323,0.997672,-0.040665 SpineMid:-0.064870,-0.000910,0.997064,-0.040676 SpineShoulder:-0.075005,0.001506,0.995342,-0.060543 ThumbLeft:0.000000,0.000000,0.000000,0.000000 ThumbRight:0.000000,0.000000,0.000000,0.000000 WristLeft:-0.044627,0.657367,-0.103210,0.745134 WristRight:0.224379,0.427174,-0.558191,0.674981 END:
KINECT_DATA POSITION:19.817959,-0.330222,-9.331584 HEAD_JOINT1:0.987239,0.154975,-0.000000,0.036637 LARM_JOINT2:0.819959,0.000000,-0.042581,-0.570836 LARM_JOINT3:0.977503,0.000000,-0.136190,-0.161061 LLEG_JOINT2:0.997928,0.004853,0.000000,0.064163 LLEG_JOINT4:0.994399,0.102257,0.000000,-0.026738 RARM_JOINT2:0.755821,0.000000,0.574636,0.313892 RARM_JOINT3:0.902489,0.000000,0.406391,0.142687 RLEG_JOINT2:0.997450,0.024837,0.000000,-0.066905 RLEG_JOINT4:0.995041,0.073023,0.000000,0.067534 WAIST:0.998284,0.000000,0.058084,-0.007483 WAIST_JOINT0:0.995556,0.000000,0.093656,-0.009813 WAIST_JOINT1:0.997818,0.065121,-0.000000,0.010841 END:
KINECT_DATA_Sensor  AnkleLeft:0.066237,0.702173,-0.089548,-0.703240 AnkleRight:0.063066,0.763495,0.075215,0.638311 ElbowLeft:-0.028007,0.897606,-0.178249,-0.402177 ElbowRight:-0.455513,0.888461,-0.002739,0.056009 FootLeft:0.000000,0.000000,0.000000,0.000000 FootRight:0.000000,0.000000,0.000000,0.000000 HandLeft:-0.056952,0.843170,0.002938,0.534615 HandRight:0.179247,0.402388,-0.532993,0.722407 HandTipLeft:0.000000,0.000000,0.000000,0.000000 HandTipRight:0.000000,0.000000,0.000000,0.000000 Head:0.000000,0.000000,0.000000,0.000000 HipLeft:0.092770,-0.690437,0.702893,-0.143636 HipRight:-0.163018,0.664222,0.699235,-0.208098 KneeLeft:0.033711,-0.664474,0.045904,0.745138 KneeRight:-0.038644,0.745518,0.068364,0.661843 Neck:-0.093347,0.002917,0.992285,-0.081536 ShoulderLeft:0.028640,0.777676,-0.627465,0.026221 ShoulderRight:-0.096020,0.751105,0.630427,-0.170829 SpineBase:-0.057406,-0.001767,0.997521,-0.040649 SpineMid:-0.075424,-0.001032,0.996321,-0.040674 SpineShoulder:-0.093598,0.001642,0.993770,-0.060483 ThumbLeft:0.000000,0.000000,0.000000,0.000000 ThumbRight:0.000000,0.000000,0.000000,0.000000 WristLeft:-0.075810,0.843470,-0.083307,0.525234 WristRight:0.229802,0.416115,-0.543339,0.691970 END:
KINECT_DATA POSITION:19.825638,-0.305939,-9.231747 HEAD_JOINT1:0.986966,0.156093,-0.000000,0.039153 LARM_JOINT2:0.821123,0.000000,-0.034917,-0.569682 LARM_JOINT3:0.974943,0.000000,-0.150548,-0.163773 LLEG_JOINT2:0.997775,0.005515,0.000000,0.066436 LLEG_JOINT4:0.994614,0.100140,0.000000,-0.026722 RARM_JOINT2:0.745451,0.000000,0.575466,0.336366 RARM_JOINT3:0.917197,0.000000,0.375907,0.132077 RLEG_JOINT2:0.997551,0.026250,0.000000,-0.064825 RLEG_JOINT4:0.995028,0.072686,0.000000,0.068094 WAIST:0.998212,0.000000,0.059042,-0.009311 WAIST_JOINT0:0.994916,0.000000,0.099575,-0.015073 WAIST_JOINT1:0.997778,0.065705,-0.000000,0.011038 END:
KINECT_DATA_Sensor  AnkleLeft:0.065341,0.704582,-0.088765,-0.701011 AnkleRight:0.064672,0.766226,0.075327,0.634855 ElbowLeft:-0.022049,0.895427,-0.180699,-0.406292 ElbowRight:-0.440624,0.895441,-0.020033,0.060292 FootLeft:0.000000,0.000000,0.000000,0.000000 FootRight:0.000000,0.000000,0.000000,0.000000 HandLeft:-0.097502,0.836287,-0.018161,0.539248 HandRight:-0.094165,-0.491071,0.541625,-0.675739 HandTipLeft:0.000000,0.000000,0.000000,0.000000 HandTipRight:0.000000,0.000000,0.000000,0.000000 Head:0.000000,0.000000,0.000000,0.000000 HipLeft:0.092729,-0.691440,0.701874,-0.143823 HipRight:-0.163866,0.662453,0.700345,-0.209334 KneeLeft:0.033380,-0.663835,0.046794,0.745667 KneeRight:-0.037497,0.746126,0.069296,0.661127 Neck:-0.098027,0.001452,0.991762,-0.082440 ShoulderLeft:0.019314,0.779124,-0.625745,0.032166 ShoulderRight:-0.112733,0.741997,0.634635,-0.184308 SpineBase:-0.058249,-0.002857,0.997454,-0.041036 SpineMid:-0.078154,-0.002037,0.996092,-0.041085 SpineShoulder:-0.098321,0.000207,0.993279,-0.061065 ThumbLeft:0.000000,0.000000,0.000000,0.000000 ThumbRight:0.000000,0.000000,0.000000,0.000000 WristLeft:-0.073087,0.841180,-0.080948,0.529643 WristRight:-0.140784,-0.500600,0.562112,-0.643125 END:
KINECT_DATA POSITION:19.815613,-0.287759,-9.077084 HEAD_JOINT1:0.986464,0.159242,-0.000000,0.039126 LARM_JOINT2:0.821602,0.000000,-0.041111,-0.568577 LARM_JOINT3:0.975182,0.000000,-0.144520,-0.167733 LLEG_JOINT2:0.997671,0.004943,0.000000,0.068032 LLEG_JOINT4:0.994343,0.103007,0.000000,-0.025925 RARM_JOINT2:0.756467,0.000000,0.559454,0.338776 RARM_JOINT3:0.906706,0.000000,0.400971,0.130794 RLEG_JOINT2:0.997665,0.026583,0.000000,-0.062918 RLEG_JOINT4:0.995132,0.073798,0.000000,0.065322 WAIST:0.998263,0.000000,0.057976,-0.010502 WAIST_JOINT0:0.994739,0.000000,0.101096,-0.016545 WAIST_JOINT1:0.997803,0.065272,-0.000000,0.011328 END:
KINECT_DATA_Sensor  AnkleLeft:0.067390,0.712797,-0.090463,-0.692240 AnkleRight:0.064532,0.767093,0.077592,0.633549 ElbowLeft:-0.024698,0.902373,-0.179296,-0.391109 ElbowRight:-0.436085,0.896945,-0.005084,0.072764 FootLeft:0.000000,0.000000,0.000000,0.000000 FootRight:0.000000,0.000000,0.000000,0.000000 HandLeft:-0.099163,0.817632,-0.010936,0.567032 HandRight:0.180168,0.367606,-0.546070,0.730899 HandTipLeft:0.000000,0.000000,0.000000,0.000000 HandTipRight:0.000000,0.000000,0.000000,0.000000 Head:0.000000,0.000000,0.000000,0.000000 HipLeft:0.094169,-0.692143,0.700850,-0.144498 HipRight:-0.163644,0.661851,0.701107,-0.208860 KneeLeft:0.034087,-0.664613,0.046722,0.744946 KneeRight:-0.036627,0.745415,0.069148,0.661992 Neck:-0.099200,0.000910,0.991671,-0.082144 ShoulderLeft:0.021924,0.780260,-0.624397,0.029013 ShoulderRight:-0.111401,0.741197,0.636059,-0.183430 SpineBase:-0.057135,-0.003762,0.997531,-0.040656 SpineMid:-0.078201,-0.002902,0.996101,-0.040726 SpineShoulder:-0.099524,-0.000498,0.993185,-0.060643 ThumbLeft:0.000000,0.000000,0.000000,0.000000 ThumbRight:0.000000,0.000000,0.000000,0.000000 WristLeft:-0.071190,0.824106,-0.080467,0.556153 WristRight:0.227598,0.394703,-0.534825,0.711597 END:
KINECT_DATA POSITION:19.829338,-0.286505,-8.998478 HEAD_JOINT1:0.986171,0.161301,-0.000000,0.038057 LARM_JOINT2:0.821227,0.000000,-0.044565,-0.568858 LARM_JOINT3:0.976648,0.000000,-0.144228,-0.159241 LLEG_JOINT2:0.997628,0.005526,0.000000,0.068609 LLEG_JOINT4:0.994477,0.101915,0.000000,-0.025075 RARM_JOINT2:0.771681,0.000000,0.539324,0.337101 RARM_JOINT3:0.895964,0.000000,0.420765,0.142146 RLEG_JOINT2:0.997706,0.026183,0.000000,-0.062422 RLEG_JOINT4:0.994830,0.076657,0.000000,0.066617 WAIST:0.998330,0.000000,0.056741,-0.010808 WAIST_JOINT0:0.994819,0.000000,0.100021,-0.018184 WAIST_JOINT1:0.997824,0.064980,-0.000000,0.011161 END:
KINECT_DATA_Sensor  AnkleLeft:0.066341,0.714814,-0.091029,-0.690184 AnkleRight:0.067430,0.766099,0.078203,0.634373 ElbowLeft:-0.027846,0.902525,-0.177236,-0.391484 ElbowRight:-0.432860,0.896637,0.013911,0.092093 FootLeft:0.000000,0.000000,0.000000,0.000000 FootRight:0.000000,0.000000,0.000000,0.000000 HandLeft:-0.082821,0.803031,-0.035211,0.589102 HandRight:0.163732,0.396051,-0.542513,0.722506 HandTipLeft:0.000000,0.000000,0.000000,0.000000 HandTipRight:0.000000,0.000000,0.000000,0.000000 Head:0.000000,0.000000,0.000000,0.000000 HipLeft:0.095206,-0.692232,0.700495,-0.145108 HipRight:-0.163018,0.661849,0.701445,-0.208223 KneeLeft:0.033886,-0.665540,0.047275,0.744092 KneeRight:-0.036666,0.744586,0.068771,0.662962 Neck:-0.098072,0.000618,0.991805,-0.081873 ShoulderLeft:0.021632,0.781356,-0.623047,0.028762 ShoulderRight:-0.109993,0.740711,0.637306,-0.181906 SpineBase:-0.055900,-0.004188,0.997607,-0.040476 SpineMid:-0.077031,-0.003329,0.996198,-0.040556 SpineShoulder:-0.098412,-0.000904,0.993314,-0.060341 ThumbLeft:0.000000,0.000000,0.000000,0.000000 ThumbRight:0.000000,0.000000,0.000000,0.000000 WristLeft:-0.070936,0.805446,-0.084494,0.582310 WristRight:0.208054,0.412635,-0.546405,0.698489 END:
KINECT_DATA POSITION:19.836626,-0.275519,-8.920455 HEAD_JOINT1:0.986356,0.160544,-0.000000,0.036427 LARM_JOINT2:0.824361,0.000000,-0.017387,-0.565797 LARM_JOINT3:0.973379,0.000000,-0.155475,-0.168405 LLEG_JOINT2:0.997556,0.006851,0.000000,0.069538 LLEG_JOINT4:0.994400,0.102345,0.000000,-0.026354 RARM_JOINT2:0.755950,0.000000,0.560682,0.337898 RARM_JOINT3:0.911758,0.000000,0.385458,0.141839 RLEG_JOINT2:0.997762,0.026997,0.000000,-0.061166 RLEG_JOINT4:0.995020,0.075327,0.000000,0.065276 WAIST:0.998320,0.000000,0.056818,-0.011364 WAIST_JOINT0:0.996198,0.000000,0.084964,-0.019237 WAIST_JOINT1:0.997790,0.065366,-0.000000,0.011909 END:
KINECT_DATA_Sensor  AnkleLeft:-0.061308,-0.661149,0.096212,0.741530 AnkleRight:0.065702,0.758759,0.079097,0.643205 ElbowLeft:-0.013717,0.887898,-0.189103,-0.419152 ElbowRight:-0.436882,0.896663,-0.004243,0.071501 FootLeft:0.000000,0.000000,0.000000,0.000000 FootRight:0.000000,0.000000,0.000000,0.000000 HandLeft:-0.067753,0.822380,-0.020539,0.564516 HandRight:0.187958,0.368493,-0.509434,0.754560 HandTipLeft:0.000000,0.000000,0.000000,0.000000 HandTipRight:0.000000,0.000000,0.000000,0.000000 Head:0.000000,0.000000,0.000000,0.000000 HipLeft:0.094829,-0.692467,0.700252,-0.145412 HipRight:-0.162795,0.661387,0.701911,-0.208293 KneeLeft:0.033112,-0.665571,0.048464,0.744023 KneeRight:-0.035583,0.744648,0.068931,0.662935 Neck:-0.083293,-0.000330,0.993115,-0.082370 ShoulderLeft:-0.000858,0.781590,-0.621826,0.049496 ShoulderRight:-0.113244,0.741178,0.636708,-0.180096 SpineBase:-0.055919,-0.004127,0.997589,-0.040903 SpineMid:-0.069692,-0.003561,0.996721,-0.040956 SpineShoulder:-0.083605,-0.001660,0.994646,-0.060721 ThumbLeft:0.000000,0.000000,0.000000,0.000000 ThumbRight:0.000000,0.000000,0.000000,0.000000 WristLeft:-0.072765,0.823088,-0.082882,0.557102 WristRight:0.230261,0.375682,-0.527426,0.726405 END:
KINECT_DATA POSITION:19.826740,-0.199632,-8.911037 HEAD_JOINT1:0.986489,0.159732,-0.000000,0.036414 LARM_JOINT2:0.824067,0.000000,-0.020298,-0.566129 LARM_JOINT3:0.973719,0.000000,-0.156557,-0.165413 LLEG_JOINT2:0.997524,0.007619,0.000000,0.069910 LLEG_JOINT4:0.994409,0.101616,0.000000,-0.028705 RARM_JOINT2:0.751857,0.000000,0.563079,0.343005 RARM_JOINT3:0.917969,0.000000,0.373694,0.132986 RLEG_JOINT2:0.997756,0.028066,0.000000,-0.060789 RLEG_JOINT4:0.995383,0.071915,0.000000,0.063572 WAIST:0.998259,0.000000,0.057835,-0.011590 WAIST_JOINT0:0.995730,0.000000,0.090676,-0.017283 WAIST_JOINT1:0.997743,0.066037,-0.000000,0.012172 END:
KINECT_DATA_Sensor  AnkleLeft:0.069027,0.708148,-0.090166,-0.696872 AnkleRight:0.063174,0.762038,0.078350,0.639663 ElbowLeft:-0.015122,0.887431,-0.188079,-0.420551 ElbowRight:-0.433422,0.898349,-0.011113,0.070653 FootLeft:0.000000,0.000000,0.000000,0.000000 FootRight:0.000000,0.000000,0.000000,0.000000 HandLeft:-0.065441,0.714787,-0.037704,0.695252 HandRight:0.179844,0.360931,-0.514087,0.757033 HandTipLeft:0.000000,0.000000,0.000000,0.000000 HandTipRight:0.000000,0.000000,0.000000,0.000000 Head:0.000000,0.000000,0.000000,0.000000 HipLeft:0.093567,-0.692654,0.700321,-0.145008 HipRight:-0.162798,0.660945,0.702092,-0.209082 KneeLeft:0.032566,-0.664861,0.049137,0.744638 KneeRight:-0.034808,0.745335,0.069610,0.662132 Neck:-0.088890,0.000072,0.992561,-0.083199 ShoulderLeft:0.004426,0.781366,-0.622435,0.044979 ShoulderRight:-0.115561,0.742217,0.634034,-0.183741 SpineBase:-0.056903,-0.004273,0.997505,-0.041567 SpineMid:-0.072973,-0.003603,0.996458,-0.041631 SpineShoulder:-0.089229,-0.001444,0.994117,-0.061377 ThumbLeft:0.000000,0.000000,0.000000,0.000000 ThumbRight:0.000000,0.000000,0.000000,0.000000 WristLeft:-0.057062,0.717850,-0.095157,0.687299 WristRight:0.223881,0.373243,-0.524996,0.731400 END:
KINECT_DATA POSITION:19.908789,-0.259040,-8.916796 HEAD_JOINT1:0.986395,0.160154,-0.000000,0.037093 LARM_JOINT2:0.823370,0.000000,-0.016662,-0.567261 LARM_JOINT3:0.972348,0.000000,-0.167676,-0.162554 LLEG_JOINT2:0.997662,0.006597,0.000000,0.068024 LLEG_JOINT4:0.994425,0.102004,0.000000,-0.026714 RARM_JOINT2:0.832691,0.000000,0.428708,0.350478 RARM_JOINT3:0.816638,0.000000,0.538518,0.207605 RLEG_JOINT2:0.997704,0.028138,0.000000,-0.061607 RLEG_JOINT4:0.995504,0.070470,0.000000,0.063285 WAIST:0.998402,0.000000,0.055470,-0.010767 WAIST_JOINT0:0.996721,0.000000,0.079869,-0.012990 WAIST_JOINT1:0.997861,0.064515,-0.000000,0.010529 END:
KINECT_DATA_Sensor  AnkleLeft:0.067343,0.707161,-0.090900,-0.697943 AnkleRight:0.061671,0.756738,0.077753,0.646142 ElbowLeft:-0.016194,0.882267,-0.186448,-0.431949 ElbowRight:-0.391387,0.899984,0.105637,0.160267 FootLeft:0.000000,0.000000,0.000000,0.000000 FootRight:0.000000,0.000000,0.000000,0.000000 HandLeft:-0.101621,0.841467,-0.039554,0.529190 HandRight:0.248292,0.365479,-0.556188,0.703869 HandTipLeft:0.000000,0.000000,0.000000,0.000000 HandTipRight:0.000000,0.000000,0.000000,0.000000 Head:0.000000,0.000000,0.000000,0.000000 HipLeft:0.095365,-0.692239,0.700411,-0.145377 HipRight:-0.161717,0.662174,0.701664,-0.207465 KneeLeft:0.032794,-0.666531,0.047528,0.743237 KneeRight:-0.034637,0.743827,0.069694,0.663826 Neck:-0.079413,-0.001228,0.993529,-0.081189 ShoulderLeft:0.002534,0.779422,-0.624632,0.048269 ShoulderRight:-0.104116,0.749197,0.631182,-0.171678 SpineBase:-0.054643,-0.004496,0.997668,-0.040661 SpineMid:-0.067130,-0.003987,0.996905,-0.040714 SpineShoulder:-0.079721,-0.002483,0.995014,-0.059878 ThumbLeft:0.000000,0.000000,0.000000,0.000000 ThumbRight:0.000000,0.000000,0.000000,0.000000 WristLeft:-0.076432,0.845248,-0.084936,0.522016 WristRight:0.255046,0.377551,-0.541419,0.706592 END:
KINECT_DATA POSITION:20.128616,-0.754598,-8.853912 HEAD_JOINT1:0.985691,0.162241,-0.000000,0.045737 LARM_JOINT2:0.826450,0.000000,-0.021724,-0.562590 LARM_JOINT3:0.971934,0.000000,-0.169469,-0.163171 LLEG_JOINT2:0.997622,0.010398,0.000000,0.068138 LLEG_JOINT4:0.994550,0.101102,0.000000,-0.025473 RARM_JOINT2:0.865169,0.000000,0.310464,0.393819 RARM_JOINT3:0.772855,0.000000,0.593593,0.224371 RLEG_JOINT2:0.997752,0.023108,0.000000,-0.062897 RLEG_JOINT4:0.995210,0.075726,0.000000,0.061823 WAIST:0.999213,0.000000,0.037591,-0.012690 WAIST_JOINT0:0.998901,0.000000,0.046878,-0.000021 WAIST_JOINT1:0.997984,0.063217,-0.000000,0.005534 END:
