EastLYD/RoboCupatHomeSim/InteractiveCleanUp/JapanOpen2016/Motion_Data/File10.dat
KINECT_DATA POSITION:16.028931,-1.685301,-6.533766 HEAD_JOINT1:0.983014,0.165638,-0.000000,0.079047 LARM_JOINT2:0.827374,0.000000,0.008570,-0.561586 LARM_JOINT3:0.978648,0.000000,-0.147664,-0.142977 LLEG_JOINT2:0.997739,0.035860,0.000000,0.056838 LLEG_JOINT4:0.996006,0.082136,0.000000,-0.035024 RARM_JOINT2:0.804208,0.000000,-0.052303,0.592042 RARM_JOINT3:0.967807,0.000000,0.204985,0.146048 RLEG_JOINT2:0.999488,0.003507,0.000000,-0.031814 RLEG_JOINT4:0.993291,0.112061,0.000000,0.028547 WAIST:0.999727,0.000000,-0.020163,-0.011812 WAIST_JOINT0:0.999740,0.000000,-0.022794,0.000985 WAIST_JOINT1:0.997151,0.075037,0.000000,-0.007723 END:
KINECT_DATA_Sensor  AnkleLeft:0.074862,0.717879,-0.091097,-0.686110 AnkleRight:0.076510,0.713543,0.087384,0.690917 ElbowLeft:-0.005954,0.896023,-0.186366,-0.402957 ElbowRight:0.019791,0.838880,0.202903,0.504697 FootLeft:0.000000,0.000000,0.000000,0.000000 FootRight:0.000000,0.000000,0.000000,0.000000 HandLeft:-0.046229,0.681247,-0.003455,0.730584 HandRight:-0.066046,0.757242,-0.033019,0.648947 HandTipLeft:0.000000,0.000000,0.000000,0.000000 HandTipRight:0.000000,0.000000,0.000000,0.000000 Head:0.000000,0.000000,0.000000,0.000000 HipLeft:0.129140,-0.683932,0.694165,-0.183562 HipRight:-0.098391,0.671885,0.714715,-0.167547 KneeLeft:-0.007713,0.721588,-0.056911,-0.689936 KneeRight:-0.027830,0.692565,0.033742,0.720028 Neck:0.022024,-0.018300,0.995409,-0.091329 ShoulderLeft:0.017467,0.781771,-0.618495,0.077418 ShoulderRight:0.046842,0.781599,0.620626,-0.041630 SpineBase:0.020377,-0.017805,0.998347,-0.050699 SpineMid:0.020893,-0.017831,0.998337,-0.050689 SpineShoulder:0.021722,-0.017964,0.997153,-0.069938 ThumbLeft:0.000000,0.000000,0.000000,0.000000 ThumbRight:0.000000,0.000000,0.000000,0.000000 WristLeft:-0.027079,0.680733,-0.082507,0.727366 WristRight:-0.104538,0.753871,-0.039083,0.647474 END:
KINECT_DATA POSITION:16.005894,-1.684962,-6.573391 HEAD_JOINT1:0.983275,0.164064,-0.000000,0.079080 LARM_JOINT2:0.827369,0.000000,0.007947,-0.561603 LARM_JOINT3:0.978145,0.000000,-0.151166,-0.142762 LLEG_JOINT2:0.997754,0.035593,0.000000,0.056750 LLEG_JOINT4:0.996058,0.082316,0.000000,-0.033063 RARM_JOINT2:0.804324,0.000000,-0.052904,0.591831 RARM_JOINT3:0.967286,0.000000,0.209747,0.142706 RLEG_JOINT2:0.999495,0.004219,0.000000,-0.031509 RLEG_JOINT4:0.993437,0.111096,0.000000,0.027199 WAIST:0.999739,0.000000,-0.019564,-0.011788 WAIST_JOINT0:0.999734,0.000000,-0.023066,0.000884 WAIST_JOINT1:0.997162,0.074912,0.000000,-0.007466 END:
KINECT_DATA_Sensor  AnkleLeft:0.073773,0.719497,-0.092109,-0.684396 AnkleRight:0.077080,0.725651,0.086734,0.678208 ElbowLeft:-0.006646,0.895523,-0.186310,-0.404084 ElbowRight:0.019858,0.838712,0.203047,0.504916 FootLeft:0.000000,0.000000,0.000000,0.000000 FootRight:0.000000,0.000000,0.000000,0.000000 HandLeft:-0.052775,0.792169,-0.002656,0.608010 HandRight:-0.086634,0.753190,-0.032319,0.651272 HandTipLeft:0.000000,0.000000,0.000000,0.000000 HandTipRight:0.000000,0.000000,0.000000,0.000000 Head:0.000000,0.000000,0.000000,0.000000 HipLeft:0.128817,-0.684014,0.694220,-0.183275 HipRight:-0.098952,0.671869,0.714595,-0.167794 KneeLeft:-0.007813,0.721173,-0.056684,-0.690388 KneeRight:-0.027103,0.692986,0.033986,0.719640 Neck:0.022302,-0.018153,0.995420,-0.091175 ShoulderLeft:0.016998,0.781959,-0.618239,0.077661 ShoulderRight:0.046712,0.781773,0.620428,-0.041446 SpineBase:0.019792,-0.017510,0.998370,-0.050584 SpineMid:0.020745,-0.017559,0.998351,-0.050567 SpineShoulder:0.022007,-0.017791,0.997160,-0.069791 ThumbLeft:0.000000,0.000000,0.000000,0.000000 ThumbRight:0.000000,0.000000,0.000000,0.000000 WristLeft:-0.042870,0.795630,-0.077278,0.599302 WristRight:-0.104718,0.751659,-0.040052,0.649953 END:
KINECT_DATA POSITION:15.967588,-1.689719,-6.633985 HEAD_JOINT1:0.983436,0.163030,-0.000000,0.079209 LARM_JOINT2:0.827447,0.000000,0.007274,-0.561497 LARM_JOINT3:0.978833,0.000000,-0.146376,-0.143038 LLEG_JOINT2:0.997788,0.034683,0.000000,0.056718 LLEG_JOINT4:0.996012,0.082957,0.000000,-0.032844 RARM_JOINT2:0.804451,0.000000,-0.053399,0.591614 RARM_JOINT3:0.967870,0.000000,0.206671,0.143231 RLEG_JOINT2:0.999501,0.003833,0.000000,-0.031360 RLEG_JOINT4:0.993081,0.113937,0.000000,0.028445 WAIST:0.999755,0.000000,-0.018918,-0.011463 WAIST_JOINT0:0.999735,0.000000,-0.023007,0.000839 WAIST_JOINT1:0.997168,0.074812,0.000000,-0.007664 END:
KINECT_DATA_Sensor  AnkleLeft:0.074847,0.730546,-0.090979,-0.672624 AnkleRight:0.077820,0.708654,0.089053,0.695574 ElbowLeft:-0.007528,0.894579,-0.186236,-0.406187 ElbowRight:0.019870,0.838779,0.203302,0.504701 FootLeft:0.000000,0.000000,0.000000,0.000000 FootRight:0.000000,0.000000,0.000000,0.000000 HandLeft:-0.038385,0.796305,0.010425,0.603586 HandRight:-0.075720,0.761170,-0.024551,0.643649 HandTipLeft:0.000000,0.000000,0.000000,0.000000 HandTipRight:0.000000,0.000000,0.000000,0.000000 Head:0.000000,0.000000,0.000000,0.000000 HipLeft:0.128440,-0.683950,0.694486,-0.182772 HipRight:-0.099390,0.672045,0.714303,-0.168072 KneeLeft:-0.008614,0.720678,-0.056247,-0.690931 KneeRight:-0.027065,0.693474,0.033369,0.719200 Neck:0.022257,-0.018152,0.995431,-0.091060 ShoulderLeft:0.016951,0.782210,-0.617938,0.077535 ShoulderRight:0.046594,0.781904,0.620275,-0.041397 SpineBase:0.019123,-0.017383,0.998391,-0.050464 SpineMid:0.020390,-0.017447,0.998366,-0.050442 SpineShoulder:0.021967,-0.017753,0.997169,-0.069681 ThumbLeft:0.000000,0.000000,0.000000,0.000000 ThumbRight:0.000000,0.000000,0.000000,0.000000 WristLeft:-0.043337,0.799164,-0.078330,0.594410 WristRight:-0.105177,0.758848,-0.038826,0.641544 END:
KINECT_DATA POSITION:15.911645,-1.690971,-6.732714 HEAD_JOINT1:0.983362,0.163187,-0.000000,0.079806 LARM_JOINT2:0.827072,0.000000,0.007273,-0.562049 LARM_JOINT3:0.978846,0.000000,-0.146985,-0.142323 LLEG_JOINT2:0.997841,0.033506,0.000000,0.056485 LLEG_JOINT4:0.995923,0.083393,0.000000,-0.034392 RARM_JOINT2:0.804403,0.000000,-0.054129,0.591613 RARM_JOINT3:0.967337,0.000000,0.207872,0.145080 RLEG_JOINT2:0.999498,0.003802,0.000000,-0.031452 RLEG_JOINT4:0.993272,0.112548,0.000000,0.027278 WAIST:0.999774,0.000000,-0.018206,-0.010954 WAIST_JOINT0:0.999735,0.000000,-0.023029,0.000723 WAIST_JOINT1:0.997153,0.074960,0.000000,-0.008155 END:
KINECT_DATA_Sensor  AnkleLeft:0.073875,0.719388,-0.090683,-0.684690 AnkleRight:0.075004,0.699892,0.089758,0.704605 ElbowLeft:-0.007860,0.892336,-0.185716,-0.411319 ElbowRight:0.020625,0.839604,0.203583,0.503183 FootLeft:0.000000,0.000000,0.000000,0.000000 FootRight:0.000000,0.000000,0.000000,0.000000 HandLeft:-0.035379,0.802320,0.013414,0.595693 HandRight:-0.077052,0.769704,-0.030210,0.633013 HandTipLeft:0.000000,0.000000,0.000000,0.000000 HandTipRight:0.000000,0.000000,0.000000,0.000000 Head:0.000000,0.000000,0.000000,0.000000 HipLeft:0.128004,-0.683717,0.694898,-0.182381 HipRight:-0.099793,0.672253,0.713911,-0.168664 KneeLeft:-0.009582,0.720110,-0.055611,-0.691562 KneeRight:-0.026808,0.694030,0.033042,0.718687 Neck:0.022291,-0.018284,0.995414,-0.091208 ShoulderLeft:0.017119,0.782567,-0.617479,0.077556 ShoulderRight:0.046799,0.782041,0.620090,-0.041363 SpineBase:0.018364,-0.017333,0.998402,-0.050561 SpineMid:0.020029,-0.017418,0.998370,-0.050532 SpineShoulder:0.022003,-0.017834,0.997158,-0.069816 ThumbLeft:0.000000,0.000000,0.000000,0.000000 ThumbRight:0.000000,0.000000,0.000000,0.000000 WristLeft:-0.045438,0.804814,-0.079175,0.586465 WristRight:-0.104683,0.767292,-0.037794,0.631567 END:
KINECT_DATA POSITION:15.880845,-1.684604,-6.774724 HEAD_JOINT1:0.983250,0.163962,-0.000000,0.079592 LARM_JOINT2:0.826675,0.000000,0.007219,-0.562633 LARM_JOINT3:0.978452,0.000000,-0.149086,-0.142847 LLEG_JOINT2:0.997844,0.033847,0.000000,0.056236 LLEG_JOINT4:0.996170,0.081343,0.000000,-0.032081 RARM_JOINT2:0.804237,0.000000,-0.054947,0.591764 RARM_JOINT3:0.967386,0.000000,0.207716,0.144975 RLEG_JOINT2:0.999509,0.003653,0.000000,-0.031130 RLEG_JOINT4:0.993260,0.112664,0.000000,0.027242 WAIST:0.999783,0.000000,-0.017740,-0.010938 WAIST_JOINT0:0.999740,0.000000,-0.022786,0.000542 WAIST_JOINT1:0.997164,0.074849,0.000000,-0.007841 END:
KINECT_DATA_Sensor  AnkleLeft:0.071291,0.719685,-0.090870,-0.684627 AnkleRight:0.075115,0.700002,0.089582,0.704506 ElbowLeft:-0.007924,0.891745,-0.185320,-0.412776 ElbowRight:0.021058,0.839245,0.203370,0.503850 FootLeft:0.000000,0.000000,0.000000,0.000000 FootRight:0.000000,0.000000,0.000000,0.000000 HandLeft:-0.039508,0.790530,0.012317,0.611023 HandRight:-0.072125,0.711084,-0.034444,0.698549 HandTipLeft:0.000000,0.000000,0.000000,0.000000 HandTipRight:0.000000,0.000000,0.000000,0.000000 Head:0.000000,0.000000,0.000000,0.000000 HipLeft:0.127749,-0.683788,0.694944,-0.182120 HipRight:-0.100241,0.672238,0.713825,-0.168827 KneeLeft:-0.009147,0.719808,-0.055701,-0.691875 KneeRight:-0.026695,0.694356,0.032686,0.718393 Neck:0.022070,-0.017995,0.995435,-0.091093 ShoulderLeft:0.017662,0.782531,-0.617586,0.076945 ShoulderRight:0.047030,0.781802,0.620388,-0.041149 SpineBase:0.017911,-0.017102,0.998420,-0.050442 SpineMid:0.019693,-0.017192,0.998386,-0.050412 SpineShoulder:0.021786,-0.017564,0.997176,-0.069691 ThumbLeft:0.000000,0.000000,0.000000,0.000000 ThumbRight:0.000000,0.000000,0.000000,0.000000 WristLeft:-0.045779,0.793799,-0.080108,0.601141 WristRight:-0.100902,0.708733,-0.047500,0.696606 END:
KINECT_DATA POSITION:15.852223,-1.685222,-6.813014 HEAD_JOINT1:0.983079,0.164541,-0.000000,0.080508 LARM_JOINT2:0.826592,0.000000,0.008058,-0.562743 LARM_JOINT3:0.979211,0.000000,-0.145432,-0.141402 LLEG_JOINT2:0.997853,0.033550,0.000000,0.056244 LLEG_JOINT4:0.995955,0.083407,0.000000,-0.033424 RARM_JOINT2:0.804186,0.000000,-0.055941,0.591739 RARM_JOINT3:0.967553,0.000000,0.205751,0.146652 RLEG_JOINT2:0.999514,0.003307,0.000000,-0.030996 RLEG_JOINT4:0.993412,0.111288,0.000000,0.027328 WAIST:0.999780,0.000000,-0.017878,-0.010965 WAIST_JOINT0:0.999752,0.000000,-0.022269,0.000612 WAIST_JOINT1:0.997173,0.074751,0.000000,-0.007656 END:
KINECT_DATA_Sensor  AnkleLeft:0.073420,0.719043,-0.091222,-0.685030 AnkleRight:0.074034,0.700427,0.088234,0.704369 ElbowLeft:-0.007242,0.892139,-0.185621,-0.411801 ElbowRight:0.022190,0.840050,0.203472,0.502417 FootLeft:0.000000,0.000000,0.000000,0.000000 FootRight:0.000000,0.000000,0.000000,0.000000 HandLeft:-0.018322,0.797892,0.013669,0.602367 HandRight:-0.066824,0.749124,-0.028095,0.658451 HandTipLeft:0.000000,0.000000,0.000000,0.000000 HandTipRight:0.000000,0.000000,0.000000,0.000000 Head:0.000000,0.000000,0.000000,0.000000 HipLeft:0.127770,-0.683796,0.694924,-0.182150 HipRight:-0.100214,0.672268,0.713850,-0.168617 KneeLeft:-0.009349,0.719899,-0.055472,-0.691796 KneeRight:-0.026866,0.694246,0.032371,0.718507 Neck:0.021577,-0.017780,0.995459,-0.090997 ShoulderLeft:0.017998,0.782620,-0.617525,0.076449 ShoulderRight:0.046714,0.781849,0.620333,-0.041444 SpineBase:0.018058,-0.016934,0.998424,-0.050369 SpineMid:0.019525,-0.017008,0.998396,-0.050344 SpineShoulder:0.021296,-0.017352,0.997196,-0.069605 ThumbLeft:0.000000,0.000000,0.000000,0.000000 ThumbRight:0.000000,0.000000,0.000000,0.000000 WristLeft:-0.047546,0.798245,-0.078896,0.595248 WristRight:-0.101961,0.746269,-0.042113,0.656439 END:
KINECT_DATA POSITION:15.842252,-1.686940,-6.822515 HEAD_JOINT1:0.983035,0.164591,-0.000000,0.080950 LARM_JOINT2:0.825510,0.000000,0.007936,-0.564332 LARM_JOINT3:0.977430,0.000000,-0.153258,-0.145405 LLEG_JOINT2:0.997904,0.033085,0.000000,0.055607 LLEG_JOINT4:0.996023,0.083088,0.000000,-0.032151 RARM_JOINT2:0.803884,0.000000,-0.056033,0.592140 RARM_JOINT3:0.964876,0.000000,0.215304,0.150528 RLEG_JOINT2:0.999511,0.002686,0.000000,-0.031148 RLEG_JOINT4:0.993295,0.111609,0.000000,0.030126 WAIST:0.999789,0.000000,-0.017517,-0.010741 WAIST_JOINT0:0.999752,0.000000,-0.022240,0.000874 WAIST_JOINT1:0.997184,0.074618,0.000000,-0.007507 END:
KINECT_DATA_Sensor  AnkleLeft:0.072414,0.719777,-0.091160,-0.684373 AnkleRight:0.075659,0.700048,0.086034,0.704845 ElbowLeft:-0.005650,0.894386,-0.184216,-0.407562 ElbowRight:0.022693,0.840870,0.202670,0.501345 FootLeft:0.000000,0.000000,0.000000,0.000000 FootRight:0.000000,0.000000,0.000000,0.000000 HandLeft:-0.051051,0.797971,0.003728,0.600519 HandRight:-0.091364,0.780095,-0.059673,0.616071 HandTipLeft:0.000000,0.000000,0.000000,0.000000 HandTipRight:0.000000,0.000000,0.000000,0.000000 Head:0.000000,0.000000,0.000000,0.000000 HipLeft:0.127545,-0.683713,0.695120,-0.181869 HipRight:-0.100554,0.672403,0.713664,-0.168662 KneeLeft:-0.009353,0.719632,-0.054858,-0.692122 KneeRight:-0.027271,0.694498,0.031883,0.718270 Neck:0.021542,-0.017455,0.995479,-0.090844 ShoulderLeft:0.017988,0.782242,-0.618022,0.076310 ShoulderRight:0.046657,0.781747,0.620471,-0.041365 SpineBase:0.017692,-0.016640,0.998442,-0.050230 SpineMid:0.019328,-0.016722,0.998412,-0.050203 SpineShoulder:0.021266,-0.017036,0.997212,-0.069466 ThumbLeft:0.000000,0.000000,0.000000,0.000000 ThumbRight:0.000000,0.000000,0.000000,0.000000 WristLeft:-0.050148,0.801027,-0.075271,0.591756 WristRight:-0.103159,0.778745,-0.038194,0.617621 END:
KINECT_DATA POSITION:15.868425,-1.700424,-6.713152 HEAD_JOINT1:0.983251,0.163957,-0.000000,0.079600 LARM_JOINT2:0.824994,0.000000,0.007614,-0.565090 LARM_JOINT3:0.978886,0.000000,-0.153155,-0.135373 LLEG_JOINT2:0.997920,0.033527,0.000000,0.055056 LLEG_JOINT4:0.996213,0.080905,0.000000,-0.031852 RARM_JOINT2:0.803896,0.000000,-0.054157,0.592300 RARM_JOINT3:0.965189,0.000000,0.214485,0.149689 RLEG_JOINT2:0.999482,0.003203,0.000000,-0.032014 RLEG_JOINT4:0.993258,0.111720,0.000000,0.030941 WAIST:0.999824,0.000000,-0.015617,-0.010398 WAIST_JOINT0:0.999785,0.000000,-0.020694,0.001505 WAIST_JOINT1:0.997228,0.074065,0.000000,-0.007120 END:
KINECT_DATA_Sensor  AnkleLeft:0.071286,0.718474,-0.089902,-0.686026 AnkleRight:0.076122,0.700882,0.086445,0.703915 ElbowLeft:-0.006316,0.892699,-0.183704,-0.411464 ElbowRight:0.021735,0.844276,0.201008,0.496307 FootLeft:0.000000,0.000000,0.000000,0.000000 FootRight:0.000000,0.000000,0.000000,0.000000 HandLeft:-0.031043,0.824245,-0.023983,0.564872 HandRight:-0.091136,0.729416,-0.065415,0.674809 HandTipLeft:0.000000,0.000000,0.000000,0.000000 HandTipRight:0.000000,0.000000,0.000000,0.000000 Head:0.000000,0.000000,0.000000,0.000000 HipLeft:0.127150,-0.683879,0.695428,-0.180340 HipRight:-0.102794,0.672565,0.713112,-0.169001 KneeLeft:-0.008770,0.718337,-0.055066,-0.693458 KneeRight:-0.027307,0.695808,0.032585,0.716968 Neck:0.019968,-0.016801,0.995569,-0.090341 ShoulderLeft:0.018478,0.782027,-0.618465,0.074790 ShoulderRight:0.045100,0.782277,0.619855,-0.042288 SpineBase:0.015798,-0.015907,0.998545,-0.049050 SpineMid:0.017597,-0.015995,0.998515,-0.049021 SpineShoulder:0.019687,-0.016515,0.997295,-0.068868 ThumbLeft:0.000000,0.000000,0.000000,0.000000 ThumbRight:0.000000,0.000000,0.000000,0.000000 WristLeft:-0.053178,0.822366,-0.074781,0.561511 WristRight:-0.098415,0.728514,-0.048111,0.676215 END:
KINECT_DATA POSITION:15.944552,-1.736349,-6.540442 HEAD_JOINT1:0.983519,0.163543,-0.000000,0.077102 LARM_JOINT2:0.824679,0.000000,0.007883,-0.565546 LARM_JOINT3:0.977767,0.000000,-0.155581,-0.140593 LLEG_JOINT2:0.997952,0.034311,0.000000,0.053980 LLEG_JOINT4:0.996096,0.082191,0.000000,-0.032220 RARM_JOINT2:0.804029,0.000000,-0.049694,0.592510 RARM_JOINT3:0.963697,0.000000,0.216106,0.156798 RLEG_JOINT2:0.999432,0.004497,0.000000,-0.033404 RLEG_JOINT4:0.993088,0.113025,0.000000,0.031663 WAIST:0.999855,0.000000,-0.013808,-0.009997 WAIST_JOINT0:0.999826,0.000000,-0.018516,0.002468 WAIST_JOINT1:0.997301,0.073097,0.000000,-0.006834 END:
KINECT_DATA_Sensor  AnkleLeft:0.074199,0.721110,-0.090073,-0.682922 AnkleRight:0.077710,0.701916,0.088536,0.702451 ElbowLeft:-0.006832,0.891489,-0.183517,-0.414151 ElbowRight:0.018740,0.848446,0.198318,0.490366 FootLeft:0.000000,0.000000,0.000000,0.000000 FootRight:0.000000,0.000000,0.000000,0.000000 HandLeft:-0.048018,0.780480,-0.014479,0.623166 HandRight:-0.084775,0.741979,-0.094622,0.658276 HandTipLeft:0.000000,0.000000,0.000000,0.000000 HandTipRight:0.000000,0.000000,0.000000,0.000000 Head:0.000000,0.000000,0.000000,0.000000 HipLeft:0.127175,-0.684062,0.695735,-0.178431 HipRight:-0.105359,0.672873,0.712507,-0.168746 KneeLeft:-0.007619,0.717118,-0.055189,-0.694722 KneeRight:-0.027111,0.697033,0.034160,0.715712 Neck:0.017721,-0.016456,0.995663,-0.089836 ShoulderLeft:0.018521,0.782009,-0.618727,0.072773 ShoulderRight:0.042263,0.783399,0.618539,-0.043682 SpineBase:0.013994,-0.015030,0.998674,-0.047202 SpineMid:0.015598,-0.015106,0.998650,-0.047178 SpineShoulder:0.017466,-0.015873,0.997424,-0.067741 ThumbLeft:0.000000,0.000000,0.000000,0.000000 ThumbRight:0.000000,0.000000,0.000000,0.000000 WristLeft:-0.048794,0.782069,-0.079295,0.616198 WristRight:-0.099398,0.741554,-0.050383,0.661573 END:
KINECT_DATA POSITION:15.985526,-1.750961,-6.449866 HEAD_JOINT1:0.983811,0.162957,-0.000000,0.074573 LARM_JOINT2:0.824315,0.000000,0.008658,-0.566066 LARM_JOINT3:0.978544,0.000000,-0.155596,-0.135064 LLEG_JOINT2:0.997913,0.035229,0.000000,0.054114 LLEG_JOINT4:0.996295,0.080350,0.000000,-0.030672 RARM_JOINT2:0.804411,0.000000,-0.050112,0.591956 RARM_JOINT3:0.965607,0.000000,0.207474,0.156709 RLEG_JOINT2:0.999452,0.003774,0.000000,-0.032899 RLEG_JOINT4:0.993122,0.113326,0.000000,0.029410 WAIST:0.999848,0.000000,-0.014115,-0.010240 WAIST_JOINT0:0.999864,0.000000,-0.016108,0.003515 WAIST_JOINT1:0.997372,0.072148,0.000000,-0.006674 END:
KINECT_DATA_Sensor  AnkleLeft:0.071761,0.715933,-0.091055,-0.688476 AnkleRight:0.076294,0.703518,0.089486,0.700881 ElbowLeft:-0.008214,0.888476,-0.182704,-0.420906 ElbowRight:0.018603,0.849829,0.198604,0.487854 FootLeft:0.000000,0.000000,0.000000,0.000000 FootRight:0.000000,0.000000,0.000000,0.000000 HandLeft:-0.039531,0.716696,-0.027445,0.695723 HandRight:-0.065570,0.758337,-0.063466,0.645444 HandTipLeft:0.000000,0.000000,0.000000,0.000000 HandTipRight:0.000000,0.000000,0.000000,0.000000 Head:0.000000,0.000000,0.000000,0.000000 HipLeft:0.127767,-0.684284,0.695479,-0.178157 HipRight:-0.105572,0.672858,0.712646,-0.168081 KneeLeft:-0.006918,0.717377,-0.055764,-0.694415 KneeRight:-0.027442,0.696800,0.033472,0.715959 Neck:0.015198,-0.016429,0.995794,-0.088844 ShoulderLeft:0.018975,0.781933,-0.619054,0.070664 ShoulderRight:0.039518,0.784628,0.617041,-0.045368 SpineBase:0.014317,-0.015119,0.998700,-0.046518 SpineMid:0.014509,-0.015128,0.998698,-0.046515 SpineShoulder:0.014954,-0.015704,0.997526,-0.066867 ThumbLeft:0.000000,0.000000,0.000000,0.000000 ThumbRight:0.000000,0.000000,0.000000,0.000000 WristLeft:-0.039280,0.718294,-0.086364,0.689240 WristRight:-0.100263,0.755113,-0.050249,0.645931 END:
KINECT_DATA POSITION:16.021906,-1.753609,-6.415331 HEAD_JOINT1:0.983929,0.162559,-0.000000,0.073884 LARM_JOINT2:0.824287,0.000000,0.009436,-0.566094 LARM_JOINT3:0.978699,0.000000,-0.153620,-0.136197 LLEG_JOINT2:0.997917,0.035392,0.000000,0.053938 LLEG_JOINT4:0.996377,0.079740,0.000000,-0.029564 RARM_JOINT2:0.804477,0.000000,-0.050707,0.591815 RARM_JOINT3:0.966889,0.000000,0.201761,0.156263 RLEG_JOINT2:0.999460,0.003642,0.000000,-0.032647 RLEG_JOINT4:0.993056,0.114336,0.000000,0.027681 WAIST:0.999827,0.000000,-0.015526,-0.010282 WAIST_JOINT0:0.999864,0.000000,-0.016129,0.003381 WAIST_JOINT1:0.997381,0.071987,0.000000,-0.007037 END:
KINECT_DATA_Sensor  AnkleLeft:0.070567,0.716178,-0.091541,-0.688280 AnkleRight:0.076168,0.703570,0.090953,0.700654 ElbowLeft:-0.008558,0.887443,-0.182491,-0.423165 ElbowRight:0.019607,0.850719,0.199109,0.486054 FootLeft:0.000000,0.000000,0.000000,0.000000 FootRight:0.000000,0.000000,0.000000,0.000000 HandLeft:-0.041287,0.790935,-0.009692,0.610429 HandRight:-0.054086,0.743617,-0.047561,0.664715 HandTipLeft:0.000000,0.000000,0.000000,0.000000 HandTipRight:0.000000,0.000000,0.000000,0.000000 Head:0.000000,0.000000,0.000000,0.000000 HipLeft:0.128470,-0.684140,0.695280,-0.178978 HipRight:-0.104511,0.673026,0.712803,-0.167407 KneeLeft:-0.006737,0.718360,-0.055708,-0.693405 KneeRight:-0.027354,0.695807,0.033257,0.716937 Neck:0.015232,-0.016623,0.995816,-0.088561 ShoulderLeft:0.019046,0.782435,-0.618437,0.070486 ShoulderRight:0.039623,0.784878,0.616732,-0.045140 SpineBase:0.015719,-0.015298,0.998668,-0.046703 SpineMid:0.015235,-0.015275,0.998675,-0.046710 SpineShoulder:0.014985,-0.015914,0.997527,-0.066792 ThumbLeft:0.000000,0.000000,0.000000,0.000000 ThumbRight:0.000000,0.000000,0.000000,0.000000 WristLeft:-0.047904,0.792034,-0.082237,0.603013 WristRight:-0.097488,0.739658,-0.051772,0.663869 END:
KINECT_DATA POSITION:16.035767,-1.759215,-6.394792 HEAD_JOINT1:0.983984,0.162869,-0.000000,0.072450 LARM_JOINT2:0.824533,0.000000,0.009361,-0.565736 LARM_JOINT3:0.978266,0.000000,-0.154433,-0.138370 LLEG_JOINT2:0.997883,0.035932,0.000000,0.054213 LLEG_JOINT4:0.996246,0.080799,0.000000,-0.031056 RARM_JOINT2:0.804642,0.000000,-0.050535,0.591605 RARM_JOINT3:0.966658,0.000000,0.203231,0.155785 RLEG_JOINT2:0.999470,0.002182,0.000000,-0.032493 RLEG_JOINT4:0.992966,0.115415,0.000000,0.026414 WAIST:0.999813,0.000000,-0.016236,-0.010525 WAIST_JOINT0:0.999852,0.000000,-0.016920,0.003034 WAIST_JOINT1:0.997394,0.071815,0.000000,-0.006863 END:
KINECT_DATA_Sensor  AnkleLeft:0.072623,0.716275,-0.091711,-0.687943 AnkleRight:0.075064,0.703323,0.091607,0.700935 ElbowLeft:-0.008746,0.888478,-0.182704,-0.420893 ElbowRight:0.019847,0.851644,0.199196,0.484385 FootLeft:0.000000,0.000000,0.000000,0.000000 FootRight:0.000000,0.000000,0.000000,0.000000 HandLeft:-0.050662,0.793825,-0.006602,0.605996 HandRight:-0.063930,0.733593,-0.051643,0.674602 HandTipLeft:0.000000,0.000000,0.000000,0.000000 HandTipRight:0.000000,0.000000,0.000000,0.000000 Head:0.000000,0.000000,0.000000,0.000000 HipLeft:0.128928,-0.684173,0.695052,-0.179412 HipRight:-0.104109,0.672938,0.713039,-0.167004 KneeLeft:-0.006430,0.718880,-0.056105,-0.692837 KneeRight:-0.028451,0.695278,0.032317,0.717450 Neck:0.016046,-0.016619,0.995824,-0.088327 ShoulderLeft:0.018161,0.782696,-0.618054,0.071180 ShoulderRight:0.039762,0.784881,0.616760,-0.044590 SpineBase:0.016445,-0.015383,0.998655,-0.046699 SpineMid:0.016003,-0.015362,0.998662,-0.046706 SpineShoulder:0.015798,-0.015951,0.997524,-0.066640 ThumbLeft:0.000000,0.000000,0.000000,0.000000 ThumbRight:0.000000,0.000000,0.000000,0.000000 WristLeft:-0.048052,0.796328,-0.081566,0.597411 WristRight:-0.095833,0.730573,-0.052620,0.674025 END:
KINECT_DATA POSITION:16.047113,-1.773334,-6.373048 HEAD_JOINT1:0.984421,0.160545,-0.000000,0.071703 LARM_JOINT2:0.824815,0.000000,0.008929,-0.565332 LARM_JOINT3:0.977630,0.000000,-0.156545,-0.140477 LLEG_JOINT2:0.997883,0.036286,0.000000,0.053975 LLEG_JOINT4:0.996184,0.081674,0.000000,-0.030784 RARM_JOINT2:0.806943,0.000000,-0.037056,0.589466 RARM_JOINT3:0.962332,0.000000,0.226298,0.150685 RLEG_JOINT2:0.999469,0.002440,0.000000,-0.032502 RLEG_JOINT4:0.992900,0.115825,0.000000,0.027112 WAIST:0.999806,0.000000,-0.016533,-0.010739 WAIST_JOINT0:0.999866,0.000000,-0.016115,0.003035 WAIST_JOINT1:0.997414,0.071559,0.000000,-0.006692 END:
KINECT_DATA_Sensor  AnkleLeft:0.073489,0.715713,-0.092547,-0.688323 AnkleRight:0.077016,0.711555,0.090744,0.692476 ElbowLeft:-0.009190,0.889435,-0.182825,-0.418803 ElbowRight:0.009970,0.856250,0.197204,0.477333 FootLeft:0.000000,0.000000,0.000000,0.000000 FootRight:0.000000,0.000000,0.000000,0.000000 HandLeft:-0.062876,0.803760,-0.006282,0.591589 HandRight:-0.139002,0.679587,-0.110695,0.711749 HandTipLeft:0.000000,0.000000,0.000000,0.000000 HandTipRight:0.000000,0.000000,0.000000,0.000000 Head:0.000000,0.000000,0.000000,0.000000 HipLeft:0.129142,-0.684300,0.694878,-0.179448 HipRight:-0.104005,0.672881,0.713202,-0.166602 KneeLeft:-0.005879,0.719114,-0.056038,-0.692604 KneeRight:-0.028415,0.695043,0.032659,0.717664 Neck:0.015298,-0.016542,0.995867,-0.087986 ShoulderLeft:0.017921,0.783036,-0.617665,0.070875 ShoulderRight:0.038542,0.785063,0.616540,-0.045482 SpineBase:0.016762,-0.015355,0.998659,-0.046508 SpineMid:0.015792,-0.015310,0.998675,-0.046523 SpineShoulder:0.015047,-0.015909,0.997551,-0.066432 ThumbLeft:0.000000,0.000000,0.000000,0.000000 ThumbRight:0.000000,0.000000,0.000000,0.000000 WristLeft:-0.049865,0.807534,-0.080488,0.582171 WristRight:-0.098133,0.684652,-0.066251,0.719188 END:
KINECT_DATA POSITION:16.023994,-1.777043,-6.328666 HEAD_JOINT1:0.986413,0.150020,-0.000000,0.066962 LARM_JOINT2:0.824364,0.000000,0.008265,-0.565999 LARM_JOINT3:0.977053,0.000000,-0.158348,-0.142456 LLEG_JOINT2:0.997905,0.035437,0.000000,0.054132 LLEG_JOINT4:0.996033,0.083462,0.000000,-0.030847 RARM_JOINT2:0.819235,0.000000,0.053594,0.570948 RARM_JOINT3:0.957864,0.000000,0.254445,0.133247 RLEG_JOINT2:0.999467,0.003006,0.000000,-0.032508 RLEG_JOINT4:0.993006,0.114319,0.000000,0.029503 WAIST:0.999804,0.000000,-0.016432,-0.011027 WAIST_JOINT0:0.999920,0.000000,-0.012059,0.003688 WAIST_JOINT1:0.997578,0.069271,0.000000,-0.006357 END:
KINECT_DATA_Sensor  AnkleLeft:0.074006,0.713401,-0.093296,-0.690564 AnkleRight:0.076925,0.705628,0.089240,0.698719 ElbowLeft:-0.011496,0.889064,-0.180874,-0.420377 ElbowRight:-0.067240,0.860648,0.179941,0.471578 FootLeft:0.000000,0.000000,0.000000,0.000000 FootRight:0.000000,0.000000,0.000000,0.000000 HandLeft:-0.070427,0.779605,-0.006235,0.622268 HandRight:-0.206433,0.747165,-0.160506,0.611038 HandTipLeft:0.000000,0.000000,0.000000,0.000000 HandTipRight:0.000000,0.000000,0.000000,0.000000 Head:0.000000,0.000000,0.000000,0.000000 HipLeft:0.129703,-0.684627,0.694609,-0.178835 HipRight:-0.104635,0.672764,0.713320,-0.166177 KneeLeft:-0.006376,0.719043,-0.055336,-0.692729 KneeRight:-0.028219,0.695100,0.033259,0.717589 Neck:0.011300,-0.016240,0.996211,-0.084691 ShoulderLeft:0.017484,0.783425,-0.617532,0.067780 ShoulderRight:0.032964,0.785960,0.615480,-0.048626 SpineBase:0.016673,-0.015617,0.998697,-0.045642 SpineMid:0.013762,-0.015484,0.998741,-0.045688 SpineShoulder:0.011060,-0.015655,0.997731,-0.064543 ThumbLeft:0.000000,0.000000,0.000000,0.000000 ThumbRight:0.000000,0.000000,0.000000,0.000000 WristLeft:-0.051278,0.785169,-0.083652,0.611459 WristRight:-0.174010,0.754353,-0.103768,0.624423 END:
KINECT_DATA POSITION:16.063437,-1.762964,-6.279290 HEAD_JOINT1:0.987488,0.146316,-0.000000,0.058811 LARM_JOINT2:0.821138,0.000000,0.009447,-0.570652 LARM_JOINT3:0.978998,0.000000,-0.149589,-0.138513 LLEG_JOINT2:0.997901,0.035967,0.000000,0.053855 LLEG_JOINT4:0.995876,0.085282,0.000000,-0.030966 RARM_JOINT2:0.829088,0.000000,0.165294,0.534126 RARM_JOINT3:0.958141,0.000000,0.269100,0.097732 RLEG_JOINT2:0.999429,0.003660,0.000000,-0.033590 RLEG_JOINT4:0.992604,0.116588,0.000000,0.033816 WAIST:0.999816,0.000000,-0.015194,-0.011697 WAIST_JOINT0:0.999977,-0.000000,0.002873,0.006081 WAIST_JOINT1:0.997996,0.063187,0.000000,-0.003379 END:
KINECT_DATA_Sensor  AnkleLeft:0.075512,0.704926,-0.094948,-0.698829 AnkleRight:0.081607,0.713052,0.088579,0.690688 ElbowLeft:-0.014571,0.887653,-0.175672,-0.425440 ElbowRight:-0.165548,0.859548,0.147952,0.460305 FootLeft:0.000000,0.000000,0.000000,0.000000 FootRight:0.000000,0.000000,0.000000,0.000000 HandLeft:-0.039396,0.857558,0.006122,0.512840 HandRight:-0.330211,0.937671,-0.034492,0.102681 HandTipLeft:0.000000,0.000000,0.000000,0.000000 HandTipRight:0.000000,0.000000,0.000000,0.000000 Head:0.000000,0.000000,0.000000,0.000000 HipLeft:0.130627,-0.685511,0.694059,-0.176901 HipRight:-0.107702,0.672557,0.713341,-0.164962 KneeLeft:-0.005253,0.718275,-0.055066,-0.693557 KneeRight:-0.029011,0.695823,0.034934,0.716777 Neck:-0.003463,-0.012511,0.996848,-0.078261 ShoulderLeft:0.016710,0.783013,-0.619140,0.057248 ShoulderRight:0.013002,0.788213,0.612204,-0.061306 SpineBase:0.015523,-0.014713,0.998852,-0.042860 SpineMid:0.005829,-0.014296,0.998956,-0.043001 SpineShoulder:-0.003753,-0.012957,0.998183,-0.058731 ThumbLeft:0.000000,0.000000,0.000000,0.000000 ThumbRight:0.000000,0.000000,0.000000,0.000000 WristLeft:-0.067011,0.856454,-0.077380,0.505973 WristRight:-0.302399,0.946325,-0.004512,0.114032 END:
KINECT_DATA POSITION:16.149307,-1.736569,-6.167090 HEAD_JOINT1:0.988494,0.142687,-0.000000,0.050193 LARM_JOINT2:0.819220,0.000000,0.012829,-0.573335 LARM_JOINT3:0.979517,0.000000,-0.148484,-0.136013 LLEG_JOINT2:0.998016,0.035903,0.000000,0.051730 LLEG_JOINT4:0.996211,0.082710,0.000000,-0.026876 RARM_JOINT2:0.836655,0.000000,0.218193,0.502394 RARM_JOINT3:0.962778,0.000000,0.256310,0.085806 RLEG_JOINT2:0.999300,0.004353,0.000000,-0.037146 RLEG_JOINT4:0.992671,0.114951,0.000000,0.037288 WAIST:0.999882,0.000000,-0.010025,-0.011663 WAIST_JOINT0:0.999819,-0.000000,0.016993,0.008529 WAIST_JOINT1:0.998256,0.059033,0.000000,-0.000792 END:
KINECT_DATA_Sensor  AnkleLeft:-0.072209,-0.697524,0.094560,0.706615 AnkleRight:0.081023,0.720843,0.087895,0.682712 ElbowLeft:-0.016123,0.880927,-0.174447,-0.439632 ElbowRight:-0.217058,0.863802,0.138263,0.433145 FootLeft:0.000000,0.000000,0.000000,0.000000 FootRight:0.000000,0.000000,0.000000,0.000000 HandLeft:-0.038579,0.772231,0.001141,0.634169 HandRight:-0.066038,0.164286,-0.332408,0.926366 HandTipLeft:0.000000,0.000000,0.000000,0.000000 HandTipRight:0.000000,0.000000,0.000000,0.000000 Head:0.000000,0.000000,0.000000,0.000000 HipLeft:0.130036,-0.686515,0.694195,-0.172862 HipRight:-0.114286,0.672452,0.712229,-0.165761 KneeLeft:-0.003481,0.714713,-0.053622,-0.697350 KneeRight:-0.031121,0.699298,0.037823,0.713150 Neck:-0.017498,-0.009432,0.997043,-0.074229 ShoulderLeft:0.020022,0.782331,-0.620851,0.045839 ShoulderRight:-0.001874,0.789738,0.609216,-0.071873 SpineBase:0.010412,-0.012852,0.999092,-0.039272 SpineMid:-0.003704,-0.012296,0.999139,-0.039450 SpineShoulder:-0.017799,-0.010390,0.998298,-0.054555 ThumbLeft:0.000000,0.000000,0.000000,0.000000 ThumbRight:0.000000,0.000000,0.000000,0.000000 WristLeft:-0.053441,0.774327,-0.091162,0.623900 WristRight:-0.089889,0.155316,-0.326457,0.928021 END:
KINECT_DATA POSITION:16.178513,-1.737671,-6.099999 HEAD_JOINT1:0.988673,0.142443,-0.000000,0.047276 LARM_JOINT2:0.818264,0.000000,0.014840,-0.574652 LARM_JOINT3:0.979477,0.000000,-0.149325,-0.135380 LLEG_JOINT2:0.998087,0.035473,0.000000,0.050629 LLEG_JOINT4:0.996185,0.083743,0.000000,-0.024544 RARM_JOINT2:0.834590,0.000000,0.265606,0.482611 RARM_JOINT3:0.971021,0.000000,0.233164,0.052477 RLEG_JOINT2:0.999239,0.004949,0.000000,-0.038693 RLEG_JOINT4:0.992623,0.114331,0.000000,0.040340 WAIST:0.999910,0.000000,-0.006692,-0.011591 WAIST_JOINT0:0.999658,-0.000000,0.024279,0.009737 WAIST_JOINT1:0.998317,0.058000,-0.000000,0.000021 END:
KINECT_DATA_Sensor  AnkleLeft:-0.071806,-0.693510,0.095854,0.710423 AnkleRight:0.081995,0.724583,0.086802,0.678765 ElbowLeft:-0.014143,0.880491,-0.174197,-0.440671 ElbowRight:-0.257028,0.856131,0.113500,0.433698 FootLeft:0.000000,0.000000,0.000000,0.000000 FootRight:0.000000,0.000000,0.000000,0.000000 HandLeft:-0.041912,0.805808,-0.002247,0.590688 HandRight:-0.134773,0.197829,-0.325850,0.914616 HandTipLeft:0.000000,0.000000,0.000000,0.000000 HandTipRight:0.000000,0.000000,0.000000,0.000000 Head:0.000000,0.000000,0.000000,0.000000 HipLeft:0.129169,-0.687077,0.694401,-0.170432 HipRight:-0.117782,0.672320,0.711570,-0.166677 KneeLeft:-0.002848,0.712382,-0.052631,-0.699810 KneeRight:-0.031832,0.701590,0.039215,0.710788 Neck:-0.024729,-0.008551,0.996960,-0.073397 ShoulderLeft:0.020421,0.782513,-0.620870,0.042150 ShoulderRight:-0.010818,0.790723,0.606904,-0.079420 SpineBase:0.007096,-0.012072,0.999192,-0.037661 SpineMid:-0.008951,-0.011465,0.999178,-0.037850 SpineShoulder:-0.025026,-0.009514,0.998210,-0.053472 ThumbLeft:0.000000,0.000000,0.000000,0.000000 ThumbRight:0.000000,0.000000,0.000000,0.000000 WristLeft:-0.056671,0.806603,-0.086729,0.581943 WristRight:-0.124112,0.202826,-0.347143,0.907166 END:
KINECT_DATA POSITION:16.203871,-1.752719,-6.050181 HEAD_JOINT1:0.988454,0.144783,-0.000000,0.044678 LARM_JOINT2:0.818536,0.000000,0.015856,-0.574236 LARM_JOINT3:0.979036,0.000000,-0.151752,-0.135866 LLEG_JOINT2:0.998111,0.035638,0.000000,0.050038 LLEG_JOINT4:0.996250,0.083194,0.000000,-0.023747 RARM_JOINT2:0.833589,0.000000,0.328258,0.444270 RARM_JOINT3:0.975130,0.000000,0.221523,0.006965 RLEG_JOINT2:0.999199,0.005366,0.000000,-0.039656 RLEG_JOINT4:0.992312,0.116356,0.000000,0.042174 WAIST:0.999915,0.000000,-0.006021,-0.011589 WAIST_JOINT0:0.999454,-0.000000,0.030805,0.011974 WAIST_JOINT1:0.998372,0.057027,-0.000000,0.001146 END:
KINECT_DATA_Sensor  AnkleLeft:0.075546,0.723335,-0.092492,-0.680091 AnkleRight:0.084731,0.727658,0.087450,0.675046 ElbowLeft:-0.014388,0.881092,-0.175602,-0.438900 ElbowRight:-0.315007,0.831265,0.076637,0.451548 FootLeft:0.000000,0.000000,0.000000,0.000000 FootRight:0.000000,0.000000,0.000000,0.000000 HandLeft:-0.051328,0.762535,-0.016678,0.644692 HandRight:-0.230554,0.300773,-0.356640,0.853925 HandTipLeft:0.000000,0.000000,0.000000,0.000000 HandTipRight:0.000000,0.000000,0.000000,0.000000 Head:0.000000,0.000000,0.000000,0.000000 HipLeft:0.129072,-0.687391,0.694431,-0.169115 HipRight:-0.118950,0.672563,0.711385,-0.165655 KneeLeft:-0.002274,0.711919,-0.052341,-0.700305 KneeRight:-0.032233,0.702003,0.040173,0.710309 Neck:-0.031334,-0.007086,0.996846,-0.072566 ShoulderLeft:0.019202,0.782174,-0.621479,0.039994 ShoulderRight:-0.020635,0.792533,0.603192,-0.087324 SpineBase:0.006442,-0.011240,0.999257,-0.036300 SpineMid:-0.012545,-0.010549,0.999199,-0.036507 SpineShoulder:-0.031624,-0.008149,0.998089,-0.052462 ThumbLeft:0.000000,0.000000,0.000000,0.000000 ThumbRight:0.000000,0.000000,0.000000,0.000000 WristLeft:-0.049120,0.765156,-0.090701,0.635529 WristRight:-0.203607,0.313765,-0.373693,0.848793 END:
KINECT_DATA POSITION:16.196342,-1.726118,-6.108093 HEAD_JOINT1:0.988285,0.145433,-0.000000,0.046273 LARM_JOINT2:0.818886,0.000000,0.016651,-0.573714 LARM_JOINT3:0.979851,0.000000,-0.144478,-0.137906 LLEG_JOINT2:0.998153,0.035739,0.000000,0.049128 LLEG_JOINT4:0.996277,0.083450,0.000000,-0.021656 RARM_JOINT2:0.835810,0.000000,0.414736,0.359744 RARM_JOINT3:0.984504,0.000000,0.174916,0.012490 RLEG_JOINT2:0.999122,0.006935,0.000000,-0.041321 RLEG_JOINT4:0.992436,0.114615,0.000000,0.043974 WAIST:0.999927,0.000000,-0.004657,-0.011134 WAIST_JOINT0:0.999220,-0.000000,0.038014,0.010734 WAIST_JOINT1:0.998337,0.057628,-0.000000,0.001296 END:
KINECT_DATA_Sensor  AnkleLeft:-0.069845,-0.686092,0.097586,0.717549 AnkleRight:0.085255,0.731426,0.086642,0.670999 ElbowLeft:-0.013507,0.880463,-0.177275,-0.439518 ElbowRight:-0.395614,0.854964,0.094495,0.321866 FootLeft:0.000000,0.000000,0.000000,0.000000 FootRight:0.000000,0.000000,0.000000,0.000000 HandLeft:-0.027965,0.806658,0.006174,0.590325 HandRight:-0.272621,0.304946,-0.409641,0.815402 HandTipLeft:0.000000,0.000000,0.000000,0.000000 HandTipRight:0.000000,0.000000,0.000000,0.000000 Head:0.000000,0.000000,0.000000,0.000000 HipLeft:0.127813,-0.687421,0.695012,-0.167558 HipRight:-0.119861,0.672929,0.710985,-0.165228 KneeLeft:-0.001796,0.710942,-0.052107,-0.701315 KneeRight:-0.032009,0.702937,0.042106,0.709283 Neck:-0.038424,-0.006227,0.996546,-0.073360 ShoulderLeft:0.019782,0.781615,-0.622265,0.038370 ShoulderRight:-0.029389,0.789849,0.604896,-0.096825 SpineBase:0.005079,-0.010177,0.999300,-0.035633 SpineMid:-0.016732,-0.009397,0.999173,-0.035847 SpineShoulder:-0.038709,-0.007257,0.997816,-0.053029 ThumbLeft:0.000000,0.000000,0.000000,0.000000 ThumbRight:0.000000,0.000000,0.000000,0.000000 WristLeft:-0.054387,0.806664,-0.087322,0.581988 WristRight:-0.224976,0.327691,-0.390451,0.830393 END:
KINECT_DATA POSITION:16.188726,-1.590423,-6.343520 HEAD_JOINT1:0.987572,0.151146,-0.000000,0.043079 LARM_JOINT2:0.818682,0.000000,0.021839,-0.573832 LARM_JOINT3:0.979392,0.000000,-0.145397,-0.140181 LLEG_JOINT2:0.998328,0.032891,0.000000,0.047529 LLEG_JOINT4:0.995944,0.087471,0.000000,-0.021081 RARM_JOINT2:0.837544,0.000000,0.441704,0.321587 RARM_JOINT3:0.983431,0.000000,0.177896,-0.034888 RLEG_JOINT2:0.999015,0.007535,0.000000,-0.043730 RLEG_JOINT4:0.992398,0.113367,0.000000,0.047904 WAIST:0.999950,0.000000,-0.001323,-0.009874 WAIST_JOINT0:0.998870,-0.000000,0.047204,0.005584 WAIST_JOINT1:0.998192,0.060001,-0.000000,0.003605 END:
KINECT_DATA_Sensor  AnkleLeft:0.076182,0.722255,-0.094313,-0.680918 AnkleRight:0.086656,0.736007,0.084133,0.666113 ElbowLeft:-0.008133,0.878978,-0.183221,-0.440183 ElbowRight:-0.434704,0.808557,0.043348,0.394194 FootLeft:0.000000,0.000000,0.000000,0.000000 FootRight:0.000000,0.000000,0.000000,0.000000 HandLeft:-0.017471,0.830982,0.007563,0.555974 HandRight:-0.356619,0.366187,-0.430174,0.744097 HandTipLeft:0.000000,0.000000,0.000000,0.000000 HandTipRight:0.000000,0.000000,0.000000,0.000000 Head:0.000000,0.000000,0.000000,0.000000 HipLeft:0.123841,-0.686882,0.696464,-0.166719 HipRight:-0.120996,0.673453,0.709862,-0.167083 KneeLeft:-0.003376,0.708505,-0.049884,-0.703933 KneeRight:-0.032511,0.705222,0.043263,0.706919 Neck:-0.047421,-0.001733,0.995972,-0.076078 ShoulderLeft:0.017415,0.779706,-0.624591,0.040505 ShoulderRight:-0.044235,0.780995,0.612564,-0.113384 SpineBase:0.001772,-0.007560,0.999282,-0.037092 SpineMid:-0.022874,-0.006643,0.999021,-0.037267 SpineShoulder:-0.047727,-0.003653,0.997332,-0.055119 ThumbLeft:0.000000,0.000000,0.000000,0.000000 ThumbRight:0.000000,0.000000,0.000000,0.000000 WristLeft:-0.053603,0.829319,-0.083574,0.549884 WristRight:-0.304571,0.394700,-0.407527,0.765095 END:
KINECT_DATA POSITION:16.095043,-1.421245,-6.557727 HEAD_JOINT1:0.986800,0.157902,-0.000000,0.035945 LARM_JOINT2:0.818383,0.000000,0.017997,-0.574391 LARM_JOINT3:0.979119,0.000000,-0.142300,-0.145176 LLEG_JOINT2:0.998562,0.029049,0.000000,0.045066 LLEG_JOINT4:0.996241,0.084485,0.000000,-0.019131 RARM_JOINT2:0.839726,0.000000,0.487421,0.239333 RARM_JOINT3:0.990092,0.000000,0.140400,0.002189 RLEG_JOINT2:0.998983,0.010666,0.000000,-0.043801 RLEG_JOINT4:0.993104,0.108566,0.000000,0.044252 WAIST:0.999957,0.000000,0.006361,-0.006694 WAIST_JOINT0:0.997885,-0.000000,0.064851,0.004376 WAIST_JOINT1:0.997888,0.064538,-0.000000,0.007354 END:
KINECT_DATA_Sensor  AnkleLeft:-0.064105,-0.671545,0.095449,0.731989 AnkleRight:0.084906,0.745436,0.083665,0.655832 ElbowLeft:-0.006446,0.879159,-0.189539,-0.437165 ElbowRight:-0.487744,0.832992,0.098942,0.241747 FootLeft:0.000000,0.000000,0.000000,0.000000 FootRight:0.000000,0.000000,0.000000,0.000000 HandLeft:-0.014291,0.845081,0.017162,0.534172 HandRight:-0.449447,0.560188,-0.320840,0.617453 HandTipLeft:0.000000,0.000000,0.000000,0.000000 HandTipRight:0.000000,0.000000,0.000000,0.000000 Head:0.000000,0.000000,0.000000,0.000000 HipLeft:0.116362,-0.685358,0.699748,-0.164609 HipRight:-0.124516,0.674459,0.707043,-0.172311 KneeLeft:0.006199,-0.702911,0.047760,0.709646 KneeRight:-0.028392,0.710766,0.043099,0.701532 Neck:-0.065472,0.006044,0.994528,-0.081183 ShoulderLeft:0.024758,0.776470,-0.628688,0.035112 ShoulderRight:-0.061520,0.774402,0.614862,-0.135873 SpineBase:-0.005938,-0.003160,0.999183,-0.039847 SpineMid:-0.035713,-0.001971,0.998562,-0.039924 SpineShoulder:-0.065734,0.003514,0.996082,-0.059060 ThumbLeft:0.000000,0.000000,0.000000,0.000000 ThumbRight:0.000000,0.000000,0.000000,0.000000 WristLeft:-0.049471,0.843915,-0.083364,0.527646 WristRight:-0.407770,0.583766,-0.319565,0.625156 END:
KINECT_DATA POSITION:16.032358,-1.301676,-6.678927 HEAD_JOINT1:0.986650,0.160017,-0.000000,0.030280 LARM_JOINT2:0.817503,0.000000,0.017624,-0.575654 LARM_JOINT3:0.978967,0.000000,-0.143923,-0.144600 LLEG_JOINT2:0.998719,0.025391,0.000000,0.043778 LLEG_JOINT4:0.996106,0.086371,0.000000,-0.017693 RARM_JOINT2:0.844938,0.000000,0.493791,0.205547 RARM_JOINT3:0.992148,0.000000,0.123780,0.017918 RLEG_JOINT2:0.998897,0.010917,0.000000,-0.045673 RLEG_JOINT4:0.993026,0.108827,0.000000,0.045334 WAIST:0.999905,0.000000,0.013086,-0.004317 WAIST_JOINT0:0.997044,-0.000000,0.076643,0.005411 WAIST_JOINT1:0.997665,0.067726,-0.000000,0.008824 END:
KINECT_DATA_Sensor  AnkleLeft:-0.061539,-0.665137,0.095614,0.738013 AnkleRight:0.085986,0.751319,0.083214,0.649000 ElbowLeft:-0.003426,0.876104,-0.192852,-0.441857 ElbowRight:-0.497338,0.840611,0.149105,0.154260 FootLeft:0.000000,0.000000,0.000000,0.000000 FootRight:0.000000,0.000000,0.000000,0.000000 HandLeft:-0.018388,0.813334,0.005373,0.581482 HandRight:-0.484309,0.562716,-0.285913,0.605846 HandTipLeft:0.000000,0.000000,0.000000,0.000000 HandTipRight:0.000000,0.000000,0.000000,0.000000 Head:0.000000,0.000000,0.000000,0.000000 HipLeft:0.109762,-0.684212,0.702404,-0.162588 HipRight:-0.127393,0.674952,0.704964,-0.176739 KneeLeft:0.009253,-0.698027,0.046039,0.714530 KneeRight:-0.028139,0.715451,0.042743,0.696786 Neck:-0.077752,0.009728,0.993364,-0.084187 ShoulderLeft:0.032813,0.774626,-0.630881,0.029437 ShoulderRight:-0.070066,0.772442,0.613413,-0.148825 SpineBase:-0.012672,0.000321,0.999026,-0.042257 SpineMid:-0.045132,0.001694,0.998087,-0.042224 SpineShoulder:-0.077940,0.007513,0.994996,-0.062061 ThumbLeft:0.000000,0.000000,0.000000,0.000000 ThumbRight:0.000000,0.000000,0.000000,0.000000 WristLeft:-0.039337,0.813236,-0.086440,0.574132 WristRight:-0.413433,0.601300,-0.306940,0.610982 END:
KINECT_DATA POSITION:16.010725,-1.204786,-6.771326 HEAD_JOINT1:0.985975,0.163833,-0.000000,0.031815 LARM_JOINT2:0.818002,0.000000,0.015855,-0.574996 LARM_JOINT3:0.979314,0.000000,-0.146655,-0.139412 LLEG_JOINT2:0.998801,0.022685,0.000000,0.043371 LLEG_JOINT4:0.995918,0.088864,0.000000,-0.015825 RARM_JOINT2:0.855959,0.000000,0.479712,0.192900 RARM_JOINT3:0.993510,0.000000,0.113075,0.012330 RLEG_JOINT2:0.998915,0.010609,0.000000,-0.045335 RLEG_JOINT4:0.993157,0.108429,0.000000,0.043388 WAIST:0.999848,0.000000,0.017055,-0.003532 WAIST_JOINT0:0.996908,-0.000000,0.078336,0.006212 WAIST_JOINT1:0.997528,0.069653,-0.000000,0.009321 END:
KINECT_DATA_Sensor  AnkleLeft:0.068564,0.725552,-0.091019,-0.678667 AnkleRight:0.084370,0.752429,0.083923,0.647834 ElbowLeft:-0.002440,0.875781,-0.194944,-0.441586 ElbowRight:-0.504011,0.830506,0.150602,0.183172 FootLeft:0.000000,0.000000,0.000000,0.000000 FootRight:0.000000,0.000000,0.000000,0.000000 HandLeft:-0.016417,0.792502,-0.018179,0.609377 HandRight:-0.497051,0.532947,-0.264218,0.631741 HandTipLeft:0.000000,0.000000,0.000000,0.000000 HandTipRight:0.000000,0.000000,0.000000,0.000000 Head:0.000000,0.000000,0.000000,0.000000 HipLeft:0.105772,-0.684127,0.703274,-0.161826 HipRight:-0.128735,0.674912,0.703926,-0.180025 KneeLeft:0.011278,-0.695163,0.044470,0.717387 KneeRight:-0.027717,0.718199,0.041631,0.694038 Neck:-0.079622,0.010597,0.993034,-0.086203 ShoulderLeft:0.036448,0.773218,-0.632437,0.028788 ShoulderRight:-0.069031,0.771868,0.613757,-0.150856 SpineBase:-0.016621,0.001605,0.998882,-0.044220 SpineMid:-0.048033,0.002995,0.997865,-0.044148 SpineShoulder:-0.079791,0.008497,0.994722,-0.063945 ThumbLeft:0.000000,0.000000,0.000000,0.000000 ThumbRight:0.000000,0.000000,0.000000,0.000000 WristLeft:-0.032257,0.791392,-0.087927,0.604091 WristRight:-0.428416,0.573659,-0.303820,0.628545 END:
KINECT_DATA POSITION:15.973863,-1.133657,-6.838369 HEAD_JOINT1:0.985156,0.168046,-0.000000,0.035053 LARM_JOINT2:0.820008,0.000000,0.014130,-0.572178 LARM_JOINT3:0.977453,0.000000,-0.156274,-0.142000 LLEG_JOINT2:0.998763,0.021241,0.000000,0.044951 LLEG_JOINT4:0.995793,0.089879,0.000000,-0.017844 RARM_JOINT2:0.865069,0.000000,0.467403,0.182184 RARM_JOINT3:0.993682,0.000000,0.112001,0.007218 RLEG_JOINT2:0.998956,0.011517,0.000000,-0.044205 RLEG_JOINT4:0.993398,0.105976,0.000000,0.043916 WAIST:0.999843,0.000000,0.017261,-0.004065 WAIST_JOINT0:0.997009,-0.000000,0.077082,0.005560 WAIST_JOINT1:0.997420,0.071077,-0.000000,0.010039 END:
KINECT_DATA_Sensor  AnkleLeft:-0.061018,-0.665092,0.095519,0.738109 AnkleRight:0.083842,0.751795,0.082215,0.648857 ElbowLeft:-0.002375,0.878889,-0.198202,-0.433895 ElbowRight:-0.509804,0.820062,0.154148,0.209370 FootLeft:0.000000,0.000000,0.000000,0.000000 FootRight:0.000000,0.000000,0.000000,0.000000 HandLeft:-0.045112,0.764129,-0.044984,0.641910 HandRight:-0.483501,0.487610,-0.286023,0.668322 HandTipLeft:0.000000,0.000000,0.000000,0.000000 HandTipRight:0.000000,0.000000,0.000000,0.000000 Head:0.000000,0.000000,0.000000,0.000000 HipLeft:0.104635,-0.684381,0.702908,-0.163082 HipRight:-0.128341,0.674487,0.704156,-0.180997 KneeLeft:0.013027,-0.695058,0.044233,0.717473 KneeRight:-0.026661,0.718307,0.041869,0.693954 Neck:-0.078086,0.010549,0.993028,-0.087671 ShoulderLeft:0.035872,0.773143,-0.632437,0.031404 ShoulderRight:-0.067725,0.770540,0.615486,-0.151187 SpineBase:-0.016733,0.002273,0.998814,-0.045664 SpineMid:-0.047302,0.003670,0.997834,-0.045573 SpineShoulder:-0.078234,0.008668,0.994751,-0.065376 ThumbLeft:0.000000,0.000000,0.000000,0.000000 ThumbRight:0.000000,0.000000,0.000000,0.000000 WristLeft:-0.027563,0.765671,-0.088540,0.636513 WristRight:-0.426200,0.523982,-0.322942,0.662951 END:
KINECT_DATA POSITION:15.949583,-1.051344,-6.926286 HEAD_JOINT1:0.984267,0.171960,-0.000000,0.040596 LARM_JOINT2:0.821820,0.000000,0.013277,-0.569592 LARM_JOINT3:0.978190,0.000000,-0.150164,-0.143512 LLEG_JOINT2:0.998752,0.021274,0.000000,0.045191 LLEG_JOINT4:0.995844,0.089717,0.000000,-0.015669 RARM_JOINT2:0.871248,0.000000,0.459302,0.173114 RARM_JOINT3:0.993705,0.000000,0.110701,0.017218 RLEG_JOINT2:0.999025,0.011138,0.000000,-0.042709 RLEG_JOINT4:0.993603,0.105129,0.000000,0.041236 WAIST:0.999866,0.000000,0.015830,-0.004050 WAIST_JOINT0:0.997186,-0.000000,0.074812,0.004720 WAIST_JOINT1:0.997347,0.072102,-0.000000,0.009959 END:
KINECT_DATA_Sensor  AnkleLeft:-0.059140,-0.666868,0.097143,0.736446 AnkleRight:0.082226,0.750849,0.082183,0.650162 ElbowLeft:-0.003338,0.879920,-0.201071,-0.430465 ElbowRight:-0.509554,0.818240,0.174516,0.200953 FootLeft:0.000000,0.000000,0.000000,0.000000 FootRight:0.000000,0.000000,0.000000,0.000000 HandLeft:-0.028122,0.792237,-0.026871,0.608973 HandRight:-0.511117,0.613880,-0.185593,0.572246 HandTipLeft:0.000000,0.000000,0.000000,0.000000 HandTipRight:0.000000,0.000000,0.000000,0.000000 Head:0.000000,0.000000,0.000000,0.000000 HipLeft:0.104260,-0.684031,0.702883,-0.164888 HipRight:-0.126459,0.674591,0.704411,-0.180943 KneeLeft:0.013246,-0.696110,0.044418,0.716437 KneeRight:-0.025787,0.717308,0.040576,0.695096 Neck:-0.075403,0.010517,0.993143,-0.088723 ShoulderLeft:0.035754,0.772838,-0.632706,0.033558 ShoulderRight:-0.064404,0.768979,0.618228,-0.149386 SpineBase:-0.015268,0.002681,0.998765,-0.047197 SpineMid:-0.045224,0.004096,0.997858,-0.047095 SpineShoulder:-0.075546,0.008668,0.994892,-0.066385 ThumbLeft:0.000000,0.000000,0.000000,0.000000 ThumbRight:0.000000,0.000000,0.000000,0.000000 WristLeft:-0.029919,0.792115,-0.088552,0.603172 WristRight:-0.486629,0.634762,-0.223339,0.557126 END:
KINECT_DATA POSITION:15.914761,-0.996993,-6.984866 HEAD_JOINT1:0.983852,0.173677,-0.000000,0.043260 LARM_JOINT2:0.822986,0.000000,0.014569,-0.567874 LARM_JOINT3:0.977534,0.000000,-0.151657,-0.146382 LLEG_JOINT2:0.998715,0.021565,0.000000,0.045864 LLEG_JOINT4:0.995711,0.090698,0.000000,-0.018255 RARM_JOINT2:0.871424,0.000000,0.459853,0.170748 RARM_JOINT3:0.993691,0.000000,0.111000,0.016036 RLEG_JOINT2:0.999058,0.011061,0.000000,-0.041960 RLEG_JOINT4:0.993548,0.106344,0.000000,0.039411 WAIST:0.999889,0.000000,0.014181,-0.004528 WAIST_JOINT0:0.997475,-0.000000,0.070890,0.004211 WAIST_JOINT1:0.997282,0.072940,-0.000000,0.010445 END:
KINECT_DATA_Sensor  AnkleLeft:-0.061677,-0.668697,0.096422,0.734672 AnkleRight:0.082066,0.748925,0.084052,0.652160 ElbowLeft:-0.002770,0.880387,-0.203687,-0.428279 ElbowRight:-0.508235,0.819540,0.181912,0.192248 FootLeft:0.000000,0.000000,0.000000,0.000000 FootRight:0.000000,0.000000,0.000000,0.000000 HandLeft:-0.033551,0.794033,-0.024137,0.606468 HandRight:-0.552845,0.780776,0.022673,0.290238 HandTipLeft:0.000000,0.000000,0.000000,0.000000 HandTipRight:0.000000,0.000000,0.000000,0.000000 Head:0.000000,0.000000,0.000000,0.000000 HipLeft:0.104361,-0.684056,0.702486,-0.166405 HipRight:-0.124910,0.674512,0.704944,-0.180235 KneeLeft:0.013243,-0.697346,0.044740,0.715214 KneeRight:-0.025583,0.716106,0.040372,0.696353 Neck:-0.071290,0.010418,0.993376,-0.089512 ShoulderLeft:0.034415,0.772332,-0.633211,0.036918 ShoulderRight:-0.060394,0.768132,0.620380,-0.146474 SpineBase:-0.013548,0.003096,0.998748,-0.048048 SpineMid:-0.042303,0.004478,0.997944,-0.047939 SpineShoulder:-0.071416,0.008683,0.995139,-0.067245 ThumbLeft:0.000000,0.000000,0.000000,0.000000 ThumbRight:0.000000,0.000000,0.000000,0.000000 WristLeft:-0.029150,0.794730,-0.088547,0.599761 WristRight:-0.533808,0.801333,-0.014856,0.269617 END:
KINECT_DATA POSITION:15.906310,-0.948831,-7.059729 HEAD_JOINT1:0.983834,0.173514,-0.000000,0.044315 LARM_JOINT2:0.823278,0.000000,0.014541,-0.567453 LARM_JOINT3:0.976803,0.000000,-0.151748,-0.151089 LLEG_JOINT2:0.998716,0.021715,0.000000,0.045774 LLEG_JOINT4:0.995512,0.092691,0.000000,-0.019093 RARM_JOINT2:0.873704,0.000000,0.453489,0.176035 RARM_JOINT3:0.993942,0.000000,0.108028,0.020245 RLEG_JOINT2:0.999040,0.011246,0.000000,-0.042334 RLEG_JOINT4:0.993763,0.104349,0.000000,0.039317 WAIST:0.999907,0.000000,0.013072,-0.003990 WAIST_JOINT0:0.997725,-0.000000,0.067317,0.003664 WAIST_JOINT1:0.997269,0.073207,-0.000000,0.009719 END:
KINECT_DATA_Sensor  AnkleLeft:-0.063510,-0.670557,0.097619,0.732659 AnkleRight:0.080704,0.747253,0.082841,0.654399 ElbowLeft:-0.002653,0.881364,-0.204069,-0.426083 ElbowRight:-0.507704,0.814821,0.170863,0.221607 FootLeft:0.000000,0.000000,0.000000,0.000000 FootRight:0.000000,0.000000,0.000000,0.000000 HandLeft:-0.044556,0.826417,-0.009046,0.561221 HandRight:-0.523153,0.773850,-0.006872,0.356961 HandTipLeft:0.000000,0.000000,0.000000,0.000000 HandTipRight:0.000000,0.000000,0.000000,0.000000 Head:0.000000,0.000000,0.000000,0.000000 HipLeft:0.104613,-0.683525,0.702748,-0.167315 HipRight:-0.123956,0.675018,0.704725,-0.179858 KneeLeft:0.013505,-0.698116,0.045142,0.714432 KneeRight:-0.025300,0.715355,0.040411,0.697133 Neck:-0.067638,0.010008,0.993633,-0.089542 ShoulderLeft:0.033381,0.772205,-0.633284,0.039198 ShoulderRight:-0.056571,0.767852,0.621846,-0.143215 SpineBase:-0.012469,0.003489,0.998739,-0.048506 SpineMid:-0.039925,0.004821,0.998019,-0.048391 SpineShoulder:-0.067746,0.008434,0.995374,-0.067602 ThumbLeft:0.000000,0.000000,0.000000,0.000000 ThumbRight:0.000000,0.000000,0.000000,0.000000 WristLeft:-0.034284,0.828395,-0.086185,0.552412 WristRight:-0.533606,0.776948,-0.047092,0.330755 END:
KINECT_DATA POSITION:15.890209,-0.937708,-7.121933 HEAD_JOINT1:0.984373,0.169924,-0.000000,0.046212 LARM_JOINT2:0.823131,0.000000,0.014166,-0.567675 LARM_JOINT3:0.977136,0.000000,-0.152181,-0.148481 LLEG_JOINT2:0.998744,0.021121,0.000000,0.045433 LLEG_JOINT4:0.995595,0.091811,0.000000,-0.018998 RARM_JOINT2:0.875423,0.000000,0.447566,0.182539 RARM_JOINT3:0.993356,0.000000,0.114504,0.011549 RLEG_JOINT2:0.999062,0.009900,0.000000,-0.042154 RLEG_JOINT4:0.993760,0.104609,0.000000,0.038708 WAIST:0.999925,0.000000,0.011544,-0.003990 WAIST_JOINT0:0.997962,-0.000000,0.063694,0.003956 WAIST_JOINT1:0.997312,0.072708,-0.000000,0.009094 END:
KINECT_DATA_Sensor  AnkleLeft:-0.062628,-0.672743,0.096415,0.730889 AnkleRight:0.079634,0.745534,0.082411,0.656540 ElbowLeft:-0.003384,0.882062,-0.202941,-0.425171 ElbowRight:-0.504186,0.813154,0.167723,0.237585 FootLeft:0.000000,0.000000,0.000000,0.000000 FootRight:0.000000,0.000000,0.000000,0.000000 HandLeft:-0.038466,0.764156,-0.020128,0.643568 HandRight:-0.483437,0.525071,-0.241204,0.657579 HandTipLeft:0.000000,0.000000,0.000000,0.000000 HandTipRight:0.000000,0.000000,0.000000,0.000000 Head:0.000000,0.000000,0.000000,0.000000 HipLeft:0.105615,-0.683433,0.702537,-0.167947 HipRight:-0.123108,0.675332,0.704828,-0.178856 KneeLeft:0.013767,-0.699196,0.044457,0.713414 KneeRight:-0.026057,0.714266,0.039355,0.698281 Neck:-0.064149,0.009150,0.993941,-0.088779 ShoulderLeft:0.031805,0.772484,-0.632921,0.040844 ShoulderRight:-0.053352,0.769278,0.621227,-0.139436 SpineBase:-0.010956,0.003392,0.998768,-0.048271 SpineMid:-0.037412,0.004670,0.998128,-0.048164 SpineShoulder:-0.064240,0.007813,0.995637,-0.067219 ThumbLeft:0.000000,0.000000,0.000000,0.000000 ThumbRight:0.000000,0.000000,0.000000,0.000000 WristLeft:-0.026997,0.766510,-0.089175,0.635438 WristRight:-0.454969,0.548522,-0.280270,0.643098 END:
KINECT_DATA POSITION:15.879912,-0.934234,-7.173407 HEAD_JOINT1:0.984330,0.169972,-0.000000,0.046942 LARM_JOINT2:0.823399,0.000000,0.014317,-0.567282 LARM_JOINT3:0.977711,0.000000,-0.149303,-0.147611 LLEG_JOINT2:0.998758,0.021057,0.000000,0.045156 LLEG_JOINT4:0.995678,0.091069,0.000000,-0.018240 RARM_JOINT2:0.877090,0.000000,0.443858,0.183585 RARM_JOINT3:0.992994,0.000000,0.118100,0.004025 RLEG_JOINT2:0.999052,0.010770,0.000000,-0.042181 RLEG_JOINT4:0.994130,0.101152,0.000000,0.038402 WAIST:0.999935,0.000000,0.010762,-0.003692 WAIST_JOINT0:0.998093,-0.000000,0.061570,0.004378 WAIST_JOINT1:0.997328,0.072563,-0.000000,0.008512 END:
KINECT_DATA_Sensor  AnkleLeft:0.067383,0.718084,-0.092362,-0.686501 AnkleRight:0.077668,0.744698,0.080721,0.657934 ElbowLeft:-0.003545,0.882559,-0.203098,-0.424061 ElbowRight:-0.505074,0.808835,0.163159,0.253110 FootLeft:0.000000,0.000000,0.000000,0.000000 FootRight:0.000000,0.000000,0.000000,0.000000 HandLeft:-0.029340,0.809712,-0.015896,0.585877 HandRight:-0.479209,0.475156,-0.276256,0.684301 HandTipLeft:0.000000,0.000000,0.000000,0.000000 HandTipRight:0.000000,0.000000,0.000000,0.000000 Head:0.000000,0.000000,0.000000,0.000000 HipLeft:0.106156,-0.683224,0.702579,-0.168283 HipRight:-0.122639,0.675715,0.704653,-0.178420 KneeLeft:0.013868,-0.699729,0.044412,0.712892 KneeRight:-0.025225,0.713777,0.039806,0.698786 Neck:-0.062101,0.008736,0.994093,-0.088576 ShoulderLeft:0.030612,0.772682,-0.632654,0.042128 ShoulderRight:-0.051744,0.770375,0.620434,-0.137501 SpineBase:-0.010207,0.003363,0.998781,-0.048177 SpineMid:-0.036007,0.004607,0.998184,-0.048074 SpineShoulder:-0.062184,0.007510,0.995778,-0.067105 ThumbLeft:0.000000,0.000000,0.000000,0.000000 ThumbRight:0.000000,0.000000,0.000000,0.000000 WristLeft:-0.033005,0.809838,-0.086972,0.579231 WristRight:-0.438845,0.503873,-0.309840,0.676407 END:
KINECT_DATA POSITION:15.880233,-0.933617,-7.226169 HEAD_JOINT1:0.984356,0.169731,-0.000000,0.047284 LARM_JOINT2:0.823329,0.000000,0.014031,-0.567392 LARM_JOINT3:0.977085,0.000000,-0.149389,-0.151616 LLEG_JOINT2:0.998742,0.022136,0.000000,0.044991 LLEG_JOINT4:0.995666,0.091004,0.000000,-0.019165 RARM_JOINT2:0.884263,0.000000,0.424014,0.195683 RARM_JOINT3:0.987524,0.000000,0.157200,-0.009173 RLEG_JOINT2:0.999073,0.009341,0.000000,-0.042013 RLEG_JOINT4:0.994046,0.102265,0.000000,0.037615 WAIST:0.999953,0.000000,0.008956,-0.003805 WAIST_JOINT0:0.998224,-0.000000,0.059424,0.004151 WAIST_JOINT1:0.997313,0.072778,-0.000000,0.008375 END:
KINECT_DATA_Sensor  AnkleLeft:-0.062882,-0.675168,0.096379,0.728632 AnkleRight:0.077108,0.743670,0.080892,0.659140 ElbowLeft:-0.003780,0.883418,-0.202742,-0.422439 ElbowRight:-0.501980,0.789169,0.140726,0.324691 FootLeft:0.000000,0.000000,0.000000,0.000000 FootRight:0.000000,0.000000,0.000000,0.000000 HandLeft:-0.040610,0.724230,-0.008219,0.688313 HandRight:-0.550468,0.786529,0.035056,0.277721 HandTipLeft:0.000000,0.000000,0.000000,0.000000 HandTipRight:0.000000,0.000000,0.000000,0.000000 Head:0.000000,0.000000,0.000000,0.000000 HipLeft:0.106959,-0.682980,0.702410,-0.169464 HipRight:-0.121306,0.675836,0.704998,-0.177506 KneeLeft:0.012985,-0.701039,0.044940,0.711588 KneeRight:-0.026122,0.712462,0.038787,0.700150 Neck:-0.059949,0.008579,0.994209,-0.088777 ShoulderLeft:0.030155,0.772850,-0.632393,0.043267 ShoulderRight:-0.049311,0.770674,0.620724,-0.135395 SpineBase:-0.008390,0.003391,0.998783,-0.048485 SpineMid:-0.034018,0.004634,0.998239,-0.048382 SpineShoulder:-0.060028,0.007383,0.995897,-0.067315 ThumbLeft:0.000000,0.000000,0.000000,0.000000 ThumbRight:0.000000,0.000000,0.000000,0.000000 WristLeft:-0.021421,0.729609,-0.090097,0.677566 WristRight:-0.550508,0.796697,-0.009143,0.249259 END:
KINECT_DATA POSITION:15.872266,-0.927239,-7.273412 HEAD_JOINT1:0.984238,0.170313,-0.000000,0.047628 LARM_JOINT2:0.823516,0.000000,0.013809,-0.567125 LARM_JOINT3:0.977660,0.000000,-0.145327,-0.151861 LLEG_JOINT2:0.998758,0.021632,0.000000,0.044886 LLEG_JOINT4:0.995689,0.090840,0.000000,-0.018767 RARM_JOINT2:0.879200,0.000000,0.439316,0.184416 RARM_JOINT3:0.990734,0.000000,0.135638,0.006909 RLEG_JOINT2:0.999032,0.008210,0.000000,-0.043211 RLEG_JOINT4:0.993772,0.104403,0.000000,0.038958 WAIST:0.999958,0.000000,0.008403,-0.003722 WAIST_JOINT0:0.998290,-0.000000,0.058328,0.003829 WAIST_JOINT1:0.997303,0.072944,-0.000000,0.008095 END:
KINECT_DATA_Sensor  AnkleLeft:-0.062134,-0.675928,0.096170,0.728019 AnkleRight:0.078044,0.742984,0.081357,0.659746 ElbowLeft:-0.003324,0.884987,-0.202856,-0.419089 ElbowRight:-0.505803,0.802761,0.158617,0.273092 FootLeft:0.000000,0.000000,0.000000,0.000000 FootRight:0.000000,0.000000,0.000000,0.000000 HandLeft:-0.028571,0.752596,0.000233,0.657862 HandRight:-0.461444,0.499660,-0.283833,0.675905 HandTipLeft:0.000000,0.000000,0.000000,0.000000 HandTipRight:0.000000,0.000000,0.000000,0.000000 Head:0.000000,0.000000,0.000000,0.000000 HipLeft:0.107180,-0.682833,0.702405,-0.169938 HipRight:-0.120860,0.675939,0.705001,-0.177406 KneeLeft:0.013357,-0.701424,0.044561,0.711225 KneeRight:-0.027693,0.712014,0.038773,0.700547 Neck:-0.058734,0.008346,0.994272,-0.088900 ShoulderLeft:0.029556,0.773059,-0.632099,0.044238 ShoulderRight:-0.048299,0.770477,0.621227,-0.134570 SpineBase:-0.007844,0.003374,0.998776,-0.048713 SpineMid:-0.033136,0.004606,0.998257,-0.048612 SpineShoulder:-0.058811,0.007195,0.995958,-0.067504 ThumbLeft:0.000000,0.000000,0.000000,0.000000 ThumbRight:0.000000,0.000000,0.000000,0.000000 WristLeft:-0.025252,0.756070,-0.087955,0.648062 WristRight:-0.445639,0.513513,-0.308028,0.665454 END:
KINECT_DATA POSITION:15.863259,-0.928512,-7.295954 HEAD_JOINT1:0.983952,0.171824,-0.000000,0.048111 LARM_JOINT2:0.823634,0.000000,0.014066,-0.566948 LARM_JOINT3:0.977817,0.000000,-0.144638,-0.151506 LLEG_JOINT2:0.998796,0.021717,0.000000,0.043994 LLEG_JOINT4:0.995892,0.088448,0.000000,-0.019407 RARM_JOINT2:0.878841,0.000000,0.439494,0.185699 RARM_JOINT3:0.990814,0.000000,0.135107,0.005879 RLEG_JOINT2:0.999003,0.009809,0.000000,-0.043561 RLEG_JOINT4:0.993862,0.103175,0.000000,0.039916 WAIST:0.999964,0.000000,0.007790,-0.003343 WAIST_JOINT0:0.998353,-0.000000,0.057221,0.004174 WAIST_JOINT1:0.997333,0.072550,-0.000000,0.007971 END:
KINECT_DATA_Sensor  AnkleLeft:-0.061287,-0.676586,0.093763,0.727794 AnkleRight:0.078981,0.742250,0.080858,0.660521 ElbowLeft:-0.003278,0.886215,-0.203205,-0.416318 ElbowRight:-0.505678,0.802112,0.156175,0.276614 FootLeft:0.000000,0.000000,0.000000,0.000000 FootRight:0.000000,0.000000,0.000000,0.000000 HandLeft:-0.026078,0.790328,0.000349,0.612129 HandRight:-0.467989,0.508294,-0.272799,0.669481 HandTipLeft:0.000000,0.000000,0.000000,0.000000 HandTipRight:0.000000,0.000000,0.000000,0.000000 Head:0.000000,0.000000,0.000000,0.000000 HipLeft:0.107643,-0.682582,0.702541,-0.170092 HipRight:-0.120671,0.676383,0.704751,-0.176834 KneeLeft:0.012969,-0.701847,0.044242,0.710834 KneeRight:-0.026527,0.711651,0.039909,0.700897 Neck:-0.057626,0.008591,0.994375,-0.088458 ShoulderLeft:0.028432,0.772666,-0.632577,0.045016 ShoulderRight:-0.047999,0.770600,0.621316,-0.133561 SpineBase:-0.007259,0.003665,0.998794,-0.048423 SpineMid:-0.032284,0.004877,0.998298,-0.048316 SpineShoulder:-0.057694,0.007437,0.996049,-0.067104 ThumbLeft:0.000000,0.000000,0.000000,0.000000 ThumbRight:0.000000,0.000000,0.000000,0.000000 WristLeft:-0.029956,0.792014,-0.085783,0.603703 WristRight:-0.450267,0.524295,-0.301916,0.656674 END:
KINECT_DATA POSITION:15.849794,-0.933162,-7.303035 HEAD_JOINT1:0.983778,0.172505,-0.000000,0.049225 LARM_JOINT2:0.823816,0.000000,0.013994,-0.566684 LARM_JOINT3:0.977502,0.000000,-0.146955,-0.151307 LLEG_JOINT2:0.998806,0.021683,0.000000,0.043787 LLEG_JOINT4:0.996008,0.086560,0.000000,-0.021822 RARM_JOINT2:0.878371,0.000000,0.440078,0.186536 RARM_JOINT3:0.990308,0.000000,0.138682,0.007590 RLEG_JOINT2:0.999016,0.008323,0.000000,-0.043568 RLEG_JOINT4:0.993737,0.104355,0.000000,0.039962 WAIST:0.999969,0.000000,0.007268,-0.002967 WAIST_JOINT0:0.998378,-0.000000,0.056759,0.004499 WAIST_JOINT1:0.997326,0.072680,-0.000000,0.007583 END:
KINECT_DATA_Sensor  AnkleLeft:-0.061461,-0.676713,0.090892,0.728025 AnkleRight:0.075445,0.711942,0.083732,0.693134 ElbowLeft:-0.003337,0.886616,-0.203505,-0.415314 ElbowRight:-0.505532,0.801757,0.154195,0.279010 FootLeft:0.000000,0.000000,0.000000,0.000000 FootRight:0.000000,0.000000,0.000000,0.000000 HandLeft:-0.034351,0.763432,-0.006636,0.644940 HandRight:-0.536583,0.773977,-0.023543,0.335385 HandTipLeft:0.000000,0.000000,0.000000,0.000000 HandTipRight:0.000000,0.000000,0.000000,0.000000 Head:0.000000,0.000000,0.000000,0.000000 HipLeft:0.107876,-0.682332,0.702686,-0.170345 HipRight:-0.120215,0.676769,0.704527,-0.176559 KneeLeft:0.013138,-0.702190,0.044329,0.710487 KneeRight:-0.027291,0.711272,0.038601,0.701326 Neck:-0.057133,0.008620,0.994390,-0.088603 ShoulderLeft:0.028211,0.772475,-0.632784,0.045509 ShoulderRight:-0.047578,0.770755,0.621223,-0.133244 SpineBase:-0.006774,0.003728,0.998795,-0.048474 SpineMid:-0.031793,0.004941,0.998311,-0.048366 SpineShoulder:-0.057200,0.007467,0.996069,-0.067218 ThumbLeft:0.000000,0.000000,0.000000,0.000000 ThumbRight:0.000000,0.000000,0.000000,0.000000 WristLeft:-0.025650,0.766532,-0.086896,0.635783 WristRight:-0.540234,0.776714,-0.046633,0.320450 END:
KINECT_DATA POSITION:15.828564,-0.932953,-7.292485 HEAD_JOINT1:0.983637,0.172759,-0.000000,0.051110 LARM_JOINT2:0.824167,0.000000,0.014754,-0.566155 LARM_JOINT3:0.977450,0.000000,-0.145834,-0.152724 LLEG_JOINT2:0.998791,0.021200,0.000000,0.044363 LLEG_JOINT4:0.995954,0.087292,0.000000,-0.021345 RARM_JOINT2:0.879783,0.000000,0.436887,0.187380 RARM_JOINT3:0.989635,0.000000,0.143572,0.003199 RLEG_JOINT2:0.999048,0.008228,0.000000,-0.042834 RLEG_JOINT4:0.993855,0.104206,0.000000,0.037325 WAIST:0.999974,0.000000,0.006683,-0.002843 WAIST_JOINT0:0.998422,-0.000000,0.055938,0.004966 WAIST_JOINT1:0.997331,0.072615,-0.000000,0.007612 END:
KINECT_DATA_Sensor  AnkleLeft:-0.060772,-0.677359,0.091890,0.727356 AnkleRight:0.077766,0.741792,0.081406,0.661113 ElbowLeft:-0.002950,0.887326,-0.204436,-0.413340 ElbowRight:-0.504330,0.800742,0.155736,0.283213 FootLeft:0.000000,0.000000,0.000000,0.000000 FootRight:0.000000,0.000000,0.000000,0.000000 HandLeft:-0.031128,0.831863,-0.001569,0.554105 HandRight:-0.547537,0.775878,-0.000933,0.313395 HandTipLeft:0.000000,0.000000,0.000000,0.000000 HandTipRight:0.000000,0.000000,0.000000,0.000000 Head:0.000000,0.000000,0.000000,0.000000 HipLeft:0.108390,-0.682139,0.702703,-0.170722 HipRight:-0.120098,0.676921,0.704485,-0.176222 KneeLeft:0.014001,-0.702587,0.044479,0.710068 KneeRight:-0.026726,0.710884,0.037943,0.701777 Neck:-0.056280,0.008795,0.994443,-0.088535 ShoulderLeft:0.027285,0.772192,-0.633104,0.046422 ShoulderRight:-0.047410,0.771000,0.621037,-0.132761 SpineBase:-0.006198,0.003898,0.998804,-0.048346 SpineMid:-0.031075,0.005101,0.998340,-0.048234 SpineShoulder:-0.056341,0.007637,0.996122,-0.067140 ThumbLeft:0.000000,0.000000,0.000000,0.000000 ThumbRight:0.000000,0.000000,0.000000,0.000000 WristLeft:-0.035189,0.832539,-0.083035,0.546576 WristRight:-0.541963,0.786579,-0.032975,0.294079 END:
KINECT_DATA POSITION:15.819779,-0.931992,-7.302368 HEAD_JOINT1:0.983865,0.171549,-0.000000,0.050805 LARM_JOINT2:0.824459,0.000000,0.014280,-0.565741 LARM_JOINT3:0.976822,0.000000,-0.149502,-0.153190 LLEG_JOINT2:0.998802,0.021342,0.000000,0.044032 LLEG_JOINT4:0.995780,0.089842,0.000000,-0.018712 RARM_JOINT2:0.883138,0.000000,0.426863,0.194565 RARM_JOINT3:0.987386,0.000000,0.158315,-0.002156 RLEG_JOINT2:0.999031,0.007452,0.000000,-0.043369 RLEG_JOINT4:0.993794,0.104581,0.000000,0.037909 WAIST:0.999977,0.000000,0.006276,-0.002642 WAIST_JOINT0:0.998468,-0.000000,0.055052,0.005478 WAIST_JOINT1:0.997303,0.072940,-0.000000,0.008182 END:
KINECT_DATA_Sensor  AnkleLeft:-0.060881,-0.677993,0.095526,0.726288 AnkleRight:0.077647,0.741337,0.080943,0.661694 ElbowLeft:-0.003291,0.888008,-0.205546,-0.411317 ElbowRight:-0.501410,0.791497,0.143708,0.318542 FootLeft:0.000000,0.000000,0.000000,0.000000 FootRight:0.000000,0.000000,0.000000,0.000000 HandLeft:-0.040661,0.770629,-0.013839,0.635834 HandRight:-0.448316,0.470043,-0.298912,0.699088 HandTipLeft:0.000000,0.000000,0.000000,0.000000 HandTipRight:0.000000,0.000000,0.000000,0.000000 Head:0.000000,0.000000,0.000000,0.000000 HipLeft:0.108301,-0.681920,0.702866,-0.170985 HipRight:-0.119740,0.677150,0.704436,-0.175783 KneeLeft:0.013828,-0.702888,0.044479,0.709774 KneeRight:-0.027499,0.710545,0.037634,0.702106 Neck:-0.055459,0.009635,0.994448,-0.088906 ShoulderLeft:0.026985,0.771973,-0.633327,0.047179 ShoulderRight:-0.046671,0.771610,0.620451,-0.132213 SpineBase:-0.005782,0.004429,0.998799,-0.048443 SpineMid:-0.030456,0.005625,0.998352,-0.048319 SpineShoulder:-0.055511,0.008399,0.996145,-0.067401 ThumbLeft:0.000000,0.000000,0.000000,0.000000 ThumbRight:0.000000,0.000000,0.000000,0.000000 WristLeft:-0.026690,0.773590,-0.086394,0.627203 WristRight:-0.431452,0.487653,-0.339981,0.678570 END:
KINECT_DATA POSITION:15.806657,-0.921819,-7.314634 HEAD_JOINT1:0.983976,0.170123,-0.000000,0.053376 LARM_JOINT2:0.824977,0.000000,0.014211,-0.564987 LARM_JOINT3:0.976558,0.000000,-0.150896,-0.153509 LLEG_JOINT2:0.998805,0.021737,0.000000,0.043773 LLEG_JOINT4:0.995917,0.088322,0.000000,-0.018649 RARM_JOINT2:0.880165,0.000000,0.436364,0.186807 RARM_JOINT3:0.988780,0.000000,0.149260,0.005895 RLEG_JOINT2:0.999031,0.006212,0.000000,-0.043565 RLEG_JOINT4:0.993315,0.108269,0.000000,0.040044 WAIST:0.999986,0.000000,0.004754,-0.002408 WAIST_JOINT0:0.998521,-0.000000,0.054032,0.006008 WAIST_JOINT1:0.997290,0.073091,-0.000000,0.008387 END:
KINECT_DATA_Sensor  AnkleLeft:-0.059859,-0.678735,0.094876,0.725765 AnkleRight:0.081076,0.740223,0.080814,0.662545 ElbowLeft:-0.004016,0.888566,-0.206781,-0.409483 ElbowRight:-0.503265,0.800733,0.157473,0.284172 FootLeft:0.000000,0.000000,0.000000,0.000000 FootRight:0.000000,0.000000,0.000000,0.000000 HandLeft:-0.043850,0.774846,-0.016688,0.630406 HandRight:-0.440136,0.458892,-0.317419,0.703523 HandTipLeft:0.000000,0.000000,0.000000,0.000000 HandTipRight:0.000000,0.000000,0.000000,0.000000 Head:0.000000,0.000000,0.000000,0.000000 HipLeft:0.109007,-0.681490,0.702923,-0.172008 HipRight:-0.118907,0.677499,0.704453,-0.174936 KneeLeft:0.013600,-0.703972,0.044714,0.708688 KneeRight:-0.028294,0.709422,0.036762,0.703255 Neck:-0.054491,0.010229,0.994485,-0.089028 ShoulderLeft:0.026232,0.771462,-0.633902,0.048242 ShoulderRight:-0.046213,0.771877,0.620266,-0.131684 SpineBase:-0.004262,0.004941,0.998799,-0.048563 SpineMid:-0.029199,0.006152,0.998381,-0.048424 SpineShoulder:-0.054528,0.008993,0.996187,-0.067505 ThumbLeft:0.000000,0.000000,0.000000,0.000000 ThumbRight:0.000000,0.000000,0.000000,0.000000 WristLeft:-0.027090,0.777872,-0.086914,0.621793 WristRight:-0.421950,0.474021,-0.341736,0.693166 END:
KINECT_DATA POSITION:15.794739,-0.911175,-7.327199 HEAD_JOINT1:0.984021,0.169750,-0.000000,0.053741 LARM_JOINT2:0.825169,0.000000,0.014430,-0.564702 LARM_JOINT3:0.977319,0.000000,-0.146915,-0.152523 LLEG_JOINT2:0.998806,0.021828,0.000000,0.043706 LLEG_JOINT4:0.995754,0.089014,0.000000,-0.023469 RARM_JOINT2:0.879605,0.000000,0.436019,0.190217 RARM_JOINT3:0.988460,0.000000,0.151482,-0.000520 RLEG_JOINT2:0.999002,0.004924,0.000000,-0.044387 RLEG_JOINT4:0.993135,0.108563,0.000000,0.043544 WAIST:0.999990,0.000000,0.003740,-0.002457 WAIST_JOINT0:0.998560,-0.000000,0.053281,0.006328 WAIST_JOINT1:0.997290,0.073073,-0.000000,0.008592 END:
KINECT_DATA_Sensor  AnkleLeft:0.067678,0.709278,-0.089313,-0.695965 AnkleRight:0.082178,0.739534,0.078116,0.663501 ElbowLeft:-0.004392,0.888679,-0.207283,-0.408979 ElbowRight:-0.503270,0.796940,0.148154,0.299426 FootLeft:0.000000,0.000000,0.000000,0.000000 FootRight:0.000000,0.000000,0.000000,0.000000 HandLeft:-0.027425,0.735335,-0.010812,0.677063 HandRight:-0.449937,0.467006,-0.313420,0.693707 HandTipLeft:0.000000,0.000000,0.000000,0.000000 HandTipRight:0.000000,0.000000,0.000000,0.000000 Head:0.000000,0.000000,0.000000,0.000000 HipLeft:0.109355,-0.681403,0.702828,-0.172521 HipRight:-0.118162,0.677685,0.704610,-0.174084 KneeLeft:0.013500,-0.704705,0.044680,0.707964 KneeRight:-0.029787,0.708619,0.036485,0.704018 Neck:-0.053803,0.010437,0.994524,-0.088982 ShoulderLeft:0.025748,0.771276,-0.634106,0.048782 ShoulderRight:-0.045795,0.772246,0.619961,-0.131102 SpineBase:-0.003234,0.005251,0.998801,-0.048563 SpineMid:-0.028328,0.006469,0.998405,-0.048416 SpineShoulder:-0.053828,0.009259,0.996225,-0.067467 ThumbLeft:0.000000,0.000000,0.000000,0.000000 ThumbRight:0.000000,0.000000,0.000000,0.000000 WristLeft:-0.021613,0.738175,-0.088830,0.668386 WristRight:-0.428566,0.484011,-0.337535,0.684204 END:
KINECT_DATA POSITION:15.783403,-0.906323,-7.351005 HEAD_JOINT1:0.983999,0.169998,-0.000000,0.053352 LARM_JOINT2:0.825304,0.000000,0.014771,-0.564496 LARM_JOINT3:0.977188,0.000000,-0.148354,-0.151970 LLEG_JOINT2:0.998819,0.022014,0.000000,0.043307 LLEG_JOINT4:0.995838,0.088720,0.000000,-0.020880 RARM_JOINT2:0.879443,0.000000,0.436428,0.190031 RARM_JOINT3:0.988701,0.000000,0.149783,-0.005868 RLEG_JOINT2:0.998982,0.004335,0.000000,-0.044897 RLEG_JOINT4:0.993233,0.108118,0.000000,0.042404 WAIST:0.999990,0.000000,0.004033,-0.001885 WAIST_JOINT0:0.998584,-0.000000,0.052754,0.006802 WAIST_JOINT1:0.997304,0.072908,-0.000000,0.008325 END:
KINECT_DATA_Sensor  AnkleLeft:-0.061808,-0.679070,0.093903,0.725414 AnkleRight:0.080627,0.739532,0.078293,0.663673 ElbowLeft:-0.004655,0.888011,-0.207818,-0.410154 ElbowRight:-0.503807,0.796559,0.146684,0.300260 FootLeft:0.000000,0.000000,0.000000,0.000000 FootRight:0.000000,0.000000,0.000000,0.000000 HandLeft:-0.029650,0.782596,-0.012645,0.621694 HandRight:-0.474409,0.487105,-0.298328,0.669825 HandTipLeft:0.000000,0.000000,0.000000,0.000000 HandTipRight:0.000000,0.000000,0.000000,0.000000 Head:0.000000,0.000000,0.000000,0.000000 HipLeft:0.109281,-0.681083,0.703184,-0.172382 HipRight:-0.118580,0.678056,0.704138,-0.174267 KneeLeft:0.013478,-0.704469,0.044937,0.708182 KneeRight:-0.030171,0.708821,0.036013,0.703822 Neck:-0.053312,0.010607,0.994566,-0.088786 ShoulderLeft:0.025197,0.770941,-0.634502,0.049220 ShoulderRight:-0.045715,0.772536,0.619694,-0.130682 SpineBase:-0.003565,0.005648,0.998803,-0.048447 SpineMid:-0.028239,0.006843,0.998411,-0.048293 SpineShoulder:-0.053325,0.009486,0.996261,-0.067306 ThumbLeft:0.000000,0.000000,0.000000,0.000000 ThumbRight:0.000000,0.000000,0.000000,0.000000 WristLeft:-0.027898,0.783949,-0.087814,0.613950 WristRight:-0.441918,0.510076,-0.320585,0.664647 END:
KINECT_DATA POSITION:15.768823,-0.904043,-7.348061 HEAD_JOINT1:0.984096,0.169436,-0.000000,0.053344 LARM_JOINT2:0.825249,0.000000,0.014793,-0.564575 LARM_JOINT3:0.976606,0.000000,-0.149960,-0.154120 LLEG_JOINT2:0.998856,0.021350,0.000000,0.042789 LLEG_JOINT4:0.995682,0.090693,0.000000,-0.019779 RARM_JOINT2:0.880924,0.000000,0.432019,0.193215 RARM_JOINT3:0.987089,0.000000,0.159978,-0.007865 RLEG_JOINT2:0.998941,0.003922,0.000000,-0.045853 RLEG_JOINT4:0.993062,0.110102,0.000000,0.041292 WAIST:0.999992,0.000000,0.003787,-0.001451 WAIST_JOINT0:0.998579,-0.000000,0.052863,0.006747 WAIST_JOINT1:0.997312,0.072842,-0.000000,0.007938 END:
KINECT_DATA_Sensor  AnkleLeft:0.067613,0.721601,-0.091646,-0.682877 AnkleRight:0.080789,0.739689,0.080462,0.663219 ElbowLeft:-0.004955,0.887643,-0.207748,-0.410982 ElbowRight:-0.503075,0.791355,0.140213,0.317826 FootLeft:0.000000,0.000000,0.000000,0.000000 FootRight:0.000000,0.000000,0.000000,0.000000 HandLeft:-0.040543,0.761456,-0.010990,0.646854 HandRight:-0.552621,0.739262,-0.063454,0.379573 HandTipLeft:0.000000,0.000000,0.000000,0.000000 HandTipRight:0.000000,0.000000,0.000000,0.000000 Head:0.000000,0.000000,0.000000,0.000000 HipLeft:0.109520,-0.680736,0.703451,-0.172514 HipRight:-0.118503,0.678353,0.703890,-0.174163 KneeLeft:0.013905,-0.704618,0.044404,0.708059 KneeRight:-0.030826,0.708635,0.036094,0.703977 Neck:-0.053421,0.010660,0.994568,-0.088700 ShoulderLeft:0.025491,0.770874,-0.634596,0.048893 ShoulderRight:-0.045561,0.772423,0.619878,-0.130533 SpineBase:-0.003352,0.005790,0.998805,-0.048404 SpineMid:-0.028180,0.006992,0.998414,-0.048245 SpineShoulder:-0.053429,0.009578,0.996260,-0.067233 ThumbLeft:0.000000,0.000000,0.000000,0.000000 ThumbRight:0.000000,0.000000,0.000000,0.000000 WristLeft:-0.025039,0.765152,-0.089071,0.637166 WristRight:-0.542189,0.752296,-0.091890,0.362819 END:
KINECT_DATA POSITION:15.766408,-0.904147,-7.351935 HEAD_JOINT1:0.984077,0.169536,-0.000000,0.053389 LARM_JOINT2:0.824990,0.000000,0.015325,-0.564939 LARM_JOINT3:0.977595,0.000000,-0.145175,-0.152422 LLEG_JOINT2:0.998858,0.022054,0.000000,0.042375 LLEG_JOINT4:0.995775,0.089103,0.000000,-0.022219 RARM_JOINT2:0.879606,0.000000,0.435401,0.191622 RARM_JOINT3:0.988017,0.000000,0.154144,-0.007879 RLEG_JOINT2:0.998942,0.004796,0.000000,-0.045735 RLEG_JOINT4:0.993451,0.107293,0.000000,0.039284 WAIST:0.999994,0.000000,0.003260,-0.001096 WAIST_JOINT0:0.998594,-0.000000,0.052584,0.006675 WAIST_JOINT1:0.997324,0.072708,-0.000000,0.007609 END:
KINECT_DATA_Sensor  AnkleLeft:-0.063012,-0.678911,0.093283,0.725540 AnkleRight:0.078393,0.739935,0.080240,0.663258 ElbowLeft:-0.005150,0.886777,-0.207487,-0.412975 ElbowRight:-0.504418,0.792609,0.140381,0.312452 FootLeft:0.000000,0.000000,0.000000,0.000000 FootRight:0.000000,0.000000,0.000000,0.000000 HandLeft:-0.022380,0.689961,-0.003702,0.723491 HandRight:-0.472731,0.493852,-0.297503,0.666429 HandTipLeft:0.000000,0.000000,0.000000,0.000000 HandTipRight:0.000000,0.000000,0.000000,0.000000 Head:0.000000,0.000000,0.000000,0.000000 HipLeft:0.109803,-0.680470,0.703627,-0.172664 HipRight:-0.118145,0.678688,0.703713,-0.173817 KneeLeft:0.013387,-0.704973,0.044848,0.707688 KneeRight:-0.029854,0.708334,0.036399,0.704306 Neck:-0.053108,0.010731,0.994599,-0.088527 ShoulderLeft:0.025738,0.770959,-0.634506,0.048595 ShoulderRight:-0.044876,0.772488,0.620000,-0.129799 SpineBase:-0.002857,0.005856,0.998809,-0.048346 SpineMid:-0.027774,0.007060,0.998427,-0.048184 SpineShoulder:-0.053113,0.009649,0.996285,-0.067100 ThumbLeft:0.000000,0.000000,0.000000,0.000000 ThumbRight:0.000000,0.000000,0.000000,0.000000 WristLeft:-0.014432,0.688038,-0.091882,0.719690 WristRight:-0.445992,0.513724,-0.320480,0.659144 END:
KINECT_DATA POSITION:15.773019,-0.909168,-7.360053 HEAD_JOINT1:0.983864,0.170808,-0.000000,0.053262 LARM_JOINT2:0.824767,0.000000,0.016116,-0.565243 LARM_JOINT3:0.977491,0.000000,-0.145464,-0.152814 LLEG_JOINT2:0.998838,0.022903,0.000000,0.042413 LLEG_JOINT4:0.995944,0.087880,0.000000,-0.019316 RARM_JOINT2:0.877116,0.000000,0.443076,0.185340 RARM_JOINT3:0.989704,0.000000,0.143120,0.001346 RLEG_JOINT2:0.998955,0.005300,0.000000,-0.045407 RLEG_JOINT4:0.993378,0.107422,0.000000,0.040742 WAIST:0.999994,0.000000,0.003283,-0.001097 WAIST_JOINT0:0.998599,-0.000000,0.052530,0.006394 WAIST_JOINT1:0.997375,0.071987,-0.000000,0.007851 END:
KINECT_DATA_Sensor  AnkleLeft:-0.060688,-0.679416,0.095006,0.725041 AnkleRight:0.080016,0.739591,0.079374,0.663553 ElbowLeft:-0.005222,0.886534,-0.207339,-0.413569 ElbowRight:-0.506592,0.800488,0.151867,0.281994 FootLeft:0.000000,0.000000,0.000000,0.000000 FootRight:0.000000,0.000000,0.000000,0.000000 HandLeft:-0.026077,0.812284,0.000232,0.582678 HandRight:-0.464683,0.492911,-0.302542,0.670505 HandTipLeft:0.000000,0.000000,0.000000,0.000000 HandTipRight:0.000000,0.000000,0.000000,0.000000 Head:0.000000,0.000000,0.000000,0.000000 HipLeft:0.110000,-0.680526,0.703590,-0.172469 HipRight:-0.118564,0.678757,0.703639,-0.173561 KneeLeft:0.012808,-0.704964,0.045472,0.707668 KneeRight:-0.029267,0.708368,0.036525,0.704289 Neck:-0.053009,0.010916,0.994675,-0.087713 ShoulderLeft:0.025116,0.770828,-0.634714,0.048283 ShoulderRight:-0.045399,0.772023,0.620632,-0.129366 SpineBase:-0.002873,0.006110,0.998828,-0.047930 SpineMid:-0.027728,0.007301,0.998447,-0.047763 SpineShoulder:-0.053007,0.009848,0.996336,-0.066398 ThumbLeft:0.000000,0.000000,0.000000,0.000000 ThumbRight:0.000000,0.000000,0.000000,0.000000 WristLeft:-0.031493,0.813321,-0.087598,0.574320 WristRight:-0.442128,0.508937,-0.317311,0.666947 END:
KINECT_DATA POSITION:15.755028,-0.914817,-7.399857 HEAD_JOINT1:0.984061,0.169808,-0.000000,0.052817 LARM_JOINT2:0.824597,0.000000,0.017902,-0.565437 LARM_JOINT3:0.977878,0.000000,-0.143741,-0.151965 LLEG_JOINT2:0.998858,0.022483,0.000000,0.042147 LLEG_JOINT4:0.995943,0.087496,0.000000,-0.021033 RARM_JOINT2:0.877551,0.000000,0.441138,0.187889 RARM_JOINT3:0.988812,0.000000,0.149159,-0.001499 RLEG_JOINT2:0.998957,0.006251,0.000000,-0.045239 RLEG_JOINT4:0.993405,0.107313,0.000000,0.040372 WAIST:0.999992,0.000000,0.004006,-0.000802 WAIST_JOINT0:0.998578,-0.000000,0.052966,0.006034 WAIST_JOINT1:0.997444,0.071062,-0.000000,0.007505 END:
KINECT_DATA_Sensor  AnkleLeft:-0.061419,-0.678958,0.093216,0.725641 AnkleRight:0.080607,0.739734,0.079960,0.663251 ElbowLeft:-0.005295,0.884353,-0.207277,-0.418244 ElbowRight:-0.506847,0.797836,0.146332,0.291807 FootLeft:0.000000,0.000000,0.000000,0.000000 FootRight:0.000000,0.000000,0.000000,0.000000 HandLeft:-0.015297,0.835914,0.003770,0.548634 HandRight:-0.483637,0.541460,-0.277774,0.629093 HandTipLeft:0.000000,0.000000,0.000000,0.000000 HandTipRight:0.000000,0.000000,0.000000,0.000000 Head:0.000000,0.000000,0.000000,0.000000 HipLeft:0.109914,-0.680653,0.703741,-0.171401 HipRight:-0.119362,0.679060,0.703254,-0.173390 KneeLeft:0.013096,-0.704425,0.045207,0.708216 KneeRight:-0.028292,0.708949,0.036857,0.703727 Neck:-0.053408,0.010688,0.994740,-0.086756 ShoulderLeft:0.024427,0.771131,-0.634428,0.047554 ShoulderRight:-0.046589,0.771835,0.620792,-0.129294 SpineBase:-0.003626,0.006193,0.998862,-0.047142 SpineMid:-0.028296,0.007355,0.998468,-0.046974 SpineShoulder:-0.053402,0.009696,0.996375,-0.065501 ThumbLeft:0.000000,0.000000,0.000000,0.000000 ThumbRight:0.000000,0.000000,0.000000,0.000000 WristLeft:-0.035708,0.835078,-0.087411,0.541968 WristRight:-0.464308,0.554906,-0.287923,0.627374 END:
KINECT_DATA POSITION:15.731417,-0.939905,-7.330561 HEAD_JOINT1:0.985772,0.161882,-0.000000,0.045258 LARM_JOINT2:0.822235,0.000000,0.016491,-0.568909 LARM_JOINT3:0.976015,0.000000,-0.152344,-0.155518 LLEG_JOINT2:0.998853,0.022106,0.000000,0.042469 LLEG_JOINT4:0.995851,0.088300,0.000000,-0.021992 RARM_JOINT2:0.878281,0.000000,0.438712,0.190143 RARM_JOINT3:0.983891,0.000000,0.175746,0.032726 RLEG_JOINT2:0.998950,0.007537,0.000000,-0.045186 RLEG_JOINT4:0.993500,0.106046,0.000000,0.041375 WAIST:0.999977,0.000000,0.006637,-0.001246 WAIST_JOINT0:0.998348,-0.000000,0.057272,0.004668 WAIST_JOINT1:0.997626,0.068442,-0.000000,0.007669 END:
KINECT_DATA_Sensor  AnkleLeft:-0.062639,-0.676186,0.092685,0.728189 AnkleRight:0.076481,0.705387,0.083898,0.699672 ElbowLeft:-0.007833,0.880690,-0.201721,-0.428524 ElbowRight:-0.498924,0.811893,0.171910,0.249703 FootLeft:0.000000,0.000000,0.000000,0.000000 FootRight:0.000000,0.000000,0.000000,0.000000 HandLeft:-0.059870,0.821428,0.008415,0.567098 HandRight:-0.367277,0.487370,-0.360447,0.705447 HandTipLeft:0.000000,0.000000,0.000000,0.000000 HandTipRight:0.000000,0.000000,0.000000,0.000000 Head:0.000000,0.000000,0.000000,0.000000 HipLeft:0.109811,-0.681366,0.703541,-0.169447 HipRight:-0.122398,0.678459,0.703071,-0.174365 KneeLeft:0.013157,-0.702571,0.044892,0.710074 KneeRight:-0.027758,0.710824,0.037977,0.701795 Neck:-0.057694,0.009961,0.994820,-0.083102 ShoulderLeft:0.028000,0.772813,-0.632722,0.040483 ShoulderRight:-0.048361,0.771882,0.620626,-0.129159 SpineBase:-0.006228,0.006000,0.998919,-0.045679 SpineMid:-0.031724,0.007164,0.998434,-0.045511 SpineShoulder:-0.057673,0.009318,0.996286,-0.063255 ThumbLeft:0.000000,0.000000,0.000000,0.000000 ThumbRight:0.000000,0.000000,0.000000,0.000000 WristLeft:-0.038283,0.827192,-0.089982,0.553345 WristRight:-0.396590,0.468849,-0.359499,0.702607 END:
KINECT_DATA POSITION:15.744102,-1.105745,-6.940293 HEAD_JOINT1:0.987136,0.156235,-0.000000,0.033968 LARM_JOINT2:0.818885,0.000000,0.019243,-0.573634 LARM_JOINT3:0.977686,0.000000,-0.150067,-0.147001 LLEG_JOINT2:0.998856,0.022979,0.000000,0.041948 LLEG_JOINT4:0.995638,0.091731,0.000000,-0.017040 RARM_JOINT2:0.873819,0.000000,0.443645,0.199045 RARM_JOINT3:0.973106,0.000000,0.218024,0.074360 RLEG_JOINT2:0.998969,0.010465,0.000000,-0.044179 RLEG_JOINT4:0.993859,0.102575,0.000000,0.041496 WAIST:0.999958,0.000000,0.008909,-0.002230 WAIST_JOINT0:0.997897,-0.000000,0.064764,0.002529 WAIST_JOINT1:0.998233,0.059249,-0.000000,0.004470 END:
KINECT_DATA_Sensor  AnkleLeft:0.068790,0.714258,-0.094306,-0.690080 AnkleRight:0.080670,0.745937,0.079094,0.656365 ElbowLeft:-0.012010,0.874497,-0.189858,-0.446166 ElbowRight:-0.486664,0.831016,0.208336,0.170782 FootLeft:0.000000,0.000000,0.000000,0.000000 FootRight:0.000000,0.000000,0.000000,0.000000 HandLeft:-0.050880,0.810046,0.001617,0.584153 HandRight:-0.384350,0.672352,0.334514,-0.536953 HandTipLeft:0.000000,0.000000,0.000000,0.000000 HandTipRight:0.000000,0.000000,0.000000,0.000000 Head:0.000000,0.000000,0.000000,0.000000 HipLeft:0.113969,-0.683208,0.702414,-0.163863 HipRight:-0.128803,0.678303,0.702722,-0.171748 KneeLeft:0.011375,-0.700929,0.044466,0.711753 KneeRight:-0.025755,0.712590,0.040002,0.699965 Neck:-0.065003,0.005359,0.995241,-0.072395 ShoulderLeft:0.026787,0.777772,-0.627347,0.028101 ShoulderRight:-0.058352,0.773915,0.617354,-0.128546 SpineBase:-0.008533,0.004770,0.999214,-0.038424 SpineMid:-0.036451,0.005842,0.998585,-0.038275 SpineShoulder:-0.065040,0.004958,0.996364,-0.054803 ThumbLeft:0.000000,0.000000,0.000000,0.000000 ThumbRight:0.000000,0.000000,0.000000,0.000000 WristLeft:-0.045084,0.813657,-0.093405,0.572019 WristRight:-0.370722,0.679874,0.354240,-0.524261 END:
KINECT_DATA POSITION:15.818720,-1.202726,-6.712210 HEAD_JOINT1:0.987371,0.155486,-0.000000,0.030374 LARM_JOINT2:0.817368,0.000000,0.020642,-0.575746 LARM_JOINT3:0.978881,0.000000,-0.147461,-0.141586 LLEG_JOINT2:0.998880,0.024024,0.000000,0.040769 LLEG_JOINT4:0.995402,0.094572,0.000000,-0.015221 RARM_JOINT2:0.864012,0.000000,0.452162,0.221433 RARM_JOINT3:0.971833,0.000000,0.216145,0.093928 RLEG_JOINT2:0.998899,0.011182,0.000000,-0.045564 RLEG_JOINT4:0.993401,0.106060,0.000000,0.043664 WAIST:0.999935,0.000000,0.011241,-0.001779 WAIST_JOINT0:0.997511,-0.000000,0.070451,0.002850 WAIST_JOINT1:0.998455,0.055465,-0.000000,0.003441 END:
KINECT_DATA_Sensor  AnkleLeft:0.070617,0.708665,-0.097934,-0.695137 AnkleRight:0.080846,0.717951,0.084728,0.686172 ElbowLeft:-0.013082,0.872263,-0.185901,-0.452136 ElbowRight:-0.473266,0.845913,0.204389,0.136658 FootLeft:0.000000,0.000000,0.000000,0.000000 FootRight:0.000000,0.000000,0.000000,0.000000 HandLeft:-0.032360,0.801684,-0.005907,0.596842 HandRight:-0.413027,0.744640,0.257186,-0.456919 HandTipLeft:0.000000,0.000000,0.000000,0.000000 HandTipRight:0.000000,0.000000,0.000000,0.000000 Head:0.000000,0.000000,0.000000,0.000000 HipLeft:0.116377,-0.683641,0.702467,-0.160100 HipRight:-0.133521,0.678627,0.701676,-0.171135 KneeLeft:0.010019,-0.699201,0.044700,0.713457 KneeRight:-0.026008,0.714308,0.041111,0.698138 Neck:-0.070641,0.005179,0.995081,-0.069260 ShoulderLeft:0.028529,0.778551,-0.626606,0.020240 ShoulderRight:-0.063784,0.774851,0.615435,-0.129525 SpineBase:-0.010961,0.004101,0.999353,-0.034000 SpineMid:-0.040505,0.005105,0.998592,-0.033864 SpineShoulder:-0.070745,0.004087,0.996189,-0.050848 ThumbLeft:0.000000,0.000000,0.000000,0.000000 ThumbRight:0.000000,0.000000,0.000000,0.000000 WristLeft:-0.047510,0.801976,-0.094976,0.587841 WristRight:-0.413272,0.744421,0.267129,-0.451316 END:
KINECT_DATA POSITION:15.890293,-1.331052,-6.545210 HEAD_JOINT1:0.987424,0.155481,-0.000000,0.028622 LARM_JOINT2:0.816481,0.000000,0.021607,-0.576968 LARM_JOINT3:0.977207,0.000000,-0.157124,-0.142753 LLEG_JOINT2:0.998819,0.026190,0.000000,0.040922 LLEG_JOINT4:0.995925,0.088502,0.000000,-0.017370 RARM_JOINT2:0.847144,0.000000,0.475813,0.236537 RARM_JOINT3:0.963231,0.000000,0.230496,0.138050 RLEG_JOINT2:0.998872,0.010694,0.000000,-0.046267 RLEG_JOINT4:0.992993,0.109141,0.000000,0.045303 WAIST:0.999930,0.000000,0.011705,-0.001873 WAIST_JOINT0:0.997227,-0.000000,0.073993,0.007979 WAIST_JOINT1:0.998498,0.054598,-0.000000,0.004444 END:
KINECT_DATA_Sensor  AnkleLeft:-0.063524,-0.666228,0.097681,0.736589 AnkleRight:0.082612,0.712774,0.086586,0.691109 ElbowLeft:-0.012545,0.872610,-0.185352,-0.451707 ElbowRight:-0.465232,0.858956,0.198225,0.080380 FootLeft:0.000000,0.000000,0.000000,0.000000 FootRight:0.000000,0.000000,0.000000,0.000000 HandLeft:-0.062508,0.725317,-0.033047,0.684775 HandRight:-0.449591,0.848460,0.001181,-0.279252 HandTipLeft:0.000000,0.000000,0.000000,0.000000 HandTipRight:0.000000,0.000000,0.000000,0.000000 Head:0.000000,0.000000,0.000000,0.000000 HipLeft:0.117699,-0.683910,0.702353,-0.158474 HipRight:-0.135340,0.678708,0.701547,-0.169911 KneeLeft:0.008485,-0.698861,0.046261,0.713709 KneeRight:-0.026937,0.714610,0.041309,0.697782 Neck:-0.074372,0.006029,0.994818,-0.069055 ShoulderLeft:0.028414,0.778522,-0.626722,0.017754 ShoulderRight:-0.068577,0.780420,0.607237,-0.132308 SpineBase:-0.011437,0.004151,0.999423,-0.031702 SpineMid:-0.042581,0.005137,0.998581,-0.031557 SpineShoulder:-0.074448,0.005160,0.995972,-0.049699 ThumbLeft:0.000000,0.000000,0.000000,0.000000 ThumbRight:0.000000,0.000000,0.000000,0.000000 WristLeft:-0.036774,0.730465,-0.098923,0.674747 WristRight:-0.461760,0.851705,0.093550,-0.229401 END:
KINECT_DATA POSITION:15.924044,-1.497620,-6.256032 HEAD_JOINT1:0.987457,0.155701,-0.000000,0.026208 LARM_JOINT2:0.814911,0.000000,0.022421,-0.579153 LARM_JOINT3:0.975903,0.000000,-0.160035,-0.148333 LLEG_JOINT2:0.998703,0.029093,0.000000,0.041794 LLEG_JOINT4:0.995901,0.089029,0.000000,-0.015947 RARM_JOINT2:0.853141,0.000000,0.456859,0.251854 RARM_JOINT3:0.924846,0.000000,0.309923,0.220471 RLEG_JOINT2:0.998851,0.012677,0.000000,-0.046227 RLEG_JOINT4:0.992970,0.109052,0.000000,0.046014 WAIST:0.999916,0.000000,0.012717,-0.002492 WAIST_JOINT0:0.996697,-0.000000,0.079927,0.014366 WAIST_JOINT1:0.998584,0.052896,-0.000000,0.005695 END:
KINECT_DATA_Sensor  AnkleLeft:-0.064445,-0.662762,0.101457,0.739121 AnkleRight:0.084170,0.714929,0.087700,0.688550 ElbowLeft:-0.012693,0.871516,-0.183071,-0.454734 ElbowRight:-0.433265,0.869263,0.236570,0.026418 FootLeft:0.000000,0.000000,0.000000,0.000000 FootRight:0.000000,0.000000,0.000000,0.000000 HandLeft:-0.091332,0.805293,-0.010485,0.585706 HandRight:-0.481761,0.847843,-0.168081,-0.144284 HandTipLeft:0.000000,0.000000,0.000000,0.000000 HandTipRight:0.000000,0.000000,0.000000,0.000000 Head:0.000000,0.000000,0.000000,0.000000 HipLeft:0.119139,-0.684612,0.701867,-0.156509 HipRight:-0.137842,0.678340,0.701610,-0.169108 KneeLeft:0.006524,-0.698146,0.048483,0.714282 KneeRight:-0.025995,0.715371,0.043115,0.696929 Neck:-0.080294,0.006844,0.994424,-0.068027 ShoulderLeft:0.027852,0.777982,-0.627508,0.014200 ShoulderRight:-0.076785,0.786086,0.597780,-0.137230 SpineBase:-0.012446,0.003744,0.999491,-0.029134 SpineMid:-0.046019,0.004720,0.998509,-0.028992 SpineShoulder:-0.080369,0.005892,0.995604,-0.047726 ThumbLeft:0.000000,0.000000,0.000000,0.000000 ThumbRight:0.000000,0.000000,0.000000,0.000000 WristLeft:-0.051297,0.813641,-0.093043,0.571577 WristRight:-0.411159,0.896907,-0.105867,-0.123687 END:
KINECT_DATA POSITION:16.542929,-1.808635,-5.378246 HEAD_JOINT1:0.988255,0.147706,-0.000000,0.039174 LARM_JOINT2:0.812219,0.000000,0.021009,-0.582974 LARM_JOINT3:0.975452,0.000000,-0.162890,-0.148191 LLEG_JOINT2:0.998953,0.036920,0.000000,0.027026 LLEG_JOINT4:0.996770,0.080143,0.000000,-0.005202 RARM_JOINT2:0.853156,0.000000,0.409181,0.323568 RARM_JOINT3:0.911505,0.000000,0.346899,0.220951 RLEG_JOINT2:0.997643,0.025657,0.000000,-0.063638 RLEG_JOINT4:0.993386,0.100011,0.000000,0.056416 WAIST:0.999680,-0.000000,0.024728,0.005395 WAIST_JOINT0:0.996304,-0.000000,0.083136,0.021598 WAIST_JOINT1:0.998825,0.048462,-0.000000,0.000763 END:
KINECT_DATA_Sensor  AnkleLeft:-0.062953,-0.661209,0.101946,0.740572 AnkleRight:0.090511,0.753890,0.086474,0.644965 ElbowLeft:-0.013672,0.869018,-0.179364,-0.460922 ElbowRight:-0.395905,0.892398,0.178914,0.121964 FootLeft:0.000000,0.000000,0.000000,0.000000 FootRight:0.000000,0.000000,0.000000,0.000000 HandLeft:-0.101118,0.827932,-0.024624,0.551087 HandRight:0.256727,0.112238,-0.404517,0.870552 HandTipLeft:0.000000,0.000000,0.000000,0.000000 HandTipRight:0.000000,0.000000,0.000000,0.000000 Head:0.000000,0.000000,0.000000,0.000000 HipLeft:0.117455,-0.681108,0.707638,-0.146784 HipRight:-0.148849,0.682182,0.694424,-0.173915 KneeLeft:-0.004350,-0.689141,0.048835,0.722967 KneeRight:-0.024506,0.724133,0.058691,0.686722 Neck:-0.081617,0.009170,0.994560,-0.064075 ShoulderLeft:0.031181,0.778731,-0.626562,0.005055 ShoulderRight:-0.074545,0.791843,0.591920,-0.130606 SpineBase:-0.024837,0.005337,0.999399,-0.023603 SpineMid:-0.052942,0.005999,0.998304,-0.023444 SpineShoulder:-0.081721,0.007227,0.995702,-0.042968 ThumbLeft:0.000000,0.000000,0.000000,0.000000 ThumbRight:0.000000,0.000000,0.000000,0.000000 WristLeft:-0.059770,0.834963,-0.091588,0.539329 WristRight:0.157829,0.066397,-0.418111,0.892112 END:
KINECT_DATA POSITION:16.543652,-1.905795,-5.029011 HEAD_JOINT1:0.988218,0.148110,-0.000000,0.038580 LARM_JOINT2:0.811238,0.000000,0.022127,-0.584297 LARM_JOINT3:0.976038,0.000000,-0.158901,-0.148659 LLEG_JOINT2:0.998864,0.040031,0.000000,0.025869 LLEG_JOINT4:0.996961,0.077673,0.000000,-0.006017 RARM_JOINT2:0.858644,0.000000,0.357792,0.367037 RARM_JOINT3:0.889217,0.000000,0.387622,0.242986 RLEG_JOINT2:0.997423,0.029633,0.000000,-0.065346 RLEG_JOINT4:0.993516,0.098964,0.000000,0.055966 WAIST:0.999600,-0.000000,0.027339,0.007266 WAIST_JOINT0:0.996257,-0.000000,0.083557,0.022127 WAIST_JOINT1:0.998929,0.046276,0.000000,-0.000108 END:
KINECT_DATA_Sensor  AnkleLeft:-0.063920,-0.660797,0.101964,0.740854 AnkleRight:0.091955,0.753903,0.089073,0.644391 ElbowLeft:-0.014286,0.867249,-0.178235,-0.464659 ElbowRight:-0.353722,0.902606,0.171532,0.175386 FootLeft:0.000000,0.000000,0.000000,0.000000 FootRight:0.000000,0.000000,0.000000,0.000000 HandLeft:-0.090973,0.792035,-0.020841,0.603299 HandRight:0.320966,0.093729,-0.389510,0.858183 HandTipLeft:0.000000,0.000000,0.000000,0.000000 HandTipRight:0.000000,0.000000,0.000000,0.000000 Head:0.000000,0.000000,0.000000,0.000000 HipLeft:0.117784,-0.680177,0.708998,-0.144247 HipRight:-0.151636,0.682978,0.692775,-0.174959 KneeLeft:-0.006208,-0.687165,0.051431,0.724652 KneeRight:-0.021836,0.726093,0.061360,0.684505 Neck:-0.082240,0.009911,0.994660,-0.061558 ShoulderLeft:0.032707,0.778369,-0.626953,0.001116 ShoulderRight:-0.073637,0.792939,0.591185,-0.127771 SpineBase:-0.027525,0.005124,0.999370,-0.021819 SpineMid:-0.054626,0.005714,0.998255,-0.021672 SpineShoulder:-0.082324,0.007926,0.995738,-0.040814 ThumbLeft:0.000000,0.000000,0.000000,0.000000 ThumbRight:0.000000,0.000000,0.000000,0.000000 WristLeft:-0.054465,0.799540,-0.096262,0.590341 WristRight:0.202027,0.038653,-0.406397,0.890243 END:
KINECT_DATA POSITION:16.342268,-1.967195,-4.793453 HEAD_JOINT1:0.988055,0.148288,-0.000000,0.041930 LARM_JOINT2:0.812222,0.000000,0.025153,-0.582807 LARM_JOINT3:0.975307,0.000000,-0.161055,-0.151120 LLEG_JOINT2:0.998697,0.041705,0.000000,0.029411 LLEG_JOINT4:0.996790,0.079670,0.000000,-0.007959 RARM_JOINT2:0.860434,0.000000,0.328208,0.389785 RARM_JOINT3:0.871786,0.000000,0.413116,0.263296 RLEG_JOINT2:0.997501,0.031793,0.000000,-0.063091 RLEG_JOINT4:0.994153,0.096939,0.000000,0.047561 WAIST:0.999605,-0.000000,0.027234,0.006988 WAIST_JOINT0:0.996426,-0.000000,0.082308,0.018974 WAIST_JOINT1:0.998982,0.045082,0.000000,-0.001566 END:
KINECT_DATA_Sensor  AnkleLeft:-0.065708,-0.661233,0.105388,0.739829 AnkleRight:0.087653,0.754067,0.093878,0.644117 ElbowLeft:-0.013841,0.865227,-0.178716,-0.468243 ElbowRight:-0.329033,0.906550,0.172601,0.200286 FootLeft:0.000000,0.000000,0.000000,0.000000 FootRight:0.000000,0.000000,0.000000,0.000000 HandLeft:-0.096582,0.723152,-0.027933,0.683333 HandRight:0.343426,0.099585,-0.387270,0.849802 HandTipLeft:0.000000,0.000000,0.000000,0.000000 HandTipRight:0.000000,0.000000,0.000000,0.000000 Head:0.000000,0.000000,0.000000,0.000000 HipLeft:0.120276,-0.680403,0.708515,-0.143499 HipRight:-0.152776,0.682587,0.692833,-0.175265 KneeLeft:-0.005201,-0.687325,0.054957,0.724250 KneeRight:-0.018901,0.726067,0.061572,0.684601 Neck:-0.081311,0.007441,0.994828,-0.060417 ShoulderLeft:0.033189,0.778416,-0.626870,-0.000189 ShoulderRight:-0.071857,0.790583,0.595103,-0.125170 SpineBase:-0.027442,0.002861,0.999414,-0.020254 SpineMid:-0.054159,0.003401,0.998323,-0.020170 SpineShoulder:-0.081369,0.006342,0.995874,-0.039684 ThumbLeft:0.000000,0.000000,0.000000,0.000000 ThumbRight:0.000000,0.000000,0.000000,0.000000 WristLeft:-0.044321,0.734500,-0.102271,0.669392 WristRight:0.223785,0.044048,-0.404021,0.885860 END:
KINECT_DATA POSITION:16.219339,-2.016521,-4.686153 HEAD_JOINT1:0.988069,0.149245,-0.000000,0.038014 LARM_JOINT2:0.810939,0.000000,0.028648,-0.584430 LARM_JOINT3:0.976133,0.000000,-0.159464,-0.147429 LLEG_JOINT2:0.998673,0.040746,0.000000,0.031496 LLEG_JOINT4:0.996766,0.079714,0.000000,-0.010131 RARM_JOINT2:0.863230,0.000000,0.295053,0.409606 RARM_JOINT3:0.851420,0.000000,0.439994,0.285464 RLEG_JOINT2:0.997568,0.032756,0.000000,-0.061519 RLEG_JOINT4:0.993884,0.095804,0.000000,0.054917 WAIST:0.999546,-0.000000,0.029428,0.006465 WAIST_JOINT0:0.996293,-0.000000,0.083771,0.019583 WAIST_JOINT1:0.999043,0.043736,0.000000,-0.000669 END:
KINECT_DATA_Sensor  AnkleLeft:0.074329,0.720156,-0.098207,-0.682792 AnkleRight:0.092878,0.753932,0.088055,0.644365 ElbowLeft:-0.013433,0.858572,-0.177651,-0.480743 ElbowRight:-0.303239,0.909734,0.175573,0.222720 FootLeft:0.000000,0.000000,0.000000,0.000000 FootRight:0.000000,0.000000,0.000000,0.000000 HandLeft:-0.082998,0.824595,-0.007829,0.559547 HandRight:0.371059,0.067801,-0.378104,0.845432 HandTipLeft:0.000000,0.000000,0.000000,0.000000 HandTipRight:0.000000,0.000000,0.000000,0.000000 Head:0.000000,0.000000,0.000000,0.000000 HipLeft:0.120148,-0.680871,0.708233,-0.142775 HipRight:-0.155349,0.681835,0.692623,-0.176752 KneeLeft:-0.003554,-0.685760,0.055427,0.725706 KneeRight:-0.017611,0.727591,0.061508,0.683021 Neck:-0.083081,0.007767,0.994788,-0.058606 ShoulderLeft:0.034026,0.778091,-0.627223,-0.002705 ShoulderRight:-0.073233,0.791772,0.593308,-0.125375 SpineBase:-0.029606,0.002990,0.999364,-0.019643 SpineMid:-0.056126,0.003511,0.998226,-0.019556 SpineShoulder:-0.083140,0.006537,0.995772,-0.038499 ThumbLeft:0.000000,0.000000,0.000000,0.000000 ThumbRight:0.000000,0.000000,0.000000,0.000000 WristLeft:-0.060514,0.830438,-0.096942,0.545264 WristRight:0.265521,0.018424,-0.393755,0.879838 END:
KINECT_DATA POSITION:16.134687,-2.011441,-4.730821 HEAD_JOINT1:0.988255,0.150343,-0.000000,0.027369 LARM_JOINT2:0.807826,0.000000,0.028316,-0.588741 LARM_JOINT3:0.977673,0.000000,-0.156304,-0.140446 LLEG_JOINT2:0.998576,0.038769,0.000000,0.036649 LLEG_JOINT4:0.996592,0.081748,0.000000,-0.010992 RARM_JOINT2:0.864160,0.000000,0.278298,0.419258 RARM_JOINT3:0.839879,0.000000,0.445058,0.310687 RLEG_JOINT2:0.997693,0.033775,0.000000,-0.058887 RLEG_JOINT4:0.993780,0.096867,0.000000,0.054938 WAIST:0.999391,-0.000000,0.034592,0.004559 WAIST_JOINT0:0.995996,-0.000000,0.087745,0.017102 WAIST_JOINT1:0.999082,0.042727,-0.000000,0.003068 END:
KINECT_DATA_Sensor  AnkleLeft:0.075748,0.732605,-0.097924,-0.669301 AnkleRight:0.094301,0.755819,0.089610,0.641729 ElbowLeft:-0.013797,0.852019,-0.173953,-0.493572 ElbowRight:-0.287989,0.915479,0.178591,0.216946 FootLeft:0.000000,0.000000,0.000000,0.000000 FootRight:0.000000,0.000000,0.000000,0.000000 HandLeft:-0.058234,0.813384,-0.009290,0.578730 HandRight:0.377602,0.094698,-0.374279,0.841644 HandTipLeft:0.000000,0.000000,0.000000,0.000000 HandTipRight:0.000000,0.000000,0.000000,0.000000 Head:0.000000,0.000000,0.000000,0.000000 HipLeft:0.117175,-0.682806,0.707243,-0.140900 HipRight:-0.159149,0.680406,0.692678,-0.178649 KneeLeft:-0.000203,-0.682019,0.056463,0.729152 KneeRight:-0.016672,0.731126,0.061685,0.679244 Neck:-0.087922,0.009651,0.994412,-0.057623 ShoulderLeft:0.037903,0.776984,-0.628326,-0.008110 ShoulderRight:-0.075682,0.790263,0.594537,-0.127603 SpineBase:-0.034658,0.004666,0.999202,-0.019309 SpineMid:-0.061061,0.005175,0.997936,-0.019178 SpineShoulder:-0.087978,0.008020,0.995383,-0.037528 ThumbLeft:0.000000,0.000000,0.000000,0.000000 ThumbRight:0.000000,0.000000,0.000000,0.000000 WristLeft:-0.060299,0.815584,-0.101075,0.566543 WristRight:0.277680,0.049245,-0.388241,0.877347 END:
KINECT_DATA POSITION:16.150278,-1.996451,-4.868555 HEAD_JOINT1:0.988495,0.149592,-0.000000,0.022374 LARM_JOINT2:0.807215,0.000000,0.029363,-0.589527 LARM_JOINT3:0.978041,0.000000,-0.155866,-0.138353 LLEG_JOINT2:0.998632,0.035486,0.000000,0.038411 LLEG_JOINT4:0.996143,0.087356,0.000000,-0.008269 RARM_JOINT2:0.857261,0.000000,0.268676,0.439223 RARM_JOINT3:0.830213,0.000000,0.456708,0.319632 RLEG_JOINT2:0.997849,0.032765,0.000000,-0.056784 RLEG_JOINT4:0.993705,0.097309,0.000000,0.055502 WAIST:0.999218,-0.000000,0.039487,0.002280 WAIST_JOINT0:0.995686,-0.000000,0.090915,0.018552 WAIST_JOINT1:0.999069,0.042694,-0.000000,0.006149 END:
KINECT_DATA_Sensor  AnkleLeft:-0.066000,-0.656081,0.108113,0.743985 AnkleRight:0.093585,0.757505,0.089642,0.639837 ElbowLeft:-0.012004,0.849795,-0.174205,-0.497350 ElbowRight:-0.271794,0.922665,0.165698,0.217626 FootLeft:0.000000,0.000000,0.000000,0.000000 FootRight:0.000000,0.000000,0.000000,0.000000 HandLeft:-0.045095,0.828302,-0.014443,0.558277 HandRight:0.382667,0.082047,-0.379269,0.838445 HandTipLeft:0.000000,0.000000,0.000000,0.000000 HandTipRight:0.000000,0.000000,0.000000,0.000000 Head:0.000000,0.000000,0.000000,0.000000 HipLeft:0.113704,-0.684705,0.706321,-0.139143 HipRight:-0.162482,0.678238,0.693335,-0.181327 KneeLeft:0.001547,-0.678493,0.053906,0.732625 KneeRight:-0.017741,0.734378,0.061026,0.675759 Neck:-0.091186,0.010239,0.994107,-0.057724 ShoulderLeft:0.040429,0.776911,-0.628215,-0.010970 ShoulderRight:-0.077222,0.791904,0.591662,-0.129846 SpineBase:-0.039444,0.005517,0.999010,-0.019808 SpineMid:-0.065076,0.006024,0.997668,-0.019660 SpineShoulder:-0.091241,0.008537,0.995082,-0.037599 ThumbLeft:0.000000,0.000000,0.000000,0.000000 ThumbRight:0.000000,0.000000,0.000000,0.000000 WristLeft:-0.063016,0.827333,-0.099600,0.549208 WristRight:0.316724,0.053855,-0.381648,0.866678 END:
KINECT_DATA POSITION:16.168518,-1.981011,-4.963052 HEAD_JOINT1:0.988418,0.150353,-0.000000,0.020579 LARM_JOINT2:0.806923,0.000000,0.028101,-0.589988 LARM_JOINT3:0.977052,0.000000,-0.157623,-0.143266 LLEG_JOINT2:0.998578,0.035216,0.000000,0.040029 LLEG_JOINT4:0.996367,0.084523,0.000000,-0.010397 RARM_JOINT2:0.861516,0.000000,0.253592,0.439864 RARM_JOINT3:0.817321,0.000000,0.468871,0.334882 RLEG_JOINT2:0.997939,0.032350,0.000000,-0.055414 RLEG_JOINT4:0.993487,0.100030,0.000000,0.054563 WAIST:0.999097,-0.000000,0.042495,0.000610 WAIST_JOINT0:0.995499,-0.000000,0.093139,0.017528 WAIST_JOINT1:0.999043,0.042953,-0.000000,0.008304 END:
KINECT_DATA_Sensor  AnkleLeft:0.076472,0.730751,-0.096591,-0.671435 AnkleRight:0.094080,0.758628,0.092507,0.638024 ElbowLeft:-0.011488,0.850226,-0.173954,-0.496714 ElbowRight:-0.263982,0.921655,0.172531,0.226051 FootLeft:0.000000,0.000000,0.000000,0.000000 FootRight:0.000000,0.000000,0.000000,0.000000 HandLeft:-0.064089,0.747684,-0.015048,0.660783 HandRight:0.419776,0.085247,-0.359978,0.828816 HandTipLeft:0.000000,0.000000,0.000000,0.000000 HandTipRight:0.000000,0.000000,0.000000,0.000000 Head:0.000000,0.000000,0.000000,0.000000 HipLeft:0.111382,-0.685843,0.705769,-0.138213 HipRight:-0.164439,0.676525,0.694089,-0.183069 KneeLeft:0.001504,-0.676326,0.053736,0.734638 KneeRight:-0.018382,0.736357,0.060915,0.673595 Neck:-0.093539,0.010604,0.993866,-0.058038 ShoulderLeft:0.042610,0.776490,-0.628556,-0.012813 ShoulderRight:-0.078140,0.790556,0.592935,-0.131696 SpineBase:-0.042370,0.006018,0.998876,-0.020394 SpineMid:-0.067717,0.006533,0.997478,-0.020234 SpineShoulder:-0.093594,0.008866,0.994847,-0.037960 ThumbLeft:0.000000,0.000000,0.000000,0.000000 ThumbRight:0.000000,0.000000,0.000000,0.000000 WristLeft:-0.049681,0.753854,-0.105705,0.646577 WristRight:0.331447,0.042610,-0.379223,0.862854 END:
