EastLYD/RoboCupatHomeSim/InteractiveCleanUp/JapanOpen2016/Motion_Data/File44.dat
KINECT_DATA POSITION:7.238396,-1.704752,-8.332359 HEAD_JOINT1:0.974471,0.190574,-0.000000,0.118688 LARM_JOINT2:0.819863,0.000000,0.017207,-0.572301 LARM_JOINT3:0.976032,0.000000,-0.150223,-0.157463 LLEG_JOINT2:0.997740,0.023144,0.000000,0.063088 LLEG_JOINT4:0.995162,0.091915,0.000000,-0.034703 RARM_JOINT2:0.788128,0.000000,-0.074587,0.610976 RARM_JOINT3:0.976788,0.000000,0.163577,0.138301 RLEG_JOINT2:0.999320,0.014811,0.000000,-0.033776 RLEG_JOINT4:0.994159,0.103371,0.000000,0.031009 WAIST:0.999928,0.000000,-0.011947,-0.000954 WAIST_JOINT0:0.999540,0.000000,-0.029243,0.008084 WAIST_JOINT1:0.997132,0.074185,0.000000,-0.014987 END:
KINECT_DATA_Sensor  AnkleLeft:0.062682,0.719695,-0.099877,-0.684204 AnkleRight:0.084095,0.708695,0.082866,0.695566 ElbowLeft:0.008657,0.898898,-0.180916,-0.398969 ElbowRight:0.045695,0.841334,0.185675,0.505562 FootLeft:0.000000,0.000000,0.000000,0.000000 FootRight:0.000000,0.000000,0.000000,0.000000 HandLeft:-0.060858,0.711327,0.022265,0.699867 HandRight:-0.023060,0.781265,-0.029108,-0.623093 HandTipLeft:0.000000,0.000000,0.000000,0.000000 HandTipRight:0.000000,0.000000,0.000000,0.000000 Head:0.000000,0.000000,0.000000,0.000000 HipLeft:0.120045,-0.679392,0.702573,-0.174377 HipRight:-0.106105,0.677651,0.706475,-0.174422 KneeLeft:-0.028253,0.714474,-0.059981,-0.696513 KneeRight:-0.013623,0.699121,0.035207,0.714007 Neck:0.027674,-0.017648,0.995381,-0.090218 ShoulderLeft:0.015926,0.776938,-0.624382,0.079122 ShoulderRight:0.052956,0.783711,0.617945,-0.033711 SpineBase:0.011320,-0.013498,0.998588,-0.050111 SpineMid:0.019322,-0.013899,0.998466,-0.050002 SpineShoulder:0.027573,-0.015750,0.997117,-0.068914 ThumbLeft:0.000000,0.000000,0.000000,0.000000 ThumbRight:0.000000,0.000000,0.000000,0.000000 WristLeft:-0.043048,0.720386,-0.064594,0.689216 WristRight:-0.025075,0.785284,0.060025,-0.615708 END:
KINECT_DATA POSITION:7.208191,-1.718949,-8.286047 HEAD_JOINT1:0.974066,0.192432,-0.000000,0.119021 LARM_JOINT2:0.820025,0.000000,0.018024,-0.572043 LARM_JOINT3:0.975714,0.000000,-0.152991,-0.156764 LLEG_JOINT2:0.997662,0.023744,0.000000,0.064091 LLEG_JOINT4:0.995473,0.087890,0.000000,-0.036177 RARM_JOINT2:0.787385,0.000000,-0.073329,0.612085 RARM_JOINT3:0.975267,0.000000,0.168200,0.143395 RLEG_JOINT2:0.999388,0.013661,0.000000,-0.032211 RLEG_JOINT4:0.994201,0.103711,0.000000,0.028429 WAIST:0.999915,0.000000,-0.012941,-0.001645 WAIST_JOINT0:0.999525,0.000000,-0.029853,0.007636 WAIST_JOINT1:0.997012,0.075764,0.000000,-0.015067 END:
KINECT_DATA_Sensor  AnkleLeft:0.061697,0.726139,-0.096246,-0.677977 AnkleRight:0.081212,0.698053,0.084666,0.706369 ElbowLeft:0.010131,0.898128,-0.181483,-0.400409 ElbowRight:0.046582,0.840937,0.185476,0.506215 FootLeft:0.000000,0.000000,0.000000,0.000000 FootRight:0.000000,0.000000,0.000000,0.000000 HandLeft:-0.065234,0.674363,0.014860,0.735363 HandRight:-0.054705,0.785524,-0.033766,-0.615483 HandTipLeft:0.000000,0.000000,0.000000,0.000000 HandTipRight:0.000000,0.000000,0.000000,0.000000 Head:0.000000,0.000000,0.000000,0.000000 HipLeft:0.120453,-0.679522,0.702018,-0.175818 HipRight:-0.105190,0.677122,0.707030,-0.174784 KneeLeft:-0.028121,0.715197,-0.060597,-0.695723 KneeRight:-0.013810,0.698424,0.033784,0.714753 Neck:0.028220,-0.018464,0.995182,-0.092065 ShoulderLeft:0.016363,0.776487,-0.624720,0.080779 ShoulderRight:0.054209,0.783054,0.618628,-0.034447 SpineBase:0.012344,-0.013950,0.998523,-0.051039 SpineMid:0.020112,-0.014347,0.998397,-0.050929 SpineShoulder:0.028126,-0.016361,0.996987,-0.070419 ThumbLeft:0.000000,0.000000,0.000000,0.000000 ThumbRight:0.000000,0.000000,0.000000,0.000000 WristLeft:-0.038376,0.675370,-0.066473,0.733474 WristRight:-0.025060,0.793849,0.058896,-0.604738 END:
KINECT_DATA POSITION:7.120453,-1.749484,-8.093584 HEAD_JOINT1:0.973987,0.191997,-0.000000,0.120360 LARM_JOINT2:0.821237,0.000000,0.016930,-0.570335 LARM_JOINT3:0.976208,0.000000,-0.151577,-0.155056 LLEG_JOINT2:0.997520,0.024434,0.000000,0.066011 LLEG_JOINT4:0.995178,0.091012,0.000000,-0.036569 RARM_JOINT2:0.785907,0.000000,-0.073988,0.613903 RARM_JOINT3:0.975430,0.000000,0.167753,0.142810 RLEG_JOINT2:0.999449,0.013474,0.000000,-0.030331 RLEG_JOINT4:0.994008,0.105841,0.000000,0.027315 WAIST:0.999895,0.000000,-0.014282,-0.002384 WAIST_JOINT0:0.999532,0.000000,-0.029551,0.007908 WAIST_JOINT1:0.996915,0.076864,0.000000,-0.015908 END:
KINECT_DATA_Sensor  AnkleLeft:0.063150,0.722526,-0.099885,-0.681169 AnkleRight:0.084644,0.712611,0.083996,0.691350 ElbowLeft:0.010753,0.900840,-0.181968,-0.394030 ElbowRight:0.048468,0.839893,0.185467,0.507771 FootLeft:0.000000,0.000000,0.000000,0.000000 FootRight:0.000000,0.000000,0.000000,0.000000 HandLeft:-0.065046,0.716232,0.012208,0.694717 HandRight:-0.052177,0.800022,-0.035796,-0.596625 HandTipLeft:0.000000,0.000000,0.000000,0.000000 HandTipRight:0.000000,0.000000,0.000000,0.000000 Head:0.000000,0.000000,0.000000,0.000000 HipLeft:0.120964,-0.679661,0.701521,-0.176911 HipRight:-0.103669,0.676489,0.707830,-0.174903 KneeLeft:-0.028574,0.716115,-0.061871,-0.694648 KneeRight:-0.013113,0.697516,0.032845,0.715696 Neck:0.027793,-0.019886,0.995054,-0.093275 ShoulderLeft:0.017899,0.776202,-0.625025,0.080831 ShoulderRight:0.055343,0.782809,0.618806,-0.035017 SpineBase:0.013679,-0.015196,0.998441,-0.051939 SpineMid:0.020557,-0.015554,0.998323,-0.051833 SpineShoulder:0.027682,-0.017670,0.996897,-0.071540 ThumbLeft:0.000000,0.000000,0.000000,0.000000 ThumbRight:0.000000,0.000000,0.000000,0.000000 WristLeft:-0.039219,0.724015,-0.061625,0.685906 WristRight:-0.024939,0.807695,0.057000,-0.586308 END:
KINECT_DATA POSITION:6.969065,-1.791453,-7.921875 HEAD_JOINT1:0.974023,0.190569,-0.000000,0.122324 LARM_JOINT2:0.821756,0.000000,0.015142,-0.569638 LARM_JOINT3:0.975016,0.000000,-0.158985,-0.155139 LLEG_JOINT2:0.997305,0.024757,0.000000,0.069070 LLEG_JOINT4:0.995049,0.091637,0.000000,-0.038470 RARM_JOINT2:0.784693,0.000000,-0.074622,0.615376 RARM_JOINT3:0.976079,0.000000,0.164229,0.142475 RLEG_JOINT2:0.999485,0.015768,0.000000,-0.027953 RLEG_JOINT4:0.994276,0.103604,0.000000,0.026098 WAIST:0.999851,0.000000,-0.016863,-0.003678 WAIST_JOINT0:0.999403,0.000000,-0.033764,0.007326 WAIST_JOINT1:0.996922,0.076634,0.000000,-0.016538 END:
KINECT_DATA_Sensor  AnkleLeft:0.064488,0.729828,-0.100040,-0.673189 AnkleRight:0.082932,0.695635,0.085725,0.708425 ElbowLeft:0.008471,0.900720,-0.180353,-0.395101 ElbowRight:0.049559,0.839582,0.185269,0.508253 FootLeft:0.000000,0.000000,0.000000,0.000000 FootRight:0.000000,0.000000,0.000000,0.000000 HandLeft:-0.089689,0.719450,-0.000203,0.688729 HandRight:-0.036288,0.810768,-0.039987,-0.582871 HandTipLeft:0.000000,0.000000,0.000000,0.000000 HandTipRight:0.000000,0.000000,0.000000,0.000000 Head:0.000000,0.000000,0.000000,0.000000 HipLeft:0.123389,-0.680143,0.700309,-0.178180 HipRight:-0.102328,0.675729,0.708951,-0.174092 KneeLeft:-0.029795,0.717888,-0.063241,-0.692640 KneeRight:-0.010643,0.695664,0.033671,0.717499 Neck:0.032015,-0.021740,0.994908,-0.093067 ShoulderLeft:0.013837,0.776542,-0.624196,0.084682 ShoulderRight:0.056785,0.782657,0.619021,-0.032200 SpineBase:0.016283,-0.017161,0.998380,-0.051752 SpineMid:0.023925,-0.017557,0.998226,-0.051619 SpineShoulder:0.031876,-0.019504,0.996755,-0.071296 ThumbLeft:0.000000,0.000000,0.000000,0.000000 ThumbRight:0.000000,0.000000,0.000000,0.000000 WristLeft:-0.042220,0.728841,-0.062972,0.680472 WristRight:-0.026182,0.816579,0.055780,-0.573935 END:
KINECT_DATA POSITION:6.919753,-1.888108,-7.722545 HEAD_JOINT1:0.973972,0.188948,-0.000000,0.125208 LARM_JOINT2:0.821909,0.000000,-0.040559,-0.568174 LARM_JOINT3:0.968094,0.000000,-0.188844,-0.164721 LLEG_JOINT2:0.997254,0.025772,0.000000,0.069422 LLEG_JOINT4:0.994921,0.093181,0.000000,-0.038067 RARM_JOINT2:0.783839,0.000000,-0.076047,0.616291 RARM_JOINT3:0.975798,0.000000,0.162871,0.145916 RLEG_JOINT2:0.999532,0.014186,0.000000,-0.027094 RLEG_JOINT4:0.993650,0.109333,0.000000,0.026556 WAIST:0.999817,0.000000,-0.018717,-0.004025 WAIST_JOINT0:0.999178,0.000000,-0.040062,0.006268 WAIST_JOINT1:0.997021,0.075294,0.000000,-0.016756 END:
KINECT_DATA_Sensor  AnkleLeft:0.065347,0.727581,-0.102527,-0.675162 AnkleRight:0.086491,0.691569,0.087969,0.711697 ElbowLeft:-0.029596,0.915649,-0.159839,-0.367645 ElbowRight:0.050102,0.838721,0.184342,0.509955 FootLeft:0.000000,0.000000,0.000000,0.000000 FootRight:0.000000,0.000000,0.000000,0.000000 HandLeft:-0.150348,0.462308,-0.091583,0.869068 HandRight:-0.041376,0.809838,-0.049964,-0.583055 HandTipLeft:0.000000,0.000000,0.000000,0.000000 HandTipRight:0.000000,0.000000,0.000000,0.000000 Head:0.000000,0.000000,0.000000,0.000000 HipLeft:0.125504,-0.680299,0.699816,-0.178043 HipRight:-0.102198,0.675870,0.709334,-0.172049 KneeLeft:-0.029211,0.719267,-0.063916,-0.691171 KneeRight:-0.011378,0.694322,0.032215,0.718853 Neck:0.038539,-0.022481,0.994788,-0.091690 ShoulderLeft:0.006872,0.778329,-0.621350,0.089892 ShoulderRight:0.058058,0.783162,0.618499,-0.027303 SpineBase:0.018168,-0.017525,0.998422,-0.050159 SpineMid:0.028107,-0.018024,0.998192,-0.049982 SpineShoulder:0.038389,-0.020293,0.996610,-0.069876 ThumbLeft:0.000000,0.000000,0.000000,0.000000 ThumbRight:0.000000,0.000000,0.000000,0.000000 WristLeft:-0.071665,0.470006,-0.105615,0.873387 WristRight:-0.027078,0.817625,0.055377,-0.572441 END:
KINECT_DATA POSITION:6.190952,-2.032032,-7.309997 HEAD_JOINT1:0.976569,0.170412,-0.000000,0.131423 LARM_JOINT2:0.813219,0.000000,-0.189686,-0.550177 LARM_JOINT3:0.964515,0.000000,-0.226458,-0.135745 LLEG_JOINT2:0.995893,0.032309,0.000000,0.084582 LLEG_JOINT4:0.994874,0.090453,0.000000,-0.045219 RARM_JOINT2:0.779417,0.000000,-0.073909,0.622130 RARM_JOINT3:0.975682,0.000000,0.161393,0.148317 RLEG_JOINT2:0.999739,0.018970,0.000000,-0.012751 RLEG_JOINT4:0.994505,0.103235,0.000000,0.017403 WAIST:0.999613,0.000000,-0.026040,-0.009745 WAIST_JOINT0:0.998277,0.000000,-0.058659,0.001610 WAIST_JOINT1:0.997447,0.069730,0.000000,-0.015368 END:
KINECT_DATA_Sensor  AnkleLeft:0.065323,0.730748,-0.107229,-0.671001 AnkleRight:0.084916,0.681142,0.087459,0.721932 ElbowLeft:-0.136139,0.936455,-0.097354,-0.308285 ElbowRight:0.047019,0.837869,0.177622,0.514019 FootLeft:0.000000,0.000000,0.000000,0.000000 FootRight:0.000000,0.000000,0.000000,0.000000 HandLeft:-0.305537,0.776241,-0.089269,0.544177 HandRight:-0.055751,0.827890,-0.053243,-0.555568 HandTipLeft:0.000000,0.000000,0.000000,0.000000 HandTipRight:0.000000,0.000000,0.000000,0.000000 Head:0.000000,0.000000,0.000000,0.000000 HipLeft:0.136664,-0.684217,0.694161,-0.176946 HipRight:-0.102023,0.673215,0.713339,-0.165892 KneeLeft:-0.032057,0.724730,-0.074875,-0.684202 KneeRight:-0.001879,0.688783,0.029199,0.724377 Neck:0.057871,-0.026606,0.994451,-0.083725 ShoulderLeft:-0.014025,0.785150,-0.610303,0.104276 ShoulderRight:0.061442,0.784322,0.617194,-0.011636 SpineBase:0.025701,-0.025487,0.998414,-0.043131 SpineMid:0.041218,-0.026155,0.997893,-0.042730 SpineShoulder:0.057634,-0.025061,0.995923,-0.064706 ThumbLeft:0.000000,0.000000,0.000000,0.000000 ThumbRight:0.000000,0.000000,0.000000,0.000000 WristLeft:-0.237057,0.793647,-0.075172,0.555228 WristRight:-0.034200,0.836956,0.055035,-0.543420 END:
KINECT_DATA POSITION:4.990510,-2.050044,-6.953597 HEAD_JOINT1:0.979201,0.155947,-0.000000,0.129793 LARM_JOINT2:0.816254,0.000000,-0.401755,-0.415117 LARM_JOINT3:0.969431,0.000000,-0.214220,-0.119640 LLEG_JOINT2:0.991984,0.046606,0.000000,0.117455 LLEG_JOINT4:0.994130,0.084617,0.000000,-0.067418 RARM_JOINT2:0.773725,0.000000,-0.080196,0.628426 RARM_JOINT3:0.975582,0.000000,0.154900,0.155708 RLEG_JOINT2:0.999583,0.020703,0.000000,0.020140 RLEG_JOINT4:0.994722,0.102532,0.000000,-0.003976 WAIST:0.998793,0.000000,-0.041729,-0.025927 WAIST_JOINT0:0.995649,0.000000,-0.093100,-0.004035 WAIST_JOINT1:0.998007,0.062257,0.000000,-0.010346 END:
KINECT_DATA_Sensor  AnkleLeft:0.071856,0.735101,-0.110416,-0.665035 AnkleRight:0.082113,0.661649,0.090777,0.739755 ElbowLeft:-0.328818,0.928233,-0.066716,-0.160659 ElbowRight:0.046642,0.831303,0.176671,0.524926 FootLeft:0.000000,0.000000,0.000000,0.000000 FootRight:0.000000,0.000000,0.000000,0.000000 HandLeft:0.010527,-0.349499,-0.401557,0.846458 HandRight:-0.027368,0.825150,-0.072898,-0.559521 HandTipLeft:0.000000,0.000000,0.000000,0.000000 HandTipRight:0.000000,0.000000,0.000000,0.000000 Head:0.000000,0.000000,0.000000,0.000000 HipLeft:-0.152178,0.693422,-0.680864,0.180090 HipRight:-0.096328,0.664246,0.725331,-0.152950 KneeLeft:-0.036126,0.736839,-0.095807,-0.668269 KneeRight:0.010536,0.676404,0.017518,0.736247 Neck:0.093201,-0.037480,0.992141,-0.074601 ShoulderLeft:-0.057517,0.787327,-0.598755,0.135279 ShoulderRight:0.063422,0.783116,0.618509,0.012403 SpineBase:0.042196,-0.036162,0.997812,-0.035808 SpineMid:0.066816,-0.037035,0.996467,-0.034904 SpineShoulder:0.092776,-0.036434,0.993419,-0.056430 ThumbLeft:0.000000,0.000000,0.000000,0.000000 ThumbRight:0.000000,0.000000,0.000000,0.000000 WristLeft:0.020406,-0.346883,-0.390992,0.852280 WristRight:-0.044692,0.833427,0.059491,-0.547597 END:
KINECT_DATA POSITION:5.533029,-1.627220,-7.453859 HEAD_JOINT1:0.979633,0.151102,-0.000000,0.132243 LARM_JOINT2:0.841706,0.000000,-0.472536,-0.261229 LARM_JOINT3:0.959147,0.000000,-0.233893,-0.159159 LLEG_JOINT2:0.993189,0.056983,0.000000,0.101625 LLEG_JOINT4:0.994531,0.073757,0.000000,-0.073941 RARM_JOINT2:0.773525,0.000000,-0.076512,0.629130 RARM_JOINT3:0.976899,0.000000,0.144936,0.157041 RLEG_JOINT2:0.999988,0.004595,0.000000,-0.001470 RLEG_JOINT4:0.993077,0.117455,0.000000,-0.001306 WAIST:0.996270,0.000000,-0.084568,-0.017173 WAIST_JOINT0:0.990149,0.000000,-0.139957,0.004129 WAIST_JOINT1:0.997837,0.061500,0.000000,-0.023212 END:
KINECT_DATA_Sensor  AnkleLeft:0.069799,0.720642,-0.108613,-0.681180 AnkleRight:0.078900,0.633981,0.093264,0.763639 ElbowLeft:-0.443386,0.884151,-0.146455,0.015390 ElbowRight:0.053163,0.821434,0.174964,0.540193 FootLeft:0.000000,0.000000,0.000000,0.000000 FootRight:0.000000,0.000000,0.000000,0.000000 HandLeft:0.028826,-0.378998,-0.460684,0.802060 HandRight:-0.001069,0.863912,-0.071808,-0.498496 HandTipLeft:0.000000,0.000000,0.000000,0.000000 HandTipRight:0.000000,0.000000,0.000000,0.000000 Head:0.000000,0.000000,0.000000,0.000000 HipLeft:0.171158,-0.680862,0.681701,-0.205950 HipRight:-0.067995,0.674557,0.723084,-0.132286 KneeLeft:-0.028239,0.765159,-0.097191,-0.635837 KneeRight:-0.009559,0.645565,0.016240,0.763473 Neck:0.141606,-0.041211,0.986280,-0.074167 ShoulderLeft:-0.110224,0.765993,-0.605537,0.185553 ShoulderRight:0.076610,0.778042,0.622453,0.036519 SpineBase:0.084448,-0.031263,0.995078,-0.041360 SpineMid:0.112533,-0.032419,0.992294,-0.040460 SpineShoulder:0.141449,-0.037728,0.987586,-0.056942 ThumbLeft:0.000000,0.000000,0.000000,0.000000 ThumbRight:0.000000,0.000000,0.000000,0.000000 WristLeft:0.012049,-0.392053,-0.435226,0.810387 WristRight:-0.045075,0.867460,0.055028,-0.492395 END:
KINECT_DATA POSITION:5.767894,-1.247264,-7.704842 HEAD_JOINT1:0.981985,0.140008,-0.000000,0.126895 LARM_JOINT2:0.843573,0.000000,-0.460877,-0.275640 LARM_JOINT3:0.956685,0.000000,-0.264931,-0.120686 LLEG_JOINT2:0.994157,0.060109,0.000000,0.089660 LLEG_JOINT4:0.994660,0.070728,0.000000,-0.075166 RARM_JOINT2:0.774603,0.000000,-0.070878,0.628464 RARM_JOINT3:0.975759,0.000000,0.148827,0.160453 RLEG_JOINT2:0.999918,-0.001718,-0.000000,-0.012678 RLEG_JOINT4:0.992114,0.125297,0.000000,-0.003233 WAIST:0.994541,0.000000,-0.103966,-0.008872 WAIST_JOINT0:0.986912,0.000000,-0.161153,0.005833 WAIST_JOINT1:0.997364,0.065790,0.000000,-0.030591 END:
KINECT_DATA_Sensor  AnkleLeft:0.070863,0.726380,-0.108278,-0.675001 AnkleRight:0.079580,0.620920,0.096505,0.773829 ElbowLeft:-0.442204,0.889138,-0.087733,-0.078689 ElbowRight:0.058100,0.815906,0.174315,0.548211 FootLeft:0.000000,0.000000,0.000000,0.000000 FootRight:0.000000,0.000000,0.000000,0.000000 HandLeft:0.014017,-0.354298,-0.456460,0.816039 HandRight:-0.016843,0.872737,-0.065321,-0.483508 HandTipLeft:0.000000,0.000000,0.000000,0.000000 HandTipRight:0.000000,0.000000,0.000000,0.000000 Head:0.000000,0.000000,0.000000,0.000000 HipLeft:0.182241,-0.670959,0.684444,-0.219405 HipRight:-0.054976,0.681161,0.719195,-0.125520 KneeLeft:-0.024942,0.777107,-0.097076,-0.621337 KneeRight:-0.015557,0.631389,0.015076,0.775164 Neck:0.162115,-0.039226,0.982475,-0.083203 ShoulderLeft:-0.127298,0.757341,-0.605918,0.207588 ShoulderRight:0.087485,0.777712,0.620790,0.046147 SpineBase:0.103078,-0.029287,0.993200,-0.045511 SpineMid:0.132128,-0.030608,0.989754,-0.044633 SpineShoulder:0.162025,-0.035466,0.984246,-0.061228 ThumbLeft:0.000000,0.000000,0.000000,0.000000 ThumbRight:0.000000,0.000000,0.000000,0.000000 WristLeft:-0.018466,-0.362636,-0.482429,0.797130 WristRight:-0.045213,0.876566,0.052445,-0.476274 END:
KINECT_DATA POSITION:5.838622,-0.981298,-7.856667 HEAD_JOINT1:0.981383,0.138805,-0.000000,0.132745 LARM_JOINT2:0.841763,0.000000,-0.464034,-0.275876 LARM_JOINT3:0.953007,0.000000,-0.280357,-0.114794 LLEG_JOINT2:0.994565,0.059237,0.000000,0.085626 LLEG_JOINT4:0.994618,0.068657,0.000000,-0.077594 RARM_JOINT2:0.772669,0.000000,-0.068368,0.631117 RARM_JOINT3:0.976726,0.000000,0.148603,0.154673 RLEG_JOINT2:0.999799,-0.003928,-0.000000,-0.019659 RLEG_JOINT4:0.992225,0.124394,0.000000,-0.003911 WAIST:0.994146,0.000000,-0.107987,-0.003649 WAIST_JOINT0:0.985438,0.000000,-0.169940,0.005684 WAIST_JOINT1:0.997075,0.066616,0.000000,-0.037473 END:
KINECT_DATA_Sensor  AnkleLeft:0.069978,0.728517,-0.105890,-0.673166 AnkleRight:0.076221,0.616160,0.096629,0.777946 ElbowLeft:-0.443538,0.888379,-0.072176,-0.094063 ElbowRight:0.059377,0.816607,0.172277,0.547675 FootLeft:0.000000,0.000000,0.000000,0.000000 FootRight:0.000000,0.000000,0.000000,0.000000 HandLeft:-0.020882,-0.318980,-0.461691,0.827440 HandRight:-0.012353,0.881431,-0.047719,-0.469733 HandTipLeft:0.000000,0.000000,0.000000,0.000000 HandTipRight:0.000000,0.000000,0.000000,0.000000 Head:0.000000,0.000000,0.000000,0.000000 HipLeft:0.186138,-0.666858,0.686057,-0.223560 HipRight:-0.052677,0.685312,0.715099,-0.127305 KneeLeft:-0.026459,0.779208,-0.097414,-0.618584 KneeRight:-0.017911,0.628807,0.015493,0.777201 Neck:0.170801,-0.042525,0.980747,-0.084583 ShoulderLeft:-0.133538,0.753691,-0.606388,0.215432 ShoulderRight:0.093674,0.775536,0.622181,0.051571 SpineBase:0.106509,-0.029796,0.992727,-0.047549 SpineMid:0.138269,-0.031304,0.988804,-0.046570 SpineShoulder:0.170903,-0.036680,0.982612,-0.062614 ThumbLeft:0.000000,0.000000,0.000000,0.000000 ThumbRight:0.000000,0.000000,0.000000,0.000000 WristLeft:-0.057463,-0.326422,-0.495092,0.803138 WristRight:-0.042842,0.882825,0.049305,-0.465137 END:
KINECT_DATA POSITION:5.901731,-0.849032,-7.921410 HEAD_JOINT1:0.981065,0.138454,-0.000000,0.135435 LARM_JOINT2:0.801695,0.000000,-0.515219,-0.303041 LARM_JOINT3:0.970880,0.000000,-0.232696,-0.056968 LLEG_JOINT2:0.994971,0.057004,0.000000,0.082358 LLEG_JOINT4:0.994415,0.073147,0.000000,-0.076079 RARM_JOINT2:0.771689,0.000000,-0.066754,0.632487 RARM_JOINT3:0.976686,0.000000,0.151218,0.152371 RLEG_JOINT2:0.999716,-0.004427,-0.000000,-0.023396 RLEG_JOINT4:0.992155,0.125007,0.000000,-0.001064 WAIST:0.994269,0.000000,-0.106906,-0.000938 WAIST_JOINT0:0.984935,0.000000,-0.172825,0.005820 WAIST_JOINT1:0.996911,0.067355,0.000000,-0.040393 END:
KINECT_DATA_Sensor  AnkleLeft:0.071765,0.733131,-0.107775,-0.667647 AnkleRight:0.077237,0.614135,0.095835,0.779544 ElbowLeft:-0.438797,0.889614,0.019886,-0.125093 ElbowRight:0.059022,0.816360,0.171148,0.548435 FootLeft:0.000000,0.000000,0.000000,0.000000 FootRight:0.000000,0.000000,0.000000,0.000000 HandLeft:0.061981,-0.307492,-0.446349,0.838081 HandRight:-0.022627,0.862947,-0.038328,-0.503330 HandTipLeft:0.000000,0.000000,0.000000,0.000000 HandTipRight:0.000000,0.000000,0.000000,0.000000 Head:0.000000,0.000000,0.000000,0.000000 HipLeft:0.186022,-0.665262,0.687515,-0.223931 HipRight:-0.053252,0.687146,0.712867,-0.129673 KneeLeft:-0.027176,0.778243,-0.095554,-0.620056 KneeRight:-0.018736,0.629885,0.016166,0.776294 Neck:0.173661,-0.043543,0.980129,-0.085405 ShoulderLeft:-0.135612,0.752292,-0.606599,0.218410 ShoulderRight:0.095768,0.774941,0.622485,0.052986 SpineBase:0.105140,-0.029638,0.992829,-0.048555 SpineMid:0.139032,-0.031281,0.988653,-0.047513 SpineShoulder:0.173826,-0.037086,0.982030,-0.063457 ThumbLeft:0.000000,0.000000,0.000000,0.000000 ThumbRight:0.000000,0.000000,0.000000,0.000000 WristLeft:-0.052812,-0.333964,-0.519815,0.784520 WristRight:-0.039955,0.864889,0.050653,-0.497800 END:
KINECT_DATA POSITION:5.910101,-0.763328,-8.004475 HEAD_JOINT1:0.980639,0.139902,-0.000000,0.137022 LARM_JOINT2:0.801559,0.000000,-0.520718,-0.293863 LARM_JOINT3:0.974102,0.000000,-0.219274,-0.055171 LLEG_JOINT2:0.995040,0.056542,0.000000,0.081844 LLEG_JOINT4:0.994923,0.068909,0.000000,-0.073343 RARM_JOINT2:0.771216,0.000000,-0.065489,0.633196 RARM_JOINT3:0.976303,0.000000,0.153410,0.152637 RLEG_JOINT2:0.999702,-0.005820,-0.000000,-0.023718 RLEG_JOINT4:0.992524,0.122043,0.000000,-0.001355 WAIST:0.994301,0.000000,-0.106612,-0.000419 WAIST_JOINT0:0.984596,0.000000,-0.174748,0.005771 WAIST_JOINT1:0.996852,0.067865,0.000000,-0.041002 END:
KINECT_DATA_Sensor  AnkleLeft:0.076572,0.793656,-0.098853,-0.595377 AnkleRight:0.073666,0.613470,0.093341,0.780715 ElbowLeft:-0.445738,0.885573,0.023281,-0.128593 ElbowRight:0.058863,0.816907,0.170372,0.547879 FootLeft:0.000000,0.000000,0.000000,0.000000 FootRight:0.000000,0.000000,0.000000,0.000000 HandLeft:0.169460,-0.292763,-0.353060,0.872308 HandRight:-0.032259,0.882559,-0.034217,-0.467844 HandTipLeft:0.000000,0.000000,0.000000,0.000000 HandTipRight:0.000000,0.000000,0.000000,0.000000 Head:0.000000,0.000000,0.000000,0.000000 HipLeft:0.186290,-0.665011,0.687543,-0.224367 HipRight:-0.053934,0.687574,0.712192,-0.130827 KneeLeft:-0.027414,0.777995,-0.095242,-0.620404 KneeRight:-0.019662,0.630212,0.015175,0.776026 Neck:0.175652,-0.043503,0.979783,-0.085318 ShoulderLeft:-0.137936,0.751069,-0.606629,0.221066 ShoulderRight:0.096414,0.774488,0.622934,0.053165 SpineBase:0.104787,-0.029609,0.992855,-0.048801 SpineMid:0.139824,-0.031316,0.988530,-0.047724 SpineShoulder:0.175790,-0.037439,0.981624,-0.064105 ThumbLeft:0.000000,0.000000,0.000000,0.000000 ThumbRight:0.000000,0.000000,0.000000,0.000000 WristLeft:-0.074547,-0.311074,-0.528973,0.786043 WristRight:-0.041796,0.884441,0.048488,-0.462240 END:
KINECT_DATA POSITION:5.931743,-0.762895,-8.014023 HEAD_JOINT1:0.980401,0.141995,-0.000000,0.136573 LARM_JOINT2:0.802450,0.000000,-0.519083,-0.294325 LARM_JOINT3:0.975789,0.000000,-0.210407,-0.059711 LLEG_JOINT2:0.995136,0.055871,0.000000,0.081138 LLEG_JOINT4:0.994417,0.073283,0.000000,-0.075919 RARM_JOINT2:0.771343,0.000000,-0.065470,0.633043 RARM_JOINT3:0.976357,0.000000,0.155011,0.150662 RLEG_JOINT2:0.999683,-0.005172,-0.000000,-0.024649 RLEG_JOINT4:0.992330,0.123613,0.000000,-0.001297 WAIST:0.994334,0.000000,-0.106297,0.000483 WAIST_JOINT0:0.984532,0.000000,-0.175095,0.006222 WAIST_JOINT1:0.996891,0.067276,0.000000,-0.041008 END:
KINECT_DATA_Sensor  AnkleLeft:0.070892,0.731723,-0.107361,-0.669350 AnkleRight:0.075371,0.612950,0.094865,0.780777 ElbowLeft:-0.445905,0.886094,0.018958,-0.125089 ElbowRight:0.058339,0.816417,0.169668,0.548883 FootLeft:0.000000,0.000000,0.000000,0.000000 FootRight:0.000000,0.000000,0.000000,0.000000 HandLeft:0.176852,-0.323813,-0.320611,0.872397 HandRight:-0.034856,0.870531,-0.024637,-0.490259 HandTipLeft:0.000000,0.000000,0.000000,0.000000 HandTipRight:0.000000,0.000000,0.000000,0.000000 Head:0.000000,0.000000,0.000000,0.000000 HipLeft:0.186521,-0.664622,0.688008,-0.223905 HipRight:-0.054751,0.688252,0.711475,-0.130824 KneeLeft:-0.027901,0.777726,-0.094921,-0.620769 KneeRight:-0.019107,0.630429,0.015660,0.775854 Neck:0.176037,-0.042300,0.979836,-0.084518 ShoulderLeft:-0.139512,0.750386,-0.606883,0.221699 ShoulderRight:0.095352,0.774774,0.622758,0.052969 SpineBase:0.104436,-0.029142,0.992934,-0.048224 SpineMid:0.139811,-0.030845,0.988574,-0.047153 SpineShoulder:0.176139,-0.036773,0.981619,-0.063617 ThumbLeft:0.000000,0.000000,0.000000,0.000000 ThumbRight:0.000000,0.000000,0.000000,0.000000 WristLeft:-0.049218,-0.330969,-0.524676,0.782785 WristRight:-0.040729,0.872171,0.049917,-0.484940 END:
KINECT_DATA POSITION:5.942673,-0.781112,-8.064663 HEAD_JOINT1:0.980338,0.145071,-0.000000,0.133758 LARM_JOINT2:0.802400,0.000000,-0.517565,-0.297121 LARM_JOINT3:0.975971,0.000000,-0.209107,-0.061271 LLEG_JOINT2:0.995259,0.055343,0.000000,0.079978 LLEG_JOINT4:0.994488,0.070478,0.000000,-0.077635 RARM_JOINT2:0.771785,0.000000,-0.065195,0.632533 RARM_JOINT3:0.977054,0.000000,0.152516,0.148673 RLEG_JOINT2:0.999654,-0.005833,-0.000000,-0.025662 RLEG_JOINT4:0.992436,0.122765,0.000000,-0.000528 WAIST:0.994345,0.000000,-0.106192,0.001283 WAIST_JOINT0:0.984475,0.000000,-0.175391,0.006882 WAIST_JOINT1:0.996951,0.066723,0.000000,-0.040454 END:
KINECT_DATA_Sensor  AnkleLeft:0.068989,0.721042,-0.104663,-0.681458 AnkleRight:0.074572,0.612789,0.093578,0.781135 ElbowLeft:-0.444504,0.887264,0.016254,-0.122127 ElbowRight:0.057647,0.815679,0.168941,0.550275 FootLeft:0.000000,0.000000,0.000000,0.000000 FootRight:0.000000,0.000000,0.000000,0.000000 HandLeft:0.153973,-0.324873,-0.337276,0.870054 HandRight:-0.024486,0.873784,-0.029336,-0.484811 HandTipLeft:0.000000,0.000000,0.000000,0.000000 HandTipRight:0.000000,0.000000,0.000000,0.000000 Head:0.000000,0.000000,0.000000,0.000000 HipLeft:0.186869,-0.664232,0.688391,-0.223593 HipRight:-0.055637,0.688921,0.710836,-0.130399 KneeLeft:-0.027896,0.777618,-0.094344,-0.620992 KneeRight:-0.019696,0.630465,0.015468,0.775813 Neck:0.176168,-0.040697,0.979925,-0.084003 ShoulderLeft:-0.141389,0.748491,-0.608528,0.222405 ShoulderRight:0.093905,0.774771,0.623053,0.052127 SpineBase:0.104336,-0.028239,0.993008,-0.047454 SpineMid:0.139812,-0.029920,0.988637,-0.046413 SpineShoulder:0.176253,-0.035565,0.981677,-0.063085 ThumbLeft:0.000000,0.000000,0.000000,0.000000 ThumbRight:0.000000,0.000000,0.000000,0.000000 WristLeft:-0.040962,-0.335446,-0.519971,0.784493 WristRight:-0.041291,0.874802,0.050307,-0.480089 END:
KINECT_DATA POSITION:5.912076,-0.770416,-8.221745 HEAD_JOINT1:0.980042,0.148427,-0.000000,0.132238 LARM_JOINT2:0.802849,0.000000,-0.517819,-0.295459 LARM_JOINT3:0.975905,0.000000,-0.209757,-0.060099 LLEG_JOINT2:0.995274,0.055178,0.000000,0.079911 LLEG_JOINT4:0.994394,0.069736,0.000000,-0.079477 RARM_JOINT2:0.771667,0.000000,-0.065291,0.632667 RARM_JOINT3:0.977908,0.000000,0.148533,0.147087 RLEG_JOINT2:0.999630,-0.007115,-0.000000,-0.026243 RLEG_JOINT4:0.992268,0.124106,0.000000,-0.001327 WAIST:0.994281,0.000000,-0.106774,0.002242 WAIST_JOINT0:0.984308,0.000000,-0.176291,0.007679 WAIST_JOINT1:0.996930,0.066867,0.000000,-0.040737 END:
KINECT_DATA_Sensor  AnkleLeft:0.069317,0.721871,-0.103439,-0.680733 AnkleRight:0.074490,0.612324,0.093970,0.781460 ElbowLeft:-0.445921,0.888831,0.007243,-0.105270 ElbowRight:0.057779,0.813623,0.168437,0.553451 FootLeft:0.000000,0.000000,0.000000,0.000000 FootRight:0.000000,0.000000,0.000000,0.000000 HandLeft:0.143498,-0.275542,-0.393931,0.865046 HandRight:-0.008301,0.875144,-0.042365,-0.481933 HandTipLeft:0.000000,0.000000,0.000000,0.000000 HandTipRight:0.000000,0.000000,0.000000,0.000000 Head:0.000000,0.000000,0.000000,0.000000 HipLeft:0.187234,-0.663607,0.688812,-0.223846 HipRight:-0.055585,0.689818,0.710098,-0.129697 KneeLeft:-0.028675,0.777896,-0.094837,-0.620533 KneeRight:-0.020374,0.630033,0.014452,0.776166 Neck:0.176762,-0.039982,0.979822,-0.084295 ShoulderLeft:-0.143026,0.746503,-0.610069,0.223815 ShoulderRight:0.093411,0.774926,0.622985,0.051520 SpineBase:0.104886,-0.027319,0.992990,-0.047159 SpineMid:0.140401,-0.028991,0.988594,-0.046150 SpineShoulder:0.176864,-0.034858,0.981579,-0.063307 ThumbLeft:0.000000,0.000000,0.000000,0.000000 ThumbRight:0.000000,0.000000,0.000000,0.000000 WristLeft:-0.052111,-0.312851,-0.509509,0.799881 WristRight:-0.041594,0.875929,0.050850,-0.477946 END:
KINECT_DATA POSITION:5.930744,-0.778538,-8.540916 HEAD_JOINT1:0.980009,0.149604,-0.000000,0.131152 LARM_JOINT2:0.838245,0.000000,-0.486773,-0.245758 LARM_JOINT3:0.962300,0.000000,-0.266246,-0.055602 LLEG_JOINT2:0.995633,0.052382,0.000000,0.077278 LLEG_JOINT4:0.994345,0.071516,0.000000,-0.078512 RARM_JOINT2:0.771168,0.000000,-0.062111,0.633595 RARM_JOINT3:0.976651,0.000000,0.156444,0.147236 RLEG_JOINT2:0.999555,-0.009015,-0.000000,-0.028420 RLEG_JOINT4:0.991959,0.126551,0.000000,0.001459 WAIST:0.994446,0.000000,-0.105154,0.004564 WAIST_JOINT0:0.984056,0.000000,-0.177556,0.010387 WAIST_JOINT1:0.996767,0.068182,0.000000,-0.042500 END:
KINECT_DATA_Sensor  AnkleLeft:0.079953,0.794557,-0.094470,-0.594442 AnkleRight:0.076519,0.611044,0.092591,0.782430 ElbowLeft:-0.473626,0.865914,-0.031696,-0.157693 ElbowRight:0.056893,0.814248,0.167020,0.553054 FootLeft:0.000000,0.000000,0.000000,0.000000 FootRight:0.000000,0.000000,0.000000,0.000000 HandLeft:0.050439,-0.314832,-0.485378,0.814092 HandRight:-0.039506,0.862785,-0.024544,-0.503428 HandTipLeft:0.000000,0.000000,0.000000,0.000000 HandTipRight:0.000000,0.000000,0.000000,0.000000 Head:0.000000,0.000000,0.000000,0.000000 HipLeft:0.185174,-0.662380,0.690639,-0.223565 HipRight:-0.055307,0.691383,0.708306,-0.131276 KneeLeft:-0.029940,0.776549,-0.092673,-0.622485 KneeRight:-0.021606,0.631523,0.013284,0.774942 Neck:0.177962,-0.039751,0.979499,-0.085620 ShoulderLeft:-0.145283,0.740336,-0.615989,0.226614 ShoulderRight:0.094155,0.773654,0.624577,0.049986 SpineBase:0.103029,-0.026389,0.993141,-0.048583 SpineMid:0.140098,-0.028187,0.988593,-0.047563 SpineShoulder:0.178088,-0.034580,0.981277,-0.064686 ThumbLeft:0.000000,0.000000,0.000000,0.000000 ThumbRight:0.000000,0.000000,0.000000,0.000000 WristLeft:-0.007844,-0.327883,-0.548636,0.769044 WristRight:-0.040601,0.865034,0.051564,-0.497402 END:
KINECT_DATA POSITION:5.982579,-0.843675,-8.714283 HEAD_JOINT1:0.982099,0.143505,-0.000000,0.122015 LARM_JOINT2:0.826468,0.000000,-0.511587,-0.235008 LARM_JOINT3:0.967153,0.000000,-0.252870,-0.025935 LLEG_JOINT2:0.995921,0.050849,0.000000,0.074538 LLEG_JOINT4:0.994430,0.069719,0.000000,-0.079048 RARM_JOINT2:0.774824,0.000000,-0.059001,0.629417 RARM_JOINT3:0.977372,0.000000,0.152061,0.147039 RLEG_JOINT2:0.999457,-0.011973,-0.000000,-0.030701 RLEG_JOINT4:0.992028,0.126003,0.000000,-0.001960 WAIST:0.994217,0.000000,-0.107173,0.006853 WAIST_JOINT0:0.982299,0.000000,-0.185516,0.025932 WAIST_JOINT1:0.996523,0.072161,0.000000,-0.041660 END:
KINECT_DATA_Sensor  AnkleLeft:0.066837,0.718700,-0.100485,-0.684767 AnkleRight:0.071748,0.607176,0.093229,0.785810 ElbowLeft:-0.483833,0.861517,-0.007248,-0.153755 ElbowRight:0.058132,0.813516,0.170039,0.553082 FootLeft:0.000000,0.000000,0.000000,0.000000 FootRight:0.000000,0.000000,0.000000,0.000000 HandLeft:0.117556,-0.347929,-0.521841,0.769940 HandRight:-0.009197,0.866361,-0.041072,-0.497642 HandTipLeft:0.000000,0.000000,0.000000,0.000000 HandTipRight:0.000000,0.000000,0.000000,0.000000 Head:0.000000,0.000000,0.000000,0.000000 HipLeft:0.184163,-0.660335,0.692199,-0.225618 HipRight:-0.052005,0.693316,0.706835,-0.130358 KneeLeft:-0.030617,0.777507,-0.091303,-0.621457 KneeRight:-0.023689,0.630174,0.011654,0.776005 Neck:0.186069,-0.035968,0.977678,-0.090723 ShoulderLeft:-0.155339,0.718583,-0.635027,0.237169 ShoulderRight:0.098591,0.774723,0.622429,0.051635 SpineBase:0.104797,-0.024563,0.992894,-0.050753 SpineMid:0.144953,-0.026600,0.987831,-0.049715 SpineShoulder:0.186186,-0.031952,0.979616,-0.068304 ThumbLeft:0.000000,0.000000,0.000000,0.000000 ThumbRight:0.000000,0.000000,0.000000,0.000000 WristLeft:0.046102,-0.379621,-0.552041,0.740954 WristRight:-0.041964,0.867238,0.052238,-0.493365 END:
KINECT_DATA POSITION:5.996534,-0.902016,-8.887172 HEAD_JOINT1:0.981933,0.144368,-0.000000,0.122334 LARM_JOINT2:0.828066,0.000000,-0.511225,-0.230119 LARM_JOINT3:0.968633,0.000000,-0.243904,-0.047548 LLEG_JOINT2:0.995994,0.050131,0.000000,0.074052 LLEG_JOINT4:0.994609,0.069315,0.000000,-0.077122 RARM_JOINT2:0.775093,0.000000,-0.061002,0.628896 RARM_JOINT3:0.975737,0.000000,0.159183,0.150325 RLEG_JOINT2:0.999421,-0.014717,-0.000000,-0.030673 RLEG_JOINT4:0.991897,0.127041,0.000000,-0.001348 WAIST:0.994122,0.000000,-0.108025,0.007202 WAIST_JOINT0:0.982158,0.000000,-0.186468,0.024408 WAIST_JOINT1:0.996456,0.072660,0.000000,-0.042384 END:
KINECT_DATA_Sensor  AnkleLeft:0.067401,0.737906,-0.098881,-0.664209 AnkleRight:0.071199,0.606650,0.091355,0.786486 ElbowLeft:-0.486648,0.860731,-0.011557,-0.148935 ElbowRight:0.059443,0.811227,0.171689,0.555788 FootLeft:0.000000,0.000000,0.000000,0.000000 FootRight:0.000000,0.000000,0.000000,0.000000 HandLeft:-0.009734,-0.312374,-0.449785,0.836673 HandRight:-0.038262,0.860625,-0.031747,-0.506806 HandTipLeft:0.000000,0.000000,0.000000,0.000000 HandTipRight:0.000000,0.000000,0.000000,0.000000 Head:0.000000,0.000000,0.000000,0.000000 HipLeft:0.183327,-0.659617,0.692713,-0.226818 HipRight:-0.050102,0.693470,0.706827,-0.130323 KneeLeft:-0.031034,0.777913,-0.090655,-0.621023 KneeRight:-0.025556,0.629664,0.009704,0.776386 Neck:0.186751,-0.036509,0.977515,-0.090866 ShoulderLeft:-0.155787,0.719069,-0.633850,0.238546 ShoulderRight:0.099224,0.774137,0.623096,0.051170 SpineBase:0.105549,-0.024106,0.992744,-0.052319 SpineMid:0.145719,-0.026208,0.987647,-0.051298 SpineShoulder:0.186903,-0.032168,0.979422,-0.069032 ThumbLeft:0.000000,0.000000,0.000000,0.000000 ThumbRight:0.000000,0.000000,0.000000,0.000000 WristLeft:-0.005452,-0.289787,-0.549382,0.783692 WristRight:-0.039192,0.863564,0.053017,-0.499911 END:
KINECT_DATA POSITION:6.008730,-0.909614,-8.906627 HEAD_JOINT1:0.981885,0.144774,-0.000000,0.122235 LARM_JOINT2:0.827235,0.000000,-0.510277,-0.235160 LARM_JOINT3:0.969371,0.000000,-0.242226,-0.040575 LLEG_JOINT2:0.996062,0.049461,0.000000,0.073583 LLEG_JOINT4:0.994447,0.071218,0.000000,-0.077477 RARM_JOINT2:0.775119,0.000000,-0.060165,0.628944 RARM_JOINT3:0.975808,0.000000,0.159080,0.149971 RLEG_JOINT2:0.999410,-0.015452,-0.000000,-0.030683 RLEG_JOINT4:0.991592,0.129393,0.000000,-0.001884 WAIST:0.994011,0.000000,-0.109013,0.007594 WAIST_JOINT0:0.981745,0.000000,-0.188749,0.023454 WAIST_JOINT1:0.996407,0.072987,0.000000,-0.042971 END:
KINECT_DATA_Sensor  AnkleLeft:0.066200,0.723544,-0.101194,-0.679604 AnkleRight:0.072401,0.605034,0.092536,0.787483 ElbowLeft:-0.482421,0.864536,-0.014748,-0.140106 ElbowRight:0.059590,0.811772,0.171630,0.554994 FootLeft:0.000000,0.000000,0.000000,0.000000 FootRight:0.000000,0.000000,0.000000,0.000000 HandLeft:0.080800,-0.391609,-0.490461,0.774314 HandRight:-0.037086,0.868237,-0.029450,-0.493885 HandTipLeft:0.000000,0.000000,0.000000,0.000000 HandTipRight:0.000000,0.000000,0.000000,0.000000 Head:0.000000,0.000000,0.000000,0.000000 HipLeft:0.183519,-0.659260,0.692836,-0.227322 HipRight:-0.049112,0.693948,0.706551,-0.129651 KneeLeft:-0.031463,0.778465,-0.090087,-0.620393 KneeRight:-0.025847,0.628947,0.009010,0.776966 Neck:0.189254,-0.036941,0.976983,-0.091228 ShoulderLeft:-0.159199,0.719019,-0.631800,0.241859 ShoulderRight:0.099438,0.773735,0.623538,0.051443 SpineBase:0.106490,-0.023903,0.992636,-0.052565 SpineMid:0.147446,-0.026057,0.987383,-0.051531 SpineShoulder:0.189437,-0.032342,0.978904,-0.069394 ThumbLeft:0.000000,0.000000,0.000000,0.000000 ThumbRight:0.000000,0.000000,0.000000,0.000000 WristLeft:0.061719,-0.391270,-0.538623,0.743629 WristRight:-0.039744,0.870624,0.052022,-0.487574 END:
KINECT_DATA POSITION:6.001181,-0.849583,-8.990252 HEAD_JOINT1:0.983400,0.140078,-0.000000,0.115335 LARM_JOINT2:0.856545,0.000000,-0.481203,-0.186480 LARM_JOINT3:0.943494,0.000000,-0.312598,-0.110009 LLEG_JOINT2:0.996103,0.048799,0.000000,0.073465 LLEG_JOINT4:0.994315,0.072928,0.000000,-0.077581 RARM_JOINT2:0.775725,0.000000,-0.055434,0.628632 RARM_JOINT3:0.975816,0.000000,0.158915,0.150100 RLEG_JOINT2:0.999366,-0.016759,-0.000000,-0.031399 RLEG_JOINT4:0.991270,0.131835,0.000000,-0.002040 WAIST:0.994189,0.000000,-0.107353,0.007941 WAIST_JOINT0:0.982150,0.000000,-0.187031,0.020035 WAIST_JOINT1:0.996146,0.077244,0.000000,-0.041546 END:
KINECT_DATA_Sensor  AnkleLeft:0.066463,0.719393,-0.102294,-0.683807 AnkleRight:0.085839,0.715396,0.082051,0.688555 ElbowLeft:-0.497390,0.856752,-0.123962,-0.056672 ElbowRight:0.059808,0.811982,0.171300,0.554766 FootLeft:0.000000,0.000000,0.000000,0.000000 FootRight:0.000000,0.000000,0.000000,0.000000 HandLeft:0.035557,-0.445348,-0.527855,0.722337 HandRight:-0.042650,0.857937,-0.037628,-0.510597 HandTipLeft:0.000000,0.000000,0.000000,0.000000 HandTipRight:0.000000,0.000000,0.000000,0.000000 Head:0.000000,0.000000,0.000000,0.000000 HipLeft:0.181023,-0.658643,0.693888,-0.227903 HipRight:-0.048947,0.693572,0.706530,-0.131823 KneeLeft:-0.031915,0.777264,-0.089779,-0.621918 KneeRight:-0.027094,0.630327,0.008460,0.775811 Neck:0.185706,-0.035521,0.977274,-0.095846 ShoulderLeft:-0.145235,0.724636,-0.630399,0.237502 ShoulderRight:0.107120,0.774471,0.621318,0.051802 SpineBase:0.104732,-0.022957,0.992729,-0.054709 SpineMid:0.144864,-0.025154,0.987671,-0.053734 SpineShoulder:0.186019,-0.030303,0.979324,-0.073505 ThumbLeft:0.000000,0.000000,0.000000,0.000000 ThumbRight:0.000000,0.000000,0.000000,0.000000 WristLeft:0.047344,-0.442662,-0.512951,0.733955 WristRight:-0.037574,0.862069,0.052101,-0.502703 END:
KINECT_DATA POSITION:5.988702,-0.758188,-9.021891 HEAD_JOINT1:0.984625,0.135193,-0.000000,0.110618 LARM_JOINT2:0.819553,0.000000,-0.523885,-0.232117 LARM_JOINT3:0.965955,0.000000,-0.254702,-0.045357 LLEG_JOINT2:0.996182,0.046376,0.000000,0.073963 LLEG_JOINT4:0.994201,0.075371,0.000000,-0.076708 RARM_JOINT2:0.774644,0.000000,-0.051979,0.630258 RARM_JOINT3:0.976391,0.000000,0.158530,0.146730 RLEG_JOINT2:0.999360,-0.014846,-0.000000,-0.032543 RLEG_JOINT4:0.991822,0.127622,0.000000,0.001362 WAIST:0.994596,0.000000,-0.103500,0.008192 WAIST_JOINT0:0.982274,0.000000,-0.186553,0.018325 WAIST_JOINT1:0.995970,0.080095,0.000000,-0.040361 END:
KINECT_DATA_Sensor  AnkleLeft:0.066876,0.725496,-0.102114,-0.677315 AnkleRight:0.071971,0.606755,0.090918,0.786386 ElbowLeft:-0.481585,0.868773,-0.021606,-0.113323 ElbowRight:0.059309,0.810967,0.169061,0.556986 FootLeft:0.000000,0.000000,0.000000,0.000000 FootRight:0.000000,0.000000,0.000000,0.000000 HandLeft:0.062323,-0.384602,-0.528521,0.754230 HandRight:-0.038082,0.875216,-0.045328,-0.480095 HandTipLeft:0.000000,0.000000,0.000000,0.000000 HandTipRight:0.000000,0.000000,0.000000,0.000000 Head:0.000000,0.000000,0.000000,0.000000 HipLeft:0.177717,-0.658365,0.695085,-0.227660 HipRight:-0.050761,0.692792,0.706426,-0.135736 KneeLeft:-0.033727,0.774593,-0.088480,-0.625331 KneeRight:-0.026198,0.633307,0.010244,0.773390 Neck:0.184185,-0.034862,0.977325,-0.098475 ShoulderLeft:-0.135764,0.726545,-0.631555,0.234179 ShoulderRight:0.113973,0.773829,0.620765,0.053380 SpineBase:0.100814,-0.021938,0.993044,-0.056740 SpineMid:0.142194,-0.024288,0.987968,-0.055774 SpineShoulder:0.184586,-0.029202,0.979429,-0.076118 ThumbLeft:0.000000,0.000000,0.000000,0.000000 ThumbRight:0.000000,0.000000,0.000000,0.000000 WristLeft:0.036759,-0.397080,-0.535514,0.744447 WristRight:-0.039834,0.879047,0.050639,-0.472361 END:
KINECT_DATA POSITION:5.945412,-0.727190,-9.055638 HEAD_JOINT1:0.984847,0.132394,-0.000000,0.112019 LARM_JOINT2:0.839724,0.000000,-0.506304,-0.196268 LARM_JOINT3:0.949650,0.000000,-0.298005,-0.096733 LLEG_JOINT2:0.996195,0.045314,0.000000,0.074450 LLEG_JOINT4:0.994228,0.074973,0.000000,-0.076747 RARM_JOINT2:0.773576,0.000000,-0.052073,0.631560 RARM_JOINT3:0.976471,0.000000,0.160698,0.143804 RLEG_JOINT2:0.999330,-0.016229,-0.000000,-0.032797 RLEG_JOINT4:0.991225,0.132157,0.000000,0.002610 WAIST:0.994889,0.000000,-0.100605,0.008652 WAIST_JOINT0:0.982180,0.000000,-0.187079,0.018026 WAIST_JOINT1:0.995921,0.080899,0.000000,-0.039963 END:
KINECT_DATA_Sensor  AnkleLeft:0.064626,0.717107,-0.101914,-0.686437 AnkleRight:0.087342,0.713473,0.080549,0.690536 ElbowLeft:-0.497714,0.860044,-0.088990,-0.068453 ElbowRight:0.059627,0.809609,0.167590,0.559367 FootLeft:0.000000,0.000000,0.000000,0.000000 FootRight:0.000000,0.000000,0.000000,0.000000 HandLeft:-0.001816,-0.317347,-0.498061,0.806984 HandRight:-0.036596,0.879781,-0.041152,-0.472178 HandTipLeft:0.000000,0.000000,0.000000,0.000000 HandTipRight:0.000000,0.000000,0.000000,0.000000 Head:0.000000,0.000000,0.000000,0.000000 HipLeft:0.174953,-0.658067,0.696014,-0.227825 HipRight:-0.052327,0.692642,0.705905,-0.138590 KneeLeft:-0.034880,0.772596,-0.088366,-0.627751 KneeRight:-0.027157,0.635525,0.009152,0.771549 Neck:0.184009,-0.034578,0.977354,-0.098609 ShoulderLeft:-0.131051,0.727098,-0.632749,0.231910 ShoulderRight:0.118093,0.773726,0.619912,0.055772 SpineBase:0.097894,-0.020246,0.993280,-0.058328 SpineMid:0.140716,-0.022747,0.988123,-0.057399 SpineShoulder:0.184439,-0.028762,0.979407,-0.076919 ThumbLeft:0.000000,0.000000,0.000000,0.000000 ThumbRight:0.000000,0.000000,0.000000,0.000000 WristLeft:-0.050421,-0.332395,-0.528478,0.779540 WristRight:-0.041565,0.882801,0.050115,-0.465213 END:
KINECT_DATA POSITION:5.926002,-0.719519,-9.082532 HEAD_JOINT1:0.983852,0.136806,-0.000000,0.115407 LARM_JOINT2:0.802124,0.000000,-0.538186,-0.258752 LARM_JOINT3:0.969404,0.000000,-0.244759,-0.018660 LLEG_JOINT2:0.996188,0.045201,0.000000,0.074612 LLEG_JOINT4:0.994299,0.074931,0.000000,-0.075865 RARM_JOINT2:0.772430,0.000000,-0.054029,0.632798 RARM_JOINT3:0.976334,0.000000,0.161573,0.143757 RLEG_JOINT2:0.999353,-0.014904,-0.000000,-0.032737 RLEG_JOINT4:0.991597,0.129332,0.000000,0.002902 WAIST:0.994991,0.000000,-0.099594,0.008649 WAIST_JOINT0:0.982156,0.000000,-0.187200,0.018046 WAIST_JOINT1:0.996044,0.079124,0.000000,-0.040450 END:
KINECT_DATA_Sensor  AnkleLeft:0.063759,0.716275,-0.102338,-0.687323 AnkleRight:0.073630,0.606065,0.091256,0.786725 ElbowLeft:-0.465157,0.868191,0.035312,-0.169196 ElbowRight:0.059377,0.809063,0.166461,0.560520 FootLeft:0.000000,0.000000,0.000000,0.000000 FootRight:0.000000,0.000000,0.000000,0.000000 HandLeft:0.042989,-0.353639,-0.512962,0.781001 HandRight:-0.045052,0.877107,-0.039215,-0.476566 HandTipLeft:0.000000,0.000000,0.000000,0.000000 HandTipRight:0.000000,0.000000,0.000000,0.000000 Head:0.000000,0.000000,0.000000,0.000000 HipLeft:0.174792,-0.658264,0.696043,-0.227290 HipRight:-0.053463,0.692518,0.705804,-0.139288 KneeLeft:-0.034991,0.771961,-0.088410,-0.628519 KneeRight:-0.026106,0.636268,0.009906,0.770962 Neck:0.184437,-0.035479,0.977474,-0.096274 ShoulderLeft:-0.134943,0.726462,-0.632418,0.232576 ShoulderRight:0.115048,0.773413,0.620912,0.055363 SpineBase:0.096905,-0.020250,0.993396,-0.058005 SpineMid:0.140443,-0.022778,0.988181,-0.057060 SpineShoulder:0.184862,-0.029409,0.979440,-0.075227 ThumbLeft:0.000000,0.000000,0.000000,0.000000 ThumbRight:0.000000,0.000000,0.000000,0.000000 WristLeft:0.010082,-0.359619,-0.556342,0.749036 WristRight:-0.040895,0.880901,0.050158,-0.468855 END:
KINECT_DATA POSITION:5.885532,-0.715223,-9.104097 HEAD_JOINT1:0.983344,0.139513,-0.000000,0.116495 LARM_JOINT2:0.799681,0.000000,-0.538920,-0.264718 LARM_JOINT3:0.969422,0.000000,-0.245030,-0.013476 LLEG_JOINT2:0.996184,0.045508,0.000000,0.074473 LLEG_JOINT4:0.993954,0.077983,0.000000,-0.077294 RARM_JOINT2:0.771540,0.000000,-0.054314,0.633858 RARM_JOINT3:0.976601,0.000000,0.160505,0.143140 RLEG_JOINT2:0.999375,-0.013771,-0.000000,-0.032556 RLEG_JOINT4:0.991601,0.129298,0.000000,0.003029 WAIST:0.995097,0.000000,-0.098525,0.008610 WAIST_JOINT0:0.982184,0.000000,-0.187069,0.017909 WAIST_JOINT1:0.996086,0.078659,0.000000,-0.040307 END:
KINECT_DATA_Sensor  AnkleLeft:0.067533,0.717772,-0.103757,-0.685184 AnkleRight:0.074426,0.606026,0.091916,0.786603 ElbowLeft:-0.457450,0.855639,0.071030,-0.231467 ElbowRight:0.059065,0.808189,0.165213,0.562180 FootLeft:0.000000,0.000000,0.000000,0.000000 FootRight:0.000000,0.000000,0.000000,0.000000 HandLeft:0.088243,-0.364914,-0.344459,0.860465 HandRight:-0.045628,0.868959,-0.043295,-0.490871 HandTipLeft:0.000000,0.000000,0.000000,0.000000 HandTipRight:0.000000,0.000000,0.000000,0.000000 Head:0.000000,0.000000,0.000000,0.000000 HipLeft:0.174367,-0.658592,0.696039,-0.226678 HipRight:-0.054533,0.692477,0.705639,-0.139910 KneeLeft:-0.034566,0.771325,-0.088563,-0.629300 KneeRight:-0.025159,0.637045,0.010470,0.770345 Neck:0.184351,-0.035451,0.977536,-0.095814 ShoulderLeft:-0.136160,0.726216,-0.632393,0.232702 ShoulderRight:0.113799,0.773277,0.621352,0.054904 SpineBase:0.095870,-0.020130,0.993516,-0.057707 SpineMid:0.139872,-0.022671,0.988282,-0.056757 SpineShoulder:0.184757,-0.029501,0.979500,-0.074657 ThumbLeft:0.000000,0.000000,0.000000,0.000000 ThumbRight:0.000000,0.000000,0.000000,0.000000 WristLeft:-0.017722,-0.334288,-0.599073,0.727357 WristRight:-0.040151,0.873533,0.050851,-0.482434 END:
KINECT_DATA POSITION:5.870292,-0.712177,-9.119582 HEAD_JOINT1:0.982531,0.143136,-0.000000,0.118930 LARM_JOINT2:0.800179,0.000000,-0.538076,-0.264928 LARM_JOINT3:0.968971,0.000000,-0.246623,-0.016496 LLEG_JOINT2:0.996194,0.044281,0.000000,0.075083 LLEG_JOINT4:0.994323,0.074835,0.000000,-0.075645 RARM_JOINT2:0.771196,0.000000,-0.054641,0.634248 RARM_JOINT3:0.976392,0.000000,0.161489,0.143455 RLEG_JOINT2:0.999346,-0.015104,-0.000000,-0.032867 RLEG_JOINT4:0.991406,0.130764,0.000000,0.003868 WAIST:0.995142,0.000000,-0.098054,0.008844 WAIST_JOINT0:0.982232,0.000000,-0.186827,0.017757 WAIST_JOINT1:0.996144,0.077670,0.000000,-0.040789 END:
KINECT_DATA_Sensor  AnkleLeft:0.064429,0.727519,-0.100797,-0.675577 AnkleRight:0.074967,0.606002,0.091512,0.786618 ElbowLeft:-0.462026,0.870349,0.035434,-0.166642 ElbowRight:0.058486,0.808649,0.164673,0.561738 FootLeft:0.000000,0.000000,0.000000,0.000000 FootRight:0.000000,0.000000,0.000000,0.000000 HandLeft:0.084515,-0.401039,-0.527723,0.743998 HandRight:-0.051113,0.861545,-0.039433,-0.503560 HandTipLeft:0.000000,0.000000,0.000000,0.000000 HandTipRight:0.000000,0.000000,0.000000,0.000000 Head:0.000000,0.000000,0.000000,0.000000 HipLeft:0.174701,-0.658645,0.696074,-0.226158 HipRight:-0.055406,0.692627,0.705379,-0.140134 KneeLeft:-0.035953,0.770943,-0.088181,-0.629744 KneeRight:-0.026232,0.637419,0.009691,0.770010 Neck:0.184243,-0.035775,0.977650,-0.094740 ShoulderLeft:-0.138387,0.725819,-0.632255,0.233002 ShoulderRight:0.111618,0.773039,0.622111,0.054129 SpineBase:0.095398,-0.020263,0.993592,-0.057128 SpineMid:0.139573,-0.022788,0.988355,-0.056168 SpineShoulder:0.184633,-0.029824,0.979587,-0.073688 ThumbLeft:0.000000,0.000000,0.000000,0.000000 ThumbRight:0.000000,0.000000,0.000000,0.000000 WristLeft:0.047918,-0.414808,-0.551116,0.722433 WristRight:-0.040065,0.866545,0.051516,-0.494813 END:
KINECT_DATA POSITION:5.871387,-0.709736,-9.121084 HEAD_JOINT1:0.983801,0.137034,-0.000000,0.115573 LARM_JOINT2:0.797481,0.000000,-0.542860,-0.263300 LARM_JOINT3:0.969202,0.000000,-0.245754,-0.015906 LLEG_JOINT2:0.996223,0.044221,0.000000,0.074729 LLEG_JOINT4:0.994189,0.075466,0.000000,-0.076762 RARM_JOINT2:0.771668,0.000000,-0.050896,0.633986 RARM_JOINT3:0.976551,0.000000,0.161718,0.142112 RLEG_JOINT2:0.999353,-0.014162,-0.000000,-0.033065 RLEG_JOINT4:0.991499,0.130087,0.000000,0.002570 WAIST:0.995202,0.000000,-0.097395,0.009363 WAIST_JOINT0:0.982264,0.000000,-0.186672,0.017653 WAIST_JOINT1:0.995963,0.080345,0.000000,-0.040034 END:
KINECT_DATA_Sensor  AnkleLeft:0.064632,0.720223,-0.101309,-0.683255 AnkleRight:0.074470,0.606353,0.092519,0.786277 ElbowLeft:-0.461892,0.870757,0.037819,-0.164340 ElbowRight:0.058233,0.808692,0.164207,0.561838 FootLeft:0.000000,0.000000,0.000000,0.000000 FootRight:0.000000,0.000000,0.000000,0.000000 HandLeft:-0.021728,-0.289811,-0.541622,0.788786 HandRight:-0.047777,0.880634,-0.043593,-0.469362 HandTipLeft:0.000000,0.000000,0.000000,0.000000 HandTipRight:0.000000,0.000000,0.000000,0.000000 Head:0.000000,0.000000,0.000000,0.000000 HipLeft:0.173715,-0.658178,0.696629,-0.226570 HipRight:-0.055574,0.692808,0.704993,-0.141112 KneeLeft:-0.036036,0.770453,-0.088291,-0.630324 KneeRight:-0.025272,0.637937,0.010049,0.769608 Neck:0.183442,-0.034197,0.977523,-0.098121 ShoulderLeft:-0.131878,0.727623,-0.632115,0.231523 ShoulderRight:0.116319,0.774198,0.619704,0.055268 SpineBase:0.094684,-0.019459,0.993626,-0.057994 SpineMid:0.138817,-0.022021,0.988427,-0.057071 SpineShoulder:0.183835,-0.028685,0.979584,-0.076144 ThumbLeft:0.000000,0.000000,0.000000,0.000000 ThumbRight:0.000000,0.000000,0.000000,0.000000 WristLeft:-0.035738,-0.295876,-0.549267,0.780696 WristRight:-0.042351,0.884978,0.049932,-0.461007 END:
KINECT_DATA POSITION:5.852473,-0.697750,-9.145856 HEAD_JOINT1:0.981938,0.146168,-0.000000,0.120137 LARM_JOINT2:0.843662,0.000000,-0.493541,-0.211310 LARM_JOINT3:0.946187,0.000000,-0.307281,-0.101531 LLEG_JOINT2:0.996180,0.044515,0.000000,0.075128 LLEG_JOINT4:0.994268,0.074418,0.000000,-0.076766 RARM_JOINT2:0.771173,0.000000,-0.055304,0.634219 RARM_JOINT3:0.976318,0.000000,0.162056,0.143319 RLEG_JOINT2:0.999366,-0.014206,-0.000000,-0.032648 RLEG_JOINT4:0.991702,0.128551,0.000000,0.000949 WAIST:0.995277,0.000000,-0.096632,0.009317 WAIST_JOINT0:0.982419,0.000000,-0.185880,0.017381 WAIST_JOINT1:0.996225,0.076459,0.000000,-0.041096 END:
KINECT_DATA_Sensor  AnkleLeft:0.075961,0.798882,-0.092161,-0.589511 AnkleRight:0.072382,0.607171,0.092472,0.785846 ElbowLeft:-0.490043,0.861460,-0.080304,-0.106283 ElbowRight:0.057926,0.810173,0.164245,0.559722 FootLeft:0.000000,0.000000,0.000000,0.000000 FootRight:0.000000,0.000000,0.000000,0.000000 HandLeft:0.045379,-0.343331,-0.460037,0.817576 HandRight:-0.052215,0.858921,-0.035553,-0.508197 HandTipLeft:0.000000,0.000000,0.000000,0.000000 HandTipRight:0.000000,0.000000,0.000000,0.000000 Head:0.000000,0.000000,0.000000,0.000000 HipLeft:0.174503,-0.658626,0.696347,-0.225525 HipRight:-0.057261,0.692848,0.704818,-0.141117 KneeLeft:-0.036047,0.770035,-0.088768,-0.630767 KneeRight:-0.025089,0.638470,0.009705,0.769177 Neck:0.183361,-0.035812,0.977956,-0.093264 ShoulderLeft:-0.139599,0.727034,-0.630800,0.232432 ShoulderRight:0.108945,0.773705,0.621821,0.053390 SpineBase:0.093990,-0.019734,0.993767,-0.056604 SpineMid:0.138436,-0.022251,0.988555,-0.055663 SpineShoulder:0.183742,-0.029811,0.979842,-0.072523 ThumbLeft:0.000000,0.000000,0.000000,0.000000 ThumbRight:0.000000,0.000000,0.000000,0.000000 WristLeft:-0.055082,-0.358005,-0.546730,0.754907 WristRight:-0.040861,0.863644,0.051458,-0.499801 END:
KINECT_DATA POSITION:5.683521,-0.914065,-9.101379 HEAD_JOINT1:0.981333,0.150302,-0.000000,0.119982 LARM_JOINT2:0.892396,0.000000,-0.418491,-0.168805 LARM_JOINT3:0.935405,0.000000,-0.329214,-0.128976 LLEG_JOINT2:0.995692,0.048002,0.000000,0.079333 LLEG_JOINT4:0.994452,0.069243,0.000000,-0.079187 RARM_JOINT2:0.771793,0.000000,-0.055347,0.633461 RARM_JOINT3:0.975974,0.000000,0.163407,0.144125 RLEG_JOINT2:0.999512,-0.014683,-0.000000,-0.027560 RLEG_JOINT4:0.991708,0.128512,0.000000,-0.000596 WAIST:0.994821,0.000000,-0.101444,0.006323 WAIST_JOINT0:0.983411,0.000000,-0.180747,0.015290 WAIST_JOINT1:0.996541,0.073818,0.000000,-0.038166 END:
KINECT_DATA_Sensor  AnkleLeft:0.062441,0.717551,-0.099448,-0.686536 AnkleRight:0.073334,0.609981,0.090625,0.783793 ElbowLeft:-0.488022,0.845805,-0.197246,-0.086849 ElbowRight:0.057572,0.813553,0.163149,0.555157 FootLeft:0.000000,0.000000,0.000000,0.000000 FootRight:0.000000,0.000000,0.000000,0.000000 HandLeft:0.266880,-0.346779,-0.448994,0.779053 HandRight:-0.054666,0.871666,-0.018273,-0.486699 HandTipLeft:0.000000,0.000000,0.000000,0.000000 HandTipRight:0.000000,0.000000,0.000000,0.000000 Head:0.000000,0.000000,0.000000,0.000000 HipLeft:0.178513,-0.660727,0.693262,-0.225745 HipRight:-0.055299,0.692212,0.706790,-0.135028 KneeLeft:-0.035292,0.773541,-0.091905,-0.626052 KneeRight:-0.024293,0.634488,0.007715,0.772512 Neck:0.179286,-0.034236,0.979043,-0.090332 ShoulderLeft:-0.139840,0.731199,-0.626922,0.229699 ShoulderRight:0.102474,0.773929,0.622975,0.049353 SpineBase:0.099213,-0.020848,0.993418,-0.053321 SpineMid:0.138958,-0.022968,0.988642,-0.052442 SpineShoulder:0.179577,-0.028996,0.980806,-0.070215 ThumbLeft:0.000000,0.000000,0.000000,0.000000 ThumbRight:0.000000,0.000000,0.000000,0.000000 WristLeft:0.058132,-0.421484,-0.500146,0.754206 WristRight:-0.044580,0.874456,0.049023,-0.480559 END:
KINECT_DATA POSITION:5.304808,-1.592937,-8.762444 HEAD_JOINT1:0.979442,0.154022,-0.000000,0.130274 LARM_JOINT2:0.864577,0.000000,-0.427158,-0.264656 LARM_JOINT3:0.992330,0.000000,-0.123547,-0.004234 LLEG_JOINT2:0.996349,0.033797,0.000000,0.078401 LLEG_JOINT4:0.994223,0.084667,0.000000,-0.065968 RARM_JOINT2:0.775627,0.000000,-0.057997,0.628521 RARM_JOINT3:0.972661,0.000000,0.181637,0.144702 RLEG_JOINT2:0.999624,0.001383,0.000000,-0.027394 RLEG_JOINT4:0.993251,0.115413,0.000000,0.011489 WAIST:0.998534,0.000000,-0.053261,0.009645 WAIST_JOINT0:0.990553,0.000000,-0.136991,0.006221 WAIST_JOINT1:0.997214,0.067685,0.000000,-0.031353 END:
KINECT_DATA_Sensor  AnkleLeft:0.062505,0.728897,-0.102867,-0.673959 AnkleRight:0.087165,0.698554,0.078706,0.705854 ElbowLeft:-0.460786,0.788411,-0.015497,-0.407241 ElbowRight:0.043869,0.827600,0.161530,0.535781 FootLeft:0.000000,0.000000,0.000000,0.000000 FootRight:0.000000,0.000000,0.000000,0.000000 HandLeft:0.061110,0.276593,-0.341381,0.896226 HandRight:-0.104852,0.819789,-0.002255,-0.562980 HandTipLeft:0.000000,0.000000,0.000000,0.000000 HandTipRight:0.000000,0.000000,0.000000,0.000000 Head:0.000000,0.000000,0.000000,0.000000 HipLeft:0.157989,-0.668033,0.699267,-0.199490 HipRight:-0.091159,0.690706,0.699182,-0.160499 KneeLeft:-0.042346,0.741579,-0.084420,-0.664184 KneeRight:-0.010426,0.670331,0.014510,0.741847 Neck:0.138712,-0.026660,0.986627,-0.081341 ShoulderLeft:-0.105191,0.765005,-0.606215,0.190279 ShoulderRight:0.077197,0.781343,0.618701,0.027438 SpineBase:0.051379,-0.017857,0.997459,-0.046009 SpineMid:0.094520,-0.019832,0.994299,-0.045193 SpineShoulder:0.138818,-0.023181,0.988045,-0.062917 ThumbLeft:0.000000,0.000000,0.000000,0.000000 ThumbRight:0.000000,0.000000,0.000000,0.000000 WristLeft:-0.057556,0.218339,-0.537310,0.812597 WristRight:-0.054613,0.828441,0.058928,-0.554283 END:
KINECT_DATA POSITION:4.994381,-1.902530,-8.486843 HEAD_JOINT1:0.979383,0.162678,-0.000000,0.119767 LARM_JOINT2:0.875143,0.000000,-0.397610,-0.275736 LARM_JOINT3:0.991957,0.000000,-0.126124,0.010672 LLEG_JOINT2:0.996791,0.027761,0.000000,0.075082 LLEG_JOINT4:0.994677,0.087535,0.000000,-0.054367 RARM_JOINT2:0.781821,0.000000,-0.053430,0.621210 RARM_JOINT3:0.973305,0.000000,0.175706,0.147667 RLEG_JOINT2:0.999589,0.006925,0.000000,-0.027818 RLEG_JOINT4:0.993395,0.113003,0.000000,0.019914 WAIST:0.999616,0.000000,-0.025290,0.011318 WAIST_JOINT0:0.996284,0.000000,-0.085296,0.011911 WAIST_JOINT1:0.997792,0.061815,0.000000,-0.024297 END:
KINECT_DATA_Sensor  AnkleLeft:0.059364,0.733213,-0.103535,-0.669444 AnkleRight:0.092541,0.710079,0.076708,0.693787 ElbowLeft:-0.453837,0.783991,-0.068214,-0.418016 ElbowRight:0.031472,0.845929,0.159062,0.508048 FootLeft:0.000000,0.000000,0.000000,0.000000 FootRight:0.000000,0.000000,0.000000,0.000000 HandLeft:0.212239,0.035708,-0.387250,0.896503 HandRight:-0.103285,0.794683,-0.020075,-0.597837 HandTipLeft:0.000000,0.000000,0.000000,0.000000 HandTipRight:0.000000,0.000000,0.000000,0.000000 Head:0.000000,0.000000,0.000000,0.000000 HipLeft:0.141385,-0.670905,0.705369,-0.179864 HipRight:-0.110483,0.688427,0.696705,-0.168714 KneeLeft:-0.043143,0.722612,-0.079890,-0.685265 KneeRight:-0.006117,0.690237,0.016942,0.723359 Neck:0.087234,-0.017505,0.993118,-0.076166 ShoulderLeft:-0.064631,0.775903,-0.611526,0.140831 ShoulderRight:0.048819,0.788577,0.612990,-0.002366 SpineBase:0.023846,-0.011731,0.998837,-0.040240 SpineMid:0.055195,-0.012989,0.997595,-0.039852 SpineShoulder:0.087322,-0.014636,0.994449,-0.056843 ThumbLeft:0.000000,0.000000,0.000000,0.000000 ThumbRight:0.000000,0.000000,0.000000,0.000000 WristLeft:0.154369,-0.007726,-0.495394,0.854807 WristRight:-0.061721,0.805736,0.061900,-0.585789 END:
KINECT_DATA POSITION:4.788866,-2.040296,-8.355177 HEAD_JOINT1:0.979579,0.168572,-0.000000,0.109587 LARM_JOINT2:0.886127,0.000000,-0.378212,-0.267833 LARM_JOINT3:0.993751,0.000000,-0.111619,-0.000452 LLEG_JOINT2:0.997118,0.024257,0.000000,0.071884 LLEG_JOINT4:0.994928,0.089267,0.000000,-0.046365 RARM_JOINT2:0.784473,0.000000,-0.059397,0.617312 RARM_JOINT3:0.973075,0.000000,0.173244,0.152027 RLEG_JOINT2:0.999497,0.013083,0.000000,-0.028875 RLEG_JOINT4:0.993881,0.107697,0.000000,0.024522 WAIST:0.999858,0.000000,-0.010597,0.013086 WAIST_JOINT0:0.998085,0.000000,-0.060231,0.014068 WAIST_JOINT1:0.998040,0.058901,0.000000,-0.021113 END:
KINECT_DATA_Sensor  AnkleLeft:0.054124,0.718038,-0.106510,-0.685673 AnkleRight:0.095111,0.717005,0.075022,0.686462 ElbowLeft:-0.455852,0.781068,-0.111746,-0.411879 ElbowRight:0.031262,0.854065,0.159791,0.494028 FootLeft:0.000000,0.000000,0.000000,0.000000 FootRight:0.000000,0.000000,0.000000,0.000000 HandLeft:0.221811,-0.002122,-0.403309,0.887771 HandRight:-0.096685,0.793826,-0.035892,-0.599337 HandTipLeft:0.000000,0.000000,0.000000,0.000000 HandTipRight:0.000000,0.000000,0.000000,0.000000 Head:0.000000,0.000000,0.000000,0.000000 HipLeft:0.131444,-0.672162,0.708858,-0.168642 HipRight:-0.120352,0.688448,0.694227,-0.172059 KneeLeft:-0.043523,0.712415,-0.076896,-0.696173 KneeRight:-0.001575,0.700520,0.020536,0.713335 Neck:0.061917,-0.012490,0.995279,-0.073686 ShoulderLeft:-0.043892,0.779799,-0.613776,0.115178 ShoulderRight:0.036258,0.791276,0.610168,-0.016201 SpineBase:0.009344,-0.007176,0.999248,-0.036948 SpineMid:0.035402,-0.008137,0.998664,-0.036749 SpineShoulder:0.062020,-0.009867,0.996575,-0.053792 ThumbLeft:0.000000,0.000000,0.000000,0.000000 ThumbRight:0.000000,0.000000,0.000000,0.000000 WristLeft:0.226503,-0.011560,-0.448685,0.864433 WristRight:-0.065506,0.805584,0.058083,-0.585978 END:
KINECT_DATA POSITION:4.698370,-2.105444,-8.312904 HEAD_JOINT1:0.979319,0.175797,-0.000000,0.100151 LARM_JOINT2:0.892679,0.000000,-0.351149,-0.282521 LARM_JOINT3:0.992272,0.000000,-0.122824,0.017628 LLEG_JOINT2:0.997288,0.021546,0.000000,0.070380 LLEG_JOINT4:0.994945,0.090027,0.000000,-0.044485 RARM_JOINT2:0.791460,0.000000,-0.048855,0.609266 RARM_JOINT3:0.973410,0.000000,0.164431,0.159487 RLEG_JOINT2:0.999392,0.013671,0.000000,-0.032060 RLEG_JOINT4:0.993580,0.108256,0.000000,0.032868 WAIST:0.999908,0.000000,-0.000211,0.013532 WAIST_JOINT0:0.998764,0.000000,-0.047739,0.013866 WAIST_JOINT1:0.998253,0.056692,0.000000,-0.016635 END:
KINECT_DATA_Sensor  AnkleLeft:0.053223,0.711497,-0.105084,-0.692746 AnkleRight:0.096541,0.701746,0.075679,0.701787 ElbowLeft:-0.449128,0.740162,-0.101973,-0.489945 ElbowRight:0.021721,0.872140,0.159946,0.461864 FootLeft:0.000000,0.000000,0.000000,0.000000 FootRight:0.000000,0.000000,0.000000,0.000000 HandLeft:0.263108,0.038137,-0.365160,0.892176 HandRight:-0.108016,0.769383,-0.045662,-0.627931 HandTipLeft:0.000000,0.000000,0.000000,0.000000 HandTipRight:0.000000,0.000000,0.000000,0.000000 Head:0.000000,0.000000,0.000000,0.000000 HipLeft:0.124562,-0.673640,0.710319,-0.161681 HipRight:-0.127838,0.688303,0.692404,-0.174565 KneeLeft:-0.044003,0.705161,-0.074579,-0.703739 KneeRight:-0.003406,0.707706,0.022777,0.706131 Neck:0.048310,-0.007664,0.996226,-0.071699 ShoulderLeft:-0.028750,0.779295,-0.618306,0.097829 ShoulderRight:0.033663,0.791259,0.610215,-0.020336 SpineBase:-0.000837,-0.003080,0.999390,-0.034768 SpineMid:0.023586,-0.003928,0.999112,-0.034683 SpineShoulder:0.048451,-0.005317,0.997480,-0.051555 ThumbLeft:0.000000,0.000000,0.000000,0.000000 ThumbRight:0.000000,0.000000,0.000000,0.000000 WristLeft:0.239742,0.002183,-0.460492,0.854673 WristRight:-0.064493,0.785991,0.057800,-0.612142 END:
KINECT_DATA POSITION:4.641628,-2.126335,-8.289576 HEAD_JOINT1:0.979422,0.179229,-0.000000,0.092788 LARM_JOINT2:0.898847,0.000000,-0.326858,-0.291956 LARM_JOINT3:0.990782,0.000000,-0.132968,0.025914 LLEG_JOINT2:0.997492,0.019199,0.000000,0.068131 LLEG_JOINT4:0.995336,0.087878,0.000000,-0.039787 RARM_JOINT2:0.793322,0.000000,-0.050526,0.606702 RARM_JOINT3:0.973648,0.000000,0.161652,0.160866 RLEG_JOINT2:0.999298,0.017859,0.000000,-0.032920 RLEG_JOINT4:0.993921,0.104417,0.000000,0.034895 WAIST:0.999855,-0.000000,0.007933,0.015046 WAIST_JOINT0:0.999237,0.000000,-0.035525,0.016238 WAIST_JOINT1:0.998302,0.056300,0.000000,-0.014966 END:
KINECT_DATA_Sensor  AnkleLeft:0.049801,0.718249,-0.103561,-0.686231 AnkleRight:0.097385,0.702108,0.075482,0.701330 ElbowLeft:-0.440719,0.715721,-0.110037,-0.530473 ElbowRight:0.021719,0.877252,0.160391,0.451920 FootLeft:0.000000,0.000000,0.000000,0.000000 FootRight:0.000000,0.000000,0.000000,0.000000 HandLeft:0.291316,0.006879,-0.343262,0.892893 HandRight:-0.103010,0.767255,-0.053650,-0.630738 HandTipLeft:0.000000,0.000000,0.000000,0.000000 HandTipRight:0.000000,0.000000,0.000000,0.000000 Head:0.000000,0.000000,0.000000,0.000000 HipLeft:0.119166,-0.673684,0.712358,-0.156510 HipRight:-0.133253,0.688430,0.690459,-0.177692 KneeLeft:0.044655,-0.699322,0.072669,0.709700 KneeRight:-0.000274,0.713411,0.025185,0.700293 Neck:0.035968,-0.004455,0.996783,-0.071487 ShoulderLeft:-0.020995,0.778051,-0.621631,0.088155 ShoulderRight:0.025506,0.792494,0.608614,-0.029864 SpineBase:-0.008957,-0.000512,0.999385,-0.033886 SpineMid:0.013400,-0.001270,0.999336,-0.033866 SpineShoulder:0.036124,-0.002414,0.998035,-0.051134 ThumbLeft:0.000000,0.000000,0.000000,0.000000 ThumbRight:0.000000,0.000000,0.000000,0.000000 WristLeft:0.281193,-0.027534,-0.440988,0.851881 WristRight:-0.064306,0.784315,0.055023,-0.614563 END:
KINECT_DATA POSITION:4.638816,-2.132120,-8.268142 HEAD_JOINT1:0.979301,0.182435,-0.000000,0.087680 LARM_JOINT2:0.902345,0.000000,-0.316519,-0.292557 LARM_JOINT3:0.990310,0.000000,-0.134403,0.034957 LLEG_JOINT2:0.997604,0.018285,0.000000,0.066730 LLEG_JOINT4:0.995224,0.090626,0.000000,-0.036279 RARM_JOINT2:0.791893,0.000000,-0.058558,0.607845 RARM_JOINT3:0.972925,0.000000,0.167370,0.159387 RLEG_JOINT2:0.999272,0.016397,0.000000,-0.034460 RLEG_JOINT4:0.993732,0.105586,0.000000,0.036718 WAIST:0.999811,-0.000000,0.011547,0.015659 WAIST_JOINT0:0.999612,0.000000,-0.019735,0.019649 WAIST_JOINT1:0.998343,0.055970,0.000000,-0.013346 END:
KINECT_DATA_Sensor  AnkleLeft:0.050445,0.720404,-0.106213,-0.683515 AnkleRight:0.097308,0.702602,0.075231,0.700873 ElbowLeft:-0.439406,0.707827,-0.119304,-0.540065 ElbowRight:0.026269,0.872447,0.159795,0.461099 FootLeft:0.000000,0.000000,0.000000,0.000000 FootRight:0.000000,0.000000,0.000000,0.000000 HandLeft:0.304007,0.050497,-0.365552,0.878295 HandRight:-0.105189,0.753746,-0.047216,-0.646973 HandTipLeft:0.000000,0.000000,0.000000,0.000000 HandTipRight:0.000000,0.000000,0.000000,0.000000 Head:0.000000,0.000000,0.000000,0.000000 HipLeft:0.116682,-0.673713,0.713215,-0.154340 HipRight:-0.136121,0.688404,0.689531,-0.179216 KneeLeft:0.044544,-0.696759,0.071580,0.712334 KneeRight:-0.002095,0.715915,0.024745,0.697745 Neck:0.020685,-0.001509,0.997241,-0.071282 ShoulderLeft:-0.013071,0.777161,-0.624359,0.077631 ShoulderRight:0.013721,0.793363,0.607062,-0.043160 SpineBase:-0.012541,0.001082,0.999360,-0.033470 SpineMid:0.004014,0.000528,0.999431,-0.033483 SpineShoulder:0.020845,0.000204,0.998489,-0.050844 ThumbLeft:0.000000,0.000000,0.000000,0.000000 ThumbRight:0.000000,0.000000,0.000000,0.000000 WristLeft:0.274293,0.012187,-0.446614,0.851558 WristRight:-0.064907,0.770397,0.055323,-0.631834 END:
KINECT_DATA POSITION:4.649425,-2.151597,-8.216596 HEAD_JOINT1:0.979299,0.185089,-0.000000,0.081943 LARM_JOINT2:0.904000,0.000000,-0.312377,-0.291898 LARM_JOINT3:0.988297,0.000000,-0.148371,0.035432 LLEG_JOINT2:0.997743,0.017936,0.000000,0.064710 LLEG_JOINT4:0.995302,0.089967,0.000000,-0.035788 RARM_JOINT2:0.792299,0.000000,-0.060264,0.607149 RARM_JOINT3:0.973445,0.000000,0.162822,0.160917 RLEG_JOINT2:0.999187,0.019565,0.000000,-0.035258 RLEG_JOINT4:0.993984,0.102635,0.000000,0.038223 WAIST:0.999713,-0.000000,0.016486,0.017397 WAIST_JOINT0:0.999645,0.000000,-0.013919,0.022738 WAIST_JOINT1:0.998356,0.055887,0.000000,-0.012702 END:
KINECT_DATA_Sensor  AnkleLeft:0.049043,0.710876,-0.105835,-0.693577 AnkleRight:0.098027,0.699229,0.075071,0.704155 ElbowLeft:-0.439423,0.704370,-0.127741,-0.542635 ElbowRight:0.026656,0.872916,0.159172,0.460404 FootLeft:0.000000,0.000000,0.000000,0.000000 FootRight:0.000000,0.000000,0.000000,0.000000 HandLeft:0.286785,0.045921,-0.394124,0.871959 HandRight:-0.094499,0.775955,-0.074258,-0.619233 HandTipLeft:0.000000,0.000000,0.000000,0.000000 HandTipRight:0.000000,0.000000,0.000000,0.000000 Head:0.000000,0.000000,0.000000,0.000000 HipLeft:0.112791,-0.673117,0.715216,-0.150529 HipRight:-0.139394,0.688873,0.687968,-0.180898 KneeLeft:0.044321,-0.693199,0.071275,0.715843 KneeRight:0.000587,0.719389,0.026279,0.694110 Neck:0.014650,0.000881,0.997345,-0.071323 ShoulderLeft:-0.010724,0.774998,-0.627496,0.074237 ShoulderRight:0.008226,0.795133,0.604413,-0.048803 SpineBase:-0.017506,0.003055,0.999301,-0.032885 SpineMid:-0.001462,0.002526,0.999453,-0.032929 SpineShoulder:0.014821,0.002296,0.998600,-0.050732 ThumbLeft:0.000000,0.000000,0.000000,0.000000 ThumbRight:0.000000,0.000000,0.000000,0.000000 WristLeft:0.276281,0.023431,-0.447378,0.850278 WristRight:-0.067030,0.794958,0.051854,-0.600716 END:
KINECT_DATA POSITION:4.727742,-2.162953,-8.185577 HEAD_JOINT1:0.979493,0.184767,-0.000000,0.080344 LARM_JOINT2:0.902135,0.000000,-0.324888,-0.283902 LARM_JOINT3:0.987404,0.000000,-0.155202,0.030767 LLEG_JOINT2:0.997797,0.018004,0.000000,0.063844 LLEG_JOINT4:0.995338,0.089599,0.000000,-0.035696 RARM_JOINT2:0.792491,0.000000,-0.060470,0.606878 RARM_JOINT3:0.974153,0.000000,0.158234,0.161205 RLEG_JOINT2:0.999141,0.019305,0.000000,-0.036664 RLEG_JOINT4:0.994049,0.102554,0.000000,0.036727 WAIST:0.999685,-0.000000,0.017298,0.018175 WAIST_JOINT0:0.999649,0.000000,-0.013272,0.022913 WAIST_JOINT1:0.998333,0.056328,0.000000,-0.012598 END:
KINECT_DATA_Sensor  AnkleLeft:0.049692,0.715660,-0.105202,-0.688691 AnkleRight:0.096358,0.701652,0.076084,0.701862 ElbowLeft:-0.447363,0.710836,-0.126919,-0.527703 ElbowRight:0.027161,0.872952,0.159027,0.460355 FootLeft:0.000000,0.000000,0.000000,0.000000 FootRight:0.000000,0.000000,0.000000,0.000000 HandLeft:0.279957,-0.008395,-0.406966,0.869443 HandRight:-0.079532,0.763479,-0.084398,-0.635336 HandTipLeft:0.000000,0.000000,0.000000,0.000000 HandTipRight:0.000000,0.000000,0.000000,0.000000 Head:0.000000,0.000000,0.000000,0.000000 HipLeft:0.111451,-0.672561,0.716161,-0.149510 HipRight:-0.139828,0.689273,0.687604,-0.180420 KneeLeft:0.044171,-0.692621,0.071275,0.716411 KneeRight:-0.000087,0.719956,0.026511,0.693513 Neck:0.013927,0.001766,0.997314,-0.071893 ShoulderLeft:-0.009579,0.774779,-0.627849,0.073704 ShoulderRight:0.008421,0.795224,0.604241,-0.049404 SpineBase:-0.018315,0.004455,0.999287,-0.032700 SpineMid:-0.002195,0.003927,0.999453,-0.032767 SpineShoulder:0.014107,0.003076,0.998587,-0.051152 ThumbLeft:0.000000,0.000000,0.000000,0.000000 ThumbRight:0.000000,0.000000,0.000000,0.000000 WristLeft:0.290714,-0.015253,-0.442829,0.848030 WristRight:-0.066756,0.783143,0.052662,-0.616001 END:
KINECT_DATA POSITION:4.741487,-2.169459,-8.154118 HEAD_JOINT1:0.979340,0.185522,-0.000000,0.080471 LARM_JOINT2:0.901445,0.000000,-0.329071,-0.281264 LARM_JOINT3:0.988265,0.000000,-0.150280,0.027351 LLEG_JOINT2:0.997807,0.017945,0.000000,0.063711 LLEG_JOINT4:0.995367,0.089554,0.000000,-0.034989 RARM_JOINT2:0.792051,0.000000,-0.060574,0.607443 RARM_JOINT3:0.973693,0.000000,0.160213,0.162031 RLEG_JOINT2:0.999139,0.017951,0.000000,-0.037390 RLEG_JOINT4:0.993861,0.104729,0.000000,0.035679 WAIST:0.999687,-0.000000,0.016783,0.018557 WAIST_JOINT0:0.999553,0.000000,-0.019786,0.022412 WAIST_JOINT1:0.998292,0.056969,0.000000,-0.012959 END:
KINECT_DATA_Sensor  AnkleLeft:0.050052,0.723253,-0.105349,-0.680662 AnkleRight:0.094487,0.687969,0.079367,0.715173 ElbowLeft:-0.448972,0.715986,-0.128391,-0.518945 ElbowRight:0.028015,0.872204,0.158755,0.461814 FootLeft:0.000000,0.000000,0.000000,0.000000 FootRight:0.000000,0.000000,0.000000,0.000000 HandLeft:0.305098,-0.053036,-0.378902,0.872087 HandRight:-0.088830,0.762328,-0.085220,-0.635376 HandTipLeft:0.000000,0.000000,0.000000,0.000000 HandTipRight:0.000000,0.000000,0.000000,0.000000 Head:0.000000,0.000000,0.000000,0.000000 HipLeft:0.111123,-0.672065,0.716625,-0.149766 HipRight:-0.139179,0.689453,0.687663,-0.180010 KneeLeft:0.044421,-0.692961,0.071390,0.716056 KneeRight:-0.001260,0.719605,0.025780,0.693904 Neck:0.020396,0.001206,0.997149,-0.072636 ShoulderLeft:-0.017174,0.773692,-0.627986,0.082094 ShoulderRight:0.009153,0.795040,0.604627,-0.047480 SpineBase:-0.017823,0.004929,0.999282,-0.033070 SpineMid:0.001290,0.004295,0.999440,-0.033158 SpineShoulder:0.020606,0.002825,0.998442,-0.051783 ThumbLeft:0.000000,0.000000,0.000000,0.000000 ThumbRight:0.000000,0.000000,0.000000,0.000000 WristLeft:0.312326,-0.065802,-0.427641,0.845722 WristRight:-0.066355,0.783934,0.052186,-0.615079 END:
KINECT_DATA POSITION:4.744017,-2.190989,-8.077097 HEAD_JOINT1:0.979273,0.185601,-0.000000,0.081102 LARM_JOINT2:0.901244,0.000000,-0.330730,-0.279960 LARM_JOINT3:0.990120,0.000000,-0.138316,0.023062 LLEG_JOINT2:0.997835,0.018848,0.000000,0.063009 LLEG_JOINT4:0.995368,0.088897,0.000000,-0.036608 RARM_JOINT2:0.791869,0.000000,-0.060708,0.607666 RARM_JOINT3:0.973633,0.000000,0.163321,0.159264 RLEG_JOINT2:0.999133,0.017238,0.000000,-0.037897 RLEG_JOINT4:0.993640,0.106691,0.000000,0.036012 WAIST:0.999699,-0.000000,0.015465,0.019034 WAIST_JOINT0:0.999508,0.000000,-0.022056,0.022285 WAIST_JOINT1:0.998239,0.057784,0.000000,-0.013441 END:
KINECT_DATA_Sensor  AnkleLeft:0.050433,0.718425,-0.104624,-0.685840 AnkleRight:0.092495,0.658594,0.083625,0.742095 ElbowLeft:-0.450085,0.716411,-0.126867,-0.517768 ElbowRight:0.029035,0.871238,0.158948,0.463504 FootLeft:0.000000,0.000000,0.000000,0.000000 FootRight:0.000000,0.000000,0.000000,0.000000 HandLeft:0.288835,0.006279,-0.371424,0.882371 HandRight:-0.090005,0.753242,-0.067774,-0.648021 HandTipLeft:0.000000,0.000000,0.000000,0.000000 HandTipRight:0.000000,0.000000,0.000000,0.000000 Head:0.000000,0.000000,0.000000,0.000000 HipLeft:0.111172,-0.671373,0.717066,-0.150716 HipRight:-0.137890,0.689758,0.687771,-0.179420 KneeLeft:0.043695,-0.693923,0.071812,0.715126 KneeRight:-0.001732,0.718708,0.025303,0.694849 Neck:0.022536,0.000999,0.997042,-0.073474 ShoulderLeft:-0.018032,0.773266,-0.628185,0.084369 ShoulderRight:0.011093,0.794923,0.604835,-0.046352 SpineBase:-0.016545,0.005352,0.999279,-0.033748 SpineMid:0.003021,0.004690,0.999411,-0.033847 SpineShoulder:0.022769,0.002856,0.998352,-0.052608 ThumbLeft:0.000000,0.000000,0.000000,0.000000 ThumbRight:0.000000,0.000000,0.000000,0.000000 WristLeft:0.288949,-0.016869,-0.442091,0.848988 WristRight:-0.065142,0.771504,0.053267,-0.630635 END:
KINECT_DATA POSITION:4.722410,-2.202864,-8.058429 HEAD_JOINT1:0.979338,0.185228,-0.000000,0.081162 LARM_JOINT2:0.900286,0.000000,-0.333365,-0.279918 LARM_JOINT3:0.990466,0.000000,-0.135725,0.023561 LLEG_JOINT2:0.997846,0.018416,0.000000,0.062958 LLEG_JOINT4:0.995236,0.091079,0.000000,-0.034784 RARM_JOINT2:0.791466,0.000000,-0.060868,0.608175 RARM_JOINT3:0.974094,0.000000,0.158827,0.160980 RLEG_JOINT2:0.999187,0.016225,0.000000,-0.036899 RLEG_JOINT4:0.993599,0.107918,0.000000,0.033393 WAIST:0.999680,-0.000000,0.016378,0.019279 WAIST_JOINT0:0.999527,0.000000,-0.021225,0.022277 WAIST_JOINT1:0.998218,0.058074,0.000000,-0.013683 END:
KINECT_DATA_Sensor  AnkleLeft:0.051543,0.724153,-0.106718,-0.679380 AnkleRight:0.096715,0.705404,0.078733,0.697749 ElbowLeft:-0.450709,0.715748,-0.124252,-0.518775 ElbowRight:0.029390,0.871275,0.158622,0.463525 FootLeft:0.000000,0.000000,0.000000,0.000000 FootRight:0.000000,0.000000,0.000000,0.000000 HandLeft:0.279028,0.029255,-0.380048,0.881391 HandRight:-0.081672,0.761086,-0.088020,-0.637440 HandTipLeft:0.000000,0.000000,0.000000,0.000000 HandTipRight:0.000000,0.000000,0.000000,0.000000 Head:0.000000,0.000000,0.000000,0.000000 HipLeft:0.110428,-0.671279,0.717380,-0.150189 HipRight:-0.138185,0.689727,0.687583,-0.180030 KneeLeft:0.044092,-0.693228,0.071673,0.715789 KneeRight:-0.001583,0.719351,0.023693,0.694241 Neck:0.021677,0.000914,0.997035,-0.073822 ShoulderLeft:-0.015774,0.773324,-0.628392,0.082734 ShoulderRight:0.012279,0.794639,0.605204,-0.046121 SpineBase:-0.017481,0.005318,0.999257,-0.033945 SpineMid:0.002125,0.004651,0.999407,-0.034043 SpineShoulder:0.021910,0.002791,0.998358,-0.052854 ThumbLeft:0.000000,0.000000,0.000000,0.000000 ThumbRight:0.000000,0.000000,0.000000,0.000000 WristLeft:0.277885,0.006386,-0.448287,0.849575 WristRight:-0.065641,0.782156,0.051684,-0.617456 END:
KINECT_DATA POSITION:4.717734,-2.217507,-8.031046 HEAD_JOINT1:0.979187,0.185738,-0.000000,0.081820 LARM_JOINT2:0.899980,0.000000,-0.334422,-0.279638 LARM_JOINT3:0.991222,0.000000,-0.130503,0.021153 LLEG_JOINT2:0.997841,0.018494,0.000000,0.063016 LLEG_JOINT4:0.995298,0.089444,0.000000,-0.037169 RARM_JOINT2:0.790170,0.000000,-0.063023,0.609639 RARM_JOINT3:0.974564,0.000000,0.155772,0.161121 RLEG_JOINT2:0.999109,0.020236,0.000000,-0.037039 RLEG_JOINT4:0.994102,0.102712,0.000000,0.034819 WAIST:0.999673,-0.000000,0.016529,0.019517 WAIST_JOINT0:0.999537,0.000000,-0.021111,0.021917 WAIST_JOINT1:0.998221,0.057913,0.000000,-0.014158 END:
KINECT_DATA_Sensor  AnkleLeft:0.051148,0.720451,-0.104408,-0.683691 AnkleRight:0.096705,0.703369,0.077139,0.699979 ElbowLeft:-0.451129,0.715973,-0.123428,-0.518296 ElbowRight:0.030986,0.869614,0.157891,0.466779 FootLeft:0.000000,0.000000,0.000000,0.000000 FootRight:0.000000,0.000000,0.000000,0.000000 HandLeft:0.283040,0.026945,-0.368557,0.885058 HandRight:-0.073591,0.772252,-0.102937,-0.622588 HandTipLeft:0.000000,0.000000,0.000000,0.000000 HandTipRight:0.000000,0.000000,0.000000,0.000000 Head:0.000000,0.000000,0.000000,0.000000 HipLeft:0.110437,-0.671174,0.717520,-0.149978 HipRight:-0.138320,0.689871,0.687387,-0.180124 KneeLeft:0.044235,-0.693098,0.071942,0.715879 KneeRight:0.001271,0.719496,0.026501,0.693989 Neck:0.021582,0.000510,0.997058,-0.073550 ShoulderLeft:-0.014662,0.773702,-0.628093,0.081663 ShoulderRight:0.013303,0.794298,0.605693,-0.045285 SpineBase:-0.017647,0.005264,0.999258,-0.033829 SpineMid:0.002005,0.004598,0.999412,-0.033926 SpineShoulder:0.021825,0.002603,0.998368,-0.052703 ThumbLeft:0.000000,0.000000,0.000000,0.000000 ThumbRight:0.000000,0.000000,0.000000,0.000000 WristLeft:0.281585,0.001257,-0.444900,0.850160 WristRight:-0.065713,0.794723,0.049663,-0.601357 END:
KINECT_DATA POSITION:4.720782,-2.223562,-8.048094 HEAD_JOINT1:0.979015,0.186720,-0.000000,0.081640 LARM_JOINT2:0.900238,0.000000,-0.334392,-0.278841 LARM_JOINT3:0.991942,0.000000,-0.124686,0.022440 LLEG_JOINT2:0.997805,0.018855,0.000000,0.063480 LLEG_JOINT4:0.995358,0.088915,0.000000,-0.036823 RARM_JOINT2:0.788928,0.000000,-0.064792,0.611060 RARM_JOINT3:0.974199,0.000000,0.161916,0.157222 RLEG_JOINT2:0.999091,0.020435,0.000000,-0.037423 RLEG_JOINT4:0.994185,0.101958,0.000000,0.034647 WAIST:0.999673,-0.000000,0.016516,0.019547 WAIST_JOINT0:0.999566,0.000000,-0.020404,0.021233 WAIST_JOINT1:0.998223,0.057861,0.000000,-0.014255 END:
KINECT_DATA_Sensor  AnkleLeft:0.051080,0.724446,-0.104631,-0.679427 AnkleRight:0.096702,0.710301,0.076140,0.693054 ElbowLeft:-0.451286,0.717528,-0.125370,-0.515536 ElbowRight:0.032261,0.867206,0.157048,0.471433 FootLeft:0.000000,0.000000,0.000000,0.000000 FootRight:0.000000,0.000000,0.000000,0.000000 HandLeft:0.298802,0.026954,-0.362735,0.882278 HandRight:-0.087184,0.768964,-0.083735,-0.627759 HandTipLeft:0.000000,0.000000,0.000000,0.000000 HandTipRight:0.000000,0.000000,0.000000,0.000000 Head:0.000000,0.000000,0.000000,0.000000 HipLeft:0.110347,-0.671146,0.717563,-0.149970 HipRight:-0.138256,0.689887,0.687389,-0.180105 KneeLeft:0.044317,-0.693099,0.072548,0.715812 KneeRight:0.001156,0.719490,0.026890,0.693981 Neck:0.020913,0.000476,0.997078,-0.073470 ShoulderLeft:-0.013331,0.774721,-0.627039,0.080320 ShoulderRight:0.013764,0.794207,0.605813,-0.045118 SpineBase:-0.017635,0.005307,0.999256,-0.033880 SpineMid:0.001680,0.004651,0.999410,-0.033977 SpineShoulder:0.021156,0.002583,0.998385,-0.052654 ThumbLeft:0.000000,0.000000,0.000000,0.000000 ThumbRight:0.000000,0.000000,0.000000,0.000000 WristLeft:0.285867,-0.003922,-0.440267,0.851134 WristRight:-0.064199,0.789326,0.050238,-0.608539 END:
KINECT_DATA POSITION:4.721916,-2.226020,-8.065796 HEAD_JOINT1:0.978988,0.187082,-0.000000,0.081130 LARM_JOINT2:0.900905,0.000000,-0.331696,-0.279907 LARM_JOINT3:0.991835,0.000000,-0.125184,0.024323 LLEG_JOINT2:0.997751,0.018656,0.000000,0.064383 LLEG_JOINT4:0.995301,0.088685,0.000000,-0.038874 RARM_JOINT2:0.788599,0.000000,-0.065240,0.611438 RARM_JOINT3:0.973876,0.000000,0.163316,0.157776 RLEG_JOINT2:0.999098,0.020383,0.000000,-0.037260 RLEG_JOINT4:0.994237,0.101457,0.000000,0.034625 WAIST:0.999673,-0.000000,0.016797,0.019255 WAIST_JOINT0:0.999569,0.000000,-0.020651,0.020882 WAIST_JOINT1:0.998235,0.057706,0.000000,-0.014052 END:
KINECT_DATA_Sensor  AnkleLeft:0.051029,0.719740,-0.103589,-0.684573 AnkleRight:0.095113,0.700737,0.077217,0.702822 ElbowLeft:-0.450419,0.714556,-0.125117,-0.520460 ElbowRight:0.032302,0.866430,0.156835,0.472926 FootLeft:0.000000,0.000000,0.000000,0.000000 FootRight:0.000000,0.000000,0.000000,0.000000 HandLeft:0.293983,0.045352,-0.369281,0.880425 HandRight:-0.093070,0.774244,-0.085355,-0.620161 HandTipLeft:0.000000,0.000000,0.000000,0.000000 HandTipRight:0.000000,0.000000,0.000000,0.000000 Head:0.000000,0.000000,0.000000,0.000000 HipLeft:0.110128,-0.671408,0.717398,-0.149742 HipRight:-0.138438,0.689707,0.687529,-0.180120 KneeLeft:0.044864,-0.692878,0.072863,0.715960 KneeRight:0.001018,0.719670,0.026942,0.693793 Neck:0.021175,0.000330,0.997087,-0.073278 ShoulderLeft:-0.014198,0.774884,-0.626751,0.080850 ShoulderRight:0.013227,0.794148,0.605893,-0.045252 SpineBase:-0.017894,0.005301,0.999254,-0.033807 SpineMid:0.001680,0.004637,0.999413,-0.033904 SpineShoulder:0.021417,0.002464,0.998388,-0.052506 ThumbLeft:0.000000,0.000000,0.000000,0.000000 ThumbRight:0.000000,0.000000,0.000000,0.000000 WristLeft:0.279457,0.014508,-0.444229,0.851090 WristRight:-0.064660,0.795676,0.049907,-0.600190 END:
KINECT_DATA POSITION:4.733255,-2.229566,-8.114492 HEAD_JOINT1:0.979090,0.187041,-0.000000,0.079994 LARM_JOINT2:0.902413,0.000000,-0.326685,-0.280941 LARM_JOINT3:0.991933,0.000000,-0.124291,0.024917 LLEG_JOINT2:0.997772,0.018133,0.000000,0.064205 LLEG_JOINT4:0.995261,0.088919,0.000000,-0.039348 RARM_JOINT2:0.788447,0.000000,-0.065580,0.611597 RARM_JOINT3:0.974566,0.000000,0.160007,0.156902 RLEG_JOINT2:0.999108,0.020334,0.000000,-0.037002 RLEG_JOINT4:0.994096,0.102068,0.000000,0.036803 WAIST:0.999665,-0.000000,0.017199,0.019363 WAIST_JOINT0:0.999588,0.000000,-0.019990,0.020614 WAIST_JOINT1:0.998234,0.057697,0.000000,-0.014127 END:
KINECT_DATA_Sensor  AnkleLeft:0.049746,0.709754,-0.103677,-0.695001 AnkleRight:0.097423,0.701908,0.075785,0.701492 ElbowLeft:-0.448632,0.712125,-0.128201,-0.524568 ElbowRight:0.032495,0.866341,0.156756,0.473101 FootLeft:0.000000,0.000000,0.000000,0.000000 FootRight:0.000000,0.000000,0.000000,0.000000 HandLeft:0.303092,0.051449,-0.358094,0.881622 HandRight:-0.081026,0.764561,-0.089872,-0.633091 HandTipLeft:0.000000,0.000000,0.000000,0.000000 HandTipRight:0.000000,0.000000,0.000000,0.000000 Head:0.000000,0.000000,0.000000,0.000000 HipLeft:0.109701,-0.671339,0.717574,-0.149521 HipRight:-0.138565,0.689693,0.687472,-0.180294 KneeLeft:0.045173,-0.692570,0.072458,0.716280 KneeRight:0.001230,0.719951,0.026646,0.693512 Neck:0.020469,0.000372,0.997105,-0.073230 ShoulderLeft:-0.013497,0.775018,-0.626695,0.080107 ShoulderRight:0.013018,0.794064,0.605978,-0.045645 SpineBase:-0.018299,0.005466,0.999242,-0.033912 SpineMid:0.001130,0.004805,0.999409,-0.034011 SpineShoulder:0.020708,0.002488,0.998403,-0.052500 ThumbLeft:0.000000,0.000000,0.000000,0.000000 ThumbRight:0.000000,0.000000,0.000000,0.000000 WristLeft:0.281730,0.014452,-0.443621,0.850659 WristRight:-0.064007,0.785765,0.050824,-0.613101 END:
KINECT_DATA POSITION:4.773475,-2.245989,-8.192194 HEAD_JOINT1:0.978907,0.188075,-0.000000,0.079801 LARM_JOINT2:0.903729,0.000000,-0.322702,-0.281313 LARM_JOINT3:0.991855,0.000000,-0.124363,0.027531 LLEG_JOINT2:0.997818,0.017935,0.000000,0.063537 LLEG_JOINT4:0.995174,0.090222,0.000000,-0.038582 RARM_JOINT2:0.788187,0.000000,-0.066338,0.611851 RARM_JOINT3:0.974679,0.000000,0.159523,0.156697 RLEG_JOINT2:0.999122,0.019689,0.000000,-0.036981 RLEG_JOINT4:0.994091,0.102898,0.000000,0.034567 WAIST:0.999651,-0.000000,0.017861,0.019470 WAIST_JOINT0:0.999591,0.000000,-0.019650,0.020796 WAIST_JOINT1:0.998243,0.057492,0.000000,-0.014312 END:
KINECT_DATA_Sensor  AnkleLeft:0.051522,0.715991,-0.104015,-0.688392 AnkleRight:0.095812,0.701137,0.077592,0.702287 ElbowLeft:-0.448330,0.706749,-0.128286,-0.532023 ElbowRight:0.032556,0.865653,0.156748,0.474357 FootLeft:0.000000,0.000000,0.000000,0.000000 FootRight:0.000000,0.000000,0.000000,0.000000 HandLeft:0.306630,0.056571,-0.359307,0.879589 HandRight:-0.079668,0.757132,-0.092904,-0.641696 HandTipLeft:0.000000,0.000000,0.000000,0.000000 HandTipRight:0.000000,0.000000,0.000000,0.000000 Head:0.000000,0.000000,0.000000,0.000000 HipLeft:0.109364,-0.671325,0.717745,-0.149012 HipRight:-0.139015,0.689651,0.687357,-0.180542 KneeLeft:0.044891,-0.692111,0.071935,0.716793 KneeRight:0.000846,0.720407,0.026083,0.693061 Neck:0.020158,0.000209,0.997129,-0.072989 ShoulderLeft:-0.013515,0.774808,-0.626995,0.079798 ShoulderRight:0.012612,0.793966,0.606103,-0.045806 SpineBase:-0.018962,0.005510,0.999235,-0.033768 SpineMid:0.000646,0.004846,0.999414,-0.033870 SpineShoulder:0.020397,0.002376,0.998421,-0.052284 ThumbLeft:0.000000,0.000000,0.000000,0.000000 ThumbRight:0.000000,0.000000,0.000000,0.000000 WristLeft:0.285010,0.019669,-0.442567,0.850010 WristRight:-0.063557,0.779598,0.051820,-0.620888 END:
KINECT_DATA POSITION:4.772724,-2.244902,-8.273565 HEAD_JOINT1:0.979019,0.187704,-0.000000,0.079298 LARM_JOINT2:0.905445,0.000000,-0.320639,-0.278137 LARM_JOINT3:0.990141,0.000000,-0.134568,0.038882 LLEG_JOINT2:0.997814,0.016837,0.000000,0.063907 LLEG_JOINT4:0.995024,0.091817,0.000000,-0.038682 RARM_JOINT2:0.788087,0.000000,-0.066479,0.611964 RARM_JOINT3:0.974139,0.000000,0.162492,0.157003 RLEG_JOINT2:0.999135,0.019517,0.000000,-0.036723 RLEG_JOINT4:0.994382,0.100386,0.000000,0.033568 WAIST:0.999649,-0.000000,0.017961,0.019468 WAIST_JOINT0:0.999600,0.000000,-0.018532,0.021383 WAIST_JOINT1:0.998257,0.057206,0.000000,-0.014503 END:
KINECT_DATA_Sensor  AnkleLeft:0.051935,0.717134,-0.104425,-0.687107 AnkleRight:0.093321,0.700508,0.076288,0.703392 ElbowLeft:-0.449536,0.708045,-0.134010,-0.527855 ElbowRight:0.032358,0.865648,0.156689,0.474400 FootLeft:0.000000,0.000000,0.000000,0.000000 FootRight:0.000000,0.000000,0.000000,0.000000 HandLeft:0.348224,-0.012964,-0.376873,0.858218 HandRight:-0.085578,0.788866,-0.090086,-0.601874 HandTipLeft:0.000000,0.000000,0.000000,0.000000 HandTipRight:0.000000,0.000000,0.000000,0.000000 Head:0.000000,0.000000,0.000000,0.000000 HipLeft:0.109471,-0.671401,0.717725,-0.148684 HipRight:-0.139154,0.689695,0.687325,-0.180390 KneeLeft:0.045937,-0.691981,0.071437,0.716903 KneeRight:0.000906,0.720473,0.025780,0.693004 Neck:0.019044,0.000093,0.997172,-0.072693 ShoulderLeft:-0.013156,0.774307,-0.627734,0.078903 ShoulderRight:0.011547,0.794035,0.605975,-0.046583 SpineBase:-0.019058,0.005387,0.999243,-0.033473 SpineMid:0.000043,0.004746,0.999425,-0.033569 SpineShoulder:0.019278,0.002250,0.998459,-0.051982 ThumbLeft:0.000000,0.000000,0.000000,0.000000 ThumbRight:0.000000,0.000000,0.000000,0.000000 WristLeft:0.317725,-0.042181,-0.421676,0.848210 WristRight:-0.066071,0.808903,0.048818,-0.582174 END:
KINECT_DATA POSITION:4.762989,-2.233846,-8.327055 HEAD_JOINT1:0.978966,0.188318,-0.000000,0.078491 LARM_JOINT2:0.913090,0.000000,-0.331123,-0.237960 LARM_JOINT3:0.988791,0.000000,-0.136461,0.060593 LLEG_JOINT2:0.997822,0.016167,0.000000,0.063954 LLEG_JOINT4:0.994769,0.093847,0.000000,-0.040343 RARM_JOINT2:0.788371,0.000000,-0.065982,0.611652 RARM_JOINT3:0.974170,0.000000,0.161739,0.157587 RLEG_JOINT2:0.999154,0.019435,0.000000,-0.036244 RLEG_JOINT4:0.994315,0.100975,0.000000,0.033786 WAIST:0.999677,-0.000000,0.016902,0.018991 WAIST_JOINT0:0.999580,0.000000,-0.019952,0.021036 WAIST_JOINT1:0.998281,0.056909,0.000000,-0.014013 END:
KINECT_DATA_Sensor  AnkleLeft:0.052659,0.707165,-0.104632,-0.697278 AnkleRight:0.094131,0.701554,0.076180,0.702252 ElbowLeft:0.486353,-0.683232,0.129482,0.529044 ElbowRight:0.032071,0.866109,0.156637,0.473593 FootLeft:0.000000,0.000000,0.000000,0.000000 FootRight:0.000000,0.000000,0.000000,0.000000 HandLeft:0.425245,-0.096879,-0.400948,0.805619 HandRight:-0.087099,0.763023,-0.086996,-0.634540 HandTipLeft:0.000000,0.000000,0.000000,0.000000 HandTipRight:0.000000,0.000000,0.000000,0.000000 Head:0.000000,0.000000,0.000000,0.000000 HipLeft:0.109798,-0.671616,0.717424,-0.148924 HipRight:-0.138258,0.689652,0.687874,-0.179149 KneeLeft:0.046179,-0.692761,0.070633,0.716213 KneeRight:0.000897,0.719712,0.025739,0.693795 Neck:0.020521,0.000176,0.997165,-0.072390 ShoulderLeft:-0.015557,0.774538,-0.627154,0.080786 ShoulderRight:0.011011,0.794163,0.605849,-0.046161 SpineBase:-0.017961,0.005458,0.999268,-0.033321 SpineMid:0.001327,0.004814,0.999429,-0.033420 SpineShoulder:0.020756,0.002313,0.998443,-0.051726 ThumbLeft:0.000000,0.000000,0.000000,0.000000 ThumbRight:0.000000,0.000000,0.000000,0.000000 WristLeft:0.386667,-0.121021,-0.409429,0.817442 WristRight:-0.064767,0.784731,0.051447,-0.614293 END:
KINECT_DATA POSITION:4.745612,-2.216816,-8.370102 HEAD_JOINT1:0.979090,0.187520,-0.000000,0.078858 LARM_JOINT2:0.919724,0.000000,-0.342311,-0.192174 LARM_JOINT3:0.991222,0.000000,-0.118636,0.058345 LLEG_JOINT2:0.997775,0.016601,0.000000,0.064568 LLEG_JOINT4:0.995009,0.091584,0.000000,-0.039616 RARM_JOINT2:0.788521,0.000000,-0.065007,0.611563 RARM_JOINT3:0.974995,0.000000,0.157664,0.156613 RLEG_JOINT2:0.999197,0.017907,0.000000,-0.035839 RLEG_JOINT4:0.994077,0.103715,0.000000,0.032466 WAIST:0.999737,-0.000000,0.013302,0.018697 WAIST_JOINT0:0.999557,0.000000,-0.021692,0.020389 WAIST_JOINT1:0.998260,0.057223,0.000000,-0.014197 END:
KINECT_DATA_Sensor  AnkleLeft:0.051713,0.719449,-0.103722,-0.684807 AnkleRight:0.091768,0.674960,0.080717,0.727663 ElbowLeft:0.521664,-0.676392,0.139981,0.500765 ElbowRight:0.032384,0.865702,0.156840,0.474249 FootLeft:0.000000,0.000000,0.000000,0.000000 FootRight:0.000000,0.000000,0.000000,0.000000 HandLeft:0.483507,-0.136994,-0.379427,0.776846 HandRight:-0.071011,0.765776,-0.091016,-0.632662 HandTipLeft:0.000000,0.000000,0.000000,0.000000 HandTipRight:0.000000,0.000000,0.000000,0.000000 Head:0.000000,0.000000,0.000000,0.000000 HipLeft:0.110960,-0.671354,0.717129,-0.150658 HipRight:-0.135086,0.689948,0.688795,-0.176876 KneeLeft:0.046293,-0.695334,0.071051,0.713666 KneeRight:0.000054,0.717204,0.024615,0.696429 Neck:0.022276,-0.000004,0.997093,-0.072864 ShoulderLeft:-0.016052,0.775073,-0.626327,0.081969 ShoulderRight:0.012782,0.793971,0.606177,-0.044684 SpineBase:-0.014374,0.005166,0.999308,-0.033922 SpineMid:0.004002,0.004541,0.999403,-0.034011 SpineShoulder:0.022512,0.002125,0.998389,-0.052038 ThumbLeft:0.000000,0.000000,0.000000,0.000000 ThumbRight:0.000000,0.000000,0.000000,0.000000 WristLeft:0.436246,-0.169963,-0.395280,0.790289 WristRight:-0.064635,0.785453,0.051406,-0.613387 END:
KINECT_DATA POSITION:4.729173,-2.200986,-8.435833 HEAD_JOINT1:0.979077,0.186146,-0.000000,0.082208 LARM_JOINT2:0.923148,0.000000,-0.341141,-0.177259 LARM_JOINT3:0.992622,0.000000,-0.111447,0.047762 LLEG_JOINT2:0.997711,0.017394,0.000000,0.065346 LLEG_JOINT4:0.995044,0.090619,0.000000,-0.040940 RARM_JOINT2:0.787344,0.000000,-0.063821,0.613202 RARM_JOINT3:0.974569,0.000000,0.159402,0.157502 RLEG_JOINT2:0.999365,0.013144,0.000000,-0.033125 RLEG_JOINT4:0.993688,0.108885,0.000000,0.026987 WAIST:0.999795,-0.000000,0.008387,0.018436 WAIST_JOINT0:0.999443,0.000000,-0.027662,0.018660 WAIST_JOINT1:0.998171,0.058414,0.000000,-0.015569 END:
KINECT_DATA_Sensor  AnkleLeft:0.051188,0.719621,-0.103564,-0.684690 AnkleRight:0.093609,0.701265,0.078861,0.702314 ElbowLeft:0.536008,-0.655997,0.124845,0.516505 ElbowRight:0.033301,0.862668,0.156602,0.479762 FootLeft:0.000000,0.000000,0.000000,0.000000 FootRight:0.000000,0.000000,0.000000,0.000000 HandLeft:0.449970,-0.114883,-0.359868,0.809212 HandRight:-0.076799,0.779763,-0.094086,-0.614182 HandTipLeft:0.000000,0.000000,0.000000,0.000000 HandTipRight:0.000000,0.000000,0.000000,0.000000 Head:0.000000,0.000000,0.000000,0.000000 HipLeft:0.112909,-0.670958,0.716617,-0.153382 HipRight:-0.130885,0.690441,0.689768,-0.174298 KneeLeft:0.046368,-0.698820,0.071815,0.710171 KneeRight:-0.001352,0.713765,0.019565,0.700111 Neck:0.028428,-0.002058,0.996814,-0.074501 ShoulderLeft:-0.021124,0.775918,-0.624212,0.088679 ShoulderRight:0.015740,0.793117,0.607427,-0.041833 SpineBase:-0.009502,0.004489,0.999337,-0.034861 SpineMid:0.009539,0.003824,0.999337,-0.034940 SpineShoulder:0.028709,0.000825,0.998176,-0.053099 ThumbLeft:0.000000,0.000000,0.000000,0.000000 ThumbRight:0.000000,0.000000,0.000000,0.000000 WristLeft:0.438744,-0.146461,-0.416927,0.782448 WristRight:-0.065553,0.800150,0.050727,-0.594046 END:
KINECT_DATA POSITION:4.735726,-2.193394,-8.454096 HEAD_JOINT1:0.978758,0.186754,-0.000000,0.084594 LARM_JOINT2:0.925155,0.000000,-0.338752,-0.171276 LARM_JOINT3:0.992803,0.000000,-0.109195,0.049182 LLEG_JOINT2:0.997649,0.017471,0.000000,0.066268 LLEG_JOINT4:0.995120,0.089591,0.000000,-0.041351 RARM_JOINT2:0.786522,0.000000,-0.063055,0.614335 RARM_JOINT3:0.974896,0.000000,0.157845,0.157043 RLEG_JOINT2:0.999394,0.012529,0.000000,-0.032481 RLEG_JOINT4:0.993792,0.108345,0.000000,0.025255 WAIST:0.999818,-0.000000,0.006559,0.017936 WAIST_JOINT0:0.999238,0.000000,-0.034561,0.018118 WAIST_JOINT1:0.998038,0.060022,0.000000,-0.017803 END:
KINECT_DATA_Sensor  AnkleLeft:0.049539,0.715855,-0.103432,-0.688767 AnkleRight:0.091118,0.693693,0.079831,0.710010 ElbowLeft:0.538576,-0.651602,0.123528,0.519704 ElbowRight:0.034104,0.862683,0.158136,0.479173 FootLeft:0.000000,0.000000,0.000000,0.000000 FootRight:0.000000,0.000000,0.000000,0.000000 HandLeft:0.364963,0.069474,-0.448521,0.812899 HandRight:-0.068775,0.773808,-0.093230,-0.622736 HandTipLeft:0.000000,0.000000,0.000000,0.000000 HandTipRight:0.000000,0.000000,0.000000,0.000000 Head:0.000000,0.000000,0.000000,0.000000 HipLeft:0.113907,-0.670985,0.716169,-0.154617 HipRight:-0.129104,0.690121,0.690488,-0.174043 KneeLeft:0.046717,-0.700079,0.072111,0.708877 KneeRight:-0.001619,0.712511,0.019055,0.701400 Neck:0.035277,-0.005238,0.996464,-0.076078 ShoulderLeft:-0.025852,0.774897,-0.624235,0.095906 ShoulderRight:0.020046,0.792228,0.608697,-0.038226 SpineBase:-0.007710,0.003205,0.999333,-0.035538 SpineMid:0.013856,0.002438,0.999267,-0.035599 SpineShoulder:0.035533,-0.002117,0.997875,-0.054582 ThumbLeft:0.000000,0.000000,0.000000,0.000000 ThumbRight:0.000000,0.000000,0.000000,0.000000 WristLeft:0.339361,0.031193,-0.504492,0.793315 WristRight:-0.063680,0.793195,0.051271,-0.603455 END:
KINECT_DATA POSITION:4.758366,-2.183381,-8.489394 HEAD_JOINT1:0.978413,0.188980,-0.000000,0.083634 LARM_JOINT2:0.926980,0.000000,-0.337026,-0.164684 LARM_JOINT3:0.992877,0.000000,-0.109318,0.047384 LLEG_JOINT2:0.997533,0.018397,0.000000,0.067744 LLEG_JOINT4:0.995052,0.089984,0.000000,-0.042120 RARM_JOINT2:0.786138,0.000000,-0.062414,0.614892 RARM_JOINT3:0.974307,0.000000,0.160209,0.158301 RLEG_JOINT2:0.999431,0.011526,0.000000,-0.031708 RLEG_JOINT4:0.993818,0.108302,0.000000,0.024411 WAIST:0.999842,-0.000000,0.004289,0.017273 WAIST_JOINT0:0.999203,0.000000,-0.036054,0.017114 WAIST_JOINT1:0.997944,0.061279,0.000000,-0.018776 END:
KINECT_DATA_Sensor  AnkleLeft:0.051694,0.726556,-0.103790,-0.677253 AnkleRight:0.091744,0.707099,0.077487,0.696842 ElbowLeft:0.542398,-0.647879,0.122753,0.520566 ElbowRight:0.034734,0.861764,0.159271,0.480405 FootLeft:0.000000,0.000000,0.000000,0.000000 FootRight:0.000000,0.000000,0.000000,0.000000 HandLeft:0.336138,0.108875,-0.466879,0.810667 HandRight:-0.074039,0.795130,-0.093511,-0.594594 HandTipLeft:0.000000,0.000000,0.000000,0.000000 HandTipRight:0.000000,0.000000,0.000000,0.000000 Head:0.000000,0.000000,0.000000,0.000000 HipLeft:0.115268,-0.671069,0.715429,-0.156654 HipRight:-0.127150,0.689718,0.691222,-0.174167 KneeLeft:0.046760,-0.701662,0.073267,0.707189 KneeRight:-0.002172,0.710954,0.018301,0.702997 Neck:0.036766,-0.006553,0.996310,-0.077275 ShoulderLeft:-0.023879,0.775321,-0.623729,0.096281 ShoulderRight:0.024018,0.791150,0.610063,-0.036431 SpineBase:-0.005484,0.001699,0.999313,-0.036625 SpineMid:0.015689,0.000923,0.999204,-0.036653 SpineShoulder:0.036978,-0.003688,0.997749,-0.055826 ThumbLeft:0.000000,0.000000,0.000000,0.000000 ThumbRight:0.000000,0.000000,0.000000,0.000000 WristLeft:0.316258,0.073102,-0.523169,0.787992 WristRight:-0.064479,0.813792,0.049406,-0.575451 END:
KINECT_DATA POSITION:4.781646,-2.176473,-8.499516 HEAD_JOINT1:0.978147,0.190521,-0.000000,0.083254 LARM_JOINT2:0.927652,0.000000,-0.336675,-0.161591 LARM_JOINT3:0.992706,0.000000,-0.111739,0.045258 LLEG_JOINT2:0.997513,0.018419,0.000000,0.068037 LLEG_JOINT4:0.994944,0.091557,0.000000,-0.041287 RARM_JOINT2:0.786170,0.000000,-0.062205,0.614872 RARM_JOINT3:0.973828,0.000000,0.162141,0.159280 RLEG_JOINT2:0.999438,0.011772,0.000000,-0.031388 RLEG_JOINT4:0.993848,0.108093,0.000000,0.024122 WAIST:0.999850,-0.000000,0.003487,0.016941 WAIST_JOINT0:0.999163,0.000000,-0.037202,0.016985 WAIST_JOINT1:0.997920,0.061682,0.000000,-0.018727 END:
KINECT_DATA_Sensor  AnkleLeft:0.052370,0.727469,-0.105439,-0.675965 AnkleRight:0.089067,0.683592,0.080588,0.719913 ElbowLeft:0.544617,-0.646012,0.122290,0.520679 ElbowRight:0.034864,0.861175,0.159664,0.481320 FootLeft:0.000000,0.000000,0.000000,0.000000 FootRight:0.000000,0.000000,0.000000,0.000000 HandLeft:0.371798,0.027162,-0.430924,0.821786 HandRight:-0.087485,0.761977,-0.086483,-0.635812 HandTipLeft:0.000000,0.000000,0.000000,0.000000 HandTipRight:0.000000,0.000000,0.000000,0.000000 Head:0.000000,0.000000,0.000000,0.000000 HipLeft:0.115787,-0.671132,0.715115,-0.157433 HipRight:-0.126464,0.689457,0.691564,-0.174341 KneeLeft:0.046767,-0.702221,0.073227,0.706637 KneeRight:-0.001981,0.710409,0.018496,0.703543 Neck:0.037839,-0.006709,0.996244,-0.077594 ShoulderLeft:-0.023729,0.774642,-0.624460,0.097042 ShoulderRight:0.025596,0.790574,0.610798,-0.035550 SpineBase:-0.004699,0.001023,0.999301,-0.037076 SpineMid:0.016597,0.000233,0.999174,-0.037089 SpineShoulder:0.038036,-0.003993,0.997683,-0.056260 ThumbLeft:0.000000,0.000000,0.000000,0.000000 ThumbRight:0.000000,0.000000,0.000000,0.000000 WristLeft:0.366439,-0.003997,-0.492812,0.789204 WristRight:-0.061340,0.784217,0.052877,-0.615179 END:
KINECT_DATA POSITION:4.831640,-2.180129,-8.494818 HEAD_JOINT1:0.977863,0.191399,-0.000000,0.084555 LARM_JOINT2:0.924728,0.000000,-0.340165,-0.170781 LARM_JOINT3:0.993097,0.000000,-0.116541,0.013324 LLEG_JOINT2:0.997484,0.018111,0.000000,0.068540 LLEG_JOINT4:0.994930,0.090806,0.000000,-0.043235 RARM_JOINT2:0.786044,0.000000,-0.062175,0.615036 RARM_JOINT3:0.973678,0.000000,0.163378,0.158931 RLEG_JOINT2:0.999482,0.009470,0.000000,-0.030751 RLEG_JOINT4:0.993385,0.112849,0.000000,0.021221 WAIST:0.999857,-0.000000,0.002444,0.016747 WAIST_JOINT0:0.999130,0.000000,-0.037994,0.017188 WAIST_JOINT1:0.997926,0.061692,0.000000,-0.018358 END:
KINECT_DATA_Sensor  AnkleLeft:0.052695,0.729056,-0.103529,-0.674523 AnkleRight:0.093224,0.718402,0.079346,0.684771 ElbowLeft:-0.521891,0.706256,-0.176289,-0.444697 ElbowRight:0.035416,0.861312,0.159256,0.481171 FootLeft:0.000000,0.000000,0.000000,0.000000 FootRight:0.000000,0.000000,0.000000,0.000000 HandLeft:0.295735,0.087998,-0.453389,0.836203 HandRight:-0.088572,0.770880,-0.081681,-0.625481 HandTipLeft:0.000000,0.000000,0.000000,0.000000 HandTipRight:0.000000,0.000000,0.000000,0.000000 Head:0.000000,0.000000,0.000000,0.000000 HipLeft:0.116528,-0.671124,0.714775,-0.158463 HipRight:-0.125968,0.689429,0.691700,-0.174271 KneeLeft:0.047269,-0.702928,0.073192,0.705904 KneeRight:-0.003260,0.709670,0.016568,0.704332 Neck:0.038683,-0.006444,0.996218,-0.077540 ShoulderLeft:-0.024610,0.774758,-0.624130,0.098008 ShoulderRight:0.025776,0.790879,0.610417,-0.035173 SpineBase:-0.003659,0.000867,0.999295,-0.037362 SpineMid:0.017528,0.000075,0.999148,-0.037372 SpineShoulder:0.038884,-0.003747,0.997648,-0.056332 ThumbLeft:0.000000,0.000000,0.000000,0.000000 ThumbRight:0.000000,0.000000,0.000000,0.000000 WristLeft:0.296049,0.068952,-0.500225,0.810787 WristRight:-0.062375,0.791219,0.051493,-0.606161 END:
KINECT_DATA POSITION:4.837943,-2.191121,-8.495450 HEAD_JOINT1:0.977643,0.192153,-0.000000,0.085385 LARM_JOINT2:0.921811,0.000000,-0.344314,-0.178078 LARM_JOINT3:0.993382,0.000000,-0.111873,0.026020 LLEG_JOINT2:0.997488,0.019987,0.000000,0.067956 LLEG_JOINT4:0.995305,0.087798,0.000000,-0.040727 RARM_JOINT2:0.786278,0.000000,-0.063036,0.614649 RARM_JOINT3:0.975076,0.000000,0.158529,0.155227 RLEG_JOINT2:0.999492,0.009624,0.000000,-0.030391 RLEG_JOINT4:0.993324,0.113561,0.000000,0.020272 WAIST:0.999857,-0.000000,0.001811,0.016830 WAIST_JOINT0:0.999067,0.000000,-0.039546,0.017352 WAIST_JOINT1:0.997911,0.061901,0.000000,-0.018514 END:
KINECT_DATA_Sensor  AnkleLeft:0.051855,0.738749,-0.103631,-0.663944 AnkleRight:0.089547,0.683820,0.084705,0.719164 ElbowLeft:-0.518804,0.707962,-0.166125,-0.449483 ElbowRight:0.036178,0.861187,0.160058,0.481071 FootLeft:0.000000,0.000000,0.000000,0.000000 FootRight:0.000000,0.000000,0.000000,0.000000 HandLeft:0.318450,0.075340,-0.470638,0.819398 HandRight:-0.059406,0.795519,-0.084649,-0.597039 HandTipLeft:0.000000,0.000000,0.000000,0.000000 HandTipRight:0.000000,0.000000,0.000000,0.000000 Head:0.000000,0.000000,0.000000,0.000000 HipLeft:0.116930,-0.670976,0.714707,-0.159100 HipRight:-0.125495,0.689543,0.691678,-0.174251 KneeLeft:-0.045613,0.703472,-0.074144,-0.705372 KneeRight:-0.002820,0.709241,0.016372,0.704770 Neck:0.040213,-0.006521,0.996140,-0.077751 ShoulderLeft:-0.025182,0.774830,-0.623846,0.099100 ShoulderRight:0.027170,0.791129,0.610107,-0.033836 SpineBase:-0.003046,0.000746,0.999287,-0.037629 SpineMid:0.018593,-0.000069,0.999119,-0.037637 SpineShoulder:0.040414,-0.003854,0.997574,-0.056548 ThumbLeft:0.000000,0.000000,0.000000,0.000000 ThumbRight:0.000000,0.000000,0.000000,0.000000 WristLeft:0.299910,0.056711,-0.491923,0.815383 WristRight:-0.062925,0.809861,0.049183,-0.581159 END:
KINECT_DATA POSITION:4.810970,-2.184974,-8.511066 HEAD_JOINT1:0.977300,0.192408,-0.000000,0.088674 LARM_JOINT2:0.922107,0.000000,-0.342515,-0.180007 LARM_JOINT3:0.993198,0.000000,-0.113223,0.027174 LLEG_JOINT2:0.997474,0.019894,0.000000,0.068193 LLEG_JOINT4:0.995044,0.088575,0.000000,-0.045185 RARM_JOINT2:0.785641,0.000000,-0.063042,0.615462 RARM_JOINT3:0.974368,0.000000,0.158845,0.159295 RLEG_JOINT2:0.999490,0.009257,0.000000,-0.030549 RLEG_JOINT4:0.993302,0.113593,0.000000,0.021152 WAIST:0.999858,-0.000000,0.000381,0.016855 WAIST_JOINT0:0.998913,0.000000,-0.043242,0.017412 WAIST_JOINT1:0.997899,0.062037,0.000000,-0.018692 END:
KINECT_DATA_Sensor  AnkleLeft:0.051775,0.718265,-0.102703,-0.686197 AnkleRight:0.093501,0.712964,0.079914,0.690328 ElbowLeft:-0.519586,0.701754,-0.157980,-0.461101 ElbowRight:0.036855,0.860272,0.159333,0.482894 FootLeft:0.000000,0.000000,0.000000,0.000000 FootRight:0.000000,0.000000,0.000000,0.000000 HandLeft:0.312797,0.074254,-0.467844,0.823265 HandRight:-0.075542,0.793916,-0.096338,-0.595575 HandTipLeft:0.000000,0.000000,0.000000,0.000000 HandTipRight:0.000000,0.000000,0.000000,0.000000 Head:0.000000,0.000000,0.000000,0.000000 HipLeft:0.117631,-0.670780,0.714581,-0.159974 HipRight:-0.124264,0.689749,0.691863,-0.173581 KneeLeft:-0.045954,0.704448,-0.074215,-0.704367 KneeRight:-0.003133,0.708252,0.016229,0.705766 Neck:0.044000,-0.006767,0.995970,-0.077863 ShoulderLeft:-0.028765,0.773966,-0.624120,0.103068 ShoulderRight:0.028523,0.790755,0.610636,-0.031880 SpineBase:-0.001640,0.000479,0.999279,-0.037917 SpineMid:0.021175,-0.000387,0.999056,-0.037918 SpineShoulder:0.044206,-0.004065,0.997403,-0.056710 ThumbLeft:0.000000,0.000000,0.000000,0.000000 ThumbRight:0.000000,0.000000,0.000000,0.000000 WristLeft:0.300721,0.057380,-0.493437,0.814122 WristRight:-0.062231,0.813641,0.048412,-0.575996 END:
