EastLYD/RoboCupatHomeSim/InteractiveCleanUp/JapanOpen2016/Motion_Data/File48.dat
KINECT_DATA POSITION:34.835007,0.697364,-11.875952 HEAD_JOINT1:0.967873,0.210663,-0.000000,0.137267 LARM_JOINT2:0.829114,0.000000,0.000597,-0.559080 LARM_JOINT3:0.977373,0.000000,-0.139141,-0.159317 LLEG_JOINT2:0.998961,0.025119,0.000000,0.038025 LLEG_JOINT4:0.994451,0.087019,0.000000,-0.059110 RARM_JOINT2:0.789277,0.000000,-0.084033,0.608260 RARM_JOINT3:0.966851,0.000000,0.190399,0.170139 RLEG_JOINT2:0.999849,-0.005738,-0.000000,-0.016429 RLEG_JOINT4:0.993885,0.108558,0.000000,0.020213 WAIST:0.999871,0.000000,-0.016040,0.000094 WAIST_JOINT0:0.999327,0.000000,-0.035542,0.009023 WAIST_JOINT1:0.996348,0.083854,0.000000,-0.016113 END:
KINECT_DATA_Sensor  AnkleLeft:0.093716,0.717512,-0.064714,-0.687172 AnkleRight:0.076936,0.693864,0.068357,0.712714 ElbowLeft:0.002068,0.909722,-0.193162,-0.367546 ElbowRight:0.062814,0.843933,0.194871,0.495839 FootLeft:0.000000,0.000000,0.000000,0.000000 FootRight:0.000000,0.000000,0.000000,0.000000 HandLeft:-0.031845,-0.508088,-0.038163,0.859870 HandRight:-0.024686,0.941235,-0.092068,0.324023 HandTipLeft:0.000000,0.000000,0.000000,0.000000 HandTipRight:0.000000,0.000000,0.000000,0.000000 Head:0.000000,0.000000,0.000000,0.000000 HipLeft:0.113888,-0.677126,0.704326,-0.180149 HipRight:-0.095615,0.677897,0.707407,-0.175754 KneeLeft:-0.009907,0.717612,-0.044564,-0.694945 KneeRight:-0.015473,0.696795,0.007771,0.717061 Neck:0.033318,-0.017665,0.994265,-0.100076 ShoulderLeft:0.018564,0.771825,-0.629081,0.090547 ShoulderRight:0.063484,0.781451,0.619693,-0.035839 SpineBase:0.015180,-0.012866,0.998046,-0.059224 SpineMid:0.024120,-0.013396,0.997870,-0.059106 SpineShoulder:0.033268,-0.015635,0.996229,-0.078585 ThumbLeft:0.000000,0.000000,0.000000,0.000000 ThumbRight:0.000000,0.000000,0.000000,0.000000 WristLeft:0.058985,-0.500408,-0.043330,0.862691 WristRight:-0.062295,0.943767,-0.005482,0.324644 END:
KINECT_DATA POSITION:34.760021,0.693501,-11.888134 HEAD_JOINT1:0.968124,0.209085,-0.000000,0.137912 LARM_JOINT2:0.829830,0.000000,0.001013,-0.558015 LARM_JOINT3:0.975890,0.000000,-0.145888,-0.162344 LLEG_JOINT2:0.998975,0.025458,0.000000,0.037432 LLEG_JOINT4:0.994633,0.085503,0.000000,-0.058253 RARM_JOINT2:0.788218,0.000000,-0.088269,0.609032 RARM_JOINT3:0.966742,0.000000,0.193437,0.167307 RLEG_JOINT2:0.999858,-0.005741,-0.000000,-0.015833 RLEG_JOINT4:0.993792,0.109439,0.000000,0.020006 WAIST:0.999857,0.000000,-0.016909,0.000449 WAIST_JOINT0:0.999398,0.000000,-0.033427,0.009299 WAIST_JOINT1:0.996356,0.083684,0.000000,-0.016486 END:
KINECT_DATA_Sensor  AnkleLeft:0.092238,0.716582,-0.064629,-0.688349 AnkleRight:0.078299,0.694810,0.068197,0.711658 ElbowLeft:0.001665,0.910082,-0.194364,-0.366019 ElbowRight:0.065595,0.840879,0.195187,0.500522 FootLeft:0.000000,0.000000,0.000000,0.000000 FootRight:0.000000,0.000000,0.000000,0.000000 HandLeft:-0.028003,-0.500951,-0.059027,0.863006 HandRight:-0.034348,0.956514,-0.079313,0.278585 HandTipLeft:0.000000,0.000000,0.000000,0.000000 HandTipRight:0.000000,0.000000,0.000000,0.000000 Head:0.000000,0.000000,0.000000,0.000000 HipLeft:0.114070,-0.676914,0.704471,-0.180267 HipRight:-0.094740,0.678404,0.707241,-0.174936 KneeLeft:-0.009536,0.718201,-0.044638,-0.694337 KneeRight:-0.014803,0.696212,0.007101,0.717649 Neck:0.031443,-0.017361,0.994349,-0.099898 ShoulderLeft:0.017998,0.772031,-0.628861,0.090437 ShoulderRight:0.060446,0.781259,0.620064,-0.038731 SpineBase:0.016008,-0.012773,0.998037,-0.059178 SpineMid:0.023606,-0.013223,0.997886,-0.059079 SpineShoulder:0.031392,-0.015361,0.996301,-0.078501 ThumbLeft:0.000000,0.000000,0.000000,0.000000 ThumbRight:0.000000,0.000000,0.000000,0.000000 WristLeft:0.058441,-0.491747,-0.045612,0.867576 WristRight:-0.062322,0.957952,-0.003182,0.280061 END:
KINECT_DATA POSITION:34.662483,0.684980,-11.873352 HEAD_JOINT1:0.968545,0.207239,-0.000000,0.137738 LARM_JOINT2:0.830352,0.000000,0.000422,-0.557240 LARM_JOINT3:0.975181,0.000000,-0.149780,-0.163056 LLEG_JOINT2:0.998905,0.025868,0.000000,0.038979 LLEG_JOINT4:0.994678,0.084711,0.000000,-0.058656 RARM_JOINT2:0.787996,0.000000,-0.088579,0.609275 RARM_JOINT3:0.965876,0.000000,0.196285,0.168983 RLEG_JOINT2:0.999870,-0.005745,-0.000000,-0.015085 RLEG_JOINT4:0.993595,0.111236,0.000000,0.019865 WAIST:0.999848,0.000000,-0.017406,0.000380 WAIST_JOINT0:0.999372,0.000000,-0.034274,0.009040 WAIST_JOINT1:0.996383,0.083318,0.000000,-0.016719 END:
KINECT_DATA_Sensor  AnkleLeft:0.090142,0.706084,-0.066561,-0.699207 AnkleRight:0.079977,0.694109,0.069034,0.712075 ElbowLeft:0.000411,0.910041,-0.194567,-0.366018 ElbowRight:0.065580,0.840545,0.195047,0.501138 FootLeft:0.000000,0.000000,0.000000,0.000000 FootRight:0.000000,0.000000,0.000000,0.000000 HandLeft:-0.025852,-0.472563,-0.068713,0.878233 HandRight:-0.038481,0.928459,-0.092173,0.357754 HandTipLeft:0.000000,0.000000,0.000000,0.000000 HandTipRight:0.000000,0.000000,0.000000,0.000000 Head:0.000000,0.000000,0.000000,0.000000 HipLeft:0.114847,-0.676881,0.704304,-0.180548 HipRight:-0.094905,0.678352,0.707278,-0.174896 KneeLeft:-0.010334,0.718540,-0.045955,-0.693889 KneeRight:-0.014331,0.695881,0.006616,0.717984 Neck:0.032314,-0.017659,0.994360,-0.099461 ShoulderLeft:0.017258,0.772057,-0.628796,0.090807 ShoulderRight:0.060833,0.781000,0.620412,-0.037777 SpineBase:0.016499,-0.013034,0.998040,-0.058938 SpineMid:0.024283,-0.013494,0.997881,-0.058834 SpineShoulder:0.032260,-0.015650,0.996296,-0.078160 ThumbLeft:0.000000,0.000000,0.000000,0.000000 ThumbRight:0.000000,0.000000,0.000000,0.000000 WristLeft:0.057433,-0.463124,-0.049605,0.883038 WristRight:-0.061673,0.931070,-0.007968,0.359502 END:
KINECT_DATA POSITION:34.602093,0.687630,-11.860752 HEAD_JOINT1:0.968763,0.205684,-0.000000,0.138537 LARM_JOINT2:0.830586,0.000000,0.000936,-0.556890 LARM_JOINT3:0.975273,0.000000,-0.144799,-0.166961 LLEG_JOINT2:0.998891,0.025716,0.000000,0.039448 LLEG_JOINT4:0.994605,0.085721,0.000000,-0.058424 RARM_JOINT2:0.788256,0.000000,-0.085651,0.609358 RARM_JOINT3:0.959192,0.000000,0.214743,0.183946 RLEG_JOINT2:0.999870,-0.006728,-0.000000,-0.014664 RLEG_JOINT4:0.993380,0.113134,0.000000,0.019921 WAIST:0.999845,0.000000,-0.017579,0.000437 WAIST_JOINT0:0.999306,0.000000,-0.036118,0.009128 WAIST_JOINT1:0.996528,0.081619,0.000000,-0.016448 END:
KINECT_DATA_Sensor  AnkleLeft:0.091004,0.714681,-0.066594,-0.690300 AnkleRight:0.087043,0.756391,0.061541,0.645375 ElbowLeft:-0.000775,0.910508,-0.194739,-0.364761 ElbowRight:0.062089,0.840867,0.193179,0.501766 FootLeft:0.000000,0.000000,0.000000,0.000000 FootRight:0.000000,0.000000,0.000000,0.000000 HandLeft:-0.043361,-0.447538,-0.052968,0.891641 HandRight:-0.103184,0.947163,-0.159736,0.258301 HandTipLeft:0.000000,0.000000,0.000000,0.000000 HandTipRight:0.000000,0.000000,0.000000,0.000000 Head:0.000000,0.000000,0.000000,0.000000 HipLeft:0.115435,-0.676970,0.704251,-0.180046 HipRight:-0.095395,0.678557,0.707187,-0.174205 KneeLeft:-0.010823,0.718669,-0.046210,-0.693731 KneeRight:-0.014706,0.695744,0.005593,0.718118 Neck:0.034101,-0.017474,0.994512,-0.097352 ShoulderLeft:0.015828,0.772463,-0.628396,0.090384 ShoulderRight:0.061636,0.781644,0.619709,-0.034575 SpineBase:0.016686,-0.012919,0.998091,-0.058052 SpineMid:0.025267,-0.013418,0.997910,-0.057939 SpineShoulder:0.034058,-0.015439,0.996363,-0.076564 ThumbLeft:0.000000,0.000000,0.000000,0.000000 ThumbRight:0.000000,0.000000,0.000000,0.000000 WristLeft:0.055936,-0.438113,-0.053587,0.895576 WristRight:-0.069625,0.959942,-0.006818,0.271324 END:
KINECT_DATA POSITION:34.490829,0.667262,-11.896526 HEAD_JOINT1:0.968762,0.205052,-0.000000,0.139475 LARM_JOINT2:0.831053,0.000000,0.001180,-0.556193 LARM_JOINT3:0.975442,0.000000,-0.144937,-0.165849 LLEG_JOINT2:0.998835,0.025299,0.000000,0.041084 LLEG_JOINT4:0.994509,0.086102,0.000000,-0.059483 RARM_JOINT2:0.787733,0.000000,-0.081834,0.610556 RARM_JOINT3:0.945635,0.000000,0.255253,0.201544 RLEG_JOINT2:0.999895,-0.007271,-0.000000,-0.012551 RLEG_JOINT4:0.993243,0.114657,0.000000,0.017929 WAIST:0.999843,0.000000,-0.017718,-0.000068 WAIST_JOINT0:0.999343,0.000000,-0.034670,0.010582 WAIST_JOINT1:0.996598,0.080786,0.000000,-0.016297 END:
KINECT_DATA_Sensor  AnkleLeft:0.090173,0.707045,-0.067620,-0.698128 AnkleRight:0.087290,0.753393,0.062840,0.648714 ElbowLeft:-0.001953,0.909826,-0.194911,-0.366365 ElbowRight:0.055102,0.830930,0.191976,0.519292 FootLeft:0.000000,0.000000,0.000000,0.000000 FootRight:0.000000,0.000000,0.000000,0.000000 HandLeft:-0.040101,-0.449086,-0.049969,0.891188 HandRight:-0.166015,0.942356,-0.213721,0.196792 HandTipLeft:0.000000,0.000000,0.000000,0.000000 HandTipRight:0.000000,0.000000,0.000000,0.000000 Head:0.000000,0.000000,0.000000,0.000000 HipLeft:0.116055,-0.677402,0.703837,-0.179643 HipRight:-0.095907,0.678309,0.707471,-0.173733 KneeLeft:-0.011937,0.718784,-0.046688,-0.693561 KneeRight:-0.013988,0.695637,0.004053,0.718246 Neck:0.032529,-0.017698,0.994639,-0.096551 ShoulderLeft:0.015745,0.772241,-0.628864,0.089028 ShoulderRight:0.059576,0.782913,0.618256,-0.035460 SpineBase:0.016880,-0.013190,0.998128,-0.057278 SpineMid:0.024577,-0.013631,0.997969,-0.057174 SpineShoulder:0.032479,-0.015631,0.996475,-0.075750 ThumbLeft:0.000000,0.000000,0.000000,0.000000 ThumbRight:0.000000,0.000000,0.000000,0.000000 WristLeft:0.057214,-0.440208,-0.054734,0.894398 WristRight:-0.108165,0.967942,-0.022013,0.225619 END:
KINECT_DATA POSITION:34.486725,0.638142,-11.851156 HEAD_JOINT1:0.969428,0.201060,-0.000000,0.140661 LARM_JOINT2:0.830819,0.000000,0.003039,-0.556534 LARM_JOINT3:0.973631,0.000000,-0.148566,-0.173122 LLEG_JOINT2:0.998842,0.026177,0.000000,0.040366 LLEG_JOINT4:0.994632,0.084709,0.000000,-0.059434 RARM_JOINT2:0.787379,0.000000,-0.055739,0.613944 RARM_JOINT3:0.924811,0.000000,0.309422,0.221322 RLEG_JOINT2:0.999895,-0.005693,-0.000000,-0.013349 RLEG_JOINT4:0.993461,0.112720,0.000000,0.018172 WAIST:0.999848,0.000000,-0.017423,0.000148 WAIST_JOINT0:0.999390,0.000000,-0.032357,0.013150 WAIST_JOINT1:0.996781,0.078749,0.000000,-0.015056 END:
KINECT_DATA_Sensor  AnkleLeft:0.091057,0.716271,-0.065691,-0.688730 AnkleRight:0.086119,0.746819,0.063794,0.656335 ElbowLeft:-0.002457,0.909896,-0.195698,-0.365766 ElbowRight:0.037115,0.835530,0.178555,0.518295 FootLeft:0.000000,0.000000,0.000000,0.000000 FootRight:0.000000,0.000000,0.000000,0.000000 HandLeft:-0.050196,-0.452016,-0.058837,0.888651 HandRight:-0.196167,0.877044,-0.299414,0.320411 HandTipLeft:0.000000,0.000000,0.000000,0.000000 HandTipRight:0.000000,0.000000,0.000000,0.000000 Head:0.000000,0.000000,0.000000,0.000000 HipLeft:0.116394,-0.677499,0.703905,-0.178789 HipRight:-0.097193,0.678724,0.707135,-0.172763 KneeLeft:-0.010943,0.718669,-0.046979,-0.693678 KneeRight:-0.013255,0.695721,0.005563,0.718168 Neck:0.030008,-0.015798,0.994980,-0.094156 ShoulderLeft:0.017875,0.772218,-0.629473,0.084409 ShoulderRight:0.058339,0.785304,0.615380,-0.034658 SpineBase:0.016646,-0.012116,0.998223,-0.055924 SpineMid:0.023201,-0.012483,0.998092,-0.055843 SpineShoulder:0.029946,-0.014122,0.996718,-0.073868 ThumbLeft:0.000000,0.000000,0.000000,0.000000 ThumbRight:0.000000,0.000000,0.000000,0.000000 WristLeft:0.055652,-0.441236,-0.060295,0.893632 WristRight:-0.157908,0.915810,-0.091698,0.357699 END:
KINECT_DATA POSITION:34.853298,0.629587,-11.537588 HEAD_JOINT1:0.970001,0.199124,-0.000000,0.139453 LARM_JOINT2:0.828868,0.000000,0.004993,-0.559422 LARM_JOINT3:0.973690,0.000000,-0.149425,-0.172046 LLEG_JOINT2:0.999085,0.030451,0.000000,0.030042 LLEG_JOINT4:0.995319,0.081339,0.000000,-0.052197 RARM_JOINT2:0.788815,0.000000,-0.035538,0.613602 RARM_JOINT3:0.898473,0.000000,0.373262,0.231132 RLEG_JOINT2:0.999742,-0.002546,-0.000000,-0.022575 RLEG_JOINT4:0.993344,0.112530,0.000000,0.024578 WAIST:0.999833,0.000000,-0.017835,0.003903 WAIST_JOINT0:0.999492,0.000000,-0.028294,0.014690 WAIST_JOINT1:0.996989,0.075981,0.000000,-0.015483 END:
KINECT_DATA_Sensor  AnkleLeft:0.090961,0.714232,-0.067261,-0.690706 AnkleRight:0.088415,0.739147,0.065803,0.664466 ElbowLeft:-0.003393,0.909583,-0.195199,-0.366803 ElbowRight:0.021488,0.837093,0.168284,0.520090 FootLeft:0.000000,0.000000,0.000000,0.000000 FootRight:0.000000,0.000000,0.000000,0.000000 HandLeft:-0.037503,-0.511204,-0.059506,0.856576 HandRight:-0.342836,0.871161,-0.292986,0.194169 HandTipLeft:0.000000,0.000000,0.000000,0.000000 HandTipRight:0.000000,0.000000,0.000000,0.000000 Head:0.000000,0.000000,0.000000,0.000000 HipLeft:0.118278,-0.675524,0.706037,-0.176604 HipRight:-0.100854,0.682454,0.704168,-0.168028 KneeLeft:-0.003210,0.719094,-0.045532,-0.693412 KneeRight:-0.014735,0.695063,0.011734,0.718702 Neck:0.026263,-0.010218,0.995530,-0.090139 ShoulderLeft:0.018917,0.772391,-0.629816,0.079915 ShoulderRight:0.054050,0.786947,0.613566,-0.036454 SpineBase:0.017047,-0.006250,0.998530,-0.051072 SpineMid:0.021610,-0.006483,0.998442,-0.051043 SpineShoulder:0.026029,-0.011108,0.997029,-0.071640 ThumbLeft:0.000000,0.000000,0.000000,0.000000 ThumbRight:0.000000,0.000000,0.000000,0.000000 WristLeft:0.059655,-0.500783,-0.059330,0.861474 WristRight:-0.220390,0.934788,-0.116925,0.252839 END:
KINECT_DATA POSITION:35.292850,0.648013,-11.160839 HEAD_JOINT1:0.970401,0.197366,-0.000000,0.139172 LARM_JOINT2:0.825980,0.000000,0.005830,-0.563669 LARM_JOINT3:0.973525,0.000000,-0.151806,-0.170895 LLEG_JOINT2:0.999231,0.033800,0.000000,0.019853 LLEG_JOINT4:0.995925,0.077861,0.000000,-0.045518 RARM_JOINT2:0.795485,0.000000,-0.028073,0.605322 RARM_JOINT3:0.881357,0.000000,0.401271,0.249383 RLEG_JOINT2:0.999460,0.000879,0.000000,-0.032841 RLEG_JOINT4:0.993863,0.106416,0.000000,0.030210 WAIST:0.999882,0.000000,-0.013211,0.007878 WAIST_JOINT0:0.999532,0.000000,-0.026432,0.015370 WAIST_JOINT1:0.997167,0.073675,0.000000,-0.015150 END:
KINECT_DATA_Sensor  AnkleLeft:0.091040,0.713228,-0.066877,-0.691770 AnkleRight:0.081329,0.698382,0.070291,0.707607 ElbowLeft:-0.003654,0.907325,-0.193902,-0.373028 ElbowRight:0.010976,0.841608,0.169866,0.512563 FootLeft:0.000000,0.000000,0.000000,0.000000 FootRight:0.000000,0.000000,0.000000,0.000000 HandLeft:-0.031995,-0.483381,-0.067572,0.872211 HandRight:-0.345042,0.861319,-0.316201,0.197718 HandTipLeft:0.000000,0.000000,0.000000,0.000000 HandTipRight:0.000000,0.000000,0.000000,0.000000 Head:0.000000,0.000000,0.000000,0.000000 HipLeft:0.117656,-0.673975,0.708517,-0.172970 HipRight:-0.107964,0.685517,0.700232,-0.167585 KneeLeft:0.003812,0.715821,-0.043628,-0.696909 KneeRight:-0.016700,0.698098,0.018586,0.715566 Neck:0.024581,-0.006390,0.995744,-0.088590 ShoulderLeft:0.019463,0.772780,-0.629821,0.075879 ShoulderRight:0.052113,0.787844,0.612645,-0.035374 SpineBase:0.012410,-0.000379,0.998821,-0.046939 SpineMid:0.018584,-0.000669,0.998725,-0.046936 SpineShoulder:0.024390,-0.007456,0.997290,-0.069004 ThumbLeft:0.000000,0.000000,0.000000,0.000000 ThumbRight:0.000000,0.000000,0.000000,0.000000 WristLeft:0.058958,-0.473233,-0.062230,0.876756 WristRight:-0.248291,0.922940,-0.145557,0.255629 END:
KINECT_DATA POSITION:35.408203,0.640833,-10.984254 HEAD_JOINT1:0.970613,0.196776,-0.000000,0.138525 LARM_JOINT2:0.824897,0.000000,0.007764,-0.565230 LARM_JOINT3:0.973363,0.000000,-0.152133,-0.171523 LLEG_JOINT2:0.999269,0.034879,0.000000,0.015626 LLEG_JOINT4:0.996002,0.078809,0.000000,-0.042064 RARM_JOINT2:0.749122,0.000000,0.025549,0.661939 RARM_JOINT3:0.869807,0.000000,0.472900,0.140716 RLEG_JOINT2:0.999340,0.000623,0.000000,-0.036334 RLEG_JOINT4:0.993603,0.108155,0.000000,0.032493 WAIST:0.999869,0.000000,-0.013117,0.009477 WAIST_JOINT0:0.999598,0.000000,-0.023641,0.015640 WAIST_JOINT1:0.997280,0.072161,0.000000,-0.015023 END:
KINECT_DATA_Sensor  AnkleLeft:-0.090877,-0.702971,0.070240,0.701883 AnkleRight:0.082842,0.699725,0.070858,0.706046 ElbowLeft:-0.003696,0.906533,-0.193821,-0.374990 ElbowRight:-0.001279,0.757467,0.085157,0.647294 FootLeft:0.000000,0.000000,0.000000,0.000000 FootRight:0.000000,0.000000,0.000000,0.000000 HandLeft:-0.030357,-0.513979,-0.071149,0.854308 HandRight:-0.374555,0.822779,-0.424317,0.051952 HandTipLeft:0.000000,0.000000,0.000000,0.000000 HandTipRight:0.000000,0.000000,0.000000,0.000000 Head:0.000000,0.000000,0.000000,0.000000 HipLeft:0.118290,-0.673143,0.709469,-0.171872 HipRight:-0.108971,0.686897,0.699039,-0.166259 KneeLeft:0.006463,0.715676,-0.042580,-0.697104 KneeRight:-0.018193,0.698126,0.019779,0.715471 Neck:0.022071,-0.004456,0.995906,-0.087547 ShoulderLeft:0.018522,0.773114,-0.629663,0.074003 ShoulderRight:0.047758,0.788162,0.612460,-0.037585 SpineBase:0.012261,0.000939,0.998895,-0.045351 SpineMid:0.017269,0.000712,0.998821,-0.045356 SpineShoulder:0.021904,-0.005593,0.997471,-0.067378 ThumbLeft:0.000000,0.000000,0.000000,0.000000 ThumbRight:0.000000,0.000000,0.000000,0.000000 WristLeft:0.061598,-0.502987,-0.060300,0.859985 WristRight:-0.392502,0.895141,-0.105856,0.182919 END:
KINECT_DATA POSITION:35.482239,0.638164,-10.869217 HEAD_JOINT1:0.970867,0.195961,-0.000000,0.137897 LARM_JOINT2:0.824183,0.000000,0.008558,-0.566259 LARM_JOINT3:0.972834,0.000000,-0.153263,-0.173507 LLEG_JOINT2:0.999268,0.035795,0.000000,0.013492 LLEG_JOINT4:0.996070,0.078066,0.000000,-0.041847 RARM_JOINT2:0.803640,0.000000,-0.029671,0.594376 RARM_JOINT3:0.873701,0.000000,0.369337,0.316601 RLEG_JOINT2:0.999261,0.001476,0.000000,-0.038418 RLEG_JOINT4:0.993447,0.109019,0.000000,0.034323 WAIST:0.999870,0.000000,-0.012481,0.010193 WAIST_JOINT0:0.999641,0.000000,-0.021522,0.015967 WAIST_JOINT1:0.997378,0.071004,0.000000,-0.014006 END:
KINECT_DATA_Sensor  AnkleLeft:-0.091306,-0.696496,0.070264,0.708251 AnkleRight:0.084438,0.700667,0.071658,0.704841 ElbowLeft:-0.003921,0.906628,-0.194077,-0.374626 ElbowRight:0.004077,0.839386,0.177911,0.513577 FootLeft:0.000000,0.000000,0.000000,0.000000 FootRight:0.000000,0.000000,0.000000,0.000000 HandLeft:-0.031620,-0.512206,-0.078062,0.854723 HandRight:-0.207028,0.909310,-0.357320,-0.051153 HandTipLeft:0.000000,0.000000,0.000000,0.000000 HandTipRight:0.000000,0.000000,0.000000,0.000000 Head:0.000000,0.000000,0.000000,0.000000 HipLeft:0.118432,-0.672832,0.709920,-0.171125 HipRight:-0.110206,0.687458,0.698381,-0.165895 KneeLeft:0.008145,0.715193,-0.042243,-0.697602 KneeRight:-0.018548,0.698544,0.021345,0.715008 Neck:0.020167,-0.002539,0.996052,-0.086418 ShoulderLeft:0.017823,0.773098,-0.629859,0.072659 ShoulderRight:0.044459,0.788334,0.612376,-0.039354 SpineBase:0.011624,0.001908,0.998945,-0.044390 SpineMid:0.015994,0.001714,0.998884,-0.044398 SpineShoulder:0.020015,-0.003871,0.997597,-0.066211 ThumbLeft:0.000000,0.000000,0.000000,0.000000 ThumbRight:0.000000,0.000000,0.000000,0.000000 WristLeft:0.061467,-0.500406,-0.060987,0.861450 WristRight:-0.315268,0.944197,-0.094078,0.015752 END:
KINECT_DATA POSITION:35.501373,0.633855,-10.856426 HEAD_JOINT1:0.971256,0.195163,-0.000000,0.136282 LARM_JOINT2:0.823734,0.000000,0.008373,-0.566915 LARM_JOINT3:0.973096,0.000000,-0.151983,-0.173160 LLEG_JOINT2:0.999276,0.035930,0.000000,0.012513 LLEG_JOINT4:0.996215,0.077726,0.000000,-0.038914 RARM_JOINT2:0.804081,0.000000,-0.033176,0.593593 RARM_JOINT3:0.859213,0.000000,0.399153,0.320048 RLEG_JOINT2:0.999217,0.002037,0.000000,-0.039503 RLEG_JOINT4:0.993489,0.108100,0.000000,0.035977 WAIST:0.999873,0.000000,-0.011942,0.010538 WAIST_JOINT0:0.999666,0.000000,-0.020001,0.016376 WAIST_JOINT1:0.997422,0.070641,0.000000,-0.012608 END:
KINECT_DATA_Sensor  AnkleLeft:0.091327,0.714058,-0.069348,-0.690632 AnkleRight:0.084805,0.701401,0.070744,0.704159 ElbowLeft:-0.004063,0.907403,-0.194738,-0.372398 ElbowRight:0.004569,0.833679,0.178410,0.522618 FootLeft:0.000000,0.000000,0.000000,0.000000 FootRight:0.000000,0.000000,0.000000,0.000000 HandLeft:-0.032407,-0.463818,-0.071032,0.882483 HandRight:-0.226529,0.898952,-0.374801,-0.009685 HandTipLeft:0.000000,0.000000,0.000000,0.000000 HandTipRight:0.000000,0.000000,0.000000,0.000000 Head:0.000000,0.000000,0.000000,0.000000 HipLeft:0.118042,-0.672623,0.710196,-0.171074 HipRight:-0.110709,0.687592,0.698059,-0.166355 KneeLeft:0.008713,0.714793,-0.041891,-0.698026 KneeRight:-0.018674,0.698920,0.022255,0.714609 Neck:0.018698,-0.000977,0.996130,-0.085879 ShoulderLeft:0.017860,0.772819,-0.630286,0.071907 ShoulderRight:0.042543,0.788650,0.612002,-0.040918 SpineBase:0.011075,0.002390,0.998945,-0.044511 SpineMid:0.014977,0.002216,0.998894,-0.044520 SpineShoulder:0.018603,-0.002041,0.997651,-0.065895 ThumbLeft:0.000000,0.000000,0.000000,0.000000 ThumbRight:0.000000,0.000000,0.000000,0.000000 WristLeft:0.057833,-0.453624,-0.064233,0.886992 WristRight:-0.334428,0.932849,-0.118309,0.062875 END:
KINECT_DATA POSITION:35.502205,0.627439,-10.854757 HEAD_JOINT1:0.971384,0.195023,-0.000000,0.135569 LARM_JOINT2:0.823490,0.000000,0.008915,-0.567261 LARM_JOINT3:0.972631,0.000000,-0.151628,-0.176063 LLEG_JOINT2:0.999277,0.035944,0.000000,0.012425 LLEG_JOINT4:0.996385,0.075738,0.000000,-0.038468 RARM_JOINT2:0.804615,0.000000,-0.033477,0.592853 RARM_JOINT3:0.849362,0.000000,0.416521,0.324182 RLEG_JOINT2:0.999192,0.003043,0.000000,-0.040074 RLEG_JOINT4:0.993656,0.106944,0.000000,0.034787 WAIST:0.999873,0.000000,-0.011638,0.010901 WAIST_JOINT0:0.999645,0.000000,-0.020654,0.016807 WAIST_JOINT1:0.997454,0.070379,0.000000,-0.011539 END:
KINECT_DATA_Sensor  AnkleLeft:0.091119,0.730955,-0.066195,-0.673067 AnkleRight:0.083671,0.701304,0.071718,0.704293 ElbowLeft:-0.003984,0.907530,-0.195729,-0.371569 ElbowRight:0.002450,0.827031,0.178008,0.533224 FootLeft:0.000000,0.000000,0.000000,0.000000 FootRight:0.000000,0.000000,0.000000,0.000000 HandLeft:-0.033139,-0.532282,-0.075490,0.842543 HandRight:-0.237954,0.892328,-0.381790,-0.036951 HandTipLeft:0.000000,0.000000,0.000000,0.000000 HandTipRight:0.000000,0.000000,0.000000,0.000000 Head:0.000000,0.000000,0.000000,0.000000 HipLeft:0.117716,-0.672428,0.710422,-0.171126 HipRight:-0.110878,0.687818,0.697723,-0.166720 KneeLeft:0.008540,0.714562,-0.042091,-0.698253 KneeRight:-0.018106,0.699161,0.023103,0.714361 Neck:0.019229,-0.000230,0.996140,-0.085642 ShoulderLeft:0.017726,0.772627,-0.630532,0.071848 ShoulderRight:0.043116,0.789232,0.611276,-0.039949 SpineBase:0.010750,0.002710,0.998938,-0.044722 SpineMid:0.015088,0.002516,0.998882,-0.044733 SpineShoulder:0.019233,-0.000506,0.997659,-0.065617 ThumbLeft:0.000000,0.000000,0.000000,0.000000 ThumbRight:0.000000,0.000000,0.000000,0.000000 WristLeft:0.062668,-0.520127,-0.059524,0.849704 WristRight:-0.359601,0.925082,-0.113981,0.043793 END:
KINECT_DATA POSITION:35.488911,0.615075,-10.832775 HEAD_JOINT1:0.971028,0.195807,-0.000000,0.136983 LARM_JOINT2:0.823650,0.000000,0.008792,-0.567030 LARM_JOINT3:0.972164,0.000000,-0.153217,-0.177264 LLEG_JOINT2:0.999262,0.036621,0.000000,0.011582 LLEG_JOINT4:0.996094,0.079218,0.000000,-0.039009 RARM_JOINT2:0.803852,0.000000,-0.037218,0.593664 RARM_JOINT3:0.844843,0.000000,0.427967,0.321066 RLEG_JOINT2:0.999157,0.003660,0.000000,-0.040897 RLEG_JOINT4:0.993614,0.106611,0.000000,0.036943 WAIST:0.999879,0.000000,-0.010669,0.011359 WAIST_JOINT0:0.999643,0.000000,-0.020662,0.016956 WAIST_JOINT1:0.997476,0.070167,0.000000,-0.010907 END:
KINECT_DATA_Sensor  AnkleLeft:0.092635,0.708442,-0.071219,-0.696029 AnkleRight:0.084946,0.701035,0.070798,0.704501 ElbowLeft:-0.004167,0.907824,-0.196848,-0.370257 ElbowRight:0.004482,0.823351,0.177572,0.539018 FootLeft:0.000000,0.000000,0.000000,0.000000 FootRight:0.000000,0.000000,0.000000,0.000000 HandLeft:-0.030949,-0.514810,-0.078224,0.853167 HandRight:-0.253596,0.888236,-0.381956,-0.028917 HandTipLeft:0.000000,0.000000,0.000000,0.000000 HandTipRight:0.000000,0.000000,0.000000,0.000000 Head:0.000000,0.000000,0.000000,0.000000 HipLeft:0.117059,-0.672189,0.710793,-0.170977 HipRight:-0.111564,0.687970,0.697267,-0.167538 KneeLeft:0.009325,0.713847,-0.042294,-0.698961 KneeRight:-0.017946,0.699860,0.023774,0.713658 Neck:0.019263,0.000155,0.996149,-0.085528 ShoulderLeft:0.016588,0.772466,-0.630688,0.072480 ShoulderRight:0.042029,0.789315,0.611210,-0.040472 SpineBase:0.009761,0.003218,0.998935,-0.044971 SpineMid:0.014631,0.002999,0.998876,-0.044986 SpineShoulder:0.019352,0.000619,0.997674,-0.065363 ThumbLeft:0.000000,0.000000,0.000000,0.000000 ThumbRight:0.000000,0.000000,0.000000,0.000000 WristLeft:0.061406,-0.503112,-0.061663,0.859829 WristRight:-0.365108,0.921890,-0.117648,0.054537 END:
KINECT_DATA POSITION:35.460510,0.594153,-10.739815 HEAD_JOINT1:0.970819,0.196008,-0.000000,0.138168 LARM_JOINT2:0.823499,0.000000,0.009765,-0.567234 LARM_JOINT3:0.971699,0.000000,-0.153377,-0.179659 LLEG_JOINT2:0.999246,0.037269,0.000000,0.010878 LLEG_JOINT4:0.996418,0.075694,0.000000,-0.037691 RARM_JOINT2:0.803147,0.000000,-0.040050,0.594433 RARM_JOINT3:0.838960,0.000000,0.434518,0.327628 RLEG_JOINT2:0.999130,0.004360,0.000000,-0.041485 RLEG_JOINT4:0.993670,0.106312,0.000000,0.036297 WAIST:0.999874,0.000000,-0.010159,0.012218 WAIST_JOINT0:0.999643,0.000000,-0.020636,0.016944 WAIST_JOINT1:0.997497,0.069781,0.000000,-0.011409 END:
KINECT_DATA_Sensor  AnkleLeft:0.090045,0.712704,-0.069606,-0.692171 AnkleRight:0.089569,0.747378,0.065488,0.655069 ElbowLeft:-0.003742,0.907447,-0.197114,-0.371042 ElbowRight:0.005257,0.818929,0.177382,0.545769 FootLeft:0.000000,0.000000,0.000000,0.000000 FootRight:0.000000,0.000000,0.000000,0.000000 HandLeft:-0.037373,-0.497322,-0.078222,0.863224 HandRight:-0.250321,0.875043,-0.413645,-0.023179 HandTipLeft:0.000000,0.000000,0.000000,0.000000 HandTipRight:0.000000,0.000000,0.000000,0.000000 Head:0.000000,0.000000,0.000000,0.000000 HipLeft:0.116673,-0.671602,0.711466,-0.170748 HipRight:-0.111847,0.688373,0.696713,-0.167999 KneeLeft:0.009692,0.713431,-0.042861,-0.699347 KneeRight:-0.017265,0.700280,0.024064,0.713253 Neck:0.019203,0.000108,0.996168,-0.085331 ShoulderLeft:0.016579,0.772149,-0.631136,0.071968 ShoulderRight:0.041979,0.789079,0.611547,-0.040039 SpineBase:0.009187,0.003560,0.998933,-0.045119 SpineMid:0.014334,0.003327,0.998872,-0.045137 SpineShoulder:0.019337,0.001005,0.997703,-0.064919 ThumbLeft:0.000000,0.000000,0.000000,0.000000 ThumbRight:0.000000,0.000000,0.000000,0.000000 WristLeft:0.059726,-0.485156,-0.063878,0.870044 WristRight:-0.369818,0.918802,-0.119936,0.068207 END:
KINECT_DATA POSITION:35.426514,0.566480,-10.640324 HEAD_JOINT1:0.969987,0.199010,-0.000000,0.139716 LARM_JOINT2:0.823140,0.000000,0.010227,-0.567746 LARM_JOINT3:0.971675,0.000000,-0.153951,-0.179293 LLEG_JOINT2:0.999223,0.037896,0.000000,0.010824 LLEG_JOINT4:0.996328,0.076062,0.000000,-0.039315 RARM_JOINT2:0.802590,0.000000,-0.043753,0.594924 RARM_JOINT3:0.826377,0.000000,0.457208,0.328727 RLEG_JOINT2:0.999130,0.004262,0.000000,-0.041479 RLEG_JOINT4:0.993726,0.105544,0.000000,0.037011 WAIST:0.999865,0.000000,-0.010773,0.012383 WAIST_JOINT0:0.999664,0.000000,-0.020017,0.016459 WAIST_JOINT1:0.997509,0.069599,0.000000,-0.011480 END:
KINECT_DATA_Sensor  AnkleLeft:-0.088495,-0.680413,0.073443,0.723749 AnkleRight:0.088688,0.738603,0.065349,0.665079 ElbowLeft:-0.003520,0.907581,-0.196722,-0.370925 ElbowRight:0.006161,0.811936,0.178163,0.555859 FootLeft:0.000000,0.000000,0.000000,0.000000 FootRight:0.000000,0.000000,0.000000,0.000000 HandLeft:-0.038656,-0.470024,-0.079866,0.878183 HandRight:0.410990,0.035714,-0.293606,0.862327 HandTipLeft:0.000000,0.000000,0.000000,0.000000 HandTipRight:0.000000,0.000000,0.000000,0.000000 Head:0.000000,0.000000,0.000000,0.000000 HipLeft:0.117080,-0.671282,0.711595,-0.171190 HipRight:-0.111549,0.688428,0.696758,-0.167782 KneeLeft:0.010031,0.713840,-0.043399,-0.698891 KneeRight:-0.017194,0.699853,0.023890,0.713680 Neck:0.018675,0.000124,0.996177,-0.085334 ShoulderLeft:0.016113,0.771858,-0.631504,0.071959 ShoulderRight:0.040832,0.788310,0.612558,-0.040908 SpineBase:0.009785,0.003630,0.998923,-0.045205 SpineMid:0.014383,0.003422,0.998868,-0.045222 SpineShoulder:0.018837,0.001284,0.997727,-0.064688 ThumbLeft:0.000000,0.000000,0.000000,0.000000 ThumbRight:0.000000,0.000000,0.000000,0.000000 WristLeft:0.057445,-0.458141,-0.065372,0.884609 WristRight:0.119098,-0.067509,-0.386929,0.911890 END:
KINECT_DATA POSITION:35.367977,0.534638,-10.511435 HEAD_JOINT1:0.969538,0.200499,-0.000000,0.140698 LARM_JOINT2:0.822973,0.000000,0.010531,-0.567982 LARM_JOINT3:0.971258,0.000000,-0.156023,-0.179764 LLEG_JOINT2:0.999203,0.038268,0.000000,0.011350 LLEG_JOINT4:0.996441,0.074444,0.000000,-0.039529 RARM_JOINT2:0.801997,0.000000,-0.043500,0.595742 RARM_JOINT3:0.825179,0.000000,0.431239,0.364846 RLEG_JOINT2:0.999152,0.005133,0.000000,-0.040860 RLEG_JOINT4:0.993785,0.104888,0.000000,0.037294 WAIST:0.999872,0.000000,-0.010128,0.012380 WAIST_JOINT0:0.999636,0.000000,-0.021515,0.016249 WAIST_JOINT1:0.997542,0.069100,0.000000,-0.011605 END:
KINECT_DATA_Sensor  AnkleLeft:0.089868,0.704010,-0.069685,-0.701026 AnkleRight:0.085580,0.700385,0.069800,0.705170 ElbowLeft:-0.002999,0.908241,-0.196260,-0.369556 ElbowRight:0.022223,0.860150,0.175755,0.478286 FootLeft:0.000000,0.000000,0.000000,0.000000 FootRight:0.000000,0.000000,0.000000,0.000000 HandLeft:-0.028960,-0.516261,-0.090138,0.851182 HandRight:0.420593,0.009146,-0.286205,0.860875 HandTipLeft:0.000000,0.000000,0.000000,0.000000 HandTipRight:0.000000,0.000000,0.000000,0.000000 Head:0.000000,0.000000,0.000000,0.000000 HipLeft:0.116952,-0.671373,0.711689,-0.170528 HipRight:-0.112116,0.688295,0.696746,-0.168001 KneeLeft:0.009943,0.713392,-0.044018,-0.699311 KneeRight:-0.016161,0.700348,0.024043,0.713213 Neck:0.020117,-0.000358,0.996186,-0.084905 ShoulderLeft:0.015644,0.771972,-0.631367,0.072050 ShoulderRight:0.042250,0.788227,0.612708,-0.038749 SpineBase:0.009140,0.003406,0.998945,-0.044877 SpineMid:0.014777,0.003152,0.998877,-0.044895 SpineShoulder:0.020295,0.001019,0.997733,-0.064159 ThumbLeft:0.000000,0.000000,0.000000,0.000000 ThumbRight:0.000000,0.000000,0.000000,0.000000 WristLeft:0.059601,-0.504223,-0.062679,0.859231 WristRight:0.204525,-0.068926,-0.346884,0.912738 END:
KINECT_DATA POSITION:35.324451,0.507783,-10.373032 HEAD_JOINT1:0.969495,0.200633,-0.000000,0.140808 LARM_JOINT2:0.822708,0.000000,0.010434,-0.568368 LARM_JOINT3:0.971195,0.000000,-0.155593,-0.180476 LLEG_JOINT2:0.999188,0.038664,0.000000,0.011372 LLEG_JOINT4:0.996507,0.074647,0.000000,-0.037449 RARM_JOINT2:0.802668,0.000000,-0.044787,0.594742 RARM_JOINT3:0.818249,0.000000,0.432039,0.379223 RLEG_JOINT2:0.999168,0.004505,0.000000,-0.040541 RLEG_JOINT4:0.993817,0.104972,0.000000,0.036169 WAIST:0.999872,0.000000,-0.010132,0.012382 WAIST_JOINT0:0.999640,0.000000,-0.021610,0.015881 WAIST_JOINT1:0.997567,0.068746,0.000000,-0.011576 END:
KINECT_DATA_Sensor  AnkleLeft:0.089494,0.711058,-0.070681,-0.693824 AnkleRight:0.084639,0.700516,0.070000,0.705134 ElbowLeft:-0.002612,0.909450,-0.195709,-0.366868 ElbowRight:0.023216,0.862335,0.176941,0.473847 FootLeft:0.000000,0.000000,0.000000,0.000000 FootRight:0.000000,0.000000,0.000000,0.000000 HandLeft:-0.033512,-0.473926,-0.090782,0.875231 HandRight:0.523316,-0.110501,-0.204719,0.819768 HandTipLeft:0.000000,0.000000,0.000000,0.000000 HandTipRight:0.000000,0.000000,0.000000,0.000000 Head:0.000000,0.000000,0.000000,0.000000 HipLeft:0.117123,-0.671337,0.711725,-0.170399 HipRight:-0.112336,0.688255,0.696781,-0.167875 KneeLeft:0.010203,0.713392,-0.044317,-0.699288 KneeRight:-0.016385,0.700332,0.023373,0.713246 Neck:0.020202,-0.000477,0.996211,-0.084588 ShoulderLeft:0.015698,0.771743,-0.631694,0.071611 ShoulderRight:0.042431,0.787760,0.613330,-0.038213 SpineBase:0.009151,0.003447,0.998955,-0.044647 SpineMid:0.014832,0.003193,0.998887,-0.044666 SpineShoulder:0.020397,0.001091,0.997754,-0.063794 ThumbLeft:0.000000,0.000000,0.000000,0.000000 ThumbRight:0.000000,0.000000,0.000000,0.000000 WristLeft:0.055135,-0.462243,-0.065397,0.882618 WristRight:0.255398,-0.192769,-0.313984,0.893883 END:
KINECT_DATA POSITION:35.297535,0.498446,-10.305559 HEAD_JOINT1:0.969416,0.200715,-0.000000,0.141233 LARM_JOINT2:0.822554,0.000000,0.010945,-0.568581 LARM_JOINT3:0.971437,0.000000,-0.154965,-0.179710 LLEG_JOINT2:0.999141,0.039720,0.000000,0.011853 LLEG_JOINT4:0.996534,0.074430,0.000000,-0.037158 RARM_JOINT2:0.803074,0.000000,-0.043398,0.594297 RARM_JOINT3:0.813675,0.000000,0.438288,0.381886 RLEG_JOINT2:0.999171,0.004812,0.000000,-0.040414 RLEG_JOINT4:0.993387,0.108313,0.000000,0.038097 WAIST:0.999873,0.000000,-0.010373,0.012113 WAIST_JOINT0:0.999617,0.000000,-0.022772,0.015755 WAIST_JOINT1:0.997568,0.068782,0.000000,-0.011236 END:
KINECT_DATA_Sensor  AnkleLeft:0.089764,0.711707,-0.071575,-0.693031 AnkleRight:0.091606,0.730599,0.067202,0.673288 ElbowLeft:-0.002027,0.909788,-0.195717,-0.366029 ElbowRight:0.022528,0.863579,0.176889,0.471630 FootLeft:0.000000,0.000000,0.000000,0.000000 FootRight:0.000000,0.000000,0.000000,0.000000 HandLeft:-0.031002,-0.464768,-0.083981,0.880895 HandRight:0.534681,-0.141697,-0.211908,0.805688 HandTipLeft:0.000000,0.000000,0.000000,0.000000 HandTipRight:0.000000,0.000000,0.000000,0.000000 Head:0.000000,0.000000,0.000000,0.000000 HipLeft:0.117304,-0.671420,0.711538,-0.170730 HipRight:-0.112337,0.688065,0.696981,-0.167823 KneeLeft:0.010783,0.713563,-0.045220,-0.699047 KneeRight:-0.016260,0.700144,0.023694,0.713423 Neck:0.021275,-0.000533,0.996184,-0.084649 ShoulderLeft:0.016390,0.771450,-0.632059,0.071404 ShoulderRight:0.044538,0.787421,0.613728,-0.036362 SpineBase:0.009417,0.003527,0.998950,-0.044702 SpineMid:0.015507,0.003255,0.998874,-0.044723 SpineShoulder:0.021482,0.001150,0.997729,-0.063823 ThumbLeft:0.000000,0.000000,0.000000,0.000000 ThumbRight:0.000000,0.000000,0.000000,0.000000 WristLeft:0.053442,-0.454432,-0.066639,0.886676 WristRight:0.272335,-0.226300,-0.305369,0.883952 END:
KINECT_DATA POSITION:35.261292,0.489116,-10.248888 HEAD_JOINT1:0.969415,0.200119,-0.000000,0.142082 LARM_JOINT2:0.822500,0.000000,0.010575,-0.568667 LARM_JOINT3:0.970977,0.000000,-0.157537,-0.179960 LLEG_JOINT2:0.999117,0.040208,0.000000,0.012172 LLEG_JOINT4:0.996559,0.073972,0.000000,-0.037385 RARM_JOINT2:0.801968,0.000000,-0.040835,0.595970 RARM_JOINT3:0.811973,0.000000,0.448958,0.373010 RLEG_JOINT2:0.999191,0.005155,0.000000,-0.039872 RLEG_JOINT4:0.993376,0.108757,0.000000,0.037087 WAIST:0.999870,0.000000,-0.010875,0.011905 WAIST_JOINT0:0.999577,0.000000,-0.024771,0.015232 WAIST_JOINT1:0.997564,0.068873,0.000000,-0.011074 END:
KINECT_DATA_Sensor  AnkleLeft:0.090895,0.722328,-0.070209,-0.681947 AnkleRight:0.088531,0.698254,0.072361,0.706659 ElbowLeft:-0.002056,0.910415,-0.195501,-0.364582 ElbowRight:0.019709,0.858280,0.174577,0.482173 FootLeft:0.000000,0.000000,0.000000,0.000000 FootRight:0.000000,0.000000,0.000000,0.000000 HandLeft:-0.027357,-0.456877,-0.092278,0.884307 HandRight:0.496678,-0.162910,-0.200974,0.828481 HandTipLeft:0.000000,0.000000,0.000000,0.000000 HandTipRight:0.000000,0.000000,0.000000,0.000000 Head:0.000000,0.000000,0.000000,0.000000 HipLeft:0.117638,-0.671456,0.711358,-0.171108 HipRight:-0.112126,0.687955,0.697172,-0.167622 KneeLeft:0.011028,0.713919,-0.045655,-0.698651 KneeRight:-0.015767,0.699789,0.023705,0.713782 Neck:0.023220,-0.000716,0.996128,-0.084788 ShoulderLeft:0.016571,0.771001,-0.632545,0.071901 ShoulderRight:0.047259,0.786507,0.614836,-0.033909 SpineBase:0.009934,0.003491,0.998943,-0.044737 SpineMid:0.016739,0.003186,0.998852,-0.044760 SpineShoulder:0.023438,0.001062,0.997680,-0.063905 ThumbLeft:0.000000,0.000000,0.000000,0.000000 ThumbRight:0.000000,0.000000,0.000000,0.000000 WristLeft:0.052099,-0.446687,-0.067747,0.890599 WristRight:0.280688,-0.238325,-0.318390,0.873523 END:
KINECT_DATA POSITION:35.233963,0.487072,-10.226202 HEAD_JOINT1:0.969207,0.200092,-0.000000,0.143530 LARM_JOINT2:0.822652,0.000000,0.010055,-0.568456 LARM_JOINT3:0.971339,0.000000,-0.156704,-0.178732 LLEG_JOINT2:0.999091,0.040737,0.000000,0.012558 LLEG_JOINT4:0.996441,0.074189,0.000000,-0.040025 RARM_JOINT2:0.800958,0.000000,-0.038542,0.597478 RARM_JOINT3:0.811911,0.000000,0.455623,0.364977 RLEG_JOINT2:0.999202,0.005307,0.000000,-0.039587 RLEG_JOINT4:0.993175,0.110608,0.000000,0.037006 WAIST:0.999869,0.000000,-0.011054,0.011794 WAIST_JOINT0:0.999548,0.000000,-0.026161,0.014835 WAIST_JOINT1:0.997572,0.068756,0.000000,-0.011109 END:
KINECT_DATA_Sensor  AnkleLeft:0.092131,0.713091,-0.070286,-0.691429 AnkleRight:0.089987,0.697292,0.073746,0.707282 ElbowLeft:-0.002462,0.910840,-0.195393,-0.363574 ElbowRight:0.018562,0.858029,0.172288,0.483485 FootLeft:0.000000,0.000000,0.000000,0.000000 FootRight:0.000000,0.000000,0.000000,0.000000 HandLeft:-0.020684,-0.484971,-0.086562,0.869990 HandRight:0.465556,-0.138266,-0.246105,0.838792 HandTipLeft:0.000000,0.000000,0.000000,0.000000 HandTipRight:0.000000,0.000000,0.000000,0.000000 Head:0.000000,0.000000,0.000000,0.000000 HipLeft:0.117927,-0.671516,0.711247,-0.171136 HipRight:-0.112139,0.687894,0.697254,-0.167520 KneeLeft:0.011194,0.714046,-0.046228,-0.698481 KneeRight:-0.015531,0.699669,0.023691,0.713905 Neck:0.024610,-0.000951,0.996103,-0.084689 ShoulderLeft:0.016203,0.771092,-0.632387,0.072400 ShoulderRight:0.048682,0.786110,0.615319,-0.032293 SpineBase:0.010117,0.003312,0.998948,-0.044598 SpineMid:0.017520,0.002981,0.998846,-0.044621 SpineShoulder:0.024829,0.000852,0.997654,-0.063784 ThumbLeft:0.000000,0.000000,0.000000,0.000000 ThumbRight:0.000000,0.000000,0.000000,0.000000 WristLeft:0.053934,-0.475758,-0.067107,0.875353 WristRight:0.274384,-0.213027,-0.330024,0.877734 END:
KINECT_DATA POSITION:35.199093,0.484701,-10.214890 HEAD_JOINT1:0.969268,0.198970,-0.000000,0.144671 LARM_JOINT2:0.823070,0.000000,0.009024,-0.567869 LARM_JOINT3:0.971595,0.000000,-0.155814,-0.178116 LLEG_JOINT2:0.999101,0.040251,0.000000,0.013329 LLEG_JOINT4:0.996357,0.075808,0.000000,-0.039069 RARM_JOINT2:0.800097,0.000000,-0.037049,0.598726 RARM_JOINT3:0.810015,0.000000,0.466842,0.354871 RLEG_JOINT2:0.999225,0.005576,0.000000,-0.038975 RLEG_JOINT4:0.993235,0.110161,0.000000,0.036720 WAIST:0.999869,0.000000,-0.011300,0.011612 WAIST_JOINT0:0.999513,0.000000,-0.027445,0.014848 WAIST_JOINT1:0.997577,0.068695,0.000000,-0.011051 END:
KINECT_DATA_Sensor  AnkleLeft:0.091901,0.713945,-0.072094,-0.690391 AnkleRight:0.092346,0.720079,0.070496,0.684097 ElbowLeft:-0.002932,0.912146,-0.195580,-0.360181 ElbowRight:0.014491,0.847683,0.170867,0.502023 FootLeft:0.000000,0.000000,0.000000,0.000000 FootRight:0.000000,0.000000,0.000000,0.000000 HandLeft:-0.014339,-0.506857,-0.085689,0.857641 HandRight:0.453077,-0.145127,-0.219035,0.851870 HandTipLeft:0.000000,0.000000,0.000000,0.000000 HandTipRight:0.000000,0.000000,0.000000,0.000000 Head:0.000000,0.000000,0.000000,0.000000 HipLeft:0.118138,-0.671607,0.711094,-0.171266 HipRight:-0.112022,0.687793,0.697395,-0.167424 KneeLeft:0.010424,0.714243,-0.046296,-0.698287 KneeRight:-0.015032,0.699502,0.023574,0.714083 Neck:0.025858,-0.001168,0.996077,-0.084616 ShoulderLeft:0.015679,0.771100,-0.632314,0.073062 ShoulderRight:0.049780,0.786109,0.615300,-0.030996 SpineBase:0.010373,0.003145,0.998947,-0.044578 SpineMid:0.018267,0.002793,0.998834,-0.044601 SpineShoulder:0.026080,0.000691,0.997626,-0.063727 ThumbLeft:0.000000,0.000000,0.000000,0.000000 ThumbRight:0.000000,0.000000,0.000000,0.000000 WristLeft:0.055291,-0.498288,-0.065232,0.862784 WristRight:0.271297,-0.220465,-0.350120,0.869027 END:
KINECT_DATA POSITION:35.181316,0.477077,-10.203958 HEAD_JOINT1:0.969357,0.197851,-0.000000,0.145606 LARM_JOINT2:0.823318,0.000000,0.006958,-0.567537 LARM_JOINT3:0.971479,0.000000,-0.155975,-0.178609 LLEG_JOINT2:0.999099,0.040117,0.000000,0.013815 LLEG_JOINT4:0.996319,0.076133,0.000000,-0.039387 RARM_JOINT2:0.798508,0.000000,-0.039159,0.600709 RARM_JOINT3:0.810507,0.000000,0.463105,0.358624 RLEG_JOINT2:0.999228,0.006786,0.000000,-0.038697 RLEG_JOINT4:0.993462,0.107959,0.000000,0.037112 WAIST:0.999873,0.000000,-0.011004,0.011529 WAIST_JOINT0:0.999533,0.000000,-0.026693,0.014877 WAIST_JOINT1:0.997570,0.068801,0.000000,-0.010968 END:
KINECT_DATA_Sensor  AnkleLeft:0.091378,0.707816,-0.073035,-0.696644 AnkleRight:0.089585,0.697020,0.072474,0.707733 ElbowLeft:-0.003706,0.913625,-0.195342,-0.356534 ElbowRight:0.017409,0.848343,0.169475,0.501287 FootLeft:0.000000,0.000000,0.000000,0.000000 FootRight:0.000000,0.000000,0.000000,0.000000 HandLeft:-0.011681,-0.515549,-0.091318,0.851900 HandRight:0.464187,-0.141635,-0.204361,0.850122 HandTipLeft:0.000000,0.000000,0.000000,0.000000 HandTipRight:0.000000,0.000000,0.000000,0.000000 Head:0.000000,0.000000,0.000000,0.000000 HipLeft:0.117918,-0.671700,0.711087,-0.171088 HipRight:-0.112137,0.687688,0.697439,-0.167598 KneeLeft:0.010054,0.714047,-0.046476,-0.698481 KneeRight:-0.014039,0.699738,0.024273,0.713849 Neck:0.025164,-0.001179,0.996084,-0.084749 ShoulderLeft:0.015051,0.771036,-0.632357,0.073496 ShoulderRight:0.048254,0.786156,0.615285,-0.032483 SpineBase:0.010081,0.003071,0.998949,-0.044614 SpineMid:0.017773,0.002728,0.998841,-0.044637 SpineShoulder:0.025387,0.000704,0.997638,-0.063818 ThumbLeft:0.000000,0.000000,0.000000,0.000000 ThumbRight:0.000000,0.000000,0.000000,0.000000 WristLeft:0.055533,-0.506962,-0.064541,0.857753 WristRight:0.271991,-0.219730,-0.347807,0.869925 END:
KINECT_DATA POSITION:35.164211,0.468373,-10.185742 HEAD_JOINT1:0.969545,0.197113,-0.000000,0.145361 LARM_JOINT2:0.823291,0.000000,0.006472,-0.567582 LARM_JOINT3:0.972133,0.000000,-0.150214,-0.179982 LLEG_JOINT2:0.999118,0.039552,0.000000,0.014082 LLEG_JOINT4:0.996385,0.075800,0.000000,-0.038355 RARM_JOINT2:0.795921,0.000000,-0.038846,0.604153 RARM_JOINT3:0.805551,0.000000,0.485100,0.340243 RLEG_JOINT2:0.999242,0.006107,0.000000,-0.038448 RLEG_JOINT4:0.993435,0.108351,0.000000,0.036707 WAIST:0.999878,0.000000,-0.010588,0.011449 WAIST_JOINT0:0.999551,0.000000,-0.026223,0.014501 WAIST_JOINT1:0.997564,0.068892,0.000000,-0.010981 END:
KINECT_DATA_Sensor  AnkleLeft:0.090526,0.713521,-0.072449,-0.690974 AnkleRight:0.093572,0.740532,0.066718,0.662121 ElbowLeft:-0.003795,0.913660,-0.195090,-0.356583 ElbowRight:0.019153,0.848777,0.165772,0.501728 FootLeft:0.000000,0.000000,0.000000,0.000000 FootRight:0.000000,0.000000,0.000000,0.000000 HandLeft:-0.025919,-0.523930,-0.071564,0.848354 HandRight:0.416943,-0.165283,-0.311310,0.837810 HandTipLeft:0.000000,0.000000,0.000000,0.000000 HandTipRight:0.000000,0.000000,0.000000,0.000000 Head:0.000000,0.000000,0.000000,0.000000 HipLeft:0.117645,-0.671792,0.711098,-0.170864 HipRight:-0.112325,0.687549,0.697478,-0.167880 KneeLeft:0.009540,0.713770,-0.046194,-0.698790 KneeRight:-0.014421,0.700025,0.023667,0.713580 Neck:0.024709,-0.001360,0.996088,-0.084828 ShoulderLeft:0.015235,0.771157,-0.632223,0.073340 ShoulderRight:0.047855,0.785998,0.615488,-0.033046 SpineBase:0.009667,0.002964,0.998951,-0.044672 SpineMid:0.017340,0.002621,0.998847,-0.044693 SpineShoulder:0.024937,0.000605,0.997644,-0.063906 ThumbLeft:0.000000,0.000000,0.000000,0.000000 ThumbRight:0.000000,0.000000,0.000000,0.000000 WristLeft:0.055700,-0.514686,-0.065303,0.853072 WristRight:0.281099,-0.225561,-0.349029,0.865034 END:
KINECT_DATA POSITION:35.164791,0.461548,-10.127317 HEAD_JOINT1:0.969582,0.197266,-0.000000,0.144901 LARM_JOINT2:0.823160,0.000000,0.007287,-0.567763 LARM_JOINT3:0.972037,0.000000,-0.151478,-0.179438 LLEG_JOINT2:0.999089,0.040165,0.000000,0.014395 LLEG_JOINT4:0.996266,0.076692,0.000000,-0.039642 RARM_JOINT2:0.794947,0.000000,-0.039238,0.605409 RARM_JOINT3:0.805004,0.000000,0.492691,0.330492 RLEG_JOINT2:0.999243,0.006363,0.000000,-0.038366 RLEG_JOINT4:0.993456,0.107896,0.000000,0.037467 WAIST:0.999881,0.000000,-0.010531,0.011266 WAIST_JOINT0:0.999557,0.000000,-0.026017,0.014435 WAIST_JOINT1:0.997554,0.069052,0.000000,-0.010850 END:
KINECT_DATA_Sensor  AnkleLeft:0.092287,0.712161,-0.072829,-0.692103 AnkleRight:0.089490,0.697376,0.071873,0.707455 ElbowLeft:-0.003349,0.912824,-0.195155,-0.358685 ElbowRight:0.020030,0.848085,0.164693,0.503216 FootLeft:0.000000,0.000000,0.000000,0.000000 FootRight:0.000000,0.000000,0.000000,0.000000 HandLeft:-0.020893,-0.548370,-0.072904,0.832789 HandRight:0.390741,-0.190726,-0.341917,0.833089 HandTipLeft:0.000000,0.000000,0.000000,0.000000 HandTipRight:0.000000,0.000000,0.000000,0.000000 Head:0.000000,0.000000,0.000000,0.000000 HipLeft:0.117417,-0.671862,0.711042,-0.170979 HipRight:-0.112213,0.687363,0.697643,-0.168030 KneeLeft:0.009878,0.713730,-0.046720,-0.698791 KneeRight:-0.014311,0.700062,0.023915,0.713538 Neck:0.024476,-0.001414,0.996081,-0.084979 ShoulderLeft:0.015842,0.770948,-0.632501,0.073008 ShoulderRight:0.048181,0.785786,0.615730,-0.033086 SpineBase:0.009620,0.002947,0.998940,-0.044914 SpineMid:0.017201,0.002606,0.998838,-0.044935 SpineShoulder:0.024704,0.000565,0.997640,-0.064066 ThumbLeft:0.000000,0.000000,0.000000,0.000000 ThumbRight:0.000000,0.000000,0.000000,0.000000 WristLeft:0.057745,-0.539224,-0.063881,0.837748 WristRight:0.286086,-0.236897,-0.346736,0.861283 END:
KINECT_DATA POSITION:35.167259,0.447680,-10.069203 HEAD_JOINT1:0.969652,0.196988,-0.000000,0.144812 LARM_JOINT2:0.822925,0.000000,0.007777,-0.568097 LARM_JOINT3:0.971391,0.000000,-0.154156,-0.180654 LLEG_JOINT2:0.999074,0.040515,0.000000,0.014473 LLEG_JOINT4:0.996186,0.077876,0.000000,-0.039361 RARM_JOINT2:0.794518,0.000000,-0.039672,0.605944 RARM_JOINT3:0.804924,0.000000,0.490674,0.333671 RLEG_JOINT2:0.999243,0.006463,0.000000,-0.038358 RLEG_JOINT4:0.993729,0.105668,0.000000,0.036571 WAIST:0.999886,0.000000,-0.010113,0.011208 WAIST_JOINT0:0.999558,0.000000,-0.026105,0.014249 WAIST_JOINT1:0.997544,0.069229,0.000000,-0.010633 END:
KINECT_DATA_Sensor  AnkleLeft:-0.091984,-0.700575,0.075559,0.703580 AnkleRight:0.087244,0.697683,0.071139,0.707507 ElbowLeft:-0.002871,0.912244,-0.195151,-0.360164 ElbowRight:0.020521,0.847402,0.164251,0.504490 FootLeft:0.000000,0.000000,0.000000,0.000000 FootRight:0.000000,0.000000,0.000000,0.000000 HandLeft:-0.015291,-0.601525,-0.083989,0.794280 HandRight:0.405512,-0.189990,-0.321954,0.834152 HandTipLeft:0.000000,0.000000,0.000000,0.000000 HandTipRight:0.000000,0.000000,0.000000,0.000000 Head:0.000000,0.000000,0.000000,0.000000 HipLeft:0.117044,-0.671894,0.711097,-0.170881 HipRight:-0.112443,0.687222,0.697673,-0.168332 KneeLeft:0.010125,0.713437,-0.046977,-0.699070 KneeRight:-0.014289,0.700350,0.024011,0.713252 Neck:0.024555,-0.001320,0.996063,-0.085173 ShoulderLeft:0.015991,0.770768,-0.632703,0.073129 ShoulderRight:0.048437,0.785566,0.615991,-0.033100 SpineBase:0.009213,0.003081,0.998937,-0.045058 SpineMid:0.017039,0.002728,0.998834,-0.045080 SpineShoulder:0.024786,0.000660,0.997627,-0.064231 ThumbLeft:0.000000,0.000000,0.000000,0.000000 ThumbRight:0.000000,0.000000,0.000000,0.000000 WristLeft:0.061666,-0.591461,-0.060186,0.801716 WristRight:0.288301,-0.242710,-0.346004,0.859218 END:
KINECT_DATA POSITION:35.162533,0.444344,-10.023201 HEAD_JOINT1:0.969378,0.198081,-0.000000,0.145158 LARM_JOINT2:0.822899,0.000000,0.008293,-0.568128 LARM_JOINT3:0.971595,0.000000,-0.152797,-0.180713 LLEG_JOINT2:0.999055,0.040938,0.000000,0.014590 LLEG_JOINT4:0.996252,0.076414,0.000000,-0.040523 RARM_JOINT2:0.793777,0.000000,-0.037830,0.607031 RARM_JOINT3:0.809105,0.000000,0.489374,0.325366 RLEG_JOINT2:0.999241,0.007096,0.000000,-0.038305 RLEG_JOINT4:0.993332,0.109429,0.000000,0.036294 WAIST:0.999889,0.000000,-0.009789,0.011194 WAIST_JOINT0:0.999518,0.000000,-0.027538,0.014368 WAIST_JOINT1:0.997562,0.068974,0.000000,-0.010606 END:
KINECT_DATA_Sensor  AnkleLeft:0.092788,0.707471,-0.073113,-0.696800 AnkleRight:0.090116,0.696584,0.074494,0.707884 ElbowLeft:-0.002629,0.912116,-0.195196,-0.360467 ElbowRight:0.019423,0.847325,0.162337,0.505281 FootLeft:0.000000,0.000000,0.000000,0.000000 FootRight:0.000000,0.000000,0.000000,0.000000 HandLeft:-0.020064,-0.578510,-0.079386,0.811555 HandRight:0.371592,-0.179604,-0.326967,0.850150 HandTipLeft:0.000000,0.000000,0.000000,0.000000 HandTipRight:0.000000,0.000000,0.000000,0.000000 Head:0.000000,0.000000,0.000000,0.000000 HipLeft:0.117132,-0.671945,0.711099,-0.170610 HipRight:-0.112927,0.687159,0.697631,-0.168440 KneeLeft:0.010361,0.713209,-0.047345,-0.699274 KneeRight:-0.013819,0.700589,0.024419,0.713013 Neck:0.025928,-0.001462,0.996047,-0.084941 ShoulderLeft:0.015663,0.770692,-0.632772,0.073408 ShoulderRight:0.049894,0.785609,0.615917,-0.031233 SpineBase:0.008895,0.003071,0.998952,-0.044784 SpineMid:0.017563,0.002682,0.998838,-0.044809 SpineShoulder:0.026160,0.000540,0.997609,-0.063964 ThumbLeft:0.000000,0.000000,0.000000,0.000000 ThumbRight:0.000000,0.000000,0.000000,0.000000 WristLeft:0.059874,-0.568477,-0.061679,0.818196 WristRight:0.280418,-0.222755,-0.353752,0.864063 END:
KINECT_DATA POSITION:35.157459,0.442577,-10.008133 HEAD_JOINT1:0.969127,0.199253,-0.000000,0.145227 LARM_JOINT2:0.822910,0.000000,0.008527,-0.568108 LARM_JOINT3:0.971783,0.000000,-0.151161,-0.181074 LLEG_JOINT2:0.999063,0.040824,0.000000,0.014383 LLEG_JOINT4:0.996244,0.076697,0.000000,-0.040201 RARM_JOINT2:0.793511,0.000000,-0.038728,0.607322 RARM_JOINT3:0.807542,0.000000,0.491250,0.326420 RLEG_JOINT2:0.999237,0.006496,0.000000,-0.038501 RLEG_JOINT4:0.993381,0.108211,0.000000,0.038541 WAIST:0.999888,0.000000,-0.009759,0.011322 WAIST_JOINT0:0.999519,0.000000,-0.027431,0.014496 WAIST_JOINT1:0.997561,0.068975,0.000000,-0.010739 END:
KINECT_DATA_Sensor  AnkleLeft:0.093396,0.713708,-0.072561,-0.690386 AnkleRight:0.092025,0.713554,0.069481,0.691046 ElbowLeft:-0.002414,0.912146,-0.195289,-0.360342 ElbowRight:0.020347,0.847633,0.162317,0.504735 FootLeft:0.000000,0.000000,0.000000,0.000000 FootRight:0.000000,0.000000,0.000000,0.000000 HandLeft:-0.024149,-0.567590,-0.074232,0.819602 HandRight:0.380773,-0.188923,-0.336394,0.840333 HandTipLeft:0.000000,0.000000,0.000000,0.000000 HandTipRight:0.000000,0.000000,0.000000,0.000000 Head:0.000000,0.000000,0.000000,0.000000 HipLeft:0.117095,-0.671877,0.711175,-0.170585 HipRight:-0.112929,0.687242,0.697533,-0.168500 KneeLeft:0.010340,0.713180,-0.047209,-0.699313 KneeRight:-0.014296,0.700607,0.024049,0.712999 Neck:0.025813,-0.001463,0.996051,-0.084936 ShoulderLeft:0.015550,0.770488,-0.633014,0.073481 ShoulderRight:0.049646,0.785601,0.615935,-0.031468 SpineBase:0.008853,0.003083,0.998952,-0.044808 SpineMid:0.017486,0.002696,0.998838,-0.044832 SpineShoulder:0.026045,0.000539,0.997612,-0.063968 ThumbLeft:0.000000,0.000000,0.000000,0.000000 ThumbRight:0.000000,0.000000,0.000000,0.000000 WristLeft:0.058902,-0.557566,-0.062255,0.825696 WristRight:0.284187,-0.232807,-0.348934,0.862139 END:
KINECT_DATA POSITION:35.154713,0.436886,-9.973621 HEAD_JOINT1:0.969164,0.199262,-0.000000,0.144966 LARM_JOINT2:0.822762,0.000000,0.008775,-0.568318 LARM_JOINT3:0.971837,0.000000,-0.153039,-0.179199 LLEG_JOINT2:0.999059,0.040814,0.000000,0.014670 LLEG_JOINT4:0.996269,0.076856,0.000000,-0.039250 RARM_JOINT2:0.793317,0.000000,-0.038790,0.607571 RARM_JOINT3:0.803238,0.000000,0.494140,0.332618 RLEG_JOINT2:0.999236,0.007134,0.000000,-0.038422 RLEG_JOINT4:0.993391,0.108714,0.000000,0.036810 WAIST:0.999889,0.000000,-0.009772,0.011229 WAIST_JOINT0:0.999538,0.000000,-0.026694,0.014554 WAIST_JOINT1:0.997568,0.068876,0.000000,-0.010715 END:
KINECT_DATA_Sensor  AnkleLeft:0.092668,0.713492,-0.073510,-0.690607 AnkleRight:0.089971,0.697042,0.073665,0.707539 ElbowLeft:-0.002388,0.911819,-0.195034,-0.361306 ElbowRight:0.020477,0.847798,0.162071,0.504532 FootLeft:0.000000,0.000000,0.000000,0.000000 FootRight:0.000000,0.000000,0.000000,0.000000 HandLeft:-0.017049,-0.567017,-0.076930,0.819928 HandRight:0.393072,-0.145522,-0.354533,0.835838 HandTipLeft:0.000000,0.000000,0.000000,0.000000 HandTipRight:0.000000,0.000000,0.000000,0.000000 Head:0.000000,0.000000,0.000000,0.000000 HipLeft:0.117247,-0.671973,0.711101,-0.170412 HipRight:-0.113042,0.687208,0.697589,-0.168330 KneeLeft:0.010194,0.713200,-0.047336,-0.699286 KneeRight:-0.013850,0.700604,0.024505,0.712995 Neck:0.025087,-0.001490,0.996078,-0.084837 ShoulderLeft:0.015635,0.770456,-0.633094,0.073105 ShoulderRight:0.048798,0.785671,0.615875,-0.032207 SpineBase:0.008877,0.003000,0.998962,-0.044571 SpineMid:0.017135,0.002632,0.998855,-0.044594 SpineShoulder:0.025319,0.000526,0.997637,-0.063868 ThumbLeft:0.000000,0.000000,0.000000,0.000000 ThumbRight:0.000000,0.000000,0.000000,0.000000 WristLeft:0.059061,-0.557790,-0.062356,0.825526 WristRight:0.272900,-0.198557,-0.361581,0.869114 END:
KINECT_DATA POSITION:35.160477,0.434146,-9.958447 HEAD_JOINT1:0.969253,0.199833,-0.000000,0.143581 LARM_JOINT2:0.822702,0.000000,0.008905,-0.568403 LARM_JOINT3:0.971917,0.000000,-0.153018,-0.178784 LLEG_JOINT2:0.999061,0.040797,0.000000,0.014579 LLEG_JOINT4:0.996233,0.076918,0.000000,-0.040050 RARM_JOINT2:0.793473,0.000000,-0.035111,0.607592 RARM_JOINT3:0.797641,0.000000,0.497759,0.340595 RLEG_JOINT2:0.999231,0.006657,0.000000,-0.038642 RLEG_JOINT4:0.993602,0.106468,0.000000,0.037676 WAIST:0.999890,0.000000,-0.009757,0.011172 WAIST_JOINT0:0.999548,0.000000,-0.026264,0.014660 WAIST_JOINT1:0.997576,0.068759,0.000000,-0.010702 END:
KINECT_DATA_Sensor  AnkleLeft:0.092588,0.706078,-0.073857,-0.698160 AnkleRight:0.088436,0.697409,0.071338,0.707609 ElbowLeft:-0.002354,0.911795,-0.194899,-0.361441 ElbowRight:0.018116,0.849333,0.160737,0.502463 FootLeft:0.000000,0.000000,0.000000,0.000000 FootRight:0.000000,0.000000,0.000000,0.000000 HandLeft:-0.015760,-0.568652,-0.076893,0.818825 HandRight:0.394677,-0.083606,-0.376795,0.833826 HandTipLeft:0.000000,0.000000,0.000000,0.000000 HandTipRight:0.000000,0.000000,0.000000,0.000000 Head:0.000000,0.000000,0.000000,0.000000 HipLeft:0.117304,-0.672029,0.711060,-0.170324 HipRight:-0.113136,0.687188,0.697618,-0.168232 KneeLeft:0.010287,0.713193,-0.047221,-0.699300 KneeRight:-0.014386,0.700596,0.024367,0.712997 Neck:0.024644,-0.001530,0.996103,-0.084667 ShoulderLeft:0.015688,0.770436,-0.633151,0.072823 ShoulderRight:0.048286,0.785832,0.615690,-0.032589 SpineBase:0.008869,0.003017,0.998968,-0.044440 SpineMid:0.016913,0.002659,0.998864,-0.044463 SpineShoulder:0.024877,0.000521,0.997655,-0.063767 ThumbLeft:0.000000,0.000000,0.000000,0.000000 ThumbRight:0.000000,0.000000,0.000000,0.000000 WristLeft:0.059199,-0.559576,-0.062056,0.824330 WristRight:0.256954,-0.143223,-0.382660,0.875804 END:
KINECT_DATA POSITION:35.199207,0.418445,-9.921158 HEAD_JOINT1:0.969669,0.199627,-0.000000,0.141035 LARM_JOINT2:0.822625,0.000000,0.008634,-0.568519 LARM_JOINT3:0.972217,0.000000,-0.152363,-0.177707 LLEG_JOINT2:0.999069,0.040652,0.000000,0.014463 LLEG_JOINT4:0.996311,0.076334,0.000000,-0.039204 RARM_JOINT2:0.794614,0.000000,-0.013077,0.606975 RARM_JOINT3:0.789725,0.000000,0.528762,0.311040 RLEG_JOINT2:0.999186,0.006911,0.000000,-0.039737 RLEG_JOINT4:0.993357,0.107922,0.000000,0.039937 WAIST:0.999904,0.000000,-0.007678,0.011534 WAIST_JOINT0:0.999576,0.000000,-0.024510,0.015694 WAIST_JOINT1:0.997604,0.068339,0.000000,-0.010773 END:
KINECT_DATA_Sensor  AnkleLeft:0.092246,0.712347,-0.072891,-0.691910 AnkleRight:0.090508,0.698069,0.071667,0.706662 ElbowLeft:-0.002376,0.911460,-0.194791,-0.362342 ElbowRight:-0.010511,0.809853,0.152670,0.566322 FootLeft:0.000000,0.000000,0.000000,0.000000 FootRight:0.000000,0.000000,0.000000,0.000000 HandLeft:-0.008958,-0.609373,-0.075588,0.789222 HandRight:0.354344,0.018474,-0.311252,0.881602 HandTipLeft:0.000000,0.000000,0.000000,0.000000 HandTipRight:0.000000,0.000000,0.000000,0.000000 Head:0.000000,0.000000,0.000000,0.000000 HipLeft:0.116639,-0.672104,0.711367,-0.169200 HipRight:-0.115167,0.687180,0.696995,-0.169464 KneeLeft:0.010094,0.711729,-0.047253,-0.700791 KneeRight:-0.014784,0.702064,0.025025,0.711521 Neck:0.022834,-0.001483,0.996191,-0.084145 ShoulderLeft:0.015595,0.770559,-0.633108,0.071901 ShoulderRight:0.045872,0.787130,0.614121,-0.034322 SpineBase:0.006791,0.003369,0.999005,-0.043952 SpineMid:0.014978,0.003009,0.998916,-0.043979 SpineShoulder:0.023074,0.000678,0.997724,-0.063355 ThumbLeft:0.000000,0.000000,0.000000,0.000000 ThumbRight:0.000000,0.000000,0.000000,0.000000 WristLeft:0.062613,-0.600554,-0.058486,0.794980 WristRight:0.187490,-0.070934,-0.494677,0.845642 END:
KINECT_DATA POSITION:35.221718,0.408995,-9.890914 HEAD_JOINT1:0.970074,0.199610,-0.000000,0.138247 LARM_JOINT2:0.822357,0.000000,0.008794,-0.568903 LARM_JOINT3:0.972669,0.000000,-0.150382,-0.176917 LLEG_JOINT2:0.999069,0.040661,0.000000,0.014385 LLEG_JOINT4:0.996357,0.075641,0.000000,-0.039376 RARM_JOINT2:0.796277,0.000000,-0.000711,0.604932 RARM_JOINT3:0.789079,0.000000,0.532043,0.307058 RLEG_JOINT2:0.999168,0.008040,0.000000,-0.039995 RLEG_JOINT4:0.993170,0.109738,0.000000,0.039625 WAIST:0.999917,0.000000,-0.005418,0.011664 WAIST_JOINT0:0.999620,0.000000,-0.022037,0.016532 WAIST_JOINT1:0.997648,0.067713,0.000000,-0.010692 END:
KINECT_DATA_Sensor  AnkleLeft:0.092809,0.718720,-0.071044,-0.685405 AnkleRight:0.092115,0.699316,0.074223,0.704956 ElbowLeft:-0.002890,0.909557,-0.194363,-0.367315 ElbowRight:-0.019833,0.815765,0.148824,0.558556 FootLeft:0.000000,0.000000,0.000000,0.000000 FootRight:0.000000,0.000000,0.000000,0.000000 HandLeft:-0.017787,-0.554425,-0.065907,0.829429 HandRight:0.353809,0.055639,-0.347989,0.866387 HandTipLeft:0.000000,0.000000,0.000000,0.000000 HandTipRight:0.000000,0.000000,0.000000,0.000000 Head:0.000000,0.000000,0.000000,0.000000 HipLeft:0.115998,-0.672262,0.711579,-0.168120 HipRight:-0.117375,0.686900,0.696552,-0.170897 KneeLeft:0.010153,0.710143,-0.047254,-0.702397 KneeRight:-0.014145,0.703675,0.025857,0.709911 Neck:0.020295,-0.001364,0.996326,-0.083194 ShoulderLeft:0.016458,0.770946,-0.632846,0.069842 ShoulderRight:0.043460,0.788528,0.612399,-0.036094 SpineBase:0.004546,0.003603,0.999036,-0.043507 SpineMid:0.012586,0.003253,0.998967,-0.043535 SpineShoulder:0.020524,0.000751,0.997815,-0.062802 ThumbLeft:0.000000,0.000000,0.000000,0.000000 ThumbRight:0.000000,0.000000,0.000000,0.000000 WristLeft:0.060185,-0.545765,-0.063219,0.833380 WristRight:0.175879,-0.040135,-0.497485,0.848507 END:
KINECT_DATA POSITION:35.237690,0.411569,-9.837294 HEAD_JOINT1:0.970904,0.199345,-0.000000,0.132692 LARM_JOINT2:0.821243,0.000000,0.008490,-0.570515 LARM_JOINT3:0.970956,0.000000,-0.154349,-0.182813 LLEG_JOINT2:0.999067,0.040509,0.000000,0.014947 LLEG_JOINT4:0.996374,0.075888,0.000000,-0.038461 RARM_JOINT2:0.798054,0.000000,0.043934,0.600982 RARM_JOINT3:0.776082,0.000000,0.556162,0.297289 RLEG_JOINT2:0.999177,0.007519,0.000000,-0.039872 RLEG_JOINT4:0.993363,0.107686,0.000000,0.040428 WAIST:0.999935,0.000000,-0.002769,0.011099 WAIST_JOINT0:0.999704,0.000000,-0.017976,0.016368 WAIST_JOINT1:0.997706,0.066986,0.000000,-0.009822 END:
KINECT_DATA_Sensor  AnkleLeft:0.091571,0.708872,-0.072578,-0.695592 AnkleRight:0.090358,0.701797,0.072336,0.702911 ElbowLeft:-0.003299,0.907604,-0.192491,-0.373084 ElbowRight:-0.050294,0.825719,0.130840,0.546388 FootLeft:0.000000,0.000000,0.000000,0.000000 FootRight:0.000000,0.000000,0.000000,0.000000 HandLeft:0.014718,0.706914,0.096974,-0.700465 HandRight:0.386161,0.087047,-0.389034,0.831838 HandTipLeft:0.000000,0.000000,0.000000,0.000000 HandTipRight:0.000000,0.000000,0.000000,0.000000 Head:0.000000,0.000000,0.000000,0.000000 HipLeft:0.115015,-0.672931,0.711500,-0.166442 HipRight:-0.119798,0.686150,0.696626,-0.171930 KneeLeft:0.010151,0.708326,-0.047096,-0.704240 KneeRight:-0.014919,0.705476,0.025741,0.708109 Neck:0.016286,-0.001071,0.996478,-0.082246 ShoulderLeft:0.018054,0.771731,-0.632190,0.066649 ShoulderRight:0.039842,0.789275,0.611493,-0.039163 SpineBase:0.001977,0.003826,0.999077,-0.042730 SpineMid:0.009297,0.003513,0.999036,-0.042757 SpineShoulder:0.016502,0.000966,0.997932,-0.062110 ThumbLeft:0.000000,0.000000,0.000000,0.000000 ThumbRight:0.000000,0.000000,0.000000,0.000000 WristLeft:0.072059,-0.689661,-0.052616,0.718615 WristRight:0.198328,-0.026052,-0.526226,0.826483 END:
KINECT_DATA POSITION:35.217667,0.432581,-9.823704 HEAD_JOINT1:0.971838,0.198058,-0.000000,0.127687 LARM_JOINT2:0.819817,0.000000,0.008783,-0.572559 LARM_JOINT3:0.971037,0.000000,-0.153034,-0.183488 LLEG_JOINT2:0.999076,0.040214,0.000000,0.015181 LLEG_JOINT4:0.996353,0.076923,0.000000,-0.036937 RARM_JOINT2:0.801713,0.000000,0.086770,0.591378 RARM_JOINT3:0.778309,0.000000,0.569729,0.263902 RLEG_JOINT2:0.999187,0.008736,0.000000,-0.039348 RLEG_JOINT4:0.993327,0.107714,0.000000,0.041212 WAIST:0.999943,0.000000,-0.001724,0.010511 WAIST_JOINT0:0.999764,0.000000,-0.014694,0.016013 WAIST_JOINT1:0.997802,0.065647,0.000000,-0.009060 END:
KINECT_DATA_Sensor  AnkleLeft:0.091245,0.707193,-0.073956,-0.697197 AnkleRight:0.091765,0.703405,0.072643,0.701087 ElbowLeft:-0.003604,0.906732,-0.189982,-0.376471 ElbowRight:-0.079314,0.847877,0.118949,0.510554 FootLeft:0.000000,0.000000,0.000000,0.000000 FootRight:0.000000,0.000000,0.000000,0.000000 HandLeft:0.018036,0.749973,0.097884,-0.653938 HandRight:0.395615,0.035178,-0.462160,0.792881 HandTipLeft:0.000000,0.000000,0.000000,0.000000 HandTipRight:0.000000,0.000000,0.000000,0.000000 Head:0.000000,0.000000,0.000000,0.000000 HipLeft:0.114731,-0.673468,0.711250,-0.165531 HipRight:-0.120752,0.685641,0.696924,-0.172081 KneeLeft:0.010234,0.707631,-0.046618,-0.704968 KneeRight:-0.014138,0.706203,0.026621,0.707367 Neck:0.013079,-0.000727,0.996653,-0.080695 ShoulderLeft:0.019454,0.771184,-0.633169,0.063193 ShoulderRight:0.037087,0.788520,0.612531,-0.040824 SpineBase:0.000987,0.003660,0.999102,-0.042188 SpineMid:0.007186,0.003398,0.999077,-0.042210 SpineShoulder:0.013282,0.001212,0.998059,-0.060829 ThumbLeft:0.000000,0.000000,0.000000,0.000000 ThumbRight:0.000000,0.000000,0.000000,0.000000 WristLeft:-0.076794,0.749541,0.048834,-0.655672 WristRight:0.251875,-0.055898,-0.501786,0.825618 END:
KINECT_DATA POSITION:35.172386,0.472584,-9.722603 HEAD_JOINT1:0.972332,0.199378,-0.000000,0.121730 LARM_JOINT2:0.818135,0.000000,0.010081,-0.574938 LARM_JOINT3:0.971708,0.000000,-0.151702,-0.181024 LLEG_JOINT2:0.999067,0.040094,0.000000,0.016061 LLEG_JOINT4:0.996173,0.078517,0.000000,-0.038400 RARM_JOINT2:0.802955,0.000000,0.109352,0.585923 RARM_JOINT3:0.799739,0.000000,0.549866,0.240967 RLEG_JOINT2:0.999225,0.010157,0.000000,-0.038018 RLEG_JOINT4:0.993313,0.107151,0.000000,0.042992 WAIST:0.999955,-0.000000,0.001479,0.009412 WAIST_JOINT0:0.999826,0.000000,-0.009083,0.016280 WAIST_JOINT1:0.997999,0.062819,0.000000,-0.007187 END:
KINECT_DATA_Sensor  AnkleLeft:0.094305,0.710734,-0.072664,-0.693313 AnkleRight:0.096003,0.729691,0.068746,0.673504 ElbowLeft:-0.004787,0.903692,-0.187371,-0.384980 ElbowRight:-0.100678,0.840068,0.107027,0.522202 FootLeft:0.000000,0.000000,0.000000,0.000000 FootRight:0.000000,0.000000,0.000000,0.000000 HandLeft:-0.045824,-0.522626,-0.077427,0.847801 HandRight:0.332095,0.106285,-0.416698,0.839511 HandTipLeft:0.000000,0.000000,0.000000,0.000000 HandTipRight:0.000000,0.000000,0.000000,0.000000 Head:0.000000,0.000000,0.000000,0.000000 HipLeft:0.113920,-0.674910,0.710726,-0.162440 HipRight:-0.123864,0.684785,0.697124,-0.172465 KneeLeft:-0.010432,-0.705451,0.046322,0.707167 KneeRight:-0.013079,0.708419,0.027393,0.705139 Neck:0.007574,0.000111,0.996982,-0.077257 ShoulderLeft:0.020745,0.770579,-0.634403,0.057543 ShoulderRight:0.031223,0.788365,0.612849,-0.043838 SpineBase:-0.002096,0.003395,0.999183,-0.040220 SpineMid:0.002862,0.003195,0.999181,-0.040236 SpineShoulder:0.007764,0.001945,0.998274,-0.058174 ThumbLeft:0.000000,0.000000,0.000000,0.000000 ThumbRight:0.000000,0.000000,0.000000,0.000000 WristLeft:0.059561,-0.509310,-0.074035,0.855321 WristRight:0.196757,0.012635,-0.540759,0.817745 END:
KINECT_DATA POSITION:35.146393,0.477511,-9.707272 HEAD_JOINT1:0.972387,0.201293,-0.000000,0.118084 LARM_JOINT2:0.815737,0.000000,0.010207,-0.578333 LARM_JOINT3:0.972071,0.000000,-0.150282,-0.180258 LLEG_JOINT2:0.999076,0.039970,0.000000,0.015784 LLEG_JOINT4:0.996234,0.078003,0.000000,-0.037848 RARM_JOINT2:0.802553,0.000000,0.106570,0.586985 RARM_JOINT3:0.791417,0.000000,0.576136,0.204271 RLEG_JOINT2:0.999212,0.010208,0.000000,-0.038365 RLEG_JOINT4:0.993153,0.108610,0.000000,0.043032 WAIST:0.999953,-0.000000,0.002236,0.009396 WAIST_JOINT0:0.999826,0.000000,-0.005520,0.017844 WAIST_JOINT1:0.998111,0.061100,0.000000,-0.006489 END:
KINECT_DATA_Sensor  AnkleLeft:-0.092832,-0.701833,0.073470,0.702435 AnkleRight:0.094542,0.708067,0.073137,0.695956 ElbowLeft:-0.005673,0.901884,-0.183599,-0.390978 ElbowRight:-0.101533,0.830127,0.104202,0.538258 FootLeft:0.000000,0.000000,0.000000,0.000000 FootRight:0.000000,0.000000,0.000000,0.000000 HandLeft:0.031205,0.733471,0.095931,-0.672193 HandRight:0.348262,0.013536,-0.458955,0.817246 HandTipLeft:0.000000,0.000000,0.000000,0.000000 HandTipRight:0.000000,0.000000,0.000000,0.000000 Head:0.000000,0.000000,0.000000,0.000000 HipLeft:0.114034,-0.675197,0.710691,-0.161319 HipRight:-0.125104,0.684921,0.696899,-0.171942 KneeLeft:-0.010581,-0.704924,0.046014,0.707709 KneeRight:-0.013327,0.708918,0.027670,0.704622 Neck:0.003946,0.000985,0.997111,-0.075843 ShoulderLeft:0.020631,0.769955,-0.635432,0.054490 ShoulderRight:0.026415,0.789772,0.611080,-0.046293 SpineBase:-0.002814,0.003857,0.999226,-0.039039 SpineMid:0.000695,0.003720,0.999230,-0.039053 SpineShoulder:0.004140,0.002764,0.998399,-0.056350 ThumbLeft:0.000000,0.000000,0.000000,0.000000 ThumbRight:0.000000,0.000000,0.000000,0.000000 WristLeft:-0.079356,0.731927,0.053422,-0.674635 WristRight:0.233442,-0.066736,-0.533529,0.810184 END:
KINECT_DATA POSITION:35.120434,0.474170,-9.663355 HEAD_JOINT1:0.972553,0.202806,-0.000000,0.114060 LARM_JOINT2:0.813621,0.000000,0.010568,-0.581299 LARM_JOINT3:0.972378,0.000000,-0.151030,-0.177963 LLEG_JOINT2:0.999105,0.039688,0.000000,0.014659 LLEG_JOINT4:0.996249,0.079445,0.000000,-0.034294 RARM_JOINT2:0.796646,0.000000,0.082458,0.598795 RARM_JOINT3:0.793767,0.000000,0.590139,0.147208 RLEG_JOINT2:0.999173,0.010147,0.000000,-0.039386 RLEG_JOINT4:0.992906,0.109245,0.000000,0.046943 WAIST:0.999954,-0.000000,0.003027,0.009110 WAIST_JOINT0:0.999806,0.000000,-0.002887,0.019471 WAIST_JOINT1:0.998262,0.058763,0.000000,-0.004452 END:
KINECT_DATA_Sensor  AnkleLeft:0.093247,0.710964,-0.074464,-0.693029 AnkleRight:0.096792,0.709091,0.071647,0.694758 ElbowLeft:-0.006043,0.903025,-0.181134,-0.389487 ElbowRight:-0.087354,0.790470,0.098457,0.598192 FootLeft:0.000000,0.000000,0.000000,0.000000 FootRight:0.000000,0.000000,0.000000,0.000000 HandLeft:-0.044810,-0.528434,-0.095666,0.842376 HandRight:0.252114,-0.052931,-0.400150,0.879498 HandTipLeft:0.000000,0.000000,0.000000,0.000000 HandTipRight:0.000000,0.000000,0.000000,0.000000 Head:0.000000,0.000000,0.000000,0.000000 HipLeft:0.114126,-0.675687,0.710491,-0.160076 HipRight:-0.126715,0.684976,0.696787,-0.170994 KneeLeft:-0.011405,-0.704378,0.044803,0.708318 KneeRight:-0.014326,0.709389,0.028534,0.704094 Neck:0.001283,0.003033,0.997290,-0.073503 ShoulderLeft:0.018767,0.769450,-0.636275,0.052433 ShoulderRight:0.021005,0.791581,0.608792,-0.048272 SpineBase:-0.003522,0.004846,0.999278,-0.037517 SpineMid:-0.000996,0.004751,0.999284,-0.037529 SpineShoulder:0.001482,0.004537,0.998528,-0.054022 ThumbLeft:0.000000,0.000000,0.000000,0.000000 ThumbRight:0.000000,0.000000,0.000000,0.000000 WristLeft:0.060323,-0.513241,-0.072583,0.853040 WristRight:0.221673,-0.103652,-0.589297,0.769965 END:
KINECT_DATA POSITION:35.052402,0.462192,-9.666944 HEAD_JOINT1:0.972694,0.201456,-0.000000,0.115246 LARM_JOINT2:0.813598,0.000000,0.010709,-0.581329 LARM_JOINT3:0.971489,0.000000,-0.152569,-0.181470 LLEG_JOINT2:0.999109,0.039606,0.000000,0.014555 LLEG_JOINT4:0.996271,0.079767,0.000000,-0.032896 RARM_JOINT2:0.781088,0.000000,0.059215,0.621607 RARM_JOINT3:0.791565,0.000000,0.600962,0.110766 RLEG_JOINT2:0.999187,0.010240,0.000000,-0.038982 RLEG_JOINT4:0.993010,0.108578,0.000000,0.046287 WAIST:0.999956,-0.000000,0.003039,0.008826 WAIST_JOINT0:0.999764,0.000000,-0.002793,0.021527 WAIST_JOINT1:0.998334,0.057586,0.000000,-0.003610 END:
KINECT_DATA_Sensor  AnkleLeft:-0.091602,-0.700701,0.076722,0.703378 AnkleRight:0.097695,0.725624,0.069309,0.677586 ElbowLeft:-0.006429,0.904607,-0.181225,-0.385749 ElbowRight:-0.054447,0.805705,0.091016,0.582744 FootLeft:0.000000,0.000000,0.000000,0.000000 FootRight:0.000000,0.000000,0.000000,0.000000 HandLeft:-0.029610,-0.646769,-0.110157,0.754108 HandRight:0.138237,-0.148573,-0.587858,0.783096 HandTipLeft:0.000000,0.000000,0.000000,0.000000 HandTipRight:0.000000,0.000000,0.000000,0.000000 Head:0.000000,0.000000,0.000000,0.000000 HipLeft:0.114560,-0.676145,0.710222,-0.159025 HipRight:-0.127741,0.685261,0.696761,-0.169186 KneeLeft:-0.011620,-0.704384,0.044471,0.708329 KneeRight:-0.014177,0.709335,0.028513,0.704152 Neck:0.001095,0.003529,0.997349,-0.072679 ShoulderLeft:0.016668,0.769482,-0.636294,0.052429 ShoulderRight:0.018656,0.793892,0.605848,-0.048321 SpineBase:-0.003450,0.006016,0.999334,-0.035813 SpineMid:-0.001018,0.005928,0.999340,-0.035828 SpineShoulder:0.001314,0.005143,0.998594,-0.052737 ThumbLeft:0.000000,0.000000,0.000000,0.000000 ThumbRight:0.000000,0.000000,0.000000,0.000000 WristLeft:0.069144,-0.630718,-0.065396,0.770154 WristRight:0.206180,-0.086584,-0.540995,0.810751 END:
KINECT_DATA POSITION:34.924366,0.455593,-9.678459 HEAD_JOINT1:0.972582,0.201114,-0.000000,0.116782 LARM_JOINT2:0.814460,0.000000,0.011295,-0.580110 LARM_JOINT3:0.971320,0.000000,-0.151989,-0.182856 LLEG_JOINT2:0.999126,0.038964,0.000000,0.015127 LLEG_JOINT4:0.996176,0.081528,0.000000,-0.031420 RARM_JOINT2:0.820949,0.000000,0.135525,0.554685 RARM_JOINT3:0.818005,0.000000,0.558949,0.135813 RLEG_JOINT2:0.999216,0.010049,0.000000,-0.038300 RLEG_JOINT4:0.992722,0.109392,0.000000,0.050357 WAIST:0.999963,-0.000000,0.002273,0.008297 WAIST_JOINT0:0.999749,0.000000,-0.002860,0.022225 WAIST_JOINT1:0.998347,0.057365,0.000000,-0.003532 END:
KINECT_DATA_Sensor  AnkleLeft:-0.091246,-0.700876,0.078705,0.703031 AnkleRight:0.099477,0.708529,0.068978,0.695222 ElbowLeft:-0.006844,0.904508,-0.182255,-0.385490 ElbowRight:-0.140324,0.842583,0.116441,0.506759 FootLeft:0.000000,0.000000,0.000000,0.000000 FootRight:0.000000,0.000000,0.000000,0.000000 HandLeft:0.021105,0.743457,0.103577,-0.660377 HandRight:0.185815,-0.108589,-0.512824,0.831079 HandTipLeft:0.000000,0.000000,0.000000,0.000000 HandTipRight:0.000000,0.000000,0.000000,0.000000 Head:0.000000,0.000000,0.000000,0.000000 HipLeft:0.115098,-0.676630,0.709770,-0.158592 HipRight:-0.127478,0.685277,0.697140,-0.167752 KneeLeft:-0.011107,-0.704970,0.044063,0.707780 KneeRight:-0.014178,0.708765,0.028286,0.704735 Neck:0.001151,0.003169,0.997355,-0.072609 ShoulderLeft:0.015813,0.769528,-0.636233,0.052773 ShoulderRight:0.017883,0.794545,0.605003,-0.048476 SpineBase:-0.002638,0.006019,0.999367,-0.034949 SpineMid:-0.000572,0.005947,0.999371,-0.034962 SpineShoulder:0.001364,0.004779,0.998610,-0.052464 ThumbLeft:0.000000,0.000000,0.000000,0.000000 ThumbRight:0.000000,0.000000,0.000000,0.000000 WristLeft:-0.079242,0.742257,0.057029,-0.662965 WristRight:0.248665,-0.069121,-0.519082,0.814826 END:
KINECT_DATA POSITION:34.726856,0.473286,-9.737563 HEAD_JOINT1:0.972431,0.201157,-0.000000,0.117955 LARM_JOINT2:0.815610,0.000000,0.011731,-0.578483 LARM_JOINT3:0.971140,0.000000,-0.153000,-0.182970 LLEG_JOINT2:0.999117,0.038607,0.000000,0.016545 LLEG_JOINT4:0.995930,0.083456,0.000000,-0.034037 RARM_JOINT2:0.803970,0.000000,0.130773,0.580113 RARM_JOINT3:0.823431,0.000000,0.558657,0.099319 RLEG_JOINT2:0.999308,0.009075,0.000000,-0.036073 RLEG_JOINT4:0.992849,0.109429,0.000000,0.047713 WAIST:0.999966,-0.000000,0.001425,0.008113 WAIST_JOINT0:0.999742,0.000000,-0.003238,0.022470 WAIST_JOINT1:0.998360,0.057171,0.000000,-0.002946 END:
KINECT_DATA_Sensor  AnkleLeft:0.094486,0.712012,-0.077435,-0.691459 AnkleRight:0.100195,0.725961,0.066124,0.677177 ElbowLeft:-0.007498,0.905056,-0.184488,-0.383121 ElbowRight:-0.122283,0.825433,0.090627,0.543593 FootLeft:0.000000,0.000000,0.000000,0.000000 FootRight:0.000000,0.000000,0.000000,0.000000 HandLeft:-0.043739,-0.516471,-0.089247,0.850517 HandRight:0.180753,-0.120018,-0.521088,0.825464 HandTipLeft:0.000000,0.000000,0.000000,0.000000 HandTipRight:0.000000,0.000000,0.000000,0.000000 Head:0.000000,0.000000,0.000000,0.000000 HipLeft:0.115552,-0.676816,0.709529,-0.158544 HipRight:-0.127402,0.685515,0.697232,-0.166449 KneeLeft:-0.009952,-0.705596,0.044701,0.707133 KneeRight:-0.013392,0.708141,0.026168,0.705459 Neck:0.001523,0.003690,0.997357,-0.072546 ShoulderLeft:0.014522,0.769368,-0.636387,0.053614 ShoulderRight:0.017026,0.794829,0.604638,-0.048690 SpineBase:-0.001750,0.006666,0.999389,-0.034255 SpineMid:0.000075,0.006603,0.999391,-0.034267 SpineShoulder:0.001743,0.005247,0.998620,-0.052232 ThumbLeft:0.000000,0.000000,0.000000,0.000000 ThumbRight:0.000000,0.000000,0.000000,0.000000 WristLeft:0.058377,-0.502655,-0.079427,0.858849 WristRight:0.229245,-0.089716,-0.530550,0.811119 END:
KINECT_DATA POSITION:34.630932,0.486498,-9.790301 HEAD_JOINT1:0.972036,0.202142,-0.000000,0.119517 LARM_JOINT2:0.815347,0.000000,0.010822,-0.578871 LARM_JOINT3:0.971427,0.000000,-0.152369,-0.181971 LLEG_JOINT2:0.999123,0.038223,0.000000,0.017092 LLEG_JOINT4:0.996120,0.082173,0.000000,-0.031500 RARM_JOINT2:0.806220,0.000000,0.158551,0.569975 RARM_JOINT3:0.836814,0.000000,0.537700,0.103064 RLEG_JOINT2:0.999308,0.008802,0.000000,-0.036153 RLEG_JOINT4:0.992695,0.110786,0.000000,0.047778 WAIST:0.999964,-0.000000,0.001726,0.008317 WAIST_JOINT0:0.999730,0.000000,-0.004176,0.022837 WAIST_JOINT1:0.998349,0.057390,0.000000,-0.002410 END:
KINECT_DATA_Sensor  AnkleLeft:-0.089883,-0.701863,0.079949,0.702081 AnkleRight:0.099297,0.707891,0.069404,0.695854 ElbowLeft:-0.008205,0.904593,-0.184527,-0.384180 ElbowRight:-0.139527,0.850160,0.087459,0.500111 FootLeft:0.000000,0.000000,0.000000,0.000000 FootRight:0.000000,0.000000,0.000000,0.000000 HandLeft:-0.042474,-0.537364,-0.089417,0.837520 HandRight:0.152046,-0.134126,-0.575935,0.791954 HandTipLeft:0.000000,0.000000,0.000000,0.000000 HandTipRight:0.000000,0.000000,0.000000,0.000000 Head:0.000000,0.000000,0.000000,0.000000 HipLeft:0.115188,-0.676738,0.709684,-0.158448 HipRight:-0.127815,0.685679,0.696982,-0.166504 KneeLeft:-0.009163,-0.705384,0.044956,0.707339 KneeRight:-0.013508,0.708335,0.025882,0.705273 Neck:0.002472,0.004365,0.997330,-0.072855 ShoulderLeft:0.013655,0.768902,-0.636865,0.054832 ShoulderRight:0.017351,0.794748,0.604757,-0.048403 SpineBase:-0.002042,0.007326,0.999386,-0.034215 SpineMid:0.000412,0.007242,0.999388,-0.034233 SpineShoulder:0.002705,0.005885,0.998603,-0.052435 ThumbLeft:0.000000,0.000000,0.000000,0.000000 ThumbRight:0.000000,0.000000,0.000000,0.000000 WristLeft:0.061484,-0.522898,-0.077138,0.846668 WristRight:0.231797,-0.055695,-0.503197,0.830639 END:
KINECT_DATA POSITION:34.539852,0.488105,-9.822130 HEAD_JOINT1:0.971852,0.202221,-0.000000,0.120871 LARM_JOINT2:0.815208,0.000000,0.009514,-0.579090 LARM_JOINT3:0.972055,0.000000,-0.152166,-0.178758 LLEG_JOINT2:0.999128,0.038060,0.000000,0.017185 LLEG_JOINT4:0.996197,0.080615,0.000000,-0.033054 RARM_JOINT2:0.815478,0.000000,0.143416,0.560738 RARM_JOINT3:0.821552,0.000000,0.555634,0.127767 RLEG_JOINT2:0.999321,0.009366,0.000000,-0.035647 RLEG_JOINT4:0.992993,0.108813,0.000000,0.046089 WAIST:0.999958,-0.000000,0.002593,0.008763 WAIST_JOINT0:0.999715,0.000000,-0.004236,0.023512 WAIST_JOINT1:0.998332,0.057689,0.000000,-0.002297 END:
KINECT_DATA_Sensor  AnkleLeft:-0.089488,-0.701837,0.077876,0.702391 AnkleRight:0.097640,0.708132,0.069118,0.695872 ElbowLeft:-0.008956,0.904126,-0.184504,-0.385271 ElbowRight:-0.140284,0.837713,0.102616,0.517714 FootLeft:0.000000,0.000000,0.000000,0.000000 FootRight:0.000000,0.000000,0.000000,0.000000 HandLeft:-0.037719,-0.500043,-0.083818,0.861109 HandRight:0.208572,-0.081497,-0.509760,0.830663 HandTipLeft:0.000000,0.000000,0.000000,0.000000 HandTipRight:0.000000,0.000000,0.000000,0.000000 Head:0.000000,0.000000,0.000000,0.000000 HipLeft:0.114382,-0.676566,0.710085,-0.157967 HipRight:-0.128237,0.685892,0.696585,-0.166960 KneeLeft:-0.008700,-0.704755,0.045209,0.707956 KneeRight:-0.012463,0.708976,0.025593,0.704658 Neck:0.002485,0.004841,0.997302,-0.073209 ShoulderLeft:0.013426,0.768558,-0.637236,0.055393 ShoulderRight:0.017129,0.795206,0.604125,-0.048858 SpineBase:-0.002924,0.007758,0.999376,-0.034343 SpineMid:-0.000019,0.007658,0.999380,-0.034365 SpineShoulder:0.002726,0.006332,0.998585,-0.052722 ThumbLeft:0.000000,0.000000,0.000000,0.000000 ThumbRight:0.000000,0.000000,0.000000,0.000000 WristLeft:0.059515,-0.487541,-0.078889,0.867490 WristRight:0.236051,-0.067805,-0.525773,0.814398 END:
KINECT_DATA POSITION:34.492897,0.496316,-9.825397 HEAD_JOINT1:0.972142,0.201367,-0.000000,0.119963 LARM_JOINT2:0.814990,0.000000,0.008943,-0.579406 LARM_JOINT3:0.972335,0.000000,-0.151188,-0.178063 LLEG_JOINT2:0.999135,0.037748,0.000000,0.017441 LLEG_JOINT4:0.996217,0.080701,0.000000,-0.032218 RARM_JOINT2:0.820975,0.000000,0.162923,0.547226 RARM_JOINT3:0.827656,0.000000,0.544851,0.134620 RLEG_JOINT2:0.999330,0.008794,0.000000,-0.035532 RLEG_JOINT4:0.992988,0.108888,0.000000,0.046018 WAIST:0.999956,-0.000000,0.003142,0.008878 WAIST_JOINT0:0.999710,0.000000,-0.003970,0.023744 WAIST_JOINT1:0.998315,0.057992,0.000000,-0.002136 END:
KINECT_DATA_Sensor  AnkleLeft:0.089236,0.707864,-0.077716,-0.696366 AnkleRight:0.100680,0.742542,0.063744,0.659114 ElbowLeft:-0.009154,0.903576,-0.184338,-0.386635 ElbowRight:-0.158096,0.847263,0.104787,0.496156 FootLeft:0.000000,0.000000,0.000000,0.000000 FootRight:0.000000,0.000000,0.000000,0.000000 HandLeft:-0.041794,-0.477270,-0.079453,0.874159 HandRight:0.219417,-0.078343,-0.502276,0.832729 HandTipLeft:0.000000,0.000000,0.000000,0.000000 HandTipRight:0.000000,0.000000,0.000000,0.000000 Head:0.000000,0.000000,0.000000,0.000000 HipLeft:0.113849,-0.676537,0.710234,-0.157807 HipRight:-0.128483,0.685884,0.696449,-0.167373 KneeLeft:-0.008239,-0.704368,0.045245,0.708343 KneeRight:-0.012722,0.709349,0.025014,0.704298 Neck:0.002179,0.005075,0.997277,-0.073541 ShoulderLeft:0.014257,0.768181,-0.637702,0.055055 ShoulderRight:0.017585,0.795129,0.604202,-0.048989 SpineBase:-0.003474,0.007969,0.999365,-0.034550 SpineMid:-0.000444,0.007864,0.999371,-0.034574 SpineShoulder:0.002424,0.006556,0.998569,-0.053018 ThumbLeft:0.000000,0.000000,0.000000,0.000000 ThumbRight:0.000000,0.000000,0.000000,0.000000 WristLeft:0.058151,-0.465029,-0.080008,0.879753 WristRight:0.246786,-0.064625,-0.515890,0.817788 END:
KINECT_DATA POSITION:34.468906,0.495923,-9.820950 HEAD_JOINT1:0.972236,0.201397,-0.000000,0.119152 LARM_JOINT2:0.814376,0.000000,0.008308,-0.580278 LARM_JOINT3:0.972785,0.000000,-0.149122,-0.177345 LLEG_JOINT2:0.999128,0.037913,0.000000,0.017499 LLEG_JOINT4:0.996197,0.081770,0.000000,-0.030078 RARM_JOINT2:0.826253,0.000000,0.162081,0.539478 RARM_JOINT3:0.820675,0.000000,0.555180,0.135157 RLEG_JOINT2:0.999362,0.007895,0.000000,-0.034819 RLEG_JOINT4:0.992763,0.110875,0.000000,0.046128 WAIST:0.999956,-0.000000,0.003748,0.008636 WAIST_JOINT0:0.999723,0.000000,-0.002187,0.023417 WAIST_JOINT1:0.998317,0.057962,0.000000,-0.001878 END:
KINECT_DATA_Sensor  AnkleLeft:0.089871,0.716637,-0.078728,-0.687136 AnkleRight:0.098526,0.709138,0.069086,0.694725 ElbowLeft:-0.009489,0.902799,-0.183165,-0.388990 ElbowRight:-0.164413,0.842066,0.110891,0.501593 FootLeft:0.000000,0.000000,0.000000,0.000000 FootRight:0.000000,0.000000,0.000000,0.000000 HandLeft:0.022657,0.713633,0.086569,-0.694780 HandRight:0.149564,-0.122012,-0.417408,0.887983 HandTipLeft:0.000000,0.000000,0.000000,0.000000 HandTipRight:0.000000,0.000000,0.000000,0.000000 Head:0.000000,0.000000,0.000000,0.000000 HipLeft:0.113414,-0.676796,0.710146,-0.157407 HipRight:-0.128824,0.685674,0.696537,-0.167605 KneeLeft:-0.008510,-0.703946,0.045222,0.708761 KneeRight:-0.013040,0.709748,0.024031,0.703925 Neck:0.000361,0.005151,0.997281,-0.073510 ShoulderLeft:0.014925,0.767829,-0.638196,0.054059 ShoulderRight:0.015897,0.794758,0.604586,-0.050822 SpineBase:-0.004062,0.007961,0.999364,-0.034517 SpineMid:-0.001645,0.007877,0.999371,-0.034536 SpineShoulder:0.000601,0.006603,0.998574,-0.052978 ThumbLeft:0.000000,0.000000,0.000000,0.000000 ThumbRight:0.000000,0.000000,0.000000,0.000000 WristLeft:0.079131,-0.696404,-0.059254,0.710808 WristRight:0.304184,-0.082071,-0.544061,0.777646 END:
KINECT_DATA POSITION:34.457214,0.498858,-9.840239 HEAD_JOINT1:0.972316,0.201927,-0.000000,0.117590 LARM_JOINT2:0.814027,0.000000,0.008556,-0.580764 LARM_JOINT3:0.972810,0.000000,-0.150015,-0.176454 LLEG_JOINT2:0.999136,0.037793,0.000000,0.017302 LLEG_JOINT4:0.996221,0.080995,0.000000,-0.031354 RARM_JOINT2:0.779526,0.000000,0.087463,0.620234 RARM_JOINT3:0.789378,0.000000,0.609644,0.072224 RLEG_JOINT2:0.999343,0.008861,0.000000,-0.035145 RLEG_JOINT4:0.992664,0.110466,0.000000,0.049143 WAIST:0.999956,-0.000000,0.003127,0.008796 WAIST_JOINT0:0.999714,0.000000,-0.001496,0.023861 WAIST_JOINT1:0.998323,0.057868,0.000000,-0.001858 END:
KINECT_DATA_Sensor  AnkleLeft:-0.088209,-0.700557,0.079342,0.703664 AnkleRight:0.101004,0.708986,0.067325,0.694697 ElbowLeft:-0.009645,0.902401,-0.182811,-0.390077 ElbowRight:-0.071494,0.790781,0.072898,0.603523 FootLeft:0.000000,0.000000,0.000000,0.000000 FootRight:0.000000,0.000000,0.000000,0.000000 HandLeft:-0.039974,-0.530108,-0.080239,0.843178 HandRight:0.164286,-0.090451,-0.559040,0.807653 HandTipLeft:0.000000,0.000000,0.000000,0.000000 HandTipRight:0.000000,0.000000,0.000000,0.000000 Head:0.000000,0.000000,0.000000,0.000000 HipLeft:0.113688,-0.676682,0.710167,-0.157606 HipRight:-0.128364,0.685948,0.696481,-0.167070 KneeLeft:-0.008427,-0.704380,0.045119,0.708338 KneeRight:-0.012458,0.709336,0.024847,0.704322 Neck:-0.000385,0.005484,0.997286,-0.073420 ShoulderLeft:0.015186,0.767326,-0.638834,0.053582 ShoulderRight:0.015193,0.794931,0.604323,-0.051454 SpineBase:-0.003448,0.008078,0.999368,-0.034439 SpineMid:-0.001708,0.008018,0.999373,-0.034453 SpineShoulder:-0.000144,0.006885,0.998577,-0.052875 ThumbLeft:0.000000,0.000000,0.000000,0.000000 ThumbRight:0.000000,0.000000,0.000000,0.000000 WristLeft:0.063875,-0.516458,-0.075895,0.850548 WristRight:0.188421,-0.076945,-0.581140,0.787943 END:
KINECT_DATA POSITION:34.430157,0.510705,-9.900940 HEAD_JOINT1:0.972664,0.202382,-0.000000,0.113870 LARM_JOINT2:0.813897,0.000000,0.010077,-0.580922 LARM_JOINT3:0.973394,0.000000,-0.148224,-0.174738 LLEG_JOINT2:0.999133,0.037724,0.000000,0.017629 LLEG_JOINT4:0.996214,0.081188,0.000000,-0.031081 RARM_JOINT2:0.813069,0.000000,0.284614,0.507853 RARM_JOINT3:0.880574,0.000000,0.468764,0.069638 RLEG_JOINT2:0.999377,0.007694,0.000000,-0.034443 RLEG_JOINT4:0.992581,0.111317,0.000000,0.048893 WAIST:0.999962,-0.000000,0.001292,0.008656 WAIST_JOINT0:0.999701,-0.000000,0.000952,0.024421 WAIST_JOINT1:0.998356,0.057283,0.000000,-0.001757 END:
KINECT_DATA_Sensor  AnkleLeft:-0.087558,-0.699362,0.080237,0.704832 AnkleRight:0.101371,0.710201,0.066362,0.693494 ElbowLeft:-0.009934,0.901605,-0.182802,-0.391910 ElbowRight:-0.241332,0.858885,0.053891,0.448521 FootLeft:0.000000,0.000000,0.000000,0.000000 FootRight:0.000000,0.000000,0.000000,0.000000 HandLeft:-0.045413,-0.485838,-0.064078,0.870513 HandRight:0.189919,-0.054165,-0.525606,0.827487 HandTipLeft:0.000000,0.000000,0.000000,0.000000 HandTipRight:0.000000,0.000000,0.000000,0.000000 Head:0.000000,0.000000,0.000000,0.000000 HipLeft:0.114763,-0.676689,0.709864,-0.158163 HipRight:-0.127368,0.686289,0.696728,-0.165392 KneeLeft:0.008175,0.705687,-0.045231,-0.707031 KneeRight:-0.012828,0.708010,0.023656,0.705690 Neck:-0.002835,0.005795,0.997328,-0.072762 ShoulderLeft:0.014970,0.766838,-0.639517,0.052460 ShoulderRight:0.011770,0.795117,0.603928,-0.054050 SpineBase:-0.001596,0.008282,0.999388,-0.033950 SpineMid:-0.001989,0.008295,0.999387,-0.033947 SpineShoulder:-0.002592,0.007203,0.998603,-0.052281 ThumbLeft:0.000000,0.000000,0.000000,0.000000 ThumbRight:0.000000,0.000000,0.000000,0.000000 WristLeft:0.060606,-0.474260,-0.080035,0.874642 WristRight:0.219004,-0.032856,-0.515258,0.827929 END:
KINECT_DATA POSITION:34.417767,0.522110,-9.930253 HEAD_JOINT1:0.972861,0.202563,-0.000000,0.111848 LARM_JOINT2:0.813479,0.000000,0.010152,-0.581506 LARM_JOINT3:0.973912,0.000000,-0.146214,-0.173543 LLEG_JOINT2:0.999130,0.037713,0.000000,0.017817 LLEG_JOINT4:0.996107,0.081674,0.000000,-0.033157 RARM_JOINT2:0.778401,0.000000,0.108462,0.618326 RARM_JOINT3:0.796944,0.000000,0.602069,0.048929 RLEG_JOINT2:0.999379,0.007512,0.000000,-0.034418 RLEG_JOINT4:0.992727,0.109925,0.000000,0.049079 WAIST:0.999960,-0.000000,0.001649,0.008750 WAIST_JOINT0:0.999677,-0.000000,0.003629,0.025166 WAIST_JOINT1:0.998366,0.057119,0.000000,-0.001799 END:
KINECT_DATA_Sensor  AnkleLeft:-0.089028,-0.697597,0.079435,0.706486 AnkleRight:0.102901,0.737209,0.061104,0.664982 ElbowLeft:-0.009605,0.901745,-0.182172,-0.391890 ElbowRight:-0.083880,0.790352,0.061196,0.603791 FootLeft:0.000000,0.000000,0.000000,0.000000 FootRight:0.000000,0.000000,0.000000,0.000000 HandLeft:-0.042183,-0.525573,-0.063187,0.847349 HandRight:0.163478,-0.107403,-0.572610,0.796151 HandTipLeft:0.000000,0.000000,0.000000,0.000000 HandTipRight:0.000000,0.000000,0.000000,0.000000 Head:0.000000,0.000000,0.000000,0.000000 HipLeft:0.114558,-0.676701,0.709943,-0.157904 HipRight:-0.127623,0.686326,0.696599,-0.165585 KneeLeft:-0.007982,-0.705432,0.045416,0.707276 KneeRight:-0.012884,0.708262,0.023437,0.705443 Neck:-0.005563,0.006000,0.997332,-0.072536 ShoulderLeft:0.017118,0.766268,-0.640350,0.049921 ShoulderRight:0.010427,0.795340,0.603507,-0.055718 SpineBase:-0.001958,0.008315,0.999389,-0.033898 SpineMid:-0.003530,0.008368,0.999385,-0.033885 SpineShoulder:-0.005327,0.007358,0.998600,-0.052114 ThumbLeft:0.000000,0.000000,0.000000,0.000000 ThumbRight:0.000000,0.000000,0.000000,0.000000 WristLeft:0.064021,-0.513455,-0.075594,0.852379 WristRight:0.194274,-0.086195,-0.582919,0.784241 END:
KINECT_DATA POSITION:34.410465,0.537803,-9.982098 HEAD_JOINT1:0.972895,0.203730,-0.000000,0.109403 LARM_JOINT2:0.812963,0.000000,0.010816,-0.582215 LARM_JOINT3:0.974042,0.000000,-0.145545,-0.173376 LLEG_JOINT2:0.999130,0.037285,0.000000,0.018684 LLEG_JOINT4:0.995994,0.082801,0.000000,-0.033755 RARM_JOINT2:0.818750,0.000000,0.271893,0.505691 RARM_JOINT3:0.874333,0.000000,0.478754,0.079604 RLEG_JOINT2:0.999413,0.006370,0.000000,-0.033663 RLEG_JOINT4:0.992580,0.111905,0.000000,0.047571 WAIST:0.999967,-0.000000,0.001022,0.008081 WAIST_JOINT0:0.999668,-0.000000,0.006063,0.025052 WAIST_JOINT1:0.998381,0.056868,0.000000,-0.000902 END:
KINECT_DATA_Sensor  AnkleLeft:-0.089557,-0.696180,0.079931,0.707759 AnkleRight:0.101550,0.725400,0.064385,0.677744 ElbowLeft:-0.009383,0.901625,-0.181688,-0.392394 ElbowRight:-0.237920,0.858350,0.066041,0.449743 FootLeft:0.000000,0.000000,0.000000,0.000000 FootRight:0.000000,0.000000,0.000000,0.000000 HandLeft:-0.031317,-0.676226,-0.074479,0.732250 HandRight:0.193052,-0.067324,-0.515613,0.832071 HandTipLeft:0.000000,0.000000,0.000000,0.000000 HandTipRight:0.000000,0.000000,0.000000,0.000000 Head:0.000000,0.000000,0.000000,0.000000 HipLeft:0.114902,-0.677028,0.709500,-0.158239 HipRight:-0.127503,0.685992,0.697118,-0.164878 KneeLeft:0.007515,0.705917,-0.045264,-0.706807 KneeRight:-0.013613,0.707750,0.022579,0.705971 Neck:-0.008068,0.006482,0.997332,-0.072263 ShoulderLeft:0.017970,0.765641,-0.641196,0.048361 ShoulderRight:0.008009,0.795026,0.603741,-0.058028 SpineBase:-0.001275,0.008580,0.999395,-0.033686 SpineMid:-0.004429,0.008687,0.999386,-0.033659 SpineShoulder:-0.007830,0.007792,0.998594,-0.051842 ThumbLeft:0.000000,0.000000,0.000000,0.000000 ThumbRight:0.000000,0.000000,0.000000,0.000000 WristLeft:0.076627,-0.660347,-0.060691,0.744572 WristRight:0.229590,-0.043584,-0.514003,0.825343 END:
KINECT_DATA POSITION:34.390091,0.555119,-10.041153 HEAD_JOINT1:0.972944,0.204187,-0.000000,0.108109 LARM_JOINT2:0.812779,0.000000,0.010713,-0.582474 LARM_JOINT3:0.973290,0.000000,-0.149424,-0.174297 LLEG_JOINT2:0.999157,0.036464,0.000000,0.018870 LLEG_JOINT4:0.995988,0.083478,0.000000,-0.032245 RARM_JOINT2:0.781451,0.000000,0.093928,0.616856 RARM_JOINT3:0.795749,0.000000,0.602537,0.061094 RLEG_JOINT2:0.999436,0.005543,0.000000,-0.033106 RLEG_JOINT4:0.992491,0.113495,0.000000,0.045604 WAIST:0.999968,-0.000000,0.000712,0.007905 WAIST_JOINT0:0.999682,-0.000000,0.006799,0.024268 WAIST_JOINT1:0.998384,0.056821,0.000000,-0.000346 END:
KINECT_DATA_Sensor  AnkleLeft:0.091510,0.724071,-0.077355,-0.679237 AnkleRight:0.099768,0.712011,0.067969,0.691714 ElbowLeft:-0.009664,0.901565,-0.181688,-0.392526 ElbowRight:-0.076113,0.803576,0.073016,0.585783 FootLeft:0.000000,0.000000,0.000000,0.000000 FootRight:0.000000,0.000000,0.000000,0.000000 HandLeft:0.019050,0.720541,0.091247,-0.687119 HandRight:0.106288,-0.147514,-0.662235,0.726902 HandTipLeft:0.000000,0.000000,0.000000,0.000000 HandTipRight:0.000000,0.000000,0.000000,0.000000 Head:0.000000,0.000000,0.000000,0.000000 HipLeft:0.114966,-0.677129,0.709349,-0.158439 HipRight:-0.127473,0.685993,0.697217,-0.164480 KneeLeft:0.006914,0.706158,-0.044698,-0.706608 KneeRight:-0.013919,0.707491,0.021729,0.706251 Neck:-0.008902,0.006951,0.997324,-0.072224 ShoulderLeft:0.017668,0.765235,-0.641688,0.048373 ShoulderRight:0.006572,0.794435,0.604408,-0.059337 SpineBase:-0.000939,0.008989,0.999395,-0.033592 SpineMid:-0.004667,0.009114,0.999384,-0.033558 SpineShoulder:-0.008657,0.008253,0.998587,-0.051777 ThumbLeft:0.000000,0.000000,0.000000,0.000000 ThumbRight:0.000000,0.000000,0.000000,0.000000 WristLeft:-0.081531,0.717903,0.054077,-0.689234 WristRight:0.182292,-0.058158,-0.557470,0.807846 END:
KINECT_DATA POSITION:34.379601,0.561211,-10.069060 HEAD_JOINT1:0.972915,0.204341,-0.000000,0.108079 LARM_JOINT2:0.812844,0.000000,0.011154,-0.582375 LARM_JOINT3:0.973170,0.000000,-0.150680,-0.173883 LLEG_JOINT2:0.999152,0.036745,0.000000,0.018572 LLEG_JOINT4:0.996191,0.080706,0.000000,-0.033029 RARM_JOINT2:0.804807,0.000000,0.288180,0.518882 RARM_JOINT3:0.897204,0.000000,0.439692,0.041183 RLEG_JOINT2:0.999435,0.004971,0.000000,-0.033255 RLEG_JOINT4:0.992477,0.113084,0.000000,0.046924 WAIST:0.999966,-0.000000,0.000113,0.008210 WAIST_JOINT0:0.999668,-0.000000,0.007061,0.024776 WAIST_JOINT1:0.998399,0.056557,0.000000,-0.000296 END:
KINECT_DATA_Sensor  AnkleLeft:-0.086985,-0.695979,0.078825,0.708402 AnkleRight:0.100325,0.713688,0.065882,0.690105 ElbowLeft:-0.009878,0.901660,-0.182147,-0.392089 ElbowRight:-0.233400,0.870478,0.046061,0.430896 FootLeft:0.000000,0.000000,0.000000,0.000000 FootRight:0.000000,0.000000,0.000000,0.000000 HandLeft:0.010981,0.745457,0.092885,-0.659959 HandRight:0.111260,-0.131517,-0.590508,0.788432 HandTipLeft:0.000000,0.000000,0.000000,0.000000 HandTipRight:0.000000,0.000000,0.000000,0.000000 Head:0.000000,0.000000,0.000000,0.000000 HipLeft:0.115419,-0.676903,0.709438,-0.158677 HipRight:-0.127330,0.686349,0.697014,-0.163961 KneeLeft:0.007084,0.706560,-0.044908,-0.706192 KneeRight:-0.014198,0.707057,0.021226,0.706695 Neck:-0.009208,0.007415,0.997339,-0.071938 ShoulderLeft:0.016678,0.765289,-0.641622,0.048734 ShoulderRight:0.005143,0.795169,0.603381,-0.060087 SpineBase:-0.000349,0.009317,0.999400,-0.033355 SpineMid:-0.004518,0.009456,0.999390,-0.033316 SpineShoulder:-0.008958,0.008680,0.998595,-0.051507 ThumbLeft:0.000000,0.000000,0.000000,0.000000 ThumbRight:0.000000,0.000000,0.000000,0.000000 WristLeft:-0.083747,0.743289,0.051030,-0.661743 WristRight:0.210052,-0.030401,-0.485439,0.848117 END:
KINECT_DATA POSITION:34.351738,0.570425,-10.110712 HEAD_JOINT1:0.973330,0.203557,-0.000000,0.105799 LARM_JOINT2:0.812907,0.000000,0.011928,-0.582272 LARM_JOINT3:0.974056,0.000000,-0.148643,-0.170648 LLEG_JOINT2:0.999157,0.036676,0.000000,0.018460 LLEG_JOINT4:0.996078,0.081737,0.000000,-0.033864 RARM_JOINT2:0.803212,0.000000,0.305593,0.511335 RARM_JOINT3:0.905864,0.000000,0.422454,0.030717 RLEG_JOINT2:0.999449,0.005391,0.000000,-0.032752 RLEG_JOINT4:0.992485,0.113406,0.000000,0.045966 WAIST:0.999965,0.000000,-0.000275,0.008416 WAIST_JOINT0:0.999645,-0.000000,0.007889,0.025444 WAIST_JOINT1:0.998408,0.056400,-0.000000,0.000076 END:
KINECT_DATA_Sensor  AnkleLeft:0.090434,0.716553,-0.076402,-0.687412 AnkleRight:0.100776,0.714085,0.066443,0.689573 ElbowLeft:-0.009767,0.901685,-0.182960,-0.391656 ElbowRight:-0.247170,0.850979,0.027619,0.462578 FootLeft:0.000000,0.000000,0.000000,0.000000 FootRight:0.000000,0.000000,0.000000,0.000000 HandLeft:-0.016786,-0.666674,-0.075358,0.741340 HandRight:0.169501,-0.077125,-0.545435,0.817204 HandTipLeft:0.000000,0.000000,0.000000,0.000000 HandTipRight:0.000000,0.000000,0.000000,0.000000 Head:0.000000,0.000000,0.000000,0.000000 HipLeft:0.115623,-0.676769,0.709508,-0.158787 HipRight:-0.127248,0.686637,0.696860,-0.163474 KneeLeft:0.006954,0.706823,-0.044930,-0.705928 KneeRight:-0.013389,0.706798,0.021029,0.706976 Neck:-0.010064,0.008175,0.997335,-0.071799 ShoulderLeft:0.015720,0.765169,-0.641765,0.049061 ShoulderRight:0.003006,0.795813,0.602390,-0.061640 SpineBase:0.000039,0.009735,0.999403,-0.033150 SpineMid:-0.004746,0.009893,0.999392,-0.033103 SpineShoulder:-0.009811,0.009318,0.998590,-0.051323 ThumbLeft:0.000000,0.000000,0.000000,0.000000 ThumbRight:0.000000,0.000000,0.000000,0.000000 WristLeft:0.076729,-0.653351,-0.060614,0.750714 WristRight:0.186005,-0.057951,-0.500582,0.843482 END:
KINECT_DATA POSITION:34.341106,0.573669,-10.134411 HEAD_JOINT1:0.973457,0.203386,-0.000000,0.104959 LARM_JOINT2:0.813033,0.000000,0.012334,-0.582087 LARM_JOINT3:0.973504,0.000000,-0.150462,-0.172192 LLEG_JOINT2:0.999155,0.036572,0.000000,0.018774 LLEG_JOINT4:0.996061,0.082862,0.000000,-0.031552 RARM_JOINT2:0.805491,0.000000,0.305808,0.507608 RARM_JOINT3:0.905087,0.000000,0.423806,0.034716 RLEG_JOINT2:0.999460,0.004794,0.000000,-0.032516 RLEG_JOINT4:0.992498,0.113175,0.000000,0.046243 WAIST:0.999966,0.000000,-0.000477,0.008283 WAIST_JOINT0:0.999623,-0.000000,0.008794,0.025994 WAIST_JOINT1:0.998404,0.056470,-0.000000,0.000471 END:
KINECT_DATA_Sensor  AnkleLeft:-0.086969,-0.695158,0.081644,0.708890 AnkleRight:0.100510,0.714564,0.065503,0.689207 ElbowLeft:-0.009453,0.902052,-0.183562,-0.390536 ElbowRight:-0.248933,0.864095,0.038086,0.435799 FootLeft:0.000000,0.000000,0.000000,0.000000 FootRight:0.000000,0.000000,0.000000,0.000000 HandLeft:-0.011241,-0.700104,-0.084816,0.708897 HandRight:0.094496,-0.101050,-0.559704,0.817062 HandTipLeft:0.000000,0.000000,0.000000,0.000000 HandTipRight:0.000000,0.000000,0.000000,0.000000 Head:0.000000,0.000000,0.000000,0.000000 HipLeft:0.115615,-0.676817,0.709413,-0.159011 HipRight:-0.127168,0.686589,0.696955,-0.163332 KneeLeft:0.006744,0.706975,-0.044988,-0.705774 KneeRight:-0.013733,0.706625,0.020537,0.707157 Neck:-0.010978,0.008543,0.997316,-0.071879 ShoulderLeft:0.015547,0.765128,-0.641820,0.049028 ShoulderRight:0.001622,0.796274,0.601650,-0.062950 SpineBase:0.000257,0.009956,0.999399,-0.033217 SpineMid:-0.005088,0.010134,0.999386,-0.033163 SpineShoulder:-0.010722,0.009646,0.998576,-0.051371 ThumbLeft:0.000000,0.000000,0.000000,0.000000 ThumbRight:0.000000,0.000000,0.000000,0.000000 WristLeft:0.078996,-0.686358,-0.056718,0.720732 WristRight:0.192772,-0.018209,-0.500285,0.843933 END:
KINECT_DATA POSITION:34.330936,0.578431,-10.148931 HEAD_JOINT1:0.973757,0.202353,-0.000000,0.104164 LARM_JOINT2:0.813160,0.000000,0.011948,-0.581917 LARM_JOINT3:0.973291,0.000000,-0.152723,-0.171410 LLEG_JOINT2:0.999155,0.036531,0.000000,0.018828 LLEG_JOINT4:0.996117,0.081838,0.000000,-0.032459 RARM_JOINT2:0.801091,0.000000,0.317281,0.507529 RARM_JOINT3:0.912496,0.000000,0.407983,0.030015 RLEG_JOINT2:0.999462,0.004766,0.000000,-0.032453 RLEG_JOINT4:0.992381,0.114750,0.000000,0.044854 WAIST:0.999964,0.000000,-0.000405,0.008460 WAIST_JOINT0:0.999610,-0.000000,0.009376,0.026286 WAIST_JOINT1:0.998385,0.056797,-0.000000,0.000718 END:
KINECT_DATA_Sensor  AnkleLeft:-0.086668,-0.694818,0.080449,0.709397 AnkleRight:0.100871,0.714935,0.067344,0.688591 ElbowLeft:-0.009712,0.901892,-0.184138,-0.390627 ElbowRight:-0.252282,0.871448,0.032314,0.419390 FootLeft:0.000000,0.000000,0.000000,0.000000 FootRight:0.000000,0.000000,0.000000,0.000000 HandLeft:-0.019513,-0.547598,-0.084454,0.832240 HandRight:0.074338,-0.123728,-0.583566,0.799134 HandTipLeft:0.000000,0.000000,0.000000,0.000000 HandTipRight:0.000000,0.000000,0.000000,0.000000 Head:0.000000,0.000000,0.000000,0.000000 HipLeft:0.115416,-0.676645,0.709563,-0.159223 HipRight:-0.127227,0.686670,0.696829,-0.163482 KneeLeft:0.006556,0.706917,-0.045121,-0.705826 KneeRight:-0.013587,0.706671,0.020347,0.707119 Neck:-0.011581,0.009000,0.997277,-0.072268 ShoulderLeft:0.015906,0.764934,-0.642047,0.048971 ShoulderRight:0.001187,0.796389,0.601409,-0.063796 SpineBase:0.000184,0.010331,0.999388,-0.033421 SpineMid:-0.005417,0.010518,0.999373,-0.033362 SpineShoulder:-0.011317,0.010096,0.998549,-0.051664 ThumbLeft:0.000000,0.000000,0.000000,0.000000 ThumbRight:0.000000,0.000000,0.000000,0.000000 WristLeft:0.067109,-0.535923,-0.071134,0.838584 WristRight:0.191801,-0.013191,-0.487296,0.851810 END:
KINECT_DATA POSITION:34.316082,0.586171,-10.161948 HEAD_JOINT1:0.974004,0.200646,-0.000000,0.105150 LARM_JOINT2:0.813458,0.000000,0.011775,-0.581504 LARM_JOINT3:0.973311,0.000000,-0.150748,-0.173035 LLEG_JOINT2:0.999175,0.035936,0.000000,0.018924 LLEG_JOINT4:0.996047,0.082485,0.000000,-0.032962 RARM_JOINT2:0.801511,0.000000,0.290225,0.522828 RARM_JOINT3:0.900106,0.000000,0.434921,0.025552 RLEG_JOINT2:0.999472,0.004903,0.000000,-0.032116 RLEG_JOINT4:0.992595,0.113321,0.000000,0.043732 WAIST:0.999963,0.000000,-0.000109,0.008628 WAIST_JOINT0:0.999608,-0.000000,0.009169,0.026455 WAIST_JOINT1:0.998386,0.056795,-0.000000,0.000531 END:
KINECT_DATA_Sensor  AnkleLeft:-0.086934,-0.694882,0.080251,0.709324 AnkleRight:0.100746,0.728342,0.065020,0.674642 ElbowLeft:-0.009794,0.902122,-0.184536,-0.389906 ElbowRight:-0.231829,0.854703,0.031482,0.463408 FootLeft:0.000000,0.000000,0.000000,0.000000 FootRight:0.000000,0.000000,0.000000,0.000000 HandLeft:-0.017439,-0.642531,-0.082267,0.761631 HandRight:0.103541,-0.135771,-0.537779,0.825614 HandTipLeft:0.000000,0.000000,0.000000,0.000000 HandTipRight:0.000000,0.000000,0.000000,0.000000 Head:0.000000,0.000000,0.000000,0.000000 HipLeft:0.115282,-0.676568,0.709689,-0.159084 HipRight:-0.127447,0.686745,0.696670,-0.163672 KneeLeft:0.005959,0.706714,-0.044884,-0.706049 KneeRight:-0.013140,0.706895,0.020080,0.706911 Neck:-0.011376,0.008892,0.997282,-0.072250 ShoulderLeft:0.015694,0.764949,-0.642018,0.049202 ShoulderRight:0.001246,0.796546,0.601213,-0.063681 SpineBase:-0.000119,0.010417,0.999388,-0.033407 SpineMid:-0.005463,0.010595,0.999373,-0.033351 SpineShoulder:-0.011109,0.010045,0.998552,-0.051676 ThumbLeft:0.000000,0.000000,0.000000,0.000000 ThumbRight:0.000000,0.000000,0.000000,0.000000 WristLeft:0.074855,-0.629135,-0.063155,0.771102 WristRight:0.211615,-0.054406,-0.505774,0.834537 END:
KINECT_DATA POSITION:34.299068,0.591674,-10.182608 HEAD_JOINT1:0.973898,0.200775,-0.000000,0.105886 LARM_JOINT2:0.813777,0.000000,0.011420,-0.581065 LARM_JOINT3:0.973208,0.000000,-0.150343,-0.173963 LLEG_JOINT2:0.999156,0.036405,0.000000,0.019009 LLEG_JOINT4:0.996129,0.082117,0.000000,-0.031377 RARM_JOINT2:0.806090,0.000000,0.299302,0.510526 RARM_JOINT3:0.901262,0.000000,0.431545,0.038664 RLEG_JOINT2:0.999481,0.004793,0.000000,-0.031864 RLEG_JOINT4:0.992767,0.111796,0.000000,0.043759 WAIST:0.999963,0.000000,-0.000764,0.008553 WAIST_JOINT0:0.999605,-0.000000,0.009378,0.026485 WAIST_JOINT1:0.998396,0.056610,-0.000000,0.000328 END:
KINECT_DATA_Sensor  AnkleLeft:-0.085778,-0.695019,0.081548,0.709184 AnkleRight:0.100192,0.733039,0.062969,0.669813 ElbowLeft:-0.010225,0.902851,-0.184595,-0.388176 ElbowRight:-0.243639,0.868499,0.043375,0.429497 FootLeft:0.000000,0.000000,0.000000,0.000000 FootRight:0.000000,0.000000,0.000000,0.000000 HandLeft:-0.021022,-0.633001,-0.084443,0.769245 HandRight:0.086355,-0.136295,-0.563914,0.809918 HandTipLeft:0.000000,0.000000,0.000000,0.000000 HandTipRight:0.000000,0.000000,0.000000,0.000000 Head:0.000000,0.000000,0.000000,0.000000 HipLeft:0.115714,-0.676577,0.709559,-0.159313 HipRight:-0.127051,0.686810,0.696788,-0.163206 KneeLeft:0.006259,0.707170,-0.045230,-0.705568 KneeRight:-0.013076,0.706434,0.019890,0.707379 Neck:-0.011559,0.008656,0.997300,-0.071996 ShoulderLeft:0.015871,0.765219,-0.641724,0.048770 ShoulderRight:0.001206,0.796727,0.600987,-0.063547 SpineBase:0.000536,0.010294,0.999392,-0.033294 SpineMid:-0.005223,0.010486,0.999379,-0.033234 SpineShoulder:-0.011293,0.009864,0.998560,-0.051504 ThumbLeft:0.000000,0.000000,0.000000,0.000000 ThumbRight:0.000000,0.000000,0.000000,0.000000 WristLeft:0.073933,-0.619075,-0.064005,0.779220 WristRight:0.212935,-0.027407,-0.495161,0.841857 END:
