EastLYD/RoboCupatHomeSim/InteractiveCleanUp/JapanOpen2016/Motion_Data/File11.dat
KINECT_DATA POSITION:16.241398,-1.264891,7.924378 HEAD_JOINT1:0.975320,0.168117,-0.000000,0.143137 LARM_JOINT2:0.839459,0.000000,-0.029079,-0.542644 LARM_JOINT3:0.960174,0.000000,-0.193898,-0.201171 LLEG_JOINT2:0.998342,0.026299,0.000000,0.051196 LLEG_JOINT4:0.995312,0.088578,0.000000,-0.038834 RARM_JOINT2:0.778939,0.000000,-0.016202,0.626890 RARM_JOINT3:0.962995,0.000000,0.243293,0.115968 RLEG_JOINT2:0.999617,0.014667,0.000000,-0.023479 RLEG_JOINT4:0.995093,0.094015,0.000000,0.030850 WAIST:0.999498,0.000000,-0.031676,-0.000627 WAIST_JOINT0:0.998298,0.000000,-0.058162,0.004241 WAIST_JOINT1:0.996687,0.079377,0.000000,-0.017724 END:
KINECT_DATA_Sensor  AnkleLeft:0.072549,0.739598,-0.089451,-0.663122 AnkleRight:0.083555,0.675313,0.069637,0.729467 ElbowLeft:-0.032931,0.918530,-0.195147,-0.342251 ElbowRight:0.011137,0.807267,0.154749,0.569429 FootLeft:0.000000,0.000000,0.000000,0.000000 FootRight:0.000000,0.000000,0.000000,0.000000 HandLeft:-0.145253,0.776805,0.031858,0.611932 HandRight:0.109082,-0.386358,-0.169307,0.900091 HandTipLeft:0.000000,0.000000,0.000000,0.000000 HandTipRight:0.000000,0.000000,0.000000,0.000000 Head:0.000000,0.000000,0.000000,0.000000 HipLeft:0.135139,-0.672883,0.701585,-0.191689 HipRight:-0.091435,0.678402,0.709895,-0.165709 KneeLeft:-0.018863,0.728306,-0.053779,-0.682878 KneeRight:-0.005773,0.685219,0.027610,0.727791 Neck:0.056740,-0.019256,0.993602,-0.095733 ShoulderLeft:-0.002654,0.774495,-0.623369,0.107519 ShoulderRight:0.072089,0.779013,0.622618,-0.017019 SpineBase:0.030814,-0.014475,0.997947,-0.054250 SpineMid:0.043595,-0.015169,0.997470,-0.054061 SpineShoulder:0.056683,-0.017373,0.995477,-0.074230 ThumbLeft:0.000000,0.000000,0.000000,0.000000 ThumbRight:0.000000,0.000000,0.000000,0.000000 WristLeft:-0.114526,0.794037,-0.070001,0.592865 WristRight:0.028024,-0.399817,-0.138904,0.905575 END:
KINECT_DATA POSITION:16.244213,-1.270030,7.920563 HEAD_JOINT1:0.975199,0.168804,-0.000000,0.143153 LARM_JOINT2:0.839225,0.000000,-0.027249,-0.543102 LARM_JOINT3:0.961132,0.000000,-0.190631,-0.199712 LLEG_JOINT2:0.998332,0.026511,0.000000,0.051288 LLEG_JOINT4:0.995285,0.088009,0.000000,-0.040767 RARM_JOINT2:0.779137,0.000000,-0.016670,0.626632 RARM_JOINT3:0.963089,0.000000,0.243409,0.114940 RLEG_JOINT2:0.999603,0.015227,0.000000,-0.023711 RLEG_JOINT4:0.995340,0.091396,0.000000,0.030736 WAIST:0.999494,0.000000,-0.031787,-0.000719 WAIST_JOINT0:0.998313,0.000000,-0.057914,0.004062 WAIST_JOINT1:0.996712,0.079055,0.000000,-0.017737 END:
KINECT_DATA_Sensor  AnkleLeft:0.073597,0.739259,-0.087890,-0.663593 AnkleRight:0.085466,0.715156,0.063851,0.690776 ElbowLeft:-0.031769,0.918245,-0.195169,-0.343113 ElbowRight:0.011044,0.807413,0.155122,0.569121 FootLeft:0.000000,0.000000,0.000000,0.000000 FootRight:0.000000,0.000000,0.000000,0.000000 HandLeft:-0.122921,0.762344,0.026332,0.634845 HandRight:0.109851,-0.421157,-0.167901,0.884516 HandTipLeft:0.000000,0.000000,0.000000,0.000000 HandTipRight:0.000000,0.000000,0.000000,0.000000 Head:0.000000,0.000000,0.000000,0.000000 HipLeft:0.135241,-0.672970,0.701491,-0.191655 HipRight:-0.091369,0.678387,0.709949,-0.165575 KneeLeft:-0.018725,0.728395,-0.053929,-0.682775 KneeRight:-0.005585,0.685124,0.028227,0.727858 Neck:0.056518,-0.019273,0.993649,-0.095372 ShoulderLeft:-0.002648,0.774681,-0.623213,0.107086 ShoulderRight:0.071781,0.778977,0.622699,-0.016964 SpineBase:0.030931,-0.014578,0.997946,-0.054163 SpineMid:0.043539,-0.015261,0.997476,-0.053975 SpineShoulder:0.056451,-0.017461,0.995511,-0.073929 ThumbLeft:0.000000,0.000000,0.000000,0.000000 ThumbRight:0.000000,0.000000,0.000000,0.000000 WristLeft:-0.114359,0.774758,-0.072335,0.617608 WristRight:0.033030,-0.433886,-0.137718,0.889767 END:
KINECT_DATA POSITION:16.252413,-1.270104,7.914627 HEAD_JOINT1:0.975119,0.169130,-0.000000,0.143307 LARM_JOINT2:0.839170,0.000000,-0.026920,-0.543203 LARM_JOINT3:0.960986,0.000000,-0.191939,-0.199161 LLEG_JOINT2:0.998340,0.025988,0.000000,0.051389 LLEG_JOINT4:0.995441,0.087559,0.000000,-0.037812 RARM_JOINT2:0.778292,0.000000,-0.016526,0.627685 RARM_JOINT3:0.962748,0.000000,0.244865,0.114709 RLEG_JOINT2:0.999610,0.014920,0.000000,-0.023621 RLEG_JOINT4:0.995190,0.092604,0.000000,0.031972 WAIST:0.999496,0.000000,-0.031730,-0.000630 WAIST_JOINT0:0.998301,0.000000,-0.058133,0.004057 WAIST_JOINT1:0.996714,0.079017,0.000000,-0.017823 END:
KINECT_DATA_Sensor  AnkleLeft:0.070763,0.739888,-0.089361,-0.663003 AnkleRight:0.085977,0.703250,0.064829,0.702741 ElbowLeft:-0.031493,0.918215,-0.195189,-0.343207 ElbowRight:0.011365,0.806617,0.153928,0.570567 FootLeft:0.000000,0.000000,0.000000,0.000000 FootRight:0.000000,0.000000,0.000000,0.000000 HandLeft:-0.123542,0.787004,0.026801,0.603857 HandRight:0.121175,-0.451467,-0.167797,0.867951 HandTipLeft:0.000000,0.000000,0.000000,0.000000 HandTipRight:0.000000,0.000000,0.000000,0.000000 Head:0.000000,0.000000,0.000000,0.000000 HipLeft:0.135153,-0.672940,0.701549,-0.191611 HipRight:-0.091334,0.678454,0.709878,-0.165626 KneeLeft:-0.019219,0.728325,-0.053681,-0.682855 KneeRight:-0.005686,0.685179,0.027889,0.727818 Neck:0.056784,-0.019280,0.993636,-0.095354 ShoulderLeft:-0.002662,0.774735,-0.623142,0.107110 ShoulderRight:0.072098,0.778741,0.622967,-0.016618 SpineBase:0.030864,-0.014582,0.997946,-0.054207 SpineMid:0.043637,-0.015275,0.997469,-0.054016 SpineShoulder:0.056714,-0.017495,0.995500,-0.073879 ThumbLeft:0.000000,0.000000,0.000000,0.000000 ThumbRight:0.000000,0.000000,0.000000,0.000000 WristLeft:-0.117522,0.797575,-0.067591,0.587788 WristRight:0.038288,-0.465010,-0.136460,0.873887 END:
KINECT_DATA POSITION:16.267700,-1.272389,7.913101 HEAD_JOINT1:0.975073,0.169071,-0.000000,0.143694 LARM_JOINT2:0.839605,0.000000,-0.027630,-0.542494 LARM_JOINT3:0.960164,0.000000,-0.199025,-0.196147 LLEG_JOINT2:0.998348,0.025704,0.000000,0.051377 LLEG_JOINT4:0.995143,0.089181,0.000000,-0.041679 RARM_JOINT2:0.778788,0.000000,-0.017913,0.627031 RARM_JOINT3:0.951598,0.000000,0.282532,0.120986 RLEG_JOINT2:0.999606,0.015022,0.000000,-0.023709 RLEG_JOINT4:0.995250,0.092557,0.000000,0.030180 WAIST:0.999498,0.000000,-0.031685,-0.000605 WAIST_JOINT0:0.998296,0.000000,-0.058208,0.004230 WAIST_JOINT1:0.996722,0.078936,0.000000,-0.017722 END:
KINECT_DATA_Sensor  AnkleLeft:0.074394,0.739275,-0.087621,-0.663522 AnkleRight:0.085328,0.708965,0.065577,0.696984 ElbowLeft:-0.032114,0.918792,-0.195781,-0.341261 ElbowRight:0.010767,0.802485,0.155100,0.576060 FootLeft:0.000000,0.000000,0.000000,0.000000 FootRight:0.000000,0.000000,0.000000,0.000000 HandLeft:-0.139201,0.748626,-0.008349,0.648160 HandRight:0.187378,-0.406346,-0.268447,0.853058 HandTipLeft:0.000000,0.000000,0.000000,0.000000 HandTipRight:0.000000,0.000000,0.000000,0.000000 Head:0.000000,0.000000,0.000000,0.000000 HipLeft:0.135015,-0.672961,0.701584,-0.191508 HipRight:-0.091328,0.678514,0.709853,-0.165488 KneeLeft:-0.019421,0.728289,-0.053484,-0.682904 KneeRight:-0.005656,0.685201,0.028004,0.727793 Neck:0.056861,-0.019133,0.993639,-0.095296 ShoulderLeft:-0.003192,0.774692,-0.623140,0.107419 ShoulderRight:0.071661,0.779003,0.622686,-0.016786 SpineBase:0.030826,-0.014430,0.997952,-0.054156 SpineMid:0.043658,-0.015125,0.997473,-0.053966 SpineShoulder:0.056788,-0.017394,0.995504,-0.073785 ThumbLeft:0.000000,0.000000,0.000000,0.000000 ThumbRight:0.000000,0.000000,0.000000,0.000000 WristLeft:-0.114611,0.758707,-0.074520,0.636926 WristRight:0.042273,-0.447368,-0.147771,0.881044 END:
KINECT_DATA POSITION:16.294748,-1.274829,7.947814 HEAD_JOINT1:0.975267,0.166632,-0.000000,0.145214 LARM_JOINT2:0.840304,0.000000,-0.030293,-0.541268 LARM_JOINT3:0.957698,0.000000,-0.204546,-0.202423 LLEG_JOINT2:0.998330,0.026579,0.000000,0.051283 LLEG_JOINT4:0.995098,0.090612,0.000000,-0.039626 RARM_JOINT2:0.779159,0.000000,-0.018672,0.626548 RARM_JOINT3:0.930659,0.000000,0.338438,0.139044 RLEG_JOINT2:0.999615,0.014860,0.000000,-0.023426 RLEG_JOINT4:0.995220,0.093070,0.000000,0.029597 WAIST:0.999467,0.000000,-0.032632,-0.000920 WAIST_JOINT0:0.998183,0.000000,-0.060128,0.003809 WAIST_JOINT1:0.996714,0.079128,0.000000,-0.017331 END:
KINECT_DATA_Sensor  AnkleLeft:0.074840,0.740312,-0.090402,-0.661941 AnkleRight:0.085567,0.711638,0.065771,0.694207 ElbowLeft:-0.033776,0.920837,-0.196241,-0.335274 ElbowRight:0.009389,0.794730,0.156062,0.586482 FootLeft:0.000000,0.000000,0.000000,0.000000 FootRight:0.000000,0.000000,0.000000,0.000000 HandLeft:-0.167559,0.782543,0.005692,0.599598 HandRight:0.254015,-0.314777,-0.365260,0.838437 HandTipLeft:0.000000,0.000000,0.000000,0.000000 HandTipRight:0.000000,0.000000,0.000000,0.000000 Head:0.000000,0.000000,0.000000,0.000000 HipLeft:0.135358,-0.673034,0.701269,-0.192162 HipRight:-0.090715,0.678484,0.710101,-0.164884 KneeLeft:-0.018577,0.729002,-0.053817,-0.682140 KneeRight:-0.005778,0.684484,0.027915,0.728471 Neck:0.058835,-0.019029,0.993502,-0.095552 ShoulderLeft:-0.004883,0.774985,-0.622416,0.109419 ShoulderRight:0.072474,0.779028,0.622587,-0.015736 SpineBase:0.031811,-0.014229,0.997918,-0.054264 SpineMid:0.045139,-0.014952,0.997404,-0.054069 SpineShoulder:0.058764,-0.017331,0.995379,-0.073938 ThumbLeft:0.000000,0.000000,0.000000,0.000000 ThumbRight:0.000000,0.000000,0.000000,0.000000 WristLeft:-0.121693,0.797712,-0.065540,0.586985 WristRight:0.059307,-0.391218,-0.186109,0.899330 END:
KINECT_DATA POSITION:16.354517,-1.295737,8.091927 HEAD_JOINT1:0.975384,0.164645,-0.000000,0.146693 LARM_JOINT2:0.840194,0.000000,-0.030359,-0.541435 LARM_JOINT3:0.957083,0.000000,-0.203411,-0.206438 LLEG_JOINT2:0.998293,0.028834,0.000000,0.050786 LLEG_JOINT4:0.995315,0.087084,0.000000,-0.042012 RARM_JOINT2:0.779178,0.000000,-0.020966,0.626452 RARM_JOINT3:0.912107,0.000000,0.377938,0.158820 RLEG_JOINT2:0.999599,0.015662,0.000000,-0.023610 RLEG_JOINT4:0.995199,0.093049,0.000000,0.030358 WAIST:0.999422,0.000000,-0.033974,-0.001403 WAIST_JOINT0:0.998048,0.000000,-0.062380,0.003037 WAIST_JOINT1:0.996777,0.078497,0.000000,-0.016563 END:
KINECT_DATA_Sensor  AnkleLeft:0.076157,0.741187,-0.087259,-0.661232 AnkleRight:0.086330,0.710939,0.066026,0.694805 ElbowLeft:-0.034747,0.921197,-0.195982,-0.334334 ElbowRight:0.011354,0.796258,0.156424,0.584274 FootLeft:0.000000,0.000000,0.000000,0.000000 FootRight:0.000000,0.000000,0.000000,0.000000 HandLeft:-0.161571,0.757866,0.012265,0.631968 HandRight:0.285216,-0.288323,-0.407917,0.818001 HandTipLeft:0.000000,0.000000,0.000000,0.000000 HandTipRight:0.000000,0.000000,0.000000,0.000000 Head:0.000000,0.000000,0.000000,0.000000 HipLeft:0.136393,-0.673226,0.700808,-0.192434 HipRight:-0.090465,0.678513,0.710514,-0.163115 KneeLeft:-0.016393,0.730087,-0.054762,-0.680960 KneeRight:-0.005624,0.683403,0.028945,0.729445 Neck:0.061226,-0.018837,0.993407,-0.095071 ShoulderLeft:-0.007719,0.775521,-0.621367,0.111403 ShoulderRight:0.072636,0.778900,0.622768,-0.014099 SpineBase:0.033245,-0.013677,0.997928,-0.053366 SpineMid:0.047070,-0.014415,0.997371,-0.053171 SpineShoulder:0.061179,-0.016987,0.995291,-0.073240 ThumbLeft:0.000000,0.000000,0.000000,0.000000 ThumbRight:0.000000,0.000000,0.000000,0.000000 WristLeft:-0.123164,0.774192,-0.069497,0.616950 WristRight:0.086715,-0.377250,-0.213434,0.897000 END:
KINECT_DATA POSITION:16.428501,-1.299720,8.280457 HEAD_JOINT1:0.975375,0.163401,-0.000000,0.148132 LARM_JOINT2:0.839591,0.000000,-0.028590,-0.542467 LARM_JOINT3:0.958263,0.000000,-0.200690,-0.203609 LLEG_JOINT2:0.998301,0.031045,0.000000,0.049304 LLEG_JOINT4:0.995565,0.085536,0.000000,-0.039175 RARM_JOINT2:0.780613,0.000000,-0.024000,0.624553 RARM_JOINT3:0.889855,0.000000,0.423029,0.170896 RLEG_JOINT2:0.999549,0.017465,0.000000,-0.024442 RLEG_JOINT4:0.995371,0.090901,0.000000,0.031214 WAIST:0.999370,0.000000,-0.035455,-0.001508 WAIST_JOINT0:0.998017,0.000000,-0.062882,0.002900 WAIST_JOINT1:0.996876,0.077316,0.000000,-0.016124 END:
KINECT_DATA_Sensor  AnkleLeft:0.075503,0.741600,-0.088803,-0.660638 AnkleRight:0.082567,0.672719,0.070115,0.731926 ElbowLeft:-0.034629,0.921249,-0.195369,-0.334561 ElbowRight:0.010925,0.792794,0.158747,0.588352 FootLeft:0.000000,0.000000,0.000000,0.000000 FootRight:0.000000,0.000000,0.000000,0.000000 HandLeft:-0.148127,0.763195,0.009607,0.628887 HandRight:0.304904,-0.306434,-0.436978,0.788785 HandTipLeft:0.000000,0.000000,0.000000,0.000000 HandTipRight:0.000000,0.000000,0.000000,0.000000 Head:0.000000,0.000000,0.000000,0.000000 HipLeft:0.137737,-0.673293,0.700481,-0.192439 HipRight:-0.090260,0.678920,0.710625,-0.161036 KneeLeft:-0.013800,0.731236,-0.055271,-0.679741 KneeRight:-0.004903,0.682231,0.030863,0.730469 Neck:0.061795,-0.018411,0.993480,-0.094017 ShoulderLeft:-0.008799,0.776271,-0.620491,0.110986 ShoulderRight:0.072156,0.779310,0.622338,-0.012829 SpineBase:0.034779,-0.013163,0.997950,-0.052089 SpineMid:0.048139,-0.013859,0.997395,-0.051908 SpineShoulder:0.061767,-0.016449,0.995350,-0.072063 ThumbLeft:0.000000,0.000000,0.000000,0.000000 ThumbRight:0.000000,0.000000,0.000000,0.000000 WristLeft:-0.123340,0.775830,-0.068961,0.614915 WristRight:0.113756,-0.399047,-0.237102,0.878410 END:
KINECT_DATA POSITION:16.589773,-1.310272,8.500803 HEAD_JOINT1:0.975391,0.163022,-0.000000,0.148448 LARM_JOINT2:0.838634,0.000000,-0.027454,-0.544003 LARM_JOINT3:0.957974,0.000000,-0.200754,-0.204900 LLEG_JOINT2:0.998382,0.033468,0.000000,0.045976 LLEG_JOINT4:0.996014,0.081699,0.000000,-0.035794 RARM_JOINT2:0.783769,0.000000,-0.023225,0.620618 RARM_JOINT3:0.889841,0.000000,0.399269,0.220834 RLEG_JOINT2:0.999419,0.019742,0.000000,-0.027767 RLEG_JOINT4:0.995569,0.088082,0.000000,0.032921 WAIST:0.999404,0.000000,-0.034513,-0.000671 WAIST_JOINT0:0.998055,0.000000,-0.062284,0.002627 WAIST_JOINT1:0.996991,0.075933,0.000000,-0.015619 END:
KINECT_DATA_Sensor  AnkleLeft:0.074000,0.741531,-0.088373,-0.660943 AnkleRight:0.081576,0.673233,0.070406,0.731536 ElbowLeft:-0.034518,0.920889,-0.194935,-0.335816 ElbowRight:0.007302,0.793838,0.160802,0.586440 FootLeft:0.000000,0.000000,0.000000,0.000000 FootRight:0.000000,0.000000,0.000000,0.000000 HandLeft:-0.150596,0.801305,0.021457,0.578594 HandRight:0.229614,0.066222,-0.373163,0.896461 HandTipLeft:0.000000,0.000000,0.000000,0.000000 HandTipRight:0.000000,0.000000,0.000000,0.000000 Head:0.000000,0.000000,0.000000,0.000000 HipLeft:0.138204,-0.673046,0.700936,-0.191302 HipRight:-0.092377,0.679652,0.709799,-0.160386 KneeLeft:-0.010243,0.730703,-0.055374,-0.680369 KneeRight:-0.004941,0.682835,0.034250,0.729752 Neck:0.061369,-0.017359,0.993632,-0.092884 ShoulderLeft:-0.009590,0.776834,-0.619986,0.109792 ShoulderRight:0.070670,0.779263,0.622575,-0.012463 SpineBase:0.033852,-0.011793,0.998086,-0.050384 SpineMid:0.047495,-0.012481,0.997530,-0.050218 SpineShoulder:0.061380,-0.015188,0.995499,-0.070591 ThumbLeft:0.000000,0.000000,0.000000,0.000000 ThumbRight:0.000000,0.000000,0.000000,0.000000 WristLeft:-0.127954,0.813586,-0.061040,0.563897 WristRight:0.020209,-0.009342,-0.296222,0.954860 END:
KINECT_DATA POSITION:16.768744,-1.299349,8.762110 HEAD_JOINT1:0.975509,0.163181,-0.000000,0.147490 LARM_JOINT2:0.837191,0.000000,-0.026228,-0.546281 LARM_JOINT3:0.960197,0.000000,-0.195211,-0.199785 LLEG_JOINT2:0.998447,0.035987,0.000000,0.042532 LLEG_JOINT4:0.995993,0.083592,0.000000,-0.031777 RARM_JOINT2:0.784631,0.000000,-0.013842,0.619809 RARM_JOINT3:0.865057,0.000000,0.459438,0.201478 RLEG_JOINT2:0.999305,0.020673,0.000000,-0.031032 RLEG_JOINT4:0.995349,0.089631,0.000000,0.035306 WAIST:0.999428,0.000000,-0.033818,0.000117 WAIST_JOINT0:0.998169,0.000000,-0.060385,0.003447 WAIST_JOINT1:0.997121,0.074320,0.000000,-0.015059 END:
KINECT_DATA_Sensor  AnkleLeft:0.076092,0.739954,-0.092522,-0.661904 AnkleRight:0.083365,0.674126,0.072137,0.730343 ElbowLeft:-0.034543,0.920153,-0.193601,-0.338592 ElbowRight:-0.001771,0.789543,0.155954,0.593546 FootLeft:0.000000,0.000000,0.000000,0.000000 FootRight:0.000000,0.000000,0.000000,0.000000 HandLeft:-0.124253,0.766468,0.007104,0.630109 HandRight:-0.496737,0.850532,-0.152055,-0.082016 HandTipLeft:0.000000,0.000000,0.000000,0.000000 HandTipRight:0.000000,0.000000,0.000000,0.000000 Head:0.000000,0.000000,0.000000,0.000000 HipLeft:0.139061,-0.672945,0.701291,-0.189731 HipRight:-0.094781,0.680574,0.708971,-0.158733 KneeLeft:-0.006515,0.730333,-0.055424,-0.680808 KneeRight:-0.005955,0.683252,0.036715,0.729235 Neck:0.059467,-0.016492,0.993850,-0.091945 ShoulderLeft:-0.009493,0.777008,-0.620236,0.107121 ShoulderRight:0.068246,0.780025,0.621886,-0.012712 SpineBase:0.033209,-0.010031,0.998253,-0.047829 SpineMid:0.046290,-0.010657,0.997732,-0.047694 SpineShoulder:0.059559,-0.013665,0.995758,-0.068791 ThumbLeft:0.000000,0.000000,0.000000,0.000000 ThumbRight:0.000000,0.000000,0.000000,0.000000 WristLeft:-0.123968,0.773866,-0.070112,0.617128 WristRight:-0.332468,0.942864,-0.017345,-0.013095 END:
KINECT_DATA POSITION:16.925018,-1.336169,9.080446 HEAD_JOINT1:0.976067,0.162770,-0.000000,0.144217 LARM_JOINT2:0.835551,0.000000,-0.023731,-0.548900 LARM_JOINT3:0.960565,0.000000,-0.195355,-0.197868 LLEG_JOINT2:0.998476,0.038041,0.000000,0.039972 LLEG_JOINT4:0.996428,0.079007,0.000000,-0.029809 RARM_JOINT2:0.786752,0.000000,-0.010593,0.617178 RARM_JOINT3:0.856489,0.000000,0.472104,0.208672 RLEG_JOINT2:0.999160,0.022927,0.000000,-0.033965 RLEG_JOINT4:0.995243,0.090432,0.000000,0.036244 WAIST:0.999513,0.000000,-0.031190,0.000724 WAIST_JOINT0:0.998555,0.000000,-0.053469,0.005302 WAIST_JOINT1:0.997304,0.072019,0.000000,-0.014065 END:
KINECT_DATA_Sensor  AnkleLeft:0.074776,0.740307,-0.090386,-0.661955 AnkleRight:0.084706,0.678115,0.075158,0.726180 ElbowLeft:-0.034168,0.918029,-0.192357,-0.345042 ElbowRight:-0.008904,0.784757,0.154696,0.600123 FootLeft:0.000000,0.000000,0.000000,0.000000 FootRight:0.000000,0.000000,0.000000,0.000000 HandLeft:-0.125149,0.808555,0.009850,0.574874 HandRight:0.136521,0.164831,-0.478007,0.851882 HandTipLeft:0.000000,0.000000,0.000000,0.000000 HandTipRight:0.000000,0.000000,0.000000,0.000000 Head:0.000000,0.000000,0.000000,0.000000 HipLeft:0.139550,-0.673305,0.701628,-0.186828 HipRight:-0.099096,0.681148,0.707991,-0.158006 KneeLeft:-0.003520,0.728618,-0.055611,-0.682650 KneeRight:-0.005986,0.685061,0.039948,0.727365 Neck:0.052571,-0.015130,0.994457,-0.089787 ShoulderLeft:-0.009015,0.777329,-0.620686,0.102111 ShoulderRight:0.059768,0.782457,0.619561,-0.018262 SpineBase:0.030654,-0.008467,0.998502,-0.044524 SpineMid:0.041614,-0.008955,0.998105,-0.044428 SpineShoulder:0.052717,-0.011860,0.996324,-0.066474 ThumbLeft:0.000000,0.000000,0.000000,0.000000 ThumbRight:0.000000,0.000000,0.000000,0.000000 WristLeft:-0.128065,0.814090,-0.063558,0.562865 WristRight:-0.009274,0.093481,-0.373899,0.922700 END:
KINECT_DATA POSITION:17.136061,-1.371975,9.400487 HEAD_JOINT1:0.976751,0.162488,-0.000000,0.139837 LARM_JOINT2:0.834031,0.000000,-0.018119,-0.551421 LARM_JOINT3:0.960438,0.000000,-0.196252,-0.197594 LLEG_JOINT2:0.998484,0.041636,0.000000,0.035991 LLEG_JOINT4:0.996454,0.079549,0.000000,-0.027423 RARM_JOINT2:0.787437,0.000000,-0.009797,0.616317 RARM_JOINT3:0.844359,0.000000,0.493965,0.207499 RLEG_JOINT2:0.998975,0.025053,0.000000,-0.037709 RLEG_JOINT4:0.995120,0.090632,0.000000,0.039026 WAIST:0.999530,0.000000,-0.030608,0.001396 WAIST_JOINT0:0.998809,0.000000,-0.048385,0.006349 WAIST_JOINT1:0.997512,0.069259,0.000000,-0.013155 END:
KINECT_DATA_Sensor  AnkleLeft:0.077575,0.733768,-0.093323,-0.668474 AnkleRight:0.090076,0.715158,0.072379,0.689345 ElbowLeft:-0.033247,0.914671,-0.191991,-0.354133 ElbowRight:-0.011393,0.785715,0.152439,0.599404 FootLeft:0.000000,0.000000,0.000000,0.000000 FootRight:0.000000,0.000000,0.000000,0.000000 HandLeft:-0.122028,0.797607,0.009907,0.590623 HandRight:0.105871,-0.492488,0.506370,-0.699883 HandTipLeft:0.000000,0.000000,0.000000,0.000000 HandTipRight:0.000000,0.000000,0.000000,0.000000 Head:0.000000,0.000000,0.000000,0.000000 HipLeft:0.141069,-0.673294,0.701824,-0.184980 HipRight:-0.101921,0.682008,0.707207,-0.156000 KneeLeft:0.001409,0.728271,-0.055971,-0.682998 KneeRight:-0.006546,0.685405,0.043655,0.726823 Neck:0.047569,-0.013805,0.994948,-0.087325 ShoulderLeft:-0.008708,0.778204,-0.620384,0.097191 ShoulderRight:0.053501,0.784110,0.617951,-0.021082 SpineBase:0.030128,-0.006907,0.998668,-0.041321 SpineMid:0.038909,-0.007270,0.998364,-0.041259 SpineShoulder:0.047792,-0.009887,0.996776,-0.063682 ThumbLeft:0.000000,0.000000,0.000000,0.000000 ThumbRight:0.000000,0.000000,0.000000,0.000000 WristLeft:-0.128025,0.803308,-0.068389,0.577606 WristRight:-0.165368,0.462331,-0.359324,0.793593 END:
KINECT_DATA POSITION:17.217194,-1.401214,9.507966 HEAD_JOINT1:0.977268,0.163094,-0.000000,0.135451 LARM_JOINT2:0.833032,0.000000,-0.016253,-0.552986 LARM_JOINT3:0.960985,0.000000,-0.196476,-0.194690 LLEG_JOINT2:0.998531,0.041425,0.000000,0.034928 LLEG_JOINT4:0.996554,0.079229,0.000000,-0.024538 RARM_JOINT2:0.786709,0.000000,-0.003613,0.617314 RARM_JOINT3:0.833534,0.000000,0.510032,0.212340 RLEG_JOINT2:0.998888,0.027050,0.000000,-0.038611 RLEG_JOINT4:0.995043,0.091073,0.000000,0.039941 WAIST:0.999639,0.000000,-0.026815,0.001791 WAIST_JOINT0:0.999032,0.000000,-0.043335,0.007530 WAIST_JOINT1:0.997628,0.067702,0.000000,-0.012433 END:
KINECT_DATA_Sensor  AnkleLeft:0.077547,0.742444,-0.092938,-0.658882 AnkleRight:0.088233,0.683482,0.078332,0.720369 ElbowLeft:-0.033187,0.911294,-0.191389,-0.363060 ElbowRight:-0.017558,0.782043,0.146706,0.605456 FootLeft:0.000000,0.000000,0.000000,0.000000 FootRight:0.000000,0.000000,0.000000,0.000000 HandLeft:-0.121463,0.811817,0.008233,0.571079 HandRight:0.068724,-0.485114,0.529147,-0.692780 HandTipLeft:0.000000,0.000000,0.000000,0.000000 HandTipRight:0.000000,0.000000,0.000000,0.000000 Head:0.000000,0.000000,0.000000,0.000000 HipLeft:0.139652,-0.673596,0.702384,-0.182816 HipRight:-0.104953,0.681791,0.706482,-0.158206 KneeLeft:0.001962,0.725657,-0.055355,-0.685824 KneeRight:-0.005602,0.688159,0.045374,0.724118 Neck:0.042625,-0.012359,0.995363,-0.085337 ShoulderLeft:-0.007227,0.778956,-0.620119,0.092885 ShoulderRight:0.048450,0.785733,0.616179,-0.024492 SpineBase:0.026321,-0.006882,0.998800,-0.040719 SpineMid:0.034484,-0.007215,0.998552,-0.040662 SpineShoulder:0.042786,-0.009139,0.997103,-0.062221 ThumbLeft:0.000000,0.000000,0.000000,0.000000 ThumbRight:0.000000,0.000000,0.000000,0.000000 WristLeft:-0.128360,0.816728,-0.069185,0.558294 WristRight:-0.161337,0.426605,-0.391383,0.799248 END:
KINECT_DATA POSITION:17.351072,-1.428900,9.581984 HEAD_JOINT1:0.977740,0.163701,-0.000000,0.131251 LARM_JOINT2:0.832097,0.000000,-0.014674,-0.554435 LARM_JOINT3:0.961260,0.000000,-0.194067,-0.195746 LLEG_JOINT2:0.998593,0.041347,0.000000,0.033211 LLEG_JOINT4:0.996443,0.080458,0.000000,-0.025040 RARM_JOINT2:0.785310,0.000000,0.005739,0.619076 RARM_JOINT3:0.828964,0.000000,0.511844,0.225465 RLEG_JOINT2:0.998775,0.027916,0.000000,-0.040867 RLEG_JOINT4:0.994934,0.091311,0.000000,0.042061 WAIST:0.999704,0.000000,-0.024224,0.002323 WAIST_JOINT0:0.999208,0.000000,-0.038833,0.008677 WAIST_JOINT1:0.997730,0.066285,0.000000,-0.011877 END:
KINECT_DATA_Sensor  AnkleLeft:0.078117,0.728624,-0.093756,-0.673955 AnkleRight:0.089196,0.685922,0.078918,0.717862 ElbowLeft:-0.033093,0.909048,-0.190849,-0.368936 ElbowRight:-0.021846,0.790059,0.139111,0.596639 FootLeft:0.000000,0.000000,0.000000,0.000000 FootRight:0.000000,0.000000,0.000000,0.000000 HandLeft:-0.119296,0.776717,0.013253,0.618307 HandRight:0.426790,-0.351119,-0.291058,0.780929 HandTipLeft:0.000000,0.000000,0.000000,0.000000 HandTipRight:0.000000,0.000000,0.000000,0.000000 Head:0.000000,0.000000,0.000000,0.000000 HipLeft:0.138641,-0.673606,0.702971,-0.181289 HipRight:-0.107297,0.681905,0.705792,-0.159219 KneeLeft:0.002911,0.723852,-0.054481,-0.687795 KneeRight:-0.006272,0.690025,0.047213,0.722217 Neck:0.038139,-0.011089,0.995729,-0.083347 ShoulderLeft:-0.005410,0.778739,-0.621011,0.088782 ShoulderRight:0.044431,0.786611,0.615239,-0.027389 SpineBase:0.023738,-0.006045,0.998899,-0.040002 SpineMid:0.030952,-0.006334,0.998702,-0.039958 SpineShoulder:0.038279,-0.008193,0.997371,-0.060982 ThumbLeft:0.000000,0.000000,0.000000,0.000000 ThumbRight:0.000000,0.000000,0.000000,0.000000 WristLeft:-0.123274,0.784798,-0.078518,0.602271 WristRight:0.266952,-0.417529,-0.363791,0.788709 END:
KINECT_DATA POSITION:17.429302,-1.438499,9.602737 HEAD_JOINT1:0.978037,0.164593,-0.000000,0.127875 LARM_JOINT2:0.831189,0.000000,-0.014778,-0.555793 LARM_JOINT3:0.961577,0.000000,-0.196482,-0.191741 LLEG_JOINT2:0.998625,0.041130,0.000000,0.032493 LLEG_JOINT4:0.996718,0.077439,0.000000,-0.023571 RARM_JOINT2:0.785701,0.000000,0.011442,0.618500 RARM_JOINT3:0.828215,0.000000,0.509054,0.234358 RLEG_JOINT2:0.998709,0.029311,0.000000,-0.041497 RLEG_JOINT4:0.995131,0.088639,0.000000,0.043093 WAIST:0.999752,0.000000,-0.022135,0.002533 WAIST_JOINT0:0.999381,0.000000,-0.033765,0.009906 WAIST_JOINT1:0.997815,0.065056,0.000000,-0.011487 END:
KINECT_DATA_Sensor  AnkleLeft:0.078084,0.747575,-0.089691,-0.653445 AnkleRight:0.088653,0.688793,0.077630,0.715318 ElbowLeft:-0.033317,0.908535,-0.189490,-0.370874 ElbowRight:-0.025224,0.798670,0.136137,0.585625 FootLeft:0.000000,0.000000,0.000000,0.000000 FootRight:0.000000,0.000000,0.000000,0.000000 HandLeft:-0.129604,0.760649,-0.006093,0.636065 HandRight:0.424612,-0.319477,-0.291233,0.795501 HandTipLeft:0.000000,0.000000,0.000000,0.000000 HandTipRight:0.000000,0.000000,0.000000,0.000000 Head:0.000000,0.000000,0.000000,0.000000 HipLeft:0.137708,-0.673795,0.703296,-0.180034 HipRight:-0.109160,0.681844,0.705354,-0.160156 KneeLeft:0.003239,0.722403,-0.053966,-0.689355 KneeRight:-0.005650,0.691524,0.048466,0.720704 Neck:0.033048,-0.009964,0.996088,-0.081346 ShoulderLeft:-0.002670,0.778131,-0.622437,0.084129 ShoulderRight:0.040579,0.787265,0.614513,-0.030686 SpineBase:0.021664,-0.005533,0.998969,-0.039508 SpineMid:0.027363,-0.005759,0.998829,-0.039476 SpineShoulder:0.033135,-0.007697,0.997618,-0.060004 ThumbLeft:0.000000,0.000000,0.000000,0.000000 ThumbRight:0.000000,0.000000,0.000000,0.000000 WristLeft:-0.119679,0.769064,-0.082474,0.622427 WristRight:0.269760,-0.386375,-0.370644,0.800354 END:
KINECT_DATA POSITION:17.481264,-1.457076,9.576154 HEAD_JOINT1:0.978611,0.163199,-0.000000,0.125246 LARM_JOINT2:0.831352,0.000000,-0.013823,-0.555574 LARM_JOINT3:0.961279,0.000000,-0.195378,-0.194345 LLEG_JOINT2:0.998637,0.040819,0.000000,0.032531 LLEG_JOINT4:0.996674,0.077724,0.000000,-0.024477 RARM_JOINT2:0.785923,0.000000,0.011200,0.618223 RARM_JOINT3:0.820602,0.000000,0.518175,0.241056 RLEG_JOINT2:0.998674,0.030491,0.000000,-0.041472 RLEG_JOINT4:0.995103,0.089544,0.000000,0.041847 WAIST:0.999805,0.000000,-0.019595,0.002582 WAIST_JOINT0:0.999468,0.000000,-0.030951,0.010260 WAIST_JOINT1:0.997854,0.064576,0.000000,-0.010799 END:
KINECT_DATA_Sensor  AnkleLeft:0.075992,0.724718,-0.091331,-0.678725 AnkleRight:0.089152,0.690409,0.080128,0.713419 ElbowLeft:-0.032670,0.907970,-0.190684,-0.371702 ElbowRight:-0.024488,0.804956,0.135802,0.577065 FootLeft:0.000000,0.000000,0.000000,0.000000 FootRight:0.000000,0.000000,0.000000,0.000000 HandLeft:-0.127930,0.807395,0.007690,0.575923 HandRight:0.409919,-0.252028,-0.337926,0.808860 HandTipLeft:0.000000,0.000000,0.000000,0.000000 HandTipRight:0.000000,0.000000,0.000000,0.000000 Head:0.000000,0.000000,0.000000,0.000000 HipLeft:0.135678,-0.674182,0.703753,-0.178329 HipRight:-0.110284,0.681670,0.705144,-0.161045 KneeLeft:0.003093,0.720646,-0.053790,-0.691207 KneeRight:-0.004873,0.693347,0.049212,0.718905 Neck:0.030267,-0.009108,0.996240,-0.080668 ShoulderLeft:-0.001050,0.777899,-0.623068,0.081601 ShoulderRight:0.038580,0.787337,0.614452,-0.032563 SpineBase:0.019141,-0.005165,0.999023,-0.039499 SpineMid:0.024700,-0.005385,0.998901,-0.039469 SpineShoulder:0.030329,-0.007199,0.997739,-0.059550 ThumbLeft:0.000000,0.000000,0.000000,0.000000 ThumbRight:0.000000,0.000000,0.000000,0.000000 WristLeft:-0.125240,0.814374,-0.073374,0.561895 WristRight:0.256758,-0.322573,-0.389796,0.823457 END:
KINECT_DATA POSITION:17.481836,-1.454306,9.523499 HEAD_JOINT1:0.978818,0.162261,-0.000000,0.124846 LARM_JOINT2:0.831640,0.000000,-0.014950,-0.555114 LARM_JOINT3:0.960689,0.000000,-0.197359,-0.195260 LLEG_JOINT2:0.998589,0.041527,0.000000,0.033099 LLEG_JOINT4:0.996705,0.077463,0.000000,-0.024066 RARM_JOINT2:0.786261,0.000000,0.009702,0.617819 RARM_JOINT3:0.814233,0.000000,0.523891,0.250123 RLEG_JOINT2:0.998656,0.031016,0.000000,-0.041528 RLEG_JOINT4:0.995045,0.089908,0.000000,0.042453 WAIST:0.999835,0.000000,-0.017948,0.002628 WAIST_JOINT0:0.999492,0.000000,-0.030196,0.010191 WAIST_JOINT1:0.997870,0.064402,0.000000,-0.010355 END:
KINECT_DATA_Sensor  AnkleLeft:0.075841,0.724365,-0.092147,-0.679008 AnkleRight:0.089984,0.690714,0.080543,0.712972 ElbowLeft:-0.033076,0.908662,-0.191282,-0.369663 ElbowRight:-0.023496,0.807612,0.136438,0.573233 FootLeft:0.000000,0.000000,0.000000,0.000000 FootRight:0.000000,0.000000,0.000000,0.000000 HandLeft:-0.136718,0.871676,0.018705,0.470255 HandRight:0.452737,-0.325391,-0.289315,0.778104 HandTipLeft:0.000000,0.000000,0.000000,0.000000 HandTipRight:0.000000,0.000000,0.000000,0.000000 Head:0.000000,0.000000,0.000000,0.000000 HipLeft:0.134653,-0.674316,0.704010,-0.177583 HipRight:-0.111136,0.681457,0.704986,-0.162051 KneeLeft:0.003233,0.719506,-0.054718,-0.692320 KneeRight:-0.004584,0.694533,0.049573,0.717737 Neck:0.029553,-0.008534,0.996288,-0.080403 ShoulderLeft:-0.000678,0.777937,-0.623112,0.080902 ShoulderRight:0.037985,0.787307,0.614502,-0.033050 SpineBase:0.017494,-0.005117,0.999047,-0.039669 SpineMid:0.023497,-0.005355,0.998923,-0.039637 SpineShoulder:0.029591,-0.006956,0.997773,-0.059369 ThumbLeft:0.000000,0.000000,0.000000,0.000000 ThumbRight:0.000000,0.000000,0.000000,0.000000 WristLeft:-0.133176,0.877289,-0.057211,0.457553 WristRight:0.304039,-0.395173,-0.366635,0.785479 END:
KINECT_DATA POSITION:17.445215,-1.446566,9.392870 HEAD_JOINT1:0.978742,0.163529,-0.000000,0.123785 LARM_JOINT2:0.831746,0.000000,-0.016655,-0.554906 LARM_JOINT3:0.960691,0.000000,-0.191864,-0.200652 LLEG_JOINT2:0.998623,0.039716,0.000000,0.034280 LLEG_JOINT4:0.996601,0.078455,0.000000,-0.025113 RARM_JOINT2:0.784386,0.000000,0.013893,0.620117 RARM_JOINT3:0.810353,0.000000,0.531474,0.246707 RLEG_JOINT2:0.998695,0.030613,0.000000,-0.040874 RLEG_JOINT4:0.995365,0.086867,0.000000,0.041270 WAIST:0.999868,0.000000,-0.016082,0.002420 WAIST_JOINT0:0.999425,0.000000,-0.032599,0.009321 WAIST_JOINT1:0.997898,0.064063,0.000000,-0.009743 END:
KINECT_DATA_Sensor  AnkleLeft:0.075824,0.725633,-0.091085,-0.677799 AnkleRight:0.086543,0.689864,0.079198,0.714370 ElbowLeft:-0.033872,0.909332,-0.191259,-0.367951 ElbowRight:-0.024894,0.808876,0.131560,0.572531 FootLeft:0.000000,0.000000,0.000000,0.000000 FootRight:0.000000,0.000000,0.000000,0.000000 HandLeft:-0.132900,0.691966,0.001938,0.709589 HandRight:0.466678,-0.326852,-0.297094,0.766234 HandTipLeft:0.000000,0.000000,0.000000,0.000000 HandTipRight:0.000000,0.000000,0.000000,0.000000 Head:0.000000,0.000000,0.000000,0.000000 HipLeft:0.133798,-0.674648,0.704070,-0.176730 HipRight:-0.112449,0.681013,0.704922,-0.163283 KneeLeft:0.001367,0.718219,-0.054084,-0.693711 KneeRight:-0.004664,0.695862,0.048957,0.716490 Neck:0.032051,-0.008322,0.996246,-0.079987 ShoulderLeft:-0.001306,0.777412,-0.623667,0.081663 ShoulderRight:0.040550,0.785692,0.616552,-0.030137 SpineBase:0.015645,-0.005240,0.999077,-0.039649 SpineMid:0.023790,-0.005563,0.998917,-0.039605 SpineShoulder:0.032070,-0.007020,0.997719,-0.058983 ThumbLeft:0.000000,0.000000,0.000000,0.000000 ThumbRight:0.000000,0.000000,0.000000,0.000000 WristLeft:-0.111488,0.708130,-0.093142,0.690975 WristRight:0.314251,-0.399426,-0.367051,0.779088 END:
KINECT_DATA POSITION:17.437647,-1.450096,9.317684 HEAD_JOINT1:0.978589,0.164575,-0.000000,0.123608 LARM_JOINT2:0.831087,0.000000,-0.015223,-0.555934 LARM_JOINT3:0.961107,0.000000,-0.189718,-0.200700 LLEG_JOINT2:0.998618,0.039246,0.000000,0.034946 LLEG_JOINT4:0.996690,0.076869,0.000000,-0.026467 RARM_JOINT2:0.784032,0.000000,0.014670,0.620547 RARM_JOINT3:0.811230,0.000000,0.529201,0.248703 RLEG_JOINT2:0.998720,0.030008,0.000000,-0.040708 RLEG_JOINT4:0.995158,0.089034,0.000000,0.041639 WAIST:0.999870,0.000000,-0.015999,0.002066 WAIST_JOINT0:0.999446,0.000000,-0.031968,0.009211 WAIST_JOINT1:0.997939,0.063505,0.000000,-0.009175 END:
KINECT_DATA_Sensor  AnkleLeft:0.075047,0.725367,-0.088943,-0.678453 AnkleRight:0.087823,0.690044,0.080102,0.713940 ElbowLeft:-0.033122,0.908835,-0.190635,-0.369569 ElbowRight:-0.025192,0.810059,0.130316,0.571128 FootLeft:0.000000,0.000000,0.000000,0.000000 FootRight:0.000000,0.000000,0.000000,0.000000 HandLeft:-0.123941,0.688299,0.007955,0.714717 HandRight:0.454438,-0.302656,-0.299225,0.782528 HandTipLeft:0.000000,0.000000,0.000000,0.000000 HandTipRight:0.000000,0.000000,0.000000,0.000000 Head:0.000000,0.000000,0.000000,0.000000 HipLeft:0.134074,-0.674909,0.703803,-0.176586 HipRight:-0.112879,0.680803,0.705096,-0.163110 KneeLeft:0.000817,0.718183,-0.053962,-0.693759 KneeRight:-0.005239,0.695898,0.048667,0.716471 Neck:0.031462,-0.007922,0.996313,-0.079416 ShoulderLeft:-0.001816,0.777046,-0.624176,0.081245 ShoulderRight:0.039263,0.785411,0.616965,-0.030703 SpineBase:0.015594,-0.005240,0.999094,-0.039255 SpineMid:0.023461,-0.005549,0.998940,-0.039213 SpineShoulder:0.031467,-0.006825,0.997772,-0.058426 ThumbLeft:0.000000,0.000000,0.000000,0.000000 ThumbRight:0.000000,0.000000,0.000000,0.000000 WristLeft:-0.110549,0.694196,-0.095039,0.704868 WristRight:0.308140,-0.373870,-0.378046,0.788893 END:
KINECT_DATA POSITION:17.422762,-1.451792,9.252357 HEAD_JOINT1:0.978454,0.165492,-0.000000,0.123455 LARM_JOINT2:0.830676,0.000000,-0.014810,-0.556560 LARM_JOINT3:0.961421,0.000000,-0.189313,-0.199574 LLEG_JOINT2:0.998680,0.038134,0.000000,0.034403 LLEG_JOINT4:0.996565,0.079314,0.000000,-0.023843 RARM_JOINT2:0.782787,0.000000,0.016123,0.622081 RARM_JOINT3:0.817571,0.000000,0.522196,0.242670 RLEG_JOINT2:0.998681,0.030532,0.000000,-0.041290 RLEG_JOINT4:0.995165,0.087868,0.000000,0.043882 WAIST:0.999875,0.000000,-0.015654,0.002378 WAIST_JOINT0:0.999469,0.000000,-0.031179,0.009496 WAIST_JOINT1:0.997953,0.063238,0.000000,-0.009511 END:
KINECT_DATA_Sensor  AnkleLeft:0.077511,0.748331,-0.088894,-0.652756 AnkleRight:0.088695,0.690260,0.078274,0.713826 ElbowLeft:-0.033018,0.908058,-0.189950,-0.371832 ElbowRight:-0.025494,0.809505,0.127877,0.572450 FootLeft:0.000000,0.000000,0.000000,0.000000 FootRight:0.000000,0.000000,0.000000,0.000000 HandLeft:-0.119378,0.767284,0.022230,0.629706 HandRight:0.516810,-0.658137,-0.040389,0.546015 HandTipLeft:0.000000,0.000000,0.000000,0.000000 HandTipRight:0.000000,0.000000,0.000000,0.000000 Head:0.000000,0.000000,0.000000,0.000000 HipLeft:0.134206,-0.674761,0.703994,-0.176290 HipRight:-0.113295,0.680939,0.704838,-0.163374 KneeLeft:0.000224,0.717921,-0.053006,-0.694103 KneeRight:-0.005062,0.696159,0.049226,0.716180 Neck:0.030666,-0.007876,0.996359,-0.079162 ShoulderLeft:-0.001757,0.776637,-0.624758,0.080680 ShoulderRight:0.038311,0.785381,0.617030,-0.031367 SpineBase:0.015222,-0.005366,0.999107,-0.039043 SpineMid:0.022870,-0.005665,0.998961,-0.039000 SpineShoulder:0.030661,-0.006864,0.997813,-0.058162 ThumbLeft:0.000000,0.000000,0.000000,0.000000 ThumbRight:0.000000,0.000000,0.000000,0.000000 WristLeft:-0.121780,0.777936,-0.080827,0.611107 WristRight:-0.462195,0.734119,0.158859,-0.471391 END:
KINECT_DATA POSITION:17.427792,-1.453496,9.201503 HEAD_JOINT1:0.978009,0.167523,-0.000000,0.124232 LARM_JOINT2:0.830343,0.000000,-0.014503,-0.557064 LARM_JOINT3:0.961288,0.000000,-0.190318,-0.199259 LLEG_JOINT2:0.998663,0.038651,0.000000,0.034331 LLEG_JOINT4:0.996822,0.076757,0.000000,-0.021293 RARM_JOINT2:0.781925,0.000000,0.015819,0.623172 RARM_JOINT3:0.819997,0.000000,0.519590,0.240063 RLEG_JOINT2:0.998667,0.030480,0.000000,-0.041658 RLEG_JOINT4:0.995394,0.085973,0.000000,0.042427 WAIST:0.999887,0.000000,-0.014833,0.002300 WAIST_JOINT0:0.999476,0.000000,-0.031015,0.009287 WAIST_JOINT1:0.997966,0.063063,0.000000,-0.009352 END:
KINECT_DATA_Sensor  AnkleLeft:0.076213,0.760874,-0.087732,-0.638409 AnkleRight:0.088575,0.715390,0.075346,0.688981 ElbowLeft:-0.032496,0.907941,-0.189571,-0.372357 ElbowRight:-0.024831,0.809525,0.126679,0.572718 FootLeft:0.000000,0.000000,0.000000,0.000000 FootRight:0.000000,0.000000,0.000000,0.000000 HandLeft:-0.122563,0.770249,0.019017,0.625566 HandRight:0.506456,-0.641002,-0.060212,0.573580 HandTipLeft:0.000000,0.000000,0.000000,0.000000 HandTipRight:0.000000,0.000000,0.000000,0.000000 Head:0.000000,0.000000,0.000000,0.000000 HipLeft:0.133808,-0.674953,0.704021,-0.175752 HipRight:-0.113854,0.680807,0.704789,-0.163741 KneeLeft:0.000736,0.717360,-0.053269,-0.694662 KneeRight:-0.005452,0.696739,0.049504,0.715594 Neck:0.030532,-0.007843,0.996378,-0.078973 ShoulderLeft:-0.001795,0.776903,-0.624460,0.080430 ShoulderRight:0.038079,0.785373,0.617054,-0.031359 SpineBase:0.014410,-0.005405,0.999124,-0.038906 SpineMid:0.022390,-0.005716,0.998977,-0.038862 SpineShoulder:0.030521,-0.006892,0.997828,-0.057973 ThumbLeft:0.000000,0.000000,0.000000,0.000000 ThumbRight:0.000000,0.000000,0.000000,0.000000 WristLeft:-0.122205,0.780624,-0.079889,0.607709 WristRight:-0.455003,0.714915,0.176835,-0.500598 END:
KINECT_DATA POSITION:17.436752,-1.450866,9.161985 HEAD_JOINT1:0.977775,0.168600,-0.000000,0.124617 LARM_JOINT2:0.830070,0.000000,-0.014535,-0.557469 LARM_JOINT3:0.960963,0.000000,-0.192202,-0.199020 LLEG_JOINT2:0.998682,0.038119,0.000000,0.034372 LLEG_JOINT4:0.996674,0.078180,0.000000,-0.023016 RARM_JOINT2:0.781456,0.000000,0.016309,0.623748 RARM_JOINT3:0.820057,0.000000,0.519756,0.239501 RLEG_JOINT2:0.998682,0.029861,0.000000,-0.041741 RLEG_JOINT4:0.995232,0.086794,0.000000,0.044504 WAIST:0.999888,0.000000,-0.014745,0.002371 WAIST_JOINT0:0.999482,0.000000,-0.030843,0.009200 WAIST_JOINT1:0.997957,0.063180,0.000000,-0.009479 END:
KINECT_DATA_Sensor  AnkleLeft:0.077453,0.757018,-0.087548,-0.642853 AnkleRight:0.089106,0.706106,0.075147,0.698446 ElbowLeft:-0.032266,0.907790,-0.189112,-0.372979 ElbowRight:-0.024457,0.810587,0.126003,0.571379 FootLeft:0.000000,0.000000,0.000000,0.000000 FootRight:0.000000,0.000000,0.000000,0.000000 HandLeft:-0.129654,0.776857,0.016908,0.615953 HandRight:-0.091920,0.603432,-0.505661,0.609695 HandTipLeft:0.000000,0.000000,0.000000,0.000000 HandTipRight:0.000000,0.000000,0.000000,0.000000 Head:0.000000,0.000000,0.000000,0.000000 HipLeft:0.133740,-0.674924,0.704050,-0.175798 HipRight:-0.113824,0.680843,0.704715,-0.163931 KneeLeft:0.000287,0.717291,-0.052967,-0.694757 KneeRight:-0.005909,0.696808,0.049082,0.715552 Neck:0.030370,-0.007892,0.996373,-0.079099 ShoulderLeft:-0.001533,0.776869,-0.624515,0.080329 ShoulderRight:0.038138,0.785202,0.617259,-0.031528 SpineBase:0.014313,-0.005471,0.999121,-0.039031 SpineMid:0.022259,-0.005781,0.998975,-0.038986 SpineShoulder:0.030358,-0.006952,0.997826,-0.058089 ThumbLeft:0.000000,0.000000,0.000000,0.000000 ThumbRight:0.000000,0.000000,0.000000,0.000000 WristLeft:-0.123041,0.787712,-0.078356,0.598525 WristRight:-0.199250,0.539439,-0.443877,0.687225 END:
KINECT_DATA POSITION:17.454477,-1.461118,9.182894 HEAD_JOINT1:0.977535,0.169652,-0.000000,0.125072 LARM_JOINT2:0.830002,0.000000,-0.014397,-0.557574 LARM_JOINT3:0.961093,0.000000,-0.194835,-0.195806 LLEG_JOINT2:0.998695,0.037845,0.000000,0.034304 LLEG_JOINT4:0.996664,0.077865,0.000000,-0.024447 RARM_JOINT2:0.781452,0.000000,0.016258,0.623753 RARM_JOINT3:0.819667,0.000000,0.520862,0.238431 RLEG_JOINT2:0.998691,0.029390,0.000000,-0.041852 RLEG_JOINT4:0.995237,0.087212,0.000000,0.043558 WAIST:0.999892,0.000000,-0.014484,0.002601 WAIST_JOINT0:0.999484,0.000000,-0.030817,0.009061 WAIST_JOINT1:0.997959,0.063116,0.000000,-0.009706 END:
KINECT_DATA_Sensor  AnkleLeft:0.073641,0.724993,-0.089845,-0.678889 AnkleRight:0.086798,0.690760,0.077680,0.713640 ElbowLeft:-0.032126,0.907669,-0.189037,-0.373322 ElbowRight:-0.024466,0.810919,0.125986,0.570911 FootLeft:0.000000,0.000000,0.000000,0.000000 FootRight:0.000000,0.000000,0.000000,0.000000 HandLeft:-0.132326,0.740693,-0.004866,0.658665 HandRight:0.427592,-0.325512,-0.287327,0.792875 HandTipLeft:0.000000,0.000000,0.000000,0.000000 HandTipRight:0.000000,0.000000,0.000000,0.000000 Head:0.000000,0.000000,0.000000,0.000000 HipLeft:0.133842,-0.674803,0.704182,-0.175657 HipRight:-0.114207,0.680934,0.704506,-0.164187 KneeLeft:-0.000004,0.717097,-0.052885,-0.694964 KneeRight:-0.006177,0.697008,0.048669,0.715383 Neck:0.030376,-0.007918,0.996377,-0.079045 ShoulderLeft:-0.001665,0.777063,-0.624272,0.080337 ShoulderRight:0.038002,0.785172,0.617305,-0.031548 SpineBase:0.014035,-0.005485,0.999130,-0.038898 SpineMid:0.022121,-0.005799,0.998983,-0.038852 SpineShoulder:0.030362,-0.006987,0.997829,-0.058018 ThumbLeft:0.000000,0.000000,0.000000,0.000000 ThumbRight:0.000000,0.000000,0.000000,0.000000 WristLeft:-0.118181,0.751107,-0.085457,0.643870 WristRight:0.313943,-0.384510,-0.372118,0.784296 END:
KINECT_DATA POSITION:17.464045,-1.467776,9.195435 HEAD_JOINT1:0.977324,0.170383,-0.000000,0.125725 LARM_JOINT2:0.830157,0.000000,-0.014486,-0.557341 LARM_JOINT3:0.960848,0.000000,-0.197406,-0.194427 LLEG_JOINT2:0.998685,0.037893,0.000000,0.034535 LLEG_JOINT4:0.996684,0.077252,0.000000,-0.025560 RARM_JOINT2:0.781602,0.000000,0.017877,0.623521 RARM_JOINT3:0.817516,0.000000,0.522351,0.242522 RLEG_JOINT2:0.998683,0.029466,0.000000,-0.042009 RLEG_JOINT4:0.995256,0.087063,0.000000,0.043433 WAIST:0.999897,0.000000,-0.014110,0.002683 WAIST_JOINT0:0.999471,0.000000,-0.031331,0.008718 WAIST_JOINT1:0.997929,0.063563,0.000000,-0.009840 END:
KINECT_DATA_Sensor  AnkleLeft:0.073891,0.725209,-0.088804,-0.678768 AnkleRight:0.086521,0.690520,0.077868,0.713886 ElbowLeft:-0.031717,0.907715,-0.189412,-0.373057 ElbowRight:-0.025151,0.812156,0.125794,0.569163 FootLeft:0.000000,0.000000,0.000000,0.000000 FootRight:0.000000,0.000000,0.000000,0.000000 HandLeft:-0.138033,0.733557,-0.016889,0.665249 HandRight:0.086983,0.366499,-0.517520,0.768301 HandTipLeft:0.000000,0.000000,0.000000,0.000000 HandTipRight:0.000000,0.000000,0.000000,0.000000 Head:0.000000,0.000000,0.000000,0.000000 HipLeft:0.133606,-0.674737,0.704288,-0.175665 HipRight:-0.114377,0.680867,0.704429,-0.164673 KneeLeft:-0.000174,0.716829,-0.053138,-0.695221 KneeRight:-0.006192,0.697283,0.048775,0.715108 Neck:0.030904,-0.008046,0.996317,-0.079579 ShoulderLeft:-0.001789,0.777152,-0.624068,0.081064 ShoulderRight:0.038562,0.784935,0.617575,-0.031477 SpineBase:0.013651,-0.005528,0.999126,-0.039127 SpineMid:0.022190,-0.005862,0.998973,-0.039078 SpineShoulder:0.030888,-0.007123,0.997788,-0.058425 ThumbLeft:0.000000,0.000000,0.000000,0.000000 ThumbRight:0.000000,0.000000,0.000000,0.000000 WristLeft:-0.116564,0.743683,-0.086564,0.652576 WristRight:-0.042692,0.288706,-0.485584,0.824035 END:
KINECT_DATA POSITION:17.495342,-1.476531,9.204078 HEAD_JOINT1:0.977574,0.169408,-0.000000,0.125098 LARM_JOINT2:0.830760,0.000000,-0.015681,-0.556410 LARM_JOINT3:0.960292,0.000000,-0.200161,-0.194359 LLEG_JOINT2:0.998699,0.037785,0.000000,0.034245 LLEG_JOINT4:0.996613,0.077988,0.000000,-0.026096 RARM_JOINT2:0.782059,0.000000,0.019432,0.622901 RARM_JOINT3:0.820473,0.000000,0.516371,0.245325 RLEG_JOINT2:0.998667,0.030850,0.000000,-0.041372 RLEG_JOINT4:0.995383,0.086532,0.000000,0.041530 WAIST:0.999897,0.000000,-0.014078,0.002848 WAIST_JOINT0:0.999441,0.000000,-0.032297,0.008644 WAIST_JOINT1:0.997874,0.064458,0.000000,-0.009600 END:
KINECT_DATA_Sensor  AnkleLeft:0.074866,0.725570,-0.088718,-0.678287 AnkleRight:0.088948,0.713895,0.076346,0.690372 ElbowLeft:-0.031456,0.909482,-0.190835,-0.368016 ElbowRight:-0.025149,0.814379,0.125961,0.565941 FootLeft:0.000000,0.000000,0.000000,0.000000 FootRight:0.000000,0.000000,0.000000,0.000000 HandLeft:-0.147721,0.783157,-0.020393,0.603679 HandRight:0.486901,-0.508006,-0.155842,0.693232 HandTipLeft:0.000000,0.000000,0.000000,0.000000 HandTipRight:0.000000,0.000000,0.000000,0.000000 Head:0.000000,0.000000,0.000000,0.000000 HipLeft:0.133382,-0.674493,0.704463,-0.176069 HipRight:-0.114324,0.680871,0.704357,-0.165004 KneeLeft:-0.000158,0.716793,-0.052974,-0.695271 KneeRight:-0.004639,0.697318,0.049164,0.715059 Neck:0.031828,-0.007562,0.996202,-0.080689 ShoulderLeft:-0.001936,0.776624,-0.624542,0.082455 ShoulderRight:0.039610,0.784685,0.617829,-0.031443 SpineBase:0.013613,-0.005222,0.999112,-0.039542 SpineMid:0.022628,-0.005578,0.998948,-0.039494 SpineShoulder:0.031805,-0.006832,0.997713,-0.059245 ThumbLeft:0.000000,0.000000,0.000000,0.000000 ThumbRight:0.000000,0.000000,0.000000,0.000000 WristLeft:-0.122080,0.791498,-0.075787,0.594040 WristRight:0.398041,-0.563893,-0.279571,0.667404 END:
KINECT_DATA POSITION:17.530876,-1.469453,9.219254 HEAD_JOINT1:0.977933,0.167221,-0.000000,0.125234 LARM_JOINT2:0.831608,0.000000,-0.019135,-0.555034 LARM_JOINT3:0.961096,0.000000,-0.197055,-0.193555 LLEG_JOINT2:0.998731,0.037268,0.000000,0.033874 LLEG_JOINT4:0.996370,0.082096,0.000000,-0.022515 RARM_JOINT2:0.782481,0.000000,0.020348,0.622342 RARM_JOINT3:0.819407,0.000000,0.519685,0.241866 RLEG_JOINT2:0.998682,0.030115,0.000000,-0.041568 RLEG_JOINT4:0.995611,0.083819,0.000000,0.041628 WAIST:0.999892,0.000000,-0.014406,0.002960 WAIST_JOINT0:0.999440,0.000000,-0.032260,0.008933 WAIST_JOINT1:0.997808,0.065512,0.000000,-0.009353 END:
KINECT_DATA_Sensor  AnkleLeft:0.078970,0.753483,-0.090352,-0.646424 AnkleRight:0.086519,0.714847,0.073908,0.689961 ElbowLeft:-0.033104,0.911236,-0.191873,-0.362957 ElbowRight:-0.024871,0.814894,0.126429,0.565106 FootLeft:0.000000,0.000000,0.000000,0.000000 FootRight:0.000000,0.000000,0.000000,0.000000 HandLeft:-0.141510,0.792006,-0.018461,0.593599 HandRight:0.429024,-0.312256,-0.288077,0.797148 HandTipLeft:0.000000,0.000000,0.000000,0.000000 HandTipRight:0.000000,0.000000,0.000000,0.000000 Head:0.000000,0.000000,0.000000,0.000000 HipLeft:0.133133,-0.674211,0.704597,-0.176799 HipRight:-0.113769,0.680864,0.704393,-0.165263 KneeLeft:-0.000352,0.717004,-0.052425,-0.695095 KneeRight:-0.005208,0.697096,0.048716,0.715301 Neck:0.031680,-0.007085,0.996118,-0.081830 ShoulderLeft:-0.000576,0.775995,-0.625298,0.082670 ShoulderRight:0.040803,0.784655,0.617768,-0.031853 SpineBase:0.013932,-0.004989,0.999080,-0.040259 SpineMid:0.022714,-0.005342,0.998919,-0.040214 SpineShoulder:0.031658,-0.006449,0.997658,-0.060283 ThumbLeft:0.000000,0.000000,0.000000,0.000000 ThumbRight:0.000000,0.000000,0.000000,0.000000 WristLeft:-0.121308,0.799172,-0.074456,0.584007 WristRight:0.312797,-0.372370,-0.372060,0.790613 END:
KINECT_DATA POSITION:17.544226,-1.471854,9.251225 HEAD_JOINT1:0.978130,0.165845,-0.000000,0.125529 LARM_JOINT2:0.831870,0.000000,-0.020686,-0.554584 LARM_JOINT3:0.960625,0.000000,-0.194203,-0.198706 LLEG_JOINT2:0.998736,0.037462,0.000000,0.033498 LLEG_JOINT4:0.996458,0.080234,0.000000,-0.025173 RARM_JOINT2:0.780762,0.000000,0.024194,0.624360 RARM_JOINT3:0.821575,0.000000,0.517772,0.238592 RLEG_JOINT2:0.998665,0.030130,0.000000,-0.041947 RLEG_JOINT4:0.995543,0.084751,0.000000,0.041370 WAIST:0.999883,0.000000,-0.014985,0.003102 WAIST_JOINT0:0.999395,0.000000,-0.033609,0.008994 WAIST_JOINT1:0.997783,0.065877,0.000000,-0.009454 END:
KINECT_DATA_Sensor  AnkleLeft:0.075881,0.726157,-0.090418,-0.677320 AnkleRight:0.084246,0.689585,0.077873,0.715060 ElbowLeft:-0.034156,0.911705,-0.191945,-0.361641 ElbowRight:-0.025291,0.815526,0.122731,0.564991 FootLeft:0.000000,0.000000,0.000000,0.000000 FootRight:0.000000,0.000000,0.000000,0.000000 HandLeft:-0.144447,0.776054,0.000988,0.613901 HandRight:-0.471400,0.841780,-0.207726,-0.161362 HandTipLeft:0.000000,0.000000,0.000000,0.000000 HandTipRight:0.000000,0.000000,0.000000,0.000000 Head:0.000000,0.000000,0.000000,0.000000 HipLeft:0.133222,-0.673923,0.704698,-0.177428 HipRight:-0.113160,0.680934,0.704432,-0.165224 KneeLeft:-0.000077,0.717393,-0.052403,-0.694695 KneeRight:-0.005331,0.696695,0.048903,0.715679 Neck:0.033000,-0.007109,0.996049,-0.082141 ShoulderLeft:-0.000080,0.775706,-0.625594,0.083140 ShoulderRight:0.043021,0.784257,0.618202,-0.030281 SpineBase:0.014494,-0.004905,0.999054,-0.040711 SpineMid:0.023660,-0.005278,0.998879,-0.040664 SpineShoulder:0.032988,-0.006406,0.997592,-0.060669 ThumbLeft:0.000000,0.000000,0.000000,0.000000 ThumbRight:0.000000,0.000000,0.000000,0.000000 WristLeft:-0.119356,0.787632,-0.077375,0.599502 WristRight:-0.480107,0.869245,-0.076832,-0.089482 END:
KINECT_DATA POSITION:17.544777,-1.473179,9.251809 HEAD_JOINT1:0.978002,0.166165,-0.000000,0.126102 LARM_JOINT2:0.831906,0.000000,-0.020178,-0.554550 LARM_JOINT3:0.960951,0.000000,-0.190471,-0.200733 LLEG_JOINT2:0.998720,0.037877,0.000000,0.033528 LLEG_JOINT4:0.996448,0.080560,0.000000,-0.024536 RARM_JOINT2:0.780939,0.000000,0.023299,0.624172 RARM_JOINT3:0.823002,0.000000,0.514964,0.239751 RLEG_JOINT2:0.998650,0.030436,0.000000,-0.042082 RLEG_JOINT4:0.995428,0.084996,0.000000,0.043568 WAIST:0.999883,0.000000,-0.014994,0.003103 WAIST_JOINT0:0.999396,0.000000,-0.033597,0.008920 WAIST_JOINT1:0.997775,0.066004,0.000000,-0.009428 END:
KINECT_DATA_Sensor  AnkleLeft:0.075949,0.726165,-0.091404,-0.677171 AnkleRight:0.086674,0.695047,0.076089,0.709654 ElbowLeft:-0.033697,0.911661,-0.192247,-0.361635 ElbowRight:-0.024807,0.815186,0.123382,0.565361 FootLeft:0.000000,0.000000,0.000000,0.000000 FootRight:0.000000,0.000000,0.000000,0.000000 HandLeft:-0.133953,0.641981,-0.011254,0.754845 HandRight:0.490300,-0.546381,-0.133250,0.665821 HandTipLeft:0.000000,0.000000,0.000000,0.000000 HandTipRight:0.000000,0.000000,0.000000,0.000000 Head:0.000000,0.000000,0.000000,0.000000 HipLeft:0.133142,-0.673898,0.704704,-0.177561 HipRight:-0.113045,0.680924,0.704438,-0.165322 KneeLeft:0.000191,0.717401,-0.052723,-0.694662 KneeRight:-0.005202,0.696689,0.049212,0.715665 Neck:0.033011,-0.007086,0.996041,-0.082234 ShoulderLeft:-0.000284,0.775820,-0.625410,0.083462 ShoulderRight:0.042826,0.784284,0.618165,-0.030589 SpineBase:0.014503,-0.004898,0.999047,-0.040877 SpineMid:0.023670,-0.005273,0.998872,-0.040830 SpineShoulder:0.033000,-0.006378,0.997584,-0.060807 ThumbLeft:0.000000,0.000000,0.000000,0.000000 ThumbRight:0.000000,0.000000,0.000000,0.000000 WristLeft:-0.101045,0.647641,-0.099939,0.748574 WristRight:0.412216,-0.599212,-0.256091,0.636742 END:
KINECT_DATA POSITION:17.537951,-1.471651,9.258425 HEAD_JOINT1:0.977974,0.166380,-0.000000,0.126030 LARM_JOINT2:0.831517,0.000000,-0.019056,-0.555172 LARM_JOINT3:0.960481,0.000000,-0.191600,-0.201905 LLEG_JOINT2:0.998719,0.037935,0.000000,0.033485 LLEG_JOINT4:0.996500,0.079447,0.000000,-0.026015 RARM_JOINT2:0.781387,0.000000,0.022127,0.623655 RARM_JOINT3:0.821429,0.000000,0.517245,0.240232 RLEG_JOINT2:0.998620,0.030595,0.000000,-0.042692 RLEG_JOINT4:0.995385,0.085635,0.000000,0.043304 WAIST:0.999883,0.000000,-0.014965,0.003153 WAIST_JOINT0:0.999399,0.000000,-0.033534,0.008813 WAIST_JOINT1:0.997779,0.065953,0.000000,-0.009354 END:
KINECT_DATA_Sensor  AnkleLeft:0.076204,0.726040,-0.089640,-0.677513 AnkleRight:0.086071,0.689354,0.077914,0.715061 ElbowLeft:-0.033186,0.910618,-0.192010,-0.364424 ElbowRight:-0.024422,0.815130,0.124340,0.565249 FootLeft:0.000000,0.000000,0.000000,0.000000 FootRight:0.000000,0.000000,0.000000,0.000000 HandLeft:-0.138528,0.766211,0.017140,0.627245 HandRight:0.303871,-0.021699,-0.413243,0.858150 HandTipLeft:0.000000,0.000000,0.000000,0.000000 HandTipRight:0.000000,0.000000,0.000000,0.000000 Head:0.000000,0.000000,0.000000,0.000000 HipLeft:0.133146,-0.673843,0.704742,-0.177614 HipRight:-0.113108,0.680936,0.704401,-0.165383 KneeLeft:0.000228,0.717378,-0.052770,-0.694683 KneeRight:-0.005477,0.696709,0.049726,0.715608 Neck:0.032960,-0.006956,0.996050,-0.082153 ShoulderLeft:-0.000336,0.775849,-0.625376,0.083446 ShoulderRight:0.042699,0.784229,0.618240,-0.030673 SpineBase:0.014471,-0.004828,0.999047,-0.040901 SpineMid:0.023629,-0.005203,0.998872,-0.040855 SpineShoulder:0.032951,-0.006256,0.997588,-0.060769 ThumbLeft:0.000000,0.000000,0.000000,0.000000 ThumbRight:0.000000,0.000000,0.000000,0.000000 WristLeft:-0.118570,0.780200,-0.079050,0.609082 WristRight:0.172263,-0.089834,-0.453713,0.869713 END:
KINECT_DATA POSITION:17.520477,-1.471230,9.253370 HEAD_JOINT1:0.977815,0.167359,-0.000000,0.125969 LARM_JOINT2:0.831273,0.000000,-0.017404,-0.555592 LARM_JOINT3:0.960834,0.000000,-0.189984,-0.201752 LLEG_JOINT2:0.998709,0.038207,0.000000,0.033475 LLEG_JOINT4:0.996422,0.081143,0.000000,-0.023645 RARM_JOINT2:0.779164,0.000000,0.026168,0.626273 RARM_JOINT3:0.822554,0.000000,0.517987,0.234720 RLEG_JOINT2:0.998630,0.030467,0.000000,-0.042538 RLEG_JOINT4:0.995401,0.085833,0.000000,0.042547 WAIST:0.999882,0.000000,-0.015025,0.003264 WAIST_JOINT0:0.999353,0.000000,-0.034970,0.008381 WAIST_JOINT1:0.997808,0.065505,0.000000,-0.009418 END:
KINECT_DATA_Sensor  AnkleLeft:0.076011,0.726915,-0.092662,-0.676188 AnkleRight:0.086758,0.698224,0.077235,0.706393 ElbowLeft:-0.032558,0.909848,-0.191989,-0.366412 ElbowRight:-0.025441,0.815203,0.119417,0.566160 FootLeft:0.000000,0.000000,0.000000,0.000000 FootRight:0.000000,0.000000,0.000000,0.000000 HandLeft:-0.129794,0.508243,-0.022602,0.851077 HandRight:0.420613,-0.280594,-0.311239,0.804662 HandTipLeft:0.000000,0.000000,0.000000,0.000000 HandTipRight:0.000000,0.000000,0.000000,0.000000 Head:0.000000,0.000000,0.000000,0.000000 HipLeft:0.133318,-0.673755,0.704812,-0.177539 HipRight:-0.113165,0.681003,0.704353,-0.165274 KneeLeft:0.000345,0.717417,-0.053036,-0.694622 KneeRight:-0.005382,0.696672,0.049448,0.715663 Neck:0.034457,-0.007035,0.996049,-0.081545 ShoulderLeft:-0.000317,0.775906,-0.625316,0.083363 ShoulderRight:0.044632,0.783418,0.619240,-0.028376 SpineBase:0.014524,-0.004847,0.999052,-0.040750 SpineMid:0.024401,-0.005250,0.998860,-0.040700 SpineShoulder:0.034454,-0.006287,0.997562,-0.060363 ThumbLeft:0.000000,0.000000,0.000000,0.000000 ThumbRight:0.000000,0.000000,0.000000,0.000000 WristLeft:-0.083265,0.513871,-0.116201,0.845873 WristRight:0.297650,-0.342877,-0.382048,0.804909 END:
KINECT_DATA POSITION:17.504101,-1.471469,9.246529 HEAD_JOINT1:0.977721,0.167806,-0.000000,0.126104 LARM_JOINT2:0.831141,0.000000,-0.016356,-0.555820 LARM_JOINT3:0.960541,0.000000,-0.191457,-0.201755 LLEG_JOINT2:0.998710,0.038286,0.000000,0.033348 LLEG_JOINT4:0.996487,0.079810,0.000000,-0.025384 RARM_JOINT2:0.778297,0.000000,0.027572,0.627290 RARM_JOINT3:0.824218,0.000000,0.515301,0.234795 RLEG_JOINT2:0.998622,0.031030,0.000000,-0.042311 RLEG_JOINT4:0.995488,0.084723,0.000000,0.042732 WAIST:0.999879,0.000000,-0.015203,0.003216 WAIST_JOINT0:0.999348,0.000000,-0.035148,0.008318 WAIST_JOINT1:0.997823,0.065278,0.000000,-0.009346 END:
KINECT_DATA_Sensor  AnkleLeft:0.076937,0.730888,-0.090014,-0.672147 AnkleRight:0.085573,0.688511,0.077752,0.715950 ElbowLeft:-0.032264,0.909198,-0.192008,-0.368037 ElbowRight:-0.025874,0.814516,0.117519,0.567525 FootLeft:0.000000,0.000000,0.000000,0.000000 FootRight:0.000000,0.000000,0.000000,0.000000 HandLeft:-0.132709,0.737921,0.014420,0.661553 HandRight:0.389654,-0.195896,-0.342996,0.831954 HandTipLeft:0.000000,0.000000,0.000000,0.000000 HandTipRight:0.000000,0.000000,0.000000,0.000000 Head:0.000000,0.000000,0.000000,0.000000 HipLeft:0.133448,-0.673776,0.704769,-0.177535 HipRight:-0.113072,0.681010,0.704414,-0.165050 KneeLeft:0.000516,0.717544,-0.052969,-0.694496 KneeRight:-0.004843,0.696542,0.049712,0.715776 Neck:0.034651,-0.006984,0.996068,-0.081240 ShoulderLeft:0.000043,0.775769,-0.625546,0.082910 ShoulderRight:0.045240,0.783036,0.619712,-0.027671 SpineBase:0.014705,-0.004862,0.999054,-0.040647 SpineMid:0.024588,-0.005264,0.998859,-0.040597 SpineShoulder:0.034647,-0.006257,0.997568,-0.060162 ThumbLeft:0.000000,0.000000,0.000000,0.000000 ThumbRight:0.000000,0.000000,0.000000,0.000000 WristLeft:-0.115976,0.752560,-0.084637,0.642681 WristRight:0.257817,-0.261893,-0.410519,0.834516 END:
KINECT_DATA POSITION:17.499191,-1.468023,9.246087 HEAD_JOINT1:0.977522,0.168711,-0.000000,0.126438 LARM_JOINT2:0.830532,0.000000,-0.014683,-0.556778 LARM_JOINT3:0.960756,0.000000,-0.192871,-0.199369 LLEG_JOINT2:0.998707,0.038367,0.000000,0.033348 LLEG_JOINT4:0.996534,0.079349,0.000000,-0.024980 RARM_JOINT2:0.777794,0.000000,0.028861,0.627857 RARM_JOINT3:0.824473,0.000000,0.514981,0.234603 RLEG_JOINT2:0.998620,0.030329,0.000000,-0.042865 RLEG_JOINT4:0.995560,0.084399,0.000000,0.041685 WAIST:0.999876,0.000000,-0.015369,0.003294 WAIST_JOINT0:0.999328,0.000000,-0.035699,0.008258 WAIST_JOINT1:0.997858,0.064758,0.000000,-0.009254 END:
KINECT_DATA_Sensor  AnkleLeft:0.075812,0.727279,-0.090535,-0.676108 AnkleRight:0.083799,0.688534,0.078119,0.716098 ElbowLeft:-0.031967,0.907582,-0.191420,-0.372332 ElbowRight:-0.026565,0.814560,0.115897,0.567762 FootLeft:0.000000,0.000000,0.000000,0.000000 FootRight:0.000000,0.000000,0.000000,0.000000 HandLeft:-0.130680,0.662485,-0.003654,0.737579 HandRight:0.439500,-0.320185,-0.278073,0.791831 HandTipLeft:0.000000,0.000000,0.000000,0.000000 HandTipRight:0.000000,0.000000,0.000000,0.000000 Head:0.000000,0.000000,0.000000,0.000000 HipLeft:0.133659,-0.673732,0.704787,-0.177472 HipRight:-0.113145,0.681123,0.704361,-0.164757 KneeLeft:0.000510,0.717659,-0.053083,-0.694368 KneeRight:-0.005669,0.696421,0.049568,0.715898 Neck:0.035195,-0.006841,0.996098,-0.080638 ShoulderLeft:0.000094,0.775790,-0.625584,0.082431 ShoulderRight:0.045973,0.782877,0.619915,-0.026383 SpineBase:0.014873,-0.004735,0.999062,-0.040397 SpineMid:0.024946,-0.005143,0.998861,-0.040347 SpineShoulder:0.035196,-0.006093,0.997579,-0.059671 ThumbLeft:0.000000,0.000000,0.000000,0.000000 ThumbRight:0.000000,0.000000,0.000000,0.000000 WristLeft:-0.105148,0.668259,-0.099407,0.729720 WristRight:0.316971,-0.383076,-0.368236,0.785611 END:
KINECT_DATA POSITION:17.496742,-1.467674,9.232807 HEAD_JOINT1:0.977378,0.169691,-0.000000,0.126242 LARM_JOINT2:0.830535,0.000000,-0.014270,-0.556784 LARM_JOINT3:0.961112,0.000000,-0.191503,-0.198974 LLEG_JOINT2:0.998699,0.038639,0.000000,0.033268 LLEG_JOINT4:0.996635,0.077932,0.000000,-0.025386 RARM_JOINT2:0.779654,0.000000,0.024338,0.625738 RARM_JOINT3:0.822088,0.000000,0.516014,0.240624 RLEG_JOINT2:0.998634,0.030706,0.000000,-0.042286 RLEG_JOINT4:0.995558,0.084850,0.000000,0.040795 WAIST:0.999875,0.000000,-0.015435,0.003357 WAIST_JOINT0:0.999372,0.000000,-0.034389,0.008597 WAIST_JOINT1:0.997886,0.064312,0.000000,-0.009347 END:
KINECT_DATA_Sensor  AnkleLeft:0.075180,0.726655,-0.089532,-0.676982 AnkleRight:0.087797,0.720959,0.074874,0.683303 ElbowLeft:-0.031931,0.907813,-0.191383,-0.371790 ElbowRight:-0.025314,0.815926,0.120117,0.564974 FootLeft:0.000000,0.000000,0.000000,0.000000 FootRight:0.000000,0.000000,0.000000,0.000000 HandLeft:-0.123755,0.775213,0.016700,0.619234 HandRight:0.326827,-0.058701,-0.401886,0.853362 HandTipLeft:0.000000,0.000000,0.000000,0.000000 HandTipRight:0.000000,0.000000,0.000000,0.000000 Head:0.000000,0.000000,0.000000,0.000000 HipLeft:0.133844,-0.673728,0.704786,-0.177349 HipRight:-0.113250,0.681214,0.704297,-0.164580 KneeLeft:0.000710,0.717707,-0.053268,-0.694305 KneeRight:-0.004948,0.696376,0.049371,0.715959 Neck:0.033852,-0.006786,0.996183,-0.080172 ShoulderLeft:0.000180,0.775574,-0.625975,0.081488 ShoulderRight:0.044343,0.783225,0.619546,-0.027480 SpineBase:0.014938,-0.004729,0.999070,-0.040163 SpineMid:0.024312,-0.005106,0.998886,-0.040117 SpineShoulder:0.033853,-0.006023,0.997651,-0.059245 ThumbLeft:0.000000,0.000000,0.000000,0.000000 ThumbRight:0.000000,0.000000,0.000000,0.000000 WristLeft:-0.121034,0.785277,-0.079247,0.602006 WristRight:0.193588,-0.127395,-0.446154,0.864431 END:
KINECT_DATA POSITION:17.504005,-1.461423,9.185707 HEAD_JOINT1:0.977137,0.171103,-0.000000,0.126205 LARM_JOINT2:0.830330,0.000000,-0.013941,-0.557097 LARM_JOINT3:0.961537,0.000000,-0.192252,-0.196178 LLEG_JOINT2:0.998743,0.037634,0.000000,0.033121 LLEG_JOINT4:0.996528,0.079924,0.000000,-0.023324 RARM_JOINT2:0.781034,0.000000,0.021031,0.624135 RARM_JOINT3:0.819340,0.000000,0.518322,0.244999 RLEG_JOINT2:0.998646,0.030072,0.000000,-0.042446 RLEG_JOINT4:0.995328,0.087081,0.000000,0.041706 WAIST:0.999877,0.000000,-0.015282,0.003557 WAIST_JOINT0:0.999418,0.000000,-0.032884,0.009075 WAIST_JOINT1:0.997911,0.063907,0.000000,-0.009472 END:
KINECT_DATA_Sensor  AnkleLeft:0.076316,0.740403,-0.090146,-0.661704 AnkleRight:0.087745,0.703916,0.077397,0.700580 ElbowLeft:-0.031822,0.907884,-0.191098,-0.371774 ElbowRight:-0.024603,0.816244,0.123075,0.563908 FootLeft:0.000000,0.000000,0.000000,0.000000 FootRight:0.000000,0.000000,0.000000,0.000000 HandLeft:-0.122856,0.755875,0.002451,0.643081 HandRight:0.518045,-0.653375,-0.046863,0.550031 HandTipLeft:0.000000,0.000000,0.000000,0.000000 HandTipRight:0.000000,0.000000,0.000000,0.000000 Head:0.000000,0.000000,0.000000,0.000000 HipLeft:0.133868,-0.673662,0.704880,-0.177206 HipRight:-0.113502,0.681384,0.704094,-0.164576 KneeLeft:-0.000022,0.717587,-0.052586,-0.694481 KneeRight:-0.005383,0.696493,0.048901,0.715875 Neck:0.032309,-0.006630,0.996270,-0.079740 ShoulderLeft:0.000488,0.775394,-0.626341,0.080372 ShoulderRight:0.042668,0.783718,0.618984,-0.028705 SpineBase:0.014779,-0.004568,0.999080,-0.039990 SpineMid:0.023468,-0.004915,0.998914,-0.039948 SpineShoulder:0.032310,-0.005867,0.997726,-0.058863 ThumbLeft:0.000000,0.000000,0.000000,0.000000 ThumbRight:0.000000,0.000000,0.000000,0.000000 WristLeft:-0.117910,0.764853,-0.083100,0.627847 WristRight:-0.461949,0.725550,0.155511,-0.485795 END:
KINECT_DATA POSITION:17.499958,-1.459523,9.146511 HEAD_JOINT1:0.976950,0.172403,-0.000000,0.125882 LARM_JOINT2:0.830065,0.000000,-0.014047,-0.557490 LARM_JOINT3:0.961947,0.000000,-0.191405,-0.194991 LLEG_JOINT2:0.998757,0.037225,0.000000,0.033151 LLEG_JOINT4:0.996378,0.081709,0.000000,-0.023532 RARM_JOINT2:0.779907,0.000000,0.023001,0.625473 RARM_JOINT3:0.821033,0.000000,0.516506,0.243158 RLEG_JOINT2:0.998640,0.030015,0.000000,-0.042629 RLEG_JOINT4:0.995410,0.086769,0.000000,0.040372 WAIST:0.999887,0.000000,-0.014596,0.003618 WAIST_JOINT0:0.999437,0.000000,-0.032204,0.009375 WAIST_JOINT1:0.997941,0.063414,0.000000,-0.009569 END:
KINECT_DATA_Sensor  AnkleLeft:0.078552,0.747718,-0.090001,-0.653183 AnkleRight:0.084860,0.690422,0.079976,0.713947 ElbowLeft:-0.031921,0.907840,-0.190445,-0.372206 ElbowRight:-0.025442,0.816573,0.120493,0.563953 FootLeft:0.000000,0.000000,0.000000,0.000000 FootRight:0.000000,0.000000,0.000000,0.000000 HandLeft:-0.123070,0.681297,-0.013905,0.721454 HandRight:0.516895,-0.625210,-0.066098,0.581002 HandTipLeft:0.000000,0.000000,0.000000,0.000000 HandTipRight:0.000000,0.000000,0.000000,0.000000 Head:0.000000,0.000000,0.000000,0.000000 HipLeft:0.133777,-0.673780,0.704955,-0.176533 HipRight:-0.114181,0.681395,0.703953,-0.164663 KneeLeft:-0.000338,0.717110,-0.052355,-0.694991 KneeRight:-0.005543,0.696981,0.048945,0.715396 Neck:0.031665,-0.006733,0.996328,-0.079256 ShoulderLeft:0.000241,0.775292,-0.626545,0.079777 ShoulderRight:0.041598,0.783775,0.618966,-0.029102 SpineBase:0.014095,-0.004573,0.999109,-0.039528 SpineMid:0.022805,-0.004917,0.998948,-0.039487 SpineShoulder:0.031664,-0.005942,0.997776,-0.058358 ThumbLeft:0.000000,0.000000,0.000000,0.000000 ThumbRight:0.000000,0.000000,0.000000,0.000000 WristLeft:-0.105977,0.685798,-0.096495,0.713540 WristRight:-0.454375,0.704286,0.174834,-0.516680 END:
KINECT_DATA POSITION:17.485439,-1.455866,9.124303 HEAD_JOINT1:0.977292,0.171749,-0.000000,0.124107 LARM_JOINT2:0.830023,0.000000,-0.014409,-0.557543 LARM_JOINT3:0.961438,0.000000,-0.193621,-0.195315 LLEG_JOINT2:0.998761,0.036986,0.000000,0.033298 LLEG_JOINT4:0.996475,0.080932,0.000000,-0.022090 RARM_JOINT2:0.781001,0.000000,0.021804,0.624149 RARM_JOINT3:0.818432,0.000000,0.517470,0.249787 RLEG_JOINT2:0.998646,0.029957,0.000000,-0.042529 RLEG_JOINT4:0.995472,0.085718,0.000000,0.041079 WAIST:0.999896,0.000000,-0.013968,0.003604 WAIST_JOINT0:0.999485,0.000000,-0.030617,0.009624 WAIST_JOINT1:0.997951,0.063300,0.000000,-0.009367 END:
KINECT_DATA_Sensor  AnkleLeft:0.079525,0.767073,-0.088037,-0.630496 AnkleRight:0.084596,0.691284,0.078655,0.713291 ElbowLeft:-0.032255,0.907548,-0.190390,-0.372919 ElbowRight:-0.025736,0.816712,0.122195,0.563371 FootLeft:0.000000,0.000000,0.000000,0.000000 FootRight:0.000000,0.000000,0.000000,0.000000 HandLeft:-0.133942,0.803955,0.007418,0.579363 HandRight:-0.354992,0.834253,-0.392713,0.154206 HandTipLeft:0.000000,0.000000,0.000000,0.000000 HandTipRight:0.000000,0.000000,0.000000,0.000000 Head:0.000000,0.000000,0.000000,0.000000 HipLeft:0.133468,-0.673896,0.705020,-0.176061 HipRight:-0.114702,0.681332,0.703886,-0.164847 KneeLeft:-0.000570,0.716674,-0.052275,-0.695446 KneeRight:-0.005558,0.697427,0.048837,0.714968 Neck:0.030072,-0.006509,0.996386,-0.079171 ShoulderLeft:0.000003,0.775126,-0.626800,0.079388 ShoulderRight:0.039310,0.784181,0.618503,-0.031144 SpineBase:0.013475,-0.004463,0.999125,-0.039329 SpineMid:0.021701,-0.004787,0.998981,-0.039291 SpineShoulder:0.030071,-0.005736,0.997833,-0.058235 ThumbLeft:0.000000,0.000000,0.000000,0.000000 ThumbRight:0.000000,0.000000,0.000000,0.000000 WristLeft:-0.122590,0.812662,-0.074429,0.564812 WristRight:-0.420466,0.843537,-0.245416,0.226770 END:
KINECT_DATA POSITION:17.461372,-1.447526,9.114779 HEAD_JOINT1:0.978066,0.171713,-0.000000,0.117905 LARM_JOINT2:0.829437,0.000000,-0.014077,-0.558422 LARM_JOINT3:0.963227,0.000000,-0.191794,-0.188170 LLEG_JOINT2:0.998716,0.037714,0.000000,0.033812 LLEG_JOINT4:0.996707,0.077768,0.000000,-0.022957 RARM_JOINT2:0.788005,0.000000,0.044439,0.614062 RARM_JOINT3:0.805005,0.000000,0.523877,0.278423 RLEG_JOINT2:0.998671,0.028469,0.000000,-0.042970 RLEG_JOINT4:0.995028,0.089820,0.000000,0.043035 WAIST:0.999923,0.000000,-0.011811,0.003752 WAIST_JOINT0:0.999640,0.000000,-0.024301,0.011336 WAIST_JOINT1:0.997991,0.062849,0.000000,-0.008018 END:
KINECT_DATA_Sensor  AnkleLeft:0.072040,0.721786,-0.091168,-0.682293 AnkleRight:0.087674,0.694367,0.079211,0.709854 ElbowLeft:-0.033174,0.904608,-0.190632,-0.379794 ElbowRight:-0.042291,0.839061,0.121675,0.528567 FootLeft:0.000000,0.000000,0.000000,0.000000 FootRight:0.000000,0.000000,0.000000,0.000000 HandLeft:-0.110068,0.798414,-0.010913,0.591863 HandRight:0.583139,-0.607527,-0.002958,0.539307 HandTipLeft:0.000000,0.000000,0.000000,0.000000 HandTipRight:0.000000,0.000000,0.000000,0.000000 Head:0.000000,0.000000,0.000000,0.000000 HipLeft:0.132189,-0.674018,0.705441,-0.174866 HipRight:-0.116250,0.681229,0.703586,-0.165471 KneeLeft:-0.000421,0.715175,-0.053255,-0.696914 KneeRight:-0.006940,0.698954,0.047993,0.713520 Neck:0.023709,-0.004632,0.996607,-0.078679 ShoulderLeft:0.004169,0.774460,-0.628266,0.074001 ShoulderRight:0.035227,0.785181,0.617237,-0.035616 SpineBase:0.011352,-0.003594,0.999168,-0.039001 SpineMid:0.017461,-0.003832,0.999080,-0.038978 SpineShoulder:0.023702,-0.004190,0.998038,-0.057806 ThumbLeft:0.000000,0.000000,0.000000,0.000000 ThumbRight:0.000000,0.000000,0.000000,0.000000 WristLeft:-0.121351,0.800957,-0.080508,0.580742 WristRight:-0.483542,0.726586,0.115709,-0.474206 END:
KINECT_DATA POSITION:17.400846,-1.388846,9.101272 HEAD_JOINT1:0.980532,0.171854,-0.000000,0.094996 LARM_JOINT2:0.824796,0.000000,0.000817,-0.565430 LARM_JOINT3:0.965051,0.000000,-0.196191,-0.173741 LLEG_JOINT2:0.998646,0.036880,0.000000,0.036680 LLEG_JOINT4:0.996629,0.078530,0.000000,-0.023763 RARM_JOINT2:0.854863,0.000000,0.189316,0.483083 RARM_JOINT3:0.771770,0.000000,0.509884,0.379985 RLEG_JOINT2:0.998793,0.026108,0.000000,-0.041603 RLEG_JOINT4:0.994413,0.095494,0.000000,0.044985 WAIST:0.999993,0.000000,-0.001550,0.003264 WAIST_JOINT0:0.999859,0.000000,-0.006728,0.015414 WAIST_JOINT1:0.998144,0.060887,0.000000,-0.001352 END:
KINECT_DATA_Sensor  AnkleLeft:0.071509,0.712385,-0.091701,-0.692087 AnkleRight:0.091165,0.701030,0.080399,0.702696 ElbowLeft:-0.030149,0.879864,-0.192251,-0.433555 ElbowRight:-0.177658,0.923486,0.194878,0.278629 FootLeft:0.000000,0.000000,0.000000,0.000000 FootRight:0.000000,0.000000,0.000000,0.000000 HandLeft:-0.096631,0.850770,-0.001895,0.516574 HandRight:-0.559600,0.732249,-0.270567,-0.278303 HandTipLeft:0.000000,0.000000,0.000000,0.000000 HandTipRight:0.000000,0.000000,0.000000,0.000000 Head:0.000000,0.000000,0.000000,0.000000 HipLeft:0.126138,-0.674678,0.707284,-0.169259 HipRight:-0.123968,0.679256,0.703472,-0.168436 KneeLeft:-0.002170,0.708024,-0.054322,-0.704093 KneeRight:-0.008524,0.706127,0.045600,0.706564 Neck:0.005590,0.001972,0.997047,-0.076562 ShoulderLeft:0.023611,0.771601,-0.633554,0.051807 ShoulderRight:0.031294,0.787285,0.614377,-0.041750 SpineBase:0.001317,0.000362,0.999294,-0.037544 SpineMid:0.003414,0.000283,0.999289,-0.037545 SpineShoulder:0.005611,0.001665,0.998422,-0.055854 ThumbLeft:0.000000,0.000000,0.000000,0.000000 ThumbRight:0.000000,0.000000,0.000000,0.000000 WristLeft:-0.118997,0.851025,-0.091246,0.503259 WristRight:-0.459416,0.811858,-0.215308,-0.288904 END:
KINECT_DATA POSITION:17.491131,-1.190502,9.083879 HEAD_JOINT1:0.983763,0.168138,-0.000000,0.062774 LARM_JOINT2:0.816773,0.000000,0.026535,-0.576349 LARM_JOINT3:0.964957,0.000000,-0.212150,-0.154439 LLEG_JOINT2:0.998541,0.036353,0.000000,0.039929 LLEG_JOINT4:0.997272,0.070815,0.000000,-0.020819 RARM_JOINT2:0.831910,0.000000,0.239126,0.500745 RARM_JOINT3:0.771579,0.000000,0.527884,0.354970 RLEG_JOINT2:0.998824,0.026971,0.000000,-0.040295 RLEG_JOINT4:0.993893,0.099070,0.000000,0.048598 WAIST:0.999542,-0.000000,0.030142,0.002705 WAIST_JOINT0:0.998471,-0.000000,0.050540,0.022400 WAIST_JOINT1:0.998349,0.056317,-0.000000,0.011273 END:
KINECT_DATA_Sensor  AnkleLeft:0.071724,0.749431,-0.082155,-0.653039 AnkleRight:0.092216,0.701934,0.086138,0.700975 ElbowLeft:-0.022196,0.828865,-0.197538,-0.522943 ElbowRight:-0.207629,0.933914,0.124161,0.263209 FootLeft:0.000000,0.000000,0.000000,0.000000 FootRight:0.000000,0.000000,0.000000,0.000000 HandLeft:-0.068675,0.608006,-0.046236,0.789604 HandRight:0.373852,0.273819,-0.527665,0.711918 HandTipLeft:0.000000,0.000000,0.000000,0.000000 HandTipRight:0.000000,0.000000,0.000000,0.000000 Head:0.000000,0.000000,0.000000,0.000000 HipLeft:0.107100,-0.676353,0.712945,-0.150949 HipRight:-0.148328,0.672481,0.701612,-0.183055 KneeLeft:0.002731,-0.685368,0.055905,0.726042 KneeRight:-0.008894,0.728053,0.045357,0.683961 Neck:-0.051165,0.015243,0.995992,-0.071760 ShoulderLeft:0.055411,0.769694,-0.635976,0.005932 ShoulderRight:-0.010140,0.792183,0.604280,-0.084782 SpineBase:-0.030016,0.007409,0.998911,-0.034941 SpineMid:-0.040586,0.007778,0.998537,-0.034860 SpineShoulder:-0.051162,0.012881,0.997283,-0.051410 ThumbLeft:0.000000,0.000000,0.000000,0.000000 ThumbRight:0.000000,0.000000,0.000000,0.000000 WristLeft:-0.052748,0.606760,-0.155746,0.777691 WristRight:0.301034,0.255075,-0.488650,0.778163 END:
KINECT_DATA POSITION:17.869617,-0.889855,9.046877 HEAD_JOINT1:0.986183,0.162097,-0.000000,0.034174 LARM_JOINT2:0.810414,0.000000,0.042537,-0.584312 LARM_JOINT3:0.963695,0.000000,-0.216068,-0.156868 LLEG_JOINT2:0.999005,0.029128,0.000000,0.033771 LLEG_JOINT4:0.997005,0.076748,0.000000,-0.009534 RARM_JOINT2:0.843569,0.000000,0.225765,0.487260 RARM_JOINT3:0.739766,0.000000,0.567484,0.361535 RLEG_JOINT2:0.998316,0.032041,0.000000,-0.048368 RLEG_JOINT4:0.993362,0.099173,0.000000,0.058273 WAIST:0.997400,-0.000000,0.071698,0.007235 WAIST_JOINT0:0.993289,-0.000000,0.110704,0.033502 WAIST_JOINT1:0.998410,0.052831,-0.000000,0.019645 END:
KINECT_DATA_Sensor  AnkleLeft:-0.058948,-0.647378,0.092559,0.754228 AnkleRight:0.094641,0.717491,0.091307,0.684041 ElbowLeft:-0.010828,0.792811,-0.204041,-0.574196 ElbowRight:-0.214684,0.937275,0.120321,0.246880 FootLeft:0.000000,0.000000,0.000000,0.000000 FootRight:0.000000,0.000000,0.000000,0.000000 HandLeft:-0.095224,0.771146,-0.037327,0.628389 HandRight:0.441567,0.233845,-0.495577,0.710449 HandTipLeft:0.000000,0.000000,0.000000,0.000000 HandTipRight:0.000000,0.000000,0.000000,0.000000 Head:0.000000,0.000000,0.000000,0.000000 HipLeft:0.081314,-0.677568,0.719616,-0.128231 HipRight:-0.178041,0.669533,0.691505,-0.204567 KneeLeft:0.005143,-0.654410,0.049713,0.754486 KneeRight:-0.010406,0.756109,0.050791,0.652389 Neck:-0.110694,0.029020,0.991057,-0.068631 ShoulderLeft:0.067285,0.766576,-0.638180,-0.023673 ShoulderRight:-0.076104,0.795075,0.583501,-0.146935 SpineBase:-0.071487,0.016960,0.996742,-0.033287 SpineMid:-0.090968,0.017607,0.995153,-0.032949 SpineShoulder:-0.110758,0.023870,0.992391,-0.048197 ThumbLeft:0.000000,0.000000,0.000000,0.000000 ThumbRight:0.000000,0.000000,0.000000,0.000000 WristLeft:-0.064381,0.781090,-0.150160,0.602666 WristRight:0.388857,0.217718,-0.479906,0.755699 END:
KINECT_DATA POSITION:18.332645,-0.568785,8.876980 HEAD_JOINT1:0.987554,0.157160,-0.000000,0.006197 LARM_JOINT2:0.805838,0.000000,0.045045,-0.590420 LARM_JOINT3:0.964845,0.000000,-0.207889,-0.160802 LLEG_JOINT2:0.999397,0.023771,0.000000,0.025312 LLEG_JOINT4:0.997242,0.074200,0.000000,0.001524 RARM_JOINT2:0.804118,0.000000,0.338472,0.488703 RARM_JOINT3:0.814727,0.000000,0.514376,0.267652 RLEG_JOINT2:0.997556,0.037886,0.000000,-0.058716 RLEG_JOINT4:0.993171,0.093861,0.000000,0.069289 WAIST:0.994100,-0.000000,0.107692,0.012974 WAIST_JOINT0:0.987690,-0.000000,0.150573,0.042373 WAIST_JOINT1:0.998416,0.050174,-0.000000,0.025449 END:
KINECT_DATA_Sensor  AnkleLeft:-0.050732,-0.624460,0.091072,0.774068 AnkleRight:0.092612,0.715646,0.094191,0.685858 ElbowLeft:-0.001230,0.785137,-0.206994,-0.583706 ElbowRight:-0.268352,0.948291,0.018058,0.168539 FootLeft:0.000000,0.000000,0.000000,0.000000 FootRight:0.000000,0.000000,0.000000,0.000000 HandLeft:-0.086474,0.803645,-0.048691,0.586776 HandRight:0.472464,0.238853,-0.503198,0.683021 HandTipLeft:0.000000,0.000000,0.000000,0.000000 HandTipRight:0.000000,0.000000,0.000000,0.000000 Head:0.000000,0.000000,0.000000,0.000000 HipLeft:0.056992,-0.677996,0.724901,-0.107664 HipRight:-0.199820,0.669915,0.680413,-0.219827 KneeLeft:0.006476,-0.626635,0.043794,0.778055 KneeRight:-0.012704,0.779619,0.057199,0.623506 Neck:-0.149912,0.039714,0.985635,-0.066874 ShoulderLeft:0.082924,0.760754,-0.641849,-0.049055 ShoulderRight:-0.112103,0.793674,0.569687,-0.181583 SpineBase:-0.107443,0.027540,0.993312,-0.032072 SpineMid:-0.128394,0.028211,0.990822,-0.031484 SpineShoulder:-0.149915,0.033536,0.987052,-0.046152 ThumbLeft:0.000000,0.000000,0.000000,0.000000 ThumbRight:0.000000,0.000000,0.000000,0.000000 WristLeft:-0.057375,0.809071,-0.142199,0.567355 WristRight:0.403087,0.237557,-0.450800,0.760175 END:
KINECT_DATA POSITION:18.512815,-0.379322,8.646846 HEAD_JOINT1:0.987989,0.154275,0.000000,-0.008746 LARM_JOINT2:0.802322,0.000000,0.039985,-0.595551 LARM_JOINT3:0.967496,0.000000,-0.194285,-0.161881 LLEG_JOINT2:0.999663,0.017684,0.000000,0.019011 LLEG_JOINT4:0.997099,0.076015,0.000000,0.003967 RARM_JOINT2:0.843940,0.000000,0.295011,0.448032 RARM_JOINT3:0.758165,0.000000,0.573694,0.309938 RLEG_JOINT2:0.997043,0.041456,0.000000,-0.064705 RLEG_JOINT4:0.993100,0.090865,0.000000,0.074130 WAIST:0.991290,-0.000000,0.130548,0.017364 WAIST_JOINT0:0.985188,-0.000000,0.164709,0.047702 WAIST_JOINT1:0.998388,0.049658,-0.000000,0.027477 END:
KINECT_DATA_Sensor  AnkleLeft:-0.049437,-0.615570,0.086607,0.781747 AnkleRight:0.101250,0.790159,0.085284,0.598435 ElbowLeft:0.004306,0.788814,-0.205095,-0.579387 ElbowRight:-0.278744,0.941318,0.070248,0.176883 FootLeft:0.000000,0.000000,0.000000,0.000000 FootRight:0.000000,0.000000,0.000000,0.000000 HandLeft:-0.084985,0.802965,-0.058987,0.586980 HandRight:0.442538,0.309537,-0.493494,0.681770 HandTipLeft:0.000000,0.000000,0.000000,0.000000 HandTipRight:0.000000,0.000000,0.000000,0.000000 Head:0.000000,0.000000,0.000000,0.000000 HipLeft:0.039682,-0.677283,0.728794,-0.092589 HipRight:-0.210930,0.670386,0.673629,-0.228725 KneeLeft:0.009784,-0.608661,0.038126,0.792454 KneeRight:-0.013666,0.794120,0.060069,0.604631 Neck:-0.164126,0.044363,0.983139,-0.067329 ShoulderLeft:0.085599,0.756706,-0.645903,-0.053653 ShoulderRight:-0.129160,0.792819,0.561970,-0.197346 SpineBase:-0.130348,0.033091,0.990402,-0.031901 SpineMid:-0.146908,0.033621,0.988082,-0.031343 SpineShoulder:-0.164052,0.038371,0.984611,-0.046434 ThumbLeft:0.000000,0.000000,0.000000,0.000000 ThumbRight:0.000000,0.000000,0.000000,0.000000 WristLeft:-0.044174,0.808588,-0.131804,0.571718 WristRight:0.410408,0.297249,-0.492684,0.707440 END:
KINECT_DATA POSITION:18.478424,-0.105098,8.276951 HEAD_JOINT1:0.988777,0.147412,0.000000,-0.024300 LARM_JOINT2:0.791563,0.000000,-0.010691,-0.610994 LARM_JOINT3:0.973865,0.000000,-0.177656,-0.141510 LLEG_JOINT2:0.999736,0.010741,0.000000,0.020333 LLEG_JOINT4:0.996808,0.079839,0.000000,0.000470 RARM_JOINT2:0.808713,0.000000,0.426751,0.404804 RARM_JOINT3:0.820477,0.000000,0.520211,0.237062 RLEG_JOINT2:0.996765,0.045642,0.000000,-0.066149 RLEG_JOINT4:0.992958,0.085464,0.000000,0.082044 WAIST:0.988064,-0.000000,0.152918,0.018567 WAIST_JOINT0:0.975837,-0.000000,0.211896,0.053308 WAIST_JOINT1:0.998287,0.049747,-0.000000,0.030811 END:
KINECT_DATA_Sensor  AnkleLeft:-0.059743,-0.700343,0.075063,0.707330 AnkleRight:0.090673,0.705854,0.096433,0.695880 ElbowLeft:-0.022434,0.789117,-0.178733,-0.587236 ElbowRight:-0.358067,0.930795,-0.007829,0.073128 FootLeft:0.000000,0.000000,0.000000,0.000000 FootRight:0.000000,0.000000,0.000000,0.000000 HandLeft:-0.154973,0.791263,-0.028926,0.590805 HandRight:0.394616,0.404178,-0.547167,0.617678 HandTipLeft:0.000000,0.000000,0.000000,0.000000 HandTipRight:0.000000,0.000000,0.000000,0.000000 Head:0.000000,0.000000,0.000000,0.000000 HipLeft:0.029061,-0.678518,0.729275,-0.083232 HipRight:-0.226335,0.668658,0.666706,-0.239105 KneeLeft:0.016428,-0.590856,0.035890,0.805811 KneeRight:-0.013089,0.807891,0.062851,0.585825 Neck:-0.211286,0.048628,0.973917,-0.066935 ShoulderLeft:0.115307,0.740415,-0.656806,-0.084234 ShoulderRight:-0.164762,0.776062,0.561424,-0.235340 SpineBase:-0.152617,0.037094,0.987098,-0.031144 SpineMid:-0.181419,0.037989,0.982212,-0.030045 SpineShoulder:-0.211180,0.043120,0.975396,-0.046324 ThumbLeft:0.000000,0.000000,0.000000,0.000000 ThumbRight:0.000000,0.000000,0.000000,0.000000 WristLeft:-0.046371,0.817236,-0.140096,0.557089 WristRight:0.358547,0.417459,-0.510538,0.660699 END:
KINECT_DATA POSITION:18.405857,-0.004601,8.014202 HEAD_JOINT1:0.989530,0.141082,0.000000,-0.030427 LARM_JOINT2:0.784159,0.000000,-0.008966,-0.620495 LARM_JOINT3:0.976878,0.000000,-0.175074,-0.122716 LLEG_JOINT2:0.999710,0.006695,0.000000,0.023136 LLEG_JOINT4:0.996576,0.082640,0.000000,0.002776 RARM_JOINT2:0.765690,0.000000,0.519320,0.379506 RARM_JOINT3:0.874735,0.000000,0.456208,0.163443 RLEG_JOINT2:0.996963,0.045799,0.000000,-0.062991 RLEG_JOINT4:0.993220,0.083813,0.000000,0.080562 WAIST:0.987095,-0.000000,0.159427,0.015057 WAIST_JOINT0:0.977803,-0.000000,0.204237,0.046776 WAIST_JOINT1:0.998109,0.050354,-0.000000,0.035264 END:
KINECT_DATA_Sensor  AnkleLeft:0.060396,0.710765,-0.074479,-0.696864 AnkleRight:0.089683,0.722857,0.095334,0.678488 ElbowLeft:-0.020799,0.766811,-0.168827,-0.618923 ElbowRight:-0.397763,0.912792,-0.085758,0.035238 FootLeft:0.000000,0.000000,0.000000,0.000000 FootRight:0.000000,0.000000,0.000000,0.000000 HandLeft:-0.157517,0.773511,-0.036750,0.612795 HandRight:0.447419,0.368283,-0.513358,0.632967 HandTipLeft:0.000000,0.000000,0.000000,0.000000 HandTipRight:0.000000,0.000000,0.000000,0.000000 Head:0.000000,0.000000,0.000000,0.000000 HipLeft:0.025902,-0.682639,0.725641,-0.082330 HipRight:-0.230824,0.665602,0.666179,-0.244743 KneeLeft:0.018708,-0.585939,0.033345,0.809453 KneeRight:-0.013409,0.811623,0.063433,0.580573 Neck:-0.204641,0.047970,0.975225,-0.068971 ShoulderLeft:0.110240,0.741912,-0.656972,-0.076169 ShoulderRight:-0.162286,0.771807,0.569097,-0.232608 SpineBase:-0.158840,0.037882,0.986058,-0.032001 SpineMid:-0.181261,0.038602,0.982184,-0.031130 SpineShoulder:-0.204493,0.043095,0.976723,-0.048342 ThumbLeft:0.000000,0.000000,0.000000,0.000000 ThumbRight:0.000000,0.000000,0.000000,0.000000 WristLeft:-0.030976,0.802114,-0.141988,0.579218 WristRight:0.374035,0.353779,-0.489604,0.703723 END:
KINECT_DATA POSITION:18.343254,0.026480,7.908869 HEAD_JOINT1:0.989706,0.139543,0.000000,-0.031773 LARM_JOINT2:0.784738,0.000000,0.012056,-0.619710 LARM_JOINT3:0.968562,0.000000,-0.214089,-0.126702 LLEG_JOINT2:0.999718,0.003658,0.000000,0.023455 LLEG_JOINT4:0.996517,0.083215,0.000000,0.005310 RARM_JOINT2:0.746284,0.000000,0.562056,0.356585 RARM_JOINT3:0.888194,0.000000,0.438900,0.135934 RLEG_JOINT2:0.997039,0.045630,0.000000,-0.061893 RLEG_JOINT4:0.992833,0.084306,0.000000,0.084708 WAIST:0.986427,-0.000000,0.163611,0.013892 WAIST_JOINT0:0.975263,-0.000000,0.217396,0.040004 WAIST_JOINT1:0.998056,0.050516,-0.000000,0.036499 END:
KINECT_DATA_Sensor  AnkleLeft:0.057677,0.706036,-0.074908,-0.701837 AnkleRight:0.092497,0.721179,0.094706,0.679982 ElbowLeft:-0.011870,0.736815,-0.175422,-0.652832 ElbowRight:-0.419978,0.899652,-0.118485,0.014370 FootLeft:0.000000,0.000000,0.000000,0.000000 FootRight:0.000000,0.000000,0.000000,0.000000 HandLeft:-0.113946,0.831011,-0.061589,0.540965 HandRight:0.499115,0.317605,-0.470183,0.654934 HandTipLeft:0.000000,0.000000,0.000000,0.000000 HandTipRight:0.000000,0.000000,0.000000,0.000000 Head:0.000000,0.000000,0.000000,0.000000 HipLeft:0.022307,-0.683730,0.725095,-0.079079 HipRight:-0.232533,0.664197,0.666366,-0.246428 KneeLeft:0.020443,-0.582701,0.031056,0.811835 KneeRight:-0.013750,0.814021,0.063375,0.577204 Neck:-0.217476,0.048309,0.972423,-0.069025 ShoulderLeft:0.124414,0.733016,-0.663000,-0.087405 ShoulderRight:-0.168509,0.753796,0.588731,-0.238309 SpineBase:-0.162942,0.037613,0.985390,-0.032268 SpineMid:-0.189748,0.038479,0.980581,-0.031230 SpineShoulder:-0.217351,0.043381,0.973925,-0.048436 ThumbLeft:0.000000,0.000000,0.000000,0.000000 ThumbRight:0.000000,0.000000,0.000000,0.000000 WristLeft:-0.066220,0.839119,-0.159626,0.515766 WristRight:0.419713,0.291361,-0.462558,0.724562 END:
KINECT_DATA POSITION:18.283150,0.079102,7.871294 HEAD_JOINT1:0.991215,0.130851,0.000000,-0.019249 LARM_JOINT2:0.790125,0.000000,0.016428,-0.612725 LARM_JOINT3:0.966222,0.000000,-0.219263,-0.135421 LLEG_JOINT2:0.999741,0.001137,0.000000,0.022711 LLEG_JOINT4:0.996117,0.087326,0.000000,0.011154 RARM_JOINT2:0.703429,0.000000,0.621587,0.344699 RARM_JOINT3:0.914474,0.000000,0.391884,0.100824 RLEG_JOINT2:0.997042,0.046113,0.000000,-0.061491 RLEG_JOINT4:0.993166,0.081205,0.000000,0.083829 WAIST:0.985408,-0.000000,0.169651,0.013778 WAIST_JOINT0:0.974141,-0.000000,0.223779,0.031186 WAIST_JOINT1:0.997886,0.055501,-0.000000,0.033803 END:
KINECT_DATA_Sensor  AnkleLeft:0.059470,0.719800,-0.078152,-0.687199 AnkleRight:0.102883,0.817444,0.078892,0.561228 ElbowLeft:0.000164,0.751277,-0.184134,-0.633780 ElbowRight:-0.426513,0.886342,-0.179516,-0.016110 FootLeft:0.000000,0.000000,0.000000,0.000000 FootRight:0.000000,0.000000,0.000000,0.000000 HandLeft:-0.101247,0.817601,-0.127682,0.552246 HandRight:-0.414666,-0.452471,0.546109,-0.570165 HandTipLeft:0.000000,0.000000,0.000000,0.000000 HandTipRight:0.000000,0.000000,0.000000,0.000000 Head:0.000000,0.000000,0.000000,0.000000 HipLeft:0.016859,-0.683994,0.725417,-0.075088 HipRight:-0.233724,0.662489,0.666152,-0.250446 KneeLeft:0.021862,-0.577853,0.028983,0.815333 KneeRight:-0.013678,0.817482,0.063469,0.572284 Neck:-0.222318,0.043964,0.971099,-0.074891 ShoulderLeft:0.129110,0.731506,-0.664138,-0.084556 ShoulderRight:-0.174124,0.736561,0.605469,-0.246100 SpineBase:-0.168988,0.035833,0.984382,-0.033913 SpineMid:-0.195175,0.036725,0.979527,-0.032946 SpineShoulder:-0.222240,0.039795,0.972737,-0.052987 ThumbLeft:0.000000,0.000000,0.000000,0.000000 ThumbRight:0.000000,0.000000,0.000000,0.000000 WristLeft:-0.058472,0.822979,-0.147700,0.545410 WristRight:0.338065,0.424337,-0.537473,0.645579 END:
KINECT_DATA POSITION:18.240967,0.073120,7.921302 HEAD_JOINT1:0.991444,0.127930,0.000000,-0.025930 LARM_JOINT2:0.790436,0.000000,0.022763,-0.612121 LARM_JOINT3:0.965584,0.000000,-0.220383,-0.138129 LLEG_JOINT2:0.999814,0.000149,0.000000,0.019289 LLEG_JOINT4:0.996015,0.087233,0.000000,0.018568 RARM_JOINT2:0.694385,0.000000,0.637450,0.333897 RARM_JOINT3:0.923983,0.000000,0.372499,0.086601 RLEG_JOINT2:0.996983,0.045821,0.000000,-0.062655 RLEG_JOINT4:0.992698,0.083345,0.000000,0.087205 WAIST:0.984504,-0.000000,0.174695,0.015255 WAIST_JOINT0:0.975330,-0.000000,0.218527,0.031273 WAIST_JOINT1:0.997732,0.056913,-0.000000,0.035932 END:
KINECT_DATA_Sensor  AnkleLeft:-0.040935,-0.582512,0.090960,0.806679 AnkleRight:0.105584,0.814686,0.079474,0.564644 ElbowLeft:0.007132,0.752683,-0.189980,-0.630337 ElbowRight:-0.431160,0.880135,-0.196926,-0.026163 FootLeft:0.000000,0.000000,0.000000,0.000000 FootRight:0.000000,0.000000,0.000000,0.000000 HandLeft:-0.076085,0.839563,-0.135573,0.520544 HandRight:-0.330351,-0.508192,0.591846,-0.531345 HandTipLeft:0.000000,0.000000,0.000000,0.000000 HandTipRight:0.000000,0.000000,0.000000,0.000000 Head:0.000000,0.000000,0.000000,0.000000 HipLeft:0.012097,-0.683464,0.726108,-0.074153 HipRight:-0.235206,0.662306,0.664292,-0.254450 KneeLeft:0.021657,-0.573878,0.026723,0.818218 KneeRight:-0.014141,0.820402,0.062732,0.568159 Neck:-0.217603,0.046710,0.971900,-0.076660 ShoulderLeft:0.127117,0.732386,-0.664132,-0.079884 ShoulderRight:-0.169806,0.738571,0.605047,-0.244125 SpineBase:-0.174007,0.037232,0.983370,-0.036328 SpineMid:-0.195410,0.038015,0.979341,-0.035507 SpineShoulder:-0.217518,0.042219,0.973575,-0.055274 ThumbLeft:0.000000,0.000000,0.000000,0.000000 ThumbRight:0.000000,0.000000,0.000000,0.000000 WristLeft:-0.063452,0.840734,-0.142504,0.518491 WristRight:-0.270712,-0.500094,0.577370,-0.585888 END:
KINECT_DATA POSITION:18.208591,0.008915,8.010853 HEAD_JOINT1:0.991118,0.130764,0.000000,-0.024205 LARM_JOINT2:0.791689,0.000000,0.024587,-0.610429 LARM_JOINT3:0.964852,0.000000,-0.220238,-0.143375 LLEG_JOINT2:0.999864,-0.000050,0.000000,0.016468 LLEG_JOINT4:0.996200,0.085102,0.000000,0.018525 RARM_JOINT2:0.686811,0.000000,0.651461,0.322318 RARM_JOINT3:0.925295,0.000000,0.371434,0.076582 RLEG_JOINT2:0.996860,0.047872,0.000000,-0.063074 RLEG_JOINT4:0.992624,0.082573,0.000000,0.088766 WAIST:0.984094,-0.000000,0.176804,0.017294 WAIST_JOINT0:0.975722,-0.000000,0.216001,0.036196 WAIST_JOINT1:0.997599,0.058593,-0.000000,0.036919 END:
KINECT_DATA_Sensor  AnkleLeft:-0.039681,-0.584128,0.088504,0.805845 AnkleRight:0.094720,0.716846,0.094724,0.684242 ElbowLeft:0.010538,0.757171,-0.195447,-0.623203 ElbowRight:-0.436214,0.874162,-0.211064,-0.031768 FootLeft:0.000000,0.000000,0.000000,0.000000 FootRight:0.000000,0.000000,0.000000,0.000000 HandLeft:-0.063906,0.801860,-0.144459,0.576253 HandRight:-0.390559,-0.472749,0.579499,-0.536798 HandTipLeft:0.000000,0.000000,0.000000,0.000000 HandTipRight:0.000000,0.000000,0.000000,0.000000 Head:0.000000,0.000000,0.000000,0.000000 HipLeft:0.008801,-0.682149,0.727370,-0.074349 HipRight:-0.236483,0.663245,0.662404,-0.255740 KneeLeft:0.021616,-0.572248,0.025761,0.819391 KneeRight:-0.012024,0.821761,0.063157,0.566194 Neck:-0.216021,0.049262,0.971982,-0.078483 ShoulderLeft:0.129953,0.729381,-0.667035,-0.078612 ShoulderRight:-0.164542,0.742940,0.601678,-0.242796 SpineBase:-0.176140,0.038857,0.982843,-0.038518 SpineMid:-0.195723,0.039618,0.979132,-0.037734 SpineShoulder:-0.215923,0.044580,0.973710,-0.057258 ThumbLeft:0.000000,0.000000,0.000000,0.000000 ThumbRight:0.000000,0.000000,0.000000,0.000000 WristLeft:-0.051371,0.803611,-0.143109,0.575404 WristRight:-0.309933,-0.459469,0.563013,-0.613063 END:
KINECT_DATA POSITION:18.208992,-0.003434,8.110642 HEAD_JOINT1:0.991957,0.125034,0.000000,-0.019677 LARM_JOINT2:0.792518,0.000000,0.010071,-0.609765 LARM_JOINT3:0.966334,0.000000,-0.212292,-0.145367 LLEG_JOINT2:0.999924,0.001159,0.000000,0.012252 LLEG_JOINT4:0.996167,0.085849,0.000000,0.016781 RARM_JOINT2:0.679110,0.000000,0.665722,0.309231 RARM_JOINT3:0.926137,0.000000,0.369953,0.073515 RLEG_JOINT2:0.996521,0.047666,0.000000,-0.068372 RLEG_JOINT4:0.992033,0.085236,0.000000,0.092767 WAIST:0.984032,-0.000000,0.176728,0.021181 WAIST_JOINT0:0.973657,-0.000000,0.220487,0.058113 WAIST_JOINT1:0.997446,0.061735,-0.000000,0.035930 END:
KINECT_DATA_Sensor  AnkleLeft:0.056920,0.719302,-0.078488,-0.687899 AnkleRight:0.111488,0.814827,0.078656,0.563419 ElbowLeft:0.003742,0.767407,-0.196260,-0.610373 ElbowRight:-0.441820,0.868116,-0.223081,-0.037468 FootLeft:0.000000,0.000000,0.000000,0.000000 FootRight:0.000000,0.000000,0.000000,0.000000 HandLeft:-0.069045,0.783408,-0.135252,0.602670 HandRight:-0.368287,-0.512762,0.593693,-0.498967 HandTipLeft:0.000000,0.000000,0.000000,0.000000 HandTipRight:0.000000,0.000000,0.000000,0.000000 Head:0.000000,0.000000,0.000000,0.000000 HipLeft:0.006819,-0.679025,0.730082,-0.076542 HipRight:-0.235233,0.664796,0.660471,-0.257857 KneeLeft:0.020966,-0.572290,0.025737,0.819379 KneeRight:-0.013746,0.821790,0.063280,0.566098 Neck:-0.222817,0.052358,0.970077,-0.081009 ShoulderLeft:0.150470,0.706954,-0.685833,-0.084899 ShoulderRight:-0.154076,0.749559,0.596484,-0.242134 SpineBase:-0.176234,0.040721,0.982639,-0.041282 SpineMid:-0.199188,0.041677,0.978244,-0.040317 SpineShoulder:-0.222721,0.047421,0.971894,-0.059730 ThumbLeft:0.000000,0.000000,0.000000,0.000000 ThumbRight:0.000000,0.000000,0.000000,0.000000 WristLeft:-0.045523,0.785987,-0.143871,0.599545 WristRight:-0.283198,-0.493023,0.584942,-0.578421 END:
KINECT_DATA POSITION:18.198469,-0.021464,8.169127 HEAD_JOINT1:0.992066,0.123599,0.000000,-0.022985 LARM_JOINT2:0.792069,0.000000,0.010282,-0.610345 LARM_JOINT3:0.968084,0.000000,-0.203918,-0.145705 LLEG_JOINT2:0.999942,0.002395,0.000000,0.010489 LLEG_JOINT4:0.996033,0.086962,0.000000,0.018879 RARM_JOINT2:0.674540,0.000000,0.672159,0.305282 RARM_JOINT3:0.929526,0.000000,0.360649,0.076907 RLEG_JOINT2:0.996364,0.048111,0.000000,-0.070315 RLEG_JOINT4:0.991799,0.087998,0.000000,0.092684 WAIST:0.984150,-0.000000,0.175853,0.022915 WAIST_JOINT0:0.972879,-0.000000,0.222069,0.064749 WAIST_JOINT1:0.997464,0.061534,-0.000000,0.035774 END:
KINECT_DATA_Sensor  AnkleLeft:-0.041844,-0.579527,0.090571,0.808823 AnkleRight:0.113187,0.815384,0.080826,0.561965 ElbowLeft:0.003416,0.768903,-0.196924,-0.608274 ElbowRight:-0.445067,0.864875,-0.228257,-0.042490 FootLeft:0.000000,0.000000,0.000000,0.000000 FootRight:0.000000,0.000000,0.000000,0.000000 HandLeft:-0.051150,0.802180,-0.107879,0.585023 HandRight:-0.335564,-0.542488,0.592356,-0.492156 HandTipLeft:0.000000,0.000000,0.000000,0.000000 HandTipRight:0.000000,0.000000,0.000000,0.000000 Head:0.000000,0.000000,0.000000,0.000000 HipLeft:0.006853,-0.677467,0.731425,-0.077519 HipRight:-0.234898,0.665825,0.659661,-0.257581 KneeLeft:0.020181,-0.572953,0.026216,0.818921 KneeRight:-0.013788,0.821383,0.063561,0.566657 Neck:-0.225334,0.054275,0.969446,-0.080336 ShoulderLeft:0.154946,0.700574,-0.691043,-0.087451 ShoulderRight:-0.153107,0.752510,0.592986,-0.242185 SpineBase:-0.175432,0.042178,0.982705,-0.041669 SpineMid:-0.200028,0.043210,0.977995,-0.040598 SpineShoulder:-0.225212,0.049280,0.971254,-0.059294 ThumbLeft:0.000000,0.000000,0.000000,0.000000 ThumbRight:0.000000,0.000000,0.000000,0.000000 WristLeft:-0.048459,0.800574,-0.142229,0.580089 WristRight:-0.262278,-0.515390,0.596699,-0.556357 END:
KINECT_DATA POSITION:18.173929,-0.048867,8.161426 HEAD_JOINT1:0.991936,0.124626,0.000000,-0.023055 LARM_JOINT2:0.791783,0.000000,0.012300,-0.610679 LARM_JOINT3:0.967277,0.000000,-0.207263,-0.146346 LLEG_JOINT2:0.999957,0.003044,0.000000,0.008781 LLEG_JOINT4:0.995936,0.087774,0.000000,0.020170 RARM_JOINT2:0.670017,0.000000,0.678157,0.301959 RARM_JOINT3:0.932952,0.000000,0.351638,0.077147 RLEG_JOINT2:0.996202,0.049019,0.000000,-0.071963 RLEG_JOINT4:0.992058,0.085282,0.000000,0.092451 WAIST:0.984321,-0.000000,0.174652,0.024680 WAIST_JOINT0:0.972551,-0.000000,0.222208,0.069052 WAIST_JOINT1:0.997504,0.061768,-0.000000,0.034201 END:
KINECT_DATA_Sensor  AnkleLeft:0.058993,0.725249,-0.082551,-0.680969 AnkleRight:0.097481,0.711851,0.096363,0.688824 ElbowLeft:0.005352,0.771267,-0.197126,-0.605194 ElbowRight:-0.447069,0.862318,-0.233545,-0.044651 FootLeft:0.000000,0.000000,0.000000,0.000000 FootRight:0.000000,0.000000,0.000000,0.000000 HandLeft:-0.057026,0.806635,-0.122002,0.575503 HandRight:-0.337492,-0.544225,0.577061,-0.506871 HandTipLeft:0.000000,0.000000,0.000000,0.000000 HandTipRight:0.000000,0.000000,0.000000,0.000000 Head:0.000000,0.000000,0.000000,0.000000 HipLeft:0.007170,-0.676330,0.732422,-0.078008 HipRight:-0.233719,0.667176,0.658811,-0.257333 KneeLeft:0.019934,-0.573829,0.026427,0.818306 KneeRight:-0.013267,0.820809,0.064041,0.567447 Neck:-0.225928,0.054582,0.969309,-0.080107 ShoulderLeft:0.156557,0.697601,-0.693634,-0.087829 ShoulderRight:-0.152112,0.755145,0.589895,-0.242162 SpineBase:-0.174370,0.042481,0.982874,-0.041819 SpineMid:-0.199781,0.043550,0.978026,-0.040704 SpineShoulder:-0.225794,0.049654,0.971110,-0.059135 ThumbLeft:0.000000,0.000000,0.000000,0.000000 ThumbRight:0.000000,0.000000,0.000000,0.000000 WristLeft:-0.051059,0.806228,-0.139340,0.572691 WristRight:-0.268160,-0.507327,0.594771,-0.562989 END:
KINECT_DATA POSITION:18.165644,-0.075921,8.130562 HEAD_JOINT1:0.991977,0.124429,0.000000,-0.022334 LARM_JOINT2:0.792525,0.000000,0.012758,-0.609707 LARM_JOINT3:0.967107,0.000000,-0.209712,-0.143963 LLEG_JOINT2:0.999969,0.003410,0.000000,0.007147 LLEG_JOINT4:0.995758,0.089485,0.000000,0.021427 RARM_JOINT2:0.667073,0.000000,0.681966,0.299894 RARM_JOINT3:0.936164,0.000000,0.344730,0.068983 RLEG_JOINT2:0.996046,0.050409,0.000000,-0.073151 RLEG_JOINT4:0.992676,0.081738,0.000000,0.088960 WAIST:0.984638,-0.000000,0.172624,0.026245 WAIST_JOINT0:0.972583,-0.000000,0.221525,0.070780 WAIST_JOINT1:0.997549,0.061863,-0.000000,0.032690 END:
KINECT_DATA_Sensor  AnkleLeft:0.061624,0.738859,-0.083348,-0.665840 AnkleRight:0.108373,0.815927,0.078533,0.562451 ElbowLeft:0.005128,0.773263,-0.198374,-0.602234 ElbowRight:-0.449281,0.860581,-0.235192,-0.047247 FootLeft:0.000000,0.000000,0.000000,0.000000 FootRight:0.000000,0.000000,0.000000,0.000000 HandLeft:-0.057152,0.816348,-0.139888,0.557441 HandRight:-0.322773,-0.527993,0.593942,-0.514076 HandTipLeft:0.000000,0.000000,0.000000,0.000000 HandTipRight:0.000000,0.000000,0.000000,0.000000 Head:0.000000,0.000000,0.000000,0.000000 HipLeft:0.007967,-0.675258,0.733308,-0.078884 HipRight:-0.232102,0.668610,0.658268,-0.256461 KneeLeft:0.019824,-0.575418,0.026399,0.817193 KneeRight:-0.012158,0.819777,0.064819,0.568873 Neck:-0.225498,0.054810,0.969424,-0.079771 ShoulderLeft:0.156193,0.696544,-0.694848,-0.087265 ShoulderRight:-0.151869,0.756477,0.588393,-0.241809 SpineBase:-0.172467,0.042833,0.983192,-0.041892 SpineMid:-0.198595,0.043934,0.978249,-0.040736 SpineShoulder:-0.225349,0.049949,0.971216,-0.058843 ThumbLeft:0.000000,0.000000,0.000000,0.000000 ThumbRight:0.000000,0.000000,0.000000,0.000000 WristLeft:-0.053159,0.817018,-0.137817,0.557370 WristRight:-0.265249,-0.507799,0.595105,-0.563590 END:
KINECT_DATA POSITION:18.175407,-0.127737,8.066786 HEAD_JOINT1:0.992083,0.123864,0.000000,-0.020712 LARM_JOINT2:0.793441,0.000000,0.010487,-0.608557 LARM_JOINT3:0.966567,0.000000,-0.211165,-0.145460 LLEG_JOINT2:0.999983,0.002268,0.000000,0.005458 LLEG_JOINT4:0.996073,0.086139,0.000000,0.020474 RARM_JOINT2:0.667905,0.000000,0.682635,0.296498 RARM_JOINT3:0.938982,0.000000,0.337847,0.064593 RLEG_JOINT2:0.995896,0.050921,0.000000,-0.074822 RLEG_JOINT4:0.992750,0.079377,0.000000,0.090261 WAIST:0.984357,-0.000000,0.174016,0.027548 WAIST_JOINT0:0.972673,-0.000000,0.220853,0.071633 WAIST_JOINT1:0.997577,0.061966,-0.000000,0.031642 END:
KINECT_DATA_Sensor  AnkleLeft:0.056521,0.727357,-0.081177,-0.679093 AnkleRight:0.107592,0.815756,0.076686,0.563104 ElbowLeft:0.003347,0.773291,-0.199363,-0.601884 ElbowRight:-0.450398,0.859588,-0.237143,-0.044860 FootLeft:0.000000,0.000000,0.000000,0.000000 FootRight:0.000000,0.000000,0.000000,0.000000 HandLeft:-0.067783,0.815556,-0.142901,0.556644 HandRight:-0.294784,-0.541287,0.600414,-0.509523 HandTipLeft:0.000000,0.000000,0.000000,0.000000 HandTipRight:0.000000,0.000000,0.000000,0.000000 Head:0.000000,0.000000,0.000000,0.000000 HipLeft:0.006071,-0.674355,0.734313,-0.077421 HipRight:-0.232315,0.669061,0.657442,-0.257212 KneeLeft:0.020705,-0.574290,0.025287,0.818000 KneeRight:-0.012426,0.820656,0.065237,0.567551 Neck:-0.224930,0.054767,0.969561,-0.079736 ShoulderLeft:0.155785,0.696079,-0.695516,-0.086384 ShoulderRight:-0.151559,0.757056,0.587797,-0.241641 SpineBase:-0.173944,0.043269,0.982900,-0.042168 SpineMid:-0.199045,0.044334,0.978126,-0.041047 SpineShoulder:-0.224774,0.049989,0.971343,-0.058915 ThumbLeft:0.000000,0.000000,0.000000,0.000000 ThumbRight:0.000000,0.000000,0.000000,0.000000 WristLeft:-0.052900,0.817752,-0.139474,0.555905 WristRight:-0.244789,-0.521105,0.604082,-0.551011 END:
KINECT_DATA POSITION:18.174904,-0.139082,8.040846 HEAD_JOINT1:0.991996,0.124845,0.000000,-0.018921 LARM_JOINT2:0.793774,0.000000,0.008569,-0.608153 LARM_JOINT3:0.966824,0.000000,-0.208574,-0.147473 LLEG_JOINT2:0.999983,0.002229,0.000000,0.005424 LLEG_JOINT4:0.996122,0.086137,0.000000,0.017937 RARM_JOINT2:0.669383,0.000000,0.680255,0.298630 RARM_JOINT3:0.940864,0.000000,0.333035,0.062154 RLEG_JOINT2:0.995933,0.050459,0.000000,-0.074645 RLEG_JOINT4:0.992880,0.081409,0.000000,0.086957 WAIST:0.984432,-0.000000,0.173542,0.027860 WAIST_JOINT0:0.972659,-0.000000,0.221693,0.069191 WAIST_JOINT1:0.997576,0.062138,-0.000000,0.031319 END:
KINECT_DATA_Sensor  AnkleLeft:-0.040589,-0.579841,0.088822,0.808856 AnkleRight:0.106357,0.816337,0.079369,0.562123 ElbowLeft:0.002178,0.774901,-0.199422,-0.599796 ElbowRight:-0.448414,0.861033,-0.236436,-0.040559 FootLeft:0.000000,0.000000,0.000000,0.000000 FootRight:0.000000,0.000000,0.000000,0.000000 HandLeft:-0.077026,0.836799,-0.128575,0.526595 HandRight:-0.279487,-0.540561,0.602079,-0.516896 HandTipLeft:0.000000,0.000000,0.000000,0.000000 HandTipRight:0.000000,0.000000,0.000000,0.000000 Head:0.000000,0.000000,0.000000,0.000000 HipLeft:0.006179,-0.674006,0.734591,-0.077808 HipRight:-0.231875,0.669243,0.657462,-0.257084 KneeLeft:0.020940,-0.574674,0.025461,0.817718 KneeRight:-0.012293,0.820375,0.064550,0.568038 Neck:-0.225508,0.054854,0.969418,-0.079784 ShoulderLeft:0.155329,0.696109,-0.695652,-0.085874 ShoulderRight:-0.153726,0.753639,0.591260,-0.242504 SpineBase:-0.173492,0.043345,0.982967,-0.042386 SpineMid:-0.199107,0.044437,0.978101,-0.041239 SpineShoulder:-0.225355,0.050051,0.971202,-0.058964 ThumbLeft:0.000000,0.000000,0.000000,0.000000 ThumbRight:0.000000,0.000000,0.000000,0.000000 WristLeft:-0.057956,0.838686,-0.137286,0.523831 WristRight:-0.237024,-0.522842,0.605413,-0.551299 END:
KINECT_DATA POSITION:18.175426,-0.149038,8.028698 HEAD_JOINT1:0.991995,0.125186,0.000000,-0.016584 LARM_JOINT2:0.793784,0.000000,0.007526,-0.608153 LARM_JOINT3:0.967245,0.000000,-0.206642,-0.147432 LLEG_JOINT2:0.999985,0.001818,0.000000,0.005104 LLEG_JOINT4:0.996042,0.086860,0.000000,0.018836 RARM_JOINT2:0.670950,0.000000,0.680896,0.293610 RARM_JOINT3:0.942284,0.000000,0.329116,0.061508 RLEG_JOINT2:0.995890,0.049490,0.000000,-0.075851 RLEG_JOINT4:0.992553,0.082658,0.000000,0.089479 WAIST:0.984453,-0.000000,0.173379,0.028140 WAIST_JOINT0:0.972846,-0.000000,0.220532,0.070261 WAIST_JOINT1:0.997547,0.062573,-0.000000,0.031369 END:
KINECT_DATA_Sensor  AnkleLeft:0.057951,0.734284,-0.079439,-0.671683 AnkleRight:0.094427,0.719791,0.094248,0.681251 ElbowLeft:0.002071,0.776360,-0.199599,-0.597847 ElbowRight:-0.451578,0.859803,-0.234976,-0.040029 FootLeft:0.000000,0.000000,0.000000,0.000000 FootRight:0.000000,0.000000,0.000000,0.000000 HandLeft:-0.064265,0.792623,-0.131272,0.591935 HandRight:-0.261291,-0.554166,0.604041,-0.509668 HandTipLeft:0.000000,0.000000,0.000000,0.000000 HandTipRight:0.000000,0.000000,0.000000,0.000000 Head:0.000000,0.000000,0.000000,0.000000 HipLeft:0.005962,-0.673696,0.734868,-0.077894 HipRight:-0.231620,0.669365,0.657447,-0.257033 KneeLeft:0.021292,-0.574834,0.025157,0.817606 KneeRight:-0.013631,0.820233,0.064261,0.568246 Neck:-0.224520,0.055158,0.969576,-0.080443 ShoulderLeft:-0.152881,-0.695578,0.696498,0.087688 ShoulderRight:-0.152091,0.755010,0.590215,-0.241816 SpineBase:-0.173345,0.043515,0.982977,-0.042589 SpineMid:-0.198542,0.044595,0.978199,-0.041457 SpineShoulder:-0.224369,0.050255,0.971395,-0.059365 ThumbLeft:0.000000,0.000000,0.000000,0.000000 ThumbRight:0.000000,0.000000,0.000000,0.000000 WristLeft:-0.046116,0.794341,-0.140576,0.589181 WristRight:-0.219110,-0.533464,0.611047,-0.542244 END:
