EastLYD/RoboCupatHomeSim/InteractiveCleanUp/JapanOpen2016/Motion_Data/File7.dat
KINECT_DATA POSITION:6.408347,-0.315138,-7.867908 HEAD_JOINT1:0.976734,0.179768,-0.000000,0.116937 LARM_JOINT2:0.836068,0.000000,-0.024375,-0.548084 LARM_JOINT3:0.974201,0.000000,-0.172496,-0.145525 LLEG_JOINT2:0.998398,0.034952,0.000000,0.044503 LLEG_JOINT4:0.995501,0.086202,0.000000,-0.039331 RARM_JOINT2:0.794683,0.000000,-0.012319,0.606900 RARM_JOINT3:0.970989,0.000000,0.208410,0.117241 RLEG_JOINT2:0.999751,0.016253,0.000000,-0.015287 RLEG_JOINT4:0.994731,0.098127,0.000000,0.029674 WAIST:0.999575,0.000000,-0.028044,-0.007918 WAIST_JOINT0:0.998891,0.000000,-0.047070,0.001459 WAIST_JOINT1:0.996377,0.084152,0.000000,-0.012297 END:
KINECT_DATA_Sensor  AnkleLeft:0.087544,0.739084,-0.083105,-0.662710 AnkleRight:0.087528,0.681716,0.073385,0.722646 ElbowLeft:-0.032170,0.896982,-0.190066,-0.397824 ElbowRight:0.002240,0.821895,0.178410,0.540974 FootLeft:0.000000,0.000000,0.000000,0.000000 FootRight:0.000000,0.000000,0.000000,0.000000 HandLeft:-0.000925,-0.541731,-0.119625,0.831996 HandRight:-0.110330,0.718400,0.081043,-0.682027 HandTipLeft:0.000000,0.000000,0.000000,0.000000 HandTipRight:0.000000,0.000000,0.000000,0.000000 Head:0.000000,0.000000,0.000000,0.000000 HipLeft:0.128503,-0.679317,0.696350,-0.192645 HipRight:-0.087790,0.674691,0.713179,-0.168705 KneeLeft:-0.002685,0.726627,-0.050382,-0.685177 KneeRight:-0.004256,0.687487,0.027875,0.725649 Neck:0.045884,-0.020126,0.993658,-0.100668 ShoulderLeft:-0.000589,0.777320,-0.619700,0.108372 ShoulderRight:0.060189,0.780650,0.621093,-0.034731 SpineBase:0.027813,-0.017188,0.997720,-0.059038 SpineMid:0.036573,-0.017706,0.997437,-0.058885 SpineShoulder:0.045700,-0.018996,0.995661,-0.078804 ThumbLeft:0.000000,0.000000,0.000000,0.000000 ThumbRight:0.000000,0.000000,0.000000,0.000000 WristLeft:0.092821,-0.523371,-0.065673,0.844484 WristRight:-0.042266,0.728338,0.112656,-0.674571 END:
KINECT_DATA POSITION:6.408391,-0.336705,-7.797289 HEAD_JOINT1:0.976442,0.180827,-0.000000,0.117740 LARM_JOINT2:0.835387,0.000000,-0.024047,-0.549136 LARM_JOINT3:0.974841,0.000000,-0.168894,-0.145465 LLEG_JOINT2:0.998414,0.035599,0.000000,0.043607 LLEG_JOINT4:0.995601,0.086175,0.000000,-0.036779 RARM_JOINT2:0.794125,0.000000,-0.012596,0.607624 RARM_JOINT3:0.971254,0.000000,0.206248,0.118856 RLEG_JOINT2:0.999734,0.016764,0.000000,-0.015835 RLEG_JOINT4:0.994692,0.098532,0.000000,0.029662 WAIST:0.999564,0.000000,-0.028617,-0.007317 WAIST_JOINT0:0.998896,0.000000,-0.046951,0.001546 WAIST_JOINT1:0.996359,0.084209,0.000000,-0.013356 END:
KINECT_DATA_Sensor  AnkleLeft:0.086408,0.739901,-0.085142,-0.661688 AnkleRight:0.088316,0.681666,0.073883,0.722546 ElbowLeft:-0.031428,0.896794,-0.188719,-0.398947 ElbowRight:0.003461,0.823558,0.178155,0.538518 FootLeft:0.000000,0.000000,0.000000,0.000000 FootRight:0.000000,0.000000,0.000000,0.000000 HandLeft:-0.006854,-0.508139,-0.085611,0.856982 HandRight:0.100976,-0.680346,-0.080459,0.721428 HandTipLeft:0.000000,0.000000,0.000000,0.000000 HandTipRight:0.000000,0.000000,0.000000,0.000000 Head:0.000000,0.000000,0.000000,0.000000 HipLeft:0.128925,-0.678855,0.696655,-0.192892 HipRight:-0.087279,0.675113,0.712848,-0.168678 KneeLeft:-0.002047,0.726976,-0.050657,-0.684789 KneeRight:-0.003820,0.687133,0.028199,0.725974 Neck:0.045763,-0.020496,0.993648,-0.100741 ShoulderLeft:-0.000402,0.777022,-0.620081,0.108334 ShoulderRight:0.060276,0.780349,0.621455,-0.034870 SpineBase:0.028294,-0.017477,0.997693,-0.059177 SpineMid:0.036755,-0.017978,0.997418,-0.059027 SpineShoulder:0.045574,-0.019347,0.995651,-0.078911 ThumbLeft:0.000000,0.000000,0.000000,0.000000 ThumbRight:0.000000,0.000000,0.000000,0.000000 WristLeft:0.087637,-0.494206,-0.076158,0.861556 WristRight:0.035884,-0.682971,-0.113419,0.720693 END:
KINECT_DATA POSITION:6.400375,-0.342923,-7.713985 HEAD_JOINT1:0.976243,0.181728,-0.000000,0.118005 LARM_JOINT2:0.835174,0.000000,-0.023422,-0.549486 LARM_JOINT3:0.974534,0.000000,-0.171465,-0.144510 LLEG_JOINT2:0.998389,0.035983,0.000000,0.043879 LLEG_JOINT4:0.995389,0.088258,0.000000,-0.037577 RARM_JOINT2:0.793845,0.000000,-0.013216,0.607977 RARM_JOINT3:0.971470,0.000000,0.204895,0.119434 RLEG_JOINT2:0.999720,0.017720,0.000000,-0.015697 RLEG_JOINT4:0.994870,0.097026,0.000000,0.028612 WAIST:0.999572,0.000000,-0.028301,-0.007371 WAIST_JOINT0:0.998879,0.000000,-0.047310,0.001329 WAIST_JOINT1:0.996358,0.084218,0.000000,-0.013317 END:
KINECT_DATA_Sensor  AnkleLeft:0.087607,0.731852,-0.087425,-0.670130 AnkleRight:0.087199,0.681687,0.074274,0.722622 ElbowLeft:-0.030785,0.896500,-0.188627,-0.399699 ElbowRight:0.004376,0.824658,0.178029,0.536866 FootLeft:0.000000,0.000000,0.000000,0.000000 FootRight:0.000000,0.000000,0.000000,0.000000 HandLeft:0.005889,-0.561759,-0.093438,0.821986 HandRight:-0.100174,0.714820,0.072446,-0.688294 HandTipLeft:0.000000,0.000000,0.000000,0.000000 HandTipRight:0.000000,0.000000,0.000000,0.000000 Head:0.000000,0.000000,0.000000,0.000000 HipLeft:0.128651,-0.678983,0.696650,-0.192641 HipRight:-0.087372,0.675078,0.712849,-0.168766 KneeLeft:-0.001923,0.726773,-0.051088,-0.684973 KneeRight:-0.003076,0.687338,0.028794,0.725761 Neck:0.046114,-0.020584,0.993629,-0.100749 ShoulderLeft:-0.000086,0.776966,-0.620178,0.108181 ShoulderRight:0.061044,0.780071,0.621767,-0.034200 SpineBase:0.027984,-0.017508,0.997702,-0.059167 SpineMid:0.036773,-0.018029,0.997417,-0.059010 SpineShoulder:0.045922,-0.019448,0.995635,-0.078897 ThumbLeft:0.000000,0.000000,0.000000,0.000000 ThumbRight:0.000000,0.000000,0.000000,0.000000 WristLeft:0.091939,-0.547679,-0.070127,0.828660 WristRight:-0.042854,0.723265,0.109871,-0.680426 END:
KINECT_DATA POSITION:6.410684,-0.362122,-7.585347 HEAD_JOINT1:0.975547,0.184376,-0.000000,0.119638 LARM_JOINT2:0.835063,0.000000,-0.021744,-0.549725 LARM_JOINT3:0.975182,0.000000,-0.172411,-0.138908 LLEG_JOINT2:0.998360,0.036623,0.000000,0.043991 LLEG_JOINT4:0.995375,0.086698,0.000000,-0.041367 RARM_JOINT2:0.793366,0.000000,-0.013870,0.608587 RARM_JOINT3:0.971151,0.000000,0.206953,0.118475 RLEG_JOINT2:0.999726,0.017792,0.000000,-0.015213 RLEG_JOINT4:0.994799,0.097916,0.000000,0.028050 WAIST:0.999548,0.000000,-0.029137,-0.007423 WAIST_JOINT0:0.998847,0.000000,-0.048003,0.001115 WAIST_JOINT1:0.996380,0.083952,0.000000,-0.013393 END:
KINECT_DATA_Sensor  AnkleLeft:0.089267,0.730246,-0.084514,-0.672034 AnkleRight:0.090367,0.705252,0.071913,0.699487 ElbowLeft:-0.030022,0.896252,-0.188826,-0.400220 ElbowRight:0.005138,0.824426,0.177593,0.537361 FootLeft:0.000000,0.000000,0.000000,0.000000 FootRight:0.000000,0.000000,0.000000,0.000000 HandLeft:0.024778,-0.550503,-0.085356,0.830088 HandRight:0.089955,-0.581376,-0.099862,0.802457 HandTipLeft:0.000000,0.000000,0.000000,0.000000 HandTipRight:0.000000,0.000000,0.000000,0.000000 Head:0.000000,0.000000,0.000000,0.000000 HipLeft:0.129172,-0.678888,0.696534,-0.193046 HipRight:-0.086898,0.675153,0.712964,-0.168223 KneeLeft:-0.001572,0.727365,-0.051586,-0.684308 KneeRight:-0.002709,0.686728,0.028526,0.726350 Neck:0.046879,-0.020639,0.993626,-0.100422 ShoulderLeft:-0.001250,0.777660,-0.619173,0.108940 ShoulderRight:0.060811,0.780437,0.621353,-0.033778 SpineBase:0.028821,-0.017514,0.997682,-0.059101 SpineMid:0.037577,-0.018032,0.997391,-0.058945 SpineShoulder:0.046688,-0.019503,0.995616,-0.078666 ThumbLeft:0.000000,0.000000,0.000000,0.000000 ThumbRight:0.000000,0.000000,0.000000,0.000000 WristLeft:0.090867,-0.540718,-0.070963,0.833265 WristRight:0.021422,-0.585722,-0.114874,0.802044 END:
KINECT_DATA POSITION:6.403425,-0.373274,-7.486749 HEAD_JOINT1:0.975762,0.182918,-0.000000,0.120121 LARM_JOINT2:0.835426,0.000000,-0.020755,-0.549211 LARM_JOINT3:0.974178,0.000000,-0.176825,-0.140392 LLEG_JOINT2:0.998322,0.037622,0.000000,0.044015 LLEG_JOINT4:0.995425,0.085895,0.000000,-0.041844 RARM_JOINT2:0.792599,0.000000,-0.012869,0.609607 RARM_JOINT3:0.967888,0.000000,0.217359,0.126287 RLEG_JOINT2:0.999735,0.017678,0.000000,-0.014761 RLEG_JOINT4:0.994726,0.098777,0.000000,0.027626 WAIST:0.999510,0.000000,-0.030398,-0.007510 WAIST_JOINT0:0.998768,0.000000,-0.049611,0.000827 WAIST_JOINT1:0.996383,0.083894,0.000000,-0.013503 END:
KINECT_DATA_Sensor  AnkleLeft:0.088667,0.723110,-0.085434,-0.679670 AnkleRight:0.089425,0.689383,0.074232,0.715013 ElbowLeft:-0.029616,0.897083,-0.189575,-0.398027 ElbowRight:0.005678,0.825522,0.176231,0.536120 FootLeft:0.000000,0.000000,0.000000,0.000000 FootRight:0.000000,0.000000,0.000000,0.000000 HandLeft:0.035230,-0.598742,-0.106219,0.793086 HandRight:0.133327,-0.530970,-0.125768,0.827331 HandTipLeft:0.000000,0.000000,0.000000,0.000000 HandTipRight:0.000000,0.000000,0.000000,0.000000 Head:0.000000,0.000000,0.000000,0.000000 HipLeft:0.129896,-0.678728,0.696385,-0.193659 HipRight:-0.086081,0.675230,0.713175,-0.167437 KneeLeft:-0.000912,0.728255,-0.052260,-0.683310 KneeRight:-0.002515,0.685816,0.028176,0.727225 Neck:0.048491,-0.020765,0.993552,-0.100363 ShoulderLeft:-0.002304,0.777715,-0.618895,0.110104 ShoulderRight:0.061831,0.780318,0.621472,-0.032447 SpineBase:0.030081,-0.017593,0.997645,-0.059084 SpineMid:0.039014,-0.018122,0.997335,-0.058924 SpineShoulder:0.048302,-0.019622,0.995540,-0.078619 ThumbLeft:0.000000,0.000000,0.000000,0.000000 ThumbRight:0.000000,0.000000,0.000000,0.000000 WristLeft:0.094467,-0.588071,-0.063201,0.800783 WristRight:0.017287,-0.541275,-0.115260,0.832729 END:
KINECT_DATA POSITION:6.368506,-0.391985,-7.401216 HEAD_JOINT1:0.975523,0.182957,-0.000000,0.121989 LARM_JOINT2:0.835490,0.000000,-0.021244,-0.549095 LARM_JOINT3:0.972880,0.000000,-0.177343,-0.148505 LLEG_JOINT2:0.998299,0.037788,0.000000,0.044386 LLEG_JOINT4:0.995146,0.088837,0.000000,-0.042347 RARM_JOINT2:0.791638,0.000000,-0.012498,0.610863 RARM_JOINT3:0.957439,0.000000,0.257823,0.129763 RLEG_JOINT2:0.999724,0.018295,0.000000,-0.014710 RLEG_JOINT4:0.994515,0.100755,0.000000,0.028084 WAIST:0.999486,0.000000,-0.031188,-0.007482 WAIST_JOINT0:0.998745,0.000000,-0.050078,0.001072 WAIST_JOINT1:0.996414,0.083464,0.000000,-0.013923 END:
KINECT_DATA_Sensor  AnkleLeft:0.090171,0.718318,-0.088320,-0.684169 AnkleRight:0.090809,0.679591,0.076636,0.723904 ElbowLeft:-0.031071,0.895999,-0.188807,-0.400715 ElbowRight:0.005479,0.824305,0.174868,0.538435 FootLeft:0.000000,0.000000,0.000000,0.000000 FootRight:0.000000,0.000000,0.000000,0.000000 HandLeft:-0.000562,-0.555894,-0.109341,0.824030 HandRight:0.150399,-0.396403,-0.244048,0.872173 HandTipLeft:0.000000,0.000000,0.000000,0.000000 HandTipRight:0.000000,0.000000,0.000000,0.000000 Head:0.000000,0.000000,0.000000,0.000000 HipLeft:0.130776,-0.678664,0.696255,-0.193756 HipRight:-0.085864,0.675354,0.713209,-0.166905 KneeLeft:-0.001132,0.728791,-0.052651,-0.682708 KneeRight:-0.001991,0.685246,0.028539,0.727750 Neck:0.048949,-0.021046,0.993564,-0.099962 ShoulderLeft:-0.003123,0.777860,-0.618671,0.110318 ShoulderRight:0.061601,0.780669,0.621083,-0.031891 SpineBase:0.030844,-0.017965,0.997639,-0.058674 SpineMid:0.039616,-0.018481,0.997329,-0.058514 SpineShoulder:0.048751,-0.019933,0.995545,-0.078211 ThumbLeft:0.000000,0.000000,0.000000,0.000000 ThumbRight:0.000000,0.000000,0.000000,0.000000 WristLeft:0.091112,-0.539425,-0.074697,0.833750 WristRight:0.022895,-0.430009,-0.132579,0.892744 END:
KINECT_DATA POSITION:6.360860,-0.403368,-7.353926 HEAD_JOINT1:0.975365,0.182276,-0.000000,0.124255 LARM_JOINT2:0.835653,0.000000,-0.020772,-0.548865 LARM_JOINT3:0.970503,0.000000,-0.182143,-0.157951 LLEG_JOINT2:0.998316,0.038130,0.000000,0.043712 LLEG_JOINT4:0.995483,0.086716,0.000000,-0.038648 RARM_JOINT2:0.791011,0.000000,-0.016663,0.611575 RARM_JOINT3:0.931329,0.000000,0.339211,0.132522 RLEG_JOINT2:0.999707,0.018839,0.000000,-0.015183 RLEG_JOINT4:0.994676,0.098875,0.000000,0.029030 WAIST:0.999459,0.000000,-0.032045,-0.007458 WAIST_JOINT0:0.998708,0.000000,-0.050798,0.001484 WAIST_JOINT1:0.996444,0.083083,0.000000,-0.014043 END:
KINECT_DATA_Sensor  AnkleLeft:0.087773,0.727848,-0.088085,-0.674370 AnkleRight:0.090247,0.679217,0.075260,0.724469 ElbowLeft:-0.030534,0.897936,-0.189091,-0.396263 ElbowRight:-0.000184,0.795594,0.175755,0.579776 FootLeft:0.000000,0.000000,0.000000,0.000000 FootRight:0.000000,0.000000,0.000000,0.000000 HandLeft:-0.010782,-0.596320,-0.124448,0.792969 HandRight:0.171822,-0.344022,-0.333795,0.860643 HandTipLeft:0.000000,0.000000,0.000000,0.000000 HandTipRight:0.000000,0.000000,0.000000,0.000000 Head:0.000000,0.000000,0.000000,0.000000 HipLeft:0.131646,-0.678609,0.696124,-0.193830 HipRight:-0.085717,0.675558,0.713238,-0.166029 KneeLeft:-0.000473,0.729393,-0.052449,-0.682081 KneeRight:-0.001881,0.684600,0.029237,0.728330 Neck:0.049630,-0.021025,0.993573,-0.099539 ShoulderLeft:-0.003793,0.778057,-0.618377,0.110558 ShoulderRight:0.061779,0.781280,0.620343,-0.030985 SpineBase:0.031699,-0.017970,0.997646,-0.058086 SpineMid:0.040382,-0.018475,0.997333,-0.057927 SpineShoulder:0.049428,-0.019962,0.995538,-0.077865 ThumbLeft:0.000000,0.000000,0.000000,0.000000 ThumbRight:0.000000,0.000000,0.000000,0.000000 WristLeft:0.091525,-0.576247,-0.077079,0.808468 WristRight:0.052809,-0.390319,-0.199245,0.897309 END:
KINECT_DATA POSITION:6.376561,-0.407920,-7.317150 HEAD_JOINT1:0.975861,0.178701,-0.000000,0.125545 LARM_JOINT2:0.834422,0.000000,-0.021410,-0.550710 LARM_JOINT3:0.970850,0.000000,-0.178092,-0.160417 LLEG_JOINT2:0.998360,0.038483,0.000000,0.042383 LLEG_JOINT4:0.995586,0.085843,0.000000,-0.037941 RARM_JOINT2:0.791945,0.000000,-0.016336,0.610373 RARM_JOINT3:0.900375,0.000000,0.415583,0.128903 RLEG_JOINT2:0.999701,0.018839,0.000000,-0.015599 RLEG_JOINT4:0.994581,0.099988,0.000000,0.028485 WAIST:0.999444,0.000000,-0.032546,-0.007306 WAIST_JOINT0:0.998681,0.000000,-0.051289,0.002207 WAIST_JOINT1:0.996515,0.082399,0.000000,-0.012952 END:
KINECT_DATA_Sensor  AnkleLeft:0.088386,0.733547,-0.086754,-0.668259 AnkleRight:0.095049,0.721660,0.070898,0.682016 ElbowLeft:-0.029538,0.901638,-0.187955,-0.388394 ElbowRight:-0.008551,0.769807,0.175281,0.613678 FootLeft:0.000000,0.000000,0.000000,0.000000 FootRight:0.000000,0.000000,0.000000,0.000000 HandLeft:-0.013945,-0.600389,-0.101610,0.793104 HandRight:0.222618,-0.333865,-0.403313,0.822383 HandTipLeft:0.000000,0.000000,0.000000,0.000000 HandTipRight:0.000000,0.000000,0.000000,0.000000 Head:0.000000,0.000000,0.000000,0.000000 HipLeft:0.132027,-0.678507,0.696149,-0.193842 HipRight:-0.085794,0.675857,0.713133,-0.165221 KneeLeft:0.000602,0.729754,-0.051901,-0.681736 KneeRight:-0.002046,0.684206,0.029430,0.728692 Neck:0.050069,-0.019344,0.993681,-0.098578 ShoulderLeft:-0.004310,0.777415,-0.619209,0.110399 ShoulderRight:0.061718,0.781769,0.619773,-0.030179 SpineBase:0.032218,-0.017404,0.997669,-0.057584 SpineMid:0.040834,-0.017900,0.997353,-0.057432 SpineShoulder:0.049843,-0.018813,0.995586,-0.077265 ThumbLeft:0.000000,0.000000,0.000000,0.000000 ThumbRight:0.000000,0.000000,0.000000,0.000000 WristLeft:0.087169,-0.583217,-0.082929,0.803357 WristRight:0.086217,-0.398806,-0.268123,0.872714 END:
KINECT_DATA POSITION:6.420387,-0.409167,-7.234108 HEAD_JOINT1:0.976327,0.175651,-0.000000,0.126227 LARM_JOINT2:0.833710,0.000000,-0.020696,-0.551814 LARM_JOINT3:0.970320,0.000000,-0.182087,-0.159135 LLEG_JOINT2:0.998363,0.040100,0.000000,0.040783 LLEG_JOINT4:0.995594,0.086142,0.000000,-0.037041 RARM_JOINT2:0.794783,0.000000,-0.023869,0.606424 RARM_JOINT3:0.861598,0.000000,0.488490,0.137937 RLEG_JOINT2:0.999660,0.020262,0.000000,-0.016415 RLEG_JOINT4:0.994975,0.096101,0.000000,0.028089 WAIST:0.999462,0.000000,-0.032049,-0.007016 WAIST_JOINT0:0.998671,0.000000,-0.051460,0.002872 WAIST_JOINT1:0.996621,0.081288,0.000000,-0.011742 END:
KINECT_DATA_Sensor  AnkleLeft:0.089754,0.730770,-0.088115,-0.670936 AnkleRight:0.092294,0.719923,0.070412,0.684277 ElbowLeft:-0.029357,0.902474,-0.188059,-0.386411 ElbowRight:-0.009041,0.760559,0.180576,0.623586 FootLeft:0.000000,0.000000,0.000000,0.000000 FootRight:0.000000,0.000000,0.000000,0.000000 HandLeft:0.005422,-0.618303,-0.110541,0.778108 HandRight:0.230624,-0.264697,-0.490888,0.797356 HandTipLeft:0.000000,0.000000,0.000000,0.000000 HandTipRight:0.000000,0.000000,0.000000,0.000000 Head:0.000000,0.000000,0.000000,0.000000 HipLeft:0.132217,-0.678518,0.696280,-0.193200 HipRight:-0.087136,0.676237,0.712754,-0.164597 KneeLeft:0.002704,0.729470,-0.052189,-0.682014 KneeRight:-0.001375,0.684475,0.030794,0.728384 Neck:0.050271,-0.017665,0.993848,-0.097089 ShoulderLeft:-0.004914,0.776999,-0.619844,0.109734 ShoulderRight:0.061244,0.782119,0.619420,-0.029288 SpineBase:0.031764,-0.016273,0.997766,-0.056474 SpineMid:0.040705,-0.016779,0.997441,-0.056326 SpineShoulder:0.050037,-0.017528,0.995679,-0.076236 ThumbLeft:0.000000,0.000000,0.000000,0.000000 ThumbRight:0.000000,0.000000,0.000000,0.000000 WristLeft:0.088299,-0.603896,-0.082052,0.787896 WristRight:0.098211,-0.347703,-0.318541,0.876350 END:
KINECT_DATA POSITION:6.435979,-0.392951,-7.207835 HEAD_JOINT1:0.976535,0.172304,-0.000000,0.129193 LARM_JOINT2:0.833872,0.000000,-0.020164,-0.551590 LARM_JOINT3:0.969565,0.000000,-0.183378,-0.162225 LLEG_JOINT2:0.998393,0.040577,0.000000,0.039554 LLEG_JOINT4:0.995614,0.086354,0.000000,-0.036005 RARM_JOINT2:0.795486,0.000000,-0.033074,0.605069 RARM_JOINT3:0.832812,0.000000,0.536308,0.137109 RLEG_JOINT2:0.999653,0.019578,0.000000,-0.017600 RLEG_JOINT4:0.994684,0.098504,0.000000,0.030030 WAIST:0.999465,0.000000,-0.032009,-0.006796 WAIST_JOINT0:0.998618,0.000000,-0.052479,0.002817 WAIST_JOINT1:0.996750,0.079885,0.000000,-0.010419 END:
KINECT_DATA_Sensor  AnkleLeft:0.088516,0.717837,-0.090333,-0.684628 AnkleRight:0.093279,0.710366,0.072026,0.693896 ElbowLeft:-0.030379,0.903400,-0.189346,-0.383527 ElbowRight:-0.007317,0.748737,0.183729,0.636855 FootLeft:0.000000,0.000000,0.000000,0.000000 FootRight:0.000000,0.000000,0.000000,0.000000 HandLeft:-0.011659,-0.502578,-0.116439,0.856576 HandRight:0.225974,-0.238344,-0.535777,0.777863 HandTipLeft:0.000000,0.000000,0.000000,0.000000 HandTipRight:0.000000,0.000000,0.000000,0.000000 Head:0.000000,0.000000,0.000000,0.000000 HipLeft:0.132395,-0.678402,0.696416,-0.192995 HipRight:-0.087848,0.676506,0.712551,-0.163993 KneeLeft:0.003775,0.729461,-0.051852,-0.682044 KneeRight:-0.002531,0.684474,0.031037,0.728372 Neck:0.051436,-0.016436,0.993956,-0.095583 ShoulderLeft:-0.006348,0.777187,-0.619633,0.109517 ShoulderRight:0.061174,0.782007,0.619653,-0.027418 SpineBase:0.031758,-0.015322,0.997819,-0.055809 SpineMid:0.041300,-0.015855,0.997469,-0.055660 SpineShoulder:0.051258,-0.016052,0.995749,-0.074820 ThumbLeft:0.000000,0.000000,0.000000,0.000000 ThumbRight:0.000000,0.000000,0.000000,0.000000 WristLeft:0.076064,-0.487934,-0.094840,0.864373 WristRight:0.109086,-0.321552,-0.363365,0.867566 END:
KINECT_DATA POSITION:6.419839,-0.378115,-7.192433 HEAD_JOINT1:0.976374,0.171912,-0.000000,0.130922 LARM_JOINT2:0.834462,0.000000,-0.019988,-0.550703 LARM_JOINT3:0.969691,0.000000,-0.180884,-0.164257 LLEG_JOINT2:0.998377,0.041392,0.000000,0.039112 LLEG_JOINT4:0.995542,0.087305,0.000000,-0.035705 RARM_JOINT2:0.795649,0.000000,-0.040602,0.604395 RARM_JOINT3:0.813418,0.000000,0.567417,0.128018 RLEG_JOINT2:0.999627,0.020706,0.000000,-0.017782 RLEG_JOINT4:0.994851,0.096490,0.000000,0.030996 WAIST:0.999468,0.000000,-0.031896,-0.006841 WAIST_JOINT0:0.998539,0.000000,-0.053991,0.002178 WAIST_JOINT1:0.996839,0.078877,0.000000,-0.009558 END:
KINECT_DATA_Sensor  AnkleLeft:0.090283,0.720782,-0.091063,-0.681197 AnkleRight:0.092855,0.708386,0.071180,0.696061 ElbowLeft:-0.030989,0.905061,-0.190766,-0.378830 ElbowRight:-0.005297,0.740531,0.186314,0.645657 FootLeft:0.000000,0.000000,0.000000,0.000000 FootRight:0.000000,0.000000,0.000000,0.000000 HandLeft:-0.010650,-0.508684,-0.105097,0.854448 HandRight:0.210692,-0.229884,-0.576941,0.754918 HandTipLeft:0.000000,0.000000,0.000000,0.000000 HandTipRight:0.000000,0.000000,0.000000,0.000000 Head:0.000000,0.000000,0.000000,0.000000 HipLeft:0.132576,-0.678518,0.696347,-0.192710 HipRight:-0.088700,0.676641,0.712468,-0.163337 KneeLeft:0.004696,0.729427,-0.052110,-0.682055 KneeRight:-0.001869,0.684469,0.031973,0.728338 Neck:0.053073,-0.016081,0.993963,-0.094666 ShoulderLeft:-0.007879,0.778037,-0.618492,0.109839 ShoulderRight:0.061633,0.781957,0.619762,-0.025297 SpineBase:0.031708,-0.014405,0.997878,-0.055020 SpineMid:0.042127,-0.014979,0.997492,-0.054867 SpineShoulder:0.052948,-0.015304,0.995754,-0.073728 ThumbLeft:0.000000,0.000000,0.000000,0.000000 ThumbRight:0.000000,0.000000,0.000000,0.000000 WristLeft:0.075849,-0.495301,-0.095907,0.860073 WristRight:0.113227,-0.311728,-0.387707,0.860052 END:
KINECT_DATA POSITION:6.344933,-0.357030,-7.196438 HEAD_JOINT1:0.976284,0.171108,-0.000000,0.132631 LARM_JOINT2:0.835530,0.000000,-0.019477,-0.549100 LARM_JOINT3:0.970091,0.000000,-0.176245,-0.166918 LLEG_JOINT2:0.998333,0.042009,0.000000,0.039574 LLEG_JOINT4:0.996137,0.081183,0.000000,-0.033467 RARM_JOINT2:0.793885,0.000000,-0.043690,0.606497 RARM_JOINT3:0.799291,0.000000,0.591553,0.105829 RLEG_JOINT2:0.999643,0.020561,0.000000,-0.017073 RLEG_JOINT4:0.994935,0.096208,0.000000,0.029110 WAIST:0.999462,0.000000,-0.031999,-0.007164 WAIST_JOINT0:0.998473,0.000000,-0.055224,0.001583 WAIST_JOINT1:0.996877,0.078417,0.000000,-0.009376 END:
KINECT_DATA_Sensor  AnkleLeft:0.086486,0.734701,-0.087041,-0.667202 AnkleRight:0.090109,0.694467,0.073829,0.710032 ElbowLeft:-0.030631,0.907313,-0.192500,-0.372544 ElbowRight:-0.005083,0.729780,0.185311,0.658069 FootLeft:0.000000,0.000000,0.000000,0.000000 FootRight:0.000000,0.000000,0.000000,0.000000 HandLeft:-0.008648,-0.561300,-0.086718,0.823012 HandRight:0.182923,-0.232166,-0.607890,0.736959 HandTipLeft:0.000000,0.000000,0.000000,0.000000 HandTipRight:0.000000,0.000000,0.000000,0.000000 Head:0.000000,0.000000,0.000000,0.000000 HipLeft:0.132827,-0.678793,0.696080,-0.192532 HipRight:-0.089155,0.676579,0.712613,-0.162713 KneeLeft:0.005009,0.729546,-0.052649,-0.681884 KneeRight:-0.001718,0.684342,0.031585,0.728475 Neck:0.054383,-0.016501,0.993918,-0.094324 ShoulderLeft:-0.008064,0.779054,-0.617235,0.109683 ShoulderRight:0.063051,0.781868,0.619815,-0.023135 SpineBase:0.031873,-0.013962,0.997912,-0.054412 SpineMid:0.042894,-0.014562,0.997499,-0.054254 SpineShoulder:0.054279,-0.015473,0.995719,-0.073195 ThumbLeft:0.000000,0.000000,0.000000,0.000000 ThumbRight:0.000000,0.000000,0.000000,0.000000 WristLeft:0.079649,-0.548764,-0.092066,0.827066 WristRight:0.110877,-0.304141,-0.410178,0.852619 END:
KINECT_DATA POSITION:6.271873,-0.334697,-7.226336 HEAD_JOINT1:0.976191,0.170103,-0.000000,0.134598 LARM_JOINT2:0.835938,0.000000,-0.017161,-0.548555 LARM_JOINT3:0.969364,0.000000,-0.178279,-0.168967 LLEG_JOINT2:0.998357,0.041606,0.000000,0.039387 LLEG_JOINT4:0.996142,0.081802,0.000000,-0.031788 RARM_JOINT2:0.792408,0.000000,-0.044333,0.608379 RARM_JOINT3:0.787752,0.000000,0.611215,0.076567 RLEG_JOINT2:0.999651,0.020500,0.000000,-0.016677 RLEG_JOINT4:0.994811,0.097544,0.000000,0.028913 WAIST:0.999449,0.000000,-0.032380,-0.007239 WAIST_JOINT0:0.998447,0.000000,-0.055705,0.001094 WAIST_JOINT1:0.996966,0.077316,0.000000,-0.009055 END:
KINECT_DATA_Sensor  AnkleLeft:0.084713,0.728372,-0.089055,-0.674068 AnkleRight:0.093457,0.716005,0.071652,0.688091 ElbowLeft:-0.030051,0.907805,-0.193806,-0.370711 ElbowRight:-0.009297,0.709736,0.182679,0.680306 FootLeft:0.000000,0.000000,0.000000,0.000000 FootRight:0.000000,0.000000,0.000000,0.000000 HandLeft:-0.002248,-0.591312,-0.091224,0.801264 HandRight:0.109953,-0.197767,-0.606608,0.762119 HandTipLeft:0.000000,0.000000,0.000000,0.000000 HandTipRight:0.000000,0.000000,0.000000,0.000000 Head:0.000000,0.000000,0.000000,0.000000 HipLeft:0.133373,-0.678978,0.695890,-0.192189 HipRight:-0.089693,0.676826,0.712564,-0.161602 KneeLeft:0.004901,0.729827,-0.052173,-0.681621 KneeRight:-0.001538,0.684015,0.031304,0.728794 Neck:0.054914,-0.016407,0.993993,-0.093241 ShoulderLeft:-0.008641,0.779199,-0.617170,0.108972 ShoulderRight:0.063112,0.781423,0.620423,-0.021703 SpineBase:0.032301,-0.013308,0.997963,-0.053387 SpineMid:0.043404,-0.013902,0.997541,-0.053236 SpineShoulder:0.054833,-0.015174,0.995775,-0.072083 ThumbLeft:0.000000,0.000000,0.000000,0.000000 ThumbRight:0.000000,0.000000,0.000000,0.000000 WristLeft:0.082053,-0.578736,-0.090132,0.806355 WristRight:0.076425,-0.235773,-0.463369,0.850799 END:
KINECT_DATA POSITION:6.243379,-0.321519,-7.244706 HEAD_JOINT1:0.976207,0.170475,-0.000000,0.134006 LARM_JOINT2:0.835596,0.000000,-0.016074,-0.549109 LARM_JOINT3:0.969803,0.000000,-0.177634,-0.167115 LLEG_JOINT2:0.998332,0.042050,0.000000,0.039571 LLEG_JOINT4:0.995754,0.085935,0.000000,-0.032999 RARM_JOINT2:0.792307,0.000000,-0.045018,0.608459 RARM_JOINT3:0.784115,0.000000,0.616087,0.074833 RLEG_JOINT2:0.999639,0.020704,0.000000,-0.017143 RLEG_JOINT4:0.994951,0.095611,0.000000,0.030519 WAIST:0.999431,0.000000,-0.032903,-0.007405 WAIST_JOINT0:0.998510,0.000000,-0.054562,0.001302 WAIST_JOINT1:0.997016,0.076700,0.000000,-0.008761 END:
KINECT_DATA_Sensor  AnkleLeft:0.088767,0.728866,-0.091463,-0.672688 AnkleRight:0.088865,0.677308,0.074676,0.726485 ElbowLeft:-0.029854,0.907604,-0.193482,-0.371387 ElbowRight:-0.010117,0.705440,0.182365,0.684832 FootLeft:0.000000,0.000000,0.000000,0.000000 FootRight:0.000000,0.000000,0.000000,0.000000 HandLeft:-0.001992,-0.541447,-0.084373,0.836488 HandRight:0.120660,-0.201753,-0.609053,0.757490 HandTipLeft:0.000000,0.000000,0.000000,0.000000 HandTipRight:0.000000,0.000000,0.000000,0.000000 Head:0.000000,0.000000,0.000000,0.000000 HipLeft:0.133906,-0.679097,0.695678,-0.192168 HipRight:-0.089762,0.676908,0.712665,-0.160770 KneeLeft:0.005160,0.730211,-0.052505,-0.681182 KneeRight:-0.001810,0.683598,0.031899,0.729159 Neck:0.053760,-0.016126,0.994115,-0.092661 ShoulderLeft:-0.008014,0.778757,-0.617995,0.107497 ShoulderRight:0.062267,0.781186,0.620793,-0.022072 SpineBase:0.032855,-0.013044,0.997979,-0.052805 SpineMid:0.043119,-0.013586,0.997588,-0.052668 SpineShoulder:0.053683,-0.014878,0.995885,-0.071484 ThumbLeft:0.000000,0.000000,0.000000,0.000000 ThumbRight:0.000000,0.000000,0.000000,0.000000 WristLeft:0.076480,-0.531034,-0.095223,0.838502 WristRight:0.079617,-0.246143,-0.469321,0.844283 END:
KINECT_DATA POSITION:6.214508,-0.303826,-7.276940 HEAD_JOINT1:0.976208,0.171463,-0.000000,0.132731 LARM_JOINT2:0.835172,0.000000,-0.015353,-0.549774 LARM_JOINT3:0.969205,0.000000,-0.179463,-0.168624 LLEG_JOINT2:0.998312,0.042052,0.000000,0.040057 LLEG_JOINT4:0.996116,0.081906,0.000000,-0.032329 RARM_JOINT2:0.792190,0.000000,-0.046336,0.608513 RARM_JOINT3:0.782859,0.000000,0.616729,0.082324 RLEG_JOINT2:0.999648,0.020859,0.000000,-0.016389 RLEG_JOINT4:0.994656,0.098397,0.000000,0.031267 WAIST:0.999433,0.000000,-0.032797,-0.007685 WAIST_JOINT0:0.998573,0.000000,-0.053382,0.001471 WAIST_JOINT1:0.997047,0.076324,0.000000,-0.008434 END:
KINECT_DATA_Sensor  AnkleLeft:0.084645,0.723871,-0.089846,-0.678803 AnkleRight:0.091876,0.677535,0.075731,0.725790 ElbowLeft:-0.029376,0.907459,-0.192957,-0.372051 ElbowRight:-0.008192,0.710233,0.182690,0.679798 FootLeft:0.000000,0.000000,0.000000,0.000000 FootRight:0.000000,0.000000,0.000000,0.000000 HandLeft:-0.002899,-0.550029,-0.099076,0.829243 HandRight:0.086206,-0.167385,-0.616049,0.764876 HandTipLeft:0.000000,0.000000,0.000000,0.000000 HandTipRight:0.000000,0.000000,0.000000,0.000000 Head:0.000000,0.000000,0.000000,0.000000 HipLeft:0.133948,-0.679394,0.695462,-0.191872 HipRight:-0.090123,0.676822,0.712777,-0.160436 KneeLeft:0.005012,0.730167,-0.052640,-0.681220 KneeRight:-0.001385,0.683638,0.031654,0.729133 Neck:0.052524,-0.016011,0.994215,-0.092314 ShoulderLeft:-0.007048,0.778946,-0.618032,0.105971 ShoulderRight:0.061611,0.781565,0.620368,-0.022431 SpineBase:0.032790,-0.012872,0.998006,-0.052378 SpineMid:0.042478,-0.013380,0.997640,-0.052251 SpineShoulder:0.052447,-0.014753,0.995980,-0.071109 ThumbLeft:0.000000,0.000000,0.000000,0.000000 ThumbRight:0.000000,0.000000,0.000000,0.000000 WristLeft:0.077284,-0.537985,-0.093054,0.834230 WristRight:0.065309,-0.193692,-0.482341,0.851801 END:
KINECT_DATA POSITION:6.208984,-0.296328,-7.318890 HEAD_JOINT1:0.976145,0.173664,-0.000000,0.130312 LARM_JOINT2:0.834290,0.000000,-0.016017,-0.551094 LARM_JOINT3:0.970805,0.000000,-0.175296,-0.163735 LLEG_JOINT2:0.998331,0.041889,0.000000,0.039751 LLEG_JOINT4:0.995822,0.084345,0.000000,-0.035002 RARM_JOINT2:0.792202,0.000000,-0.048413,0.608336 RARM_JOINT3:0.781436,0.000000,0.618063,0.085768 RLEG_JOINT2:0.999654,0.020938,0.000000,-0.015942 RLEG_JOINT4:0.994938,0.096277,0.000000,0.028811 WAIST:0.999466,0.000000,-0.031813,-0.007429 WAIST_JOINT0:0.998676,0.000000,-0.051409,0.002071 WAIST_JOINT1:0.997112,0.075480,0.000000,-0.008371 END:
KINECT_DATA_Sensor  AnkleLeft:0.087175,0.714454,-0.090623,-0.688290 AnkleRight:0.089184,0.679124,0.075661,0.724646 ElbowLeft:-0.029279,0.908290,-0.191357,-0.370856 ElbowRight:-0.007121,0.712418,0.183027,0.677429 FootLeft:0.000000,0.000000,0.000000,0.000000 FootRight:0.000000,0.000000,0.000000,0.000000 HandLeft:0.003914,-0.521746,-0.085538,0.848792 HandRight:0.083503,-0.159411,-0.626904,0.758029 HandTipLeft:0.000000,0.000000,0.000000,0.000000 HandTipRight:0.000000,0.000000,0.000000,0.000000 Head:0.000000,0.000000,0.000000,0.000000 HipLeft:0.133639,-0.679505,0.695687,-0.190873 HipRight:-0.091100,0.677000,0.712477,-0.160464 KneeLeft:0.005000,0.729486,-0.052494,-0.681960 KneeRight:-0.000867,0.684353,0.031205,0.728482 Neck:0.050490,-0.015654,0.994407,-0.091441 ShoulderLeft:-0.006459,0.778381,-0.619084,0.104003 ShoulderRight:0.059600,0.781800,0.620225,-0.023614 SpineBase:0.031799,-0.012606,0.998075,-0.051726 SpineMid:0.040970,-0.013081,0.997741,-0.051608 SpineShoulder:0.050407,-0.014458,0.996147,-0.070292 ThumbLeft:0.000000,0.000000,0.000000,0.000000 ThumbRight:0.000000,0.000000,0.000000,0.000000 WristLeft:0.073742,-0.512752,-0.094094,0.850173 WristRight:0.064112,-0.185453,-0.481857,0.853997 END:
KINECT_DATA POSITION:6.211325,-0.283068,-7.367408 HEAD_JOINT1:0.976184,0.174073,-0.000000,0.129471 LARM_JOINT2:0.834003,0.000000,-0.015383,-0.551546 LARM_JOINT3:0.970769,0.000000,-0.175629,-0.163593 LLEG_JOINT2:0.998345,0.041525,0.000000,0.039789 LLEG_JOINT4:0.995993,0.082562,0.000000,-0.034359 RARM_JOINT2:0.792161,0.000000,-0.047792,0.608438 RARM_JOINT3:0.779577,0.000000,0.620546,0.084747 RLEG_JOINT2:0.999654,0.020864,0.000000,-0.015991 RLEG_JOINT4:0.994967,0.096180,0.000000,0.028097 WAIST:0.999475,0.000000,-0.031556,-0.007307 WAIST_JOINT0:0.998690,0.000000,-0.051147,0.001748 WAIST_JOINT1:0.997146,0.075001,0.000000,-0.008674 END:
KINECT_DATA_Sensor  AnkleLeft:0.084580,0.710043,-0.090130,-0.693225 AnkleRight:0.092803,0.719598,0.070858,0.684503 ElbowLeft:-0.029175,0.907604,-0.190747,-0.372854 ElbowRight:-0.009347,0.707522,0.182423,0.682677 FootLeft:0.000000,0.000000,0.000000,0.000000 FootRight:0.000000,0.000000,0.000000,0.000000 HandLeft:0.007514,-0.566086,-0.088122,0.819588 HandRight:0.117729,-0.184579,-0.602932,0.767166 HandTipLeft:0.000000,0.000000,0.000000,0.000000 HandTipRight:0.000000,0.000000,0.000000,0.000000 Head:0.000000,0.000000,0.000000,0.000000 HipLeft:0.133862,-0.679616,0.695681,-0.190347 HipRight:-0.091604,0.677166,0.712287,-0.160320 KneeLeft:0.004651,0.729303,-0.052341,-0.682170 KneeRight:-0.000875,0.684547,0.031104,0.728304 Neck:0.050224,-0.015890,0.994457,-0.090992 ShoulderLeft:-0.006266,0.778436,-0.619150,0.103202 ShoulderRight:0.059450,0.781541,0.620579,-0.023265 SpineBase:0.031528,-0.012682,0.998112,-0.051169 SpineMid:0.040704,-0.013152,0.997780,-0.051050 SpineShoulder:0.050139,-0.014655,0.996192,-0.069807 ThumbLeft:0.000000,0.000000,0.000000,0.000000 ThumbRight:0.000000,0.000000,0.000000,0.000000 WristLeft:0.078943,-0.556181,-0.089889,0.822405 WristRight:0.078486,-0.223784,-0.481570,0.843713 END:
KINECT_DATA POSITION:6.221707,-0.279600,-7.390106 HEAD_JOINT1:0.975943,0.175137,-0.000000,0.129856 LARM_JOINT2:0.834302,0.000000,-0.014381,-0.551120 LARM_JOINT3:0.970269,0.000000,-0.178144,-0.163837 LLEG_JOINT2:0.998341,0.041516,0.000000,0.039903 LLEG_JOINT4:0.996076,0.081840,0.000000,-0.033672 RARM_JOINT2:0.791673,0.000000,-0.048193,0.609041 RARM_JOINT3:0.774549,0.000000,0.626529,0.086798 RLEG_JOINT2:0.999629,0.021953,0.000000,-0.016124 RLEG_JOINT4:0.994855,0.096209,0.000000,0.031725 WAIST:0.999454,0.000000,-0.032212,-0.007396 WAIST_JOINT0:0.998664,0.000000,-0.051654,0.001210 WAIST_JOINT1:0.997166,0.074684,0.000000,-0.009099 END:
KINECT_DATA_Sensor  AnkleLeft:0.086114,0.730680,-0.087626,-0.671575 AnkleRight:0.091763,0.678445,0.074267,0.725105 ElbowLeft:-0.029213,0.907104,-0.190932,-0.373970 ElbowRight:-0.008472,0.709229,0.182235,0.680965 FootLeft:0.000000,0.000000,0.000000,0.000000 FootRight:0.000000,0.000000,0.000000,0.000000 HandLeft:0.010888,-0.564966,-0.093159,0.819766 HandRight:0.080423,-0.135343,-0.620073,0.768585 HandTipLeft:0.000000,0.000000,0.000000,0.000000 HandTipRight:0.000000,0.000000,0.000000,0.000000 Head:0.000000,0.000000,0.000000,0.000000 HipLeft:0.134561,-0.679640,0.695487,-0.190473 HipRight:-0.091425,0.677209,0.712375,-0.159849 KneeLeft:0.004586,0.729757,-0.052349,-0.681684 KneeRight:-0.000216,0.684051,0.032005,0.728732 Neck:0.050784,-0.016420,0.994446,-0.090706 ShoulderLeft:-0.006802,0.778524,-0.619005,0.103380 ShoulderRight:0.059655,0.780975,0.621294,-0.022640 SpineBase:0.032179,-0.012950,0.998104,-0.050838 SpineMid:0.041313,-0.013415,0.997768,-0.050717 SpineShoulder:0.050697,-0.015096,0.996179,-0.069495 ThumbLeft:0.000000,0.000000,0.000000,0.000000 ThumbRight:0.000000,0.000000,0.000000,0.000000 WristLeft:0.079032,-0.555233,-0.091130,0.822901 WristRight:0.051394,-0.167460,-0.488481,0.854811 END:
KINECT_DATA POSITION:6.239669,-0.264093,-7.428694 HEAD_JOINT1:0.975900,0.175244,-0.000000,0.130035 LARM_JOINT2:0.834403,0.000000,-0.013914,-0.550979 LARM_JOINT3:0.969801,0.000000,-0.180377,-0.164164 LLEG_JOINT2:0.998371,0.040438,0.000000,0.040246 LLEG_JOINT4:0.995706,0.086736,0.000000,-0.032338 RARM_JOINT2:0.791402,0.000000,-0.048464,0.609372 RARM_JOINT3:0.772199,0.000000,0.630194,0.081021 RLEG_JOINT2:0.999642,0.021294,0.000000,-0.016221 RLEG_JOINT4:0.995021,0.094866,0.000000,0.030540 WAIST:0.999454,0.000000,-0.032174,-0.007501 WAIST_JOINT0:0.998648,0.000000,-0.051983,0.000959 WAIST_JOINT1:0.997172,0.074569,0.000000,-0.009350 END:
KINECT_DATA_Sensor  AnkleLeft:0.086971,0.725370,-0.092070,-0.676608 AnkleRight:0.092461,0.709353,0.069999,0.695247 ElbowLeft:-0.029136,0.906607,-0.190869,-0.375212 ElbowRight:-0.010429,0.701413,0.182120,0.689016 FootLeft:0.000000,0.000000,0.000000,0.000000 FootRight:0.000000,0.000000,0.000000,0.000000 HandLeft:0.014995,-0.583049,-0.101060,0.805987 HandRight:0.103153,-0.150847,-0.617960,0.764677 HandTipLeft:0.000000,0.000000,0.000000,0.000000 HandTipRight:0.000000,0.000000,0.000000,0.000000 Head:0.000000,0.000000,0.000000,0.000000 HipLeft:0.134787,-0.679743,0.695396,-0.190280 HipRight:-0.091534,0.677122,0.712448,-0.159827 KneeLeft:0.003672,0.729723,-0.051725,-0.681773 KneeRight:-0.000838,0.684094,0.031700,0.728704 Neck:0.051156,-0.016822,0.994429,-0.090617 ShoulderLeft:-0.007484,0.778342,-0.619149,0.103835 ShoulderRight:0.059495,0.780510,0.621897,-0.022564 SpineBase:0.032135,-0.013269,0.998112,-0.050634 SpineMid:0.041471,-0.013742,0.997768,-0.050508 SpineShoulder:0.051064,-0.015480,0.996163,-0.069364 ThumbLeft:0.000000,0.000000,0.000000,0.000000 ThumbRight:0.000000,0.000000,0.000000,0.000000 WristLeft:0.081325,-0.572916,-0.089343,0.810661 WristRight:0.058439,-0.196183,-0.493495,0.845316 END:
KINECT_DATA POSITION:6.284244,-0.251559,-7.488000 HEAD_JOINT1:0.975970,0.175038,-0.000000,0.129787 LARM_JOINT2:0.834497,0.000000,-0.014431,-0.550824 LARM_JOINT3:0.969874,0.000000,-0.184075,-0.159562 LLEG_JOINT2:0.998359,0.040513,0.000000,0.040462 LLEG_JOINT4:0.995904,0.084470,0.000000,-0.032236 RARM_JOINT2:0.791978,0.000000,-0.048384,0.608629 RARM_JOINT3:0.769347,0.000000,0.635936,0.060751 RLEG_JOINT2:0.999656,0.020886,0.000000,-0.015863 RLEG_JOINT4:0.995017,0.095105,0.000000,0.029937 WAIST:0.999443,0.000000,-0.032451,-0.007768 WAIST_JOINT0:0.998620,0.000000,-0.052510,0.000489 WAIST_JOINT1:0.997180,0.074504,0.000000,-0.009031 END:
KINECT_DATA_Sensor  AnkleLeft:0.086982,0.737678,-0.089022,-0.663582 AnkleRight:0.088887,0.678430,0.074164,0.725488 ElbowLeft:-0.030005,0.906213,-0.190781,-0.376140 ElbowRight:-0.013579,0.691535,0.182538,0.698767 FootLeft:0.000000,0.000000,0.000000,0.000000 FootRight:0.000000,0.000000,0.000000,0.000000 HandLeft:0.041065,-0.643268,-0.105558,0.757217 HandRight:0.103034,-0.197674,-0.605776,0.763770 HandTipLeft:0.000000,0.000000,0.000000,0.000000 HandTipRight:0.000000,0.000000,0.000000,0.000000 Head:0.000000,0.000000,0.000000,0.000000 HipLeft:0.135078,-0.679917,0.695112,-0.190489 HipRight:-0.091556,0.677043,0.712565,-0.159628 KneeLeft:0.003739,0.729933,-0.051738,-0.681548 KneeRight:-0.001074,0.683879,0.031346,0.728921 Neck:0.051717,-0.016753,0.994408,-0.090539 ShoulderLeft:-0.008033,0.778196,-0.619243,0.104332 ShoulderRight:0.059673,0.780021,0.622503,-0.022274 SpineBase:0.032439,-0.013246,0.998109,-0.050501 SpineMid:0.041902,-0.013725,0.997757,-0.050373 SpineShoulder:0.051625,-0.015433,0.996140,-0.069288 ThumbLeft:0.000000,0.000000,0.000000,0.000000 ThumbRight:0.000000,0.000000,0.000000,0.000000 WristLeft:0.089288,-0.635568,-0.082267,0.762439 WristRight:0.073652,-0.229223,-0.510335,0.825585 END:
KINECT_DATA POSITION:6.307991,-0.243139,-7.526696 HEAD_JOINT1:0.976123,0.173882,-0.000000,0.130186 LARM_JOINT2:0.835064,0.000000,-0.015761,-0.549928 LARM_JOINT3:0.969423,0.000000,-0.184632,-0.161650 LLEG_JOINT2:0.998333,0.040997,0.000000,0.040627 LLEG_JOINT4:0.996023,0.082898,0.000000,-0.032645 RARM_JOINT2:0.791076,0.000000,-0.026998,0.611122 RARM_JOINT3:0.761022,0.000000,0.647560,0.038887 RLEG_JOINT2:0.999664,0.020287,0.000000,-0.016106 RLEG_JOINT4:0.994927,0.095519,0.000000,0.031579 WAIST:0.999422,0.000000,-0.033027,-0.008004 WAIST_JOINT0:0.998568,0.000000,-0.053492,0.000039 WAIST_JOINT1:0.997192,0.074344,0.000000,-0.008978 END:
KINECT_DATA_Sensor  AnkleLeft:0.087304,0.744235,-0.087162,-0.656426 AnkleRight:0.089552,0.677681,0.073159,0.726207 ElbowLeft:-0.031581,0.906569,-0.190916,-0.375082 ElbowRight:-0.025505,0.692028,0.170025,0.701098 FootLeft:0.000000,0.000000,0.000000,0.000000 FootRight:0.000000,0.000000,0.000000,0.000000 HandLeft:0.021964,-0.556678,-0.117573,0.822073 HandRight:0.100152,-0.175841,-0.640947,0.740430 HandTipLeft:0.000000,0.000000,0.000000,0.000000 HandTipRight:0.000000,0.000000,0.000000,0.000000 Head:0.000000,0.000000,0.000000,0.000000 HipLeft:0.135479,-0.679989,0.694908,-0.190690 HipRight:-0.091251,0.676964,0.712791,-0.159132 KneeLeft:0.004086,0.730348,-0.052036,-0.681078 KneeRight:-0.001830,0.683455,0.031280,0.729320 Neck:0.052742,-0.016959,0.994368,-0.090351 ShoulderLeft:-0.009220,0.778386,-0.618822,0.105308 ShoulderRight:0.059804,0.779818,0.622766,-0.021698 SpineBase:0.033033,-0.013328,0.998096,-0.050350 SpineMid:0.042713,-0.013815,0.997729,-0.050219 SpineShoulder:0.052652,-0.015596,0.996095,-0.069127 ThumbLeft:0.000000,0.000000,0.000000,0.000000 ThumbRight:0.000000,0.000000,0.000000,0.000000 WristLeft:0.080713,-0.546968,-0.091848,0.828176 WristRight:0.072708,-0.209090,-0.533985,0.815999 END:
KINECT_DATA POSITION:6.325867,-0.247472,-7.543099 HEAD_JOINT1:0.976203,0.173201,-0.000000,0.130494 LARM_JOINT2:0.834904,0.000000,-0.016552,-0.550147 LARM_JOINT3:0.970411,0.000000,-0.178925,-0.162136 LLEG_JOINT2:0.998312,0.041421,0.000000,0.040708 LLEG_JOINT4:0.996126,0.081305,0.000000,-0.033514 RARM_JOINT2:0.790513,0.000000,-0.016723,0.612217 RARM_JOINT3:0.741485,0.000000,0.670607,0.022038 RLEG_JOINT2:0.999686,0.019869,0.000000,-0.015278 RLEG_JOINT4:0.994947,0.096077,0.000000,0.029141 WAIST:0.999398,0.000000,-0.033601,-0.008596 WAIST_JOINT0:0.998527,0.000000,-0.054256,-0.000225 WAIST_JOINT1:0.997192,0.074412,0.000000,-0.008466 END:
KINECT_DATA_Sensor  AnkleLeft:0.085571,0.730834,-0.087218,-0.671529 AnkleRight:0.088208,0.677570,0.074768,0.726312 ElbowLeft:-0.032317,0.906438,-0.190249,-0.375674 ElbowRight:-0.031681,0.688775,0.163823,0.705512 FootLeft:0.000000,0.000000,0.000000,0.000000 FootRight:0.000000,0.000000,0.000000,0.000000 HandLeft:-0.044031,0.818901,0.089579,-0.565188 HandRight:0.143811,-0.204440,-0.670053,0.698965 HandTipLeft:0.000000,0.000000,0.000000,0.000000 HandTipRight:0.000000,0.000000,0.000000,0.000000 Head:0.000000,0.000000,0.000000,0.000000 HipLeft:0.135751,-0.680181,0.694537,-0.191162 HipRight:-0.090934,0.676561,0.713291,-0.158785 KneeLeft:0.004703,0.730782,-0.051981,-0.680613 KneeRight:-0.001975,0.683002,0.030807,0.729764 Neck:0.053490,-0.017034,0.994322,-0.090400 ShoulderLeft:-0.009449,0.778442,-0.618672,0.105753 ShoulderRight:0.060534,0.779700,0.622867,-0.020986 SpineBase:0.033665,-0.013339,0.998071,-0.050429 SpineMid:0.043405,-0.013831,0.997695,-0.050297 SpineShoulder:0.053404,-0.015632,0.996051,-0.069180 ThumbLeft:0.000000,0.000000,0.000000,0.000000 ThumbRight:0.000000,0.000000,0.000000,0.000000 WristLeft:-0.109557,0.814324,0.055421,-0.567277 WristRight:0.111308,-0.246000,-0.556816,0.785526 END:
KINECT_DATA POSITION:6.331601,-0.245849,-7.547748 HEAD_JOINT1:0.975979,0.173807,-0.000000,0.131365 LARM_JOINT2:0.834974,0.000000,-0.016476,-0.550043 LARM_JOINT3:0.970381,0.000000,-0.177296,-0.164091 LLEG_JOINT2:0.998312,0.041299,0.000000,0.040841 LLEG_JOINT4:0.996013,0.082113,0.000000,-0.034854 RARM_JOINT2:0.788860,0.000000,-0.008197,0.614518 RARM_JOINT3:0.736243,0.000000,0.676530,0.015929 RLEG_JOINT2:0.999689,0.019903,0.000000,-0.015043 RLEG_JOINT4:0.994925,0.096149,0.000000,0.029656 WAIST:0.999406,0.000000,-0.033340,-0.008761 WAIST_JOINT0:0.998510,0.000000,-0.054563,-0.000281 WAIST_JOINT1:0.997214,0.074112,0.000000,-0.008469 END:
KINECT_DATA_Sensor  AnkleLeft:0.086572,0.726815,-0.087217,-0.675750 AnkleRight:0.088616,0.677286,0.074488,0.726555 ElbowLeft:-0.032219,0.906822,-0.190157,-0.374800 ElbowRight:-0.035502,0.688456,0.157160,0.707156 FootLeft:0.000000,0.000000,0.000000,0.000000 FootRight:0.000000,0.000000,0.000000,0.000000 HandLeft:0.008534,-0.624243,-0.094679,0.775425 HandRight:0.039562,-0.090054,-0.677509,0.728908 HandTipLeft:0.000000,0.000000,0.000000,0.000000 HandTipRight:0.000000,0.000000,0.000000,0.000000 Head:0.000000,0.000000,0.000000,0.000000 HipLeft:0.135778,-0.680348,0.694440,-0.190901 HipRight:-0.091251,0.676424,0.713370,-0.158830 KneeLeft:0.004653,0.730614,-0.051867,-0.680802 KneeRight:-0.001913,0.683183,0.030775,0.729596 Neck:0.053799,-0.017282,0.994331,-0.090072 ShoulderLeft:-0.010169,0.778452,-0.618607,0.105994 ShoulderRight:0.060225,0.779703,0.622901,-0.020742 SpineBase:0.033416,-0.013451,0.998089,-0.050215 SpineMid:0.043434,-0.013955,0.997703,-0.050077 SpineShoulder:0.053711,-0.015859,0.996053,-0.068870 ThumbLeft:0.000000,0.000000,0.000000,0.000000 ThumbRight:0.000000,0.000000,0.000000,0.000000 WristLeft:0.087869,-0.611765,-0.086067,0.781418 WristRight:0.025256,-0.110308,-0.587894,0.800983 END:
KINECT_DATA POSITION:6.335767,-0.245626,-7.539380 HEAD_JOINT1:0.975952,0.173978,-0.000000,0.131336 LARM_JOINT2:0.834805,0.000000,-0.016382,-0.550303 LARM_JOINT3:0.970186,0.000000,-0.180039,-0.162248 LLEG_JOINT2:0.998343,0.040605,0.000000,0.040769 LLEG_JOINT4:0.996040,0.082723,0.000000,-0.032563 RARM_JOINT2:0.787017,0.000000,-0.007497,0.616886 RARM_JOINT3:0.735483,0.000000,0.677447,0.011381 RLEG_JOINT2:0.999701,0.019584,0.000000,-0.014668 RLEG_JOINT4:0.994948,0.096416,0.000000,0.027964 WAIST:0.999411,0.000000,-0.033177,-0.008753 WAIST_JOINT0:0.998520,0.000000,-0.054381,-0.000206 WAIST_JOINT1:0.997224,0.073985,0.000000,-0.008453 END:
KINECT_DATA_Sensor  AnkleLeft:0.085047,0.727745,-0.088555,-0.674769 AnkleRight:0.087689,0.677605,0.075412,0.726275 ElbowLeft:-0.032163,0.906653,-0.189890,-0.375351 ElbowRight:-0.039372,0.663682,0.153225,0.731094 FootLeft:0.000000,0.000000,0.000000,0.000000 FootRight:0.000000,0.000000,0.000000,0.000000 HandLeft:0.016435,-0.598127,-0.102047,0.794708 HandRight:0.143905,-0.165797,-0.580423,0.784163 HandTipLeft:0.000000,0.000000,0.000000,0.000000 HandTipRight:0.000000,0.000000,0.000000,0.000000 Head:0.000000,0.000000,0.000000,0.000000 HipLeft:0.135848,-0.680384,0.694422,-0.190792 HipRight:-0.091535,0.676419,0.713316,-0.158931 KneeLeft:0.004233,0.730495,-0.051317,-0.680974 KneeRight:-0.001889,0.683307,0.030278,0.729500 Neck:0.053580,-0.017253,0.994357,-0.089920 ShoulderLeft:-0.010057,0.778279,-0.618875,0.105709 ShoulderRight:0.060065,0.779731,0.622880,-0.020784 SpineBase:0.033252,-0.013457,0.998101,-0.050076 SpineMid:0.043241,-0.013957,0.997718,-0.049939 SpineShoulder:0.053490,-0.015849,0.996073,-0.068751 ThumbLeft:0.000000,0.000000,0.000000,0.000000 ThumbRight:0.000000,0.000000,0.000000,0.000000 WristLeft:0.085202,-0.587274,-0.088726,0.799986 WristRight:0.080281,-0.206250,-0.620623,0.752225 END:
KINECT_DATA POSITION:6.349651,-0.242878,-7.510579 HEAD_JOINT1:0.975691,0.175180,-0.000000,0.131679 LARM_JOINT2:0.834560,0.000000,-0.015945,-0.550686 LARM_JOINT3:0.970735,0.000000,-0.175374,-0.164065 LLEG_JOINT2:0.998344,0.040816,0.000000,0.040549 LLEG_JOINT4:0.996082,0.081624,0.000000,-0.034040 RARM_JOINT2:0.786124,0.000000,-0.007824,0.618020 RARM_JOINT3:0.742183,0.000000,0.670179,0.004953 RLEG_JOINT2:0.999704,0.019126,0.000000,-0.015010 RLEG_JOINT4:0.994957,0.096640,0.000000,0.026854 WAIST:0.999410,0.000000,-0.033238,-0.008677 WAIST_JOINT0:0.998521,0.000000,-0.054372,-0.000187 WAIST_JOINT1:0.997238,0.073769,0.000000,-0.008667 END:
KINECT_DATA_Sensor  AnkleLeft:0.085340,0.725795,-0.087064,-0.677022 AnkleRight:0.086618,0.677870,0.076224,0.726071 ElbowLeft:-0.031593,0.907062,-0.189489,-0.374613 ElbowRight:-0.033901,0.685000,0.153411,0.711401 FootLeft:0.000000,0.000000,0.000000,0.000000 FootRight:0.000000,0.000000,0.000000,0.000000 HandLeft:-0.002563,-0.541934,-0.088680,0.835726 HandRight:0.096169,-0.192879,-0.649051,0.729577 HandTipLeft:0.000000,0.000000,0.000000,0.000000 HandTipRight:0.000000,0.000000,0.000000,0.000000 Head:0.000000,0.000000,0.000000,0.000000 HipLeft:0.136102,-0.680404,0.694395,-0.190637 HipRight:-0.091700,0.676539,0.713220,-0.158754 KneeLeft:0.004482,0.730536,-0.051373,-0.680924 KneeRight:-0.002402,0.683274,0.030162,0.729535 Neck:0.053578,-0.017413,0.994372,-0.089720 ShoulderLeft:-0.010361,0.778136,-0.619055,0.105681 ShoulderRight:0.059781,0.779599,0.623073,-0.020770 SpineBase:0.033304,-0.013492,0.998114,-0.049778 SpineMid:0.043269,-0.013988,0.997731,-0.049641 SpineShoulder:0.053488,-0.015974,0.996086,-0.068538 ThumbLeft:0.000000,0.000000,0.000000,0.000000 ThumbRight:0.000000,0.000000,0.000000,0.000000 WristLeft:0.077902,-0.530758,-0.094550,0.838622 WristRight:0.090640,-0.203517,-0.584686,0.780069 END:
KINECT_DATA POSITION:6.360454,-0.244331,-7.483160 HEAD_JOINT1:0.975602,0.175284,-0.000000,0.132199 LARM_JOINT2:0.834555,0.000000,-0.016005,-0.550692 LARM_JOINT3:0.969926,0.000000,-0.180753,-0.163011 LLEG_JOINT2:0.998329,0.041152,0.000000,0.040556 LLEG_JOINT4:0.996125,0.081483,0.000000,-0.033101 RARM_JOINT2:0.785826,0.000000,-0.015701,0.618249 RARM_JOINT3:0.752463,0.000000,0.658586,-0.007998 RLEG_JOINT2:0.999705,0.019102,0.000000,-0.015008 RLEG_JOINT4:0.994949,0.096781,0.000000,0.026644 WAIST:0.999387,0.000000,-0.033904,-0.008774 WAIST_JOINT0:0.998505,0.000000,-0.054659,-0.000324 WAIST_JOINT1:0.997232,0.073835,0.000000,-0.008731 END:
KINECT_DATA_Sensor  AnkleLeft:0.085822,0.734200,-0.086833,-0.667866 AnkleRight:0.086576,0.677713,0.076421,0.726202 ElbowLeft:-0.031371,0.907874,-0.189365,-0.372722 ElbowRight:-0.031051,0.674641,0.157059,0.720574 FootLeft:0.000000,0.000000,0.000000,0.000000 FootRight:0.000000,0.000000,0.000000,0.000000 HandLeft:0.014674,-0.570458,-0.107369,0.814147 HandRight:0.069798,-0.231049,-0.613656,0.751779 HandTipLeft:0.000000,0.000000,0.000000,0.000000 HandTipRight:0.000000,0.000000,0.000000,0.000000 Head:0.000000,0.000000,0.000000,0.000000 HipLeft:0.136655,-0.680400,0.694189,-0.191004 HipRight:-0.091420,0.676591,0.713289,-0.158388 KneeLeft:0.004737,0.730999,-0.051554,-0.680412 KneeRight:-0.002471,0.682786,0.030211,0.729990 Neck:0.053886,-0.017503,0.994341,-0.089865 ShoulderLeft:-0.010549,0.778089,-0.619060,0.105975 ShoulderRight:0.059999,0.779388,0.623321,-0.020612 SpineBase:0.033972,-0.013582,0.998095,-0.049669 SpineMid:0.043757,-0.014069,0.997714,-0.049533 SpineShoulder:0.053795,-0.016056,0.996064,-0.068593 ThumbLeft:0.000000,0.000000,0.000000,0.000000 ThumbRight:0.000000,0.000000,0.000000,0.000000 WristLeft:0.080319,-0.560149,-0.091695,0.819374 WristRight:0.085930,-0.221564,-0.582929,0.776994 END:
KINECT_DATA POSITION:6.380589,-0.256200,-7.419229 HEAD_JOINT1:0.975300,0.176256,-0.000000,0.133128 LARM_JOINT2:0.834429,0.000000,-0.016227,-0.550877 LARM_JOINT3:0.969940,0.000000,-0.180087,-0.163663 LLEG_JOINT2:0.998349,0.041134,0.000000,0.040098 LLEG_JOINT4:0.996188,0.081739,0.000000,-0.030477 RARM_JOINT2:0.785317,0.000000,-0.018700,0.618812 RARM_JOINT3:0.757683,0.000000,0.651656,-0.035515 RLEG_JOINT2:0.999701,0.018957,0.000000,-0.015445 RLEG_JOINT4:0.995039,0.095115,0.000000,0.029166 WAIST:0.999401,0.000000,-0.033479,-0.008788 WAIST_JOINT0:0.998471,0.000000,-0.055272,-0.000620 WAIST_JOINT1:0.997240,0.073749,0.000000,-0.008552 END:
KINECT_DATA_Sensor  AnkleLeft:0.085822,0.744088,-0.087170,-0.656787 AnkleRight:0.086539,0.677204,0.073822,0.726950 ElbowLeft:-0.031276,0.908165,-0.189241,-0.372082 ElbowRight:-0.032135,0.659406,0.157260,0.734452 FootLeft:0.000000,0.000000,0.000000,0.000000 FootRight:0.000000,0.000000,0.000000,0.000000 HandLeft:0.010235,-0.553691,-0.107291,0.825718 HandRight:0.034933,-0.228795,-0.619488,0.750111 HandTipLeft:0.000000,0.000000,0.000000,0.000000 HandTipRight:0.000000,0.000000,0.000000,0.000000 Head:0.000000,0.000000,0.000000,0.000000 HipLeft:0.136567,-0.680500,0.694200,-0.190673 HipRight:-0.091873,0.676566,0.713237,-0.158464 KneeLeft:0.005093,0.730711,-0.051218,-0.680743 KneeRight:-0.002895,0.683089,0.030443,0.729695 Neck:0.054550,-0.017450,0.994310,-0.089821 ShoulderLeft:-0.011227,0.778176,-0.618846,0.106519 ShoulderRight:0.060164,0.779153,0.623614,-0.020181 SpineBase:0.033555,-0.013498,0.998123,-0.049426 SpineMid:0.043876,-0.014009,0.997722,-0.049283 SpineShoulder:0.054461,-0.016005,0.996038,-0.068461 ThumbLeft:0.000000,0.000000,0.000000,0.000000 ThumbRight:0.000000,0.000000,0.000000,0.000000 WristLeft:0.078075,-0.543141,-0.093269,0.830784 WristRight:0.054343,-0.218832,-0.581361,0.781779 END:
KINECT_DATA POSITION:6.382465,-0.256198,-7.362843 HEAD_JOINT1:0.975201,0.176519,-0.000000,0.133506 LARM_JOINT2:0.834444,0.000000,-0.015849,-0.550864 LARM_JOINT3:0.969931,0.000000,-0.179962,-0.163853 LLEG_JOINT2:0.998350,0.041345,0.000000,0.039844 LLEG_JOINT4:0.996064,0.083502,0.000000,-0.029746 RARM_JOINT2:0.784914,0.000000,-0.022123,0.619209 RARM_JOINT3:0.756344,0.000000,0.652306,-0.049401 RLEG_JOINT2:0.999679,0.020298,0.000000,-0.015178 RLEG_JOINT4:0.995088,0.094619,0.000000,0.029090 WAIST:0.999402,0.000000,-0.033505,-0.008567 WAIST_JOINT0:0.998467,0.000000,-0.055351,-0.000832 WAIST_JOINT1:0.997246,0.073661,0.000000,-0.008615 END:
KINECT_DATA_Sensor  AnkleLeft:0.086951,0.745600,-0.088832,-0.654698 AnkleRight:0.087423,0.676995,0.074113,0.727009 ElbowLeft:-0.031147,0.908118,-0.189514,-0.372069 ElbowRight:-0.032839,0.644623,0.157915,0.747293 FootLeft:0.000000,0.000000,0.000000,0.000000 FootRight:0.000000,0.000000,0.000000,0.000000 HandLeft:0.015313,-0.598002,-0.105872,0.794324 HandRight:0.050558,-0.240617,-0.620111,0.744990 HandTipLeft:0.000000,0.000000,0.000000,0.000000 HandTipRight:0.000000,0.000000,0.000000,0.000000 Head:0.000000,0.000000,0.000000,0.000000 HipLeft:0.136765,-0.680389,0.694297,-0.190573 HipRight:-0.092006,0.676742,0.713068,-0.158397 KneeLeft:0.005264,0.730719,-0.051354,-0.680724 KneeRight:-0.001576,0.683060,0.031006,0.729702 Neck:0.054662,-0.017246,0.994311,-0.089774 ShoulderLeft:-0.011105,0.778103,-0.618967,0.106360 ShoulderRight:0.060415,0.778825,0.624007,-0.019917 SpineBase:0.033560,-0.013488,0.998132,-0.049236 SpineMid:0.043929,-0.013999,0.997729,-0.049093 SpineShoulder:0.054569,-0.015871,0.996040,-0.068365 ThumbLeft:0.000000,0.000000,0.000000,0.000000 ThumbRight:0.000000,0.000000,0.000000,0.000000 WristLeft:0.083000,-0.587223,-0.088804,0.800246 WristRight:0.051787,-0.245756,-0.583987,0.771933 END:
KINECT_DATA POSITION:6.370351,-0.256311,-7.366264 HEAD_JOINT1:0.975053,0.176270,-0.000000,0.134912 LARM_JOINT2:0.834705,0.000000,-0.015717,-0.550472 LARM_JOINT3:0.970030,0.000000,-0.177217,-0.166240 LLEG_JOINT2:0.998339,0.041454,0.000000,0.040003 LLEG_JOINT4:0.995898,0.084528,0.000000,-0.032275 RARM_JOINT2:0.784636,0.000000,-0.024022,0.619491 RARM_JOINT3:0.755950,0.000000,0.651305,-0.065883 RLEG_JOINT2:0.999691,0.019885,0.000000,-0.014922 RLEG_JOINT4:0.994967,0.096332,0.000000,0.027595 WAIST:0.999388,0.000000,-0.033931,-0.008543 WAIST_JOINT0:0.998433,0.000000,-0.055950,-0.001083 WAIST_JOINT1:0.997242,0.073718,0.000000,-0.008562 END:
KINECT_DATA_Sensor  AnkleLeft:0.088520,0.739366,-0.088854,-0.661519 AnkleRight:0.087591,0.676731,0.075834,0.727058 ElbowLeft:-0.031165,0.908531,-0.190080,-0.370771 ElbowRight:-0.033761,0.632638,0.158173,0.757371 FootLeft:0.000000,0.000000,0.000000,0.000000 FootRight:0.000000,0.000000,0.000000,0.000000 HandLeft:-0.005037,-0.524141,-0.098471,0.845905 HandRight:0.025606,-0.226046,-0.624089,0.747503 HandTipLeft:0.000000,0.000000,0.000000,0.000000 HandTipRight:0.000000,0.000000,0.000000,0.000000 Head:0.000000,0.000000,0.000000,0.000000 HipLeft:0.136903,-0.680344,0.694255,-0.190789 HipRight:-0.091591,0.676857,0.713077,-0.158104 KneeLeft:0.005181,0.731008,-0.051560,-0.680398 KneeRight:-0.001675,0.682761,0.030519,0.730002 Neck:0.055279,-0.017114,0.994275,-0.089828 ShoulderLeft:-0.010940,0.778233,-0.618785,0.106485 ShoulderRight:0.061343,0.778630,0.624186,-0.019121 SpineBase:0.033981,-0.013491,0.998115,-0.049300 SpineMid:0.044444,-0.014007,0.997704,-0.049156 SpineShoulder:0.055185,-0.015787,0.996004,-0.068422 ThumbLeft:0.000000,0.000000,0.000000,0.000000 ThumbRight:0.000000,0.000000,0.000000,0.000000 WristLeft:0.074372,-0.512560,-0.096098,0.850009 WristRight:0.024646,-0.233633,-0.588333,0.773739 END:
KINECT_DATA POSITION:6.341182,-0.253962,-7.451940 HEAD_JOINT1:0.975124,0.174279,-0.000000,0.136969 LARM_JOINT2:0.835091,0.000000,-0.015256,-0.549901 LARM_JOINT3:0.970190,0.000000,-0.176162,-0.166429 LLEG_JOINT2:0.998377,0.040972,0.000000,0.039553 LLEG_JOINT4:0.996044,0.082797,0.000000,-0.032275 RARM_JOINT2:0.785116,0.000000,-0.028226,0.618705 RARM_JOINT3:0.750609,0.000000,0.657107,-0.069261 RLEG_JOINT2:0.999704,0.018905,0.000000,-0.015341 RLEG_JOINT4:0.994725,0.098914,0.000000,0.027161 WAIST:0.999352,0.000000,-0.035069,-0.008055 WAIST_JOINT0:0.998359,0.000000,-0.057249,-0.001351 WAIST_JOINT1:0.997241,0.073711,0.000000,-0.008808 END:
KINECT_DATA_Sensor  AnkleLeft:0.085283,0.728449,-0.088949,-0.673927 AnkleRight:0.092575,0.713419,0.072287,0.690824 ElbowLeft:-0.030825,0.910005,-0.191141,-0.366613 ElbowRight:-0.033820,0.621477,0.160553,0.766058 FootLeft:0.000000,0.000000,0.000000,0.000000 FootRight:0.000000,0.000000,0.000000,0.000000 HandLeft:0.005821,-0.576380,-0.096540,0.811438 HandRight:0.030913,-0.210753,-0.625499,0.750585 HandTipLeft:0.000000,0.000000,0.000000,0.000000 HandTipRight:0.000000,0.000000,0.000000,0.000000 Head:0.000000,0.000000,0.000000,0.000000 HipLeft:0.137311,-0.679887,0.694455,-0.191394 HipRight:-0.090678,0.677368,0.712852,-0.157457 KneeLeft:0.004770,0.731745,-0.051244,-0.679633 KneeRight:-0.002306,0.681976,0.029807,0.730763 Neck:0.056565,-0.016776,0.994212,-0.089786 ShoulderLeft:-0.011267,0.778417,-0.618434,0.107137 ShoulderRight:0.062620,0.778650,0.624072,-0.017787 SpineBase:0.035078,-0.013259,0.998071,-0.049470 SpineMid:0.045638,-0.013782,0.997644,-0.049327 SpineShoulder:0.056477,-0.015487,0.995934,-0.068451 ThumbLeft:0.000000,0.000000,0.000000,0.000000 ThumbRight:0.000000,0.000000,0.000000,0.000000 WristLeft:0.079319,-0.565449,-0.089856,0.816028 WristRight:0.010306,-0.232938,-0.594942,0.769206 END:
KINECT_DATA POSITION:6.321059,-0.253236,-7.507908 HEAD_JOINT1:0.975235,0.174045,-0.000000,0.136477 LARM_JOINT2:0.835385,0.000000,-0.015056,-0.549459 LARM_JOINT3:0.969833,0.000000,-0.176759,-0.167869 LLEG_JOINT2:0.998355,0.041303,0.000000,0.039763 LLEG_JOINT4:0.995941,0.083555,0.000000,-0.033464 RARM_JOINT2:0.785335,0.000000,-0.028868,0.618398 RARM_JOINT3:0.750036,0.000000,0.658663,-0.060082 RLEG_JOINT2:0.999701,0.019090,0.000000,-0.015262 RLEG_JOINT4:0.995123,0.094747,0.000000,0.027453 WAIST:0.999331,0.000000,-0.035659,-0.008146 WAIST_JOINT0:0.998330,0.000000,-0.057745,-0.001375 WAIST_JOINT1:0.997294,0.073042,0.000000,-0.008285 END:
KINECT_DATA_Sensor  AnkleLeft:0.088116,0.739041,-0.087690,-0.662091 AnkleRight:0.089305,0.709127,0.070024,0.695888 ElbowLeft:-0.031278,0.911088,-0.191839,-0.363508 ElbowRight:-0.033576,0.621979,0.160449,0.765683 FootLeft:0.000000,0.000000,0.000000,0.000000 FootRight:0.000000,0.000000,0.000000,0.000000 HandLeft:0.005841,-0.568725,-0.101957,0.816163 HandRight:0.051694,-0.208563,-0.622068,0.752902 HandTipLeft:0.000000,0.000000,0.000000,0.000000 HandTipRight:0.000000,0.000000,0.000000,0.000000 Head:0.000000,0.000000,0.000000,0.000000 HipLeft:0.137734,-0.679903,0.694322,-0.191516 HipRight:-0.090614,0.677475,0.712934,-0.156656 KneeLeft:0.004875,0.732164,-0.051565,-0.679156 KneeRight:-0.002166,0.681514,0.029937,0.731189 Neck:0.057038,-0.016294,0.994263,-0.089010 ShoulderLeft:-0.012291,0.778305,-0.618529,0.107297 ShoulderRight:0.062174,0.778812,0.623931,-0.017231 SpineBase:0.035695,-0.012874,0.998075,-0.049053 SpineMid:0.046190,-0.013389,0.997645,-0.048915 SpineShoulder:0.056959,-0.015015,0.995958,-0.067813 ThumbLeft:0.000000,0.000000,0.000000,0.000000 ThumbRight:0.000000,0.000000,0.000000,0.000000 WristLeft:0.078129,-0.557702,-0.090482,0.821387 WristRight:0.016834,-0.240203,-0.594825,0.766944 END:
KINECT_DATA POSITION:6.321802,-0.249221,-7.605028 HEAD_JOINT1:0.975505,0.172201,-0.000000,0.136878 LARM_JOINT2:0.835939,0.000000,-0.015623,-0.548601 LARM_JOINT3:0.969659,0.000000,-0.177196,-0.168412 LLEG_JOINT2:0.998390,0.040064,0.000000,0.040147 LLEG_JOINT4:0.995946,0.083281,0.000000,-0.034013 RARM_JOINT2:0.785427,0.000000,-0.027607,0.618338 RARM_JOINT3:0.749977,0.000000,0.658734,-0.060037 RLEG_JOINT2:0.999714,0.018397,0.000000,-0.015279 RLEG_JOINT4:0.995008,0.096254,0.000000,0.026341 WAIST:0.999332,0.000000,-0.035660,-0.007989 WAIST_JOINT0:0.998281,0.000000,-0.058587,-0.001640 WAIST_JOINT1:0.997289,0.073118,0.000000,-0.008254 END:
KINECT_DATA_Sensor  AnkleLeft:0.085402,0.726330,-0.088260,-0.676285 AnkleRight:0.085847,0.675503,0.075425,0.728448 ElbowLeft:-0.031679,0.911888,-0.192778,-0.360962 ElbowRight:-0.034102,0.622378,0.159766,0.765479 FootLeft:0.000000,0.000000,0.000000,0.000000 FootRight:0.000000,0.000000,0.000000,0.000000 HandLeft:0.007388,-0.552753,-0.102726,0.826957 HandRight:0.044836,-0.195589,-0.623628,0.755528 HandTipLeft:0.000000,0.000000,0.000000,0.000000 HandTipRight:0.000000,0.000000,0.000000,0.000000 Head:0.000000,0.000000,0.000000,0.000000 HipLeft:0.137600,-0.679790,0.694439,-0.191588 HipRight:-0.090576,0.677591,0.712827,-0.156665 KneeLeft:0.003636,0.732143,-0.051032,-0.679227 KneeRight:-0.002575,0.681529,0.029367,0.731198 Neck:0.057883,-0.016192,0.994211,-0.089059 ShoulderLeft:-0.012528,0.778664,-0.617985,0.107800 ShoulderRight:0.062981,0.778912,0.623746,-0.016417 SpineBase:0.035691,-0.012654,0.998073,-0.049146 SpineMid:0.046615,-0.013191,0.997623,-0.049005 SpineShoulder:0.057812,-0.014882,0.995906,-0.067885 ThumbLeft:0.000000,0.000000,0.000000,0.000000 ThumbRight:0.000000,0.000000,0.000000,0.000000 WristLeft:0.076211,-0.542417,-0.092209,0.831548 WristRight:0.008589,-0.228585,-0.595439,0.770148 END:
KINECT_DATA POSITION:6.344204,-0.238737,-7.704329 HEAD_JOINT1:0.975450,0.172273,-0.000000,0.137184 LARM_JOINT2:0.836141,0.000000,-0.015102,-0.548306 LARM_JOINT3:0.970410,0.000000,-0.173455,-0.167980 LLEG_JOINT2:0.998442,0.039106,0.000000,0.039795 LLEG_JOINT4:0.995908,0.084498,0.000000,-0.032053 RARM_JOINT2:0.785606,0.000000,-0.026501,0.618160 RARM_JOINT3:0.751568,0.000000,0.657350,-0.055100 RLEG_JOINT2:0.999719,0.017425,0.000000,-0.016090 RLEG_JOINT4:0.994874,0.097156,0.000000,0.028030 WAIST:0.999320,0.000000,-0.036054,-0.007773 WAIST_JOINT0:0.998261,0.000000,-0.058932,-0.001675 WAIST_JOINT1:0.997274,0.073293,0.000000,-0.008509 END:
KINECT_DATA_Sensor  AnkleLeft:0.086015,0.740098,-0.088016,-0.661143 AnkleRight:0.090547,0.714226,0.069668,0.690528 ElbowLeft:-0.031199,0.912241,-0.193351,-0.359803 ElbowRight:-0.034442,0.623591,0.159555,0.764519 FootLeft:0.000000,0.000000,0.000000,0.000000 FootRight:0.000000,0.000000,0.000000,0.000000 HandLeft:0.008882,-0.597939,-0.085048,0.796967 HandRight:0.074922,-0.220861,-0.616095,0.752352 HandTipLeft:0.000000,0.000000,0.000000,0.000000 HandTipRight:0.000000,0.000000,0.000000,0.000000 Head:0.000000,0.000000,0.000000,0.000000 HipLeft:0.137787,-0.679591,0.694508,-0.191912 HipRight:-0.090287,0.677792,0.712690,-0.156586 KneeLeft:0.003061,0.732384,-0.050244,-0.679029 KneeRight:-0.003677,0.681268,0.029146,0.731444 Neck:0.058195,-0.016221,0.994174,-0.089266 ShoulderLeft:-0.012076,0.778508,-0.618195,0.107772 ShoulderRight:0.063846,0.778748,0.623877,-0.015895 SpineBase:0.036066,-0.012590,0.998054,-0.049280 SpineMid:0.046964,-0.013128,0.997601,-0.049139 SpineShoulder:0.058128,-0.014877,0.995875,-0.068065 ThumbLeft:0.000000,0.000000,0.000000,0.000000 ThumbRight:0.000000,0.000000,0.000000,0.000000 WristLeft:0.080562,-0.587991,-0.088000,0.800020 WristRight:0.031844,-0.257298,-0.593386,0.762022 END:
KINECT_DATA POSITION:6.381284,-0.231982,-7.744956 HEAD_JOINT1:0.975437,0.173348,-0.000000,0.135919 LARM_JOINT2:0.835827,0.000000,-0.014876,-0.548792 LARM_JOINT3:0.969994,0.000000,-0.175795,-0.167951 LLEG_JOINT2:0.998451,0.039027,0.000000,0.039652 LLEG_JOINT4:0.995936,0.084139,0.000000,-0.032133 RARM_JOINT2:0.785606,0.000000,-0.027152,0.618131 RARM_JOINT3:0.749888,0.000000,0.660160,-0.043088 RLEG_JOINT2:0.999719,0.016984,0.000000,-0.016539 RLEG_JOINT4:0.994878,0.097020,0.000000,0.028369 WAIST:0.999323,0.000000,-0.035917,-0.007976 WAIST_JOINT0:0.998266,0.000000,-0.058846,-0.001656 WAIST_JOINT1:0.997266,0.073432,0.000000,-0.008246 END:
KINECT_DATA_Sensor  AnkleLeft:0.086405,0.742974,-0.087014,-0.657991 AnkleRight:0.088005,0.695663,0.071920,0.709321 ElbowLeft:-0.030723,0.912124,-0.193041,-0.360306 ElbowRight:-0.033187,0.627438,0.160150,0.761296 FootLeft:0.000000,0.000000,0.000000,0.000000 FootRight:0.000000,0.000000,0.000000,0.000000 HandLeft:0.015197,-0.621104,-0.094004,0.777921 HandRight:0.087956,-0.206358,-0.616808,0.754472 HandTipLeft:0.000000,0.000000,0.000000,0.000000 HandTipRight:0.000000,0.000000,0.000000,0.000000 Head:0.000000,0.000000,0.000000,0.000000 HipLeft:0.137502,-0.679718,0.694410,-0.192017 HipRight:-0.090315,0.677661,0.712794,-0.156661 KneeLeft:0.003262,0.732304,-0.049945,-0.679136 KneeRight:-0.004453,0.681349,0.029319,0.731358 Neck:0.058074,-0.016221,0.994171,-0.089381 ShoulderLeft:-0.011871,0.778497,-0.618216,0.107749 ShoulderRight:0.063901,0.778861,0.623727,-0.016031 SpineBase:0.035960,-0.012372,0.998053,-0.049434 SpineMid:0.046861,-0.012911,0.997601,-0.049296 SpineShoulder:0.058014,-0.014808,0.995873,-0.068200 ThumbLeft:0.000000,0.000000,0.000000,0.000000 ThumbRight:0.000000,0.000000,0.000000,0.000000 WristLeft:0.082773,-0.611024,-0.085297,0.782638 WristRight:0.032895,-0.251838,-0.591459,0.765292 END:
KINECT_DATA POSITION:6.386687,-0.235215,-7.726824 HEAD_JOINT1:0.975401,0.175262,-0.000000,0.133703 LARM_JOINT2:0.835614,0.000000,-0.014068,-0.549138 LARM_JOINT3:0.969712,0.000000,-0.178099,-0.167152 LLEG_JOINT2:0.998430,0.039446,0.000000,0.039758 LLEG_JOINT4:0.995985,0.084006,0.000000,-0.030943 RARM_JOINT2:0.785691,0.000000,-0.026513,0.618050 RARM_JOINT3:0.749050,0.000000,0.661916,-0.028130 RLEG_JOINT2:0.999721,0.017200,0.000000,-0.016188 RLEG_JOINT4:0.994853,0.097230,0.000000,0.028516 WAIST:0.999324,0.000000,-0.035864,-0.008083 WAIST_JOINT0:0.998296,0.000000,-0.058323,-0.001697 WAIST_JOINT1:0.997278,0.073274,0.000000,-0.008265 END:
KINECT_DATA_Sensor  AnkleLeft:0.084899,0.736508,-0.088875,-0.665168 AnkleRight:0.086522,0.675478,0.074367,0.728500 ElbowLeft:-0.030383,0.911440,-0.192773,-0.362204 ElbowRight:-0.032132,0.635571,0.160197,0.754556 FootLeft:0.000000,0.000000,0.000000,0.000000 FootRight:0.000000,0.000000,0.000000,0.000000 HandLeft:0.012104,-0.559273,-0.100191,0.822817 HandRight:0.100595,-0.196972,-0.617283,0.755013 HandTipLeft:0.000000,0.000000,0.000000,0.000000 HandTipRight:0.000000,0.000000,0.000000,0.000000 Head:0.000000,0.000000,0.000000,0.000000 HipLeft:0.137616,-0.679845,0.694305,-0.191867 HipRight:-0.090498,0.677634,0.712827,-0.156525 KneeLeft:0.003551,0.732282,-0.050249,-0.679136 KneeRight:-0.004133,0.681376,0.029284,0.731336 Neck:0.057544,-0.016381,0.994214,-0.089213 ShoulderLeft:-0.011791,0.778488,-0.618296,0.107361 ShoulderRight:0.063317,0.778839,0.623803,-0.016465 SpineBase:0.035917,-0.012381,0.998066,-0.049200 SpineMid:0.046581,-0.012906,0.997625,-0.049064 SpineShoulder:0.057489,-0.014885,0.995913,-0.068052 ThumbLeft:0.000000,0.000000,0.000000,0.000000 ThumbRight:0.000000,0.000000,0.000000,0.000000 WristLeft:0.076168,-0.549890,-0.091760,0.826680 WristRight:0.040438,-0.246690,-0.588167,0.769135 END:
KINECT_DATA POSITION:6.360687,-0.239411,-7.678521 HEAD_JOINT1:0.975298,0.176448,-0.000000,0.132892 LARM_JOINT2:0.835175,0.000000,-0.013625,-0.549816 LARM_JOINT3:0.969673,0.000000,-0.174503,-0.171122 LLEG_JOINT2:0.998403,0.040001,0.000000,0.039885 LLEG_JOINT4:0.995954,0.083390,0.000000,-0.033501 RARM_JOINT2:0.786734,0.000000,-0.023681,0.616838 RARM_JOINT3:0.752589,0.000000,0.658491,0.000182 RLEG_JOINT2:0.999712,0.017517,0.000000,-0.016380 RLEG_JOINT4:0.994766,0.097498,0.000000,0.030562 WAIST:0.999331,0.000000,-0.035640,-0.008219 WAIST_JOINT0:0.998341,0.000000,-0.057564,-0.001601 WAIST_JOINT1:0.997291,0.073097,0.000000,-0.008229 END:
KINECT_DATA_Sensor  AnkleLeft:0.085305,0.725524,-0.088408,-0.677142 AnkleRight:0.088108,0.675614,0.073508,0.728272 ElbowLeft:-0.030179,0.910657,-0.192026,-0.364580 ElbowRight:-0.031838,0.651066,0.160362,0.741204 FootLeft:0.000000,0.000000,0.000000,0.000000 FootRight:0.000000,0.000000,0.000000,0.000000 HandLeft:-0.015758,-0.510482,-0.092962,0.854703 HandRight:0.101124,-0.154099,-0.607412,0.772708 HandTipLeft:0.000000,0.000000,0.000000,0.000000 HandTipRight:0.000000,0.000000,0.000000,0.000000 Head:0.000000,0.000000,0.000000,0.000000 HipLeft:0.137965,-0.680041,0.694152,-0.191475 HipRight:-0.091002,0.677536,0.712853,-0.156538 KneeLeft:0.003947,0.732146,-0.050644,-0.679251 KneeRight:-0.004132,0.681534,0.029735,0.731171 Neck:0.056791,-0.016444,0.994266,-0.089106 ShoulderLeft:-0.011694,0.778366,-0.618543,0.106840 ShoulderRight:0.062461,0.778812,0.623905,-0.017127 SpineBase:0.035692,-0.012703,0.998093,-0.048729 SpineMid:0.046080,-0.013209,0.997668,-0.048594 SpineShoulder:0.056730,-0.014969,0.995968,-0.067856 ThumbLeft:0.000000,0.000000,0.000000,0.000000 ThumbRight:0.000000,0.000000,0.000000,0.000000 WristLeft:0.070663,-0.498464,-0.096578,0.858611 WristRight:0.032596,-0.207835,-0.582845,0.784878 END:
KINECT_DATA POSITION:6.310035,-0.247175,-7.642794 HEAD_JOINT1:0.975199,0.177013,-0.000000,0.132864 LARM_JOINT2:0.834402,0.000000,-0.013570,-0.550989 LARM_JOINT3:0.969959,0.000000,-0.176718,-0.167184 LLEG_JOINT2:0.998375,0.040292,0.000000,0.040307 LLEG_JOINT4:0.995906,0.084424,0.000000,-0.032320 RARM_JOINT2:0.788198,0.000000,-0.023194,0.614984 RARM_JOINT3:0.754662,0.000000,0.656004,0.012028 RLEG_JOINT2:0.999717,0.017671,0.000000,-0.015910 RLEG_JOINT4:0.994759,0.097411,0.000000,0.031067 WAIST:0.999348,0.000000,-0.035113,-0.008382 WAIST_JOINT0:0.998392,0.000000,-0.056655,-0.001778 WAIST_JOINT1:0.997303,0.072930,0.000000,-0.008243 END:
KINECT_DATA_Sensor  AnkleLeft:0.085480,0.727112,-0.090047,-0.675199 AnkleRight:0.090333,0.692642,0.070936,0.712078 ElbowLeft:-0.030039,0.909571,-0.190533,-0.368069 ElbowRight:-0.031455,0.663292,0.162281,0.729877 FootLeft:0.000000,0.000000,0.000000,0.000000 FootRight:0.000000,0.000000,0.000000,0.000000 HandLeft:0.002041,-0.568449,-0.097479,0.816921 HandRight:0.115766,-0.185534,-0.603241,0.766991 HandTipLeft:0.000000,0.000000,0.000000,0.000000 HandTipRight:0.000000,0.000000,0.000000,0.000000 Head:0.000000,0.000000,0.000000,0.000000 HipLeft:0.137915,-0.680283,0.694080,-0.190912 HipRight:-0.091380,0.677352,0.712931,-0.156759 KneeLeft:0.003983,0.731800,-0.051032,-0.679594 KneeRight:-0.003827,0.681923,0.029615,0.730815 Neck:0.055931,-0.016578,0.994320,-0.089023 ShoulderLeft:-0.010834,0.778464,-0.618628,0.105715 ShoulderRight:0.062205,0.778472,0.624347,-0.017403 SpineBase:0.035161,-0.013150,0.998119,-0.048476 SpineMid:0.045366,-0.013645,0.997707,-0.048339 SpineShoulder:0.055856,-0.015177,0.996028,-0.067662 ThumbLeft:0.000000,0.000000,0.000000,0.000000 ThumbRight:0.000000,0.000000,0.000000,0.000000 WristLeft:0.077696,-0.557207,-0.091598,0.821640 WristRight:0.063691,-0.227447,-0.574832,0.783441 END:
KINECT_DATA POSITION:6.283309,-0.252962,-7.642114 HEAD_JOINT1:0.975123,0.177739,-0.000000,0.132456 LARM_JOINT2:0.834013,0.000000,-0.012659,-0.551600 LARM_JOINT3:0.970621,0.000000,-0.173474,-0.166738 LLEG_JOINT2:0.998372,0.040474,0.000000,0.040184 LLEG_JOINT4:0.995790,0.085630,0.000000,-0.032702 RARM_JOINT2:0.789438,0.000000,-0.020467,0.613489 RARM_JOINT3:0.756599,0.000000,0.653868,0.003767 RLEG_JOINT2:0.999717,0.017830,0.000000,-0.015778 RLEG_JOINT4:0.994926,0.095873,0.000000,0.030511 WAIST:0.999342,0.000000,-0.035253,-0.008498 WAIST_JOINT0:0.998414,0.000000,-0.056276,-0.001836 WAIST_JOINT1:0.997328,0.072613,0.000000,-0.007987 END:
KINECT_DATA_Sensor  AnkleLeft:0.086220,0.722259,-0.091246,-0.680134 AnkleRight:0.090572,0.709168,0.068311,0.695853 ElbowLeft:-0.029820,0.908827,-0.190186,-0.370101 ElbowRight:-0.033761,0.666548,0.162052,0.726851 FootLeft:0.000000,0.000000,0.000000,0.000000 FootRight:0.000000,0.000000,0.000000,0.000000 HandLeft:-0.018825,0.763366,0.084399,-0.640152 HandRight:0.107538,-0.208608,-0.613115,0.754326 HandTipLeft:0.000000,0.000000,0.000000,0.000000 HandTipRight:0.000000,0.000000,0.000000,0.000000 Head:0.000000,0.000000,0.000000,0.000000 HipLeft:0.138099,-0.680356,0.693970,-0.190919 HipRight:-0.091443,0.677318,0.713001,-0.156551 KneeLeft:0.004272,0.731907,-0.050998,-0.679481 KneeRight:-0.003699,0.681806,0.029707,0.730920 Neck:0.055608,-0.016333,0.994375,-0.088652 ShoulderLeft:-0.010868,0.778583,-0.618548,0.105304 ShoulderRight:0.061723,0.778390,0.624492,-0.017549 SpineBase:0.035314,-0.013113,0.998122,-0.048298 SpineMid:0.045278,-0.013594,0.997720,-0.048165 SpineShoulder:0.055527,-0.015018,0.996069,-0.067365 ThumbLeft:0.000000,0.000000,0.000000,0.000000 ThumbRight:0.000000,0.000000,0.000000,0.000000 WristLeft:-0.099752,0.757183,0.066698,-0.642086 WristRight:0.074958,-0.238803,-0.571173,0.781739 END:
KINECT_DATA POSITION:6.252977,-0.253032,-7.653129 HEAD_JOINT1:0.974943,0.178335,-0.000000,0.132976 LARM_JOINT2:0.833833,0.000000,-0.012925,-0.551866 LARM_JOINT3:0.970384,0.000000,-0.176079,-0.165384 LLEG_JOINT2:0.998386,0.039940,0.000000,0.040368 LLEG_JOINT4:0.996119,0.082162,0.000000,-0.031560 RARM_JOINT2:0.789372,0.000000,-0.023974,0.613447 RARM_JOINT3:0.756854,0.000000,0.653506,0.010107 RLEG_JOINT2:0.999711,0.018240,0.000000,-0.015637 RLEG_JOINT4:0.994815,0.096842,0.000000,0.031070 WAIST:0.999357,0.000000,-0.034821,-0.008602 WAIST_JOINT0:0.998444,0.000000,-0.055735,-0.001634 WAIST_JOINT1:0.997354,0.072271,0.000000,-0.007809 END:
KINECT_DATA_Sensor  AnkleLeft:0.083815,0.731347,-0.088034,-0.671086 AnkleRight:0.088713,0.676542,0.072944,0.727392 ElbowLeft:-0.030226,0.908503,-0.189715,-0.371104 ElbowRight:-0.032138,0.665837,0.163570,0.727237 FootLeft:0.000000,0.000000,0.000000,0.000000 FootRight:0.000000,0.000000,0.000000,0.000000 HandLeft:0.001102,-0.558640,-0.095922,0.823844 HandRight:0.106117,-0.196269,-0.604639,0.764611 HandTipLeft:0.000000,0.000000,0.000000,0.000000 HandTipRight:0.000000,0.000000,0.000000,0.000000 Head:0.000000,0.000000,0.000000,0.000000 HipLeft:0.137928,-0.680528,0.693933,-0.190563 HipRight:-0.091817,0.677239,0.713014,-0.156614 KneeLeft:0.003870,0.731616,-0.050661,-0.679821 KneeRight:-0.003388,0.682103,0.029958,0.730634 Neck:0.055091,-0.016283,0.994443,-0.088226 ShoulderLeft:-0.010879,0.778568,-0.618656,0.104781 ShoulderRight:0.061043,0.778447,0.624481,-0.017838 SpineBase:0.034896,-0.013079,0.998147,-0.048097 SpineMid:0.044811,-0.013557,0.997751,-0.047964 SpineShoulder:0.055009,-0.014976,0.996120,-0.067042 ThumbLeft:0.000000,0.000000,0.000000,0.000000 ThumbRight:0.000000,0.000000,0.000000,0.000000 WristLeft:0.077684,-0.547393,-0.091859,0.828184 WristRight:0.067302,-0.229205,-0.572016,0.784687 END:
KINECT_DATA POSITION:6.233579,-0.257328,-7.688701 HEAD_JOINT1:0.974928,0.178008,-0.000000,0.133525 LARM_JOINT2:0.833888,0.000000,-0.012754,-0.551787 LARM_JOINT3:0.971003,0.000000,-0.172434,-0.165591 LLEG_JOINT2:0.998363,0.040306,0.000000,0.040578 LLEG_JOINT4:0.995935,0.084087,0.000000,-0.032304 RARM_JOINT2:0.788936,0.000000,-0.026273,0.613913 RARM_JOINT3:0.756051,0.000000,0.654408,0.011725 RLEG_JOINT2:0.999724,0.018022,0.000000,-0.015102 RLEG_JOINT4:0.994778,0.097950,0.000000,0.028690 WAIST:0.999357,0.000000,-0.034813,-0.008618 WAIST_JOINT0:0.998436,0.000000,-0.055878,-0.001780 WAIST_JOINT1:0.997365,0.072128,0.000000,-0.007851 END:
KINECT_DATA_Sensor  AnkleLeft:0.085622,0.729794,-0.089458,-0.672359 AnkleRight:0.088114,0.676697,0.074896,0.727123 ElbowLeft:-0.030057,0.908846,-0.189782,-0.370242 ElbowRight:-0.030489,0.665747,0.164273,0.727232 FootLeft:0.000000,0.000000,0.000000,0.000000 FootRight:0.000000,0.000000,0.000000,0.000000 HandLeft:0.001543,-0.592129,-0.084750,0.801373 HandRight:0.111793,-0.206253,-0.603134,0.762359 HandTipLeft:0.000000,0.000000,0.000000,0.000000 HandTipRight:0.000000,0.000000,0.000000,0.000000 Head:0.000000,0.000000,0.000000,0.000000 HipLeft:0.137945,-0.680545,0.693936,-0.190482 HipRight:-0.091861,0.677218,0.713037,-0.156574 KneeLeft:0.003980,0.731616,-0.051060,-0.679790 KneeRight:-0.003194,0.682115,0.029429,0.730646 Neck:0.055262,-0.016362,0.994446,-0.088068 ShoulderLeft:-0.011160,0.778517,-0.618699,0.104873 ShoulderRight:0.060991,0.778209,0.624786,-0.017701 SpineBase:0.034887,-0.013106,0.998150,-0.048029 SpineMid:0.044893,-0.013587,0.997751,-0.047895 SpineShoulder:0.055180,-0.015049,0.996119,-0.066899 ThumbLeft:0.000000,0.000000,0.000000,0.000000 ThumbRight:0.000000,0.000000,0.000000,0.000000 WristLeft:0.081103,-0.580917,-0.087992,0.805118 WristRight:0.074069,-0.238283,-0.570803,0.782252 END:
KINECT_DATA POSITION:6.234926,-0.251102,-7.729495 HEAD_JOINT1:0.974971,0.177753,-0.000000,0.133550 LARM_JOINT2:0.834258,0.000000,-0.012600,-0.551230 LARM_JOINT3:0.971011,0.000000,-0.175035,-0.162791 LLEG_JOINT2:0.998374,0.039724,0.000000,0.040872 LLEG_JOINT4:0.995940,0.083741,0.000000,-0.033025 RARM_JOINT2:0.788879,0.000000,-0.025794,0.614007 RARM_JOINT3:0.754888,0.000000,0.655768,0.010620 RLEG_JOINT2:0.999732,0.018014,0.000000,-0.014538 RLEG_JOINT4:0.994822,0.097492,0.000000,0.028697 WAIST:0.999394,0.000000,-0.033697,-0.008676 WAIST_JOINT0:0.998441,0.000000,-0.055805,-0.001527 WAIST_JOINT1:0.997360,0.072213,0.000000,-0.007698 END:
KINECT_DATA_Sensor  AnkleLeft:0.084658,0.723144,-0.089116,-0.679671 AnkleRight:0.087957,0.676728,0.074415,0.727162 ElbowLeft:-0.029515,0.909265,-0.190653,-0.368806 ElbowRight:-0.030825,0.666258,0.163891,0.726835 FootLeft:0.000000,0.000000,0.000000,0.000000 FootRight:0.000000,0.000000,0.000000,0.000000 HandLeft:0.018995,-0.594541,-0.088497,0.798955 HandRight:0.117704,-0.206175,-0.609281,0.756581 HandTipLeft:0.000000,0.000000,0.000000,0.000000 HandTipRight:0.000000,0.000000,0.000000,0.000000 Head:0.000000,0.000000,0.000000,0.000000 HipLeft:0.137009,-0.680757,0.694077,-0.189881 HipRight:-0.092306,0.677046,0.713003,-0.157209 KneeLeft:0.003471,0.730854,-0.050798,-0.680632 KneeRight:-0.002883,0.682925,0.029055,0.729904 Neck:0.055137,-0.016453,0.994448,-0.088109 ShoulderLeft:-0.010690,0.778348,-0.618973,0.104559 ShoulderRight:0.061318,0.778313,0.624630,-0.017530 SpineBase:0.033783,-0.013076,0.998180,-0.048218 SpineMid:0.044278,-0.013582,0.997769,-0.048078 SpineShoulder:0.055058,-0.015093,0.996121,-0.066964 ThumbLeft:0.000000,0.000000,0.000000,0.000000 ThumbRight:0.000000,0.000000,0.000000,0.000000 WristLeft:0.081161,-0.585847,-0.086665,0.801676 WristRight:0.076890,-0.241900,-0.569711,0.781666 END:
KINECT_DATA POSITION:6.261901,-0.247598,-7.765102 HEAD_JOINT1:0.975057,0.177689,-0.000000,0.133005 LARM_JOINT2:0.834898,0.000000,-0.011984,-0.550274 LARM_JOINT3:0.970344,0.000000,-0.177573,-0.164011 LLEG_JOINT2:0.998392,0.038737,0.000000,0.041390 LLEG_JOINT4:0.995965,0.083437,0.000000,-0.033060 RARM_JOINT2:0.788799,0.000000,-0.026142,0.614095 RARM_JOINT3:0.754557,0.000000,0.656159,0.010008 RLEG_JOINT2:0.999727,0.018027,0.000000,-0.014849 RLEG_JOINT4:0.994807,0.097833,0.000000,0.028053 WAIST:0.999402,0.000000,-0.033490,-0.008552 WAIST_JOINT0:0.998459,0.000000,-0.055476,-0.001497 WAIST_JOINT1:0.997351,0.072336,0.000000,-0.007713 END:
KINECT_DATA_Sensor  AnkleLeft:0.084473,0.731621,-0.087518,-0.670772 AnkleRight:0.091630,0.715669,0.070370,0.688817 ElbowLeft:-0.029436,0.909064,-0.192056,-0.368579 ElbowRight:-0.030297,0.666900,0.164013,0.726242 FootLeft:0.000000,0.000000,0.000000,0.000000 FootRight:0.000000,0.000000,0.000000,0.000000 HandLeft:0.023524,-0.605147,-0.094569,0.790127 HandRight:0.111815,-0.204483,-0.611040,0.756515 HandTipLeft:0.000000,0.000000,0.000000,0.000000 HandTipRight:0.000000,0.000000,0.000000,0.000000 Head:0.000000,0.000000,0.000000,0.000000 HipLeft:0.136637,-0.680656,0.694252,-0.189871 HipRight:-0.092266,0.677077,0.712949,-0.157348 KneeLeft:0.002340,0.730694,-0.050520,-0.680829 KneeRight:-0.003003,0.683077,0.029205,0.729756 Neck:0.054795,-0.016349,0.994458,-0.088228 ShoulderLeft:-0.010807,0.778316,-0.618985,0.104708 ShoulderRight:0.060768,0.778463,0.624477,-0.018200 SpineBase:0.033575,-0.012858,0.998179,-0.048430 SpineMid:0.044010,-0.013364,0.997774,-0.048293 SpineShoulder:0.054718,-0.014988,0.996132,-0.067092 ThumbLeft:0.000000,0.000000,0.000000,0.000000 ThumbRight:0.000000,0.000000,0.000000,0.000000 WristLeft:0.082637,-0.596476,-0.085738,0.793748 WristRight:0.074917,-0.237605,-0.569872,0.783056 END:
KINECT_DATA POSITION:6.285408,-0.250042,-7.763851 HEAD_JOINT1:0.975136,0.177211,-0.000000,0.133065 LARM_JOINT2:0.835337,0.000000,-0.013499,-0.549573 LARM_JOINT3:0.970004,0.000000,-0.181046,-0.162217 LLEG_JOINT2:0.998390,0.039002,0.000000,0.041193 LLEG_JOINT4:0.995856,0.084081,0.000000,-0.034652 RARM_JOINT2:0.788900,0.000000,-0.025861,0.613977 RARM_JOINT3:0.754412,0.000000,0.656329,0.009790 RLEG_JOINT2:0.999729,0.017702,0.000000,-0.015127 RLEG_JOINT4:0.994839,0.097342,0.000000,0.028639 WAIST:0.999409,0.000000,-0.033363,-0.008288 WAIST_JOINT0:0.998467,0.000000,-0.055327,-0.001596 WAIST_JOINT1:0.997323,0.072678,0.000000,-0.008066 END:
KINECT_DATA_Sensor  AnkleLeft:0.085267,0.724055,-0.088038,-0.678766 AnkleRight:0.087437,0.677083,0.074323,0.726904 ElbowLeft:-0.031241,0.907712,-0.192138,-0.371707 ElbowRight:-0.030433,0.666868,0.164269,0.726207 FootLeft:0.000000,0.000000,0.000000,0.000000 FootRight:0.000000,0.000000,0.000000,0.000000 HandLeft:0.029763,-0.599272,-0.102221,0.793434 HandRight:0.121785,-0.215752,-0.608876,0.753584 HandTipLeft:0.000000,0.000000,0.000000,0.000000 HandTipRight:0.000000,0.000000,0.000000,0.000000 Head:0.000000,0.000000,0.000000,0.000000 HipLeft:0.136397,-0.680468,0.694495,-0.189830 HipRight:-0.092163,0.677194,0.712815,-0.157509 KneeLeft:0.002487,0.730594,-0.050767,-0.680918 KneeRight:-0.003246,0.683192,0.029000,0.729656 Neck:0.054653,-0.016453,0.994421,-0.088707 ShoulderLeft:-0.011080,0.778414,-0.618768,0.105235 ShoulderRight:0.060325,0.778557,0.624381,-0.018940 SpineBase:0.033426,-0.012802,0.998176,-0.048618 SpineMid:0.043869,-0.013310,0.997772,-0.048481 SpineShoulder:0.054575,-0.015080,0.996118,-0.067401 ThumbLeft:0.000000,0.000000,0.000000,0.000000 ThumbRight:0.000000,0.000000,0.000000,0.000000 WristLeft:0.084581,-0.590834,-0.087220,0.797593 WristRight:0.083711,-0.249512,-0.568911,0.779151 END:
KINECT_DATA POSITION:6.309514,-0.257165,-7.719803 HEAD_JOINT1:0.975345,0.176776,-0.000000,0.132110 LARM_JOINT2:0.835437,0.000000,-0.014400,-0.549398 LARM_JOINT3:0.969490,0.000000,-0.180962,-0.165355 LLEG_JOINT2:0.998417,0.038702,0.000000,0.040820 LLEG_JOINT4:0.995902,0.083470,0.000000,-0.034811 RARM_JOINT2:0.789036,0.000000,-0.025871,0.613802 RARM_JOINT3:0.755651,0.000000,0.654917,0.008690 RLEG_JOINT2:0.999723,0.017412,0.000000,-0.015858 RLEG_JOINT4:0.994748,0.098081,0.000000,0.029250 WAIST:0.999405,0.000000,-0.033561,-0.008010 WAIST_JOINT0:0.998447,0.000000,-0.055699,-0.001238 WAIST_JOINT1:0.997270,0.073396,0.000000,-0.008153 END:
KINECT_DATA_Sensor  AnkleLeft:0.085402,0.728815,-0.086655,-0.673815 AnkleRight:0.092542,0.722602,0.068639,0.681594 ElbowLeft:-0.031493,0.907776,-0.192424,-0.371381 ElbowRight:-0.030141,0.665679,0.164753,0.727199 FootLeft:0.000000,0.000000,0.000000,0.000000 FootRight:0.000000,0.000000,0.000000,0.000000 HandLeft:0.015016,-0.583054,-0.107765,0.805114 HandRight:0.110893,-0.206455,-0.605849,0.760280 HandTipLeft:0.000000,0.000000,0.000000,0.000000 HandTipRight:0.000000,0.000000,0.000000,0.000000 Head:0.000000,0.000000,0.000000,0.000000 HipLeft:0.136344,-0.680172,0.694667,-0.190300 HipRight:-0.091920,0.677344,0.712646,-0.157772 KneeLeft:0.002344,0.730704,-0.050488,-0.680821 KneeRight:-0.003756,0.683067,0.029138,0.729764 Neck:0.054941,-0.016184,0.994335,-0.089538 ShoulderLeft:-0.010562,0.777887,-0.619350,0.105768 ShoulderRight:0.061244,0.778655,0.624167,-0.018970 SpineBase:0.033604,-0.012627,0.998152,-0.049028 SpineMid:0.044100,-0.013142,0.997743,-0.048893 SpineShoulder:0.054861,-0.014893,0.996058,-0.068093 ThumbLeft:0.000000,0.000000,0.000000,0.000000 ThumbRight:0.000000,0.000000,0.000000,0.000000 WristLeft:0.082771,-0.572177,-0.089133,0.811060 WristRight:0.073628,-0.238922,-0.569585,0.782987 END:
KINECT_DATA POSITION:6.292688,-0.260755,-7.645214 HEAD_JOINT1:0.975047,0.178401,-0.000000,0.132123 LARM_JOINT2:0.835391,0.000000,-0.014282,-0.549471 LARM_JOINT3:0.970095,0.000000,-0.177577,-0.165473 LLEG_JOINT2:0.998389,0.039312,0.000000,0.040912 LLEG_JOINT4:0.996017,0.081835,0.000000,-0.035398 RARM_JOINT2:0.789494,0.000000,-0.024345,0.613275 RARM_JOINT3:0.758374,0.000000,0.651711,0.011935 RLEG_JOINT2:0.999739,0.016697,0.000000,-0.015601 RLEG_JOINT4:0.994745,0.098418,0.000000,0.028204 WAIST:0.999395,0.000000,-0.033829,-0.008042 WAIST_JOINT0:0.998470,0.000000,-0.055270,-0.001565 WAIST_JOINT1:0.997240,0.073790,0.000000,-0.008262 END:
KINECT_DATA_Sensor  AnkleLeft:0.085080,0.729339,-0.085544,-0.673430 AnkleRight:0.087126,0.677196,0.074765,0.726790 ElbowLeft:-0.030879,0.908171,-0.192454,-0.370450 ElbowRight:-0.031161,0.666103,0.164843,0.726748 FootLeft:0.000000,0.000000,0.000000,0.000000 FootRight:0.000000,0.000000,0.000000,0.000000 HandLeft:0.009144,-0.583103,-0.095036,0.806769 HandRight:0.117671,-0.206590,-0.596771,0.766380 HandTipLeft:0.000000,0.000000,0.000000,0.000000 HandTipRight:0.000000,0.000000,0.000000,0.000000 Head:0.000000,0.000000,0.000000,0.000000 HipLeft:0.136444,-0.680112,0.694606,-0.190664 HipRight:-0.091625,0.677311,0.712685,-0.157909 KneeLeft:0.002704,0.730892,-0.050973,-0.680582 KneeRight:-0.004119,0.682892,0.028486,0.729952 Neck:0.054563,-0.016240,0.994316,-0.089969 ShoulderLeft:-0.009742,0.777751,-0.619572,0.105539 ShoulderRight:0.061598,0.778046,0.624879,-0.019412 SpineBase:0.033866,-0.012768,0.998128,-0.049304 SpineMid:0.044040,-0.013270,0.997731,-0.049171 SpineShoulder:0.054479,-0.014965,0.996051,-0.068491 ThumbLeft:0.000000,0.000000,0.000000,0.000000 ThumbRight:0.000000,0.000000,0.000000,0.000000 WristLeft:0.081938,-0.572238,-0.088983,0.811118 WristRight:0.074714,-0.241405,-0.567964,0.783299 END:
KINECT_DATA POSITION:6.266800,-0.305004,-7.418609 HEAD_JOINT1:0.975920,0.177973,-0.000000,0.126119 LARM_JOINT2:0.832579,0.000000,-0.012901,-0.553756 LARM_JOINT3:0.971892,0.000000,-0.174166,-0.158405 LLEG_JOINT2:0.998347,0.041094,0.000000,0.040192 LLEG_JOINT4:0.996316,0.079920,0.000000,-0.031101 RARM_JOINT2:0.794919,0.000000,0.001152,0.606714 RARM_JOINT3:0.760772,0.000000,0.648520,0.025449 RLEG_JOINT2:0.999711,0.018708,0.000000,-0.015114 RLEG_JOINT4:0.994830,0.097315,0.000000,0.029039 WAIST:0.999531,0.000000,-0.029511,-0.008231 WAIST_JOINT0:0.998892,0.000000,-0.047058,0.000532 WAIST_JOINT1:0.997309,0.072941,0.000000,-0.007406 END:
KINECT_DATA_Sensor  AnkleLeft:0.083452,0.730663,-0.086960,-0.672016 AnkleRight:0.090295,0.700051,0.072473,0.704644 ElbowLeft:-0.029765,0.902841,-0.188619,-0.385246 ElbowRight:-0.048578,0.688833,0.157065,0.706031 FootLeft:0.000000,0.000000,0.000000,0.000000 FootRight:0.000000,0.000000,0.000000,0.000000 HandLeft:0.003851,-0.505294,-0.082421,0.858994 HandRight:0.140066,-0.147845,-0.624183,0.754267 HandTipLeft:0.000000,0.000000,0.000000,0.000000 HandTipRight:0.000000,0.000000,0.000000,0.000000 Head:0.000000,0.000000,0.000000,0.000000 HipLeft:0.135234,-0.681120,0.694805,-0.187171 HipRight:-0.095757,0.676863,0.712311,-0.159059 KneeLeft:0.004833,0.727998,-0.051652,-0.683613 KneeRight:-0.002555,0.685955,0.029649,0.727035 Neck:0.046340,-0.015573,0.994833,-0.088977 ShoulderLeft:-0.006317,0.777288,-0.621152,0.099764 ShoulderRight:0.054455,0.779278,0.623753,-0.026304 SpineBase:0.029595,-0.012537,0.998366,-0.047256 SpineMid:0.037790,-0.012925,0.998089,-0.047151 SpineShoulder:0.046247,-0.014349,0.996530,-0.067708 ThumbLeft:0.000000,0.000000,0.000000,0.000000 ThumbRight:0.000000,0.000000,0.000000,0.000000 WristLeft:0.076723,-0.496117,-0.093996,0.859736 WristRight:0.076056,-0.203467,-0.563601,0.796976 END:
KINECT_DATA POSITION:6.304210,-0.330024,-7.219195 HEAD_JOINT1:0.980306,0.171091,-0.000000,0.098627 LARM_JOINT2:0.825376,0.000000,-0.006278,-0.564548 LARM_JOINT3:0.974657,0.000000,-0.172227,-0.142763 LLEG_JOINT2:0.998349,0.041701,0.000000,0.039498 LLEG_JOINT4:0.996367,0.080394,0.000000,-0.028116 RARM_JOINT2:0.819183,0.000000,0.080491,0.567856 RARM_JOINT3:0.788516,0.000000,0.613995,0.035390 RLEG_JOINT2:0.999720,0.017936,0.000000,-0.015415 RLEG_JOINT4:0.994381,0.101338,0.000000,0.030618 WAIST:0.999698,0.000000,-0.022930,-0.008815 WAIST_JOINT0:0.999724,0.000000,-0.023011,0.004710 WAIST_JOINT1:0.997695,0.067672,0.000000,-0.004991 END:
KINECT_DATA_Sensor  AnkleLeft:0.083499,0.725560,-0.088496,-0.677318 AnkleRight:0.091926,0.696725,0.075726,0.707382 ElbowLeft:-0.029970,0.885264,-0.178492,-0.428427 ElbowRight:-0.116806,0.748804,0.146401,0.635780 FootLeft:0.000000,0.000000,0.000000,0.000000 FootRight:0.000000,0.000000,0.000000,0.000000 HandLeft:0.009021,-0.559107,-0.067632,0.826283 HandRight:0.135872,-0.079605,-0.651117,0.742462 HandTipLeft:0.000000,0.000000,0.000000,0.000000 HandTipRight:0.000000,0.000000,0.000000,0.000000 Head:0.000000,0.000000,0.000000,0.000000 HipLeft:0.133593,-0.682677,0.694883,-0.182329 HipRight:-0.102601,0.675951,0.711809,-0.160907 KneeLeft:0.006548,0.723546,-0.051201,-0.688343 KneeRight:-0.003894,0.690622,0.029768,0.722593 Neck:0.022083,-0.012183,0.996342,-0.081645 ShoulderLeft:0.008923,0.777112,-0.624654,0.076324 ShoulderRight:0.038214,0.782653,0.619966,-0.040457 SpineBase:0.023128,-0.011599,0.998693,-0.044088 SpineMid:0.022441,-0.011568,0.998708,-0.044096 SpineShoulder:0.021906,-0.012112,0.997680,-0.063314 ThumbLeft:0.000000,0.000000,0.000000,0.000000 ThumbRight:0.000000,0.000000,0.000000,0.000000 WristLeft:0.093209,-0.548610,-0.087811,0.826213 WristRight:0.090821,-0.118701,-0.551408,0.820738 END:
KINECT_DATA POSITION:6.422128,-0.349949,-7.021189 HEAD_JOINT1:0.984402,0.161449,-0.000000,0.069912 LARM_JOINT2:0.821226,0.000000,0.000456,-0.570603 LARM_JOINT3:0.973588,0.000000,-0.181721,-0.138220 LLEG_JOINT2:0.998397,0.041304,0.000000,0.038709 LLEG_JOINT4:0.996335,0.081933,0.000000,-0.024549 RARM_JOINT2:0.874605,0.000000,0.222626,0.430702 RARM_JOINT3:0.799956,0.000000,0.593219,0.090340 RLEG_JOINT2:0.999690,0.018451,0.000000,-0.016708 RLEG_JOINT4:0.994029,0.103495,0.000000,0.034560 WAIST:0.999847,0.000000,-0.014815,-0.009247 WAIST_JOINT0:0.999976,-0.000000,0.002255,0.006611 WAIST_JOINT1:0.998293,0.058375,0.000000,-0.001963 END:
KINECT_DATA_Sensor  AnkleLeft:0.084174,0.725846,-0.089617,-0.676780 AnkleRight:0.093537,0.690247,0.078257,0.713222 ElbowLeft:-0.032464,0.873455,-0.172577,-0.454136 ElbowRight:-0.273209,0.827222,0.186047,0.454365 FootLeft:0.000000,0.000000,0.000000,0.000000 FootRight:0.000000,0.000000,0.000000,0.000000 HandLeft:0.031504,-0.615729,-0.091793,0.781959 HandRight:0.189421,0.035845,-0.674776,0.712399 HandTipLeft:0.000000,0.000000,0.000000,0.000000 HandTipRight:0.000000,0.000000,0.000000,0.000000 Head:0.000000,0.000000,0.000000,0.000000 HipLeft:0.131964,-0.684720,0.694931,-0.175541 HipRight:-0.111700,0.675410,0.710654,-0.162223 KneeLeft:0.007606,0.717966,-0.050055,-0.694235 KneeRight:-0.004925,0.696336,0.031377,0.717013 Neck:-0.002976,-0.008620,0.997324,-0.072538 ShoulderLeft:0.010763,0.778466,-0.625012,0.056880 ShoulderRight:0.007408,0.785695,0.615630,-0.060236 SpineBase:0.015115,-0.009929,0.999075,-0.039020 SpineMid:0.005957,-0.009571,0.999171,-0.039109 SpineShoulder:-0.003212,-0.009447,0.998487,-0.054079 ThumbLeft:0.000000,0.000000,0.000000,0.000000 ThumbRight:0.000000,0.000000,0.000000,0.000000 WristLeft:0.107183,-0.603123,-0.085756,0.785748 WristRight:0.153990,0.028113,-0.554791,0.817132 END:
KINECT_DATA POSITION:6.516748,-0.364661,-7.002389 HEAD_JOINT1:0.987353,0.150327,-0.000000,0.050362 LARM_JOINT2:0.819325,0.000000,0.004111,-0.573314 LARM_JOINT3:0.972685,0.000000,-0.183249,-0.142492 LLEG_JOINT2:0.998498,0.039508,0.000000,0.037964 LLEG_JOINT4:0.996089,0.085397,0.000000,-0.022652 RARM_JOINT2:0.845501,0.000000,0.419777,0.330025 RARM_JOINT3:0.873915,0.000000,0.480110,0.075936 RLEG_JOINT2:0.999651,0.019746,0.000000,-0.017568 RLEG_JOINT4:0.993837,0.103815,0.000000,0.038871 WAIST:0.999929,0.000000,-0.006942,-0.009662 WAIST_JOINT0:0.999569,-0.000000,0.027240,0.010930 WAIST_JOINT1:0.998591,0.053041,-0.000000,0.001831 END:
KINECT_DATA_Sensor  AnkleLeft:-0.081632,-0.690352,0.094289,0.712643 AnkleRight:0.096299,0.695988,0.077913,0.707289 ElbowLeft:-0.034830,0.864438,-0.171530,-0.471287 ElbowRight:-0.416481,0.853564,0.122185,0.288172 FootLeft:0.000000,0.000000,0.000000,0.000000 FootRight:0.000000,0.000000,0.000000,0.000000 HandLeft:0.017894,-0.614462,-0.106765,0.781485 HandRight:0.270447,0.134074,-0.648195,0.699089 HandTipLeft:0.000000,0.000000,0.000000,0.000000 HandTipRight:0.000000,0.000000,0.000000,0.000000 Head:0.000000,0.000000,0.000000,0.000000 HipLeft:0.128768,-0.687187,0.695032,-0.167698 HipRight:-0.119630,0.675176,0.709374,-0.163140 KneeLeft:0.007605,0.712472,-0.047952,-0.700019 KneeRight:-0.005096,0.701876,0.033205,0.711506 Neck:-0.027947,-0.004566,0.997283,-0.068007 ShoulderLeft:0.009366,0.778738,-0.625715,0.044279 ShoulderRight:-0.026590,0.789197,0.607482,-0.086183 SpineBase:0.007301,-0.008514,0.999348,-0.034328 SpineMid:-0.010380,-0.007905,0.999320,-0.034474 SpineShoulder:-0.028190,-0.005873,0.998408,-0.048506 ThumbLeft:0.000000,0.000000,0.000000,0.000000 ThumbRight:0.000000,0.000000,0.000000,0.000000 WristLeft:0.114038,-0.595771,-0.086609,0.790286 WristRight:0.175678,0.080660,-0.543089,0.817120 END:
KINECT_DATA POSITION:6.713809,-0.346022,-7.091904 HEAD_JOINT1:0.988623,0.145779,-0.000000,0.037041 LARM_JOINT2:0.818936,0.000000,0.005540,-0.573858 LARM_JOINT3:0.973090,0.000000,-0.179962,-0.143908 LLEG_JOINT2:0.998663,0.033848,0.000000,0.039081 LLEG_JOINT4:0.995754,0.090428,0.000000,-0.017228 RARM_JOINT2:0.868493,0.000000,0.441120,0.226124 RARM_JOINT3:0.829771,0.000000,0.549276,0.098869 RLEG_JOINT2:0.999614,0.022513,0.000000,-0.016264 RLEG_JOINT4:0.994187,0.099927,0.000000,0.040085 WAIST:0.999833,0.000000,0.013300,-0.012519 WAIST_JOINT0:0.998743,0.000000,0.049964,-0.004063 WAIST_JOINT1:0.998681,0.050702,-0.000000,0.008132 END:
KINECT_DATA_Sensor  AnkleLeft:0.086520,0.720901,-0.089614,-0.681752 AnkleRight:0.096586,0.734219,0.076048,0.667690 ElbowLeft:-0.032049,0.858172,-0.174441,-0.481751 ElbowRight:-0.490653,0.825258,0.164961,0.225825 FootLeft:0.000000,0.000000,0.000000,0.000000 FootRight:0.000000,0.000000,0.000000,0.000000 HandLeft:-0.043637,0.774622,0.082445,-0.625508 HandRight:0.183252,0.273784,-0.632324,0.701162 HandTipLeft:0.000000,0.000000,0.000000,0.000000 HandTipRight:0.000000,0.000000,0.000000,0.000000 Head:0.000000,0.000000,0.000000,0.000000 HipLeft:0.115947,-0.693002,0.695199,-0.151665 HipRight:-0.133313,0.672188,0.708465,-0.168726 KneeLeft:-0.005881,-0.698206,0.042761,0.714594 KneeRight:-0.004786,0.715964,0.036324,0.697176 Neck:-0.052356,-0.001943,0.996436,-0.066110 ShoulderLeft:0.013323,0.781979,-0.622398,0.030854 ShoulderRight:-0.054676,0.777396,0.616512,-0.112151 SpineBase:-0.012728,-0.006380,0.999455,-0.029776 SpineMid:-0.032577,-0.005787,0.999005,-0.029897 SpineShoulder:-0.052595,-0.003357,0.997546,-0.046086 ThumbLeft:0.000000,0.000000,0.000000,0.000000 ThumbRight:0.000000,0.000000,0.000000,0.000000 WristLeft:-0.133294,0.766543,0.053778,-0.625902 WristRight:0.169321,0.280771,-0.597749,0.731570 END:
KINECT_DATA POSITION:6.882246,-0.211518,-7.239711 HEAD_JOINT1:0.989428,0.142068,-0.000000,0.029122 LARM_JOINT2:0.818454,0.000000,0.008686,-0.574507 LARM_JOINT3:0.972182,0.000000,-0.181359,-0.148223 LLEG_JOINT2:0.998708,0.030244,0.000000,0.040833 LLEG_JOINT4:0.995661,0.092344,0.000000,-0.011439 RARM_JOINT2:0.847484,0.000000,0.481749,0.222907 RARM_JOINT3:0.857488,0.000000,0.510109,0.067098 RLEG_JOINT2:0.999626,0.022784,0.000000,-0.015152 RLEG_JOINT4:0.993727,0.102314,0.000000,0.045142 WAIST:0.999626,0.000000,0.022417,-0.015695 WAIST_JOINT0:0.997044,0.000000,0.069542,-0.032660 WAIST_JOINT1:0.998712,0.049345,-0.000000,0.011807 END:
KINECT_DATA_Sensor  AnkleLeft:0.085957,0.734747,-0.088669,-0.667006 AnkleRight:0.100553,0.744298,0.076006,0.655845 ElbowLeft:-0.029463,0.852494,-0.175047,-0.491676 ElbowRight:-0.509051,0.827327,0.118639,0.205724 FootLeft:0.000000,0.000000,0.000000,0.000000 FootRight:0.000000,0.000000,0.000000,0.000000 HandLeft:0.008298,-0.566647,-0.096691,0.818225 HandRight:-0.106094,-0.342655,0.657307,-0.662782 HandTipLeft:0.000000,0.000000,0.000000,0.000000 HandTipRight:0.000000,0.000000,0.000000,0.000000 Head:0.000000,0.000000,0.000000,0.000000 HipLeft:-0.112615,0.696068,-0.693817,0.146374 HipRight:-0.140933,0.669113,0.709085,-0.172114 KneeLeft:-0.004772,-0.691738,0.039319,0.721062 KneeRight:-0.006291,0.722174,0.038030,0.690637 Neck:-0.070050,-0.001427,0.995425,-0.064963 ShoulderLeft:0.020033,0.784667,-0.619311,0.018713 ShoulderRight:-0.072237,0.739139,0.656827,-0.130509 SpineBase:-0.021695,-0.006020,0.999367,-0.027552 SpineMid:-0.045919,-0.005350,0.998547,-0.027690 SpineShoulder:-0.070310,-0.002919,0.996511,-0.044886 ThumbLeft:0.000000,0.000000,0.000000,0.000000 ThumbRight:0.000000,0.000000,0.000000,0.000000 WristLeft:0.113229,-0.547843,-0.090339,0.823945 WristRight:-0.100296,-0.357800,0.621918,-0.689302 END:
KINECT_DATA POSITION:7.111688,-0.459888,-7.391131 HEAD_JOINT1:0.992202,0.122170,-0.000000,0.024708 LARM_JOINT2:0.815959,0.000000,0.004129,-0.578095 LARM_JOINT3:0.971928,0.000000,-0.184285,-0.146271 LLEG_JOINT2:0.998957,0.025687,0.000000,0.037740 LLEG_JOINT4:0.995626,0.093340,0.000000,-0.004176 RARM_JOINT2:0.830391,0.000000,0.533192,0.161731 RARM_JOINT3:0.901952,0.000000,0.431785,0.006650 RLEG_JOINT2:0.999510,0.025734,0.000000,-0.017805 RLEG_JOINT4:0.993695,0.098048,0.000000,0.054378 WAIST:0.999137,0.000000,0.038333,-0.016012 WAIST_JOINT0:0.996840,0.000000,0.079248,-0.005362 WAIST_JOINT1:0.998467,0.053825,-0.000000,0.012871 END:
KINECT_DATA_Sensor  AnkleLeft:0.082388,0.724540,-0.088273,-0.678573 AnkleRight:0.102309,0.748475,0.073275,0.651114 ElbowLeft:-0.023996,0.846099,-0.172767,-0.503678 ElbowRight:-0.558924,0.809150,0.084681,0.160341 FootLeft:0.000000,0.000000,0.000000,0.000000 FootRight:0.000000,0.000000,0.000000,0.000000 HandLeft:0.009920,-0.499846,-0.108192,0.859273 HandRight:-0.168498,-0.242145,0.686646,-0.664448 HandTipLeft:0.000000,0.000000,0.000000,0.000000 HandTipRight:0.000000,0.000000,0.000000,0.000000 Head:0.000000,0.000000,0.000000,0.000000 HipLeft:-0.099493,0.698515,-0.695014,0.138323 HipRight:-0.147535,0.667214,0.707272,-0.181177 KneeLeft:-0.004551,-0.680196,0.033821,0.732235 KneeRight:-0.006880,0.732984,0.042295,0.678895 Neck:-0.080658,-0.001748,0.994217,-0.070877 ShoulderLeft:0.038586,0.787366,-0.615253,0.005510 ShoulderRight:-0.065337,0.778708,0.609846,-0.132034 SpineBase:-0.037447,-0.004485,0.998825,-0.030424 SpineMid:-0.059051,-0.003826,0.997781,-0.030514 SpineShoulder:-0.080969,-0.003164,0.995499,-0.049143 ThumbLeft:0.000000,0.000000,0.000000,0.000000 ThumbRight:0.000000,0.000000,0.000000,0.000000 WristLeft:0.104900,-0.482883,-0.094687,0.864207 WristRight:0.141281,0.237004,-0.614859,0.738795 END:
KINECT_DATA POSITION:7.265977,-0.590512,-7.469237 HEAD_JOINT1:0.992046,0.122790,-0.000000,0.027683 LARM_JOINT2:0.816712,0.000000,0.010878,-0.576944 LARM_JOINT3:0.969543,0.000000,-0.193074,-0.150695 LLEG_JOINT2:0.999247,0.022694,0.000000,0.031476 LLEG_JOINT4:0.995650,0.093126,0.000000,0.002937 RARM_JOINT2:0.795813,0.000000,0.600895,0.074875 RARM_JOINT3:0.963092,0.000000,0.265718,-0.042976 RLEG_JOINT2:0.999395,0.026208,0.000000,-0.022855 RLEG_JOINT4:0.993573,0.096719,0.000000,0.058810 WAIST:0.998749,0.000000,0.048320,-0.012837 WAIST_JOINT0:0.995561,-0.000000,0.083460,0.043507 WAIST_JOINT1:0.998474,0.054208,-0.000000,0.010558 END:
KINECT_DATA_Sensor  AnkleLeft:0.079708,0.729159,-0.087379,-0.674047 AnkleRight:0.102302,0.750365,0.072604,0.649011 ElbowLeft:-0.017887,0.840301,-0.177571,-0.511901 ElbowRight:-0.623455,0.772476,0.018213,0.119383 FootLeft:0.000000,0.000000,0.000000,0.000000 FootRight:0.000000,0.000000,0.000000,0.000000 HandLeft:0.025961,-0.519377,-0.119438,0.845759 HandRight:0.275246,-0.362665,0.707082,-0.541062 HandTipLeft:0.000000,0.000000,0.000000,0.000000 HandTipRight:0.000000,0.000000,0.000000,0.000000 Head:0.000000,0.000000,0.000000,0.000000 HipLeft:0.091686,-0.697705,0.698315,-0.130985 HipRight:-0.151469,0.667902,0.704454,-0.186299 KneeLeft:-0.004744,-0.672691,0.029482,0.739320 KneeRight:-0.008358,0.739837,0.043840,0.671305 Neck:-0.086598,-0.001553,0.993738,-0.070591 ShoulderLeft:0.034366,0.790954,-0.610883,0.005687 ShoulderRight:-0.074365,0.835402,0.527004,-0.137259 SpineBase:-0.047588,-0.004202,0.998376,-0.031016 SpineMid:-0.066924,-0.003601,0.997267,-0.031091 SpineShoulder:-0.086915,-0.003114,0.994970,-0.049699 ThumbLeft:0.000000,0.000000,0.000000,0.000000 ThumbRight:0.000000,0.000000,0.000000,0.000000 WristLeft:0.107500,-0.503426,-0.091087,0.852472 WristRight:0.196808,-0.469731,0.631686,-0.584458 END:
KINECT_DATA POSITION:7.187328,0.169110,-7.345390 HEAD_JOINT1:0.992347,0.123166,-0.000000,0.008836 LARM_JOINT2:0.818994,0.000000,0.011466,-0.573687 LARM_JOINT3:0.968209,0.000000,-0.193664,-0.158319 LLEG_JOINT2:0.999400,0.021414,0.000000,0.027212 LLEG_JOINT4:0.995759,0.091436,0.000000,0.010166 RARM_JOINT2:0.833268,0.000000,0.544923,0.093396 RARM_JOINT3:0.947574,0.000000,0.303405,-0.100241 RLEG_JOINT2:0.999431,0.025207,0.000000,-0.022418 RLEG_JOINT4:0.993375,0.098915,0.000000,0.058490 WAIST:0.998545,0.000000,0.052755,-0.011170 WAIST_JOINT0:0.994246,-0.000000,0.101264,0.034937 WAIST_JOINT1:0.998428,0.054306,-0.000000,0.013896 END:
KINECT_DATA_Sensor  AnkleLeft:0.075936,0.734264,-0.088078,-0.668829 AnkleRight:0.104730,0.759061,0.071739,0.638523 ElbowLeft:-0.017797,0.844082,-0.186101,-0.502568 ElbowRight:-0.609764,0.755758,0.001338,0.238779 FootLeft:0.000000,0.000000,0.000000,0.000000 FootRight:0.000000,0.000000,0.000000,0.000000 HandLeft:-0.066803,0.749487,0.104008,-0.650376 HandRight:0.466008,-0.279424,-0.587900,0.599277 HandTipLeft:0.000000,0.000000,0.000000,0.000000 HandTipRight:0.000000,0.000000,0.000000,0.000000 Head:0.000000,0.000000,0.000000,0.000000 HipLeft:0.088193,-0.696828,0.699972,-0.129196 HipRight:-0.153831,0.668493,0.702904,-0.188094 KneeLeft:-0.005635,-0.669357,0.026651,0.742442 KneeRight:-0.007684,0.742868,0.041628,0.668098 Neck:-0.106125,0.005015,0.991848,-0.070361 ShoulderLeft:0.034248,0.795090,-0.605518,-0.002537 ShoulderRight:-0.099898,0.833357,0.519422,-0.160428 SpineBase:-0.052023,-0.001459,0.998147,-0.031517 SpineMid:-0.078727,-0.000614,0.996397,-0.031545 SpineShoulder:-0.106454,0.002160,0.993063,-0.049896 ThumbLeft:0.000000,0.000000,0.000000,0.000000 ThumbRight:0.000000,0.000000,0.000000,0.000000 WristLeft:-0.130560,0.745027,0.050703,-0.652164 WristRight:0.453099,-0.278229,-0.529602,0.660917 END:
