EastLYD/RoboCupatHomeSim/InteractiveCleanUp/JapanOpen2016/Motion_Data/File5.dat
KINECT_DATA POSITION:10.097321,-2.136021,-2.374005 HEAD_JOINT1:0.977334,0.174112,-0.000000,0.120432 LARM_JOINT2:0.828315,0.000000,0.004751,-0.560243 LARM_JOINT3:0.978784,0.000000,-0.153092,-0.136177 LLEG_JOINT2:0.998002,0.029364,0.000000,0.055946 LLEG_JOINT4:0.995665,0.083209,0.000000,-0.041569 RARM_JOINT2:0.796929,0.000000,-0.038045,0.602874 RARM_JOINT3:0.972340,0.000000,0.203079,0.115383 RLEG_JOINT2:0.999106,0.002027,0.000000,-0.042231 RLEG_JOINT4:0.993654,0.109776,0.000000,0.024514 WAIST:0.999606,0.000000,-0.026883,-0.008075 WAIST_JOINT0:0.999173,0.000000,-0.040594,0.002522 WAIST_JOINT1:0.996879,0.077247,0.000000,-0.016263 END:
KINECT_DATA_Sensor  AnkleLeft:0.073663,0.726243,-0.084736,-0.678207 AnkleRight:0.065416,0.694927,0.093745,0.709936 ElbowLeft:-0.011328,0.888846,-0.182858,-0.419986 ElbowRight:0.009541,0.818860,0.192210,0.540770 FootLeft:0.000000,0.000000,0.000000,0.000000 FootRight:0.000000,0.000000,0.000000,0.000000 HandLeft:-0.011161,-0.563247,-0.023551,0.825877 HandRight:-0.004850,-0.354818,-0.095543,0.930028 HandTipLeft:0.000000,0.000000,0.000000,0.000000 HandTipRight:0.000000,0.000000,0.000000,0.000000 Head:0.000000,0.000000,0.000000,0.000000 HipLeft:0.131870,-0.680145,0.696701,-0.186066 HipRight:-0.095706,0.672986,0.713565,-0.169572 KneeLeft:-0.014658,0.725561,-0.054110,-0.685870 KneeRight:-0.033223,0.688036,0.037801,0.723929 Neck:0.039392,-0.024416,0.994532,-0.093587 ShoulderLeft:0.004652,0.781565,-0.616631,0.094346 ShoulderRight:0.056864,0.782984,0.618684,-0.030554 SpineBase:0.026530,-0.020580,0.998041,-0.052785 SpineMid:0.032669,-0.020904,0.997859,-0.052657 SpineShoulder:0.039157,-0.022737,0.996365,-0.072160 ThumbLeft:0.000000,0.000000,0.000000,0.000000 ThumbRight:0.000000,0.000000,0.000000,0.000000 WristLeft:0.080388,-0.556404,-0.057900,0.824985 WristRight:-0.017651,-0.354716,-0.116378,0.927535 END:
KINECT_DATA POSITION:10.007802,-2.148797,-2.488756 HEAD_JOINT1:0.976919,0.176551,-0.000000,0.120246 LARM_JOINT2:0.828289,0.000000,0.004369,-0.560284 LARM_JOINT3:0.977496,0.000000,-0.151920,-0.146365 LLEG_JOINT2:0.998075,0.028266,0.000000,0.055197 LLEG_JOINT4:0.995651,0.083110,0.000000,-0.042103 RARM_JOINT2:0.796748,0.000000,-0.039557,0.603015 RARM_JOINT3:0.972574,0.000000,0.200972,0.117088 RLEG_JOINT2:0.999116,0.002226,0.000000,-0.041969 RLEG_JOINT4:0.993758,0.109066,0.000000,0.023463 WAIST:0.999618,0.000000,-0.026539,-0.007669 WAIST_JOINT0:0.999139,0.000000,-0.041415,0.002590 WAIST_JOINT1:0.996947,0.076472,0.000000,-0.015743 END:
KINECT_DATA_Sensor  AnkleLeft:0.075637,0.743481,-0.081321,-0.659471 AnkleRight:0.066885,0.711359,0.092217,0.693535 ElbowLeft:-0.010881,0.892508,-0.183220,-0.411996 ElbowRight:0.010337,0.818733,0.191429,0.541225 FootLeft:0.000000,0.000000,0.000000,0.000000 FootRight:0.000000,0.000000,0.000000,0.000000 HandLeft:-0.034008,-0.574584,-0.033250,0.817062 HandRight:0.007821,-0.465484,-0.083365,0.881087 HandTipLeft:0.000000,0.000000,0.000000,0.000000 HandTipRight:0.000000,0.000000,0.000000,0.000000 Head:0.000000,0.000000,0.000000,0.000000 HipLeft:0.131882,-0.680022,0.696964,-0.185522 HipRight:-0.096541,0.673357,0.713191,-0.169200 KneeLeft:-0.015141,0.725293,-0.053091,-0.686223 KneeRight:-0.032627,0.688269,0.037450,0.723753 Neck:0.040279,-0.023621,0.994596,-0.092733 ShoulderLeft:0.003387,0.781666,-0.616472,0.094606 ShoulderRight:0.056653,0.783129,0.618570,-0.029504 SpineBase:0.026190,-0.019838,0.998102,-0.052088 SpineMid:0.032950,-0.020190,0.997902,-0.051953 SpineShoulder:0.040061,-0.021953,0.996404,-0.071362 ThumbLeft:0.000000,0.000000,0.000000,0.000000 ThumbRight:0.000000,0.000000,0.000000,0.000000 WristLeft:0.077982,-0.563819,-0.060013,0.820016 WristRight:-0.002241,-0.464519,-0.117397,0.877744 END:
KINECT_DATA POSITION:9.846685,-2.189657,-2.598512 HEAD_JOINT1:0.977268,0.173574,-0.000000,0.121731 LARM_JOINT2:0.827907,0.000000,0.002766,-0.560858 LARM_JOINT3:0.977185,0.000000,-0.157668,-0.142301 LLEG_JOINT2:0.998099,0.027027,0.000000,0.055386 LLEG_JOINT4:0.995453,0.085127,0.000000,-0.042732 RARM_JOINT2:0.800779,0.000000,-0.036246,0.597862 RARM_JOINT3:0.968379,0.000000,0.215735,0.125299 RLEG_JOINT2:0.999142,0.002973,0.000000,-0.041313 RLEG_JOINT4:0.993956,0.106873,0.000000,0.025086 WAIST:0.999654,0.000000,-0.025219,-0.007410 WAIST_JOINT0:0.998998,0.000000,-0.044644,0.003178 WAIST_JOINT1:0.997040,0.075439,0.000000,-0.014864 END:
KINECT_DATA_Sensor  AnkleLeft:0.074473,0.726459,-0.083441,-0.678047 AnkleRight:0.066401,0.705270,0.090166,0.700039 ElbowLeft:-0.012547,0.892744,-0.182549,-0.411735 ElbowRight:0.007043,0.827037,0.194224,0.527482 FootLeft:0.000000,0.000000,0.000000,0.000000 FootRight:0.000000,0.000000,0.000000,0.000000 HandLeft:0.001852,-0.699210,-0.040957,0.713739 HandRight:0.037246,-0.372404,-0.147103,0.915581 HandTipLeft:0.000000,0.000000,0.000000,0.000000 HandTipRight:0.000000,0.000000,0.000000,0.000000 Head:0.000000,0.000000,0.000000,0.000000 HipLeft:0.131279,-0.680158,0.697269,-0.184300 HipRight:-0.098153,0.673538,0.712821,-0.169113 KneeLeft:-0.016239,0.724362,-0.052534,-0.687223 KneeRight:-0.031496,0.689183,0.037265,0.722943 Neck:0.042892,-0.022969,0.994615,-0.091506 ShoulderLeft:0.002549,0.781685,-0.616458,0.094555 ShoulderRight:0.059105,0.785986,0.614907,-0.024936 SpineBase:0.024908,-0.018853,0.998201,-0.051167 SpineMid:0.033623,-0.019299,0.997946,-0.051001 SpineShoulder:0.042702,-0.021208,0.996390,-0.070244 ThumbLeft:0.000000,0.000000,0.000000,0.000000 ThumbRight:0.000000,0.000000,0.000000,0.000000 WristLeft:0.087865,-0.688981,-0.050208,0.717680 WristRight:-0.010996,-0.380184,-0.117582,0.917340 END:
KINECT_DATA POSITION:9.697511,-2.236655,-2.509046 HEAD_JOINT1:0.977996,0.168712,-0.000000,0.122717 LARM_JOINT2:0.826519,0.000000,0.002110,-0.562905 LARM_JOINT3:0.976603,0.000000,-0.160678,-0.142928 LLEG_JOINT2:0.998112,0.027352,0.000000,0.054987 LLEG_JOINT4:0.995509,0.083316,0.000000,-0.044939 RARM_JOINT2:0.795500,0.000000,-0.012428,0.605826 RARM_JOINT3:0.956540,0.000000,0.263989,0.123855 RLEG_JOINT2:0.999153,0.002039,0.000000,-0.041108 RLEG_JOINT4:0.993943,0.106647,0.000000,0.026518 WAIST:0.999669,0.000000,-0.024809,-0.006792 WAIST_JOINT0:0.999118,0.000000,-0.041635,0.005490 WAIST_JOINT1:0.997199,0.073353,0.000000,-0.014595 END:
KINECT_DATA_Sensor  AnkleLeft:0.074891,0.726232,-0.080980,-0.678543 AnkleRight:0.065562,0.694196,0.088849,0.711266 ElbowLeft:-0.014693,0.891056,-0.179942,-0.416442 ElbowRight:-0.008013,0.825715,0.175257,0.536111 FootLeft:0.000000,0.000000,0.000000,0.000000 FootRight:0.000000,0.000000,0.000000,0.000000 HandLeft:-0.007572,-0.581715,-0.057835,0.811299 HandRight:0.088576,-0.349385,-0.254110,0.897504 HandTipLeft:0.000000,0.000000,0.000000,0.000000 HandTipRight:0.000000,0.000000,0.000000,0.000000 Head:0.000000,0.000000,0.000000,0.000000 HipLeft:0.132075,-0.680133,0.697536,-0.182810 HipRight:-0.099482,0.674133,0.712254,-0.168349 KneeLeft:-0.016137,0.724083,-0.052940,-0.687489 KneeRight:-0.031610,0.689506,0.036025,0.722692 Neck:0.039997,-0.021753,0.994995,-0.088947 ShoulderLeft:0.001774,0.781618,-0.616918,0.092102 ShoulderRight:0.054527,0.787497,0.613309,-0.026964 SpineBase:0.024455,-0.018813,0.998300,-0.049451 SpineMid:0.031929,-0.019183,0.998089,-0.049308 SpineShoulder:0.039801,-0.020255,0.996659,-0.068382 ThumbLeft:0.000000,0.000000,0.000000,0.000000 ThumbRight:0.000000,0.000000,0.000000,0.000000 WristLeft:0.081133,-0.571197,-0.065117,0.814194 WristRight:0.023286,-0.370609,-0.154699,0.915519 END:
KINECT_DATA POSITION:9.589868,-2.305818,-2.294290 HEAD_JOINT1:0.978791,0.162285,-0.000000,0.125030 LARM_JOINT2:0.825883,0.000000,0.003517,-0.563831 LARM_JOINT3:0.976516,0.000000,-0.163399,-0.140420 LLEG_JOINT2:0.998169,0.029000,0.000000,0.053083 LLEG_JOINT4:0.995636,0.082254,0.000000,-0.044080 RARM_JOINT2:0.790847,0.000000,0.035083,0.611007 RARM_JOINT3:0.957965,0.000000,0.271421,0.092915 RLEG_JOINT2:0.999076,0.002645,0.000000,-0.042902 RLEG_JOINT4:0.993497,0.110263,0.000000,0.028375 WAIST:0.999721,0.000000,-0.023096,-0.004942 WAIST_JOINT0:0.999345,0.000000,-0.034896,0.009598 WAIST_JOINT1:0.997450,0.069925,0.000000,-0.014306 END:
KINECT_DATA_Sensor  AnkleLeft:0.073307,0.711743,-0.083296,-0.693620 AnkleRight:0.069722,0.693927,0.090536,0.710920 ElbowLeft:-0.017106,0.889062,-0.179839,-0.420636 ElbowRight:-0.042061,0.817717,0.145053,0.555454 FootLeft:0.000000,0.000000,0.000000,0.000000 FootRight:0.000000,0.000000,0.000000,0.000000 HandLeft:0.009276,-0.599693,-0.059912,0.797930 HandRight:0.112730,-0.426200,-0.270740,0.855772 HandTipLeft:0.000000,0.000000,0.000000,0.000000 HandTipRight:0.000000,0.000000,0.000000,0.000000 Head:0.000000,0.000000,0.000000,0.000000 HipLeft:0.133134,-0.679768,0.698520,-0.179610 HipRight:-0.102777,0.675680,0.710557,-0.167339 KneeLeft:-0.014820,0.722937,-0.054160,-0.688628 KneeRight:-0.031157,0.690753,0.036388,0.721503 Neck:0.033357,-0.019107,0.995643,-0.084957 ShoulderLeft:0.001063,0.781540,-0.617753,0.087034 ShoulderRight:0.045128,0.791094,0.609182,-0.032090 SpineBase:0.022640,-0.018077,0.998517,-0.046085 SpineMid:0.027682,-0.018310,0.998390,-0.045993 SpineShoulder:0.033159,-0.018049,0.997154,-0.065256 ThumbLeft:0.000000,0.000000,0.000000,0.000000 ThumbRight:0.000000,0.000000,0.000000,0.000000 WristLeft:0.085812,-0.590416,-0.065318,0.799862 WristRight:0.058436,-0.444837,-0.193752,0.872448 END:
KINECT_DATA POSITION:9.526844,-2.319815,-2.082801 HEAD_JOINT1:0.979531,0.162184,-0.000000,0.119225 LARM_JOINT2:0.823918,0.000000,0.004892,-0.566687 LARM_JOINT3:0.976822,0.000000,-0.161492,-0.140498 LLEG_JOINT2:0.998170,0.030518,0.000000,0.052201 LLEG_JOINT4:0.995811,0.081768,0.000000,-0.040915 RARM_JOINT2:0.791130,0.000000,0.098749,0.603624 RARM_JOINT3:0.955037,0.000000,0.289926,0.062022 RLEG_JOINT2:0.999035,0.003007,0.000000,-0.043823 RLEG_JOINT4:0.993342,0.111154,0.000000,0.030261 WAIST:0.999783,0.000000,-0.020230,-0.004920 WAIST_JOINT0:0.999609,0.000000,-0.025132,0.012257 WAIST_JOINT1:0.997717,0.066530,0.000000,-0.011614 END:
KINECT_DATA_Sensor  AnkleLeft:0.073554,0.717592,-0.084607,-0.687382 AnkleRight:0.071918,0.702432,0.090188,0.702342 ElbowLeft:-0.019365,0.884763,-0.178122,-0.430224 ElbowRight:-0.089530,0.810652,0.112764,0.567549 FootLeft:0.000000,0.000000,0.000000,0.000000 FootRight:0.000000,0.000000,0.000000,0.000000 HandLeft:-0.004184,-0.585214,-0.053318,0.809113 HandRight:0.099477,-0.282788,-0.344609,0.889595 HandTipLeft:0.000000,0.000000,0.000000,0.000000 HandTipRight:0.000000,0.000000,0.000000,0.000000 Head:0.000000,0.000000,0.000000,0.000000 HipLeft:0.132751,-0.680486,0.698682,-0.176520 HipRight:-0.106907,0.675847,0.709981,-0.166519 KneeLeft:-0.012968,0.721123,-0.054712,-0.690521 KneeRight:-0.031620,0.692615,0.037201,0.719653 Neck:0.023716,-0.016041,0.996267,-0.081444 ShoulderLeft:0.003240,0.781148,-0.619340,0.078837 ShoulderRight:0.034766,0.793335,0.606538,-0.039006 SpineBase:0.019895,-0.016222,0.998742,-0.043073 SpineMid:0.021525,-0.016293,0.998708,-0.043046 SpineShoulder:0.023538,-0.015166,0.997686,-0.061956 ThumbLeft:0.000000,0.000000,0.000000,0.000000 ThumbRight:0.000000,0.000000,0.000000,0.000000 WristLeft:0.088457,-0.574394,-0.069390,0.810821 WristRight:0.048704,-0.305273,-0.260379,0.914680 END:
KINECT_DATA POSITION:9.488635,-2.311859,-1.921272 HEAD_JOINT1:0.980302,0.162990,-0.000000,0.111546 LARM_JOINT2:0.820641,0.000000,0.005879,-0.571414 LARM_JOINT3:0.977174,0.000000,-0.161651,-0.137842 LLEG_JOINT2:0.998218,0.031761,0.000000,0.050514 LLEG_JOINT4:0.996121,0.080559,0.000000,-0.035405 RARM_JOINT2:0.792446,0.000000,0.144869,0.592488 RARM_JOINT3:0.956901,0.000000,0.289319,0.025199 RLEG_JOINT2:0.998964,0.002712,0.000000,-0.045434 RLEG_JOINT4:0.992979,0.113126,0.000000,0.034570 WAIST:0.999836,0.000000,-0.017452,-0.004902 WAIST_JOINT0:0.999806,0.000000,-0.013637,0.014218 WAIST_JOINT1:0.997917,0.063775,0.000000,-0.009676 END:
KINECT_DATA_Sensor  AnkleLeft:0.072040,0.723505,-0.086341,-0.681099 AnkleRight:0.074427,0.701510,0.089778,0.703053 ElbowLeft:-0.020444,0.879402,-0.173849,-0.442732 ElbowRight:-0.125926,0.798977,0.088152,0.581385 FootLeft:0.000000,0.000000,0.000000,0.000000 FootRight:0.000000,0.000000,0.000000,0.000000 HandLeft:-0.007585,-0.559732,-0.051384,0.827044 HandRight:0.050528,-0.220798,-0.387791,0.893484 HandTipLeft:0.000000,0.000000,0.000000,0.000000 HandTipRight:0.000000,0.000000,0.000000,0.000000 Head:0.000000,0.000000,0.000000,0.000000 HipLeft:0.132191,-0.681215,0.698775,-0.173737 HipRight:-0.110584,0.676061,0.709348,-0.165947 KneeLeft:-0.010735,0.719328,-0.054492,-0.692447 KneeRight:-0.033038,0.694414,0.038059,0.717808 Neck:0.012333,-0.013733,0.996722,-0.078767 ShoulderLeft:0.006231,0.779923,-0.621878,0.070350 ShoulderRight:0.023064,0.794218,0.605267,-0.048361 SpineBase:0.017215,-0.014542,0.998925,-0.040500 SpineMid:0.014548,-0.014434,0.998968,-0.040538 SpineShoulder:0.012172,-0.012895,0.998085,-0.059254 ThumbLeft:0.000000,0.000000,0.000000,0.000000 ThumbRight:0.000000,0.000000,0.000000,0.000000 WristLeft:0.088918,-0.549061,-0.075400,0.827611 WristRight:0.031604,-0.233423,-0.306201,0.922364 END:
KINECT_DATA POSITION:9.469523,-2.289861,-1.855683 HEAD_JOINT1:0.980973,0.163425,-0.000000,0.104803 LARM_JOINT2:0.818998,0.000000,0.006686,-0.573758 LARM_JOINT3:0.976991,0.000000,-0.163742,-0.136666 LLEG_JOINT2:0.998267,0.031787,0.000000,0.049515 LLEG_JOINT4:0.996209,0.080165,0.000000,-0.033787 RARM_JOINT2:0.794701,0.000000,0.146987,0.588935 RARM_JOINT3:0.946190,0.000000,0.323610,0.000298 RLEG_JOINT2:0.998955,0.003047,0.000000,-0.045597 RLEG_JOINT4:0.993060,0.112304,0.000000,0.034914 WAIST:0.999873,0.000000,-0.015063,-0.005179 WAIST_JOINT0:0.999855,0.000000,-0.007361,0.015354 WAIST_JOINT1:0.997994,0.062827,0.000000,-0.007841 END:
KINECT_DATA_Sensor  AnkleLeft:0.070042,0.708440,-0.087561,-0.696807 AnkleRight:0.076385,0.723438,0.087501,0.680549 ElbowLeft:-0.019557,0.878531,-0.172672,-0.444955 ElbowRight:-0.133045,0.778402,0.083117,0.607849 FootLeft:0.000000,0.000000,0.000000,0.000000 FootRight:0.000000,0.000000,0.000000,0.000000 HandLeft:-0.002117,-0.520687,-0.052181,0.852149 HandRight:0.057198,-0.235883,-0.446196,0.861392 HandTipLeft:0.000000,0.000000,0.000000,0.000000 HandTipRight:0.000000,0.000000,0.000000,0.000000 Head:0.000000,0.000000,0.000000,0.000000 HipLeft:0.130921,-0.681769,0.698828,-0.172310 HipRight:-0.113157,0.675828,0.709090,-0.166260 KneeLeft:-0.009666,0.717733,-0.053652,-0.694181 KneeRight:-0.033196,0.695995,0.038529,0.716243 Neck:0.006022,-0.012065,0.996850,-0.078153 ShoulderLeft:0.008782,0.778472,-0.624181,0.065588 ShoulderRight:0.017460,0.794247,0.604986,-0.053460 SpineBase:0.014926,-0.012886,0.999023,-0.039539 SpineMid:0.010291,-0.012702,0.999082,-0.039599 SpineShoulder:0.005872,-0.011273,0.998225,-0.058187 ThumbLeft:0.000000,0.000000,0.000000,0.000000 ThumbRight:0.000000,0.000000,0.000000,0.000000 WristLeft:0.084638,-0.512090,-0.081263,0.850880 WristRight:0.040098,-0.252085,-0.340914,0.904778 END:
KINECT_DATA POSITION:9.466898,-2.266979,-1.823950 HEAD_JOINT1:0.980991,0.163079,-0.000000,0.105176 LARM_JOINT2:0.819447,0.000000,0.006427,-0.573119 LARM_JOINT3:0.974928,0.000000,-0.175234,-0.137144 LLEG_JOINT2:0.998358,0.031868,0.000000,0.047589 LLEG_JOINT4:0.996048,0.083330,0.000000,-0.030730 RARM_JOINT2:0.796467,0.000000,0.149982,0.585787 RARM_JOINT3:0.938139,0.000000,0.345992,-0.013582 RLEG_JOINT2:0.998883,0.002381,0.000000,-0.047199 RLEG_JOINT4:0.992972,0.113139,0.000000,0.034734 WAIST:0.999873,0.000000,-0.015338,-0.004303 WAIST_JOINT0:0.999849,0.000000,-0.007224,0.015816 WAIST_JOINT1:0.998000,0.062739,0.000000,-0.007723 END:
KINECT_DATA_Sensor  AnkleLeft:0.072063,0.717678,-0.090341,-0.686720 AnkleRight:0.075742,0.721522,0.088457,0.682528 ElbowLeft:-0.020237,0.879606,-0.174111,-0.442232 ElbowRight:-0.138134,0.765831,0.080278,0.622878 FootLeft:0.000000,0.000000,0.000000,0.000000 FootRight:0.000000,0.000000,0.000000,0.000000 HandLeft:0.033696,-0.623917,-0.077872,0.776871 HandRight:0.050977,-0.218457,-0.469946,0.853715 HandTipLeft:0.000000,0.000000,0.000000,0.000000 HandTipRight:0.000000,0.000000,0.000000,0.000000 Head:0.000000,0.000000,0.000000,0.000000 HipLeft:0.130984,-0.681108,0.699417,-0.172486 HipRight:-0.113472,0.676516,0.708509,-0.165726 KneeLeft:-0.008864,0.717904,-0.052981,-0.694066 KneeRight:-0.034162,0.695742,0.038603,0.716440 Neck:0.005834,-0.011086,0.996848,-0.078346 ShoulderLeft:0.008550,0.777513,-0.625377,0.065602 ShoulderRight:0.016953,0.794088,0.605185,-0.053739 SpineBase:0.015184,-0.011584,0.999046,-0.039267 SpineMid:0.010357,-0.011394,0.999108,-0.039322 SpineShoulder:0.005707,-0.010224,0.998248,-0.058002 ThumbLeft:0.000000,0.000000,0.000000,0.000000 ThumbRight:0.000000,0.000000,0.000000,0.000000 WristLeft:0.094499,-0.615284,-0.073811,0.779132 WristRight:0.036286,-0.234186,-0.368324,0.898987 END:
KINECT_DATA POSITION:9.440748,-2.250014,-1.766968 HEAD_JOINT1:0.980960,0.162249,-0.000000,0.106733 LARM_JOINT2:0.820482,0.000000,0.005401,-0.571647 LARM_JOINT3:0.975068,0.000000,-0.172903,-0.139096 LLEG_JOINT2:0.998386,0.032699,0.000000,0.046438 LLEG_JOINT4:0.996408,0.080121,0.000000,-0.027404 RARM_JOINT2:0.798077,0.000000,0.160755,0.580717 RARM_JOINT3:0.933478,0.000000,0.357527,-0.028151 RLEG_JOINT2:0.998874,0.003077,0.000000,-0.047350 RLEG_JOINT4:0.992930,0.113269,0.000000,0.035512 WAIST:0.999891,0.000000,-0.014204,-0.004130 WAIST_JOINT0:0.999850,0.000000,-0.006861,0.015877 WAIST_JOINT1:0.997995,0.062873,0.000000,-0.007294 END:
KINECT_DATA_Sensor  AnkleLeft:0.070257,0.728133,-0.089145,-0.675973 AnkleRight:0.077588,0.728335,0.087792,0.675130 ElbowLeft:-0.021246,0.880300,-0.175926,-0.440079 ElbowRight:-0.147861,0.757104,0.074158,0.632006 FootLeft:0.000000,0.000000,0.000000,0.000000 FootRight:0.000000,0.000000,0.000000,0.000000 HandLeft:0.026038,-0.595791,-0.063710,0.800185 HandRight:0.034798,-0.174339,-0.495302,0.850336 HandTipLeft:0.000000,0.000000,0.000000,0.000000 HandTipRight:0.000000,0.000000,0.000000,0.000000 Head:0.000000,0.000000,0.000000,0.000000 HipLeft:0.129971,-0.681165,0.699677,-0.171970 HipRight:-0.114356,0.676629,0.708199,-0.165981 KneeLeft:-0.007517,0.717145,-0.052909,-0.694872 KneeRight:-0.033687,0.696519,0.039036,0.715683 Neck:0.005535,-0.010629,0.996829,-0.078665 ShoulderLeft:0.008036,0.776885,-0.626117,0.066042 ShoulderRight:0.016027,0.793481,0.605924,-0.054666 SpineBase:0.014081,-0.010543,0.999077,-0.039192 SpineMid:0.009680,-0.010370,0.999129,-0.039238 SpineShoulder:0.005416,-0.009737,0.998252,-0.058040 ThumbLeft:0.000000,0.000000,0.000000,0.000000 ThumbRight:0.000000,0.000000,0.000000,0.000000 WristLeft:0.092693,-0.587810,-0.079612,0.799718 WristRight:0.018541,-0.192250,-0.390112,0.900283 END:
KINECT_DATA POSITION:9.412354,-2.241524,-1.697958 HEAD_JOINT1:0.981676,0.160614,-0.000000,0.102549 LARM_JOINT2:0.819559,0.000000,0.006737,-0.572956 LARM_JOINT3:0.975623,0.000000,-0.167424,-0.141877 LLEG_JOINT2:0.998426,0.032462,0.000000,0.045727 LLEG_JOINT4:0.996278,0.081525,0.000000,-0.027990 RARM_JOINT2:0.799435,0.000000,0.167104,0.577044 RARM_JOINT3:0.921394,0.000000,0.385326,-0.050574 RLEG_JOINT2:0.998829,0.003361,0.000000,-0.048255 RLEG_JOINT4:0.992763,0.114574,0.000000,0.035967 WAIST:0.999926,0.000000,-0.011580,-0.003704 WAIST_JOINT0:0.999864,0.000000,-0.001087,0.016477 WAIST_JOINT1:0.997992,0.063007,0.000000,-0.006471 END:
KINECT_DATA_Sensor  AnkleLeft:0.069190,0.705167,-0.091308,-0.699725 AnkleRight:0.080551,0.744932,0.087253,0.656486 ElbowLeft:-0.019934,0.877969,-0.176230,-0.444653 ElbowRight:-0.154748,0.742333,0.067348,0.648428 FootLeft:0.000000,0.000000,0.000000,0.000000 FootRight:0.000000,0.000000,0.000000,0.000000 HandLeft:0.000935,-0.596223,-0.047200,0.801430 HandRight:0.008578,-0.120357,-0.526744,0.841416 HandTipLeft:0.000000,0.000000,0.000000,0.000000 HandTipRight:0.000000,0.000000,0.000000,0.000000 Head:0.000000,0.000000,0.000000,0.000000 HipLeft:0.128095,-0.681295,0.700193,-0.170761 HipRight:-0.116240,0.676777,0.707475,-0.167155 KneeLeft:-0.007330,0.715306,-0.052571,-0.696792 KneeRight:-0.033912,0.698336,0.039499,0.713874 Neck:-0.000154,-0.009276,0.996839,-0.078909 ShoulderLeft:0.010939,0.775829,-0.627738,0.062565 ShoulderRight:0.011561,0.792748,0.606468,-0.060106 SpineBase:0.011481,-0.009236,0.999125,-0.039135 SpineMid:0.005565,-0.009004,0.999176,-0.039189 SpineShoulder:-0.000266,-0.008483,0.998273,-0.058126 ThumbLeft:0.000000,0.000000,0.000000,0.000000 ThumbRight:0.000000,0.000000,0.000000,0.000000 WristLeft:0.093084,-0.586202,-0.079103,0.800903 WristRight:-0.003386,-0.136077,-0.428598,0.893183 END:
KINECT_DATA POSITION:9.394470,-2.243011,-1.622772 HEAD_JOINT1:0.981707,0.162316,-0.000000,0.099524 LARM_JOINT2:0.817774,0.000000,0.009525,-0.575460 LARM_JOINT3:0.975903,0.000000,-0.167719,-0.139581 LLEG_JOINT2:0.998463,0.032595,0.000000,0.044824 LLEG_JOINT4:0.996449,0.080577,0.000000,-0.024411 RARM_JOINT2:0.797208,0.000000,0.172814,0.578442 RARM_JOINT3:0.910241,0.000000,0.407228,-0.075011 RLEG_JOINT2:0.998809,0.004622,0.000000,-0.048577 RLEG_JOINT4:0.992834,0.113888,0.000000,0.036193 WAIST:0.999958,0.000000,-0.008549,-0.003316 WAIST_JOINT0:0.999855,-0.000000,0.002826,0.016807 WAIST_JOINT1:0.998007,0.062830,0.000000,-0.005903 END:
KINECT_DATA_Sensor  AnkleLeft:0.066747,0.703421,-0.092651,-0.701541 AnkleRight:0.076947,0.717110,0.091152,0.686676 ElbowLeft:-0.017287,0.874624,-0.175401,-0.451629 ElbowRight:-0.156699,0.729518,0.057007,0.663324 FootLeft:0.000000,0.000000,0.000000,0.000000 FootRight:0.000000,0.000000,0.000000,0.000000 HandLeft:0.003434,-0.577034,-0.045620,0.815438 HandRight:-0.004994,-0.100813,-0.549707,0.829237 HandTipLeft:0.000000,0.000000,0.000000,0.000000 HandTipRight:0.000000,0.000000,0.000000,0.000000 Head:0.000000,0.000000,0.000000,0.000000 HipLeft:0.126290,-0.681519,0.700727,-0.169011 HipRight:-0.118424,0.676811,0.706778,-0.168427 KneeLeft:-0.006701,0.713189,-0.052336,-0.698984 KneeRight:-0.033076,0.700494,0.040243,0.711755 Neck:-0.004027,-0.008407,0.996851,-0.078752 ShoulderLeft:0.012770,0.775406,-0.628482,0.059937 ShoulderRight:0.008360,0.792523,0.606465,-0.063545 SpineBase:0.008464,-0.008343,0.999177,-0.038775 SpineMid:0.002135,-0.008097,0.999211,-0.038827 SpineShoulder:-0.004137,-0.007690,0.998284,-0.057908 ThumbLeft:0.000000,0.000000,0.000000,0.000000 ThumbRight:0.000000,0.000000,0.000000,0.000000 WristLeft:0.091087,-0.568182,-0.079137,0.814008 WristRight:-0.011584,-0.112930,-0.460100,0.880579 END:
KINECT_DATA POSITION:9.372412,-2.237042,-1.599455 HEAD_JOINT1:0.981409,0.164832,-0.000000,0.098323 LARM_JOINT2:0.816745,0.000000,0.011433,-0.576885 LARM_JOINT3:0.975291,0.000000,-0.170082,-0.140994 LLEG_JOINT2:0.998461,0.033196,0.000000,0.044430 LLEG_JOINT4:0.996382,0.082244,0.000000,-0.021433 RARM_JOINT2:0.793862,0.000000,0.172478,0.583125 RARM_JOINT3:0.900363,0.000000,0.426440,-0.086577 RLEG_JOINT2:0.998812,0.005268,0.000000,-0.048443 RLEG_JOINT4:0.992678,0.114962,0.000000,0.037079 WAIST:0.999963,0.000000,-0.007846,-0.003384 WAIST_JOINT0:0.999847,-0.000000,0.004706,0.016861 WAIST_JOINT1:0.998003,0.062910,0.000000,-0.005616 END:
KINECT_DATA_Sensor  AnkleLeft:0.070570,0.731600,-0.093096,-0.671651 AnkleRight:0.078853,0.717837,0.091607,0.685639 ElbowLeft:-0.015673,0.872541,-0.174806,-0.455928 ElbowRight:-0.152672,0.722636,0.051599,0.672181 FootLeft:0.000000,0.000000,0.000000,0.000000 FootRight:0.000000,0.000000,0.000000,0.000000 HandLeft:-0.001520,-0.561279,-0.053557,0.825891 HandRight:-0.015382,-0.076221,-0.564914,0.821478 HandTipLeft:0.000000,0.000000,0.000000,0.000000 HandTipRight:0.000000,0.000000,0.000000,0.000000 Head:0.000000,0.000000,0.000000,0.000000 HipLeft:0.125634,-0.681632,0.700846,-0.168551 HipRight:-0.118805,0.676683,0.706800,-0.168579 KneeLeft:-0.005910,0.712717,-0.052444,-0.699464 KneeRight:-0.032596,0.700990,0.040627,0.711266 Neck:-0.005884,-0.008152,0.996831,-0.078917 ShoulderLeft:0.014277,0.775122,-0.628944,0.058403 ShoulderRight:0.007471,0.792149,0.606817,-0.064939 SpineBase:0.007779,-0.008034,0.999186,-0.038765 SpineMid:0.000873,-0.007766,0.999216,-0.038819 SpineShoulder:-0.005994,-0.007442,0.998273,-0.057962 ThumbLeft:0.000000,0.000000,0.000000,0.000000 ThumbRight:0.000000,0.000000,0.000000,0.000000 WristLeft:0.089192,-0.551347,-0.081440,0.825487 WristRight:-0.020769,-0.087021,-0.480210,0.872579 END:
KINECT_DATA POSITION:9.340765,-2.239779,-1.537526 HEAD_JOINT1:0.980995,0.167745,-0.000000,0.097525 LARM_JOINT2:0.816533,0.000000,0.010603,-0.577201 LARM_JOINT3:0.974098,0.000000,-0.176032,-0.141937 LLEG_JOINT2:0.998473,0.033367,0.000000,0.044030 LLEG_JOINT4:0.996420,0.081908,0.000000,-0.020938 RARM_JOINT2:0.790613,0.000000,0.171891,0.587695 RARM_JOINT3:0.893430,0.000000,0.437629,-0.101312 RLEG_JOINT2:0.998832,0.005368,0.000000,-0.048026 RLEG_JOINT4:0.992984,0.112503,0.000000,0.036403 WAIST:0.999970,0.000000,-0.006948,-0.003436 WAIST_JOINT0:0.999844,-0.000000,0.005569,0.016753 WAIST_JOINT1:0.997990,0.063146,0.000000,-0.005327 END:
KINECT_DATA_Sensor  AnkleLeft:0.071328,0.736989,-0.092328,-0.665759 AnkleRight:0.079585,0.739701,0.087904,0.662406 ElbowLeft:-0.015644,0.872710,-0.174504,-0.455720 ElbowRight:-0.148393,0.716219,0.046718,0.680314 FootLeft:0.000000,0.000000,0.000000,0.000000 FootRight:0.000000,0.000000,0.000000,0.000000 HandLeft:0.011674,-0.600880,-0.074441,0.795780 HandRight:-0.045282,-0.052742,-0.574220,0.815744 HandTipLeft:0.000000,0.000000,0.000000,0.000000 HandTipRight:0.000000,0.000000,0.000000,0.000000 Head:0.000000,0.000000,0.000000,0.000000 HipLeft:0.124706,-0.681748,0.701005,-0.168110 HipRight:-0.119245,0.676526,0.706781,-0.168981 KneeLeft:-0.005419,0.712097,-0.052256,-0.700112 KneeRight:-0.032305,0.701622,0.040409,0.710669 Neck:-0.006827,-0.007997,0.996804,-0.079188 ShoulderLeft:0.015889,0.774813,-0.629395,0.057217 ShoulderRight:0.007891,0.791908,0.607094,-0.065236 SpineBase:0.006901,-0.007640,0.999189,-0.038938 SpineMid:-0.000026,-0.007370,0.999212,-0.038990 SpineShoulder:-0.006931,-0.007243,0.998256,-0.058175 ThumbLeft:0.000000,0.000000,0.000000,0.000000 ThumbRight:0.000000,0.000000,0.000000,0.000000 WristLeft:0.092675,-0.589556,-0.078152,0.798579 WristRight:-0.037775,-0.054061,-0.494785,0.866509 END:
KINECT_DATA POSITION:9.255150,-2.263853,-1.372206 HEAD_JOINT1:0.980745,0.169884,-0.000000,0.096327 LARM_JOINT2:0.816157,0.000000,0.010334,-0.577738 LARM_JOINT3:0.974482,0.000000,-0.176051,-0.139248 LLEG_JOINT2:0.998429,0.033898,0.000000,0.044621 LLEG_JOINT4:0.996418,0.081732,0.000000,-0.021684 RARM_JOINT2:0.793661,0.000000,0.183317,0.580084 RARM_JOINT3:0.892411,0.000000,0.435931,-0.116474 RLEG_JOINT2:0.998863,0.007182,0.000000,-0.047124 RLEG_JOINT4:0.992878,0.113311,0.000000,0.036803 WAIST:0.999983,0.000000,-0.004538,-0.003667 WAIST_JOINT0:0.999844,-0.000000,0.006346,0.016482 WAIST_JOINT1:0.998034,0.062472,0.000000,-0.005063 END:
KINECT_DATA_Sensor  AnkleLeft:0.071424,0.730604,-0.092620,-0.672710 AnkleRight:0.080735,0.731236,0.090192,0.671299 ElbowLeft:-0.015851,0.871296,-0.173577,-0.458763 ElbowRight:-0.160161,0.713415,0.041818,0.680910 FootLeft:0.000000,0.000000,0.000000,0.000000 FootRight:0.000000,0.000000,0.000000,0.000000 HandLeft:0.018932,-0.596087,-0.068347,0.799782 HandRight:-0.045749,-0.070060,-0.583604,0.807716 HandTipLeft:0.000000,0.000000,0.000000,0.000000 HandTipRight:0.000000,0.000000,0.000000,0.000000 Head:0.000000,0.000000,0.000000,0.000000 HipLeft:0.123653,-0.682305,0.701154,-0.165991 HipRight:-0.121241,0.676136,0.706687,-0.169512 KneeLeft:-0.005167,0.710435,-0.052905,-0.701753 KneeRight:-0.030634,0.703363,0.041135,0.708978 Neck:-0.008075,-0.008162,0.996842,-0.078572 ShoulderLeft:0.016687,0.774805,-0.629548,0.055380 ShoulderRight:0.007120,0.793303,0.605282,-0.065216 SpineBase:0.004520,-0.007531,0.999241,-0.037962 SpineMid:-0.001843,-0.007289,0.999249,-0.038009 SpineShoulder:-0.008191,-0.007457,0.998287,-0.057455 ThumbLeft:0.000000,0.000000,0.000000,0.000000 ThumbRight:0.000000,0.000000,0.000000,0.000000 WristLeft:0.093162,-0.586498,-0.079443,0.800643 WristRight:-0.031945,-0.066611,-0.510277,0.856831 END:
KINECT_DATA POSITION:9.240097,-2.295223,-1.181757 HEAD_JOINT1:0.981010,0.169787,-0.000000,0.093763 LARM_JOINT2:0.815582,0.000000,0.011028,-0.578537 LARM_JOINT3:0.974103,0.000000,-0.178011,-0.139410 LLEG_JOINT2:0.998352,0.034745,0.000000,0.045682 LLEG_JOINT4:0.996854,0.077036,0.000000,-0.018640 RARM_JOINT2:0.801102,0.000000,0.202874,0.563096 RARM_JOINT3:0.899759,0.000000,0.417884,-0.125722 RLEG_JOINT2:0.998876,0.009188,0.000000,-0.046503 RLEG_JOINT4:0.992778,0.113617,0.000000,0.038514 WAIST:0.999989,0.000000,-0.000902,-0.004628 WAIST_JOINT0:0.999870,-0.000000,0.003951,0.015620 WAIST_JOINT1:0.998099,0.061531,0.000000,-0.003520 END:
KINECT_DATA_Sensor  AnkleLeft:0.063375,0.703295,-0.094486,-0.701735 AnkleRight:0.083508,0.736789,0.090571,0.664805 ElbowLeft:-0.015788,0.868414,-0.173080,-0.464383 ElbowRight:-0.182632,0.715250,0.037037,0.673565 FootLeft:0.000000,0.000000,0.000000,0.000000 FootRight:0.000000,0.000000,0.000000,0.000000 HandLeft:0.020871,-0.597673,-0.072585,0.798175 HandRight:-0.058805,-0.065453,-0.585746,0.805704 HandTipLeft:0.000000,0.000000,0.000000,0.000000 HandTipRight:0.000000,0.000000,0.000000,0.000000 Head:0.000000,0.000000,0.000000,0.000000 HipLeft:0.122050,-0.683366,0.700998,-0.163452 HipRight:-0.124518,0.675082,0.706893,-0.170475 KneeLeft:-0.004433,0.707950,-0.053603,-0.704211 KneeRight:-0.029595,0.705879,0.042688,0.706426 Neck:-0.006381,-0.008256,0.996923,-0.077685 ShoulderLeft:0.018434,0.774973,-0.629488,0.053127 ShoulderRight:0.011173,0.795648,0.602656,-0.060213 SpineBase:0.000986,-0.006914,0.999300,-0.036746 SpineMid:-0.002763,-0.006776,0.999297,-0.036771 SpineShoulder:-0.006483,-0.007405,0.998359,-0.056413 ThumbLeft:0.000000,0.000000,0.000000,0.000000 ThumbRight:0.000000,0.000000,0.000000,0.000000 WristLeft:0.094933,-0.587648,-0.080193,0.799517 WristRight:-0.040110,-0.058465,-0.515152,0.854161 END:
KINECT_DATA POSITION:9.175071,-2.322576,-1.012754 HEAD_JOINT1:0.981264,0.170268,-0.000000,0.090164 LARM_JOINT2:0.814938,0.000000,0.012740,-0.579408 LARM_JOINT3:0.974517,0.000000,-0.177236,-0.137493 LLEG_JOINT2:0.998267,0.036602,0.000000,0.046085 LLEG_JOINT4:0.996637,0.079752,0.000000,-0.018812 RARM_JOINT2:0.805856,0.000000,0.243584,0.539688 RARM_JOINT3:0.919773,0.000000,0.368559,-0.134840 RLEG_JOINT2:0.998919,0.008466,0.000000,-0.045718 RLEG_JOINT4:0.992354,0.116837,0.000000,0.039784 WAIST:0.999987,0.000000,-0.000789,-0.005081 WAIST_JOINT0:0.999783,-0.000000,0.011058,0.017670 WAIST_JOINT1:0.998167,0.060455,0.000000,-0.002961 END:
KINECT_DATA_Sensor  AnkleLeft:-0.066240,-0.698936,0.097889,0.705350 AnkleRight:0.086142,0.734378,0.091311,0.667031 ElbowLeft:-0.015387,0.867304,-0.172362,-0.466732 ElbowRight:-0.216212,0.710373,0.017043,0.669576 FootLeft:0.000000,0.000000,0.000000,0.000000 FootRight:0.000000,0.000000,0.000000,0.000000 HandLeft:0.021677,-0.575826,-0.065549,0.814652 HandRight:-0.072802,-0.064480,-0.558101,0.824054 HandTipLeft:0.000000,0.000000,0.000000,0.000000 HandTipRight:0.000000,0.000000,0.000000,0.000000 Head:0.000000,0.000000,0.000000,0.000000 HipLeft:0.122566,-0.683927,0.700603,-0.162407 HipRight:-0.125383,0.675028,0.707029,-0.169489 KneeLeft:-0.003072,0.707923,-0.054881,-0.704147 KneeRight:-0.029879,0.705925,0.041937,0.706413 Neck:-0.013154,-0.007538,0.996940,-0.076690 ShoulderLeft:0.019316,0.774874,-0.629883,0.049443 ShoulderRight:0.003235,0.795891,0.601704,-0.067081 SpineBase:0.000904,-0.006862,0.999349,-0.035394 SpineMid:-0.006181,-0.006611,0.999331,-0.035442 SpineShoulder:-0.013283,-0.006978,0.998353,-0.055375 ThumbLeft:0.000000,0.000000,0.000000,0.000000 ThumbRight:0.000000,0.000000,0.000000,0.000000 WristLeft:0.093007,-0.567228,-0.083083,0.814064 WristRight:-0.054211,-0.056245,-0.518226,0.851669 END:
KINECT_DATA POSITION:9.119073,-2.345682,-0.867152 HEAD_JOINT1:0.981799,0.171752,-0.000000,0.081072 LARM_JOINT2:0.813298,0.000000,0.013352,-0.581694 LARM_JOINT3:0.974797,0.000000,-0.175030,-0.138330 LLEG_JOINT2:0.998294,0.036568,0.000000,0.045527 LLEG_JOINT4:0.996708,0.079319,0.000000,-0.016783 RARM_JOINT2:0.816012,0.000000,0.283625,0.503667 RARM_JOINT3:0.943146,0.000000,0.303325,-0.135900 RLEG_JOINT2:0.998939,0.009165,0.000000,-0.045140 RLEG_JOINT4:0.992283,0.116649,0.000000,0.042048 WAIST:0.999978,0.000000,0.003636,-0.005463 WAIST_JOINT0:0.999726,-0.000000,0.014480,0.018372 WAIST_JOINT1:0.998224,0.059562,0.000000,-0.000969 END:
KINECT_DATA_Sensor  AnkleLeft:0.070043,0.727867,-0.094933,-0.675493 AnkleRight:0.086816,0.730197,0.091144,0.671542 ElbowLeft:-0.014562,0.864728,-0.171202,-0.471935 ElbowRight:-0.257988,0.707276,0.000453,0.658181 FootLeft:0.000000,0.000000,0.000000,0.000000 FootRight:0.000000,0.000000,0.000000,0.000000 HandLeft:0.013034,-0.572491,-0.062552,0.817417 HandRight:-0.110281,-0.057036,-0.524027,0.842603 HandTipLeft:0.000000,0.000000,0.000000,0.000000 HandTipRight:0.000000,0.000000,0.000000,0.000000 Head:0.000000,0.000000,0.000000,0.000000 HipLeft:0.120400,-0.684656,0.700785,-0.160158 HipRight:-0.129229,0.674204,0.706591,-0.171688 KneeLeft:0.002176,-0.704820,0.054219,0.707308 KneeRight:-0.029418,0.709001,0.042178,0.703330 Neck:-0.016859,-0.006128,0.996977,-0.075598 ShoulderLeft:0.022214,0.774361,-0.630736,0.045199 ShoulderRight:0.001381,0.797312,0.599656,-0.068579 SpineBase:-0.003453,-0.005842,0.999372,-0.034769 SpineMid:-0.010208,-0.005607,0.999326,-0.034808 SpineShoulder:-0.016979,-0.005726,0.998353,-0.054507 ThumbLeft:0.000000,0.000000,0.000000,0.000000 ThumbRight:0.000000,0.000000,0.000000,0.000000 WristLeft:0.093157,-0.562906,-0.083081,0.817041 WristRight:-0.082208,-0.041634,-0.509478,0.855535 END:
KINECT_DATA POSITION:9.073784,-2.360723,-0.810790 HEAD_JOINT1:0.982027,0.173086,-0.000000,0.075260 LARM_JOINT2:0.812567,0.000000,0.014697,-0.582682 LARM_JOINT3:0.974718,0.000000,-0.175370,-0.138458 LLEG_JOINT2:0.998281,0.037220,0.000000,0.045271 LLEG_JOINT4:0.996523,0.081402,0.000000,-0.017775 RARM_JOINT2:0.821365,0.000000,0.292595,0.489640 RARM_JOINT3:0.949747,0.000000,0.281618,-0.136646 RLEG_JOINT2:0.998892,0.009899,0.000000,-0.046007 RLEG_JOINT4:0.992219,0.116449,0.000000,0.044059 WAIST:0.999967,0.000000,0.006061,-0.005474 WAIST_JOINT0:0.999680,-0.000000,0.016882,0.018821 WAIST_JOINT1:0.998211,0.059785,-0.000000,0.000079 END:
KINECT_DATA_Sensor  AnkleLeft:0.070034,0.703784,-0.097962,-0.700134 AnkleRight:0.088542,0.737438,0.090121,0.663494 ElbowLeft:-0.012865,0.863524,-0.171693,-0.474007 ElbowRight:-0.271861,0.703319,-0.002330,0.656832 FootLeft:0.000000,0.000000,0.000000,0.000000 FootRight:0.000000,0.000000,0.000000,0.000000 HandLeft:0.020667,-0.625660,-0.065710,0.777048 HandRight:-0.130426,-0.054142,-0.513015,0.846684 HandTipLeft:0.000000,0.000000,0.000000,0.000000 HandTipRight:0.000000,0.000000,0.000000,0.000000 Head:0.000000,0.000000,0.000000,0.000000 HipLeft:0.118355,-0.684859,0.701147,-0.159227 HipRight:-0.130561,0.673861,0.706349,-0.173018 KneeLeft:0.001383,-0.703107,0.054500,0.708991 KneeRight:-0.029619,0.710660,0.043254,0.701580 Neck:-0.019479,-0.005284,0.996924,-0.075731 ShoulderLeft:0.024742,0.774192,-0.631016,0.042832 ShoulderRight:0.000599,0.798410,0.598003,-0.070240 SpineBase:-0.005839,-0.004967,0.999350,-0.035216 SpineMid:-0.012693,-0.004725,0.999287,-0.035249 SpineShoulder:-0.019578,-0.004801,0.998297,-0.054748 ThumbLeft:0.000000,0.000000,0.000000,0.000000 ThumbRight:0.000000,0.000000,0.000000,0.000000 WristLeft:0.097763,-0.615300,-0.074240,0.778676 WristRight:-0.097517,-0.035618,-0.504878,0.856925 END:
KINECT_DATA POSITION:9.024792,-2.366473,-0.817716 HEAD_JOINT1:0.982410,0.172914,-0.000000,0.070501 LARM_JOINT2:0.812596,0.000000,0.014030,-0.582659 LARM_JOINT3:0.974583,0.000000,-0.176234,-0.138309 LLEG_JOINT2:0.998257,0.037435,0.000000,0.045620 LLEG_JOINT4:0.996700,0.079901,0.000000,-0.014308 RARM_JOINT2:0.825504,0.000000,0.293537,0.482058 RARM_JOINT3:0.949431,0.000000,0.282996,-0.135996 RLEG_JOINT2:0.998908,0.010630,0.000000,-0.045493 RLEG_JOINT4:0.992578,0.113332,0.000000,0.044110 WAIST:0.999952,0.000000,0.007860,-0.005801 WAIST_JOINT0:0.999647,-0.000000,0.018275,0.019267 WAIST_JOINT1:0.998186,0.060186,-0.000000,0.001702 END:
KINECT_DATA_Sensor  AnkleLeft:-0.065770,-0.694882,0.100214,0.709063 AnkleRight:0.084821,0.724292,0.090395,0.678259 ElbowLeft:-0.013057,0.863243,-0.172830,-0.474100 ElbowRight:-0.278052,0.702557,-0.000316,0.655058 FootLeft:0.000000,0.000000,0.000000,0.000000 FootRight:0.000000,0.000000,0.000000,0.000000 HandLeft:0.021096,-0.590364,-0.069375,0.803874 HandRight:-0.118614,-0.056889,-0.524725,0.841045 HandTipLeft:0.000000,0.000000,0.000000,0.000000 HandTipRight:0.000000,0.000000,0.000000,0.000000 Head:0.000000,0.000000,0.000000,0.000000 HipLeft:0.116575,-0.685289,0.701163,-0.158621 HipRight:-0.131430,0.673555,0.706306,-0.173727 KneeLeft:0.001138,-0.701846,0.054679,0.710226 KneeRight:-0.029043,0.711890,0.043597,0.700335 Neck:-0.021042,-0.004096,0.996866,-0.076147 ShoulderLeft:0.026808,0.773804,-0.631508,0.041298 ShoulderRight:0.000691,0.799224,0.596811,-0.071108 SpineBase:-0.007575,-0.003987,0.999330,-0.035594 SpineMid:-0.014329,-0.003747,0.999256,-0.035621 SpineShoulder:-0.021120,-0.003626,0.998249,-0.055137 ThumbLeft:0.000000,0.000000,0.000000,0.000000 ThumbRight:0.000000,0.000000,0.000000,0.000000 WristLeft:0.095127,-0.580604,-0.077070,0.804929 WristRight:-0.096055,-0.045681,-0.506377,0.855727 END:
KINECT_DATA POSITION:8.943808,-2.367734,-0.883770 HEAD_JOINT1:0.982589,0.173054,-0.000000,0.067606 LARM_JOINT2:0.812862,0.000000,0.013362,-0.582303 LARM_JOINT3:0.974411,0.000000,-0.176641,-0.138999 LLEG_JOINT2:0.998233,0.036726,0.000000,0.046710 LLEG_JOINT4:0.996824,0.077935,0.000000,-0.016402 RARM_JOINT2:0.827664,0.000000,0.293536,0.478339 RARM_JOINT3:0.949544,0.000000,0.283850,-0.133396 RLEG_JOINT2:0.998880,0.010979,0.000000,-0.046021 RLEG_JOINT4:0.992243,0.114735,0.000000,0.047850 WAIST:0.999935,0.000000,0.009769,-0.005934 WAIST_JOINT0:0.999605,-0.000000,0.019901,0.019855 WAIST_JOINT1:0.998191,0.060048,-0.000000,0.003086 END:
KINECT_DATA_Sensor  AnkleLeft:-0.064898,-0.694026,0.097395,0.710374 AnkleRight:0.087632,0.722110,0.089946,0.680285 ElbowLeft:-0.013927,0.862666,-0.174033,-0.474685 ElbowRight:-0.280832,0.701880,-0.000206,0.654597 FootLeft:0.000000,0.000000,0.000000,0.000000 FootRight:0.000000,0.000000,0.000000,0.000000 HandLeft:0.024332,-0.601762,-0.071865,0.795063 HandRight:-0.108126,-0.053988,-0.526275,0.841682 HandTipLeft:0.000000,0.000000,0.000000,0.000000 HandTipRight:0.000000,0.000000,0.000000,0.000000 Head:0.000000,0.000000,0.000000,0.000000 HipLeft:0.115003,-0.685588,0.701322,-0.157767 HipRight:-0.132810,0.673315,0.706102,-0.174438 KneeLeft:0.002200,-0.700487,0.054878,0.711549 KneeRight:-0.029347,0.713167,0.044262,0.698980 Neck:-0.022884,-0.002972,0.996842,-0.075982 ShoulderLeft:0.027083,0.773316,-0.632148,0.040478 ShoulderRight:-0.001435,0.800068,0.595443,-0.073049 SpineBase:-0.009431,-0.002884,0.999317,-0.035622 SpineMid:-0.016158,-0.002644,0.999231,-0.035640 SpineShoulder:-0.022941,-0.002492,0.998219,-0.055008 ThumbLeft:0.000000,0.000000,0.000000,0.000000 ThumbRight:0.000000,0.000000,0.000000,0.000000 WristLeft:0.097664,-0.591615,-0.074830,0.796777 WristRight:-0.095815,-0.049151,-0.507535,0.854876 END:
KINECT_DATA POSITION:8.878342,-2.363039,-0.975776 HEAD_JOINT1:0.982688,0.172877,-0.000000,0.066615 LARM_JOINT2:0.813162,0.000000,0.013744,-0.581875 LARM_JOINT3:0.974853,0.000000,-0.174191,-0.138992 LLEG_JOINT2:0.998266,0.035108,0.000000,0.047252 LLEG_JOINT4:0.996719,0.079338,0.000000,-0.016010 RARM_JOINT2:0.829538,0.000000,0.292802,0.475536 RARM_JOINT3:0.950161,0.000000,0.280874,-0.135292 RLEG_JOINT2:0.998909,0.011820,0.000000,-0.045170 RLEG_JOINT4:0.992315,0.114149,0.000000,0.047757 WAIST:0.999914,0.000000,0.011633,-0.006018 WAIST_JOINT0:0.999563,-0.000000,0.021340,0.020436 WAIST_JOINT1:0.998181,0.060120,-0.000000,0.004491 END:
KINECT_DATA_Sensor  AnkleLeft:0.067978,0.718941,-0.095248,-0.685150 AnkleRight:0.086722,0.712832,0.091166,0.689956 ElbowLeft:-0.014132,0.861455,-0.175841,-0.476209 ElbowRight:-0.282448,0.701595,0.000274,0.654208 FootLeft:0.000000,0.000000,0.000000,0.000000 FootRight:0.000000,0.000000,0.000000,0.000000 HandLeft:0.018539,-0.584254,-0.058650,0.809236 HandRight:-0.115702,-0.059807,-0.522863,0.842408 HandTipLeft:0.000000,0.000000,0.000000,0.000000 HandTipRight:0.000000,0.000000,0.000000,0.000000 Head:0.000000,0.000000,0.000000,0.000000 HipLeft:0.113211,-0.685876,0.701531,-0.156880 HipRight:-0.133954,0.673126,0.705896,-0.175122 KneeLeft:0.003571,-0.699151,0.054090,0.712916 KneeRight:-0.028286,0.714467,0.044280,0.697693 Neck:-0.024532,-0.001744,0.996799,-0.076067 ShoulderLeft:0.027390,0.772633,-0.633002,0.039961 ShoulderRight:-0.003295,0.800623,0.594449,-0.074988 SpineBase:-0.011244,-0.001778,0.999294,-0.035793 SpineMid:-0.017873,-0.001540,0.999198,-0.035804 SpineShoulder:-0.024571,-0.001306,0.998179,-0.055081 ThumbLeft:0.000000,0.000000,0.000000,0.000000 ThumbRight:0.000000,0.000000,0.000000,0.000000 WristLeft:0.097619,-0.574780,-0.076422,0.808863 WristRight:-0.096042,-0.049842,-0.509068,0.853898 END:
KINECT_DATA POSITION:8.825714,-2.330085,-1.100051 HEAD_JOINT1:0.982364,0.174201,-0.000000,0.067928 LARM_JOINT2:0.813240,0.000000,0.013713,-0.581766 LARM_JOINT3:0.975377,0.000000,-0.170826,-0.139490 LLEG_JOINT2:0.998311,0.034440,0.000000,0.046785 LLEG_JOINT4:0.996625,0.080674,0.000000,-0.015175 RARM_JOINT2:0.818864,0.000000,0.205999,0.535748 RARM_JOINT3:0.881838,0.000000,0.436012,-0.179597 RLEG_JOINT2:0.998876,0.011227,0.000000,-0.046056 RLEG_JOINT4:0.992480,0.112965,0.000000,0.047131 WAIST:0.999925,0.000000,0.011264,-0.004855 WAIST_JOINT0:0.999258,-0.000000,0.031414,0.022275 WAIST_JOINT1:0.998145,0.060776,-0.000000,0.003556 END:
KINECT_DATA_Sensor  AnkleLeft:-0.063040,-0.687903,0.099733,0.716148 AnkleRight:0.087589,0.730799,0.087849,0.671226 ElbowLeft:-0.013298,0.862960,-0.176475,-0.473265 ElbowRight:-0.208445,0.675797,0.032478,0.706254 FootLeft:0.000000,0.000000,0.000000,0.000000 FootRight:0.000000,0.000000,0.000000,0.000000 HandLeft:0.013806,-0.585218,-0.050476,0.809185 HandRight:-0.102652,-0.003960,-0.614676,0.782062 HandTipLeft:0.000000,0.000000,0.000000,0.000000 HandTipRight:0.000000,0.000000,0.000000,0.000000 Head:0.000000,0.000000,0.000000,0.000000 HipLeft:0.112907,-0.684907,0.702325,-0.157779 HipRight:-0.133168,0.673735,0.705283,-0.175849 KneeLeft:0.004566,-0.699354,0.054109,0.712710 KneeRight:-0.028497,0.714246,0.043663,0.697950 Neck:-0.033466,-0.000734,0.996498,-0.076630 ShoulderLeft:0.027435,0.771978,-0.633879,0.038652 ShoulderRight:-0.015166,0.796407,0.598182,-0.087660 SpineBase:-0.010939,-0.001531,0.999260,-0.036855 SpineMid:-0.022161,-0.001117,0.999074,-0.036870 SpineShoulder:-0.033525,-0.000556,0.997881,-0.055758 ThumbLeft:0.000000,0.000000,0.000000,0.000000 ThumbRight:0.000000,0.000000,0.000000,0.000000 WristLeft:0.096302,-0.576144,-0.074791,0.808202 WristRight:-0.109851,-0.016596,-0.567879,0.815580 END:
KINECT_DATA POSITION:8.784609,-2.299295,-1.188123 HEAD_JOINT1:0.980326,0.183844,-0.000000,0.071844 LARM_JOINT2:0.812523,0.000000,0.015064,-0.582734 LARM_JOINT3:0.973755,0.000000,-0.174358,-0.146291 LLEG_JOINT2:0.998316,0.034506,0.000000,0.046630 LLEG_JOINT4:0.996997,0.075284,0.000000,-0.018163 RARM_JOINT2:0.803163,0.000000,0.137397,0.579700 RARM_JOINT3:0.836473,0.000000,0.526909,-0.150597 RLEG_JOINT2:0.998897,0.011020,0.000000,-0.045651 RLEG_JOINT4:0.992315,0.115016,0.000000,0.045638 WAIST:0.999915,0.000000,0.012352,-0.004261 WAIST_JOINT0:0.999234,-0.000000,0.032641,0.021592 WAIST_JOINT1:0.998013,0.062929,-0.000000,0.002988 END:
KINECT_DATA_Sensor  AnkleLeft:-0.061107,-0.687335,0.094161,0.717615 AnkleRight:0.088036,0.727974,0.090019,0.673944 ElbowLeft:-0.009580,0.862805,-0.176947,-0.473462 ElbowRight:-0.144839,0.675562,0.060183,0.720427 FootLeft:0.000000,0.000000,0.000000,0.000000 FootRight:0.000000,0.000000,0.000000,0.000000 HandLeft:-0.004459,-0.538188,-0.068749,0.840004 HandRight:0.083838,-0.181927,-0.591533,0.781001 HandTipLeft:0.000000,0.000000,0.000000,0.000000 HandTipRight:0.000000,0.000000,0.000000,0.000000 Head:0.000000,0.000000,0.000000,0.000000 HipLeft:0.111296,-0.684513,0.702929,-0.157943 HipRight:-0.132602,0.673722,0.704955,-0.177635 KneeLeft:0.004767,-0.698550,0.054473,0.713469 KneeRight:-0.027976,0.715064,0.042786,0.697188 Neck:-0.034417,-0.000960,0.996216,-0.079802 ShoulderLeft:0.030220,0.771342,-0.634529,0.038615 ShoulderRight:-0.013619,0.793950,0.601248,-0.089216 SpineBase:-0.012070,-0.001890,0.999186,-0.038449 SpineMid:-0.023215,-0.001460,0.998989,-0.038468 SpineShoulder:-0.034464,-0.000521,0.997746,-0.057583 ThumbLeft:0.000000,0.000000,0.000000,0.000000 ThumbRight:0.000000,0.000000,0.000000,0.000000 WristLeft:0.088694,-0.526317,-0.080698,0.841791 WristRight:0.055719,-0.200640,-0.604887,0.768603 END:
KINECT_DATA POSITION:8.795096,-2.301723,-1.308572 HEAD_JOINT1:0.979505,0.188404,-0.000000,0.071235 LARM_JOINT2:0.811058,0.000000,0.015221,-0.584768 LARM_JOINT3:0.972720,0.000000,-0.180794,-0.145361 LLEG_JOINT2:0.998416,0.033355,0.000000,0.045302 LLEG_JOINT4:0.996936,0.077023,0.000000,-0.013659 RARM_JOINT2:0.809653,0.000000,0.284735,0.513213 RARM_JOINT3:0.933225,0.000000,0.328993,-0.144411 RLEG_JOINT2:0.998839,0.011806,0.000000,-0.046714 RLEG_JOINT4:0.992832,0.110374,0.000000,0.045842 WAIST:0.999896,0.000000,0.013970,-0.003571 WAIST_JOINT0:0.998836,-0.000000,0.039782,0.027289 WAIST_JOINT1:0.997885,0.064867,-0.000000,0.004288 END:
KINECT_DATA_Sensor  AnkleLeft:-0.058652,-0.683749,0.097419,0.720802 AnkleRight:0.085768,0.735577,0.086856,0.666353 ElbowLeft:-0.007658,0.860904,-0.177432,-0.476764 ElbowRight:-0.240167,0.704885,-0.014453,0.667269 FootLeft:0.000000,0.000000,0.000000,0.000000 FootRight:0.000000,0.000000,0.000000,0.000000 HandLeft:-0.026374,0.715379,0.079044,-0.693750 HandRight:-0.054855,-0.038122,-0.541682,0.837925 HandTipLeft:0.000000,0.000000,0.000000,0.000000 HandTipRight:0.000000,0.000000,0.000000,0.000000 Head:0.000000,0.000000,0.000000,0.000000 HipLeft:0.108726,-0.683991,0.703814,-0.158056 HipRight:-0.132388,0.673737,0.704567,-0.179272 KneeLeft:0.005066,-0.697366,0.053218,0.714719 KneeRight:-0.027764,0.716190,0.043563,0.695991 Neck:-0.042094,0.001942,0.995724,-0.082209 ShoulderLeft:0.033096,0.769431,-0.636811,0.036767 ShoulderRight:-0.020738,0.798205,0.593911,-0.098535 SpineBase:-0.013687,-0.000942,0.999096,-0.040228 SpineMid:-0.027865,-0.000371,0.998801,-0.040237 SpineShoulder:-0.042178,0.001583,0.997346,-0.059330 ThumbLeft:0.000000,0.000000,0.000000,0.000000 ThumbRight:0.000000,0.000000,0.000000,0.000000 WristLeft:-0.104887,0.709514,0.057467,-0.694468 WristRight:-0.062646,-0.044786,-0.526116,0.846919 END:
KINECT_DATA POSITION:8.913460,-2.306277,-1.476192 HEAD_JOINT1:0.980105,0.187570,-0.000000,0.064902 LARM_JOINT2:0.809101,0.000000,0.017945,-0.587396 LARM_JOINT3:0.974564,0.000000,-0.172556,-0.143004 LLEG_JOINT2:0.998727,0.029816,0.000000,0.040684 LLEG_JOINT4:0.996843,0.078668,0.000000,-0.010750 RARM_JOINT2:0.819851,0.000000,0.351059,0.452329 RARM_JOINT3:0.964020,0.000000,0.240108,-0.114073 RLEG_JOINT2:0.998630,0.012462,0.000000,-0.050828 RLEG_JOINT4:0.992886,0.109398,0.000000,0.047011 WAIST:0.999804,0.000000,0.019808,-0.000199 WAIST_JOINT0:0.998397,-0.000000,0.046364,0.032449 WAIST_JOINT1:0.997680,0.067655,-0.000000,0.007515 END:
KINECT_DATA_Sensor  AnkleLeft:-0.056774,-0.680252,0.096861,0.724328 AnkleRight:0.082781,0.720368,0.089182,0.682835 ElbowLeft:-0.004114,0.856181,-0.182593,-0.483319 ElbowRight:-0.299945,0.732567,-0.035440,0.610019 FootLeft:0.000000,0.000000,0.000000,0.000000 FootRight:0.000000,0.000000,0.000000,0.000000 HandLeft:0.001497,-0.556917,-0.035409,0.829812 HandRight:0.059083,-0.226530,-0.539703,0.808650 HandTipLeft:0.000000,0.000000,0.000000,0.000000 HandTipRight:0.000000,0.000000,0.000000,0.000000 Head:0.000000,0.000000,0.000000,0.000000 HipLeft:0.102216,-0.681962,0.707208,-0.156004 HipRight:-0.134430,0.674922,0.702160,-0.182702 KneeLeft:0.006490,-0.693040,0.049862,0.719143 KneeRight:-0.028133,0.720247,0.044357,0.691726 Neck:-0.049992,0.009044,0.995094,-0.084892 ShoulderLeft:0.042429,0.764022,-0.643027,0.031407 ShoulderRight:-0.021688,0.801346,0.588553,-0.104788 SpineBase:-0.019607,0.003038,0.998897,-0.042552 SpineMid:-0.034779,0.003684,0.998484,-0.042501 SpineShoulder:-0.050042,0.007704,0.996791,-0.062000 ThumbLeft:0.000000,0.000000,0.000000,0.000000 ThumbRight:0.000000,0.000000,0.000000,0.000000 WristLeft:0.092360,-0.549022,-0.073929,0.827393 WristRight:0.048318,-0.238883,-0.489971,0.836976 END:
KINECT_DATA POSITION:8.955613,-2.300076,-1.470137 HEAD_JOINT1:0.979857,0.188783,-0.000000,0.065125 LARM_JOINT2:0.809841,0.000000,0.019139,-0.586337 LARM_JOINT3:0.970563,0.000000,-0.192853,-0.144277 LLEG_JOINT2:0.998793,0.029216,0.000000,0.039481 LLEG_JOINT4:0.996628,0.081360,0.000000,-0.010687 RARM_JOINT2:0.822867,0.000000,0.356621,0.442394 RARM_JOINT3:0.966474,0.000000,0.228186,-0.117721 RLEG_JOINT2:0.998582,0.012726,0.000000,-0.051692 RLEG_JOINT4:0.992910,0.108736,0.000000,0.048021 WAIST:0.999803,-0.000000,0.019826,0.000249 WAIST_JOINT0:0.998692,-0.000000,0.040624,0.031035 WAIST_JOINT1:0.997679,0.067629,-0.000000,0.008000 END:
KINECT_DATA_Sensor  AnkleLeft:0.065978,0.732857,-0.093089,-0.670747 AnkleRight:0.084962,0.736195,0.086511,0.665819 ElbowLeft:-0.004343,0.855636,-0.184948,-0.483386 ElbowRight:-0.309213,0.733833,-0.034984,0.603864 FootLeft:0.000000,0.000000,0.000000,0.000000 FootRight:0.000000,0.000000,0.000000,0.000000 HandLeft:0.048631,-0.603068,-0.094014,0.790636 HandRight:-0.082262,-0.063544,-0.539981,0.835234 HandTipLeft:0.000000,0.000000,0.000000,0.000000 HandTipRight:0.000000,0.000000,0.000000,0.000000 Head:0.000000,0.000000,0.000000,0.000000 HipLeft:0.101715,-0.681654,0.707530,-0.156216 HipRight:-0.134672,0.675364,0.701782,-0.182344 KneeLeft:0.006407,-0.693030,0.048895,0.719221 KneeRight:-0.028259,0.720224,0.044829,0.691715 Neck:-0.044783,0.009132,0.995381,-0.084431 ShoulderLeft:0.044029,0.762909,-0.644227,0.031679 ShoulderRight:-0.013037,0.801862,0.589426,-0.097082 SpineBase:-0.019603,0.004468,0.998890,-0.042595 SpineMid:-0.032132,0.005002,0.998566,-0.042535 SpineShoulder:-0.044753,0.008429,0.997027,-0.062150 ThumbLeft:0.000000,0.000000,0.000000,0.000000 ThumbRight:0.000000,0.000000,0.000000,0.000000 WristLeft:0.097775,-0.594943,-0.069235,0.794789 WristRight:-0.059999,-0.054569,-0.490834,0.867470 END:
KINECT_DATA POSITION:8.987837,-2.310310,-1.505256 HEAD_JOINT1:0.979668,0.188069,-0.000000,0.069858 LARM_JOINT2:0.811007,0.000000,0.016964,-0.584791 LARM_JOINT3:0.970164,0.000000,-0.190725,-0.149685 LLEG_JOINT2:0.998815,0.028913,0.000000,0.039159 LLEG_JOINT4:0.996853,0.078174,0.000000,-0.013174 RARM_JOINT2:0.824445,0.000000,0.355408,0.440425 RARM_JOINT3:0.966140,0.000000,0.225895,-0.124678 RLEG_JOINT2:0.998579,0.013600,0.000000,-0.051527 RLEG_JOINT4:0.993238,0.106509,0.000000,0.046202 WAIST:0.999846,-0.000000,0.017520,0.000514 WAIST_JOINT0:0.998918,-0.000000,0.035703,0.029808 WAIST_JOINT1:0.997729,0.066994,-0.000000,0.006907 END:
KINECT_DATA_Sensor  AnkleLeft:-0.058324,-0.685998,0.093384,0.719225 AnkleRight:0.083079,0.733858,0.086515,0.668629 ElbowLeft:-0.007067,0.857710,-0.184835,-0.479708 ElbowRight:-0.311553,0.723716,-0.036043,0.614712 FootLeft:0.000000,0.000000,0.000000,0.000000 FootRight:0.000000,0.000000,0.000000,0.000000 HandLeft:0.027526,-0.596529,-0.090093,0.797044 HandRight:0.040068,-0.273882,-0.545946,0.790776 HandTipLeft:0.000000,0.000000,0.000000,0.000000 HandTipRight:0.000000,0.000000,0.000000,0.000000 Head:0.000000,0.000000,0.000000,0.000000 HipLeft:0.102953,-0.681270,0.707444,-0.157468 HipRight:-0.133248,0.676012,0.701824,-0.180823 KneeLeft:0.006702,-0.694676,0.048626,0.717646 KneeRight:-0.027240,0.718672,0.045223,0.693342 Neck:-0.039961,0.007829,0.995695,-0.083268 ShoulderLeft:0.042086,0.763486,-0.643568,0.033730 ShoulderRight:-0.008585,0.802265,0.589822,-0.091692 SpineBase:-0.017310,0.004859,0.998934,-0.042527 SpineMid:-0.028529,0.005336,0.998676,-0.042470 SpineShoulder:-0.039887,0.007724,0.997268,-0.061688 ThumbLeft:0.000000,0.000000,0.000000,0.000000 ThumbRight:0.000000,0.000000,0.000000,0.000000 WristLeft:0.098068,-0.585255,-0.076050,0.801296 WristRight:0.056763,-0.269270,-0.498174,0.822250 END:
KINECT_DATA POSITION:9.105289,-2.316441,-1.613140 HEAD_JOINT1:0.979477,0.187629,-0.000000,0.073617 LARM_JOINT2:0.811886,0.000000,0.016944,-0.583569 LARM_JOINT3:0.971407,0.000000,-0.186733,-0.146623 LLEG_JOINT2:0.998900,0.028181,0.000000,0.037468 LLEG_JOINT4:0.996677,0.080934,0.000000,-0.009180 RARM_JOINT2:0.824892,0.000000,0.356203,0.438945 RARM_JOINT3:0.967234,0.000000,0.221255,-0.124517 RLEG_JOINT2:0.998484,0.012484,0.000000,-0.053613 RLEG_JOINT4:0.993009,0.108403,0.000000,0.046708 WAIST:0.999886,-0.000000,0.015061,0.001194 WAIST_JOINT0:0.999014,-0.000000,0.033326,0.029326 WAIST_JOINT1:0.997757,0.066684,-0.000000,0.005836 END:
KINECT_DATA_Sensor  AnkleLeft:-0.057473,-0.687669,0.097058,0.717209 AnkleRight:0.083303,0.732560,0.087409,0.669908 ElbowLeft:-0.007615,0.860558,-0.185665,-0.474247 ElbowRight:-0.313366,0.718920,-0.036789,0.619357 FootLeft:0.000000,0.000000,0.000000,0.000000 FootRight:0.000000,0.000000,0.000000,0.000000 HandLeft:0.037280,-0.641151,-0.066388,0.763628 HandRight:0.109681,-0.396815,-0.524514,0.745247 HandTipLeft:0.000000,0.000000,0.000000,0.000000 HandTipRight:0.000000,0.000000,0.000000,0.000000 Head:0.000000,0.000000,0.000000,0.000000 HipLeft:0.104422,-0.680550,0.707565,-0.159061 HipRight:-0.131939,0.676979,0.701540,-0.179255 KneeLeft:0.006653,-0.696419,0.047366,0.716040 KneeRight:-0.028923,0.716896,0.045461,0.695095 Neck:-0.037621,0.007395,0.995834,-0.082738 ShoulderLeft:0.039296,0.763616,-0.643456,0.036197 ShoulderRight:-0.008429,0.801942,0.590456,-0.090437 SpineBase:-0.014879,0.005711,0.998972,-0.042442 SpineMid:-0.026092,0.006187,0.998742,-0.042375 SpineShoulder:-0.037524,0.007564,0.997378,-0.061416 ThumbLeft:0.000000,0.000000,0.000000,0.000000 ThumbRight:0.000000,0.000000,0.000000,0.000000 WristLeft:0.101382,-0.632446,-0.070474,0.764701 WristRight:0.128445,-0.389874,-0.488519,0.769967 END:
KINECT_DATA POSITION:9.212572,-2.334807,-1.780188 HEAD_JOINT1:0.978981,0.189147,-0.000000,0.076283 LARM_JOINT2:0.813432,0.000000,0.017256,-0.581404 LARM_JOINT3:0.972916,0.000000,-0.180638,-0.144238 LLEG_JOINT2:0.998989,0.026029,0.000000,0.036658 LLEG_JOINT4:0.996112,0.087344,0.000000,-0.011477 RARM_JOINT2:0.822051,0.000000,0.363389,0.438383 RARM_JOINT3:0.974678,0.000000,0.188997,-0.119507 RLEG_JOINT2:0.998420,0.011657,0.000000,-0.054970 RLEG_JOINT4:0.993241,0.107808,0.000000,0.043018 WAIST:0.999896,-0.000000,0.014127,0.002795 WAIST_JOINT0:0.998535,-0.000000,0.042838,0.033067 WAIST_JOINT1:0.997752,0.066871,-0.000000,0.004347 END:
KINECT_DATA_Sensor  AnkleLeft:0.069036,0.741745,-0.093849,-0.660485 AnkleRight:0.080733,0.737984,0.088137,0.664149 ElbowLeft:-0.007840,0.862666,-0.188299,-0.469351 ElbowRight:-0.313396,0.709227,-0.048177,0.629650 FootLeft:0.000000,0.000000,0.000000,0.000000 FootRight:0.000000,0.000000,0.000000,0.000000 HandLeft:0.031350,-0.539259,-0.051627,0.839971 HandRight:0.125304,-0.488294,-0.487156,0.713125 HandTipLeft:0.000000,0.000000,0.000000,0.000000 HandTipRight:0.000000,0.000000,0.000000,0.000000 Head:0.000000,0.000000,0.000000,0.000000 HipLeft:0.105150,-0.679277,0.708408,-0.160262 HipRight:-0.131618,0.678149,0.700473,-0.179244 KneeLeft:0.008812,-0.697007,0.046412,0.715507 KneeRight:-0.029300,0.716276,0.044713,0.695766 Neck:-0.046741,0.008253,0.995444,-0.082691 ShoulderLeft:0.036074,0.763122,-0.644190,0.036914 ShoulderRight:-0.024042,0.801295,0.588563,-0.104602 SpineBase:-0.014042,0.006660,0.998965,-0.042744 SpineMid:-0.030161,0.007349,0.998608,-0.042631 SpineShoulder:-0.046648,0.008394,0.996979,-0.061534 ThumbLeft:0.000000,0.000000,0.000000,0.000000 ThumbRight:0.000000,0.000000,0.000000,0.000000 WristLeft:0.091874,-0.533712,-0.077620,0.837070 WristRight:0.161459,-0.469615,-0.467384,0.731399 END:
KINECT_DATA POSITION:9.344463,-2.322271,-1.932454 HEAD_JOINT1:0.978662,0.188913,-0.000000,0.080820 LARM_JOINT2:0.815569,0.000000,0.017538,-0.578394 LARM_JOINT3:0.970352,0.000000,-0.190670,-0.148531 LLEG_JOINT2:0.999117,0.024304,0.000000,0.034279 LLEG_JOINT4:0.996247,0.085857,0.000000,-0.010977 RARM_JOINT2:0.825754,0.000000,0.352210,0.440544 RARM_JOINT3:0.970497,0.000000,0.199388,-0.135570 RLEG_JOINT2:0.998328,0.011410,0.000000,-0.056662 RLEG_JOINT4:0.993461,0.105009,0.000000,0.044818 WAIST:0.999909,-0.000000,0.012846,0.004138 WAIST_JOINT0:0.998753,-0.000000,0.037664,0.032778 WAIST_JOINT1:0.997812,0.066048,-0.000000,0.002939 END:
KINECT_DATA_Sensor  AnkleLeft:0.066926,0.743910,-0.091377,-0.658612 AnkleRight:0.079326,0.735323,0.085157,0.667649 ElbowLeft:-0.008933,0.865945,-0.191246,-0.462044 ElbowRight:-0.310780,0.695361,-0.044348,0.646468 FootLeft:0.000000,0.000000,0.000000,0.000000 FootRight:0.000000,0.000000,0.000000,0.000000 HandLeft:0.051069,-0.529607,-0.087833,0.842137 HandRight:-0.178211,-0.021721,-0.506202,0.843521 HandTipLeft:0.000000,0.000000,0.000000,0.000000 HandTipRight:0.000000,0.000000,0.000000,0.000000 Head:0.000000,0.000000,0.000000,0.000000 HipLeft:0.106452,-0.678326,0.709039,-0.160639 HipRight:-0.131289,0.679373,0.699620,-0.178180 KneeLeft:0.009401,-0.697860,0.044445,0.714792 KneeRight:-0.029673,0.715426,0.044810,0.696618 Neck:-0.041917,0.007849,0.995738,-0.081772 ShoulderLeft:0.032692,0.763313,-0.643976,0.039738 ShoulderRight:-0.021110,0.802719,0.587563,-0.099831 SpineBase:-0.012856,0.007217,0.999006,-0.042073 SpineMid:-0.027137,0.007818,0.998720,-0.041966 SpineShoulder:-0.041801,0.008207,0.997244,-0.060751 ThumbLeft:0.000000,0.000000,0.000000,0.000000 ThumbRight:0.000000,0.000000,0.000000,0.000000 WristLeft:0.090604,-0.524040,-0.079931,0.843080 WristRight:-0.133199,0.001025,-0.479732,0.867245 END:
KINECT_DATA POSITION:9.402941,-2.297996,-1.965928 HEAD_JOINT1:0.978498,0.186039,-0.000000,0.089054 LARM_JOINT2:0.819237,0.000000,0.011353,-0.573343 LARM_JOINT3:0.969308,0.000000,-0.190489,-0.155422 LLEG_JOINT2:0.998992,0.026023,0.000000,0.036565 LLEG_JOINT4:0.996648,0.080050,0.000000,-0.016895 RARM_JOINT2:0.833906,0.000000,0.110033,0.540827 RARM_JOINT3:0.826214,0.000000,0.531481,-0.186811 RLEG_JOINT2:0.998407,0.008952,0.000000,-0.055701 RLEG_JOINT4:0.993252,0.107800,0.000000,0.042780 WAIST:0.999979,-0.000000,0.006023,0.002523 WAIST_JOINT0:0.999297,-0.000000,0.024580,0.028317 WAIST_JOINT1:0.997944,0.064052,0.000000,-0.002298 END:
KINECT_DATA_Sensor  AnkleLeft:0.064077,0.729504,-0.087133,-0.675370 AnkleRight:0.078094,0.728542,0.087066,0.674943 ElbowLeft:-0.014271,0.874597,-0.187649,-0.446839 ElbowRight:-0.172697,0.652059,0.105158,0.730709 FootLeft:0.000000,0.000000,0.000000,0.000000 FootRight:0.000000,0.000000,0.000000,0.000000 HandLeft:0.045579,-0.601760,-0.092762,0.791961 HandRight:-0.203353,0.023761,-0.626069,0.752410 HandTipLeft:0.000000,0.000000,0.000000,0.000000 HandTipRight:0.000000,0.000000,0.000000,0.000000 Head:0.000000,0.000000,0.000000,0.000000 HipLeft:0.112081,-0.678561,0.707656,-0.161911 HipRight:-0.127347,0.678700,0.702057,-0.173969 KneeLeft:0.008925,-0.702705,0.046091,0.709931 KneeRight:-0.031530,0.710653,0.043750,0.701473 Neck:-0.027651,0.000246,0.996420,-0.079890 ShoulderLeft:0.022657,0.767072,-0.639324,0.048499 ShoulderRight:-0.012465,0.799621,0.594041,-0.086984 SpineBase:-0.006091,0.003053,0.999161,-0.040373 SpineMid:-0.016647,0.003480,0.999041,-0.040339 SpineShoulder:-0.027572,0.001519,0.997881,-0.058916 ThumbLeft:0.000000,0.000000,0.000000,0.000000 ThumbRight:0.000000,0.000000,0.000000,0.000000 WristLeft:0.094506,-0.594342,-0.083409,0.794272 WristRight:-0.177037,0.037956,-0.584186,0.791166 END:
KINECT_DATA POSITION:9.386773,-2.266514,-1.920056 HEAD_JOINT1:0.979293,0.178249,-0.000000,0.095983 LARM_JOINT2:0.819718,0.000000,0.003727,-0.572755 LARM_JOINT3:0.967540,0.000000,-0.195748,-0.159841 LLEG_JOINT2:0.998757,0.029740,0.000000,0.039996 LLEG_JOINT4:0.996376,0.082482,0.000000,-0.020751 RARM_JOINT2:0.828552,0.000000,0.110571,0.548886 RARM_JOINT3:0.831915,0.000000,0.526108,-0.176430 RLEG_JOINT2:0.998562,0.005173,0.000000,-0.053363 RLEG_JOINT4:0.993327,0.108215,0.000000,0.039885 WAIST:0.999988,0.000000,-0.004848,0.000586 WAIST_JOINT0:0.999704,-0.000000,0.008831,0.022678 WAIST_JOINT1:0.997964,0.063408,0.000000,-0.006914 END:
KINECT_DATA_Sensor  AnkleLeft:0.068133,0.727876,-0.091067,-0.676210 AnkleRight:0.074443,0.717832,0.086210,0.686835 ElbowLeft:-0.019361,0.882009,-0.179321,-0.435349 ElbowRight:-0.169908,0.640051,0.103945,0.742066 FootLeft:0.000000,0.000000,0.000000,0.000000 FootRight:0.000000,0.000000,0.000000,0.000000 HandLeft:0.036218,-0.626626,-0.122815,0.768729 HandRight:-0.099342,-0.085901,-0.607641,0.783278 HandTipLeft:0.000000,0.000000,0.000000,0.000000 HandTipRight:0.000000,0.000000,0.000000,0.000000 Head:0.000000,0.000000,0.000000,0.000000 HipLeft:0.122177,-0.678077,0.704789,-0.168991 HipRight:-0.122052,0.678129,0.704436,-0.170333 KneeLeft:-0.007848,0.710420,-0.049698,-0.701977 KneeRight:-0.033443,0.702991,0.041157,0.709218 Neck:-0.011174,-0.006242,0.996776,-0.079207 ShoulderLeft:0.015594,0.770838,-0.634271,0.057145 ShoulderRight:0.002061,0.796593,0.600359,-0.070748 SpineBase:0.004730,-0.001460,0.999187,-0.040009 SpineMid:-0.003055,-0.001149,0.999194,-0.040019 SpineShoulder:-0.011162,-0.004608,0.998215,-0.058482 ThumbLeft:0.000000,0.000000,0.000000,0.000000 ThumbRight:0.000000,0.000000,0.000000,0.000000 WristLeft:0.093185,-0.616511,-0.093819,0.776163 WristRight:-0.099973,-0.086660,-0.606292,0.784159 END:
KINECT_DATA POSITION:9.320991,-2.283830,-1.872444 HEAD_JOINT1:0.980363,0.175847,-0.000000,0.089249 LARM_JOINT2:0.817268,0.000000,0.009096,-0.576186 LARM_JOINT3:0.970879,0.000000,-0.181853,-0.155957 LLEG_JOINT2:0.998731,0.030509,0.000000,0.040079 LLEG_JOINT4:0.996745,0.077924,0.000000,-0.020673 RARM_JOINT2:0.828519,0.000000,0.245328,0.503359 RARM_JOINT3:0.917438,0.000000,0.361165,-0.166935 RLEG_JOINT2:0.998616,0.003789,0.000000,-0.052460 RLEG_JOINT4:0.992868,0.112386,0.000000,0.039775 WAIST:0.999986,0.000000,-0.005308,0.000145 WAIST_JOINT0:0.999599,-0.000000,0.015797,0.023505 WAIST_JOINT1:0.998151,0.060533,0.000000,-0.005495 END:
KINECT_DATA_Sensor  AnkleLeft:-0.061409,-0.696953,0.091223,0.708635 AnkleRight:0.077637,0.723874,0.087042,0.680001 ElbowLeft:-0.018588,0.877120,-0.177029,-0.446067 ElbowRight:-0.250839,0.661656,0.023376,0.706218 FootLeft:0.000000,0.000000,0.000000,0.000000 FootRight:0.000000,0.000000,0.000000,0.000000 HandLeft:-0.003314,-0.523434,-0.065358,0.849549 HandRight:-0.047102,-0.145407,-0.556962,0.816352 HandTipLeft:0.000000,0.000000,0.000000,0.000000 HandTipRight:0.000000,0.000000,0.000000,0.000000 Head:0.000000,0.000000,0.000000,0.000000 HipLeft:0.123458,-0.678796,0.704065,-0.168189 HipRight:-0.122423,0.678371,0.704433,-0.169117 KneeLeft:-0.007075,0.710775,-0.049987,-0.701606 KneeRight:-0.034087,0.702637,0.039866,0.709612 Neck:-0.017750,-0.004347,0.996957,-0.075787 ShoulderLeft:0.014964,0.772566,-0.632594,0.052373 ShoulderRight:-0.007289,0.798157,0.597542,-0.076393 SpineBase:0.005205,-0.002068,0.999243,-0.038489 SpineMid:-0.006142,-0.001631,0.999238,-0.038510 SpineShoulder:-0.017776,-0.003397,0.998278,-0.055792 ThumbLeft:0.000000,0.000000,0.000000,0.000000 ThumbRight:0.000000,0.000000,0.000000,0.000000 WristLeft:0.082796,-0.513971,-0.106562,0.847126 WristRight:-0.056726,-0.150339,-0.563682,0.810212 END:
KINECT_DATA POSITION:9.288129,-2.299304,-1.902783 HEAD_JOINT1:0.981622,0.176755,-0.000000,0.071939 LARM_JOINT2:0.811412,0.000000,0.024205,-0.583974 LARM_JOINT3:0.974202,0.000000,-0.171466,-0.146730 LLEG_JOINT2:0.998826,0.028605,0.000000,0.039105 LLEG_JOINT4:0.996540,0.081276,0.000000,-0.017369 RARM_JOINT2:0.828561,0.000000,0.322434,0.457737 RARM_JOINT3:0.961319,0.000000,0.236756,-0.140757 RLEG_JOINT2:0.998456,0.005601,0.000000,-0.055258 RLEG_JOINT4:0.992858,0.110052,0.000000,0.046052 WAIST:0.999995,-0.000000,0.003099,0.000726 WAIST_JOINT0:0.998559,-0.000000,0.042869,0.032291 WAIST_JOINT1:0.998130,0.061037,-0.000000,0.003357 END:
KINECT_DATA_Sensor  AnkleLeft:0.069285,0.752053,-0.087914,-0.649528 AnkleRight:0.080294,0.737783,0.083350,0.665043 ElbowLeft:-0.009169,0.862635,-0.182491,-0.471671 ElbowRight:-0.297730,0.672203,-0.029350,0.677228 FootLeft:0.000000,0.000000,0.000000,0.000000 FootRight:0.000000,0.000000,0.000000,0.000000 HandLeft:-0.007476,-0.571639,-0.022410,0.820165 HandRight:0.065417,-0.371974,-0.512769,0.770989 HandTipLeft:0.000000,0.000000,0.000000,0.000000 HandTipRight:0.000000,0.000000,0.000000,0.000000 Head:0.000000,0.000000,0.000000,0.000000 HipLeft:0.116505,-0.680029,0.705293,-0.162936 HipRight:-0.127384,0.678880,0.702708,-0.170579 KneeLeft:0.007732,-0.704869,0.048422,0.707641 KneeRight:-0.034726,0.708361,0.042419,0.703718 Neck:-0.045118,0.007127,0.996004,-0.076748 ShoulderLeft:0.027441,0.768176,-0.638637,0.035982 ShoulderRight:-0.030767,0.802071,0.587664,-0.101915 SpineBase:-0.003050,0.002570,0.999285,-0.037586 SpineMid:-0.023935,0.003355,0.999003,-0.037524 SpineShoulder:-0.045140,0.006242,0.997407,-0.055703 ThumbLeft:0.000000,0.000000,0.000000,0.000000 ThumbRight:0.000000,0.000000,0.000000,0.000000 WristLeft:0.093811,-0.564212,-0.082348,0.816139 WristRight:0.073731,-0.366650,-0.515489,0.770975 END:
KINECT_DATA POSITION:8.779096,-2.264269,-1.940882 HEAD_JOINT1:0.977025,0.177579,-0.000000,0.117848 LARM_JOINT2:0.821412,0.000000,0.001549,-0.570334 LARM_JOINT3:0.965746,0.000000,-0.195639,-0.170474 LLEG_JOINT2:0.999110,0.024692,0.000000,0.034212 LLEG_JOINT4:0.996053,0.087743,0.000000,-0.013422 RARM_JOINT2:0.825945,0.000000,0.304136,0.474675 RARM_JOINT3:0.943612,0.000000,0.287644,-0.163881 RLEG_JOINT2:0.998247,0.012972,0.000000,-0.057744 RLEG_JOINT4:0.993690,0.101499,0.000000,0.047731 WAIST:0.999977,0.000000,-0.001585,0.006562 WAIST_JOINT0:0.999200,-0.000000,0.020498,0.034335 WAIST_JOINT1:0.997926,0.064364,-0.000000,0.000247 END:
KINECT_DATA_Sensor  AnkleLeft:-0.059169,-0.694742,0.099182,0.709926 AnkleRight:0.081968,0.725537,0.079670,0.678623 ElbowLeft:-0.020668,0.891408,-0.193810,-0.409148 ElbowRight:-0.275977,0.674104,-0.017727,0.684913 FootLeft:0.000000,0.000000,0.000000,0.000000 FootRight:0.000000,0.000000,0.000000,0.000000 HandLeft:0.054222,-0.605416,-0.143766,0.780937 HandRight:-0.169160,0.011986,-0.544372,0.821523 HandTipLeft:0.000000,0.000000,0.000000,0.000000 HandTipRight:0.000000,0.000000,0.000000,0.000000 Head:0.000000,0.000000,0.000000,0.000000 HipLeft:0.116913,-0.675236,0.708791,-0.167343 HipRight:-0.123676,0.683414,0.699384,-0.168853 KneeLeft:-0.011393,0.707922,-0.046285,-0.704681 KneeRight:-0.026915,0.705563,0.045441,0.706676 Neck:-0.022640,0.008120,0.996487,-0.080218 ShoulderLeft:0.010265,0.768527,-0.637024,0.058837 ShoulderRight:-0.019108,0.805167,0.586032,-0.088929 SpineBase:0.001354,0.007414,0.999176,-0.039874 SpineMid:-0.010380,0.007882,0.999123,-0.039784 SpineShoulder:-0.022475,0.008519,0.997968,-0.059016 ThumbLeft:0.000000,0.000000,0.000000,0.000000 ThumbRight:0.000000,0.000000,0.000000,0.000000 WristLeft:0.089662,-0.598865,-0.084338,0.791334 WristRight:-0.154452,0.015976,-0.510433,0.845782 END:
KINECT_DATA POSITION:8.223365,-2.246408,-1.719832 HEAD_JOINT1:0.975223,0.163977,-0.000000,0.148498 LARM_JOINT2:0.831621,0.000000,-0.026533,-0.554709 LARM_JOINT3:0.963569,0.000000,-0.184986,-0.193173 LLEG_JOINT2:0.998787,0.029778,0.000000,0.039217 LLEG_JOINT4:0.995887,0.088202,0.000000,-0.020739 RARM_JOINT2:0.808162,0.000000,0.183064,0.559787 RARM_JOINT3:0.855671,0.000000,0.484726,-0.181296 RLEG_JOINT2:0.998526,0.012303,0.000000,-0.052870 RLEG_JOINT4:0.994808,0.093791,0.000000,0.039510 WAIST:0.999604,0.000000,-0.027456,0.006191 WAIST_JOINT0:0.998940,0.000000,-0.042473,0.017735 WAIST_JOINT1:0.997905,0.064146,0.000000,-0.008478 END:
KINECT_DATA_Sensor  AnkleLeft:0.064857,0.728322,-0.101448,-0.674574 AnkleRight:0.078120,0.734666,0.072123,0.670046 ElbowLeft:-0.037994,0.925978,-0.193304,-0.322111 ElbowRight:-0.175553,0.654331,0.047276,0.734028 FootLeft:0.000000,0.000000,0.000000,0.000000 FootRight:0.000000,0.000000,0.000000,0.000000 HandLeft:-0.049700,0.697586,0.143135,-0.700298 HandRight:-0.121649,-0.038182,-0.616102,0.777278 HandTipLeft:0.000000,0.000000,0.000000,0.000000 HandTipRight:0.000000,0.000000,0.000000,0.000000 Head:0.000000,0.000000,0.000000,0.000000 HipLeft:0.139673,-0.671755,0.704113,-0.182926 HipRight:-0.112154,0.685369,0.701584,-0.159593 KneeLeft:-0.012327,0.725779,-0.052969,-0.685775 KneeRight:-0.022994,0.687429,0.042507,0.724642 Neck:0.041001,-0.004154,0.995898,-0.080555 ShoulderLeft:-0.022438,0.774783,-0.623814,0.100314 ShoulderRight:0.030815,0.796615,0.602809,-0.032812 SpineBase:0.026924,0.000051,0.998904,-0.038294 SpineMid:0.034092,-0.000224,0.998685,-0.038294 SpineShoulder:0.041353,-0.000587,0.997395,-0.059106 ThumbLeft:0.000000,0.000000,0.000000,0.000000 ThumbRight:0.000000,0.000000,0.000000,0.000000 WristLeft:0.080640,-0.684338,-0.100647,0.717669 WristRight:-0.114175,-0.037080,-0.589349,0.798910 END:
KINECT_DATA POSITION:8.130130,-2.270303,-1.693368 HEAD_JOINT1:0.973510,0.154506,-0.000000,0.168541 LARM_JOINT2:0.838899,0.000000,-0.027288,-0.543603 LARM_JOINT3:0.963188,0.000000,-0.177014,-0.202324 LLEG_JOINT2:0.998631,0.031768,0.000000,0.041550 LLEG_JOINT4:0.995702,0.089947,0.000000,-0.022084 RARM_JOINT2:0.801767,0.000000,0.165140,0.574368 RARM_JOINT3:0.842670,0.000000,0.509997,-0.172656 RLEG_JOINT2:0.998587,0.012156,0.000000,-0.051739 RLEG_JOINT4:0.994959,0.092628,0.000000,0.038430 WAIST:0.999140,0.000000,-0.041133,0.005227 WAIST_JOINT0:0.997192,0.000000,-0.074225,0.009891 WAIST_JOINT1:0.997627,0.066982,0.000000,-0.015903 END:
KINECT_DATA_Sensor  AnkleLeft:0.069697,0.759930,-0.102663,-0.638051 AnkleRight:0.077887,0.728887,0.070610,0.676514 ElbowLeft:-0.036165,0.936896,-0.198694,-0.285375 ElbowRight:-0.158964,0.645955,0.061419,0.744110 FootLeft:0.000000,0.000000,0.000000,0.000000 FootRight:0.000000,0.000000,0.000000,0.000000 HandLeft:0.032966,-0.648952,-0.118119,0.750881 HandRight:-0.088310,-0.087666,-0.616154,0.777734 HandTipLeft:0.000000,0.000000,0.000000,0.000000 HandTipRight:0.000000,0.000000,0.000000,0.000000 Head:0.000000,0.000000,0.000000,0.000000 HipLeft:0.147029,-0.670745,0.701465,-0.190869 HipRight:-0.101146,0.686570,0.703437,-0.153515 KneeLeft:-0.012671,0.735084,-0.055220,-0.675604 KneeRight:-0.022365,0.677583,0.042630,0.733869 Neck:0.072733,-0.013523,0.993782,-0.083214 ShoulderLeft:-0.037971,0.777100,-0.615852,0.124095 ShoulderRight:0.056408,0.791772,0.608163,-0.007235 SpineBase:0.040471,-0.003481,0.998358,-0.040383 SpineMid:0.056736,-0.004139,0.997566,-0.040321 SpineShoulder:0.073066,-0.009006,0.995348,-0.062150 ThumbLeft:0.000000,0.000000,0.000000,0.000000 ThumbRight:0.000000,0.000000,0.000000,0.000000 WristLeft:0.060274,-0.645437,-0.108161,0.753710 WristRight:-0.084882,-0.087980,-0.600715,0.790061 END:
KINECT_DATA POSITION:8.200999,-2.277738,-1.770687 HEAD_JOINT1:0.970182,0.160050,-0.000000,0.182018 LARM_JOINT2:0.839004,0.000000,-0.035131,-0.542991 LARM_JOINT3:0.968724,0.000000,-0.158903,-0.190588 LLEG_JOINT2:0.998660,0.029524,0.000000,0.042506 LLEG_JOINT4:0.995306,0.092758,0.000000,-0.027619 RARM_JOINT2:0.811396,0.000000,0.200935,0.548873 RARM_JOINT3:0.876707,0.000000,0.455471,-0.154695 RLEG_JOINT2:0.998568,0.010448,0.000000,-0.052471 RLEG_JOINT4:0.994356,0.098212,0.000000,0.040126 WAIST:0.998852,0.000000,-0.047524,0.006080 WAIST_JOINT0:0.997557,0.000000,-0.069025,0.010735 WAIST_JOINT1:0.997311,0.071020,0.000000,-0.018056 END:
KINECT_DATA_Sensor  AnkleLeft:0.070153,0.751263,-0.102275,-0.648246 AnkleRight:0.081795,0.716505,0.071968,0.689022 ElbowLeft:-0.038368,0.940795,-0.196620,-0.273446 ElbowRight:-0.190879,0.654054,0.058802,0.729603 FootLeft:0.000000,0.000000,0.000000,0.000000 FootRight:0.000000,0.000000,0.000000,0.000000 HandLeft:0.033365,-0.694838,-0.042370,0.717142 HandRight:-0.005813,-0.203397,-0.566166,0.798782 HandTipLeft:0.000000,0.000000,0.000000,0.000000 HandTipRight:0.000000,0.000000,0.000000,0.000000 Head:0.000000,0.000000,0.000000,0.000000 HipLeft:0.146310,-0.669406,0.702160,-0.193546 HipRight:-0.092979,0.687768,0.704091,-0.150287 KneeLeft:-0.015833,0.739215,-0.054746,-0.671054 KneeRight:-0.023217,0.673004,0.041590,0.738103 Neck:0.066515,-0.012459,0.993797,-0.088251 ShoulderLeft:-0.028941,0.775851,-0.618646,0.120397 ShoulderRight:0.057542,0.793738,0.605397,-0.012766 SpineBase:0.046677,-0.004187,0.997951,-0.043565 SpineMid:0.056741,-0.004627,0.997429,-0.043521 SpineShoulder:0.066746,-0.009230,0.995526,-0.066245 ThumbLeft:0.000000,0.000000,0.000000,0.000000 ThumbRight:0.000000,0.000000,0.000000,0.000000 WristLeft:0.064881,-0.691893,-0.101419,0.711891 WristRight:-0.007326,-0.200506,-0.587367,0.784056 END:
KINECT_DATA POSITION:8.364712,-2.266999,-1.865172 HEAD_JOINT1:0.967942,0.172588,-0.000000,0.182489 LARM_JOINT2:0.836884,0.000000,-0.034757,-0.546276 LARM_JOINT3:0.971089,0.000000,-0.148495,-0.186908 LLEG_JOINT2:0.998857,0.027135,0.000000,0.039339 LLEG_JOINT4:0.994986,0.096402,0.000000,-0.026626 RARM_JOINT2:0.806143,0.000000,0.288531,0.516608 RARM_JOINT3:0.925830,0.000000,0.351864,-0.137950 RLEG_JOINT2:0.998463,0.011616,0.000000,-0.054183 RLEG_JOINT4:0.994982,0.093051,0.000000,0.036763 WAIST:0.999098,0.000000,-0.041654,0.008238 WAIST_JOINT0:0.998765,0.000000,-0.046220,0.018252 WAIST_JOINT1:0.997124,0.073833,0.000000,-0.017081 END:
KINECT_DATA_Sensor  AnkleLeft:0.070024,0.736620,-0.103924,-0.664595 AnkleRight:0.075160,0.708755,0.073657,0.697561 ElbowLeft:-0.035018,0.937576,-0.197169,-0.284339 ElbowRight:-0.237375,0.677917,0.008310,0.695711 FootLeft:0.000000,0.000000,0.000000,0.000000 FootRight:0.000000,0.000000,0.000000,0.000000 HandLeft:0.002238,-0.595520,-0.020716,0.803070 HandRight:0.183865,-0.412193,-0.515333,0.728507 HandTipLeft:0.000000,0.000000,0.000000,0.000000 HandTipRight:0.000000,0.000000,0.000000,0.000000 Head:0.000000,0.000000,0.000000,0.000000 HipLeft:0.138479,-0.668412,0.705554,-0.190374 HipRight:-0.093331,0.688074,0.703037,-0.153562 KneeLeft:-0.016366,0.735103,-0.052431,-0.675726 KneeRight:-0.022256,0.677443,0.041954,0.734041 Neck:0.043835,-0.007077,0.994810,-0.091552 ShoulderLeft:-0.015498,0.773268,-0.624720,0.107428 ShoulderRight:0.041818,0.797136,0.601341,-0.034853 SpineBase:0.040663,-0.001972,0.998089,-0.046488 SpineMid:0.042411,-0.002054,0.998016,-0.046484 SpineShoulder:0.043942,-0.005651,0.996636,-0.068949 ThumbLeft:0.000000,0.000000,0.000000,0.000000 ThumbRight:0.000000,0.000000,0.000000,0.000000 WristLeft:0.056376,-0.592684,-0.098495,0.797399 WristRight:0.150953,-0.432143,-0.514737,0.724922 END:
KINECT_DATA POSITION:8.512780,-2.270773,-1.953125 HEAD_JOINT1:0.968707,0.184519,-0.000000,0.166010 LARM_JOINT2:0.831002,0.000000,-0.004194,-0.556253 LARM_JOINT3:0.970159,0.000000,-0.167967,-0.174865 LLEG_JOINT2:0.998986,0.025792,0.000000,0.036892 LLEG_JOINT4:0.995470,0.092226,0.000000,-0.023127 RARM_JOINT2:0.812116,0.000000,0.354140,0.463737 RARM_JOINT3:0.959224,0.000000,0.264984,-0.098356 RLEG_JOINT2:0.998390,0.012348,0.000000,-0.055360 RLEG_JOINT4:0.994940,0.093121,0.000000,0.037709 WAIST:0.999510,0.000000,-0.030224,0.008156 WAIST_JOINT0:0.999382,0.000000,-0.027292,0.022170 WAIST_JOINT1:0.997060,0.075623,0.000000,-0.012346 END:
KINECT_DATA_Sensor  AnkleLeft:0.065178,0.720177,-0.100754,-0.683335 AnkleRight:0.075611,0.725360,0.074226,0.680167 ElbowLeft:-0.019722,0.909052,-0.201468,-0.364206 ElbowRight:-0.292146,0.712963,-0.014259,0.637284 FootLeft:0.000000,0.000000,0.000000,0.000000 FootRight:0.000000,0.000000,0.000000,0.000000 HandLeft:-0.001732,0.738283,0.019016,-0.674221 HandRight:0.147758,-0.318845,-0.508736,0.785935 HandTipLeft:0.000000,0.000000,0.000000,0.000000 HandTipRight:0.000000,0.000000,0.000000,0.000000 Head:0.000000,0.000000,0.000000,0.000000 HipLeft:0.126690,-0.670234,0.707810,-0.183687 HipRight:-0.097141,0.686914,0.702549,-0.158547 KneeLeft:-0.014919,0.727411,-0.049836,-0.684227 KneeRight:-0.023138,0.685639,0.043046,0.726299 Neck:0.022987,-0.001320,0.995407,-0.092920 ShoulderLeft:-0.008475,0.771369,-0.628681,0.098379 ShoulderRight:0.021699,0.803662,0.591934,-0.057194 SpineBase:0.029365,0.000829,0.998384,-0.048636 SpineMid:0.026327,0.000977,0.998469,-0.048634 SpineShoulder:0.022996,-0.001458,0.997245,-0.070507 ThumbLeft:0.000000,0.000000,0.000000,0.000000 ThumbRight:0.000000,0.000000,0.000000,0.000000 WristLeft:-0.089757,0.730854,0.075700,-0.672358 WristRight:0.085881,-0.357434,-0.483684,0.794302 END:
KINECT_DATA POSITION:8.620986,-2.261229,-2.045429 HEAD_JOINT1:0.970380,0.193172,-0.000000,0.145080 LARM_JOINT2:0.825889,0.000000,0.001887,-0.563829 LARM_JOINT3:0.971271,0.000000,-0.169179,-0.167368 LLEG_JOINT2:0.999106,0.023670,0.000000,0.035028 LLEG_JOINT4:0.995448,0.093094,0.000000,-0.020416 RARM_JOINT2:0.813889,0.000000,0.372858,0.445602 RARM_JOINT3:0.966708,0.000000,0.238418,-0.092915 RLEG_JOINT2:0.998283,0.014897,0.000000,-0.056653 RLEG_JOINT4:0.994889,0.092623,0.000000,0.040207 WAIST:0.999811,0.000000,-0.017604,0.008304 WAIST_JOINT0:0.999620,0.000000,-0.009081,0.026044 WAIST_JOINT1:0.997031,0.076662,0.000000,-0.007243 END:
KINECT_DATA_Sensor  AnkleLeft:0.069576,0.744633,-0.096386,-0.656803 AnkleRight:0.077723,0.739891,0.074656,0.664039 ElbowLeft:-0.013573,0.897528,-0.200705,-0.392399 ElbowRight:-0.307075,0.733841,-0.022041,0.605555 FootLeft:0.000000,0.000000,0.000000,0.000000 FootRight:0.000000,0.000000,0.000000,0.000000 HandLeft:-0.001619,-0.620804,-0.025626,0.783545 HandRight:0.234559,-0.456686,-0.483657,0.708870 HandTipLeft:0.000000,0.000000,0.000000,0.000000 HandTipRight:0.000000,0.000000,0.000000,0.000000 Head:0.000000,0.000000,0.000000,0.000000 HipLeft:0.116125,-0.671787,0.709827,-0.177098 HipRight:-0.103274,0.685527,0.701551,-0.164963 KneeLeft:-0.014602,0.718801,-0.047231,-0.693456 KneeRight:-0.022711,0.694650,0.045270,0.717562 Neck:0.004076,0.003901,0.995597,-0.093571 ShoulderLeft:0.005113,0.768008,-0.634807,0.084603 ShoulderRight:0.010787,0.804645,0.589197,-0.072642 SpineBase:0.016881,0.003499,0.998593,-0.050139 SpineMid:0.010624,0.003813,0.998680,-0.050116 SpineShoulder:0.004091,0.003204,0.997441,-0.071312 ThumbLeft:0.000000,0.000000,0.000000,0.000000 ThumbRight:0.000000,0.000000,0.000000,0.000000 WristLeft:0.082433,-0.614294,-0.077541,0.780919 WristRight:0.176065,-0.494567,-0.444571,0.725783 END:
KINECT_DATA POSITION:8.681437,-2.258368,-2.113819 HEAD_JOINT1:0.971053,0.195096,-0.000000,0.137820 LARM_JOINT2:0.824810,0.000000,-0.000816,-0.565409 LARM_JOINT3:0.968130,0.000000,-0.181199,-0.172891 LLEG_JOINT2:0.999126,0.022567,0.000000,0.035182 LLEG_JOINT4:0.995496,0.092979,0.000000,-0.018505 RARM_JOINT2:0.817626,0.000000,0.371304,0.440025 RARM_JOINT3:0.964933,0.000000,0.242757,-0.099864 RLEG_JOINT2:0.998273,0.015112,0.000000,-0.056772 RLEG_JOINT4:0.995009,0.091383,0.000000,0.040069 WAIST:0.999867,0.000000,-0.014262,0.007937 WAIST_JOINT0:0.999642,0.000000,-0.006757,0.025873 WAIST_JOINT1:0.997065,0.076349,0.000000,-0.005749 END:
KINECT_DATA_Sensor  AnkleLeft:0.068229,0.745302,-0.096270,-0.656203 AnkleRight:0.072908,0.712453,0.077993,0.693550 ElbowLeft:-0.014574,0.897070,-0.198951,-0.394298 ElbowRight:-0.311642,0.739419,-0.016841,0.596535 FootLeft:0.000000,0.000000,0.000000,0.000000 FootRight:0.000000,0.000000,0.000000,0.000000 HandLeft:-0.021345,0.746397,0.087177,-0.659420 HandRight:0.240302,-0.465330,-0.504691,0.686302 HandTipLeft:0.000000,0.000000,0.000000,0.000000 HandTipRight:0.000000,0.000000,0.000000,0.000000 Head:0.000000,0.000000,0.000000,0.000000 HipLeft:0.114525,-0.672182,0.709781,-0.176822 HipRight:-0.105893,0.684816,0.701276,-0.167408 KneeLeft:-0.015082,0.716541,-0.046318,-0.695842 KneeRight:-0.023075,0.696954,0.045667,0.715288 Neck:0.001387,0.004350,0.995664,-0.092905 ShoulderLeft:0.009180,0.766954,-0.636545,0.080671 ShoulderRight:0.011502,0.804464,0.589397,-0.072919 SpineBase:0.013636,0.004561,0.998615,-0.050616 SpineMid:0.007692,0.004863,0.998678,-0.050588 SpineShoulder:0.001459,0.004133,0.997463,-0.071047 ThumbLeft:0.000000,0.000000,0.000000,0.000000 ThumbRight:0.000000,0.000000,0.000000,0.000000 WristLeft:-0.095590,0.741561,0.061658,-0.661172 WristRight:0.188297,-0.504980,-0.443197,0.716321 END:
KINECT_DATA POSITION:8.692042,-2.260132,-2.175200 HEAD_JOINT1:0.971707,0.194772,-0.000000,0.133599 LARM_JOINT2:0.824226,0.000000,-0.003678,-0.566249 LARM_JOINT3:0.968139,0.000000,-0.180036,-0.174049 LLEG_JOINT2:0.999109,0.022046,0.000000,0.036000 LLEG_JOINT4:0.995452,0.093875,0.000000,-0.016188 RARM_JOINT2:0.817907,0.000000,0.374581,0.436712 RARM_JOINT3:0.965738,0.000000,0.239710,-0.099444 RLEG_JOINT2:0.998284,0.014781,0.000000,-0.056661 RLEG_JOINT4:0.994759,0.092211,0.000000,0.044178 WAIST:0.999883,0.000000,-0.013543,0.007061 WAIST_JOINT0:0.999657,0.000000,-0.007035,0.025241 WAIST_JOINT1:0.997094,0.075984,0.000000,-0.005412 END:
KINECT_DATA_Sensor  AnkleLeft:0.068133,0.752130,-0.097364,-0.648212 AnkleRight:0.077896,0.735020,0.073385,0.669547 ElbowLeft:-0.015676,0.898339,-0.196415,-0.392635 ElbowRight:-0.315537,0.738950,-0.018455,0.595020 FootLeft:0.000000,0.000000,0.000000,0.000000 FootRight:0.000000,0.000000,0.000000,0.000000 HandLeft:-0.014744,0.747675,0.087316,-0.658134 HandRight:0.227308,-0.450202,-0.508327,0.698036 HandTipLeft:0.000000,0.000000,0.000000,0.000000 HandTipRight:0.000000,0.000000,0.000000,0.000000 Head:0.000000,0.000000,0.000000,0.000000 HipLeft:0.114956,-0.672618,0.709135,-0.177477 HipRight:-0.107046,0.683977,0.701654,-0.168519 KneeLeft:-0.015382,0.716092,-0.045904,-0.696325 KneeRight:-0.023892,0.697384,0.045954,0.714823 Neck:0.001491,0.003143,0.995726,-0.092290 ShoulderLeft:0.008921,0.766523,-0.637068,0.080664 ShoulderRight:0.011476,0.803787,0.590349,-0.072679 SpineBase:0.012997,0.004373,0.998617,-0.050750 SpineMid:0.007453,0.004655,0.998674,-0.050725 SpineShoulder:0.001618,0.003648,0.997485,-0.070767 ThumbLeft:0.000000,0.000000,0.000000,0.000000 ThumbRight:0.000000,0.000000,0.000000,0.000000 WristLeft:-0.095286,0.742187,0.065419,-0.660151 WristRight:0.179167,-0.487177,-0.450173,0.726569 END:
KINECT_DATA POSITION:8.706841,-2.260505,-2.215827 HEAD_JOINT1:0.972153,0.195191,-0.000000,0.129689 LARM_JOINT2:0.823773,0.000000,-0.004703,-0.566900 LARM_JOINT3:0.970027,0.000000,-0.172672,-0.170976 LLEG_JOINT2:0.999105,0.021446,0.000000,0.036462 LLEG_JOINT4:0.995618,0.092237,0.000000,-0.015391 RARM_JOINT2:0.818210,0.000000,0.374856,0.435907 RARM_JOINT3:0.966420,0.000000,0.237626,-0.097811 RLEG_JOINT2:0.998338,0.014729,0.000000,-0.055718 RLEG_JOINT4:0.995006,0.090132,0.000000,0.042889 WAIST:0.999899,0.000000,-0.012669,0.006475 WAIST_JOINT0:0.999680,0.000000,-0.006365,0.024463 WAIST_JOINT1:0.997143,0.075330,0.000000,-0.005557 END:
KINECT_DATA_Sensor  AnkleLeft:0.059914,0.709565,-0.100275,-0.694891 AnkleRight:0.073907,0.720335,0.074494,0.685642 ElbowLeft:-0.016031,0.898658,-0.194444,-0.392872 ElbowRight:-0.317177,0.738582,-0.018691,0.594597 FootLeft:0.000000,0.000000,0.000000,0.000000 FootRight:0.000000,0.000000,0.000000,0.000000 HandLeft:-0.009583,-0.598284,-0.060742,0.798921 HandRight:0.266323,-0.511164,-0.481637,0.660158 HandTipLeft:0.000000,0.000000,0.000000,0.000000 HandTipRight:0.000000,0.000000,0.000000,0.000000 Head:0.000000,0.000000,0.000000,0.000000 HipLeft:0.115173,-0.673154,0.708668,-0.177166 HipRight:-0.107983,0.683515,0.701823,-0.169091 KneeLeft:-0.015683,0.715504,-0.045393,-0.696956 KneeRight:-0.023731,0.697993,0.045630,0.714255 Neck:0.000814,0.001939,0.995802,-0.091513 ShoulderLeft:0.008913,0.766452,-0.637259,0.079827 ShoulderRight:0.010659,0.802882,0.591562,-0.072941 SpineBase:0.012165,0.003905,0.998647,-0.050408 SpineMid:0.006712,0.004180,0.998699,-0.050386 SpineShoulder:0.000969,0.002947,0.997531,-0.070164 ThumbLeft:0.000000,0.000000,0.000000,0.000000 ThumbRight:0.000000,0.000000,0.000000,0.000000 WristLeft:0.079042,-0.587823,-0.084531,0.800669 WristRight:0.217021,-0.546160,-0.434901,0.682256 END:
KINECT_DATA POSITION:8.743683,-2.265711,-2.224398 HEAD_JOINT1:0.972344,0.196199,-0.000000,0.126702 LARM_JOINT2:0.823445,0.000000,-0.005234,-0.567373 LARM_JOINT3:0.969588,0.000000,-0.176417,-0.169635 LLEG_JOINT2:0.999097,0.020620,0.000000,0.037156 LLEG_JOINT4:0.995336,0.094830,0.000000,-0.017692 RARM_JOINT2:0.818160,0.000000,0.373872,0.436846 RARM_JOINT3:0.966484,0.000000,0.237115,-0.098418 RLEG_JOINT2:0.998333,0.013780,0.000000,-0.056043 RLEG_JOINT4:0.994872,0.090964,0.000000,0.044219 WAIST:0.999908,0.000000,-0.012211,0.005880 WAIST_JOINT0:0.999693,0.000000,-0.005444,0.024162 WAIST_JOINT1:0.997212,0.074391,0.000000,-0.005824 END:
KINECT_DATA_Sensor  AnkleLeft:0.067649,0.742685,-0.096712,-0.659158 AnkleRight:0.074264,0.722489,0.073922,0.683396 ElbowLeft:-0.016336,0.899217,-0.192612,-0.392482 ElbowRight:-0.317400,0.737391,-0.018982,0.595946 FootLeft:0.000000,0.000000,0.000000,0.000000 FootRight:0.000000,0.000000,0.000000,0.000000 HandLeft:0.007356,-0.634233,-0.074621,0.769497 HandRight:0.087318,-0.263780,-0.540807,0.793929 HandTipLeft:0.000000,0.000000,0.000000,0.000000 HandTipRight:0.000000,0.000000,0.000000,0.000000 Head:0.000000,0.000000,0.000000,0.000000 HipLeft:0.115735,-0.673642,0.708227,-0.176712 HipRight:-0.108708,0.683046,0.702130,-0.169249 KneeLeft:-0.016319,0.715190,-0.044871,-0.697297 KneeRight:-0.025082,0.698260,0.045608,0.713950 Neck:-0.000001,0.000862,0.995898,-0.090482 ShoulderLeft:0.008516,0.766385,-0.637462,0.078890 ShoulderRight:0.009236,0.802121,0.592572,-0.073318 SpineBase:0.011738,0.003185,0.998684,-0.049815 SpineMid:0.006089,0.003467,0.998735,-0.049796 SpineShoulder:0.000156,0.002123,0.997596,-0.069268 ThumbLeft:0.000000,0.000000,0.000000,0.000000 ThumbRight:0.000000,0.000000,0.000000,0.000000 WristLeft:0.082140,-0.624247,-0.082175,0.772538 WristRight:0.060096,-0.288340,-0.483799,0.824128 END:
KINECT_DATA POSITION:8.788396,-2.265331,-2.273488 HEAD_JOINT1:0.972716,0.195024,-0.000000,0.125654 LARM_JOINT2:0.823538,0.000000,-0.005770,-0.567232 LARM_JOINT3:0.969481,0.000000,-0.176297,-0.170370 LLEG_JOINT2:0.999108,0.020028,0.000000,0.037174 LLEG_JOINT4:0.995301,0.095334,0.000000,-0.016923 RARM_JOINT2:0.818463,0.000000,0.373780,0.436357 RARM_JOINT3:0.966725,0.000000,0.236505,-0.097514 RLEG_JOINT2:0.998362,0.013528,0.000000,-0.055599 RLEG_JOINT4:0.995031,0.089870,0.000000,0.042851 WAIST:0.999911,0.000000,-0.012110,0.005590 WAIST_JOINT0:0.999697,0.000000,-0.005303,0.024053 WAIST_JOINT1:0.997225,0.074227,0.000000,-0.005695 END:
KINECT_DATA_Sensor  AnkleLeft:0.067930,0.747202,-0.096542,-0.654029 AnkleRight:0.073748,0.734780,0.072642,0.670360 ElbowLeft:-0.016501,0.899983,-0.192384,-0.390829 ElbowRight:-0.318030,0.736759,-0.018908,0.596394 FootLeft:0.000000,0.000000,0.000000,0.000000 FootRight:0.000000,0.000000,0.000000,0.000000 HandLeft:-0.017855,0.735495,0.069844,-0.673684 HandRight:0.189976,-0.416446,-0.508918,0.729030 HandTipLeft:0.000000,0.000000,0.000000,0.000000 HandTipRight:0.000000,0.000000,0.000000,0.000000 Head:0.000000,0.000000,0.000000,0.000000 HipLeft:0.116276,-0.673791,0.707969,-0.176823 HipRight:-0.109128,0.682789,0.702269,-0.169437 KneeLeft:-0.016537,0.715126,-0.044256,-0.697397 KneeRight:-0.025163,0.698322,0.045316,0.713904 Neck:-0.000079,0.000684,0.995908,-0.090373 ShoulderLeft:0.007938,0.766229,-0.637627,0.079135 ShoulderRight:0.008537,0.801639,0.593186,-0.073706 SpineBase:0.011653,0.002871,0.998698,-0.049586 SpineMid:0.005998,0.003152,0.998748,-0.049569 SpineShoulder:0.000076,0.001954,0.997609,-0.069085 ThumbLeft:0.000000,0.000000,0.000000,0.000000 ThumbRight:0.000000,0.000000,0.000000,0.000000 WristLeft:-0.092637,0.728741,0.071582,-0.674708 WristRight:0.154029,-0.443945,-0.463960,0.750952 END:
KINECT_DATA POSITION:8.808386,-2.264590,-2.305567 HEAD_JOINT1:0.972539,0.195367,-0.000000,0.126492 LARM_JOINT2:0.823594,0.000000,-0.005824,-0.567150 LARM_JOINT3:0.969330,0.000000,-0.176251,-0.171276 LLEG_JOINT2:0.999099,0.020546,0.000000,0.037123 LLEG_JOINT4:0.995601,0.092028,0.000000,-0.017607 RARM_JOINT2:0.818434,0.000000,0.372507,0.437497 RARM_JOINT3:0.965949,0.000000,0.239143,-0.098758 RLEG_JOINT2:0.998389,0.013156,0.000000,-0.055202 RLEG_JOINT4:0.994950,0.090666,0.000000,0.043070 WAIST:0.999912,0.000000,-0.012262,0.005078 WAIST_JOINT0:0.999699,0.000000,-0.005451,0.023918 WAIST_JOINT1:0.997237,0.074092,0.000000,-0.005407 END:
KINECT_DATA_Sensor  AnkleLeft:0.061175,0.708794,-0.097451,-0.695969 AnkleRight:0.074208,0.735172,0.072759,0.669866 ElbowLeft:-0.016582,0.900222,-0.192195,-0.390367 ElbowRight:-0.317085,0.735720,-0.018678,0.598184 FootLeft:0.000000,0.000000,0.000000,0.000000 FootRight:0.000000,0.000000,0.000000,0.000000 HandLeft:0.011181,-0.694545,-0.072124,0.715737 HandRight:0.077884,-0.249038,-0.540135,0.800106 HandTipLeft:0.000000,0.000000,0.000000,0.000000 HandTipRight:0.000000,0.000000,0.000000,0.000000 Head:0.000000,0.000000,0.000000,0.000000 HipLeft:0.116607,-0.674023,0.707632,-0.177065 HipRight:-0.109223,0.682392,0.702642,-0.169425 KneeLeft:-0.015782,0.715275,-0.044227,-0.697264 KneeRight:-0.025508,0.698173,0.045136,0.714049 Neck:0.000108,0.000432,0.995921,-0.090223 ShoulderLeft:0.007267,0.766410,-0.637369,0.079517 ShoulderRight:0.008097,0.801545,0.593308,-0.073801 SpineBase:0.011846,0.002667,0.998698,-0.049537 SpineMid:0.006187,0.002947,0.998750,-0.049521 SpineShoulder:0.000263,0.001751,0.997618,-0.068955 ThumbLeft:0.000000,0.000000,0.000000,0.000000 ThumbRight:0.000000,0.000000,0.000000,0.000000 WristLeft:0.087655,-0.683821,-0.078003,0.720153 WristRight:0.051193,-0.272629,-0.487309,0.827999 END:
KINECT_DATA POSITION:8.818954,-2.263892,-2.328861 HEAD_JOINT1:0.972578,0.195309,-0.000000,0.126281 LARM_JOINT2:0.823551,0.000000,-0.006531,-0.567204 LARM_JOINT3:0.969562,0.000000,-0.175731,-0.170497 LLEG_JOINT2:0.999095,0.020402,0.000000,0.037327 LLEG_JOINT4:0.995450,0.093575,0.000000,-0.017958 RARM_JOINT2:0.819762,0.000000,0.366860,0.439777 RARM_JOINT3:0.962144,0.000000,0.251901,-0.104043 RLEG_JOINT2:0.998401,0.012400,0.000000,-0.055160 RLEG_JOINT4:0.994839,0.091973,0.000000,0.042846 WAIST:0.999907,0.000000,-0.012665,0.004959 WAIST_JOINT0:0.999703,0.000000,-0.005592,0.023717 WAIST_JOINT1:0.997242,0.074038,0.000000,-0.005260 END:
KINECT_DATA_Sensor  AnkleLeft:0.062282,0.708713,-0.098304,-0.695833 AnkleRight:0.074628,0.736317,0.073146,0.668519 ElbowLeft:-0.016856,0.901165,-0.191903,-0.388318 ElbowRight:-0.314495,0.736324,-0.013828,0.598939 FootLeft:0.000000,0.000000,0.000000,0.000000 FootRight:0.000000,0.000000,0.000000,0.000000 HandLeft:0.006554,-0.615084,-0.071642,0.785173 HandRight:0.073830,-0.234126,-0.557683,0.792921 HandTipLeft:0.000000,0.000000,0.000000,0.000000 HandTipRight:0.000000,0.000000,0.000000,0.000000 Head:0.000000,0.000000,0.000000,0.000000 HipLeft:0.117008,-0.673972,0.707500,-0.177523 HipRight:-0.109159,0.682317,0.702746,-0.169341 KneeLeft:-0.015960,0.715561,-0.044178,-0.696969 KneeRight:-0.026087,0.697852,0.044673,0.714372 Neck:0.000242,0.000501,0.995930,-0.090125 ShoulderLeft:0.007153,0.766579,-0.637162,0.079562 ShoulderRight:0.008147,0.801577,0.593280,-0.073665 SpineBase:0.012261,0.002714,0.998692,-0.049572 SpineMid:0.006463,0.003001,0.998746,-0.049555 SpineShoulder:0.000399,0.001832,0.997621,-0.068914 ThumbLeft:0.000000,0.000000,0.000000,0.000000 ThumbRight:0.000000,0.000000,0.000000,0.000000 WristLeft:0.078581,-0.606056,-0.086568,0.786783 WristRight:0.047296,-0.260252,-0.491272,0.829870 END:
KINECT_DATA POSITION:8.793084,-2.247416,-2.219927 HEAD_JOINT1:0.974671,0.185535,-0.000000,0.124875 LARM_JOINT2:0.826053,0.000000,-0.006494,-0.563555 LARM_JOINT3:0.965363,0.000000,-0.193668,-0.174834 LLEG_JOINT2:0.999016,0.022447,0.000000,0.038248 LLEG_JOINT4:0.995751,0.090389,0.000000,-0.017595 RARM_JOINT2:0.825092,0.000000,0.251912,0.505731 RARM_JOINT3:0.888770,0.000000,0.434612,-0.145601 RLEG_JOINT2:0.998458,0.011830,0.000000,-0.054236 RLEG_JOINT4:0.994798,0.092965,0.000000,0.041649 WAIST:0.999856,0.000000,-0.016380,0.004467 WAIST_JOINT0:0.999694,0.000000,-0.008284,0.023321 WAIST_JOINT1:0.997436,0.071062,0.000000,-0.008412 END:
KINECT_DATA_Sensor  AnkleLeft:0.060425,0.710556,-0.098355,-0.694107 AnkleRight:0.071606,0.705222,0.076778,0.701171 ElbowLeft:-0.020588,0.902583,-0.191267,-0.385146 ElbowRight:-0.238917,0.706764,0.042460,0.664530 FootLeft:0.000000,0.000000,0.000000,0.000000 FootRight:0.000000,0.000000,0.000000,0.000000 HandLeft:0.034498,-0.603739,-0.120517,0.787264 HandRight:-0.628536,0.765091,0.124777,-0.063310 HandTipLeft:0.000000,0.000000,0.000000,0.000000 HandTipRight:0.000000,0.000000,0.000000,0.000000 Head:0.000000,0.000000,0.000000,0.000000 HipLeft:0.121684,-0.674055,0.706290,-0.178878 HipRight:-0.108499,0.682622,0.703097,-0.167064 KneeLeft:-0.015000,0.718143,-0.045894,-0.694219 KneeRight:-0.026021,0.695233,0.044070,0.716960 Neck:0.004954,-0.003770,0.996246,-0.086345 ShoulderLeft:0.002506,0.769265,-0.633779,0.080927 ShoulderRight:0.009703,0.798746,0.597696,-0.068334 SpineBase:0.015953,0.001162,0.998734,-0.047684 SpineMid:0.010710,0.001412,0.998804,-0.047678 SpineShoulder:0.005134,-0.001444,0.997783,-0.066338 ThumbLeft:0.000000,0.000000,0.000000,0.000000 ThumbRight:0.000000,0.000000,0.000000,0.000000 WristLeft:0.077681,-0.597004,-0.098808,0.792331 WristRight:-0.555624,0.819934,0.126725,-0.054147 END:
KINECT_DATA POSITION:8.658013,-2.233793,-1.887238 HEAD_JOINT1:0.978547,0.163449,-0.000000,0.125417 LARM_JOINT2:0.830485,0.000000,-0.007684,-0.556988 LARM_JOINT3:0.964457,0.000000,-0.193825,-0.179598 LLEG_JOINT2:0.998663,0.028229,0.000000,0.043300 LLEG_JOINT4:0.995583,0.091556,0.000000,-0.020802 RARM_JOINT2:0.816457,0.000000,0.134718,0.561470 RARM_JOINT3:0.752257,0.000000,0.640386,-0.154967 RLEG_JOINT2:0.998744,0.009290,0.000000,-0.049228 RLEG_JOINT4:0.994110,0.101363,0.000000,0.038350 WAIST:0.999672,0.000000,-0.025619,0.000705 WAIST_JOINT0:0.999567,0.000000,-0.024998,0.015524 WAIST_JOINT1:0.997816,0.064250,0.000000,-0.015359 END:
KINECT_DATA_Sensor  AnkleLeft:0.066011,0.718861,-0.102303,-0.684409 AnkleRight:0.075689,0.701747,0.081109,0.703735 ElbowLeft:-0.026932,0.909524,-0.185362,-0.371055 ElbowRight:-0.163849,0.675562,0.097391,0.712239 FootLeft:0.000000,0.000000,0.000000,0.000000 FootRight:0.000000,0.000000,0.000000,0.000000 HandLeft:0.026379,-0.587272,-0.135704,0.797496 HandRight:0.715503,-0.584100,-0.310150,0.225143 HandTipLeft:0.000000,0.000000,0.000000,0.000000 HandTipRight:0.000000,0.000000,0.000000,0.000000 Head:0.000000,0.000000,0.000000,0.000000 HipLeft:0.133116,-0.676382,0.701517,-0.180724 HipRight:-0.106182,0.681751,0.705721,-0.160929 KneeLeft:-0.012395,0.724689,-0.050799,-0.687089 KneeRight:-0.026634,0.688600,0.041615,0.723457 Neck:0.023273,-0.015264,0.996493,-0.078916 ShoulderLeft:-0.006916,0.776640,-0.624214,0.084500 ShoulderRight:0.024191,0.794429,0.605232,-0.044637 SpineBase:0.025262,-0.005359,0.998764,-0.042463 SpineMid:0.024472,-0.005326,0.998784,-0.042467 SpineShoulder:0.023336,-0.012088,0.997849,-0.060057 ThumbLeft:0.000000,0.000000,0.000000,0.000000 ThumbRight:0.000000,0.000000,0.000000,0.000000 WristLeft:0.071563,-0.580059,-0.111193,0.803770 WristRight:-0.597487,0.706485,0.290114,-0.244382 END:
KINECT_DATA POSITION:8.542308,-2.351789,-1.570833 HEAD_JOINT1:0.981414,0.148849,-0.000000,0.121121 LARM_JOINT2:0.831467,0.000000,-0.009482,-0.555493 LARM_JOINT3:0.963243,0.000000,-0.194444,-0.185350 LLEG_JOINT2:0.998249,0.033932,0.000000,0.048444 LLEG_JOINT4:0.996229,0.085955,0.000000,-0.011848 RARM_JOINT2:0.809438,0.000000,0.072904,0.582663 RARM_JOINT3:0.640647,0.000000,0.760047,-0.109084 RLEG_JOINT2:0.999016,0.009047,0.000000,-0.043414 RLEG_JOINT4:0.994361,0.099598,0.000000,0.036417 WAIST:0.999310,0.000000,-0.036811,-0.004853 WAIST_JOINT0:0.999067,0.000000,-0.041822,0.010812 WAIST_JOINT1:0.998230,0.057236,0.000000,-0.016174 END:
KINECT_DATA_Sensor  AnkleLeft:0.058875,0.728940,-0.108639,-0.673333 AnkleRight:0.073668,0.692545,0.080221,0.713106 ElbowLeft:-0.033472,0.917099,-0.177453,-0.355414 ElbowRight:-0.126164,0.662450,0.125441,0.727672 FootLeft:0.000000,0.000000,0.000000,0.000000 FootRight:0.000000,0.000000,0.000000,0.000000 HandLeft:-0.044070,0.727353,0.157164,-0.666570 HandRight:0.764895,-0.510130,-0.310147,0.241891 HandTipLeft:0.000000,0.000000,0.000000,0.000000 HandTipRight:0.000000,0.000000,0.000000,0.000000 Head:0.000000,0.000000,0.000000,0.000000 HipLeft:0.145034,-0.679338,0.695614,-0.183264 HipRight:-0.103404,0.679764,0.709961,-0.152262 KneeLeft:-0.008885,0.732746,-0.054420,-0.678264 KneeRight:-0.026315,0.680314,0.041413,0.731277 Neck:0.040209,-0.021199,0.996398,-0.071585 ShoulderLeft:-0.017425,0.781653,-0.617180,0.088336 ShoulderRight:0.035145,0.794469,0.605873,-0.022393 SpineBase:0.036702,-0.010593,0.998602,-0.036539 SpineMid:0.038532,-0.010660,0.998533,-0.036519 SpineShoulder:0.040137,-0.018399,0.997603,-0.053272 ThumbLeft:0.000000,0.000000,0.000000,0.000000 ThumbRight:0.000000,0.000000,0.000000,0.000000 WristLeft:-0.088898,0.727135,0.105538,-0.672483 WristRight:0.674530,-0.625103,-0.308898,0.242564 END:
KINECT_DATA POSITION:8.463481,-2.449382,-1.460850 HEAD_JOINT1:0.983008,0.140979,-0.000000,0.117561 LARM_JOINT2:0.830837,0.000000,-0.011912,-0.556389 LARM_JOINT3:0.963706,0.000000,-0.188676,-0.188871 LLEG_JOINT2:0.998096,0.035540,0.000000,0.050415 LLEG_JOINT4:0.995282,0.095563,0.000000,-0.016754 RARM_JOINT2:0.812553,0.000000,0.077804,0.577672 RARM_JOINT3:0.604153,0.000000,0.790972,-0.096753 RLEG_JOINT2:0.999118,0.008358,0.000000,-0.041146 RLEG_JOINT4:0.994091,0.102193,0.000000,0.036593 WAIST:0.999055,0.000000,-0.042786,-0.007599 WAIST_JOINT0:0.998610,0.000000,-0.052048,0.008283 WAIST_JOINT1:0.998490,0.052365,0.000000,-0.016612 END:
KINECT_DATA_Sensor  AnkleLeft:0.070027,0.732520,-0.113096,-0.667623 AnkleRight:0.075129,0.686580,0.081290,0.718578 ElbowLeft:-0.037544,0.922642,-0.170702,-0.343778 ElbowRight:-0.136709,0.664151,0.127252,0.723893 FootLeft:0.000000,0.000000,0.000000,0.000000 FootRight:0.000000,0.000000,0.000000,0.000000 HandLeft:-0.028684,0.726865,0.153026,-0.668900 HandRight:0.744772,-0.482046,-0.356554,0.292944 HandTipLeft:0.000000,0.000000,0.000000,0.000000 HandTipRight:0.000000,0.000000,0.000000,0.000000 Head:0.000000,0.000000,0.000000,0.000000 HipLeft:0.152022,-0.680630,0.692666,-0.183971 HipRight:-0.102137,0.678473,0.712356,-0.147617 KneeLeft:-0.007644,0.736999,-0.054923,-0.673616 KneeRight:-0.027003,0.675867,0.041352,0.735367 Neck:0.050752,-0.024139,0.996153,-0.067230 ShoulderLeft:-0.026204,0.785504,-0.611489,0.091529 ShoulderRight:0.039441,0.794675,0.605681,-0.009307 SpineBase:0.042743,-0.014273,0.998443,-0.032876 SpineMid:0.046703,-0.014404,0.998266,-0.032819 SpineShoulder:0.050581,-0.021762,0.997317,-0.048233 ThumbLeft:0.000000,0.000000,0.000000,0.000000 ThumbRight:0.000000,0.000000,0.000000,0.000000 WristLeft:-0.084679,0.723999,0.115711,-0.674734 WristRight:0.697494,-0.547462,-0.362492,0.287032 END:
KINECT_DATA POSITION:8.414784,-2.492926,-1.433718 HEAD_JOINT1:0.983344,0.141534,-0.000000,0.114034 LARM_JOINT2:0.829937,0.000000,-0.010167,-0.557764 LARM_JOINT3:0.967190,0.000000,-0.176654,-0.182583 LLEG_JOINT2:0.998095,0.035755,0.000000,0.050273 LLEG_JOINT4:0.995639,0.090791,0.000000,-0.021453 RARM_JOINT2:0.823119,0.000000,0.084186,0.561594 RARM_JOINT3:0.589530,0.000000,0.804952,-0.067133 RLEG_JOINT2:0.999134,0.008872,0.000000,-0.040650 RLEG_JOINT4:0.994265,0.100527,0.000000,0.036491 WAIST:0.999016,0.000000,-0.043654,-0.007850 WAIST_JOINT0:0.999022,0.000000,-0.043722,0.006641 WAIST_JOINT1:0.998655,0.049304,0.000000,-0.016063 END:
KINECT_DATA_Sensor  AnkleLeft:0.072755,0.747552,-0.104864,-0.651825 AnkleRight:0.079957,0.735739,0.074835,0.668352 ElbowLeft:-0.038617,0.922736,-0.168838,-0.344327 ElbowRight:-0.153411,0.674181,0.136580,0.709430 FootLeft:0.000000,0.000000,0.000000,0.000000 FootRight:0.000000,0.000000,0.000000,0.000000 HandLeft:0.004344,-0.625591,-0.100528,0.773635 HandRight:0.789050,-0.524593,-0.206935,0.243679 HandTipLeft:0.000000,0.000000,0.000000,0.000000 HandTipRight:0.000000,0.000000,0.000000,0.000000 Head:0.000000,0.000000,0.000000,0.000000 HipLeft:0.154296,-0.681135,0.692201,-0.181949 HipRight:-0.102732,0.678569,0.712669,-0.145236 KneeLeft:-0.007266,0.737643,-0.054796,-0.672925 KneeRight:-0.026435,0.675232,0.041529,0.735960 Neck:0.042552,-0.023114,0.996725,-0.064764 ShoulderLeft:-0.030460,0.787445,-0.609227,0.088567 ShoulderRight:0.024514,0.796342,0.604037,-0.019450 SpineBase:0.043591,-0.015655,0.998474,-0.030069 SpineMid:0.042989,-0.015637,0.998500,-0.030079 SpineShoulder:0.042333,-0.021183,0.997854,-0.045236 ThumbLeft:0.000000,0.000000,0.000000,0.000000 ThumbRight:0.000000,0.000000,0.000000,0.000000 WristLeft:0.066569,-0.616219,-0.129739,0.773957 WristRight:0.769290,-0.556877,-0.230030,0.212524 END:
