EastLYD/RoboCupatHomeSim/InteractiveCleanUp/JapanOpen2016/Motion_Data/File43.dat
KINECT_DATA POSITION:3.293192,-1.586243,-2.178741 HEAD_JOINT1:0.979804,0.167886,-0.000000,0.108623 LARM_JOINT2:0.830558,0.000000,-0.027512,-0.556252 LARM_JOINT3:0.975447,0.000000,-0.162086,-0.149100 LLEG_JOINT2:0.998479,0.017383,0.000000,0.052317 LLEG_JOINT4:0.995150,0.094865,0.000000,-0.026036 RARM_JOINT2:0.802072,0.000000,-0.099552,0.588872 RARM_JOINT3:0.976309,0.000000,0.152462,0.153544 RLEG_JOINT2:0.999489,0.014141,0.000000,-0.028668 RLEG_JOINT4:0.994897,0.096083,0.000000,0.030804 WAIST:0.999973,0.000000,-0.007070,-0.001995 WAIST_JOINT0:0.999536,0.000000,-0.030417,-0.001563 WAIST_JOINT1:0.996902,0.076118,0.000000,-0.019829 END:
KINECT_DATA_Sensor  AnkleLeft:0.066670,0.740893,-0.093181,-0.661777 AnkleRight:0.086285,0.766465,0.068359,0.632783 ElbowLeft:-0.028704,0.896987,-0.176747,-0.404168 ElbowRight:0.055640,0.849458,0.221043,0.475884 FootLeft:0.000000,0.000000,0.000000,0.000000 FootRight:0.000000,0.000000,0.000000,0.000000 HandLeft:-0.096273,0.875934,0.012879,0.472553 HandRight:0.031035,-0.379365,0.016777,0.924574 HandTipLeft:0.000000,0.000000,0.000000,0.000000 HandTipRight:0.000000,0.000000,0.000000,0.000000 Head:0.000000,0.000000,0.000000,0.000000 HipLeft:0.119043,-0.678031,0.704946,-0.170745 HipRight:-0.110878,0.671944,0.709547,-0.180943 KneeLeft:-0.023652,0.710944,-0.047695,-0.701230 KneeRight:-0.011415,0.702841,0.031771,0.710545 Neck:0.028882,-0.024989,0.995008,-0.092201 ShoulderLeft:0.032033,0.774839,-0.627574,0.068919 ShoulderRight:0.070743,0.768603,0.635400,-0.022631 SpineBase:0.006299,-0.018671,0.998520,-0.050698 SpineMid:0.017357,-0.019231,0.998389,-0.050488 SpineShoulder:0.028719,-0.022257,0.996851,-0.070483 ThumbLeft:0.000000,0.000000,0.000000,0.000000 ThumbRight:0.000000,0.000000,0.000000,0.000000 WristLeft:-0.083028,0.881076,-0.077581,0.459122 WristRight:-0.043744,-0.373348,-0.040175,0.925788 END:
KINECT_DATA POSITION:3.234172,-1.594210,-2.202308 HEAD_JOINT1:0.979517,0.169462,-0.000000,0.108765 LARM_JOINT2:0.830602,0.000000,-0.025229,-0.556295 LARM_JOINT3:0.975386,0.000000,-0.163037,-0.148465 LLEG_JOINT2:0.998466,0.017408,0.000000,0.052556 LLEG_JOINT4:0.994900,0.096953,0.000000,-0.027837 RARM_JOINT2:0.801179,0.000000,-0.101433,0.589765 RARM_JOINT3:0.975063,0.000000,0.149250,0.164248 RLEG_JOINT2:0.999499,0.014544,0.000000,-0.028128 RLEG_JOINT4:0.995079,0.093450,0.000000,0.032943 WAIST:0.999967,0.000000,-0.007915,-0.001769 WAIST_JOINT0:0.999495,0.000000,-0.031729,-0.001790 WAIST_JOINT1:0.996947,0.075419,0.000000,-0.020197 END:
KINECT_DATA_Sensor  AnkleLeft:0.068518,0.737384,-0.094050,-0.665375 AnkleRight:0.084079,0.743470,0.067630,0.660007 ElbowLeft:-0.027792,0.897036,-0.177199,-0.403923 ElbowRight:0.057939,0.850814,0.219994,0.473668 FootLeft:0.000000,0.000000,0.000000,0.000000 FootRight:0.000000,0.000000,0.000000,0.000000 HandLeft:-0.095943,0.859551,0.004512,0.501943 HandRight:0.054966,-0.465680,0.042165,0.882237 HandTipLeft:0.000000,0.000000,0.000000,0.000000 HandTipRight:0.000000,0.000000,0.000000,0.000000 Head:0.000000,0.000000,0.000000,0.000000 HipLeft:0.119715,-0.677905,0.704976,-0.170652 HipRight:-0.110362,0.672321,0.709491,-0.180076 KneeLeft:-0.024006,0.711507,-0.048019,-0.700625 KneeRight:-0.010564,0.702263,0.031516,0.711141 Neck:0.030208,-0.025039,0.995036,-0.091458 ShoulderLeft:0.030841,0.774624,-0.627852,0.069343 ShoulderRight:0.071252,0.768168,0.635923,-0.021054 SpineBase:0.007111,-0.018899,0.998533,-0.050244 SpineMid:0.018416,-0.019467,0.998388,-0.050027 SpineShoulder:0.030038,-0.022381,0.996857,-0.069807 ThumbLeft:0.000000,0.000000,0.000000,0.000000 ThumbRight:0.000000,0.000000,0.000000,0.000000 WristLeft:-0.080430,0.864749,-0.079633,0.489284 WristRight:-0.036509,-0.456004,-0.042494,0.888212 END:
KINECT_DATA POSITION:3.089510,-1.595037,-2.271318 HEAD_JOINT1:0.979854,0.167623,-0.000000,0.108579 LARM_JOINT2:0.833032,0.000000,-0.025678,-0.552629 LARM_JOINT3:0.972665,0.000000,-0.189163,-0.134685 LLEG_JOINT2:0.998363,0.017310,0.000000,0.054510 LLEG_JOINT4:0.995133,0.094730,0.000000,-0.027150 RARM_JOINT2:0.800533,0.000000,-0.102248,0.590501 RARM_JOINT3:0.974115,0.000000,0.155500,0.164069 RLEG_JOINT2:0.999562,0.013548,0.000000,-0.026321 RLEG_JOINT4:0.995111,0.094351,0.000000,0.029192 WAIST:0.999967,0.000000,-0.008007,-0.001520 WAIST_JOINT0:0.999475,0.000000,-0.032383,-0.000923 WAIST_JOINT1:0.996978,0.074896,0.000000,-0.020627 END:
KINECT_DATA_Sensor  AnkleLeft:0.066000,0.745660,-0.093805,-0.656381 AnkleRight:0.084858,0.762193,0.066459,0.638314 ElbowLeft:-0.034279,0.887994,-0.179785,-0.421864 ElbowRight:0.057930,0.849688,0.219398,0.475962 FootLeft:0.000000,0.000000,0.000000,0.000000 FootRight:0.000000,0.000000,0.000000,0.000000 HandLeft:-0.156067,0.887024,-0.049890,0.431673 HandRight:0.058290,-0.480840,0.024211,0.874533 HandTipLeft:0.000000,0.000000,0.000000,0.000000 HandTipRight:0.000000,0.000000,0.000000,0.000000 Head:0.000000,0.000000,0.000000,0.000000 HipLeft:0.120123,-0.677856,0.705047,-0.170266 HipRight:-0.110589,0.672544,0.709282,-0.179925 KneeLeft:-0.025648,0.711496,-0.049493,-0.700476 KneeRight:-0.009831,0.702253,0.029354,0.711254 Neck:0.030801,-0.025191,0.995063,-0.090921 ShoulderLeft:0.029187,0.774414,-0.628105,0.070109 ShoulderRight:0.070422,0.769011,0.635004,-0.020817 SpineBase:0.007174,-0.019169,0.998551,-0.049775 SpineMid:0.018732,-0.019743,0.998401,-0.049550 SpineShoulder:0.030619,-0.022604,0.996871,-0.069275 ThumbLeft:0.000000,0.000000,0.000000,0.000000 ThumbRight:0.000000,0.000000,0.000000,0.000000 WristLeft:-0.090993,0.897263,-0.084684,0.423636 WristRight:-0.033512,-0.473020,-0.044662,0.879281 END:
KINECT_DATA POSITION:2.928473,-1.584454,-2.323592 HEAD_JOINT1:0.981028,0.161300,-0.000000,0.107546 LARM_JOINT2:0.841102,0.000000,-0.034858,-0.539753 LARM_JOINT3:0.963658,0.000000,-0.243432,-0.110017 LLEG_JOINT2:0.998292,0.015833,0.000000,0.056228 LLEG_JOINT4:0.995143,0.093397,0.000000,-0.031109 RARM_JOINT2:0.800066,0.000000,-0.102402,0.591108 RARM_JOINT3:0.974433,0.000000,0.156916,0.160802 RLEG_JOINT2:0.999606,0.012983,0.000000,-0.024868 RLEG_JOINT4:0.994993,0.096005,0.000000,0.027789 WAIST:0.999974,0.000000,-0.007195,-0.000910 WAIST_JOINT0:0.999473,0.000000,-0.032456,0.000945 WAIST_JOINT1:0.996999,0.074611,0.000000,-0.020652 END:
KINECT_DATA_Sensor  AnkleLeft:0.065409,0.747661,-0.090425,-0.654636 AnkleRight:0.084299,0.745823,0.068937,0.657183 ElbowLeft:-0.062644,0.852200,-0.185158,-0.485332 ElbowRight:0.057407,0.848520,0.218391,0.478564 FootLeft:0.000000,0.000000,0.000000,0.000000 FootRight:0.000000,0.000000,0.000000,0.000000 HandLeft:-0.161731,0.566994,-0.220325,0.777057 HandRight:0.045153,-0.468630,0.019823,0.882017 HandTipLeft:0.000000,0.000000,0.000000,0.000000 HandTipRight:0.000000,0.000000,0.000000,0.000000 Head:0.000000,0.000000,0.000000,0.000000 HipLeft:0.119567,-0.677665,0.705517,-0.169470 HipRight:-0.111238,0.672949,0.708759,-0.180072 KneeLeft:-0.028305,0.710770,-0.050097,-0.701067 KneeRight:-0.008809,0.702873,0.027482,0.710730 Neck:0.030683,-0.024655,0.995106,-0.090640 ShoulderLeft:0.028770,0.773348,-0.629448,0.070000 ShoulderRight:0.069949,0.769960,0.633906,-0.020777 SpineBase:0.006329,-0.018728,0.998581,-0.049456 SpineMid:0.018250,-0.019317,0.998434,-0.049229 SpineShoulder:0.030502,-0.022152,0.996907,-0.068960 ThumbLeft:0.000000,0.000000,0.000000,0.000000 ThumbRight:0.000000,0.000000,0.000000,0.000000 WristLeft:-0.048125,0.590611,-0.169475,0.787490 WristRight:-0.031729,-0.462497,-0.046234,0.884846 END:
KINECT_DATA POSITION:2.746260,-1.568069,-2.316952 HEAD_JOINT1:0.981755,0.157396,-0.000000,0.106693 LARM_JOINT2:0.850267,0.000000,-0.053327,-0.523643 LARM_JOINT3:0.958504,0.000000,-0.274515,-0.076884 LLEG_JOINT2:0.998198,0.014736,0.000000,0.058171 LLEG_JOINT4:0.994743,0.097204,0.000000,-0.032198 RARM_JOINT2:0.800868,0.000000,-0.099648,0.590492 RARM_JOINT3:0.972717,0.000000,0.167876,0.160125 RLEG_JOINT2:0.999617,0.013636,0.000000,-0.024093 RLEG_JOINT4:0.994846,0.097438,0.000000,0.028072 WAIST:0.999985,0.000000,-0.005510,-0.000104 WAIST_JOINT0:0.999474,0.000000,-0.032368,0.002058 WAIST_JOINT1:0.997058,0.073818,0.000000,-0.020657 END:
KINECT_DATA_Sensor  AnkleLeft:0.067060,0.749945,-0.092917,-0.651499 AnkleRight:0.088155,0.758011,0.067512,0.642720 ElbowLeft:-0.096910,0.821570,-0.186289,-0.530027 ElbowRight:0.054624,0.850595,0.217422,0.475638 FootLeft:0.000000,0.000000,0.000000,0.000000 FootRight:0.000000,0.000000,0.000000,0.000000 HandLeft:-0.259935,0.834665,-0.198167,0.443281 HandRight:0.052653,-0.418828,-0.018574,0.906347 HandTipLeft:0.000000,0.000000,0.000000,0.000000 HandTipRight:0.000000,0.000000,0.000000,0.000000 Head:0.000000,0.000000,0.000000,0.000000 HipLeft:0.118917,-0.677484,0.706125,-0.168111 HipRight:-0.112847,0.673367,0.707943,-0.180716 KneeLeft:-0.030944,0.709433,-0.051298,-0.702222 KneeRight:-0.007277,0.704081,0.026803,0.709577 Neck:0.030542,-0.024031,0.995207,-0.089732 ShoulderLeft:0.027884,0.773477,-0.629370,0.069639 ShoulderRight:0.068853,0.771054,0.632701,-0.020597 SpineBase:0.004606,-0.018243,0.998632,-0.048778 SpineMid:0.017315,-0.018862,0.998493,-0.048542 SpineShoulder:0.030364,-0.021600,0.996980,-0.068133 ThumbLeft:0.000000,0.000000,0.000000,0.000000 ThumbRight:0.000000,0.000000,0.000000,0.000000 WristLeft:-0.147481,0.866226,-0.176555,0.443543 WristRight:-0.029437,-0.416550,-0.048878,0.907321 END:
KINECT_DATA POSITION:2.597119,-1.589689,-2.230036 HEAD_JOINT1:0.981896,0.157693,-0.000000,0.104939 LARM_JOINT2:0.862772,0.000000,-0.075882,-0.499866 LARM_JOINT3:0.961615,0.000000,-0.273268,-0.024930 LLEG_JOINT2:0.998231,0.012664,0.000000,0.058087 LLEG_JOINT4:0.995090,0.093054,0.000000,-0.033712 RARM_JOINT2:0.801375,0.000000,-0.099870,0.589766 RARM_JOINT3:0.973085,0.000000,0.165720,0.160133 RLEG_JOINT2:0.999599,0.014028,0.000000,-0.024605 RLEG_JOINT4:0.994919,0.096707,0.000000,0.027983 WAIST:0.999998,0.000000,-0.001751,0.001282 WAIST_JOINT0:0.999469,0.000000,-0.032451,0.002950 WAIST_JOINT1:0.997206,0.071948,0.000000,-0.020089 END:
KINECT_DATA_Sensor  AnkleLeft:0.062987,0.749030,-0.088352,-0.653591 AnkleRight:0.086931,0.749002,0.068591,0.653250 ElbowLeft:-0.141426,0.782888,-0.186918,-0.576322 ElbowRight:0.051948,0.850641,0.216157,0.476431 FootLeft:0.000000,0.000000,0.000000,0.000000 FootRight:0.000000,0.000000,0.000000,0.000000 HandLeft:0.097630,0.143044,-0.355228,0.918596 HandRight:0.046599,-0.592202,0.007475,0.804406 HandTipLeft:0.000000,0.000000,0.000000,0.000000 HandTipRight:0.000000,0.000000,0.000000,0.000000 Head:0.000000,0.000000,0.000000,0.000000 HipLeft:0.117505,-0.677445,0.707120,-0.165052 HipRight:-0.116191,0.674226,0.706305,-0.181804 KneeLeft:-0.033139,0.706633,-0.050858,-0.704972 KneeRight:-0.006484,0.706737,0.026435,0.706953 Neck:0.030893,-0.022445,0.995432,-0.087503 ShoulderLeft:0.023732,0.775008,-0.627540,0.070664 ShoulderRight:0.064942,0.772844,0.630909,-0.021174 SpineBase:0.000809,-0.017277,0.998738,-0.047161 SpineMid:0.015571,-0.017972,0.998617,-0.046900 SpineShoulder:0.030724,-0.020239,0.997127,-0.066218 ThumbLeft:0.000000,0.000000,0.000000,0.000000 ThumbRight:0.000000,0.000000,0.000000,0.000000 WristLeft:0.098742,0.157643,-0.263521,0.946549 WristRight:-0.015059,-0.588416,-0.057291,0.806386 END:
KINECT_DATA POSITION:2.496109,-1.649106,-1.991367 HEAD_JOINT1:0.981963,0.158229,-0.000000,0.103496 LARM_JOINT2:0.881834,0.000000,-0.107172,-0.459219 LARM_JOINT3:0.967685,0.000000,-0.251983,-0.009523 LLEG_JOINT2:0.998362,0.012923,0.000000,0.055731 LLEG_JOINT4:0.994832,0.096502,0.000000,-0.031564 RARM_JOINT2:0.803256,0.000000,-0.095254,0.587968 RARM_JOINT3:0.972892,0.000000,0.164523,0.162523 RLEG_JOINT2:0.999491,0.017147,0.000000,-0.026919 RLEG_JOINT4:0.995068,0.095577,0.000000,0.026539 WAIST:0.999979,-0.000000,0.004537,0.004558 WAIST_JOINT0:0.999566,0.000000,-0.029180,0.003953 WAIST_JOINT1:0.997312,0.070634,0.000000,-0.019495 END:
KINECT_DATA_Sensor  AnkleLeft:0.061172,0.721596,-0.094774,-0.683063 AnkleRight:0.088300,0.759023,0.069974,0.641242 ElbowLeft:-0.194605,0.765722,-0.199534,-0.579642 ElbowRight:0.048555,0.858765,0.213017,0.463453 FootLeft:0.000000,0.000000,0.000000,0.000000 FootRight:0.000000,0.000000,0.000000,0.000000 HandLeft:0.129959,0.151981,-0.372201,0.906355 HandRight:0.056084,-0.560620,0.006545,0.826146 HandTipLeft:0.000000,0.000000,0.000000,0.000000 HandTipRight:0.000000,0.000000,0.000000,0.000000 Head:0.000000,0.000000,0.000000,0.000000 HipLeft:0.114398,-0.676447,0.709607,-0.160593 HipRight:-0.121599,0.676013,0.703045,-0.184250 KneeLeft:0.033294,-0.702138,0.051882,0.709368 KneeRight:-0.003787,0.711162,0.027912,0.702463 Neck:0.027834,-0.018921,0.995720,-0.086072 ShoulderLeft:0.024047,0.775568,-0.627129,0.068008 ShoulderRight:0.061057,0.774324,0.629400,-0.023452 SpineBase:-0.005603,-0.014683,0.998847,-0.045355 SpineMid:0.010834,-0.015427,0.998804,-0.045108 SpineShoulder:0.027686,-0.017126,0.997365,-0.064830 ThumbLeft:0.000000,0.000000,0.000000,0.000000 ThumbRight:0.000000,0.000000,0.000000,0.000000 WristLeft:0.141937,0.173912,-0.289736,0.930409 WristRight:-0.012036,-0.556975,-0.056620,0.828510 END:
KINECT_DATA POSITION:2.430283,-1.678351,-1.683366 HEAD_JOINT1:0.981981,0.158628,-0.000000,0.102721 LARM_JOINT2:0.891815,0.000000,-0.131527,-0.432858 LARM_JOINT3:0.967424,0.000000,-0.253152,-0.002364 LLEG_JOINT2:0.998491,0.013331,0.000000,0.053274 LLEG_JOINT4:0.994824,0.096724,0.000000,-0.031136 RARM_JOINT2:0.803244,0.000000,-0.096214,0.587828 RARM_JOINT3:0.972446,0.000000,0.166634,0.163041 RLEG_JOINT2:0.999395,0.019275,0.000000,-0.028966 RLEG_JOINT4:0.994757,0.098244,0.000000,0.028409 WAIST:0.999915,-0.000000,0.010774,0.007302 WAIST_JOINT0:0.999618,0.000000,-0.026862,0.006486 WAIST_JOINT1:0.997404,0.069080,0.000000,-0.020337 END:
KINECT_DATA_Sensor  AnkleLeft:0.062121,0.720183,-0.095024,-0.684433 AnkleRight:0.092637,0.758426,0.072281,0.641080 ElbowLeft:-0.231710,0.749790,-0.200672,-0.586393 ElbowRight:0.047265,0.861703,0.211340,0.458879 FootLeft:0.000000,0.000000,0.000000,0.000000 FootRight:0.000000,0.000000,0.000000,0.000000 HandLeft:0.138853,0.135830,-0.384498,0.902459 HandRight:0.059389,-0.429003,-0.007030,0.901321 HandTipLeft:0.000000,0.000000,0.000000,0.000000 HandTipRight:0.000000,0.000000,0.000000,0.000000 Head:0.000000,0.000000,0.000000,0.000000 HipLeft:0.111652,-0.675811,0.711803,-0.155399 HipRight:-0.126832,0.677478,0.700244,-0.185999 KneeLeft:0.032914,-0.697699,0.052537,0.713704 KneeRight:-0.002017,0.715524,0.028877,0.697989 Neck:0.025453,-0.017636,0.995938,-0.084548 ShoulderLeft:0.023408,0.775006,-0.628089,0.065740 ShoulderRight:0.057348,0.776332,0.627221,-0.024776 SpineBase:-0.011920,-0.012835,0.998925,-0.042911 SpineMid:0.006504,-0.013624,0.998975,-0.042667 SpineShoulder:0.025315,-0.015885,0.997562,-0.063068 ThumbLeft:0.000000,0.000000,0.000000,0.000000 ThumbRight:0.000000,0.000000,0.000000,0.000000 WristLeft:0.165602,0.161378,-0.321169,0.918359 WristRight:-0.016597,-0.426338,-0.055303,0.902719 END:
KINECT_DATA POSITION:2.397765,-1.686562,-1.533890 HEAD_JOINT1:0.982466,0.156844,-0.000000,0.100802 LARM_JOINT2:0.896685,0.000000,-0.145379,-0.418115 LARM_JOINT3:0.969410,0.000000,-0.245417,-0.003770 LLEG_JOINT2:0.998517,0.013577,0.000000,0.052723 LLEG_JOINT4:0.994688,0.098414,0.000000,-0.030181 RARM_JOINT2:0.803728,0.000000,-0.095321,0.587312 RARM_JOINT3:0.972281,0.000000,0.167401,0.163239 RLEG_JOINT2:0.999378,0.019627,0.000000,-0.029300 RLEG_JOINT4:0.994638,0.099101,0.000000,0.029568 WAIST:0.999892,-0.000000,0.012073,0.008350 WAIST_JOINT0:0.999601,0.000000,-0.027082,0.008054 WAIST_JOINT1:0.997447,0.068365,0.000000,-0.020651 END:
KINECT_DATA_Sensor  AnkleLeft:0.062876,0.720213,-0.097171,-0.684030 AnkleRight:0.094517,0.757833,0.071979,0.641541 ElbowLeft:-0.248873,0.752410,-0.203826,-0.574801 ElbowRight:0.045581,0.862200,0.210804,0.458362 FootLeft:0.000000,0.000000,0.000000,0.000000 FootRight:0.000000,0.000000,0.000000,0.000000 HandLeft:0.160118,0.097065,-0.380637,0.905569 HandRight:0.058985,-0.429042,-0.006411,0.901334 HandTipLeft:0.000000,0.000000,0.000000,0.000000 HandTipRight:0.000000,0.000000,0.000000,0.000000 Head:0.000000,0.000000,0.000000,0.000000 HipLeft:0.111065,-0.675237,0.712655,-0.154411 HipRight:-0.128212,0.678009,0.699386,-0.186344 KneeLeft:0.033030,-0.696760,0.053091,0.714574 KneeRight:-0.001314,0.716441,0.028611,0.697060 Neck:0.025534,-0.017215,0.996003,-0.083839 ShoulderLeft:0.022440,0.773453,-0.630049,0.065611 ShoulderRight:0.056594,0.776872,0.626635,-0.024401 SpineBase:-0.013250,-0.011845,0.998944,-0.042361 SpineMid:0.005911,-0.012655,0.999015,-0.042126 SpineShoulder:0.025424,-0.015256,0.997616,-0.062310 ThumbLeft:0.000000,0.000000,0.000000,0.000000 ThumbRight:0.000000,0.000000,0.000000,0.000000 WristLeft:0.186551,0.121940,-0.322264,0.920041 WristRight:-0.014609,-0.426468,-0.057619,0.902547 END:
KINECT_DATA POSITION:2.376158,-1.697168,-1.430583 HEAD_JOINT1:0.982961,0.153682,-0.000000,0.100847 LARM_JOINT2:0.899352,0.000000,-0.166116,-0.404440 LARM_JOINT3:0.969968,0.000000,-0.242622,-0.017203 LLEG_JOINT2:0.998532,0.013310,0.000000,0.052502 LLEG_JOINT4:0.994802,0.097354,0.000000,-0.029860 RARM_JOINT2:0.803970,0.000000,-0.094282,0.587148 RARM_JOINT3:0.973085,0.000000,0.163912,0.161980 RLEG_JOINT2:0.999368,0.019382,0.000000,-0.029790 RLEG_JOINT4:0.994564,0.099854,0.000000,0.029511 WAIST:0.999888,-0.000000,0.011920,0.009029 WAIST_JOINT0:0.999500,0.000000,-0.030011,0.009957 WAIST_JOINT1:0.997430,0.068669,0.000000,-0.020441 END:
KINECT_DATA_Sensor  AnkleLeft:0.066627,0.757253,-0.093326,-0.642977 AnkleRight:0.094061,0.749447,0.073406,0.651225 ElbowLeft:-0.266908,0.760379,-0.202689,-0.556327 ElbowRight:0.045056,0.861636,0.210185,0.459756 FootLeft:0.000000,0.000000,0.000000,0.000000 FootRight:0.000000,0.000000,0.000000,0.000000 HandLeft:0.129030,0.072050,-0.380664,0.912828 HandRight:0.048622,-0.518009,0.014147,0.853875 HandTipLeft:0.000000,0.000000,0.000000,0.000000 HandTipRight:0.000000,0.000000,0.000000,0.000000 Head:0.000000,0.000000,0.000000,0.000000 HipLeft:0.110782,-0.674567,0.713235,-0.154866 HipRight:-0.128125,0.678337,0.699072,-0.186389 KneeLeft:0.033555,-0.696825,0.053220,0.714476 KneeRight:-0.001351,0.716360,0.028300,0.697155 Neck:0.028164,-0.016630,0.995912,-0.084199 ShoulderLeft:0.021043,0.771054,-0.632808,0.067733 ShoulderRight:0.058779,0.777259,0.626033,-0.022260 SpineBase:-0.013128,-0.010986,0.998939,-0.042746 SpineMid:0.007309,-0.011859,0.998999,-0.042513 SpineShoulder:0.028090,-0.014510,0.997538,-0.062599 ThumbLeft:0.000000,0.000000,0.000000,0.000000 ThumbRight:0.000000,0.000000,0.000000,0.000000 WristLeft:0.190776,0.108471,-0.331556,0.917556 WristRight:-0.007779,-0.514909,-0.059802,0.855121 END:
KINECT_DATA POSITION:2.360821,-1.710156,-1.411283 HEAD_JOINT1:0.983319,0.149259,-0.000000,0.103951 LARM_JOINT2:0.897946,0.000000,-0.186263,-0.398747 LARM_JOINT3:0.971606,0.000000,-0.235125,-0.026407 LLEG_JOINT2:0.998518,0.014001,0.000000,0.052592 LLEG_JOINT4:0.994668,0.098887,0.000000,-0.029286 RARM_JOINT2:0.803891,0.000000,-0.094860,0.587164 RARM_JOINT3:0.974583,0.000000,0.157139,0.159675 RLEG_JOINT2:0.999362,0.019088,0.000000,-0.030173 RLEG_JOINT4:0.994363,0.101786,0.000000,0.029693 WAIST:0.999899,-0.000000,0.010668,0.009431 WAIST_JOINT0:0.999295,0.000000,-0.036140,0.010217 WAIST_JOINT1:0.997345,0.069928,0.000000,-0.020318 END:
KINECT_DATA_Sensor  AnkleLeft:0.068536,0.764102,-0.094937,-0.634380 AnkleRight:0.096773,0.759582,0.072582,0.639063 ElbowLeft:-0.275983,0.775651,-0.198534,-0.531774 ElbowRight:0.045948,0.858484,0.210670,0.465308 FootLeft:0.000000,0.000000,0.000000,0.000000 FootRight:0.000000,0.000000,0.000000,0.000000 HandLeft:0.061155,0.189501,-0.386247,0.900646 HandRight:0.021657,-0.566628,0.044659,0.822477 HandTipLeft:0.000000,0.000000,0.000000,0.000000 HandTipRight:0.000000,0.000000,0.000000,0.000000 Head:0.000000,0.000000,0.000000,0.000000 HipLeft:0.110853,-0.673945,0.713478,-0.156390 HipRight:-0.126918,0.678631,0.699041,-0.186261 KneeLeft:0.033464,-0.697707,0.054019,0.713559 KneeRight:-0.001502,0.715524,0.028083,0.698021 Neck:0.034184,-0.016597,0.995610,-0.085536 ShoulderLeft:0.017398,0.770057,-0.633479,0.073581 ShoulderRight:0.063018,0.776775,0.626338,-0.018700 SpineBase:-0.011918,-0.010396,0.998916,-0.043770 SpineMid:0.010941,-0.011395,0.998928,-0.043520 SpineShoulder:0.034150,-0.014247,0.997276,-0.063804 ThumbLeft:0.000000,0.000000,0.000000,0.000000 ThumbRight:0.000000,0.000000,0.000000,0.000000 WristLeft:0.134174,0.222607,-0.359221,0.896328 WristRight:-0.004171,-0.564571,-0.061237,0.823099 END:
KINECT_DATA POSITION:2.292566,-1.745138,-1.402605 HEAD_JOINT1:0.983441,0.144958,-0.000000,0.108767 LARM_JOINT2:0.892782,0.000000,-0.209401,-0.398862 LARM_JOINT3:0.974510,0.000000,-0.221146,-0.037742 LLEG_JOINT2:0.998564,0.014723,0.000000,0.051518 LLEG_JOINT4:0.994711,0.098920,0.000000,-0.027666 RARM_JOINT2:0.803689,0.000000,-0.092354,0.587839 RARM_JOINT3:0.971381,0.000000,0.180724,0.154133 RLEG_JOINT2:0.999306,0.019795,0.000000,-0.031543 RLEG_JOINT4:0.994515,0.100130,0.000000,0.030245 WAIST:0.999912,-0.000000,0.007443,0.010982 WAIST_JOINT0:0.998930,0.000000,-0.045288,0.009336 WAIST_JOINT1:0.997235,0.071110,0.000000,-0.021558 END:
KINECT_DATA_Sensor  AnkleLeft:0.069149,0.776407,-0.096134,-0.619007 AnkleRight:0.094975,0.741394,0.073506,0.660236 ElbowLeft:-0.281052,0.797067,-0.189324,-0.499850 ElbowRight:0.045027,0.854751,0.209747,0.472631 FootLeft:0.000000,0.000000,0.000000,0.000000 FootRight:0.000000,0.000000,0.000000,0.000000 HandLeft:-0.030871,0.380575,-0.365457,0.848912 HandRight:0.061377,-0.688061,-0.028130,0.722506 HandTipLeft:0.000000,0.000000,0.000000,0.000000 HandTipRight:0.000000,0.000000,0.000000,0.000000 Head:0.000000,0.000000,0.000000,0.000000 HipLeft:0.112096,-0.672422,0.714140,-0.159019 HipRight:-0.124321,0.680097,0.698379,-0.185148 KneeLeft:0.033447,-0.699925,0.054768,0.711328 KneeRight:-0.000769,0.713363,0.028477,0.700215 Neck:0.043363,-0.016813,0.995143,-0.086756 ShoulderLeft:0.011608,0.769919,-0.632765,0.081846 ShoulderRight:0.069125,0.775444,0.627491,-0.012795 SpineBase:-0.008836,-0.009549,0.998907,-0.044891 SpineMid:0.017106,-0.010712,0.998800,-0.044628 SpineShoulder:0.043384,-0.014133,0.996844,-0.064960 ThumbLeft:0.000000,0.000000,0.000000,0.000000 ThumbRight:0.000000,0.000000,0.000000,0.000000 WristLeft:0.035339,0.399463,-0.377018,0.834888 WristRight:0.006314,-0.687409,-0.063728,0.723442 END:
KINECT_DATA POSITION:2.341774,-1.799907,-1.304150 HEAD_JOINT1:0.985451,0.150183,-0.000000,0.079564 LARM_JOINT2:0.888264,0.000000,-0.215087,-0.405863 LARM_JOINT3:0.978389,0.000000,-0.203666,-0.035723 LLEG_JOINT2:0.998696,0.014188,0.000000,0.049049 LLEG_JOINT4:0.994813,0.097838,0.000000,-0.027838 RARM_JOINT2:0.817566,0.000000,-0.048334,0.573803 RARM_JOINT3:0.966451,0.000000,0.192561,0.169980 RLEG_JOINT2:0.999173,0.020363,0.000000,-0.035206 RLEG_JOINT4:0.994739,0.095214,0.000000,0.037809 WAIST:0.999847,-0.000000,0.012594,0.012105 WAIST_JOINT0:0.999456,0.000000,-0.031919,0.008257 WAIST_JOINT1:0.997261,0.070731,0.000000,-0.021616 END:
KINECT_DATA_Sensor  AnkleLeft:0.069128,0.772937,-0.093629,-0.623718 AnkleRight:0.089589,0.695022,0.074040,0.709533 ElbowLeft:-0.277399,0.800461,-0.183913,-0.498486 ElbowRight:0.011647,0.879172,0.210360,0.427400 FootLeft:0.000000,0.000000,0.000000,0.000000 FootRight:0.000000,0.000000,0.000000,0.000000 HandLeft:-0.011955,0.423120,-0.348996,0.836079 HandRight:-0.121835,0.730652,0.044019,-0.670348 HandTipLeft:0.000000,0.000000,0.000000,0.000000 HandTipRight:0.000000,0.000000,0.000000,0.000000 Head:0.000000,0.000000,0.000000,0.000000 HipLeft:0.109930,-0.672111,0.715307,-0.156585 HipRight:-0.128611,0.679866,0.696934,-0.188479 KneeLeft:0.032661,-0.696256,0.053549,0.715048 KneeRight:-0.002384,0.716971,0.030606,0.696427 Neck:0.030744,-0.015412,0.995661,-0.086468 ShoulderLeft:0.016039,0.771360,-0.631772,0.074909 ShoulderRight:0.057012,0.775287,0.628506,-0.025696 SpineBase:-0.014019,-0.008693,0.998876,-0.044434 SpineMid:0.008222,-0.009680,0.998941,-0.044229 SpineShoulder:0.030743,-0.012936,0.997355,-0.064585 ThumbLeft:0.000000,0.000000,0.000000,0.000000 ThumbRight:0.000000,0.000000,0.000000,0.000000 WristLeft:0.022061,0.429206,-0.371274,0.823074 WristRight:-0.039690,0.742247,0.081019,-0.664026 END:
KINECT_DATA POSITION:2.509129,-1.961411,-1.031649 HEAD_JOINT1:0.987688,0.155345,-0.000000,0.018425 LARM_JOINT2:0.879125,0.000000,-0.226319,-0.419427 LARM_JOINT3:0.980028,0.000000,-0.197774,-0.020737 LLEG_JOINT2:0.998819,0.012517,0.000000,0.046955 LLEG_JOINT4:0.994967,0.098362,0.000000,-0.019130 RARM_JOINT2:0.830897,0.000000,-0.016155,0.556191 RARM_JOINT3:0.960216,0.000000,0.196627,0.198302 RLEG_JOINT2:0.999100,0.016736,0.000000,-0.038973 RLEG_JOINT4:0.993412,0.104572,0.000000,0.046877 WAIST:0.999497,-0.000000,0.029734,0.011055 WAIST_JOINT0:0.999945,-0.000000,0.003246,0.009946 WAIST_JOINT1:0.997428,0.069636,0.000000,-0.016998 END:
KINECT_DATA_Sensor  AnkleLeft:0.057846,0.704564,-0.101546,-0.699951 AnkleRight:0.096044,0.713507,0.075751,0.689888 ElbowLeft:-0.275976,0.786835,-0.167153,-0.526105 ElbowRight:-0.013801,0.907603,0.215058,0.360299 FootLeft:0.000000,0.000000,0.000000,0.000000 FootRight:0.000000,0.000000,0.000000,0.000000 HandLeft:0.025150,0.379741,-0.360851,0.851441 HandRight:0.116190,-0.364865,-0.089279,0.919458 HandTipLeft:0.000000,0.000000,0.000000,0.000000 HandTipRight:0.000000,0.000000,0.000000,0.000000 Head:0.000000,0.000000,0.000000,0.000000 HipLeft:0.101767,-0.674130,0.716424,-0.148089 HipRight:-0.142324,0.676163,0.695357,-0.197549 KneeLeft:0.030917,-0.684165,0.050551,0.726916 KneeRight:-0.009030,0.728581,0.031108,0.684194 Neck:-0.003420,-0.011312,0.996258,-0.085620 ShoulderLeft:0.026249,0.771942,-0.632579,0.057094 ShoulderRight:0.022724,0.777604,0.625386,-0.060896 SpineBase:-0.030865,-0.006285,0.998592,-0.042673 SpineMid:-0.017265,-0.006866,0.998920,-0.042584 SpineShoulder:-0.003476,-0.009442,0.997934,-0.063454 ThumbLeft:0.000000,0.000000,0.000000,0.000000 ThumbRight:0.000000,0.000000,0.000000,0.000000 WristLeft:0.045831,0.384492,-0.370469,0.844285 WristRight:0.032464,-0.371434,-0.106469,0.921763 END:
KINECT_DATA POSITION:2.783318,-2.163821,-0.494528 HEAD_JOINT1:0.987339,0.157781,0.000000,-0.016356 LARM_JOINT2:0.868786,0.000000,-0.248467,-0.428340 LARM_JOINT3:0.981675,0.000000,-0.190471,0.005943 LLEG_JOINT2:0.998986,0.011252,0.000000,0.043582 LLEG_JOINT4:0.995308,0.095989,0.000000,-0.012139 RARM_JOINT2:0.844927,0.000000,-0.009368,0.534799 RARM_JOINT3:0.958395,0.000000,0.180949,0.220764 RLEG_JOINT2:0.998933,0.013811,0.000000,-0.044063 RLEG_JOINT4:0.992042,0.112742,0.000000,0.056051 WAIST:0.998495,-0.000000,0.053921,0.009989 WAIST_JOINT0:0.998994,-0.000000,0.042993,0.012744 WAIST_JOINT1:0.997678,0.067218,0.000000,-0.010933 END:
KINECT_DATA_Sensor  AnkleLeft:-0.054970,-0.682756,0.100081,0.721669 AnkleRight:0.103143,0.757015,0.075425,0.640782 ElbowLeft:-0.284800,0.762160,-0.144443,-0.563149 ElbowRight:-0.024289,0.928717,0.230252,0.289617 FootLeft:0.000000,0.000000,0.000000,0.000000 FootRight:0.000000,0.000000,0.000000,0.000000 HandLeft:0.172148,0.101712,-0.363517,0.909876 HandRight:0.100754,-0.418264,-0.054042,0.901101 HandTipLeft:0.000000,0.000000,0.000000,0.000000 HandTipRight:0.000000,0.000000,0.000000,0.000000 Head:0.000000,0.000000,0.000000,0.000000 HipLeft:0.088203,-0.676610,0.718580,-0.134397 HipRight:-0.158904,0.671450,0.693152,-0.208436 KneeLeft:0.027800,-0.666725,0.046999,0.743301 KneeRight:-0.016470,0.744595,0.032672,0.666513 Neck:-0.043039,-0.006230,0.995584,-0.083189 ShoulderLeft:0.046658,0.770383,-0.635239,0.028371 ShoulderRight:-0.008546,0.777813,0.621437,-0.093542 SpineBase:-0.054734,-0.003291,0.997669,-0.040617 SpineMid:-0.048994,-0.003524,0.997967,-0.040597 SpineShoulder:-0.043143,-0.005044,0.997187,-0.061087 ThumbLeft:0.000000,0.000000,0.000000,0.000000 ThumbRight:0.000000,0.000000,0.000000,0.000000 WristLeft:0.171061,0.105845,-0.343610,0.917315 WristRight:0.049004,-0.421843,-0.096072,0.900232 END:
KINECT_DATA POSITION:2.892026,-2.209280,-0.275958 HEAD_JOINT1:0.986935,0.158215,0.000000,-0.030463 LARM_JOINT2:0.864531,0.000000,-0.251203,-0.435297 LARM_JOINT3:0.982370,0.000000,-0.186821,0.006912 LLEG_JOINT2:0.999026,0.011239,0.000000,0.042670 LLEG_JOINT4:0.995342,0.095714,0.000000,-0.011522 RARM_JOINT2:0.847007,0.000000,-0.010903,0.531471 RARM_JOINT3:0.956366,0.000000,0.177153,0.232340 RLEG_JOINT2:0.998935,0.012308,0.000000,-0.044465 RLEG_JOINT4:0.991351,0.117181,0.000000,0.059092 WAIST:0.997799,-0.000000,0.065671,0.009167 WAIST_JOINT0:0.997610,-0.000000,0.067347,0.015478 WAIST_JOINT1:0.997671,0.067864,0.000000,-0.006908 END:
KINECT_DATA_Sensor  AnkleLeft:0.066222,0.744591,-0.092139,-0.657806 AnkleRight:0.105381,0.762572,0.077704,0.633515 ElbowLeft:-0.284858,0.738027,-0.133811,-0.596880 ElbowRight:-0.023800,0.934000,0.231540,0.271046 FootLeft:0.000000,0.000000,0.000000,0.000000 FootRight:0.000000,0.000000,0.000000,0.000000 HandLeft:0.044749,0.402176,-0.371321,0.835687 HandRight:0.107958,-0.393198,-0.029020,0.912633 HandTipLeft:0.000000,0.000000,0.000000,0.000000 HandTipRight:0.000000,0.000000,0.000000,0.000000 Head:0.000000,0.000000,0.000000,0.000000 HipLeft:0.080298,-0.677953,0.719289,-0.128664 HipRight:-0.166011,0.668854,0.692144,-0.214502 KneeLeft:0.026150,-0.658116,0.045971,0.751056 KneeRight:-0.018817,0.752226,0.032106,0.657853 Neck:-0.067116,-0.002440,0.994200,-0.084000 ShoulderLeft:0.063022,0.768175,-0.637043,0.010566 ShoulderRight:-0.023705,0.776088,0.619961,-0.113018 SpineBase:-0.066326,-0.001615,0.996947,-0.041176 SpineMid:-0.066833,-0.001594,0.996913,-0.041177 SpineShoulder:-0.067269,-0.002030,0.995812,-0.061873 ThumbLeft:0.000000,0.000000,0.000000,0.000000 ThumbRight:0.000000,0.000000,0.000000,0.000000 WristLeft:0.057263,0.402422,-0.387738,0.827307 WristRight:0.054055,-0.396815,-0.091649,0.911711 END:
KINECT_DATA POSITION:2.902932,-2.229141,-0.196493 HEAD_JOINT1:0.986497,0.159045,0.000000,-0.039103 LARM_JOINT2:0.862741,0.000000,-0.250526,-0.439221 LARM_JOINT3:0.982913,0.000000,-0.183848,0.009002 LLEG_JOINT2:0.999034,0.011924,0.000000,0.042305 LLEG_JOINT4:0.995508,0.094482,0.000000,-0.006008 RARM_JOINT2:0.851587,0.000000,0.003543,0.524201 RARM_JOINT3:0.959514,0.000000,0.158719,0.232684 RLEG_JOINT2:0.998956,0.013490,0.000000,-0.043638 RLEG_JOINT4:0.991429,0.116017,0.000000,0.060071 WAIST:0.997532,-0.000000,0.069700,0.008531 WAIST_JOINT0:0.997648,-0.000000,0.066897,0.014974 WAIST_JOINT1:0.997492,0.070652,0.000000,-0.004251 END:
KINECT_DATA_Sensor  AnkleLeft:-0.053412,-0.669340,0.101447,0.734057 AnkleRight:0.104577,0.754069,0.079171,0.643565 ElbowLeft:-0.280855,0.732364,-0.133410,-0.605777 ElbowRight:-0.030681,0.940979,0.233900,0.242711 FootLeft:0.000000,0.000000,0.000000,0.000000 FootRight:0.000000,0.000000,0.000000,0.000000 HandLeft:0.048289,0.396668,-0.370117,0.838651 HandRight:0.070552,-0.415867,0.003361,0.906678 HandTipLeft:0.000000,0.000000,0.000000,0.000000 HandTipRight:0.000000,0.000000,0.000000,0.000000 Head:0.000000,0.000000,0.000000,0.000000 HipLeft:0.075289,-0.678435,0.719546,-0.127717 HipRight:-0.166600,0.667518,0.692459,-0.217172 KneeLeft:0.024778,-0.655202,0.045779,0.753658 KneeRight:-0.018023,0.754834,0.032801,0.654848 Neck:-0.067447,-0.001054,0.993922,-0.086997 ShoulderLeft:0.075447,0.765304,-0.639217,0.004305 ShoulderRight:-0.011513,0.775882,0.621579,-0.107302 SpineBase:-0.070272,-0.000612,0.996573,-0.043640 SpineMid:-0.068982,-0.000668,0.996663,-0.043640 SpineShoulder:-0.067588,-0.000767,0.995609,-0.064763 ThumbLeft:0.000000,0.000000,0.000000,0.000000 ThumbRight:0.000000,0.000000,0.000000,0.000000 WristLeft:0.068218,0.400626,-0.380169,0.830853 WristRight:0.055658,-0.419090,-0.087275,0.902025 END:
KINECT_DATA POSITION:2.938211,-2.239712,-0.139236 HEAD_JOINT1:0.986081,0.160666,0.000000,-0.042783 LARM_JOINT2:0.861918,0.000000,-0.250757,-0.440702 LARM_JOINT3:0.982722,0.000000,-0.184890,0.008610 LLEG_JOINT2:0.999037,0.012365,0.000000,0.042096 LLEG_JOINT4:0.995777,0.091783,0.000000,0.001914 RARM_JOINT2:0.849730,0.000000,-0.007578,0.527164 RARM_JOINT3:0.958608,0.000000,0.164014,0.232743 RLEG_JOINT2:0.998980,0.013982,0.000000,-0.042933 RLEG_JOINT4:0.991409,0.116609,0.000000,0.059257 WAIST:0.997379,-0.000000,0.071935,0.007749 WAIST_JOINT0:0.996904,-0.000000,0.076920,0.016326 WAIST_JOINT1:0.997387,0.072204,0.000000,-0.002189 END:
KINECT_DATA_Sensor  AnkleLeft:-0.047088,-0.664734,0.105506,0.738092 AnkleRight:0.104835,0.758214,0.080365,0.638484 ElbowLeft:-0.279065,0.730939,-0.134172,-0.608151 ElbowRight:-0.022477,0.938089,0.233734,0.254661 FootLeft:0.000000,0.000000,0.000000,0.000000 FootRight:0.000000,0.000000,0.000000,0.000000 HandLeft:0.064350,0.342809,-0.369542,0.861266 HandRight:0.076327,-0.413018,0.005076,0.907504 HandTipLeft:0.000000,0.000000,0.000000,0.000000 HandTipRight:0.000000,0.000000,0.000000,0.000000 Head:0.000000,0.000000,0.000000,0.000000 HipLeft:0.071837,-0.679175,0.719308,-0.127109 HipRight:-0.166609,0.666681,0.692839,-0.218522 KneeLeft:0.023662,-0.653634,0.045400,0.755077 KneeRight:-0.017810,0.756234,0.033209,0.653215 Neck:-0.077260,0.000701,0.993060,-0.088665 ShoulderLeft:0.080927,0.763800,-0.640359,-0.000188 ShoulderRight:-0.019092,0.773942,0.621901,-0.117847 SpineBase:-0.072411,0.000108,0.996347,-0.045276 SpineMid:-0.074954,0.000223,0.996159,-0.045276 SpineShoulder:-0.077415,0.000724,0.994782,-0.066439 ThumbLeft:0.000000,0.000000,0.000000,0.000000 ThumbRight:0.000000,0.000000,0.000000,0.000000 WristLeft:0.094250,0.351998,-0.371483,0.853941 WristRight:0.054869,-0.416277,-0.083973,0.903688 END:
KINECT_DATA POSITION:2.957572,-2.245289,-0.091875 HEAD_JOINT1:0.985928,0.161582,0.000000,-0.042853 LARM_JOINT2:0.861899,0.000000,-0.250442,-0.440919 LARM_JOINT3:0.981165,0.000000,-0.192870,0.010815 LLEG_JOINT2:0.999059,0.012360,0.000000,0.041584 LLEG_JOINT4:0.995661,0.093015,0.000000,-0.002712 RARM_JOINT2:0.852432,0.000000,0.005082,0.522813 RARM_JOINT3:0.959894,0.000000,0.155536,0.233265 RLEG_JOINT2:0.998995,0.014085,0.000000,-0.042545 RLEG_JOINT4:0.991311,0.117071,0.000000,0.059980 WAIST:0.997345,-0.000000,0.072437,0.007526 WAIST_JOINT0:0.997454,-0.000000,0.069656,0.015302 WAIST_JOINT1:0.997345,0.072802,0.000000,-0.001659 END:
KINECT_DATA_Sensor  AnkleLeft:-0.051995,-0.667976,0.101883,0.735339 AnkleRight:0.104455,0.747443,0.082047,0.650912 ElbowLeft:-0.278497,0.730198,-0.134678,-0.609190 ElbowRight:-0.028953,0.943400,0.234320,0.232920 FootLeft:0.000000,0.000000,0.000000,0.000000 FootRight:0.000000,0.000000,0.000000,0.000000 HandLeft:0.135906,0.144429,-0.365745,0.909341 HandRight:0.066854,-0.576693,0.019225,0.813994 HandTipLeft:0.000000,0.000000,0.000000,0.000000 HandTipRight:0.000000,0.000000,0.000000,0.000000 Head:0.000000,0.000000,0.000000,0.000000 HipLeft:0.070103,-0.679484,0.719251,-0.126750 HipRight:-0.165839,0.666606,0.693072,-0.218596 KneeLeft:0.023151,-0.653301,0.044862,0.755413 KneeRight:-0.017627,0.756543,0.033178,0.652864 Neck:-0.070348,0.000238,0.993520,-0.089267 ShoulderLeft:0.084583,0.763195,-0.640608,-0.000780 ShoulderRight:-0.006134,0.774927,0.622946,-0.106717 SpineBase:-0.072882,0.000395,0.996275,-0.046088 SpineMid:-0.071730,0.000341,0.996359,-0.046088 SpineShoulder:-0.070476,0.000461,0.995255,-0.067085 ThumbLeft:0.000000,0.000000,0.000000,0.000000 ThumbRight:0.000000,0.000000,0.000000,0.000000 WristLeft:0.171025,0.162567,-0.343528,0.909017 WristRight:0.068354,-0.580311,-0.070917,0.808417 END:
KINECT_DATA POSITION:2.952819,-2.298026,0.068069 HEAD_JOINT1:0.986093,0.162829,0.000000,-0.033279 LARM_JOINT2:0.860039,0.000000,-0.251665,-0.443843 LARM_JOINT3:0.972238,0.000000,-0.233861,-0.007865 LLEG_JOINT2:0.999042,0.013561,0.000000,0.041598 LLEG_JOINT4:0.995813,0.091363,0.000000,-0.003079 RARM_JOINT2:0.846449,0.000000,-0.008303,0.532404 RARM_JOINT3:0.958839,0.000000,0.163431,0.232205 RLEG_JOINT2:0.999009,0.015338,0.000000,-0.041786 RLEG_JOINT4:0.991433,0.116888,0.000000,0.058289 WAIST:0.997401,-0.000000,0.071644,0.007673 WAIST_JOINT0:0.997060,-0.000000,0.074391,0.018342 WAIST_JOINT1:0.997433,0.071606,0.000000,-0.000677 END:
KINECT_DATA_Sensor  AnkleLeft:-0.051231,-0.665352,0.101708,0.737792 AnkleRight:0.104983,0.749780,0.082818,0.648036 ElbowLeft:-0.276196,0.741046,-0.136200,-0.596671 ElbowRight:-0.019715,0.938909,0.226996,0.257940 FootLeft:0.000000,0.000000,0.000000,0.000000 FootRight:0.000000,0.000000,0.000000,0.000000 HandLeft:-0.025150,0.316030,-0.394778,0.862347 HandRight:0.089436,-0.524427,0.022220,0.846454 HandTipLeft:0.000000,0.000000,0.000000,0.000000 HandTipRight:0.000000,0.000000,0.000000,0.000000 Head:0.000000,0.000000,0.000000,0.000000 HipLeft:0.069931,-0.679616,0.719270,-0.126028 HipRight:-0.165445,0.667355,0.692997,-0.216843 KneeLeft:0.022382,-0.653962,0.045751,0.754811 KneeRight:-0.016099,0.756031,0.033541,0.653477 Neck:-0.074937,0.002245,0.993304,-0.087903 ShoulderLeft:0.082819,0.762637,-0.641501,-0.001678 ShoulderRight:-0.014031,0.775535,0.620987,-0.112801 SpineBase:-0.072058,0.001341,0.996371,-0.045285 SpineMid:-0.073605,0.001412,0.996258,-0.045283 SpineShoulder:-0.075078,0.002008,0.994987,-0.066038 ThumbLeft:0.000000,0.000000,0.000000,0.000000 ThumbRight:0.000000,0.000000,0.000000,0.000000 WristLeft:0.063814,0.348171,-0.391253,0.849486 WristRight:0.066579,-0.528741,-0.073097,0.843005 END:
KINECT_DATA POSITION:2.912888,-2.356389,0.131333 HEAD_JOINT1:0.985850,0.165867,0.000000,-0.024255 LARM_JOINT2:0.853158,0.000000,-0.274796,-0.443406 LARM_JOINT3:0.973119,0.000000,-0.230029,-0.011230 LLEG_JOINT2:0.999074,0.014332,0.000000,0.040571 LLEG_JOINT4:0.995624,0.093255,0.000000,-0.005987 RARM_JOINT2:0.842429,0.000000,-0.014029,0.538625 RARM_JOINT3:0.960352,0.000000,0.165547,0.224317 RLEG_JOINT2:0.998987,0.014480,0.000000,-0.042609 RLEG_JOINT4:0.990894,0.120627,0.000000,0.059816 WAIST:0.997517,-0.000000,0.069741,0.009753 WAIST_JOINT0:0.997245,-0.000000,0.071598,0.019405 WAIST_JOINT1:0.997592,0.069354,-0.000000,0.001006 END:
KINECT_DATA_Sensor  AnkleLeft:-0.054185,-0.666520,0.101960,0.736491 AnkleRight:0.108979,0.747669,0.082947,0.649796 ElbowLeft:-0.286771,0.759124,-0.126074,-0.570613 ElbowRight:-0.016647,0.934916,0.217880,0.279614 FootLeft:0.000000,0.000000,0.000000,0.000000 FootRight:0.000000,0.000000,0.000000,0.000000 HandLeft:0.025324,0.167939,-0.405832,0.898029 HandRight:0.078580,-0.693012,0.042326,0.715380 HandTipLeft:0.000000,0.000000,0.000000,0.000000 HandTipRight:0.000000,0.000000,0.000000,0.000000 Head:0.000000,0.000000,0.000000,0.000000 HipLeft:0.070970,-0.678306,0.720285,-0.126707 HipRight:-0.165319,0.669684,0.691480,-0.214591 KneeLeft:0.022670,-0.655380,0.046921,0.753499 KneeRight:-0.015742,0.754796,0.032003,0.654989 Neck:-0.071861,0.006244,0.993728,-0.085446 ShoulderLeft:0.074916,0.764165,-0.640651,0.002374 ShoulderRight:-0.018081,0.777798,0.618131,-0.112324 SpineBase:-0.070213,0.004226,0.996541,-0.044261 SpineMid:-0.071105,0.004265,0.996477,-0.044257 SpineShoulder:-0.071911,0.005936,0.995337,-0.064022 ThumbLeft:0.000000,0.000000,0.000000,0.000000 ThumbRight:0.000000,0.000000,0.000000,0.000000 WristLeft:0.106271,0.204683,-0.384779,0.893731 WristRight:0.085146,-0.698368,-0.058314,0.708260 END:
KINECT_DATA POSITION:2.760480,-2.428891,0.217056 HEAD_JOINT1:0.985442,0.169521,0.000000,-0.012877 LARM_JOINT2:0.853075,0.000000,-0.284356,-0.437499 LARM_JOINT3:0.978612,0.000000,-0.205393,-0.011535 LLEG_JOINT2:0.999080,0.015254,0.000000,0.040093 LLEG_JOINT4:0.995879,0.090315,0.000000,-0.008319 RARM_JOINT2:0.838609,0.000000,-0.020649,0.544343 RARM_JOINT3:0.963630,0.000000,0.159952,0.214087 RLEG_JOINT2:0.999011,0.015178,0.000000,-0.041791 RLEG_JOINT4:0.991178,0.121363,0.000000,0.053272 WAIST:0.997714,-0.000000,0.066514,0.011932 WAIST_JOINT0:0.997763,-0.000000,0.063872,0.019756 WAIST_JOINT1:0.997726,0.067399,0.000000,-0.000535 END:
KINECT_DATA_Sensor  AnkleLeft:-0.052910,-0.671158,0.100127,0.732613 AnkleRight:0.107214,0.744049,0.086249,0.653803 ElbowLeft:-0.295242,0.769990,-0.126353,-0.551346 ElbowRight:-0.012067,0.931417,0.212625,0.295139 FootLeft:0.000000,0.000000,0.000000,0.000000 FootRight:0.000000,0.000000,0.000000,0.000000 HandLeft:-0.002943,0.315238,-0.390015,0.865162 HandRight:0.055600,-0.419626,0.023419,0.905690 HandTipLeft:0.000000,0.000000,0.000000,0.000000 HandTipRight:0.000000,0.000000,0.000000,0.000000 Head:0.000000,0.000000,0.000000,0.000000 HipLeft:0.073286,-0.676818,0.721364,-0.127204 HipRight:-0.164565,0.672249,0.690202,-0.211237 KneeLeft:0.023327,-0.657733,0.048655,0.751316 KneeRight:-0.013001,0.752777,0.030520,0.657439 Neck:-0.063921,0.006413,0.994438,-0.083458 ShoulderLeft:0.065274,0.765181,-0.640428,0.009440 ShoulderRight:-0.017452,0.778812,0.617813,-0.107027 SpineBase:-0.067079,0.006352,0.996823,-0.042467 SpineMid:-0.065478,0.006284,0.996930,-0.042477 SpineShoulder:-0.063880,0.006748,0.996007,-0.062004 ThumbLeft:0.000000,0.000000,0.000000,0.000000 ThumbRight:0.000000,0.000000,0.000000,0.000000 WristLeft:0.048834,0.333423,-0.393406,0.855381 WristRight:0.061080,-0.424110,-0.083152,0.899714 END:
KINECT_DATA POSITION:2.652387,-2.466831,0.288653 HEAD_JOINT1:0.984932,0.172598,0.000000,-0.010870 LARM_JOINT2:0.853355,0.000000,-0.286125,-0.435796 LARM_JOINT3:0.978670,0.000000,-0.204924,-0.014542 LLEG_JOINT2:0.999020,0.015590,0.000000,0.041417 LLEG_JOINT4:0.995925,0.090001,0.000000,-0.005721 RARM_JOINT2:0.837497,0.000000,-0.022364,0.545984 RARM_JOINT3:0.963520,0.000000,0.163095,0.212201 RLEG_JOINT2:0.999063,0.015292,0.000000,-0.040486 RLEG_JOINT4:0.991654,0.118664,0.000000,0.050416 WAIST:0.997823,-0.000000,0.064938,0.011482 WAIST_JOINT0:0.997979,-0.000000,0.060608,0.019099 WAIST_JOINT1:0.997763,0.066848,0.000000,-0.000670 END:
KINECT_DATA_Sensor  AnkleLeft:0.067634,0.788620,-0.092617,-0.604092 AnkleRight:0.104092,0.742881,0.085606,0.655716 ElbowLeft:-0.296642,0.774635,-0.127173,-0.543849 ElbowRight:-0.010437,0.930772,0.211795,0.297822 FootLeft:0.000000,0.000000,0.000000,0.000000 FootRight:0.000000,0.000000,0.000000,0.000000 HandLeft:0.037571,0.203554,-0.389412,0.897503 HandRight:0.064284,-0.353758,0.004550,0.933114 HandTipLeft:0.000000,0.000000,0.000000,0.000000 HandTipRight:0.000000,0.000000,0.000000,0.000000 Head:0.000000,0.000000,0.000000,0.000000 HipLeft:0.074680,-0.677025,0.720967,-0.127540 HipRight:-0.164288,0.672314,0.690630,-0.209841 KneeLeft:0.023690,-0.658931,0.049532,0.750197 KneeRight:-0.012203,0.751728,0.030095,0.658673 Neck:-0.060582,0.005754,0.994690,-0.083002 ShoulderLeft:0.062214,0.765673,-0.640102,0.011999 ShoulderRight:-0.016186,0.778626,0.618525,-0.104434 SpineBase:-0.065463,0.006353,0.996965,-0.041659 SpineMid:-0.062985,0.006249,0.997124,-0.041675 SpineShoulder:-0.060534,0.006226,0.996254,-0.061437 ThumbLeft:0.000000,0.000000,0.000000,0.000000 ThumbRight:0.000000,0.000000,0.000000,0.000000 WristLeft:0.094732,0.226384,-0.383450,0.890361 WristRight:0.052889,-0.357039,-0.086230,0.928596 END:
KINECT_DATA POSITION:2.570060,-2.485711,0.343728 HEAD_JOINT1:0.984758,0.173637,0.000000,-0.010084 LARM_JOINT2:0.853383,0.000000,-0.287370,-0.434920 LARM_JOINT3:0.979372,0.000000,-0.201476,-0.015436 LLEG_JOINT2:0.999011,0.015216,0.000000,0.041778 LLEG_JOINT4:0.995656,0.093049,0.000000,-0.003452 RARM_JOINT2:0.836678,0.000000,-0.022649,0.547227 RARM_JOINT3:0.963495,0.000000,0.162115,0.213065 RLEG_JOINT2:0.999089,0.015965,0.000000,-0.039578 RLEG_JOINT4:0.991606,0.119012,0.000000,0.050532 WAIST:0.997875,-0.000000,0.064149,0.011411 WAIST_JOINT0:0.998136,-0.000000,0.058099,0.018661 WAIST_JOINT1:0.997761,0.066881,0.000000,-0.000908 END:
KINECT_DATA_Sensor  AnkleLeft:-0.051298,-0.674815,0.106459,0.728464 AnkleRight:0.105436,0.741393,0.085812,0.657157 ElbowLeft:-0.297041,0.777928,-0.127909,-0.538734 ElbowRight:-0.009937,0.930084,0.210863,0.300634 FootLeft:0.000000,0.000000,0.000000,0.000000 FootRight:0.000000,0.000000,0.000000,0.000000 HandLeft:-0.008302,0.317132,-0.388186,0.865257 HandRight:0.065450,-0.528731,0.025739,0.845871 HandTipLeft:0.000000,0.000000,0.000000,0.000000 HandTipRight:0.000000,0.000000,0.000000,0.000000 Head:0.000000,0.000000,0.000000,0.000000 HipLeft:0.075040,-0.677026,0.720905,-0.127676 HipRight:-0.163834,0.672435,0.690822,-0.209178 KneeLeft:0.024192,-0.659516,0.049493,0.749669 KneeRight:-0.011096,0.751227,0.030067,0.659266 Neck:-0.058070,0.005308,0.994832,-0.083118 ShoulderLeft:0.060365,0.765655,-0.640256,0.014162 ShoulderRight:-0.014796,0.778299,0.619265,-0.102677 SpineBase:-0.064667,0.006359,0.997024,-0.041491 SpineMid:-0.061324,0.006220,0.997235,-0.041512 SpineShoulder:-0.058017,0.005876,0.996406,-0.061441 ThumbLeft:0.000000,0.000000,0.000000,0.000000 ThumbRight:0.000000,0.000000,0.000000,0.000000 WristLeft:0.045047,0.335960,-0.390879,0.855754 WristRight:0.068538,-0.533173,-0.074371,0.839939 END:
KINECT_DATA POSITION:2.512071,-2.492768,0.344169 HEAD_JOINT1:0.984973,0.172557,0.000000,-0.007164 LARM_JOINT2:0.854116,0.000000,-0.288257,-0.432889 LARM_JOINT3:0.978648,0.000000,-0.204691,-0.018712 LLEG_JOINT2:0.999009,0.015380,0.000000,0.041771 LLEG_JOINT4:0.995566,0.093746,0.000000,-0.007808 RARM_JOINT2:0.835593,0.000000,-0.022201,0.548900 RARM_JOINT3:0.963071,0.000000,0.166159,0.211862 RLEG_JOINT2:0.999079,0.015781,0.000000,-0.039897 RLEG_JOINT4:0.991798,0.116699,0.000000,0.052134 WAIST:0.997950,-0.000000,0.062827,0.012211 WAIST_JOINT0:0.998317,-0.000000,0.054961,0.018510 WAIST_JOINT1:0.997691,0.067892,0.000000,-0.001692 END:
KINECT_DATA_Sensor  AnkleLeft:-0.054123,-0.676125,0.104267,0.727362 AnkleRight:0.105299,0.739733,0.082583,0.659460 ElbowLeft:-0.297061,0.783329,-0.131446,-0.529974 ElbowRight:-0.009141,0.928823,0.209321,0.305595 FootLeft:0.000000,0.000000,0.000000,0.000000 FootRight:0.000000,0.000000,0.000000,0.000000 HandLeft:0.029476,0.209828,-0.390752,0.895777 HandRight:-0.067990,0.743097,-0.039770,-0.664532 HandTipLeft:0.000000,0.000000,0.000000,0.000000 HandTipRight:0.000000,0.000000,0.000000,0.000000 Head:0.000000,0.000000,0.000000,0.000000 HipLeft:0.075187,-0.676445,0.721295,-0.128465 HipRight:-0.162280,0.673257,0.690564,-0.208593 KneeLeft:0.024685,-0.660443,0.050138,0.748793 KneeRight:-0.010841,0.750396,0.029600,0.660237 Neck:-0.055014,0.005128,0.994905,-0.084324 ShoulderLeft:0.059811,0.765081,-0.640936,0.016595 ShoulderRight:-0.011396,0.777815,0.620330,-0.100322 SpineBase:-0.063415,0.006506,0.997080,-0.042034 SpineMid:-0.059161,0.006327,0.997342,-0.042061 SpineShoulder:-0.054946,0.005814,0.996524,-0.062342 ThumbLeft:0.000000,0.000000,0.000000,0.000000 ThumbRight:0.000000,0.000000,0.000000,0.000000 WristLeft:0.087783,0.233727,-0.381925,0.889831 WristRight:-0.086990,0.750113,0.052357,-0.653469 END:
KINECT_DATA POSITION:2.464570,-2.486996,0.271010 HEAD_JOINT1:0.985709,0.168441,0.000000,-0.002351 LARM_JOINT2:0.855178,0.000000,-0.287762,-0.431119 LARM_JOINT3:0.978976,0.000000,-0.202952,-0.020420 LLEG_JOINT2:0.999021,0.015326,0.000000,0.041498 LLEG_JOINT4:0.995468,0.094698,0.000000,-0.008646 RARM_JOINT2:0.840547,0.000000,-0.006105,0.541704 RARM_JOINT3:0.964335,0.000000,0.154453,0.214947 RLEG_JOINT2:0.999116,0.015359,0.000000,-0.039143 RLEG_JOINT4:0.991882,0.117648,0.000000,0.048251 WAIST:0.998096,-0.000000,0.060352,0.012734 WAIST_JOINT0:0.998963,-0.000000,0.042676,0.015871 WAIST_JOINT1:0.997637,0.068658,0.000000,-0.002438 END:
KINECT_DATA_Sensor  AnkleLeft:-0.055656,-0.682843,0.104130,0.720961 AnkleRight:0.103324,0.733745,0.085152,0.666102 ElbowLeft:-0.297017,0.787091,-0.134162,-0.523708 ElbowRight:-0.018403,0.935741,0.212311,0.281024 FootLeft:0.000000,0.000000,0.000000,0.000000 FootRight:0.000000,0.000000,0.000000,0.000000 HandLeft:0.035378,0.210029,-0.383672,0.898572 HandRight:0.067157,-0.627442,0.035495,0.774950 HandTipLeft:0.000000,0.000000,0.000000,0.000000 HandTipRight:0.000000,0.000000,0.000000,0.000000 Head:0.000000,0.000000,0.000000,0.000000 HipLeft:0.075694,-0.675838,0.721545,-0.129948 HipRight:-0.159835,0.673935,0.690793,-0.207531 KneeLeft:0.025020,-0.662249,0.050227,0.747180 KneeRight:-0.010093,0.748798,0.028463,0.662109 Neck:-0.043430,0.004246,0.995414,-0.085131 ShoulderLeft:0.060692,0.764831,-0.641066,0.019602 ShoulderRight:0.004821,0.778487,0.621781,-0.085580 SpineBase:-0.061002,0.006473,0.997194,-0.042902 SpineMid:-0.052162,0.006093,0.997696,-0.042957 SpineShoulder:-0.043337,0.005123,0.997052,-0.063115 ThumbLeft:0.000000,0.000000,0.000000,0.000000 ThumbRight:0.000000,0.000000,0.000000,0.000000 WristLeft:0.086370,0.229380,-0.382046,0.891048 WristRight:0.073007,-0.632080,-0.067356,0.768511 END:
KINECT_DATA POSITION:2.466759,-2.470063,0.194561 HEAD_JOINT1:0.985491,0.169727,0.000000,-0.000071 LARM_JOINT2:0.855784,0.000000,-0.286668,-0.430644 LARM_JOINT3:0.978082,0.000000,-0.207581,-0.016310 LLEG_JOINT2:0.999045,0.014925,0.000000,0.041056 LLEG_JOINT4:0.995367,0.095764,0.000000,-0.008560 RARM_JOINT2:0.836121,0.000000,-0.015093,0.548338 RARM_JOINT3:0.964704,0.000000,0.158589,0.210229 RLEG_JOINT2:0.999097,0.014447,0.000000,-0.039945 RLEG_JOINT4:0.991573,0.119892,0.000000,0.049076 WAIST:0.998133,-0.000000,0.059647,0.013176 WAIST_JOINT0:0.998810,-0.000000,0.045475,0.017608 WAIST_JOINT1:0.997725,0.067336,0.000000,-0.003122 END:
KINECT_DATA_Sensor  AnkleLeft:-0.055743,-0.681272,0.104796,0.722343 AnkleRight:0.107778,0.757775,0.081740,0.638341 ElbowLeft:-0.298306,0.785679,-0.133809,-0.525183 ElbowRight:-0.012938,0.931148,0.207815,0.299349 FootLeft:0.000000,0.000000,0.000000,0.000000 FootRight:0.000000,0.000000,0.000000,0.000000 HandLeft:0.035999,0.208983,-0.399043,0.892073 HandRight:0.064168,-0.652628,0.037033,0.754047 HandTipLeft:0.000000,0.000000,0.000000,0.000000 HandTipRight:0.000000,0.000000,0.000000,0.000000 Head:0.000000,0.000000,0.000000,0.000000 HipLeft:0.076858,-0.675589,0.721691,-0.129743 HipRight:-0.160100,0.674491,0.690442,-0.206688 KneeLeft:0.025371,-0.662747,0.049931,0.746746 KneeRight:-0.010959,0.748329,0.028014,0.662645 Neck:-0.045864,0.004321,0.995440,-0.083532 ShoulderLeft:0.056609,0.765380,-0.640750,0.020690 ShoulderRight:-0.002531,0.778767,0.620771,-0.090322 SpineBase:-0.060321,0.006556,0.997277,-0.041919 SpineMid:-0.053027,0.006249,0.997691,-0.041966 SpineShoulder:-0.045768,0.005259,0.997024,-0.061815 ThumbLeft:0.000000,0.000000,0.000000,0.000000 ThumbRight:0.000000,0.000000,0.000000,0.000000 WristLeft:0.085524,0.231296,-0.384464,0.889593 WristRight:0.077227,-0.657255,-0.064524,0.746920 END:
KINECT_DATA POSITION:2.441794,-2.447663,0.174320 HEAD_JOINT1:0.985190,0.171463,-0.000000,0.000727 LARM_JOINT2:0.871758,0.000000,-0.241387,-0.426345 LARM_JOINT3:0.971937,0.000000,-0.233701,0.026869 LLEG_JOINT2:0.999103,0.014578,0.000000,0.039766 LLEG_JOINT4:0.995424,0.095137,0.000000,-0.008972 RARM_JOINT2:0.834916,0.000000,-0.024909,0.549813 RARM_JOINT3:0.962562,0.000000,0.169916,0.211193 RLEG_JOINT2:0.999023,0.015519,0.000000,-0.041383 RLEG_JOINT4:0.991506,0.119611,0.000000,0.051083 WAIST:0.998027,-0.000000,0.061069,0.014562 WAIST_JOINT0:0.998333,-0.000000,0.054056,0.020214 WAIST_JOINT1:0.998062,0.062220,0.000000,-0.001038 END:
KINECT_DATA_Sensor  AnkleLeft:-0.054722,-0.676537,0.104075,0.726961 AnkleRight:0.107049,0.738979,0.084324,0.659803 ElbowLeft:-0.301350,0.723453,-0.147353,-0.603399 ElbowRight:-0.010307,0.928522,0.204181,0.309921 FootLeft:0.000000,0.000000,0.000000,0.000000 FootRight:0.000000,0.000000,0.000000,0.000000 HandLeft:0.118810,0.238254,-0.427534,0.863906 HandRight:-0.097155,0.716921,-0.028008,-0.689783 HandTipLeft:0.000000,0.000000,0.000000,0.000000 HandTipRight:0.000000,0.000000,0.000000,0.000000 Head:0.000000,0.000000,0.000000,0.000000 HipLeft:0.077597,-0.674815,0.722727,-0.127549 HipRight:-0.163348,0.675637,0.688983,-0.205266 KneeLeft:0.025696,-0.661691,0.049737,0.747683 KneeRight:-0.010401,0.749276,0.028761,0.661551 Neck:-0.054108,0.008924,0.995452,-0.077898 ShoulderLeft:0.055200,0.766337,-0.639923,0.013387 ShoulderRight:-0.014741,0.781855,0.615854,-0.095962 SpineBase:-0.061720,0.008925,0.997290,-0.039041 SpineMid:-0.057842,0.008773,0.997522,-0.039075 SpineShoulder:-0.053987,0.009302,0.996869,-0.057025 ThumbLeft:0.000000,0.000000,0.000000,0.000000 ThumbRight:0.000000,0.000000,0.000000,0.000000 WristLeft:0.121900,0.242674,-0.415353,0.868177 WristRight:-0.086428,0.727605,0.056048,-0.678218 END:
KINECT_DATA POSITION:2.271305,-2.403555,0.207388 HEAD_JOINT1:0.985952,0.166748,0.000000,-0.009722 LARM_JOINT2:0.896393,0.000000,-0.149685,-0.417222 LARM_JOINT3:0.959405,0.000000,-0.275322,0.061150 LLEG_JOINT2:0.999230,0.012429,0.000000,0.037221 LLEG_JOINT4:0.995311,0.096474,0.000000,-0.006923 RARM_JOINT2:0.838077,0.000000,-0.012903,0.545399 RARM_JOINT3:0.961258,0.000000,0.175205,0.212806 RLEG_JOINT2:0.998811,0.019225,0.000000,-0.044791 RLEG_JOINT4:0.991786,0.117451,0.000000,0.050661 WAIST:0.997306,-0.000000,0.070728,0.019440 WAIST_JOINT0:0.995488,-0.000000,0.089984,0.030108 WAIST_JOINT1:0.998412,0.056086,-0.000000,0.005323 END:
KINECT_DATA_Sensor  AnkleLeft:-0.050165,-0.656579,0.106950,0.744949 AnkleRight:0.110328,0.765750,0.082023,0.628273 ElbowLeft:0.293912,-0.636837,0.206547,0.682197 ElbowRight:-0.021820,0.937972,0.192129,0.287783 FootLeft:0.000000,0.000000,0.000000,0.000000 FootRight:0.000000,0.000000,0.000000,0.000000 HandLeft:0.184182,0.310678,-0.456770,0.812968 HandRight:0.129115,-0.472697,-0.026585,0.871310 HandTipLeft:0.000000,0.000000,0.000000,0.000000 HandTipRight:0.000000,0.000000,0.000000,0.000000 Head:0.000000,0.000000,0.000000,0.000000 HipLeft:0.074763,-0.671778,0.726832,-0.121819 HipRight:-0.175286,0.678211,0.683365,-0.205713 KneeLeft:0.028709,-0.654414,0.050005,0.753935 KneeRight:-0.007476,0.755726,0.030142,0.654151 Neck:-0.090357,0.022100,0.993076,-0.071749 ShoulderLeft:0.079447,0.761099,-0.643318,-0.023649 ShoulderRight:-0.036982,0.788220,0.603327,-0.115496 SpineBase:-0.071280,0.018952,0.996702,-0.033829 SpineMid:-0.080547,0.019266,0.995996,-0.033651 SpineShoulder:-0.090096,0.021692,0.994399,-0.050825 ThumbLeft:0.000000,0.000000,0.000000,0.000000 ThumbRight:0.000000,0.000000,0.000000,0.000000 WristLeft:0.179505,0.316518,-0.435833,0.823191 WristRight:0.082608,-0.477636,-0.080731,0.870932 END:
KINECT_DATA POSITION:2.027276,-2.392673,0.148988 HEAD_JOINT1:0.986681,0.161491,0.000000,-0.019509 LARM_JOINT2:0.906382,0.000000,-0.127420,-0.402786 LARM_JOINT3:0.963357,0.000000,-0.258373,0.072016 LLEG_JOINT2:0.999392,0.012433,0.000000,0.032576 LLEG_JOINT4:0.996148,0.087657,0.000000,-0.002442 RARM_JOINT2:0.843524,0.000000,0.006547,0.537052 RARM_JOINT3:0.961367,0.000000,0.170300,0.216268 RLEG_JOINT2:0.998568,0.020486,0.000000,-0.049417 RLEG_JOINT4:0.991635,0.118136,0.000000,0.052006 WAIST:0.995983,-0.000000,0.085908,0.025237 WAIST_JOINT0:0.992361,-0.000000,0.118218,0.035279 WAIST_JOINT1:0.998529,0.053803,-0.000000,0.006682 END:
KINECT_DATA_Sensor  AnkleLeft:0.054353,0.740631,-0.098088,-0.662487 AnkleRight:0.109913,0.762207,0.085218,0.632216 ElbowLeft:0.302231,-0.600854,0.234133,0.702006 ElbowRight:-0.039433,0.948856,0.186379,0.251753 FootLeft:0.000000,0.000000,0.000000,0.000000 FootRight:0.000000,0.000000,0.000000,0.000000 HandLeft:0.278233,0.283367,-0.443616,0.803427 HandRight:0.123678,-0.389107,-0.033812,0.912226 HandTipLeft:0.000000,0.000000,0.000000,0.000000 HandTipRight:0.000000,0.000000,0.000000,0.000000 Head:0.000000,0.000000,0.000000,0.000000 HipLeft:0.066725,-0.668514,0.732164,-0.112131 HipRight:-0.188040,0.680043,0.676767,-0.210165 KneeLeft:0.029259,-0.642740,0.050773,0.763840 KneeRight:-0.006774,0.765771,0.029660,0.642394 Neck:-0.118587,0.029421,0.990082,-0.069345 ShoulderLeft:0.095050,0.755048,-0.647060,-0.046708 ShoulderRight:-0.058070,0.787779,0.597962,-0.135919 SpineBase:-0.086516,0.026398,0.995436,-0.030417 SpineMid:-0.102098,0.026871,0.993959,-0.030000 SpineShoulder:-0.118237,0.028758,0.991402,-0.048113 ThumbLeft:0.000000,0.000000,0.000000,0.000000 ThumbRight:0.000000,0.000000,0.000000,0.000000 WristLeft:0.255225,0.290820,-0.405418,0.828203 WristRight:0.091360,-0.394472,-0.091001,0.909815 END:
KINECT_DATA POSITION:1.562829,-2.337157,-0.077486 HEAD_JOINT1:0.988200,0.149916,0.000000,-0.031407 LARM_JOINT2:0.924412,0.000000,-0.109888,-0.365222 LARM_JOINT3:0.955262,0.000000,-0.273684,0.112124 LLEG_JOINT2:0.999447,0.007943,0.000000,0.032280 LLEG_JOINT4:0.996090,0.088276,0.000000,-0.003564 RARM_JOINT2:0.844227,0.000000,-0.000318,0.535986 RARM_JOINT3:0.963198,0.000000,0.161409,0.214936 RLEG_JOINT2:0.998272,0.022967,0.000000,-0.054085 RLEG_JOINT4:0.991519,0.115380,0.000000,0.059815 WAIST:0.994444,-0.000000,0.101176,0.029051 WAIST_JOINT0:0.989723,-0.000000,0.137670,0.038670 WAIST_JOINT1:0.998487,0.054388,-0.000000,0.008131 END:
KINECT_DATA_Sensor  AnkleLeft:-0.036775,-0.630021,0.102955,0.768844 AnkleRight:0.111107,0.755739,0.084506,0.639822 ElbowLeft:0.339104,-0.525168,0.256745,0.737082 ElbowRight:-0.035783,0.952794,0.184788,0.238235 FootLeft:0.000000,0.000000,0.000000,0.000000 FootRight:0.000000,0.000000,0.000000,0.000000 HandLeft:0.295440,0.332901,-0.512404,0.734394 HandRight:0.093330,-0.374935,-0.010955,0.922276 HandTipLeft:0.000000,0.000000,0.000000,0.000000 HandTipRight:0.000000,0.000000,0.000000,0.000000 Head:0.000000,0.000000,0.000000,0.000000 HipLeft:0.057768,-0.667119,0.735264,-0.104889 HipRight:-0.200389,0.679575,0.670579,-0.219877 KneeLeft:0.034742,-0.630829,0.050572,0.773492 KneeRight:-0.006850,0.775709,0.031457,0.630269 Neck:-0.138075,0.034265,0.987351,-0.069994 ShoulderLeft:0.104559,0.749100,-0.651579,-0.057978 ShoulderRight:-0.074753,0.784247,0.596420,-0.153792 SpineBase:-0.101847,0.030938,0.993862,-0.030150 SpineMid:-0.119425,0.031467,0.991903,-0.029597 SpineShoulder:-0.137687,0.033278,0.988726,-0.048528 ThumbLeft:0.000000,0.000000,0.000000,0.000000 ThumbRight:0.000000,0.000000,0.000000,0.000000 WristLeft:0.287897,0.360875,-0.456684,0.760476 WristRight:0.094212,-0.379949,-0.083932,0.916362 END:
KINECT_DATA POSITION:1.196705,-2.278563,-0.308812 HEAD_JOINT1:0.988962,0.141974,0.000000,-0.042391 LARM_JOINT2:0.929874,0.000000,-0.111303,-0.350637 LARM_JOINT3:0.959277,0.000000,-0.264104,0.100188 LLEG_JOINT2:0.999462,0.007048,0.000000,0.032041 LLEG_JOINT4:0.996029,0.088957,0.000000,-0.003711 RARM_JOINT2:0.844930,0.000000,0.001502,0.534875 RARM_JOINT3:0.961592,0.000000,0.164844,0.219469 RLEG_JOINT2:0.998281,0.022547,0.000000,-0.054094 RLEG_JOINT4:0.991631,0.115641,0.000000,0.057406 WAIST:0.994065,-0.000000,0.104098,0.031597 WAIST_JOINT0:0.988368,-0.000000,0.146076,0.042308 WAIST_JOINT1:0.998372,0.056159,-0.000000,0.010002 END:
KINECT_DATA_Sensor  AnkleLeft:-0.034981,-0.625108,0.104258,0.772753 AnkleRight:0.113998,0.783511,0.079770,0.605600 ElbowLeft:0.353859,-0.514084,0.266361,0.734543 ElbowRight:-0.034746,0.954737,0.181930,0.232746 FootLeft:0.000000,0.000000,0.000000,0.000000 FootRight:0.000000,0.000000,0.000000,0.000000 HandLeft:0.297309,0.331825,-0.482232,0.754289 HandRight:-0.112435,0.715160,-0.041219,-0.688626 HandTipLeft:0.000000,0.000000,0.000000,0.000000 HandTipRight:0.000000,0.000000,0.000000,0.000000 Head:0.000000,0.000000,0.000000,0.000000 HipLeft:0.055261,-0.665720,0.736625,-0.105577 HipRight:-0.203479,0.680514,0.667593,-0.223195 KneeLeft:0.036994,-0.628492,0.051666,0.775216 KneeRight:-0.005479,0.777601,0.029251,0.628053 Neck:-0.147069,0.039027,0.985745,-0.071800 ShoulderLeft:0.110968,0.743170,-0.656867,-0.062524 ShoulderRight:-0.080734,0.783447,0.594474,-0.162154 SpineBase:-0.104839,0.034321,0.993397,-0.031530 SpineMid:-0.125364,0.034966,0.991016,-0.030813 SpineShoulder:-0.146639,0.037627,0.987207,-0.050043 ThumbLeft:0.000000,0.000000,0.000000,0.000000 ThumbRight:0.000000,0.000000,0.000000,0.000000 WristLeft:0.311767,0.352539,-0.455791,0.755494 WristRight:-0.121619,0.723939,0.033241,-0.678245 END:
KINECT_DATA POSITION:1.020947,-2.289309,-0.437808 HEAD_JOINT1:0.989163,0.140633,0.000000,-0.042182 LARM_JOINT2:0.928408,0.000000,-0.155177,-0.337608 LARM_JOINT3:0.973099,0.000000,-0.216124,0.079802 LLEG_JOINT2:0.999461,0.006335,0.000000,0.032209 LLEG_JOINT4:0.996024,0.089026,0.000000,-0.003172 RARM_JOINT2:0.844621,0.000000,0.000590,0.535365 RARM_JOINT3:0.962992,0.000000,0.159866,0.217002 RLEG_JOINT2:0.998362,0.021406,0.000000,-0.053064 RLEG_JOINT4:0.991625,0.115779,0.000000,0.057227 WAIST:0.993832,-0.000000,0.106155,0.032075 WAIST_JOINT0:0.988326,-0.000000,0.146182,0.042924 WAIST_JOINT1:0.998367,0.056291,-0.000000,0.009714 END:
KINECT_DATA_Sensor  AnkleLeft:-0.034099,-0.625150,0.104554,0.772718 AnkleRight:0.113935,0.783572,0.078578,0.605689 ElbowLeft:0.380696,-0.528361,0.243661,0.718703 ElbowRight:-0.034941,0.954200,0.181388,0.235329 FootLeft:0.000000,0.000000,0.000000,0.000000 FootRight:0.000000,0.000000,0.000000,0.000000 HandLeft:0.276984,0.334346,-0.470655,0.768099 HandRight:-0.081986,0.707880,-0.044545,-0.700143 HandTipLeft:0.000000,0.000000,0.000000,0.000000 HandTipRight:0.000000,0.000000,0.000000,0.000000 Head:0.000000,0.000000,0.000000,0.000000 HipLeft:0.053439,-0.665655,0.736963,-0.104566 HipRight:-0.204385,0.680486,0.666878,-0.224589 KneeLeft:0.037932,-0.626867,0.051717,0.776482 KneeRight:-0.005167,0.778861,0.027319,0.626580 Neck:-0.147295,0.038769,0.985726,-0.071733 ShoulderLeft:0.110372,0.742310,-0.658050,-0.061354 ShoulderRight:-0.081843,0.783100,0.594465,-0.163299 SpineBase:-0.106920,0.034689,0.993147,-0.031989 SpineMid:-0.126512,0.035314,0.990842,-0.031297 SpineShoulder:-0.146850,0.037655,0.987161,-0.050299 ThumbLeft:0.000000,0.000000,0.000000,0.000000 ThumbRight:0.000000,0.000000,0.000000,0.000000 WristLeft:0.312034,0.363075,-0.441516,0.758864 WristRight:-0.124070,0.712999,0.035094,-0.689207 END:
KINECT_DATA POSITION:0.972222,-2.304760,-0.436878 HEAD_JOINT1:0.989090,0.142893,0.000000,-0.035819 LARM_JOINT2:0.925915,0.000000,-0.189147,-0.326963 LARM_JOINT3:0.975698,0.000000,-0.206055,0.074537 LLEG_JOINT2:0.999471,0.004681,0.000000,0.032177 LLEG_JOINT4:0.996147,0.087696,0.000000,0.000670 RARM_JOINT2:0.843442,0.000000,-0.011440,0.537098 RARM_JOINT3:0.962367,0.000000,0.162853,0.217550 RLEG_JOINT2:0.998444,0.020705,0.000000,-0.051785 RLEG_JOINT4:0.991822,0.113978,0.000000,0.057430 WAIST:0.993957,-0.000000,0.105184,0.031389 WAIST_JOINT0:0.990830,-0.000000,0.129167,0.039649 WAIST_JOINT1:0.998451,0.055102,-0.000000,0.007644 END:
KINECT_DATA_Sensor  AnkleLeft:0.047071,0.746999,-0.098750,-0.655763 AnkleRight:0.112122,0.775668,0.077529,0.616244 ElbowLeft:0.397915,-0.548719,0.226108,0.699604 ElbowRight:-0.031021,0.947563,0.185485,0.258375 FootLeft:0.000000,0.000000,0.000000,0.000000 FootRight:0.000000,0.000000,0.000000,0.000000 HandLeft:0.270433,0.293589,-0.480483,0.780902 HandRight:-0.063712,0.720707,-0.057155,-0.687936 HandTipLeft:0.000000,0.000000,0.000000,0.000000 HandTipRight:0.000000,0.000000,0.000000,0.000000 Head:0.000000,0.000000,0.000000,0.000000 HipLeft:0.054114,-0.666314,0.736366,-0.104223 HipRight:-0.203341,0.680540,0.667510,-0.223490 KneeLeft:0.038744,-0.627660,0.050151,0.775904 KneeRight:-0.005049,0.778210,0.026480,0.627425 Neck:-0.130442,0.034270,0.988341,-0.070653 ShoulderLeft:0.095165,0.747015,-0.656368,-0.045749 ShoulderRight:-0.074966,0.784976,0.595678,-0.152844 SpineBase:-0.105927,0.033765,0.993302,-0.031468 SpineMid:-0.117584,0.034132,0.991990,-0.031069 SpineShoulder:-0.129938,0.034494,0.989676,-0.049671 ThumbLeft:0.000000,0.000000,0.000000,0.000000 ThumbRight:0.000000,0.000000,0.000000,0.000000 WristLeft:0.310121,0.329079,-0.444153,0.773472 WristRight:-0.126136,0.725612,0.038917,-0.675324 END:
KINECT_DATA POSITION:0.998880,-2.352055,-0.315857 HEAD_JOINT1:0.988704,0.147586,0.000000,-0.026120 LARM_JOINT2:0.926101,0.000000,-0.198492,-0.320841 LARM_JOINT3:0.979748,0.000000,-0.186872,0.071924 LLEG_JOINT2:0.999458,0.006052,0.000000,0.032371 LLEG_JOINT4:0.996020,0.089117,0.000000,-0.001228 RARM_JOINT2:0.840088,0.000000,-0.018742,0.542127 RARM_JOINT3:0.962384,0.000000,0.165898,0.215161 RLEG_JOINT2:0.998518,0.018796,0.000000,-0.051074 RLEG_JOINT4:0.991622,0.115653,0.000000,0.057532 WAIST:0.994675,-0.000000,0.098407,0.030637 WAIST_JOINT0:0.992546,-0.000000,0.115841,0.037850 WAIST_JOINT1:0.998562,0.053410,-0.000000,0.004535 END:
KINECT_DATA_Sensor  AnkleLeft:-0.034682,-0.643416,0.104953,0.757495 AnkleRight:0.112473,0.769077,0.077173,0.624431 ElbowLeft:0.404882,-0.559487,0.218504,0.689421 ElbowRight:-0.026735,0.942200,0.185630,0.277642 FootLeft:0.000000,0.000000,0.000000,0.000000 FootRight:0.000000,0.000000,0.000000,0.000000 HandLeft:0.267252,0.331573,-0.480678,0.766540 HandRight:0.070983,-0.585956,0.043975,0.806029 HandTipLeft:0.000000,0.000000,0.000000,0.000000 HandTipRight:0.000000,0.000000,0.000000,0.000000 Head:0.000000,0.000000,0.000000,0.000000 HipLeft:0.059872,-0.666693,0.735184,-0.106960 HipRight:-0.200495,0.681382,0.668744,-0.219775 KneeLeft:0.037469,-0.632893,0.050523,0.771680 KneeRight:-0.005911,0.773844,0.025270,0.632845 Neck:-0.116900,0.030185,0.990320,-0.068478 ShoulderLeft:0.083354,0.751034,-0.654044,-0.035012 ShoulderRight:-0.068869,0.786945,0.596285,-0.142893 SpineBase:-0.099138,0.032071,0.994109,-0.029836 SpineMid:-0.107422,0.032318,0.993248,-0.029568 SpineShoulder:-0.116417,0.030919,0.991553,-0.048105 ThumbLeft:0.000000,0.000000,0.000000,0.000000 ThumbRight:0.000000,0.000000,0.000000,0.000000 WristLeft:0.288479,0.353732,-0.454799,0.764730 WristRight:0.115933,-0.593320,-0.064806,0.793934 END:
KINECT_DATA POSITION:1.058586,-2.365182,-0.144446 HEAD_JOINT1:0.988570,0.149602,0.000000,-0.018649 LARM_JOINT2:0.927832,0.000000,-0.201480,-0.313900 LARM_JOINT3:0.984872,0.000000,-0.161274,0.063384 LLEG_JOINT2:0.999428,0.007491,0.000000,0.032982 LLEG_JOINT4:0.995970,0.089692,0.000000,0.000049 RARM_JOINT2:0.838340,0.000000,-0.022034,0.544703 RARM_JOINT3:0.961903,0.000000,0.168205,0.215523 RLEG_JOINT2:0.998649,0.018610,0.000000,-0.048510 RLEG_JOINT4:0.991353,0.119423,0.000000,0.054377 WAIST:0.995090,-0.000000,0.094279,0.030126 WAIST_JOINT0:0.993689,-0.000000,0.106130,0.036304 WAIST_JOINT1:0.998606,0.052711,-0.000000,0.002630 END:
KINECT_DATA_Sensor  AnkleLeft:-0.035509,-0.649163,0.107397,0.752192 AnkleRight:0.114090,0.764071,0.080685,0.629816 ElbowLeft:0.410124,-0.564695,0.218084,0.682171 ElbowRight:-0.023969,0.940328,0.186096,0.283861 FootLeft:0.000000,0.000000,0.000000,0.000000 FootRight:0.000000,0.000000,0.000000,0.000000 HandLeft:0.313522,0.317772,-0.429737,0.784889 HandRight:0.077696,-0.689144,0.050416,0.718681 HandTipLeft:0.000000,0.000000,0.000000,0.000000 HandTipRight:0.000000,0.000000,0.000000,0.000000 Head:0.000000,0.000000,0.000000,0.000000 HipLeft:0.062940,-0.667158,0.734479,-0.107139 HipRight:-0.197364,0.682123,0.669901,-0.216768 KneeLeft:0.036510,-0.636007,0.051480,0.769098 KneeRight:-0.004219,0.771238,0.023965,0.636081 Neck:-0.106916,0.027839,0.991547,-0.068033 ShoulderLeft:0.075778,0.753817,-0.652117,-0.027593 ShoulderRight:-0.063305,0.787786,0.597597,-0.135144 SpineBase:-0.095033,0.029690,0.994623,-0.028503 SpineMid:-0.100432,0.029844,0.994092,-0.028342 SpineShoulder:-0.106468,0.028453,0.992780,-0.047364 ThumbLeft:0.000000,0.000000,0.000000,0.000000 ThumbRight:0.000000,0.000000,0.000000,0.000000 WristLeft:0.313786,0.315440,-0.434259,0.783234 WristRight:0.120302,-0.695174,-0.049523,0.706971 END:
KINECT_DATA POSITION:1.123211,-2.385342,-0.088632 HEAD_JOINT1:0.988019,0.153339,0.000000,-0.017489 LARM_JOINT2:0.927609,0.000000,-0.201123,-0.314786 LARM_JOINT3:0.985789,0.000000,-0.157777,0.057679 LLEG_JOINT2:0.999425,0.008130,0.000000,0.032911 LLEG_JOINT4:0.995847,0.091034,0.000000,-0.001099 RARM_JOINT2:0.838075,0.000000,-0.020797,0.545159 RARM_JOINT3:0.962113,0.000000,0.168857,0.214070 RLEG_JOINT2:0.998694,0.017537,0.000000,-0.047991 RLEG_JOINT4:0.991266,0.120673,0.000000,0.053192 WAIST:0.995324,-0.000000,0.091952,0.029566 WAIST_JOINT0:0.994207,-0.000000,0.101325,0.035869 WAIST_JOINT1:0.998539,0.053998,-0.000000,0.002247 END:
KINECT_DATA_Sensor  AnkleLeft:-0.038112,-0.651585,0.107344,0.749974 AnkleRight:0.113447,0.761819,0.081569,0.632540 ElbowLeft:0.409340,-0.563884,0.215218,0.684220 ElbowRight:-0.023217,0.939996,0.186702,0.284626 FootLeft:0.000000,0.000000,0.000000,0.000000 FootRight:0.000000,0.000000,0.000000,0.000000 HandLeft:0.286064,0.339745,-0.432466,0.784674 HandRight:0.078153,-0.654227,0.040228,0.751173 HandTipLeft:0.000000,0.000000,0.000000,0.000000 HandTipRight:0.000000,0.000000,0.000000,0.000000 Head:0.000000,0.000000,0.000000,0.000000 HipLeft:0.063674,-0.667409,0.734013,-0.108331 HipRight:-0.194714,0.682068,0.671001,-0.215934 KneeLeft:0.035650,-0.637809,0.051401,0.767650 KneeRight:-0.004796,0.769704,0.023263,0.637959 Neck:-0.102086,0.026858,0.991962,-0.069771 ShoulderLeft:0.074328,0.753855,-0.652397,-0.023569 ShoulderRight:-0.058519,0.787243,0.599573,-0.131666 SpineBase:-0.092736,0.028298,0.994857,-0.029314 SpineMid:-0.096903,0.028420,0.994460,-0.029195 SpineShoulder:-0.101653,0.027370,0.993257,-0.048563 ThumbLeft:0.000000,0.000000,0.000000,0.000000 ThumbRight:0.000000,0.000000,0.000000,0.000000 WristLeft:0.302167,0.342454,-0.436888,0.774951 WristRight:0.116848,-0.659843,-0.055298,0.740200 END:
KINECT_DATA POSITION:1.124108,-2.389924,-0.072944 HEAD_JOINT1:0.987898,0.154275,0.000000,-0.016019 LARM_JOINT2:0.926764,0.000000,-0.200607,-0.317593 LARM_JOINT3:0.984542,0.000000,-0.165139,0.058361 LLEG_JOINT2:0.999418,0.008325,0.000000,0.033068 LLEG_JOINT4:0.995961,0.089770,0.000000,0.001864 RARM_JOINT2:0.838157,0.000000,-0.019812,0.545069 RARM_JOINT3:0.961587,0.000000,0.171927,0.213991 RLEG_JOINT2:0.998714,0.016660,0.000000,-0.047890 RLEG_JOINT4:0.991122,0.120801,0.000000,0.055539 WAIST:0.995436,-0.000000,0.090857,0.029180 WAIST_JOINT0:0.994381,-0.000000,0.099691,0.035598 WAIST_JOINT1:0.998463,0.055381,-0.000000,0.002022 END:
KINECT_DATA_Sensor  AnkleLeft:-0.035594,-0.652975,0.108900,0.748664 AnkleRight:0.112935,0.747146,0.082068,0.649833 ElbowLeft:0.406058,-0.565373,0.213866,0.685370 ElbowRight:-0.022709,0.939814,0.187654,0.284639 FootLeft:0.000000,0.000000,0.000000,0.000000 FootRight:0.000000,0.000000,0.000000,0.000000 HandLeft:0.221595,0.411164,-0.471249,0.748174 HandRight:0.087799,-0.629628,0.030513,0.771316 HandTipLeft:0.000000,0.000000,0.000000,0.000000 HandTipRight:0.000000,0.000000,0.000000,0.000000 Head:0.000000,0.000000,0.000000,0.000000 HipLeft:0.064007,-0.667575,0.733678,-0.109381 HipRight:-0.193547,0.681878,0.671544,-0.215894 KneeLeft:0.035360,-0.638664,0.051358,0.766956 KneeRight:-0.005505,0.768959,0.022826,0.638867 Neck:-0.100503,0.026146,0.992024,-0.071445 ShoulderLeft:0.075532,0.753378,-0.652852,-0.022387 ShoulderRight:-0.055265,0.786469,0.601180,-0.130369 SpineBase:-0.091653,0.027731,0.994952,-0.030026 SpineMid:-0.095571,0.027849,0.994583,-0.029917 SpineShoulder:-0.100076,0.026682,0.993372,-0.049847 ThumbLeft:0.000000,0.000000,0.000000,0.000000 ThumbRight:0.000000,0.000000,0.000000,0.000000 WristLeft:0.251224,0.424349,-0.464507,0.735560 WristRight:0.113850,-0.635225,-0.059084,0.761601 END:
KINECT_DATA POSITION:1.182558,-2.397045,-0.030529 HEAD_JOINT1:0.988241,0.152414,0.000000,-0.012221 LARM_JOINT2:0.930097,0.000000,-0.150789,-0.334935 LARM_JOINT3:0.957539,0.000000,-0.275737,0.084193 LLEG_JOINT2:0.999426,0.009199,0.000000,0.032600 LLEG_JOINT4:0.995972,0.089645,0.000000,-0.001956 RARM_JOINT2:0.841598,0.000000,-0.016856,0.539842 RARM_JOINT3:0.959736,0.000000,0.176468,0.218552 RLEG_JOINT2:0.998680,0.016879,0.000000,-0.048516 RLEG_JOINT4:0.990890,0.123516,0.000000,0.053675 WAIST:0.995598,-0.000000,0.089025,0.029320 WAIST_JOINT0:0.994411,-0.000000,0.099355,0.035723 WAIST_JOINT1:0.998406,0.056373,-0.000000,0.002734 END:
KINECT_DATA_Sensor  AnkleLeft:-0.038317,-0.652677,0.106295,0.749163 AnkleRight:0.115092,0.760659,0.082971,0.633457 ElbowLeft:0.372386,-0.558603,0.245994,0.699127 ElbowRight:-0.024783,0.940731,0.191910,0.278535 FootLeft:0.000000,0.000000,0.000000,0.000000 FootRight:0.000000,0.000000,0.000000,0.000000 HandLeft:0.163292,0.358200,-0.542289,0.742261 HandRight:0.105530,-0.421365,-0.006306,0.900708 HandTipLeft:0.000000,0.000000,0.000000,0.000000 HandTipRight:0.000000,0.000000,0.000000,0.000000 Head:0.000000,0.000000,0.000000,0.000000 HipLeft:0.064325,-0.667223,0.733746,-0.110873 HipRight:-0.191876,0.682216,0.671947,-0.215061 KneeLeft:0.034545,-0.640092,0.051633,0.765783 KneeRight:-0.005666,0.767786,0.023346,0.640256 Neck:-0.100504,0.027368,0.991905,-0.072618 ShoulderLeft:0.079311,0.752327,-0.653546,-0.024329 ShoulderRight:-0.051312,0.787084,0.601104,-0.128603 SpineBase:-0.089838,0.028120,0.995081,-0.030846 SpineMid:-0.094666,0.028270,0.994634,-0.030710 SpineShoulder:-0.100080,0.027571,0.993300,-0.050789 ThumbLeft:0.000000,0.000000,0.000000,0.000000 ThumbRight:0.000000,0.000000,0.000000,0.000000 WristLeft:0.224321,0.405686,-0.502964,0.729470 WristRight:0.095382,-0.427118,-0.085959,0.895033 END:
KINECT_DATA POSITION:1.264146,-2.393760,-0.009477 HEAD_JOINT1:0.988472,0.151117,0.000000,-0.009335 LARM_JOINT2:0.931204,0.000000,-0.124464,-0.342591 LARM_JOINT3:0.952258,0.000000,-0.293561,0.083822 LLEG_JOINT2:0.999459,0.009123,0.000000,0.031601 LLEG_JOINT4:0.995996,0.089379,0.000000,-0.001977 RARM_JOINT2:0.843245,0.000000,-0.015149,0.537315 RARM_JOINT3:0.959129,0.000000,0.171306,0.225226 RLEG_JOINT2:0.998593,0.019022,0.000000,-0.049508 RLEG_JOINT4:0.991243,0.120697,0.000000,0.053574 WAIST:0.995707,-0.000000,0.087597,0.029916 WAIST_JOINT0:0.994235,-0.000000,0.100748,0.036694 WAIST_JOINT1:0.998393,0.056604,-0.000000,0.002739 END:
KINECT_DATA_Sensor  AnkleLeft:-0.037886,-0.651958,0.105899,0.749867 AnkleRight:0.112916,0.748674,0.084575,0.647753 ElbowLeft:0.354688,-0.555744,0.262892,0.704438 ElbowRight:-0.025793,0.941399,0.193621,0.274977 FootLeft:0.000000,0.000000,0.000000,0.000000 FootRight:0.000000,0.000000,0.000000,0.000000 HandLeft:0.219346,0.352531,-0.496296,0.762430 HandRight:0.098446,-0.698289,0.053867,0.706965 HandTipLeft:0.000000,0.000000,0.000000,0.000000 HandTipRight:0.000000,0.000000,0.000000,0.000000 Head:0.000000,0.000000,0.000000,0.000000 HipLeft:0.064969,-0.666586,0.734102,-0.111967 HipRight:-0.190879,0.682774,0.671885,-0.214372 KneeLeft:0.034429,-0.641190,0.051220,0.764897 KneeRight:-0.004561,0.766968,0.025241,0.641172 Neck:-0.102249,0.028309,0.991690,-0.072764 ShoulderLeft:0.083082,0.750544,-0.655001,-0.027483 ShoulderRight:-0.049644,0.787990,0.600158,-0.128132 SpineBase:-0.088443,0.028570,0.995184,-0.031150 SpineMid:-0.094832,0.028770,0.994596,-0.030966 SpineShoulder:-0.101821,0.028378,0.993093,-0.050924 ThumbLeft:0.000000,0.000000,0.000000,0.000000 ThumbRight:0.000000,0.000000,0.000000,0.000000 WristLeft:0.241665,0.358313,-0.502433,0.748846 WristRight:-0.118610,0.711351,0.047641,-0.691117 END:
KINECT_DATA POSITION:1.354112,-2.387920,-0.027454 HEAD_JOINT1:0.988689,0.149717,0.000000,-0.008841 LARM_JOINT2:0.928092,0.000000,-0.157298,-0.337495 LARM_JOINT3:0.969605,0.000000,-0.237497,0.058835 LLEG_JOINT2:0.999467,0.009403,0.000000,0.031253 LLEG_JOINT4:0.995852,0.090928,0.000000,-0.003385 RARM_JOINT2:0.842385,0.000000,-0.016366,0.538628 RARM_JOINT3:0.960859,0.000000,0.169036,0.219494 RLEG_JOINT2:0.998556,0.020384,0.000000,-0.049709 RLEG_JOINT4:0.991411,0.118678,0.000000,0.054949 WAIST:0.995789,-0.000000,0.086714,0.029759 WAIST_JOINT0:0.994283,-0.000000,0.100128,0.037079 WAIST_JOINT1:0.998397,0.056557,-0.000000,0.002244 END:
KINECT_DATA_Sensor  AnkleLeft:0.053042,0.739163,-0.099872,-0.663966 AnkleRight:0.114941,0.760280,0.081180,0.634170 ElbowLeft:0.369074,-0.575832,0.245648,0.686919 ElbowRight:-0.025658,0.939225,0.193117,0.282673 FootLeft:0.000000,0.000000,0.000000,0.000000 FootRight:0.000000,0.000000,0.000000,0.000000 HandLeft:0.223824,0.338212,-0.454496,0.793063 HandRight:-0.074116,0.746828,-0.055446,-0.658544 HandTipLeft:0.000000,0.000000,0.000000,0.000000 HandTipRight:0.000000,0.000000,0.000000,0.000000 Head:0.000000,0.000000,0.000000,0.000000 HipLeft:0.065403,-0.666696,0.733917,-0.112272 HipRight:-0.189854,0.682831,0.672230,-0.214020 KneeLeft:0.033907,-0.641868,0.051010,0.764365 KneeRight:-0.003907,0.766457,0.026548,0.641735 Neck:-0.101565,0.027649,0.991795,-0.072537 ShoulderLeft:0.083457,0.750419,-0.655091,-0.027612 ShoulderRight:-0.048318,0.787936,0.600585,-0.126964 SpineBase:-0.087579,0.027850,0.995276,-0.031298 SpineMid:-0.094075,0.028054,0.994683,-0.031116 SpineShoulder:-0.101143,0.027818,0.993180,-0.050884 ThumbLeft:0.000000,0.000000,0.000000,0.000000 ThumbRight:0.000000,0.000000,0.000000,0.000000 WristLeft:0.263768,0.347755,-0.462817,0.771553 WristRight:-0.121449,0.752888,0.043068,-0.645411 END:
KINECT_DATA POSITION:1.389197,-2.388716,-0.065625 HEAD_JOINT1:0.988451,0.151301,0.000000,-0.008483 LARM_JOINT2:0.926627,0.000000,-0.164028,-0.338314 LARM_JOINT3:0.973718,0.000000,-0.221159,0.054428 LLEG_JOINT2:0.999473,0.009219,0.000000,0.031136 LLEG_JOINT4:0.995604,0.093631,0.000000,-0.002477 RARM_JOINT2:0.840555,0.000000,-0.021359,0.541305 RARM_JOINT3:0.961290,0.000000,0.167245,0.218975 RLEG_JOINT2:0.998542,0.020374,0.000000,-0.049980 RLEG_JOINT4:0.991345,0.120066,0.000000,0.053088 WAIST:0.995931,-0.000000,0.085054,0.029780 WAIST_JOINT0:0.994529,-0.000000,0.097713,0.036946 WAIST_JOINT1:0.998378,0.056912,-0.000000,0.001358 END:
KINECT_DATA_Sensor  AnkleLeft:0.056491,0.751954,-0.100970,-0.648983 AnkleRight:0.114450,0.759501,0.083365,0.634909 ElbowLeft:0.369000,-0.585036,0.242014,0.680441 ElbowRight:-0.020809,0.937763,0.193051,0.287922 FootLeft:0.000000,0.000000,0.000000,0.000000 FootRight:0.000000,0.000000,0.000000,0.000000 HandLeft:0.231676,0.343337,-0.442314,0.795490 HandRight:0.075130,-0.676437,0.054260,0.730647 HandTipLeft:0.000000,0.000000,0.000000,0.000000 HandTipRight:0.000000,0.000000,0.000000,0.000000 Head:0.000000,0.000000,0.000000,0.000000 HipLeft:0.066219,-0.666594,0.733801,-0.113154 HipRight:-0.188373,0.683067,0.672593,-0.213433 KneeLeft:0.034039,-0.643122,0.050794,0.763319 KneeRight:-0.004026,0.765396,0.026741,0.642991 Neck:-0.099115,0.026716,0.992048,-0.072823 ShoulderLeft:0.082795,0.750538,-0.655104,-0.026014 ShoulderRight:-0.045766,0.787678,0.601581,-0.124778 SpineBase:-0.085952,0.027198,0.995426,-0.031614 SpineMid:-0.092043,0.027391,0.994881,-0.031446 SpineShoulder:-0.098698,0.027008,0.993432,-0.051207 ThumbLeft:0.000000,0.000000,0.000000,0.000000 ThumbRight:0.000000,0.000000,0.000000,0.000000 WristLeft:0.262968,0.348751,-0.452424,0.777517 WristRight:0.112886,-0.683447,-0.053638,0.719222 END:
KINECT_DATA POSITION:1.399186,-2.384913,-0.119340 HEAD_JOINT1:0.988046,0.153928,0.000000,-0.008445 LARM_JOINT2:0.925693,0.000000,-0.166791,-0.339520 LARM_JOINT3:0.975263,0.000000,-0.212542,0.060730 LLEG_JOINT2:0.999475,0.008474,0.000000,0.031270 LLEG_JOINT4:0.995825,0.091279,0.000000,-0.001297 RARM_JOINT2:0.840136,0.000000,-0.022322,0.541916 RARM_JOINT3:0.960721,0.000000,0.171236,0.218387 RLEG_JOINT2:0.998539,0.021949,0.000000,-0.049386 RLEG_JOINT4:0.991940,0.115459,0.000000,0.052203 WAIST:0.995984,-0.000000,0.084490,0.029633 WAIST_JOINT0:0.994628,-0.000000,0.096649,0.037059 WAIST_JOINT1:0.998428,0.056034,-0.000000,0.001070 END:
KINECT_DATA_Sensor  AnkleLeft:-0.038603,-0.654333,0.106920,0.747614 AnkleRight:0.111305,0.752583,0.082531,0.643754 ElbowLeft:0.370561,-0.584040,0.236924,0.682238 ElbowRight:-0.020983,0.936934,0.192733,0.290806 FootLeft:0.000000,0.000000,0.000000,0.000000 FootRight:0.000000,0.000000,0.000000,0.000000 HandLeft:0.240310,0.359045,-0.452277,0.780246 HandRight:-0.084935,0.735599,-0.053650,-0.669927 HandTipLeft:0.000000,0.000000,0.000000,0.000000 HandTipRight:0.000000,0.000000,0.000000,0.000000 Head:0.000000,0.000000,0.000000,0.000000 HipLeft:0.066874,-0.666765,0.733617,-0.112953 HipRight:-0.188042,0.683210,0.672746,-0.212785 KneeLeft:0.034609,-0.643547,0.050303,0.762967 KneeRight:-0.002631,0.765092,0.027679,0.643320 Neck:-0.098043,0.026368,0.992239,-0.071796 ShoulderLeft:0.081369,0.749969,-0.655957,-0.025409 ShoulderRight:-0.045901,0.787296,0.602317,-0.123578 SpineBase:-0.085382,0.026772,0.995503,-0.031107 SpineMid:-0.091238,0.026954,0.994983,-0.030949 SpineShoulder:-0.097634,0.026640,0.993590,-0.050376 ThumbLeft:0.000000,0.000000,0.000000,0.000000 ThumbRight:0.000000,0.000000,0.000000,0.000000 WristLeft:0.256295,0.363800,-0.453815,0.772020 WristRight:-0.116792,0.744124,0.044856,-0.656221 END:
KINECT_DATA POSITION:1.412356,-2.387231,-0.142515 HEAD_JOINT1:0.988195,0.153003,0.000000,-0.007857 LARM_JOINT2:0.925597,0.000000,-0.167521,-0.339422 LARM_JOINT3:0.974108,0.000000,-0.217937,0.060149 LLEG_JOINT2:0.999476,0.008295,0.000000,0.031277 LLEG_JOINT4:0.995705,0.092477,0.000000,-0.004331 RARM_JOINT2:0.840493,0.000000,-0.022844,0.541341 RARM_JOINT3:0.961171,0.000000,0.171720,0.216015 RLEG_JOINT2:0.998507,0.022117,0.000000,-0.049940 RLEG_JOINT4:0.991860,0.114852,0.000000,0.054975 WAIST:0.996004,-0.000000,0.084273,0.029574 WAIST_JOINT0:0.994661,-0.000000,0.096253,0.037224 WAIST_JOINT1:0.998446,0.055709,-0.000000,0.001099 END:
KINECT_DATA_Sensor  AnkleLeft:-0.041260,-0.654108,0.105187,0.747914 AnkleRight:0.113263,0.756799,0.080005,0.638769 ElbowLeft:0.371531,-0.583314,0.235601,0.682790 ElbowRight:-0.021184,0.936648,0.193403,0.291269 FootLeft:0.000000,0.000000,0.000000,0.000000 FootRight:0.000000,0.000000,0.000000,0.000000 HandLeft:0.221366,0.353797,-0.466283,0.780003 HandRight:0.086074,-0.654718,0.034859,0.750147 HandTipLeft:0.000000,0.000000,0.000000,0.000000 HandTipRight:0.000000,0.000000,0.000000,0.000000 Head:0.000000,0.000000,0.000000,0.000000 HipLeft:0.067105,-0.666835,0.733534,-0.112946 HipRight:-0.187988,0.683292,0.672773,-0.212483 KneeLeft:0.034716,-0.643719,0.050149,0.762828 KneeRight:-0.002977,0.764954,0.028213,0.643459 Neck:-0.097635,0.026349,0.992307,-0.071421 ShoulderLeft:0.080674,0.749875,-0.656164,-0.025071 ShoulderRight:-0.046091,0.787334,0.602323,-0.123243 SpineBase:-0.085155,0.026803,0.995527,-0.030910 SpineMid:-0.090921,0.026982,0.995017,-0.030754 SpineShoulder:-0.097225,0.026641,0.993645,-0.050079 ThumbLeft:0.000000,0.000000,0.000000,0.000000 ThumbRight:0.000000,0.000000,0.000000,0.000000 WristLeft:0.253226,0.370544,-0.455540,0.768802 WristRight:0.109963,-0.660438,-0.059150,0.740427 END:
KINECT_DATA POSITION:1.424801,-2.384283,-0.165820 HEAD_JOINT1:0.988218,0.152824,0.000000,-0.008316 LARM_JOINT2:0.924860,0.000000,-0.169913,-0.340240 LARM_JOINT3:0.974678,0.000000,-0.214984,0.061521 LLEG_JOINT2:0.999497,0.007477,0.000000,0.030808 LLEG_JOINT4:0.995905,0.090409,0.000000,-0.000721 RARM_JOINT2:0.839990,0.000000,-0.023690,0.542084 RARM_JOINT3:0.961023,0.000000,0.172277,0.216229 RLEG_JOINT2:0.998476,0.021986,0.000000,-0.050620 RLEG_JOINT4:0.991722,0.115201,0.000000,0.056720 WAIST:0.995982,-0.000000,0.084462,0.029758 WAIST_JOINT0:0.994771,-0.000000,0.095076,0.037312 WAIST_JOINT1:0.998464,0.055404,-0.000000,0.001010 END:
KINECT_DATA_Sensor  AnkleLeft:-0.037123,-0.655501,0.105898,0.746811 AnkleRight:0.114532,0.758431,0.079072,0.636720 ElbowLeft:0.372620,-0.582620,0.232467,0.683862 ElbowRight:-0.021079,0.935791,0.192632,0.294522 FootLeft:0.000000,0.000000,0.000000,0.000000 FootRight:0.000000,0.000000,0.000000,0.000000 HandLeft:0.202967,0.390794,-0.475277,0.761706 HandRight:-0.084732,0.708751,-0.045726,-0.698857 HandTipLeft:0.000000,0.000000,0.000000,0.000000 HandTipRight:0.000000,0.000000,0.000000,0.000000 Head:0.000000,0.000000,0.000000,0.000000 HipLeft:0.067113,-0.666750,0.733647,-0.112705 HipRight:-0.188151,0.683425,0.672597,-0.212467 KneeLeft:0.035165,-0.643579,0.049396,0.762974 KneeRight:-0.003460,0.765076,0.028417,0.643303 Neck:-0.096452,0.026389,0.992444,-0.071099 ShoulderLeft:0.079891,0.749982,-0.656158,-0.024507 ShoulderRight:-0.045306,0.787630,0.602246,-0.122010 SpineBase:-0.085349,0.026847,0.995515,-0.030722 SpineMid:-0.090431,0.027004,0.995067,-0.030585 SpineShoulder:-0.096040,0.026670,0.993772,-0.049818 ThumbLeft:0.000000,0.000000,0.000000,0.000000 ThumbRight:0.000000,0.000000,0.000000,0.000000 WristLeft:0.231615,0.405105,-0.466940,0.751140 WristRight:-0.115076,0.717525,0.050960,-0.685069 END:
KINECT_DATA POSITION:1.425064,-2.391026,-0.202799 HEAD_JOINT1:0.988328,0.152106,0.000000,-0.008490 LARM_JOINT2:0.924532,0.000000,-0.171034,-0.340571 LARM_JOINT3:0.975652,0.000000,-0.211508,0.058030 LLEG_JOINT2:0.999502,0.007047,0.000000,0.030769 LLEG_JOINT4:0.995739,0.092185,0.000000,-0.002213 RARM_JOINT2:0.839730,0.000000,-0.023463,0.542497 RARM_JOINT3:0.961296,0.000000,0.171703,0.215470 RLEG_JOINT2:0.998451,0.022547,0.000000,-0.050870 RLEG_JOINT4:0.992042,0.115147,0.000000,0.050923 WAIST:0.996008,-0.000000,0.084169,0.029725 WAIST_JOINT0:0.994865,-0.000000,0.094156,0.037113 WAIST_JOINT1:0.998472,0.055252,-0.000000,0.000852 END:
KINECT_DATA_Sensor  AnkleLeft:-0.039142,-0.655699,0.105528,0.746586 AnkleRight:0.111324,0.766510,0.081958,0.627177 ElbowLeft:0.372989,-0.582929,0.230921,0.683921 ElbowRight:-0.021262,0.935634,0.192222,0.295276 FootLeft:0.000000,0.000000,0.000000,0.000000 FootRight:0.000000,0.000000,0.000000,0.000000 HandLeft:0.237606,0.331743,-0.446705,0.796207 HandRight:0.084448,-0.667714,0.040702,0.738492 HandTipLeft:0.000000,0.000000,0.000000,0.000000 HandTipRight:0.000000,0.000000,0.000000,0.000000 Head:0.000000,0.000000,0.000000,0.000000 HipLeft:0.067485,-0.666775,0.733589,-0.112710 HipRight:-0.188012,0.683481,0.672656,-0.212224 KneeLeft:0.035455,-0.643800,0.049060,0.762796 KneeRight:-0.003297,0.764908,0.029038,0.643477 Neck:-0.095519,0.026185,0.992549,-0.070977 ShoulderLeft:0.079430,0.750068,-0.656131,-0.024104 ShoulderRight:-0.044544,0.787548,0.602615,-0.120991 SpineBase:-0.085056,0.026641,0.995552,-0.030522 SpineMid:-0.089823,0.026787,0.995133,-0.030394 SpineShoulder:-0.095108,0.026474,0.993875,-0.049664 ThumbLeft:0.000000,0.000000,0.000000,0.000000 ThumbRight:0.000000,0.000000,0.000000,0.000000 WristLeft:0.268553,0.342741,-0.445900,0.782036 WristRight:0.111939,-0.673814,-0.058279,0.728044 END:
KINECT_DATA POSITION:1.445064,-2.335723,-0.376260 HEAD_JOINT1:0.988238,0.152884,0.000000,-0.003580 LARM_JOINT2:0.920917,0.000000,-0.121259,-0.370417 LARM_JOINT3:0.952843,0.000000,-0.303082,0.015217 LLEG_JOINT2:0.999496,0.006838,0.000000,0.031007 LLEG_JOINT4:0.995422,0.095370,0.000000,-0.006261 RARM_JOINT2:0.838751,0.000000,-0.024484,0.543964 RARM_JOINT3:0.961132,0.000000,0.174666,0.213816 RLEG_JOINT2:0.998482,0.022814,0.000000,-0.050131 RLEG_JOINT4:0.992000,0.114928,0.000000,0.052235 WAIST:0.996343,-0.000000,0.080197,0.029491 WAIST_JOINT0:0.995055,-0.000000,0.092194,0.036953 WAIST_JOINT1:0.998407,0.056429,-0.000000,0.000437 END:
KINECT_DATA_Sensor  AnkleLeft:-0.043354,-0.656156,0.104623,0.746079 AnkleRight:0.112297,0.757387,0.081612,0.638039 ElbowLeft:0.314089,-0.616520,0.267482,0.670600 ElbowRight:-0.019249,0.932702,0.192173,0.304575 FootLeft:0.000000,0.000000,0.000000,0.000000 FootRight:0.000000,0.000000,0.000000,0.000000 HandLeft:0.131545,0.273952,-0.439443,0.845302 HandRight:0.087642,-0.634973,0.033293,0.766825 HandTipLeft:0.000000,0.000000,0.000000,0.000000 HandTipRight:0.000000,0.000000,0.000000,0.000000 Head:0.000000,0.000000,0.000000,0.000000 HipLeft:0.068928,-0.666585,0.733185,-0.115555 HipRight:-0.184607,0.683885,0.673666,-0.210705 KneeLeft:0.035716,-0.646832,0.048882,0.760226 KneeRight:-0.002527,0.762346,0.029024,0.646514 Neck:-0.093510,0.025666,0.992671,-0.072119 ShoulderLeft:0.079207,0.750622,-0.655592,-0.022158 ShoulderRight:-0.042108,0.787434,0.603158,-0.119899 SpineBase:-0.081121,0.026223,0.995852,-0.031793 SpineMid:-0.086846,0.026405,0.995369,-0.031642 SpineShoulder:-0.093093,0.026107,0.994020,-0.050761 ThumbLeft:0.000000,0.000000,0.000000,0.000000 ThumbRight:0.000000,0.000000,0.000000,0.000000 WristLeft:0.236286,0.310963,-0.437506,0.809975 WristRight:0.108941,-0.641076,-0.065031,0.756917 END:
KINECT_DATA POSITION:1.701690,-1.981318,-0.651860 HEAD_JOINT1:0.985898,0.161010,-0.000000,0.045613 LARM_JOINT2:0.899596,0.000000,-0.023658,-0.436082 LARM_JOINT3:0.937301,0.000000,-0.291600,-0.190881 LLEG_JOINT2:0.999388,0.012583,0.000000,0.032629 LLEG_JOINT4:0.995446,0.094917,0.000000,-0.008794 RARM_JOINT2:0.824904,0.000000,-0.037651,0.564018 RARM_JOINT3:0.966305,0.000000,0.164366,0.198086 RLEG_JOINT2:0.998562,0.022426,0.000000,-0.048686 RLEG_JOINT4:0.993090,0.108991,0.000000,0.043508 WAIST:0.997995,-0.000000,0.056890,0.027753 WAIST_JOINT0:0.997343,-0.000000,0.064217,0.034395 WAIST_JOINT1:0.998199,0.059697,0.000000,-0.005915 END:
KINECT_DATA_Sensor  AnkleLeft:-0.047038,-0.671975,0.107610,0.731203 AnkleRight:0.103978,0.744529,0.080689,0.654487 ElbowLeft:-0.128917,0.790154,-0.324221,-0.503902 ElbowRight:0.000755,0.917041,0.184530,0.353532 FootLeft:0.000000,0.000000,0.000000,0.000000 FootRight:0.000000,0.000000,0.000000,0.000000 HandLeft:0.012267,0.084271,-0.227885,0.969957 HandRight:0.065646,-0.670293,0.062199,0.736566 HandTipLeft:0.000000,0.000000,0.000000,0.000000 HandTipRight:0.000000,0.000000,0.000000,0.000000 Head:0.000000,0.000000,0.000000,0.000000 HipLeft:0.082289,-0.665395,0.730710,-0.128609 HipRight:-0.167948,0.685549,0.679491,-0.200270 KneeLeft:0.031930,-0.664306,0.052331,0.744942 KneeRight:-0.001760,0.747049,0.029532,0.664110 Neck:-0.065752,0.017903,0.994815,-0.075497 ShoulderLeft:0.071502,0.757700,-0.648644,-0.006301 ShoulderRight:-0.012640,0.791092,0.604320,-0.093864 SpineBase:-0.057988,0.020612,0.997522,-0.034086 SpineMid:-0.061437,0.020730,0.997316,-0.034014 SpineShoulder:-0.065374,0.019115,0.996224,-0.053835 ThumbLeft:0.000000,0.000000,0.000000,0.000000 ThumbRight:0.000000,0.000000,0.000000,0.000000 WristLeft:0.146085,0.107962,-0.250869,0.950825 WristRight:0.091496,-0.677909,-0.060525,0.726914 END:
KINECT_DATA POSITION:2.114910,-1.671702,-0.942492 HEAD_JOINT1:0.981816,0.169191,-0.000000,0.086096 LARM_JOINT2:0.880835,0.000000,0.011058,-0.473294 LARM_JOINT3:0.942937,0.000000,-0.235716,-0.235175 LLEG_JOINT2:0.999128,0.016061,0.000000,0.038541 LLEG_JOINT4:0.995748,0.090678,0.000000,-0.016242 RARM_JOINT2:0.817032,0.000000,-0.041625,0.575088 RARM_JOINT3:0.968143,0.000000,0.160172,0.192471 RLEG_JOINT2:0.998783,0.022801,0.000000,-0.043745 RLEG_JOINT4:0.994075,0.102069,0.000000,0.037379 WAIST:0.998991,-0.000000,0.038788,0.022634 WAIST_JOINT0:0.999057,-0.000000,0.032304,0.029006 WAIST_JOINT1:0.998103,0.060453,0.000000,-0.011675 END:
KINECT_DATA_Sensor  AnkleLeft:-0.050021,-0.689712,0.103159,0.714950 AnkleRight:0.097782,0.741190,0.077701,0.659575 ElbowLeft:-0.061720,0.841267,-0.299266,-0.445982 ElbowRight:0.008961,0.909035,0.184035,0.373772 FootLeft:0.000000,0.000000,0.000000,0.000000 FootRight:0.000000,0.000000,0.000000,0.000000 HandLeft:-0.005378,-0.421605,-0.140300,0.895844 HandRight:0.071535,-0.696441,0.066239,0.710960 HandTipLeft:0.000000,0.000000,0.000000,0.000000 HandTipRight:0.000000,0.000000,0.000000,0.000000 Head:0.000000,0.000000,0.000000,0.000000 HipLeft:0.095353,-0.667573,0.725360,-0.138228 HipRight:-0.154889,0.684676,0.685659,-0.192613 KneeLeft:0.030359,-0.677689,0.055185,0.732646 KneeRight:-0.000597,0.734828,0.030449,0.677569 Neck:-0.033986,0.006814,0.996479,-0.076339 ShoulderLeft:0.048621,0.764096,-0.642923,0.021038 ShoulderRight:0.005780,0.792376,0.605785,-0.071641 SpineBase:-0.039889,0.011622,0.998537,-0.034592 SpineMid:-0.036655,0.011510,0.998661,-0.034630 SpineShoulder:-0.033725,0.008652,0.997894,-0.054731 ThumbLeft:0.000000,0.000000,0.000000,0.000000 ThumbRight:0.000000,0.000000,0.000000,0.000000 WristLeft:0.159952,-0.380568,-0.118483,0.903076 WristRight:-0.079118,0.719433,0.056393,-0.687733 END:
KINECT_DATA POSITION:2.840005,-1.452691,-1.546383 HEAD_JOINT1:0.978605,0.173669,-0.000000,0.110325 LARM_JOINT2:0.859687,0.000000,0.027210,-0.510096 LARM_JOINT3:0.957245,0.000000,-0.188998,-0.219000 LLEG_JOINT2:0.999156,0.015989,0.000000,0.037847 LLEG_JOINT4:0.995227,0.094541,0.000000,-0.024181 RARM_JOINT2:0.808587,0.000000,-0.048408,0.586381 RARM_JOINT3:0.969784,0.000000,0.159050,0.184990 RLEG_JOINT2:0.998881,0.019193,0.000000,-0.043215 RLEG_JOINT4:0.994520,0.099891,0.000000,0.030841 WAIST:0.999627,-0.000000,0.019452,0.019177 WAIST_JOINT0:0.999718,-0.000000,0.007297,0.022583 WAIST_JOINT1:0.997721,0.064893,0.000000,-0.018481 END:
KINECT_DATA_Sensor  AnkleLeft:0.066433,0.753579,-0.093413,-0.647287 AnkleRight:0.090576,0.743169,0.076825,0.658478 ElbowLeft:-0.019525,0.874522,-0.260974,-0.408317 ElbowRight:0.019749,0.893000,0.185015,0.409793 FootLeft:0.000000,0.000000,0.000000,0.000000 FootRight:0.000000,0.000000,0.000000,0.000000 HandLeft:-0.019618,-0.483573,-0.088052,0.870643 HandRight:0.088419,-0.487271,0.050446,0.867297 HandTipLeft:0.000000,0.000000,0.000000,0.000000 HandTipRight:0.000000,0.000000,0.000000,0.000000 Head:0.000000,0.000000,0.000000,0.000000 HipLeft:0.107566,-0.668113,0.720527,-0.151313 HipRight:-0.139014,0.684719,0.690576,-0.186924 KneeLeft:0.028265,-0.691687,0.051900,0.719775 KneeRight:-0.004249,0.721644,0.030244,0.691590 Neck:-0.008935,-0.003031,0.996666,-0.081044 ShoulderLeft:0.033920,0.769034,-0.636768,0.044292 ShoulderRight:0.023533,0.789747,0.610432,-0.055838 SpineBase:-0.020795,0.002654,0.999028,-0.038768 SpineMid:-0.014728,0.002418,0.999136,-0.038784 SpineShoulder:-0.008794,-0.000831,0.998209,-0.059170 ThumbLeft:0.000000,0.000000,0.000000,0.000000 ThumbRight:0.000000,0.000000,0.000000,0.000000 WristLeft:0.107935,-0.462154,-0.075429,0.876969 WristRight:0.042968,-0.489596,-0.075635,0.867600 END:
KINECT_DATA POSITION:3.449073,-1.426906,-1.970279 HEAD_JOINT1:0.976956,0.176613,-0.000000,0.119852 LARM_JOINT2:0.844824,0.000000,0.028927,-0.534261 LARM_JOINT3:0.965367,0.000000,-0.173265,-0.195053 LLEG_JOINT2:0.999180,0.017295,0.000000,0.036622 LLEG_JOINT4:0.995535,0.091458,0.000000,-0.023368 RARM_JOINT2:0.805623,0.000000,-0.051896,0.590152 RARM_JOINT3:0.970220,0.000000,0.164495,0.177804 RLEG_JOINT2:0.998892,0.014580,0.000000,-0.044734 RLEG_JOINT4:0.994777,0.098832,0.000000,0.025501 WAIST:0.999855,-0.000000,0.005381,0.016136 WAIST_JOINT0:0.999845,0.000000,-0.007873,0.015769 WAIST_JOINT1:0.997534,0.066186,0.000000,-0.023341 END:
KINECT_DATA_Sensor  AnkleLeft:0.063530,0.744979,-0.092588,-0.657569 AnkleRight:0.085081,0.768501,0.074733,0.629748 ElbowLeft:-0.007193,0.885009,-0.229666,-0.404921 ElbowRight:0.023077,0.881933,0.189417,0.431026 FootLeft:0.000000,0.000000,0.000000,0.000000 FootRight:0.000000,0.000000,0.000000,0.000000 HandLeft:-0.004726,0.758637,0.089837,-0.645273 HandRight:0.087943,-0.476525,0.021794,0.874480 HandTipLeft:0.000000,0.000000,0.000000,0.000000 HandTipRight:0.000000,0.000000,0.000000,0.000000 Head:0.000000,0.000000,0.000000,0.000000 HipLeft:0.116664,-0.668763,0.716863,-0.158912 HipRight:-0.127766,0.684381,0.694581,-0.181262 KneeLeft:0.024874,-0.701789,0.049586,0.710222 KneeRight:-0.010096,0.711895,0.030441,0.701554 Neck:0.006583,-0.010222,0.996523,-0.082420 ShoulderLeft:0.023828,0.773128,-0.631167,0.057743 ShoulderRight:0.033451,0.786125,0.615492,-0.045370 SpineBase:-0.006847,-0.004351,0.999152,-0.040369 SpineMid:-0.000115,-0.004623,0.999175,-0.040339 SpineShoulder:0.006617,-0.007893,0.998107,-0.060639 ThumbLeft:0.000000,0.000000,0.000000,0.000000 ThumbRight:0.000000,0.000000,0.000000,0.000000 WristLeft:-0.103296,0.757600,0.027313,-0.643914 WristRight:0.028926,-0.476543,-0.077840,0.875220 END:
KINECT_DATA POSITION:4.002391,-1.472118,-1.957726 HEAD_JOINT1:0.977474,0.172002,-0.000000,0.122310 LARM_JOINT2:0.835101,0.000000,0.026850,-0.549441 LARM_JOINT3:0.967397,0.000000,-0.172429,-0.185503 LLEG_JOINT2:0.999172,0.018354,0.000000,0.036316 LLEG_JOINT4:0.995846,0.088641,0.000000,-0.020841 RARM_JOINT2:0.802058,0.000000,-0.059352,0.594290 RARM_JOINT3:0.970529,0.000000,0.173012,0.167751 RLEG_JOINT2:0.999014,0.014784,0.000000,-0.041863 RLEG_JOINT4:0.995125,0.095372,0.000000,0.025104 WAIST:0.999925,0.000000,-0.005276,0.011063 WAIST_JOINT0:0.999674,0.000000,-0.024155,0.008299 WAIST_JOINT1:0.997676,0.062560,0.000000,-0.026996 END:
KINECT_DATA_Sensor  AnkleLeft:0.063286,0.753284,-0.090039,-0.648422 AnkleRight:0.081774,0.761447,0.073918,0.638787 ElbowLeft:-0.002140,0.896355,-0.203768,-0.393727 ElbowRight:0.020279,0.862180,0.193430,0.467782 FootLeft:0.000000,0.000000,0.000000,0.000000 FootRight:0.000000,0.000000,0.000000,0.000000 HandLeft:-0.023547,-0.458700,-0.109505,0.881504 HandRight:0.084006,-0.496505,0.004488,0.863948 HandTipLeft:0.000000,0.000000,0.000000,0.000000 HandTipRight:0.000000,0.000000,0.000000,0.000000 Head:0.000000,0.000000,0.000000,0.000000 HipLeft:0.125938,-0.671737,0.711715,-0.162390 HipRight:-0.120862,0.682728,0.698920,-0.175458 KneeLeft:-0.020734,0.709569,-0.046398,-0.702801 KneeRight:-0.011064,0.704303,0.032358,0.709075 Neck:0.023209,-0.018727,0.996484,-0.078292 ShoulderLeft:0.010921,0.780721,-0.621128,0.067493 ShoulderRight:0.041790,0.785206,0.617118,-0.029481 SpineBase:0.003940,-0.012275,0.999175,-0.038506 SpineMid:0.013439,-0.012640,0.999093,-0.038387 SpineShoulder:0.023116,-0.016165,0.997960,-0.057276 ThumbLeft:0.000000,0.000000,0.000000,0.000000 ThumbRight:0.000000,0.000000,0.000000,0.000000 WristLeft:0.062686,-0.445435,-0.073366,0.890099 WristRight:0.018094,-0.495226,-0.089459,0.863957 END:
KINECT_DATA POSITION:4.234727,-1.539249,-1.848841 HEAD_JOINT1:0.978114,0.161809,-0.000000,0.130811 LARM_JOINT2:0.835201,0.000000,0.007500,-0.549893 LARM_JOINT3:0.967649,0.000000,-0.170443,-0.186021 LLEG_JOINT2:0.998987,0.020588,0.000000,0.040011 LLEG_JOINT4:0.995586,0.090468,0.000000,-0.024997 RARM_JOINT2:0.793240,0.000000,-0.074015,0.604394 RARM_JOINT3:0.971402,0.000000,0.180947,0.153743 RLEG_JOINT2:0.999164,0.015602,0.000000,-0.037794 RLEG_JOINT4:0.995337,0.092772,0.000000,0.026407 WAIST:0.999869,0.000000,-0.015106,0.005756 WAIST_JOINT0:0.999024,0.000000,-0.044032,0.003554 WAIST_JOINT1:0.997812,0.058814,0.000000,-0.030211 END:
KINECT_DATA_Sensor  AnkleLeft:0.065092,0.729050,-0.092159,-0.675097 AnkleRight:0.073974,0.690421,0.079334,0.715229 ElbowLeft:-0.013097,0.914022,-0.188122,-0.359169 ElbowRight:0.023480,0.835233,0.192687,0.514496 FootLeft:0.000000,0.000000,0.000000,0.000000 FootRight:0.000000,0.000000,0.000000,0.000000 HandLeft:-0.015061,-0.504858,-0.141047,0.851468 HandRight:0.065706,-0.519704,-0.004106,0.851806 HandTipLeft:0.000000,0.000000,0.000000,0.000000 HandTipRight:0.000000,0.000000,0.000000,0.000000 Head:0.000000,0.000000,0.000000,0.000000 HipLeft:0.135847,-0.674857,0.706019,-0.166285 HipRight:-0.116176,0.680837,0.702814,-0.170344 KneeLeft:-0.018444,0.716757,-0.046705,-0.695513 KneeRight:-0.010998,0.697125,0.033940,0.716061 Neck:0.043027,-0.027549,0.995935,-0.074188 ShoulderLeft:-0.003945,0.785628,-0.613580,0.079327 ShoulderRight:0.052212,0.784703,0.617585,-0.010183 SpineBase:0.013974,-0.019062,0.999072,-0.036004 SpineMid:0.028248,-0.019575,0.998770,-0.035728 SpineShoulder:0.042831,-0.024491,0.997346,-0.053545 ThumbLeft:0.000000,0.000000,0.000000,0.000000 ThumbRight:0.000000,0.000000,0.000000,0.000000 WristLeft:0.054806,-0.493547,-0.084648,0.863854 WristRight:0.011139,-0.517799,-0.098368,0.849755 END:
KINECT_DATA POSITION:4.308319,-1.611558,-1.756489 HEAD_JOINT1:0.977886,0.155980,-0.000000,0.139317 LARM_JOINT2:0.834955,0.000000,-0.004551,-0.550300 LARM_JOINT3:0.971138,0.000000,-0.154891,-0.181385 LLEG_JOINT2:0.998843,0.019075,0.000000,0.044149 LLEG_JOINT4:0.994425,0.100913,0.000000,-0.030594 RARM_JOINT2:0.789354,0.000000,-0.087809,0.607626 RARM_JOINT3:0.971886,0.000000,0.182213,0.149117 RLEG_JOINT2:0.999257,0.014772,0.000000,-0.035604 RLEG_JOINT4:0.995061,0.095510,0.000000,0.027060 WAIST:0.999688,0.000000,-0.024891,0.002226 WAIST_JOINT0:0.998043,0.000000,-0.062538,-0.000051 WAIST_JOINT1:0.997830,0.057628,0.000000,-0.031844 END:
KINECT_DATA_Sensor  AnkleLeft:0.073921,0.733829,-0.095560,-0.668505 AnkleRight:0.075283,0.679808,0.080715,0.725037 ElbowLeft:-0.018815,0.927108,-0.178729,-0.328896 ElbowRight:0.031670,0.821832,0.196604,0.533794 FootLeft:0.000000,0.000000,0.000000,0.000000 FootRight:0.000000,0.000000,0.000000,0.000000 HandLeft:-0.012845,-0.530217,-0.111284,0.840429 HandRight:0.050464,-0.568441,-0.009236,0.821123 HandTipLeft:0.000000,0.000000,0.000000,0.000000 HandTipRight:0.000000,0.000000,0.000000,0.000000 Head:0.000000,0.000000,0.000000,0.000000 HipLeft:0.144017,-0.676430,0.701747,-0.171035 HipRight:-0.111027,0.679926,0.705666,-0.165559 KneeLeft:-0.020408,0.723562,-0.045823,-0.688434 KneeRight:-0.012212,0.689992,0.034422,0.722895 Neck:0.061463,-0.032785,0.994891,-0.073067 ShoulderLeft:-0.018447,0.787764,-0.608549,0.093570 ShoulderRight:0.061198,0.783859,0.617899,0.004622 SpineBase:0.023866,-0.023464,0.998832,-0.034852 SpineMid:0.042312,-0.024104,0.998221,-0.034413 SpineShoulder:0.061210,-0.029500,0.996319,-0.052261 ThumbLeft:0.000000,0.000000,0.000000,0.000000 ThumbRight:0.000000,0.000000,0.000000,0.000000 WristLeft:0.048141,-0.522128,-0.087396,0.847011 WristRight:0.006705,-0.566332,-0.094518,0.818712 END:
