EastLYD/RoboCupatHomeSim/InteractiveCleanUp/JapanOpen2016/Motion_Data/File54.dat
KINECT_DATA POSITION:6.250880,-0.376894,-7.270050 HEAD_JOINT1:0.975078,0.195813,-0.000000,0.104312 LARM_JOINT2:0.825816,0.000000,-0.033203,-0.562961 LARM_JOINT3:0.966318,0.000000,-0.203805,-0.157138 LLEG_JOINT2:0.998734,0.014679,0.000000,0.048121 LLEG_JOINT4:0.995223,0.091575,0.000000,-0.033831 RARM_JOINT2:0.790227,0.000000,-0.106521,0.603485 RARM_JOINT3:0.962600,0.000000,0.217942,0.160942 RLEG_JOINT2:0.999736,-0.001238,-0.000000,-0.022942 RLEG_JOINT4:0.995346,0.090804,0.000000,0.032277 WAIST:0.999965,0.000000,-0.008246,-0.001323 WAIST_JOINT0:0.999595,0.000000,-0.028417,0.001774 WAIST_JOINT1:0.997225,0.072675,0.000000,-0.016128 END:
KINECT_DATA_Sensor  AnkleLeft:0.069586,0.741100,-0.081059,-0.662841 AnkleRight:0.074133,0.755071,0.050857,0.649450 ElbowLeft:-0.034549,0.897196,-0.169672,-0.406273 ElbowRight:0.056175,0.821393,0.204478,0.529478 FootLeft:0.000000,0.000000,0.000000,0.000000 FootRight:0.000000,0.000000,0.000000,0.000000 HandLeft:-0.184848,0.851355,-0.027498,0.490174 HandRight:0.043968,0.010096,-0.078216,0.995915 HandTipLeft:0.000000,0.000000,0.000000,0.000000 HandTipRight:0.000000,0.000000,0.000000,0.000000 Head:0.000000,0.000000,0.000000,0.000000 HipLeft:0.120922,-0.678663,0.703648,-0.172262 HipRight:-0.110911,0.675199,0.707476,-0.176868 KneeLeft:-0.023088,0.711922,-0.043271,-0.700544 KneeRight:-0.017885,0.701982,0.016446,0.711780 Neck:0.027249,-0.019801,0.995506,-0.088502 ShoulderLeft:0.022071,0.773620,-0.629101,0.072509 ShoulderRight:0.058587,0.773186,0.630812,-0.028761 SpineBase:0.007644,-0.014418,0.998687,-0.048565 SpineMid:0.017277,-0.014885,0.998567,-0.048424 SpineShoulder:0.027120,-0.017707,0.997207,-0.067297 ThumbLeft:0.000000,0.000000,0.000000,0.000000 ThumbRight:0.000000,0.000000,0.000000,0.000000 WristLeft:-0.119370,0.865310,-0.072507,0.481386 WristRight:-0.028487,0.004579,-0.083716,0.996072 END:
KINECT_DATA POSITION:6.330325,-0.386968,-7.044339 HEAD_JOINT1:0.975327,0.192894,-0.000000,0.107370 LARM_JOINT2:0.826049,0.000000,-0.035406,-0.562486 LARM_JOINT3:0.965556,0.000000,-0.205382,-0.159749 LLEG_JOINT2:0.998755,0.015948,0.000000,0.047266 LLEG_JOINT4:0.995346,0.090268,0.000000,-0.033724 RARM_JOINT2:0.790241,0.000000,-0.105123,0.603712 RARM_JOINT3:0.961705,0.000000,0.223506,0.158645 RLEG_JOINT2:0.999716,0.000126,0.000000,-0.023840 RLEG_JOINT4:0.995239,0.091777,0.000000,0.032816 WAIST:0.999955,0.000000,-0.009377,-0.001048 WAIST_JOINT0:0.999480,0.000000,-0.032214,0.001337 WAIST_JOINT1:0.997215,0.072714,0.000000,-0.016566 END:
KINECT_DATA_Sensor  AnkleLeft:0.068600,0.732201,-0.081775,-0.672673 AnkleRight:0.071059,0.694198,0.058773,0.713853 ElbowLeft:-0.036904,0.896688,-0.168968,-0.407479 ElbowRight:0.055333,0.820753,0.204007,0.530739 FootLeft:0.000000,0.000000,0.000000,0.000000 FootRight:0.000000,0.000000,0.000000,0.000000 HandLeft:-0.164397,0.537775,-0.100596,0.820763 HandRight:-0.037975,0.656305,-0.091994,0.747903 HandTipLeft:0.000000,0.000000,0.000000,0.000000 HandTipRight:0.000000,0.000000,0.000000,0.000000 Head:0.000000,0.000000,0.000000,0.000000 HipLeft:0.121937,-0.678341,0.703687,-0.172653 HipRight:-0.110274,0.675504,0.707447,-0.176217 KneeLeft:-0.021830,0.712747,-0.043746,-0.699715 KneeRight:-0.017326,0.701205,0.017868,0.712526 Neck:0.031059,-0.020074,0.995378,-0.088634 ShoulderLeft:0.019300,0.774136,-0.628196,0.075569 ShoulderRight:0.060714,0.773266,0.630636,-0.025920 SpineBase:0.008728,-0.014765,0.998684,-0.048335 SpineMid:0.019705,-0.015296,0.998528,-0.048170 SpineShoulder:0.030929,-0.017988,0.997093,-0.067266 ThumbLeft:0.000000,0.000000,0.000000,0.000000 ThumbRight:0.000000,0.000000,0.000000,0.000000 WristLeft:-0.073792,0.546869,-0.121805,0.825016 WristRight:-0.077687,0.650446,-0.047905,0.754049 END:
KINECT_DATA POSITION:6.326179,-0.432453,-6.866467 HEAD_JOINT1:0.975950,0.188438,-0.000000,0.109607 LARM_JOINT2:0.826605,0.000000,-0.041630,-0.561240 LARM_JOINT3:0.963686,0.000000,-0.211658,-0.162822 LLEG_JOINT2:0.998714,0.017469,0.000000,0.047585 LLEG_JOINT4:0.995275,0.091189,0.000000,-0.033341 RARM_JOINT2:0.790268,0.000000,-0.104810,0.603732 RARM_JOINT3:0.963028,0.000000,0.218124,0.158112 RLEG_JOINT2:0.999719,0.001262,0.000000,-0.023689 RLEG_JOINT4:0.995198,0.092552,0.000000,0.031868 WAIST:0.999939,0.000000,-0.011021,-0.000948 WAIST_JOINT0:0.999375,0.000000,-0.035349,0.000365 WAIST_JOINT1:0.997203,0.072731,0.000000,-0.017214 END:
KINECT_DATA_Sensor  AnkleLeft:0.068653,0.724817,-0.084976,-0.680225 AnkleRight:0.071986,0.692398,0.060536,0.715359 ElbowLeft:-0.040925,0.900306,-0.167283,-0.399738 ElbowRight:0.055483,0.820659,0.204198,0.530796 FootLeft:0.000000,0.000000,0.000000,0.000000 FootRight:0.000000,0.000000,0.000000,0.000000 HandLeft:-0.207561,0.629484,-0.088949,0.743476 HandRight:-0.025301,0.663128,-0.073051,0.744503 HandTipLeft:0.000000,0.000000,0.000000,0.000000 HandTipRight:0.000000,0.000000,0.000000,0.000000 Head:0.000000,0.000000,0.000000,0.000000 HipLeft:0.123163,-0.678033,0.703603,-0.173334 HipRight:-0.109215,0.675699,0.707636,-0.175370 KneeLeft:-0.021135,0.713922,-0.045091,-0.698452 KneeRight:-0.016305,0.700075,0.018509,0.713643 Neck:0.034276,-0.020635,0.995255,-0.088690 ShoulderLeft:0.017051,0.775207,-0.626628,0.078107 ShoulderRight:0.062559,0.773083,0.630775,-0.023518 SpineBase:0.010334,-0.015304,0.998665,-0.048235 SpineMid:0.022102,-0.015872,0.998474,-0.048051 SpineShoulder:0.034143,-0.018528,0.996979,-0.067263 ThumbLeft:0.000000,0.000000,0.000000,0.000000 ThumbRight:0.000000,0.000000,0.000000,0.000000 WristLeft:-0.091453,0.640046,-0.112630,0.754515 WristRight:-0.077875,0.656094,-0.046666,0.749199 END:
KINECT_DATA POSITION:6.277753,-0.483842,-6.598496 HEAD_JOINT1:0.975499,0.187482,-0.000000,0.115119 LARM_JOINT2:0.827783,0.000000,-0.044949,-0.559245 LARM_JOINT3:0.965244,0.000000,-0.205486,-0.161491 LLEG_JOINT2:0.998689,0.020224,0.000000,0.047017 LLEG_JOINT4:0.995189,0.092169,0.000000,-0.033228 RARM_JOINT2:0.788451,0.000000,-0.110384,0.605112 RARM_JOINT3:0.962774,0.000000,0.217634,0.160317 RLEG_JOINT2:0.999704,0.004169,0.000000,-0.023978 RLEG_JOINT4:0.995217,0.092044,0.000000,0.032715 WAIST:0.999921,0.000000,-0.012556,-0.000643 WAIST_JOINT0:0.999260,0.000000,-0.038457,0.000021 WAIST_JOINT1:0.997251,0.071895,0.000000,-0.017931 END:
KINECT_DATA_Sensor  AnkleLeft:0.074206,0.747986,-0.085110,-0.654039 AnkleRight:0.074323,0.690332,0.061560,0.717027 ElbowLeft:-0.044023,0.903657,-0.167438,-0.391703 ElbowRight:0.058453,0.815384,0.204274,0.538521 FootLeft:0.000000,0.000000,0.000000,0.000000 FootRight:0.000000,0.000000,0.000000,0.000000 HandLeft:-0.187825,0.638225,-0.084642,0.741772 HandRight:-0.008079,0.640201,-0.077231,0.764273 HandTipLeft:0.000000,0.000000,0.000000,0.000000 HandTipRight:0.000000,0.000000,0.000000,0.000000 Head:0.000000,0.000000,0.000000,0.000000 HipLeft:0.124836,-0.677721,0.703583,-0.173441 HipRight:-0.108778,0.676108,0.707609,-0.174168 KneeLeft:-0.019082,0.715090,-0.046853,-0.697199 KneeRight:-0.014181,0.698995,0.020553,0.714690 Neck:0.037644,-0.021073,0.995198,-0.087863 ShoulderLeft:0.011413,0.775773,-0.625518,0.082305 ShoulderRight:0.061247,0.772862,0.631207,-0.022595 SpineBase:0.011824,-0.015798,0.998683,-0.047358 SpineMid:0.024514,-0.016398,0.998452,-0.047153 SpineShoulder:0.037509,-0.018950,0.996907,-0.066413 ThumbLeft:0.000000,0.000000,0.000000,0.000000 ThumbRight:0.000000,0.000000,0.000000,0.000000 WristLeft:-0.094711,0.647385,-0.111679,0.747964 WristRight:-0.076600,0.630605,-0.047493,0.770853 END:
KINECT_DATA POSITION:6.189538,-0.524916,-6.427634 HEAD_JOINT1:0.975165,0.187048,-0.000000,0.118604 LARM_JOINT2:0.829421,0.000000,-0.066310,-0.554675 LARM_JOINT3:0.959776,0.000000,-0.232377,-0.157579 LLEG_JOINT2:0.998658,0.022052,0.000000,0.046863 LLEG_JOINT4:0.995333,0.089842,0.000000,-0.035220 RARM_JOINT2:0.786833,0.000000,-0.113025,0.606729 RARM_JOINT3:0.962390,0.000000,0.219131,0.160586 RLEG_JOINT2:0.999696,0.004013,0.000000,-0.024325 RLEG_JOINT4:0.995267,0.091885,0.000000,0.031631 WAIST:0.999877,0.000000,-0.015681,-0.000017 WAIST_JOINT0:0.999160,0.000000,-0.040982,0.000750 WAIST_JOINT1:0.997285,0.071065,0.000000,-0.019291 END:
KINECT_DATA_Sensor  AnkleLeft:0.073684,0.742964,-0.084689,-0.659851 AnkleRight:0.077885,0.737001,0.056354,0.669019 ElbowLeft:-0.063689,0.902457,-0.160751,-0.394555 ElbowRight:0.060139,0.811256,0.203371,0.544874 FootLeft:0.000000,0.000000,0.000000,0.000000 FootRight:0.000000,0.000000,0.000000,0.000000 HandLeft:-0.207331,0.469278,-0.173502,0.840648 HandRight:-0.005414,0.608123,-0.085225,0.789236 HandTipLeft:0.000000,0.000000,0.000000,0.000000 HandTipRight:0.000000,0.000000,0.000000,0.000000 Head:0.000000,0.000000,0.000000,0.000000 HipLeft:0.127898,-0.677012,0.703473,-0.174419 HipRight:-0.107760,0.676948,0.707439,-0.172219 KneeLeft:-0.018283,0.717294,-0.048441,-0.694844 KneeRight:-0.014028,0.696818,0.020294,0.716823 Neck:0.040323,-0.021543,0.995135,-0.087269 ShoulderLeft:0.006611,0.775825,-0.625067,0.085689 ShoulderRight:0.059938,0.773333,0.630783,-0.021801 SpineBase:0.014876,-0.016339,0.998686,-0.046236 SpineMid:0.027367,-0.016916,0.998422,-0.046028 SpineShoulder:0.040177,-0.019428,0.996848,-0.065600 ThumbLeft:0.000000,0.000000,0.000000,0.000000 ThumbRight:0.000000,0.000000,0.000000,0.000000 WristLeft:-0.090880,0.489169,-0.148932,0.854560 WristRight:-0.075032,0.598002,-0.049542,0.796435 END:
KINECT_DATA POSITION:5.969062,-0.603680,-6.040287 HEAD_JOINT1:0.976388,0.177400,-0.000000,0.123268 LARM_JOINT2:0.829785,0.000000,-0.174023,-0.530257 LARM_JOINT3:0.956934,0.000000,-0.262767,-0.123409 LLEG_JOINT2:0.998439,0.025370,0.000000,0.049762 LLEG_JOINT4:0.995354,0.089986,0.000000,-0.034254 RARM_JOINT2:0.785154,0.000000,-0.116751,0.608196 RARM_JOINT3:0.962807,0.000000,0.221667,0.154489 RLEG_JOINT2:0.999751,0.007800,0.000000,-0.020890 RLEG_JOINT4:0.995363,0.091411,0.000000,0.029947 WAIST:0.999866,0.000000,-0.016352,-0.000911 WAIST_JOINT0:0.999040,0.000000,-0.043814,-0.000463 WAIST_JOINT1:0.997452,0.068624,0.000000,-0.019483 END:
KINECT_DATA_Sensor  AnkleLeft:0.075712,0.754888,-0.087868,-0.645517 AnkleRight:0.081325,0.740422,0.057289,0.664740 ElbowLeft:-0.149337,0.902225,-0.121543,-0.385897 ElbowRight:0.060486,0.808104,0.202463,0.549835 FootLeft:0.000000,0.000000,0.000000,0.000000 FootRight:0.000000,0.000000,0.000000,0.000000 HandLeft:-0.365625,0.884926,-0.004054,0.288457 HandRight:-0.027399,0.608497,-0.072103,0.789799 HandTipLeft:0.000000,0.000000,0.000000,0.000000 HandTipRight:0.000000,0.000000,0.000000,0.000000 Head:0.000000,0.000000,0.000000,0.000000 HipLeft:0.131728,-0.678414,0.702270,-0.170936 HipRight:-0.109815,0.676991,0.707811,-0.169197 KneeLeft:-0.017436,0.717972,-0.052206,-0.693893 KneeRight:-0.009537,0.696266,0.021092,0.717411 Neck:0.043645,-0.022461,0.995210,-0.084546 ShoulderLeft:-0.000326,0.778819,-0.620930,0.088808 ShoulderRight:0.057069,0.774188,0.630063,-0.019927 SpineBase:0.015605,-0.018801,0.998845,-0.041372 SpineMid:0.029268,-0.019365,0.998538,-0.041111 SpineShoulder:0.043445,-0.020705,0.996843,-0.063156 ThumbLeft:0.000000,0.000000,0.000000,0.000000 ThumbRight:0.000000,0.000000,0.000000,0.000000 WristLeft:-0.259995,0.924997,-0.056221,0.271334 WristRight:-0.076704,0.602071,-0.049921,0.793181 END:
KINECT_DATA POSITION:5.684492,-0.644917,-5.672944 HEAD_JOINT1:0.978006,0.163857,-0.000000,0.129057 LARM_JOINT2:0.832381,0.000000,-0.236981,-0.500980 LARM_JOINT3:0.960240,0.000000,-0.263153,-0.093224 LLEG_JOINT2:0.998086,0.030143,0.000000,0.053999 LLEG_JOINT4:0.995343,0.087735,0.000000,-0.039937 RARM_JOINT2:0.783661,0.000000,-0.119979,0.609492 RARM_JOINT3:0.963799,0.000000,0.214323,0.158612 RLEG_JOINT2:0.999814,0.009468,0.000000,-0.016804 RLEG_JOINT4:0.995523,0.090852,0.000000,0.026059 WAIST:0.999742,0.000000,-0.022635,-0.002074 WAIST_JOINT0:0.998692,0.000000,-0.051053,-0.002641 WAIST_JOINT1:0.997686,0.064749,0.000000,-0.020755 END:
KINECT_DATA_Sensor  AnkleLeft:0.076663,0.743448,-0.089872,-0.658279 AnkleRight:0.081820,0.735530,0.058312,0.670000 ElbowLeft:-0.208590,0.892342,-0.095701,-0.388662 ElbowRight:0.060374,0.803939,0.201379,0.556313 FootLeft:0.000000,0.000000,0.000000,0.000000 FootRight:0.000000,0.000000,0.000000,0.000000 HandLeft:-0.311150,0.545935,-0.242041,0.739295 HandRight:0.001981,0.591928,-0.061038,0.803674 HandTipLeft:0.000000,0.000000,0.000000,0.000000 HandTipRight:0.000000,0.000000,0.000000,0.000000 Head:0.000000,0.000000,0.000000,0.000000 HipLeft:0.139269,-0.679077,0.700075,-0.171329 HipRight:-0.108976,0.677379,0.708808,-0.163932 KneeLeft:-0.016668,0.722616,-0.057659,-0.688639 KneeRight:-0.006206,0.691662,0.020163,0.721913 Neck:0.051543,-0.023909,0.995159,-0.080185 ShoulderLeft:-0.012735,0.782927,-0.614572,0.095729 ShoulderRight:0.054542,0.775475,0.628844,-0.014791 SpineBase:0.021944,-0.021443,0.998847,-0.036915 SpineMid:0.036279,-0.021971,0.998429,-0.036604 SpineShoulder:0.051245,-0.022989,0.996647,-0.059506 ThumbLeft:0.000000,0.000000,0.000000,0.000000 ThumbRight:0.000000,0.000000,0.000000,0.000000 WristLeft:-0.212225,0.576304,-0.246132,0.749835 WristRight:-0.077656,0.582128,-0.052118,0.807701 END:
KINECT_DATA POSITION:5.531462,-0.672100,-5.530977 HEAD_JOINT1:0.978064,0.158427,-0.000000,0.135248 LARM_JOINT2:0.837085,0.000000,-0.279192,-0.470468 LARM_JOINT3:0.964943,0.000000,-0.246933,-0.088927 LLEG_JOINT2:0.997951,0.030286,0.000000,0.056354 LLEG_JOINT4:0.995175,0.089141,0.000000,-0.041007 RARM_JOINT2:0.781334,0.000000,-0.123696,0.611732 RARM_JOINT3:0.964378,0.000000,0.210978,0.159569 RLEG_JOINT2:0.999830,0.010630,0.000000,-0.015042 RLEG_JOINT4:0.995644,0.089765,0.000000,0.025213 WAIST:0.999671,0.000000,-0.025530,-0.002546 WAIST_JOINT0:0.997995,0.000000,-0.062987,-0.006211 WAIST_JOINT1:0.997892,0.061255,0.000000,-0.021407 END:
KINECT_DATA_Sensor  AnkleLeft:0.078711,0.757696,-0.090204,-0.641533 AnkleRight:0.082086,0.731075,0.058087,0.674846 ElbowLeft:-0.248604,0.904694,-0.098191,-0.331787 ElbowRight:0.060724,0.799674,0.198888,0.563273 FootLeft:0.000000,0.000000,0.000000,0.000000 FootRight:0.000000,0.000000,0.000000,0.000000 HandLeft:0.090460,-0.385780,-0.406269,0.823369 HandRight:0.018477,0.598328,-0.065723,0.798337 HandTipLeft:0.000000,0.000000,0.000000,0.000000 HandTipRight:0.000000,0.000000,0.000000,0.000000 Head:0.000000,0.000000,0.000000,0.000000 HipLeft:0.142830,-0.679270,0.699120,-0.171531 HipRight:-0.108627,0.677498,0.709286,-0.161587 KneeLeft:-0.018103,0.724654,-0.059003,-0.686344 KneeRight:-0.004432,0.689507,0.020031,0.723988 Neck:0.063905,-0.025999,0.994785,-0.075125 ShoulderLeft:-0.027884,0.787656,-0.606198,0.106507 ShoulderRight:0.055062,0.776854,0.627237,-0.006331 SpineBase:0.024861,-0.022737,0.998824,-0.034877 SpineMid:0.043895,-0.023397,0.998168,-0.034437 SpineShoulder:0.063685,-0.024308,0.996086,-0.056272 ThumbLeft:0.000000,0.000000,0.000000,0.000000 ThumbRight:0.000000,0.000000,0.000000,0.000000 WristLeft:0.116206,-0.377776,-0.319435,0.861245 WristRight:-0.078689,0.585234,-0.050440,0.805460 END:
KINECT_DATA POSITION:5.468356,-0.673538,-5.512786 HEAD_JOINT1:0.977537,0.158103,-0.000000,0.139374 LARM_JOINT2:0.836924,0.000000,-0.303044,-0.455766 LARM_JOINT3:0.970900,0.000000,-0.226706,-0.077190 LLEG_JOINT2:0.997913,0.029718,0.000000,0.057319 LLEG_JOINT4:0.994760,0.093222,0.000000,-0.041981 RARM_JOINT2:0.778751,0.000000,-0.125343,0.614683 RARM_JOINT3:0.965356,0.000000,0.209794,0.155157 RLEG_JOINT2:0.999844,0.010886,0.000000,-0.013917 RLEG_JOINT4:0.995765,0.088833,0.000000,0.023667 WAIST:0.999617,0.000000,-0.027558,-0.002631 WAIST_JOINT0:0.997134,0.000000,-0.075211,-0.008192 WAIST_JOINT1:0.998037,0.058457,0.000000,-0.022450 END:
KINECT_DATA_Sensor  AnkleLeft:0.079962,0.750192,-0.093689,-0.649646 AnkleRight:0.076097,0.669249,0.064633,0.736300 ElbowLeft:-0.273409,0.897094,-0.085424,-0.336411 ElbowRight:0.059450,0.793632,0.195830,0.572944 FootLeft:0.000000,0.000000,0.000000,0.000000 FootRight:0.000000,0.000000,0.000000,0.000000 HandLeft:0.090964,-0.358982,-0.379692,0.847757 HandRight:0.023763,0.556571,-0.063094,0.828060 HandTipLeft:0.000000,0.000000,0.000000,0.000000 HandTipRight:0.000000,0.000000,0.000000,0.000000 Head:0.000000,0.000000,0.000000,0.000000 HipLeft:0.144777,-0.679156,0.698668,-0.172190 HipRight:-0.107897,0.677778,0.709477,-0.160058 KneeLeft:-0.019258,0.726027,-0.059157,-0.684847 KneeRight:-0.003497,0.688018,0.019455,0.725424 Neck:0.075971,-0.028283,0.994096,-0.072129 ShoulderLeft:-0.038442,0.790059,-0.601078,0.114168 ShoulderRight:0.059744,0.777824,0.625615,0.005120 SpineBase:0.026894,-0.023094,0.998790,-0.034089 SpineMid:0.050953,-0.023908,0.997852,-0.033522 SpineShoulder:0.075806,-0.025636,0.995370,-0.053236 ThumbLeft:0.000000,0.000000,0.000000,0.000000 ThumbRight:0.000000,0.000000,0.000000,0.000000 WristLeft:0.120505,-0.347066,-0.340831,0.865366 WristRight:-0.078990,0.543273,-0.053301,0.834131 END:
KINECT_DATA POSITION:5.454049,-0.667480,-5.582047 HEAD_JOINT1:0.978179,0.156850,-0.000000,0.136248 LARM_JOINT2:0.833118,0.000000,-0.345273,-0.432089 LARM_JOINT3:0.980248,0.000000,-0.188801,-0.058892 LLEG_JOINT2:0.997851,0.029667,0.000000,0.058425 LLEG_JOINT4:0.994905,0.091430,0.000000,-0.042474 RARM_JOINT2:0.779658,0.000000,-0.127425,0.613104 RARM_JOINT3:0.965257,0.000000,0.212728,0.151741 RLEG_JOINT2:0.999874,0.009301,0.000000,-0.012827 RLEG_JOINT4:0.995641,0.090781,0.000000,0.021373 WAIST:0.999543,0.000000,-0.030134,-0.002386 WAIST_JOINT0:0.996779,0.000000,-0.079709,-0.008805 WAIST_JOINT1:0.998074,0.057319,0.000000,-0.023740 END:
KINECT_DATA_Sensor  AnkleLeft:0.079935,0.766815,-0.091412,-0.630277 AnkleRight:0.082088,0.738717,0.057371,0.666533 ElbowLeft:-0.307718,0.897754,-0.072039,-0.306852 ElbowRight:0.060012,0.794194,0.197863,0.571406 FootLeft:0.000000,0.000000,0.000000,0.000000 FootRight:0.000000,0.000000,0.000000,0.000000 HandLeft:0.037530,-0.192449,-0.402183,0.894318 HandRight:-0.007217,0.558579,-0.055590,0.827555 HandTipLeft:0.000000,0.000000,0.000000,0.000000 HandTipRight:0.000000,0.000000,0.000000,0.000000 Head:0.000000,0.000000,0.000000,0.000000 HipLeft:0.146119,-0.678807,0.698532,-0.172983 HipRight:-0.106033,0.678395,0.709618,-0.158046 KneeLeft:-0.020425,0.727757,-0.059998,-0.682901 KneeRight:-0.003687,0.686210,0.017406,0.727186 Neck:0.080654,-0.029517,0.993728,-0.071621 ShoulderLeft:-0.046246,0.789864,-0.599741,0.119532 ShoulderRight:0.058087,0.777803,0.625780,0.006950 SpineBase:0.029449,-0.023266,0.998723,-0.033816 SpineMid:0.054581,-0.024110,0.997665,-0.033219 SpineShoulder:0.080485,-0.026557,0.995050,-0.051888 ThumbLeft:0.000000,0.000000,0.000000,0.000000 ThumbRight:0.000000,0.000000,0.000000,0.000000 WristLeft:0.077725,-0.174112,-0.360243,0.913164 WristRight:-0.079258,0.550406,-0.051243,0.829546 END:
KINECT_DATA POSITION:5.543755,-0.668760,-5.683815 HEAD_JOINT1:0.979520,0.155797,-0.000000,0.127543 LARM_JOINT2:0.827818,0.000000,-0.389860,-0.403393 LARM_JOINT3:0.983561,0.000000,-0.174153,-0.047736 LLEG_JOINT2:0.997826,0.030389,0.000000,0.058482 LLEG_JOINT4:0.994640,0.093122,0.000000,-0.044934 RARM_JOINT2:0.784225,0.000000,-0.119516,0.608857 RARM_JOINT3:0.966099,0.000000,0.209886,0.150332 RLEG_JOINT2:0.999875,0.007715,0.000000,-0.013775 RLEG_JOINT4:0.995382,0.093492,0.000000,0.021751 WAIST:0.999441,0.000000,-0.033311,-0.002950 WAIST_JOINT0:0.995190,0.000000,-0.096295,-0.017979 WAIST_JOINT1:0.998085,0.056921,0.000000,-0.024196 END:
KINECT_DATA_Sensor  AnkleLeft:0.080575,0.748940,-0.093603,-0.651026 AnkleRight:0.075375,0.657152,0.067508,0.746935 ElbowLeft:-0.342453,0.904276,-0.069255,-0.245388 ElbowRight:0.054495,0.801994,0.200494,0.560034 FootLeft:0.000000,0.000000,0.000000,0.000000 FootRight:0.000000,0.000000,0.000000,0.000000 HandLeft:0.106555,-0.277655,-0.437721,0.848501 HandRight:-0.033406,0.576011,-0.044423,0.815550 HandTipLeft:0.000000,0.000000,0.000000,0.000000 HandTipRight:0.000000,0.000000,0.000000,0.000000 Head:0.000000,0.000000,0.000000,0.000000 HipLeft:0.147999,-0.678548,0.697875,-0.175042 HipRight:-0.104481,0.678178,0.710381,-0.156579 KneeLeft:-0.019766,0.729990,-0.060095,-0.680523 KneeRight:-0.005840,0.683916,0.017422,0.729330 Neck:0.097625,-0.031441,0.992182,-0.071108 ShoulderLeft:-0.065315,0.795911,-0.585985,0.137409 ShoulderRight:0.060576,0.776714,0.626755,0.014948 SpineBase:0.032655,-0.023251,0.998618,-0.033999 SpineMid:0.064608,-0.024328,0.997060,-0.033237 SpineShoulder:0.097480,-0.028065,0.993531,-0.051061 ThumbLeft:0.000000,0.000000,0.000000,0.000000 ThumbRight:0.000000,0.000000,0.000000,0.000000 WristLeft:0.113556,-0.275263,-0.369239,0.880340 WristRight:-0.081621,0.571458,-0.048415,0.815126 END:
KINECT_DATA POSITION:5.535188,-0.694173,-5.760503 HEAD_JOINT1:0.980416,0.154740,-0.000000,0.121820 LARM_JOINT2:0.836075,0.000000,-0.407463,-0.367359 LARM_JOINT3:0.990752,0.000000,-0.135674,0.001820 LLEG_JOINT2:0.997779,0.029836,0.000000,0.059550 LLEG_JOINT4:0.994486,0.093479,0.000000,-0.047537 RARM_JOINT2:0.787335,0.000000,-0.119732,0.604787 RARM_JOINT3:0.966221,0.000000,0.204790,0.156454 RLEG_JOINT2:0.999877,0.007240,0.000000,-0.013888 RLEG_JOINT4:0.995313,0.093765,0.000000,0.023658 WAIST:0.999357,0.000000,-0.035661,-0.003679 WAIST_JOINT0:0.994933,0.000000,-0.099314,-0.015635 WAIST_JOINT1:0.998028,0.057364,0.000000,-0.025478 END:
KINECT_DATA_Sensor  AnkleLeft:0.083344,0.761457,-0.090605,-0.636417 AnkleRight:0.076103,0.655167,0.066421,0.748701 ElbowLeft:-0.378805,0.863747,-0.037532,-0.330212 ElbowRight:0.054720,0.806559,0.206177,0.551325 FootLeft:0.000000,0.000000,0.000000,0.000000 FootRight:0.000000,0.000000,0.000000,0.000000 HandLeft:0.001320,0.167765,-0.479244,0.861498 HandRight:-0.026503,0.653309,-0.031121,0.755987 HandTipLeft:0.000000,0.000000,0.000000,0.000000 HandTipRight:0.000000,0.000000,0.000000,0.000000 Head:0.000000,0.000000,0.000000,0.000000 HipLeft:0.149043,-0.678652,0.697190,-0.176478 HipRight:-0.102394,0.677868,0.711200,-0.155579 KneeLeft:-0.020560,0.731565,-0.059853,-0.678828 KneeRight:-0.006743,0.682226,0.017706,0.730896 Neck:0.100704,-0.033914,0.991736,-0.071886 ShoulderLeft:-0.067218,0.792853,-0.589329,0.139844 ShoulderRight:0.063037,0.775747,0.627645,0.017453 SpineBase:0.035008,-0.024103,0.998497,-0.034597 SpineMid:0.067358,-0.025212,0.996837,-0.033797 SpineShoulder:0.100578,-0.029818,0.993156,-0.051335 ThumbLeft:0.000000,0.000000,0.000000,0.000000 ThumbRight:0.000000,0.000000,0.000000,0.000000 WristLeft:-0.021852,0.158584,-0.426474,0.890221 WristRight:-0.084684,0.647850,-0.037578,0.756113 END:
KINECT_DATA POSITION:5.522720,-0.703675,-5.796218 HEAD_JOINT1:0.981254,0.152490,-0.000000,0.117845 LARM_JOINT2:0.856646,0.000000,-0.400275,-0.325481 LARM_JOINT3:0.992542,0.000000,-0.120916,-0.015469 LLEG_JOINT2:0.997736,0.029678,0.000000,0.060350 LLEG_JOINT4:0.994771,0.090790,0.000000,-0.046763 RARM_JOINT2:0.788435,0.000000,-0.118021,0.603690 RARM_JOINT3:0.963067,0.000000,0.217025,0.159379 RLEG_JOINT2:0.999883,0.007132,0.000000,-0.013543 RLEG_JOINT4:0.995464,0.092069,0.000000,0.023966 WAIST:0.999363,0.000000,-0.035420,-0.004268 WAIST_JOINT0:0.994427,0.000000,-0.103937,-0.017673 WAIST_JOINT1:0.997879,0.059509,0.000000,-0.026389 END:
KINECT_DATA_Sensor  AnkleLeft:0.079620,0.754613,-0.090227,-0.645042 AnkleRight:0.081294,0.730883,0.056845,0.675255 ElbowLeft:-0.400949,0.865145,-0.089381,-0.287708 ElbowRight:0.054057,0.807013,0.209327,0.549537 FootLeft:0.000000,0.000000,0.000000,0.000000 FootRight:0.000000,0.000000,0.000000,0.000000 HandLeft:0.019769,0.214466,-0.453969,0.864596 HandRight:-0.083227,0.863089,-0.046951,0.495930 HandTipLeft:0.000000,0.000000,0.000000,0.000000 HandTipRight:0.000000,0.000000,0.000000,0.000000 Head:0.000000,0.000000,0.000000,0.000000 HipLeft:0.148416,-0.679008,0.696870,-0.176897 HipRight:-0.101765,0.677333,0.711592,-0.156524 KneeLeft:-0.020825,0.731381,-0.059873,-0.679016 KneeRight:-0.007006,0.682437,0.017799,0.730694 Neck:0.105730,-0.035920,0.990968,-0.074253 ShoulderLeft:-0.070608,0.793897,-0.586097,0.145714 ShoulderRight:0.066236,0.774359,0.628977,0.019195 SpineBase:0.034761,-0.024857,0.998452,-0.035597 SpineMid:0.069715,-0.026089,0.996622,-0.034704 SpineShoulder:0.105592,-0.031659,0.992487,-0.053085 ThumbLeft:0.000000,0.000000,0.000000,0.000000 ThumbRight:0.000000,0.000000,0.000000,0.000000 WristLeft:-0.006608,0.203204,-0.434951,0.877201 WristRight:-0.093079,0.862038,-0.005629,0.498191 END:
KINECT_DATA POSITION:5.583208,-0.721459,-5.764318 HEAD_JOINT1:0.981535,0.152218,-0.000000,0.115840 LARM_JOINT2:0.861892,0.000000,-0.393986,-0.319244 LARM_JOINT3:0.992712,0.000000,-0.120138,-0.009474 LLEG_JOINT2:0.997695,0.029655,0.000000,0.061028 LLEG_JOINT4:0.994966,0.089245,0.000000,-0.045580 RARM_JOINT2:0.789853,0.000000,-0.114186,0.602573 RARM_JOINT3:0.961794,0.000000,0.217067,0.166836 RLEG_JOINT2:0.999893,0.007073,0.000000,-0.012815 RLEG_JOINT4:0.995264,0.094372,0.000000,0.023308 WAIST:0.999424,0.000000,-0.033595,-0.004821 WAIST_JOINT0:0.994501,0.000000,-0.103020,-0.018854 WAIST_JOINT1:0.997798,0.061002,0.000000,-0.026036 END:
KINECT_DATA_Sensor  AnkleLeft:0.077234,0.750016,-0.090369,-0.650649 AnkleRight:0.082825,0.734147,0.058491,0.671377 ElbowLeft:-0.403772,0.855512,-0.090570,-0.311232 ElbowRight:0.052008,0.810168,0.210607,0.544581 FootLeft:0.000000,0.000000,0.000000,0.000000 FootRight:0.000000,0.000000,0.000000,0.000000 HandLeft:0.082931,0.143581,-0.450331,0.877330 HandRight:-0.095808,0.796513,0.036205,-0.595883 HandTipLeft:0.000000,0.000000,0.000000,0.000000 HandTipRight:0.000000,0.000000,0.000000,0.000000 Head:0.000000,0.000000,0.000000,0.000000 HipLeft:0.146991,-0.679348,0.696824,-0.176963 HipRight:-0.102192,0.676382,0.711877,-0.159044 KneeLeft:-0.020833,0.730113,-0.059971,-0.680371 KneeRight:-0.006969,0.683825,0.017609,0.729401 Neck:0.105122,-0.036009,0.990935,-0.075506 ShoulderLeft:-0.068761,0.794435,-0.585550,0.145864 ShoulderRight:0.067353,0.773023,0.630541,0.017795 SpineBase:0.032921,-0.025699,0.998442,-0.037009 SpineMid:0.068452,-0.027001,0.996636,-0.036071 SpineShoulder:0.104948,-0.032197,0.992461,-0.054501 ThumbLeft:0.000000,0.000000,0.000000,0.000000 ThumbRight:0.000000,0.000000,0.000000,0.000000 WristLeft:0.044458,0.125787,-0.438995,0.888530 WristRight:-0.044833,0.803361,0.083764,-0.587865 END:
KINECT_DATA POSITION:5.689135,-0.740081,-5.658031 HEAD_JOINT1:0.980788,0.158150,-0.000000,0.114205 LARM_JOINT2:0.870269,0.000000,-0.381261,-0.311886 LARM_JOINT3:0.993965,0.000000,-0.109411,0.007930 LLEG_JOINT2:0.997676,0.030767,0.000000,0.060795 LLEG_JOINT4:0.994666,0.091455,0.000000,-0.047713 RARM_JOINT2:0.789468,0.000000,-0.119585,0.602030 RARM_JOINT3:0.962128,0.000000,0.213354,0.169674 RLEG_JOINT2:0.999880,0.008617,0.000000,-0.012904 RLEG_JOINT4:0.995505,0.092119,0.000000,0.022006 WAIST:0.999477,0.000000,-0.031936,-0.005062 WAIST_JOINT0:0.995147,0.000000,-0.096760,-0.017859 WAIST_JOINT1:0.997746,0.062063,0.000000,-0.025519 END:
KINECT_DATA_Sensor  AnkleLeft:0.082075,0.752129,-0.090226,-0.647630 AnkleRight:0.082333,0.748677,0.057810,0.655257 ElbowLeft:-0.411848,0.818461,-0.069746,-0.394509 ElbowRight:0.056548,0.810130,0.212674,0.543380 FootLeft:0.000000,0.000000,0.000000,0.000000 FootRight:0.000000,0.000000,0.000000,0.000000 HandLeft:0.143210,0.114159,-0.430604,0.883764 HandRight:-0.078307,0.808730,0.016154,-0.582720 HandTipLeft:0.000000,0.000000,0.000000,0.000000 HandTipRight:0.000000,0.000000,0.000000,0.000000 Head:0.000000,0.000000,0.000000,0.000000 HipLeft:0.145369,-0.679495,0.697061,-0.176804 HipRight:-0.102312,0.675783,0.712045,-0.160753 KneeLeft:-0.019623,0.729025,-0.060492,-0.681526 KneeRight:-0.006096,0.685021,0.018895,0.728253 Neck:0.099387,-0.035363,0.991461,-0.076656 ShoulderLeft:-0.067887,0.794347,-0.586092,0.144570 ShoulderRight:0.061165,0.773597,0.630643,0.009791 SpineBase:0.031249,-0.025996,0.998443,-0.038206 SpineMid:0.064741,-0.027264,0.996832,-0.037312 SpineShoulder:0.099187,-0.031893,0.992999,-0.055655 ThumbLeft:0.000000,0.000000,0.000000,0.000000 ThumbRight:0.000000,0.000000,0.000000,0.000000 WristLeft:0.100760,0.091533,-0.447131,0.884049 WristRight:-0.045598,0.814040,0.079862,-0.573482 END:
KINECT_DATA POSITION:5.758005,-0.751063,-5.575550 HEAD_JOINT1:0.980223,0.162974,-0.000000,0.112257 LARM_JOINT2:0.877680,0.000000,-0.368913,-0.305909 LARM_JOINT3:0.993558,0.000000,-0.113287,0.003069 LLEG_JOINT2:0.997717,0.030257,0.000000,0.060378 LLEG_JOINT4:0.994919,0.092006,0.000000,-0.040866 RARM_JOINT2:0.789046,0.000000,-0.120753,0.602350 RARM_JOINT3:0.961578,0.000000,0.215538,0.170030 RLEG_JOINT2:0.999883,0.008825,0.000000,-0.012500 RLEG_JOINT4:0.995327,0.094070,0.000000,0.021793 WAIST:0.999588,0.000000,-0.028286,-0.004913 WAIST_JOINT0:0.995760,0.000000,-0.090662,-0.015555 WAIST_JOINT1:0.997723,0.062803,0.000000,-0.024609 END:
KINECT_DATA_Sensor  AnkleLeft:0.079965,0.763931,-0.092992,-0.633536 AnkleRight:0.083192,0.741401,0.060380,0.663142 ElbowLeft:-0.412579,0.812903,-0.086389,-0.401877 ElbowRight:0.058241,0.812677,0.212178,0.539578 FootLeft:0.000000,0.000000,0.000000,0.000000 FootRight:0.000000,0.000000,0.000000,0.000000 HandLeft:0.126379,0.151999,-0.427131,0.882317 HandRight:-0.093904,0.826351,0.022136,-0.554830 HandTipLeft:0.000000,0.000000,0.000000,0.000000 HandTipRight:0.000000,0.000000,0.000000,0.000000 Head:0.000000,0.000000,0.000000,0.000000 HipLeft:0.142948,-0.679720,0.697654,-0.175568 HipRight:-0.104452,0.675328,0.711579,-0.163333 KneeLeft:-0.019548,0.726489,-0.060023,-0.684273 KneeRight:-0.005618,0.687672,0.018628,0.725761 Neck:0.093315,-0.034239,0.992027,-0.077478 ShoulderLeft:-0.064432,0.793398,-0.588623,0.141035 ShoulderRight:0.056914,0.774896,0.629509,0.003965 SpineBase:0.027608,-0.025415,0.998541,-0.038822 SpineMid:0.059893,-0.026657,0.997126,-0.037979 SpineShoulder:0.093107,-0.030989,0.993574,-0.056398 ThumbLeft:0.000000,0.000000,0.000000,0.000000 ThumbRight:0.000000,0.000000,0.000000,0.000000 WristLeft:0.097976,0.134995,-0.449246,0.877699 WristRight:-0.046382,0.832774,0.074933,-0.546553 END:
KINECT_DATA POSITION:5.812823,-0.771244,-5.441451 HEAD_JOINT1:0.980292,0.164972,-0.000000,0.108687 LARM_JOINT2:0.878080,0.000000,-0.362962,-0.311825 LARM_JOINT3:0.993054,0.000000,-0.117547,0.005121 LLEG_JOINT2:0.997710,0.030249,0.000000,0.060493 LLEG_JOINT4:0.995083,0.089722,0.000000,-0.041939 RARM_JOINT2:0.790372,0.000000,-0.114219,0.601886 RARM_JOINT3:0.963052,0.000000,0.214264,0.163162 RLEG_JOINT2:0.999858,0.010566,0.000000,-0.013115 RLEG_JOINT4:0.995465,0.092096,0.000000,0.023848 WAIST:0.999768,0.000000,-0.020979,-0.004916 WAIST_JOINT0:0.996526,0.000000,-0.082187,-0.013434 WAIST_JOINT1:0.997771,0.062560,0.000000,-0.023242 END:
KINECT_DATA_Sensor  AnkleLeft:0.078833,0.754020,-0.090873,-0.645741 AnkleRight:0.076051,0.665449,0.068959,0.739350 ElbowLeft:-0.409630,0.795467,-0.077611,-0.439786 ElbowRight:0.053271,0.821141,0.210166,0.527940 FootLeft:0.000000,0.000000,0.000000,0.000000 FootRight:0.000000,0.000000,0.000000,0.000000 HandLeft:0.106385,0.192008,-0.415360,0.882775 HandRight:-0.087650,0.840664,0.043436,-0.532649 HandTipLeft:0.000000,0.000000,0.000000,0.000000 HandTipRight:0.000000,0.000000,0.000000,0.000000 Head:0.000000,0.000000,0.000000,0.000000 HipLeft:0.139989,-0.680615,0.698290,-0.171924 HipRight:-0.110504,0.674445,0.710589,-0.167261 KneeLeft:-0.019165,0.721511,-0.060262,-0.689510 KneeRight:-0.004902,0.692816,0.020260,0.720813 Neck:0.084499,-0.033113,0.992870,-0.077287 ShoulderLeft:-0.056892,0.793067,-0.591797,0.132607 ShoulderRight:0.052966,0.776297,0.628138,-0.001049 SpineBase:0.020378,-0.024409,0.998783,-0.037711 SpineMid:0.051882,-0.025587,0.997642,-0.036922 SpineShoulder:0.084277,-0.030007,0.994414,-0.056022 ThumbLeft:0.000000,0.000000,0.000000,0.000000 ThumbRight:0.000000,0.000000,0.000000,0.000000 WristLeft:0.087599,0.176092,-0.455698,0.868135 WristRight:-0.049266,0.844593,0.072454,-0.528192 END:
KINECT_DATA POSITION:5.858065,-0.756720,-5.309224 HEAD_JOINT1:0.980946,0.166473,-0.000000,0.100156 LARM_JOINT2:0.876245,0.000000,-0.356230,-0.324493 LARM_JOINT3:0.992840,0.000000,-0.116185,0.027745 LLEG_JOINT2:0.997777,0.028844,0.000000,0.060077 LLEG_JOINT4:0.995250,0.088361,0.000000,-0.040864 RARM_JOINT2:0.794985,0.000000,-0.100903,0.598178 RARM_JOINT3:0.963672,0.000000,0.211934,0.162542 RLEG_JOINT2:0.999832,0.012514,0.000000,-0.013385 RLEG_JOINT4:0.995234,0.094210,0.000000,0.025167 WAIST:0.999943,0.000000,-0.009412,-0.004992 WAIST_JOINT0:0.998197,0.000000,-0.059695,-0.006193 WAIST_JOINT1:0.997900,0.061580,0.000000,-0.020110 END:
KINECT_DATA_Sensor  AnkleLeft:0.077406,0.746275,-0.088665,-0.655149 AnkleRight:0.086393,0.751402,0.062813,0.651142 ElbowLeft:-0.404763,0.753896,-0.050978,-0.514983 ElbowRight:0.042336,0.836416,0.208154,0.505260 FootLeft:0.000000,0.000000,0.000000,0.000000 FootRight:0.000000,0.000000,0.000000,0.000000 HandLeft:0.112700,0.242771,-0.428642,0.862918 HandRight:-0.098344,0.949988,0.025272,-0.295319 HandTipLeft:0.000000,0.000000,0.000000,0.000000 HandTipRight:0.000000,0.000000,0.000000,0.000000 Head:0.000000,0.000000,0.000000,0.000000 HipLeft:0.135375,-0.681855,0.699302,-0.166509 HipRight:-0.120137,0.672711,0.709051,-0.173995 KneeLeft:-0.019066,0.713480,-0.059171,-0.697912 KneeRight:-0.003951,0.700943,0.021852,0.712871 Neck:0.061770,-0.028769,0.994794,-0.075774 ShoulderLeft:-0.035124,0.788596,-0.603999,0.109853 ShoulderRight:0.045401,0.776511,0.628321,-0.013466 SpineBase:0.008917,-0.022996,0.999036,-0.036305 SpineMid:0.034807,-0.023930,0.998470,-0.035697 SpineShoulder:0.061441,-0.027337,0.996194,-0.055455 ThumbLeft:0.000000,0.000000,0.000000,0.000000 ThumbRight:0.000000,0.000000,0.000000,0.000000 WristLeft:0.085641,0.222854,-0.464770,0.852637 WristRight:-0.074864,0.952120,0.054771,-0.291311 END:
KINECT_DATA POSITION:5.870405,-0.753067,-5.185747 HEAD_JOINT1:0.982304,0.169782,-0.000000,0.079079 LARM_JOINT2:0.875874,0.000000,-0.345863,-0.336487 LARM_JOINT3:0.990503,0.000000,-0.132044,0.038309 LLEG_JOINT2:0.997905,0.027480,0.000000,0.058571 LLEG_JOINT4:0.995166,0.091349,0.000000,-0.036053 RARM_JOINT2:0.802589,0.000000,-0.090434,0.589637 RARM_JOINT3:0.964950,0.000000,0.200672,0.169124 RLEG_JOINT2:0.999808,0.013781,0.000000,-0.013901 RLEG_JOINT4:0.995228,0.093466,0.000000,0.028032 WAIST:0.999986,0.000000,0.002080,-0.004827 WAIST_JOINT0:0.998943,0.000000,-0.045643,-0.005527 WAIST_JOINT1:0.998155,0.059170,0.000000,-0.013623 END:
KINECT_DATA_Sensor  AnkleLeft:0.076111,0.729224,-0.092556,-0.673701 AnkleRight:0.080609,0.686056,0.071235,0.719552 ElbowLeft:-0.400385,0.717592,-0.040136,-0.568457 ElbowRight:0.033893,0.856025,0.207692,0.472161 FootLeft:0.000000,0.000000,0.000000,0.000000 FootRight:0.000000,0.000000,0.000000,0.000000 HandLeft:0.177266,0.109469,-0.383727,0.899637 HandRight:-0.089693,0.952385,0.009036,-0.291267 HandTipLeft:0.000000,0.000000,0.000000,0.000000 HandTipRight:0.000000,0.000000,0.000000,0.000000 Head:0.000000,0.000000,0.000000,0.000000 HipLeft:0.128840,-0.683027,0.700771,-0.160607 HipRight:-0.128517,0.671567,0.707435,-0.178933 KneeLeft:-0.018372,0.705425,-0.057511,-0.706209 KneeRight:-0.003519,0.708925,0.022989,0.704901 Neck:0.047443,-0.022242,0.995943,-0.073164 ShoulderLeft:-0.024978,0.788087,-0.607503,0.096103 ShoulderRight:0.036799,0.776945,0.628097,-0.022303 SpineBase:-0.002435,-0.019838,0.999181,-0.035190 SpineMid:0.021985,-0.020693,0.998942,-0.034695 SpineShoulder:0.047184,-0.021190,0.997237,-0.053321 ThumbLeft:0.000000,0.000000,0.000000,0.000000 ThumbRight:0.000000,0.000000,0.000000,0.000000 WristLeft:0.169979,0.087779,-0.461873,0.866069 WristRight:-0.077470,0.953621,0.048176,-0.286853 END:
KINECT_DATA POSITION:5.855760,-0.745714,-5.188370 HEAD_JOINT1:0.982647,0.173000,-0.000000,0.066909 LARM_JOINT2:0.873525,0.000000,-0.347995,-0.340372 LARM_JOINT3:0.989271,0.000000,-0.141229,0.037368 LLEG_JOINT2:0.998029,0.025210,0.000000,0.057471 LLEG_JOINT4:0.994761,0.096016,0.000000,-0.035096 RARM_JOINT2:0.803582,0.000000,-0.092536,0.587957 RARM_JOINT3:0.967058,0.000000,0.191860,0.167298 RLEG_JOINT2:0.999783,0.014343,0.000000,-0.015138 RLEG_JOINT4:0.995042,0.094123,0.000000,0.032134 WAIST:0.999948,0.000000,0.009198,-0.004295 WAIST_JOINT0:0.999279,0.000000,-0.037718,-0.004412 WAIST_JOINT1:0.998241,0.058261,0.000000,-0.010953 END:
KINECT_DATA_Sensor  AnkleLeft:0.081529,0.747092,-0.091140,-0.653376 AnkleRight:0.083349,0.690095,0.070485,0.715439 ElbowLeft:-0.399940,0.711499,-0.038662,-0.576474 ElbowRight:0.033673,0.858908,0.207168,0.467146 FootLeft:0.000000,0.000000,0.000000,0.000000 FootRight:0.000000,0.000000,0.000000,0.000000 HandLeft:0.056386,0.314632,-0.418445,0.850136 HandRight:-0.042959,0.800325,0.015419,-0.597827 HandTipLeft:0.000000,0.000000,0.000000,0.000000 HandTipRight:0.000000,0.000000,0.000000,0.000000 Head:0.000000,0.000000,0.000000,0.000000 HipLeft:0.122643,-0.683718,0.702351,-0.155536 HipRight:-0.132205,0.671572,0.706447,-0.180124 KneeLeft:0.019174,-0.700312,0.055663,0.711405 KneeRight:-0.003774,0.713829,0.023877,0.699903 Neck:0.039360,-0.019818,0.996378,-0.072726 ShoulderLeft:-0.020393,0.787323,-0.609685,0.089389 ShoulderRight:0.030951,0.777592,0.627375,-0.028154 SpineBase:-0.009465,-0.016854,0.999216,-0.034560 SpineMid:0.014506,-0.017678,0.999155,-0.034146 SpineShoulder:0.039183,-0.018157,0.997694,-0.052366 ThumbLeft:0.000000,0.000000,0.000000,0.000000 ThumbRight:0.000000,0.000000,0.000000,0.000000 WristLeft:0.054540,0.296634,-0.492170,0.816580 WristRight:-0.057042,0.800031,0.069733,-0.593156 END:
KINECT_DATA POSITION:5.831896,-0.735017,-5.220294 HEAD_JOINT1:0.982664,0.174016,-0.000000,0.063953 LARM_JOINT2:0.871926,0.000000,-0.349033,-0.343395 LARM_JOINT3:0.987749,0.000000,-0.151666,0.036746 LLEG_JOINT2:0.998146,0.025427,0.000000,0.055300 LLEG_JOINT4:0.995614,0.089223,0.000000,-0.028136 RARM_JOINT2:0.803988,0.000000,-0.094312,0.587119 RARM_JOINT3:0.966842,0.000000,0.192244,0.168104 RLEG_JOINT2:0.999758,0.014185,0.000000,-0.016807 RLEG_JOINT4:0.995075,0.092572,0.000000,0.035440 WAIST:0.999926,0.000000,0.011686,-0.003254 WAIST_JOINT0:0.999348,0.000000,-0.036011,-0.002488 WAIST_JOINT1:0.998226,0.058602,0.000000,-0.010560 END:
KINECT_DATA_Sensor  AnkleLeft:0.070018,0.724996,-0.093568,-0.678767 AnkleRight:0.083865,0.690822,0.067749,0.714942 ElbowLeft:-0.398281,0.708273,-0.036401,-0.581719 ElbowRight:0.034835,0.859506,0.207585,0.465773 FootLeft:0.000000,0.000000,0.000000,0.000000 FootRight:0.000000,0.000000,0.000000,0.000000 HandLeft:0.057085,0.239041,-0.425701,0.870850 HandRight:-0.043412,0.945515,-0.001151,-0.322671 HandTipLeft:0.000000,0.000000,0.000000,0.000000 HandTipRight:0.000000,0.000000,0.000000,0.000000 Head:0.000000,0.000000,0.000000,0.000000 HipLeft:0.119425,-0.683486,0.703629,-0.153267 HipRight:-0.133028,0.672237,0.705661,-0.180123 KneeLeft:0.018092,-0.698542,0.055050,0.713219 KneeRight:-0.004394,0.715565,0.024194,0.698113 Neck:0.037469,-0.018679,0.996428,-0.073340 ShoulderLeft:-0.019556,0.785162,-0.612591,0.088715 ShoulderRight:0.029423,0.778080,0.626747,-0.030242 SpineBase:-0.011959,-0.015025,0.999219,-0.034539 SpineMid:0.012357,-0.015861,0.999214,-0.034163 SpineShoulder:0.037320,-0.016901,0.997772,-0.052652 ThumbLeft:0.000000,0.000000,0.000000,0.000000 ThumbRight:0.000000,0.000000,0.000000,0.000000 WristLeft:0.089869,0.237908,-0.487552,0.835234 WristRight:-0.075561,0.943073,0.047660,-0.320364 END:
KINECT_DATA POSITION:5.807022,-0.741266,-5.256653 HEAD_JOINT1:0.982835,0.172748,-0.000000,0.064758 LARM_JOINT2:0.870928,0.000000,-0.353966,-0.340871 LARM_JOINT3:0.987704,0.000000,-0.152842,0.032868 LLEG_JOINT2:0.998182,0.025451,0.000000,0.054641 LLEG_JOINT4:0.995154,0.092886,0.000000,-0.032250 RARM_JOINT2:0.804136,0.000000,-0.094284,0.586921 RARM_JOINT3:0.966313,0.000000,0.194597,0.168440 RLEG_JOINT2:0.999757,0.013975,0.000000,-0.017028 RLEG_JOINT4:0.995038,0.093666,0.000000,0.033566 WAIST:0.999923,0.000000,0.012165,-0.002542 WAIST_JOINT0:0.999336,0.000000,-0.036270,-0.003412 WAIST_JOINT1:0.998180,0.059406,0.000000,-0.010373 END:
KINECT_DATA_Sensor  AnkleLeft:0.079159,0.750754,-0.089809,-0.649643 AnkleRight:0.083386,0.690882,0.069406,0.714781 ElbowLeft:-0.400634,0.716309,-0.039635,-0.569932 ElbowRight:0.035418,0.859155,0.207487,0.466420 FootLeft:0.000000,0.000000,0.000000,0.000000 FootRight:0.000000,0.000000,0.000000,0.000000 HandLeft:0.048232,0.236823,-0.429550,0.870101 HandRight:-0.049913,0.819268,0.012325,-0.571102 HandTipLeft:0.000000,0.000000,0.000000,0.000000 HandTipRight:0.000000,0.000000,0.000000,0.000000 Head:0.000000,0.000000,0.000000,0.000000 HipLeft:0.118109,-0.683181,0.704198,-0.153033 HipRight:-0.132820,0.672851,0.705120,-0.180099 KneeLeft:0.018091,-0.698174,0.055108,0.713575 KneeRight:-0.004205,0.715913,0.023694,0.697774 Neck:0.037783,-0.017925,0.996353,-0.074382 ShoulderLeft:-0.019049,0.786287,-0.611079,0.089292 ShoulderRight:0.030255,0.778174,0.626581,-0.030433 SpineBase:-0.012451,-0.013944,0.999213,-0.034973 SpineMid:0.012285,-0.014805,0.999215,-0.034617 SpineShoulder:0.037651,-0.016125,0.997732,-0.053410 ThumbLeft:0.000000,0.000000,0.000000,0.000000 ThumbRight:0.000000,0.000000,0.000000,0.000000 WristLeft:0.084730,0.238726,-0.487160,0.835767 WristRight:-0.060022,0.819383,0.066214,-0.566237 END:
KINECT_DATA POSITION:5.793238,-0.741734,-5.277061 HEAD_JOINT1:0.982922,0.171523,-0.000000,0.066658 LARM_JOINT2:0.869936,0.000000,-0.358864,-0.338273 LARM_JOINT3:0.988779,0.000000,-0.146551,0.028949 LLEG_JOINT2:0.998220,0.025659,0.000000,0.053842 LLEG_JOINT4:0.995303,0.091343,0.000000,-0.032072 RARM_JOINT2:0.804212,0.000000,-0.093344,0.586966 RARM_JOINT3:0.967396,0.000000,0.190144,0.167302 RLEG_JOINT2:0.999746,0.013945,0.000000,-0.017688 RLEG_JOINT4:0.995095,0.093064,0.000000,0.033541 WAIST:0.999931,0.000000,0.011593,-0.002018 WAIST_JOINT0:0.999305,0.000000,-0.037178,-0.002685 WAIST_JOINT1:0.998120,0.060392,0.000000,-0.010443 END:
KINECT_DATA_Sensor  AnkleLeft:0.078826,0.756379,-0.088323,-0.643332 AnkleRight:0.087896,0.743083,0.062477,0.660453 ElbowLeft:-0.402904,0.721476,-0.039935,-0.561735 ElbowRight:0.035805,0.858861,0.207290,0.467019 FootLeft:0.000000,0.000000,0.000000,0.000000 FootRight:0.000000,0.000000,0.000000,0.000000 HandLeft:0.119672,0.086932,-0.409708,0.900145 HandRight:-0.028629,0.949273,-0.008241,-0.313040 HandTipLeft:0.000000,0.000000,0.000000,0.000000 HandTipRight:0.000000,0.000000,0.000000,0.000000 Head:0.000000,0.000000,0.000000,0.000000 HipLeft:0.117755,-0.682781,0.704530,-0.153561 HipRight:-0.132018,0.673332,0.704872,-0.179860 KneeLeft:0.017786,-0.698567,0.055039,0.713203 KneeRight:-0.004315,0.715532,0.023764,0.698162 Neck:0.038622,-0.017561,0.996234,-0.075611 ShoulderLeft:-0.018667,0.785380,-0.612087,0.090438 ShoulderRight:0.031747,0.778211,0.626473,-0.030185 SpineBase:-0.011902,-0.013404,0.999209,-0.035509 SpineMid:0.012992,-0.014284,0.999195,-0.035164 SpineShoulder:0.038504,-0.015703,0.997656,-0.054347 ThumbLeft:0.000000,0.000000,0.000000,0.000000 ThumbRight:0.000000,0.000000,0.000000,0.000000 WristLeft:0.164905,0.093419,-0.462968,0.865875 WristRight:-0.075665,0.946053,0.046531,-0.311597 END:
KINECT_DATA POSITION:5.752474,-0.736951,-5.265474 HEAD_JOINT1:0.982340,0.173886,-0.000000,0.069082 LARM_JOINT2:0.868648,0.000000,-0.362221,-0.338004 LARM_JOINT3:0.989029,0.000000,-0.145269,0.026787 LLEG_JOINT2:0.998224,0.025949,0.000000,0.053616 LLEG_JOINT4:0.995636,0.088313,0.000000,-0.030180 RARM_JOINT2:0.803873,0.000000,-0.093651,0.587383 RARM_JOINT3:0.966917,0.000000,0.191934,0.168025 RLEG_JOINT2:0.999737,0.013679,0.000000,-0.018418 RLEG_JOINT4:0.995008,0.093349,0.000000,0.035298 WAIST:0.999936,0.000000,0.011231,-0.001399 WAIST_JOINT0:0.999265,0.000000,-0.038325,-0.001091 WAIST_JOINT1:0.998084,0.060920,0.000000,-0.010787 END:
KINECT_DATA_Sensor  AnkleLeft:0.074071,0.748537,-0.089392,-0.652851 AnkleRight:0.084049,0.689545,0.067942,0.716133 ElbowLeft:-0.403265,0.725828,-0.039681,-0.555856 ElbowRight:0.036492,0.857792,0.206999,0.469054 FootLeft:0.000000,0.000000,0.000000,0.000000 FootRight:0.000000,0.000000,0.000000,0.000000 HandLeft:0.024016,0.278709,-0.425452,0.860659 HandRight:-0.040357,0.779319,0.000883,-0.625327 HandTipLeft:0.000000,0.000000,0.000000,0.000000 HandTipRight:0.000000,0.000000,0.000000,0.000000 Head:0.000000,0.000000,0.000000,0.000000 HipLeft:0.117251,-0.682264,0.704981,-0.154174 HipRight:-0.131554,0.673762,0.704535,-0.179910 KneeLeft:0.017877,-0.698799,0.055511,0.712937 KneeRight:-0.004577,0.715298,0.023649,0.698405 Neck:0.039473,-0.017444,0.996167,-0.076085 ShoulderLeft:-0.018371,0.783108,-0.614878,0.091266 ShoulderRight:0.033245,0.778362,0.626243,-0.029443 SpineBase:-0.011561,-0.012577,0.999201,-0.036141 SpineMid:0.013624,-0.013483,0.999175,-0.035813 SpineShoulder:0.039375,-0.015437,0.997596,-0.054899 ThumbLeft:0.000000,0.000000,0.000000,0.000000 ThumbRight:0.000000,0.000000,0.000000,0.000000 WristLeft:0.057620,0.278978,-0.486152,0.826140 WristRight:-0.054535,0.780393,0.069779,-0.618986 END:
KINECT_DATA POSITION:5.719456,-0.743683,-5.263662 HEAD_JOINT1:0.981796,0.176199,-0.000000,0.070922 LARM_JOINT2:0.868588,0.000000,-0.362359,-0.338011 LARM_JOINT3:0.989337,0.000000,-0.143594,0.024342 LLEG_JOINT2:0.998254,0.025601,0.000000,0.053228 LLEG_JOINT4:0.995571,0.088835,0.000000,-0.030756 RARM_JOINT2:0.803545,0.000000,-0.094098,0.587759 RARM_JOINT3:0.967309,0.000000,0.191064,0.166759 RLEG_JOINT2:0.999737,0.013491,0.000000,-0.018546 RLEG_JOINT4:0.995049,0.092837,0.000000,0.035478 WAIST:0.999936,0.000000,0.011271,-0.001191 WAIST_JOINT0:0.999215,0.000000,-0.039600,-0.001121 WAIST_JOINT1:0.998064,0.061254,0.000000,-0.010771 END:
KINECT_DATA_Sensor  AnkleLeft:0.075639,0.755450,-0.088107,-0.644834 AnkleRight:0.088885,0.744859,0.060321,0.658518 ElbowLeft:-0.402611,0.733051,-0.045086,-0.546358 ElbowRight:0.037204,0.857335,0.206716,0.469958 FootLeft:0.000000,0.000000,0.000000,0.000000 FootRight:0.000000,0.000000,0.000000,0.000000 HandLeft:0.066293,0.208824,-0.418691,0.881303 HandRight:-0.034135,0.747426,0.002475,-0.663462 HandTipLeft:0.000000,0.000000,0.000000,0.000000 HandTipRight:0.000000,0.000000,0.000000,0.000000 Head:0.000000,0.000000,0.000000,0.000000 HipLeft:0.116814,-0.682135,0.705153,-0.154292 HipRight:-0.131418,0.673903,0.704395,-0.180035 KneeLeft:0.018002,-0.698749,0.055136,0.713012 KneeRight:-0.004654,0.715334,0.023456,0.698373 Neck:0.040790,-0.017336,0.996090,-0.076424 ShoulderLeft:-0.019715,0.783156,-0.614513,0.093012 ShoulderRight:0.033606,0.778498,0.626069,-0.029139 SpineBase:-0.011608,-0.012235,0.999193,-0.036447 SpineMid:0.014263,-0.013174,0.999159,-0.036118 SpineShoulder:0.040700,-0.015317,0.997527,-0.055217 ThumbLeft:0.000000,0.000000,0.000000,0.000000 ThumbRight:0.000000,0.000000,0.000000,0.000000 WristLeft:0.095727,0.207922,-0.477139,0.848495 WristRight:-0.050508,0.748608,0.071948,-0.657160 END:
KINECT_DATA POSITION:5.688587,-0.743587,-5.260623 HEAD_JOINT1:0.981824,0.175931,-0.000000,0.071198 LARM_JOINT2:0.868564,0.000000,-0.363351,-0.337006 LARM_JOINT3:0.988813,0.000000,-0.145715,0.031881 LLEG_JOINT2:0.998279,0.025337,0.000000,0.052896 LLEG_JOINT4:0.995395,0.092097,0.000000,-0.026584 RARM_JOINT2:0.803430,0.000000,-0.094087,0.587918 RARM_JOINT3:0.967033,0.000000,0.192176,0.167078 RLEG_JOINT2:0.999726,0.013930,0.000000,-0.018786 RLEG_JOINT4:0.995030,0.093611,0.000000,0.033953 WAIST:0.999937,0.000000,0.011197,-0.000671 WAIST_JOINT0:0.999185,0.000000,-0.040335,-0.001259 WAIST_JOINT1:0.998038,0.061620,0.000000,-0.011138 END:
KINECT_DATA_Sensor  AnkleLeft:0.076938,0.766849,-0.091962,-0.630528 AnkleRight:0.089142,0.746987,0.061743,0.655936 ElbowLeft:-0.403252,0.735244,-0.046513,-0.542809 ElbowRight:0.037414,0.856753,0.206633,0.471039 FootLeft:0.000000,0.000000,0.000000,0.000000 FootRight:0.000000,0.000000,0.000000,0.000000 HandLeft:0.092827,0.171704,-0.441501,0.875773 HandRight:-0.039739,0.877024,-0.005916,-0.478763 HandTipLeft:0.000000,0.000000,0.000000,0.000000 HandTipRight:0.000000,0.000000,0.000000,0.000000 Head:0.000000,0.000000,0.000000,0.000000 HipLeft:0.116506,-0.681747,0.705529,-0.154517 HipRight:-0.131188,0.674217,0.704093,-0.180204 KneeLeft:0.018333,-0.698762,0.055081,0.712994 KneeRight:-0.004149,0.715298,0.023570,0.698410 Neck:0.041465,-0.017294,0.996035,-0.076781 ShoulderLeft:-0.019720,0.783276,-0.614265,0.093635 ShoulderRight:0.034464,0.778645,0.625860,-0.028684 SpineBase:-0.011561,-0.011885,0.999185,-0.036805 SpineMid:0.014634,-0.012846,0.999145,-0.036481 SpineShoulder:0.041384,-0.015206,0.997480,-0.055578 ThumbLeft:0.000000,0.000000,0.000000,0.000000 ThumbRight:0.000000,0.000000,0.000000,0.000000 WristLeft:0.113843,0.174091,-0.472632,0.856359 WristRight:-0.065107,0.875953,0.059109,-0.474314 END:
KINECT_DATA POSITION:5.642023,-0.769534,-5.179501 HEAD_JOINT1:0.981525,0.176052,-0.000000,0.074933 LARM_JOINT2:0.871745,0.000000,-0.365981,-0.325758 LARM_JOINT3:0.987373,0.000000,-0.148145,0.056112 LLEG_JOINT2:0.998282,0.025994,0.000000,0.052508 LLEG_JOINT4:0.995844,0.087570,0.000000,-0.025019 RARM_JOINT2:0.803189,0.000000,-0.094098,0.588246 RARM_JOINT3:0.965734,0.000000,0.197006,0.168955 RLEG_JOINT2:0.999712,0.014230,0.000000,-0.019299 RLEG_JOINT4:0.994968,0.093933,0.000000,0.034871 WAIST:0.999942,-0.000000,0.010808,0.000221 WAIST_JOINT0:0.999145,0.000000,-0.041312,-0.001629 WAIST_JOINT1:0.998052,0.061205,0.000000,-0.012082 END:
KINECT_DATA_Sensor  AnkleLeft:0.072961,0.770228,-0.090951,-0.627020 AnkleRight:0.084927,0.687807,0.068681,0.717629 ElbowLeft:-0.413710,0.725632,-0.044072,-0.548051 ElbowRight:0.037369,0.856840,0.206088,0.471123 FootLeft:0.000000,0.000000,0.000000,0.000000 FootRight:0.000000,0.000000,0.000000,0.000000 HandLeft:0.137057,0.176626,-0.491168,0.841886 HandRight:-0.066243,0.929969,-0.010246,-0.361476 HandTipLeft:0.000000,0.000000,0.000000,0.000000 HandTipRight:0.000000,0.000000,0.000000,0.000000 Head:0.000000,0.000000,0.000000,0.000000 HipLeft:0.116804,-0.681234,0.706010,-0.154361 HipRight:-0.131017,0.674946,0.703507,-0.179887 KneeLeft:0.018240,-0.699014,0.055885,0.712688 KneeRight:-0.003665,0.715061,0.023515,0.698657 Neck:0.042572,-0.017344,0.996025,-0.076298 ShoulderLeft:-0.020896,0.784606,-0.612434,0.094241 ShoulderRight:0.034632,0.779186,0.625227,-0.027594 SpineBase:-0.011230,-0.011737,0.999200,-0.036538 SpineMid:0.015353,-0.012704,0.999145,-0.036213 SpineShoulder:0.042492,-0.015256,0.997456,-0.055160 ThumbLeft:0.000000,0.000000,0.000000,0.000000 ThumbRight:0.000000,0.000000,0.000000,0.000000 WristLeft:0.118790,0.167742,-0.487555,0.848553 WristRight:-0.072659,0.930267,0.049828,-0.356148 END:
KINECT_DATA POSITION:5.620232,-0.771515,-5.096996 HEAD_JOINT1:0.981222,0.175773,-0.000000,0.079420 LARM_JOINT2:0.875287,0.000000,-0.368556,-0.313113 LARM_JOINT3:0.987113,0.000000,-0.148272,0.060186 LLEG_JOINT2:0.998371,0.025946,0.000000,0.050815 LLEG_JOINT4:0.995353,0.091774,0.000000,-0.029149 RARM_JOINT2:0.803082,0.000000,-0.093655,0.588463 RARM_JOINT3:0.965655,0.000000,0.195189,0.171497 RLEG_JOINT2:0.999708,0.013767,0.000000,-0.019843 RLEG_JOINT4:0.994881,0.095218,0.000000,0.033849 WAIST:0.999952,-0.000000,0.009664,0.001329 WAIST_JOINT0:0.999127,0.000000,-0.041779,0.000063 WAIST_JOINT1:0.998076,0.060701,0.000000,-0.012597 END:
KINECT_DATA_Sensor  AnkleLeft:0.076010,0.749372,-0.092369,-0.651254 AnkleRight:0.090135,0.738316,0.062990,0.665431 ElbowLeft:-0.424867,0.725435,-0.049466,-0.539245 ElbowRight:0.037276,0.856649,0.204938,0.471979 FootLeft:0.000000,0.000000,0.000000,0.000000 FootRight:0.000000,0.000000,0.000000,0.000000 HandLeft:0.145013,0.181069,-0.511506,0.827373 HandRight:0.070383,-0.685883,-0.003973,0.724290 HandTipLeft:0.000000,0.000000,0.000000,0.000000 HandTipRight:0.000000,0.000000,0.000000,0.000000 Head:0.000000,0.000000,0.000000,0.000000 HipLeft:0.117738,-0.680388,0.706602,-0.154671 HipRight:-0.130731,0.675880,0.702891,-0.178997 KneeLeft:0.017937,-0.699794,0.055403,0.711967 KneeRight:-0.003568,0.714302,0.022787,0.699457 Neck:0.042919,-0.016481,0.996069,-0.075721 ShoulderLeft:-0.021087,0.783560,-0.613792,0.094064 ShoulderRight:0.034862,0.780092,0.624122,-0.026693 SpineBase:-0.010144,-0.011168,0.999236,-0.036066 SpineMid:0.016077,-0.012110,0.999158,-0.035761 SpineShoulder:0.042840,-0.014563,0.997474,-0.054756 ThumbLeft:0.000000,0.000000,0.000000,0.000000 ThumbRight:0.000000,0.000000,0.000000,0.000000 WristLeft:0.119927,0.170761,-0.496148,0.842791 WristRight:0.045009,-0.686865,-0.076226,0.721374 END:
KINECT_DATA POSITION:5.553437,-0.766701,-4.954445 HEAD_JOINT1:0.981308,0.172061,-0.000000,0.086193 LARM_JOINT2:0.883441,0.000000,-0.380172,-0.273863 LARM_JOINT3:0.985805,0.000000,-0.145687,0.083450 LLEG_JOINT2:0.998391,0.026589,0.000000,0.050090 LLEG_JOINT4:0.995250,0.091729,0.000000,-0.032593 RARM_JOINT2:0.803603,0.000000,-0.094336,0.587642 RARM_JOINT3:0.965520,0.000000,0.197238,0.169907 RLEG_JOINT2:0.999688,0.014070,0.000000,-0.020625 RLEG_JOINT4:0.994918,0.095056,0.000000,0.033190 WAIST:0.999955,-0.000000,0.009060,0.002832 WAIST_JOINT0:0.999095,0.000000,-0.042449,0.002518 WAIST_JOINT1:0.998204,0.058747,0.000000,-0.011702 END:
KINECT_DATA_Sensor  AnkleLeft:0.076845,0.740596,-0.091785,-0.661202 AnkleRight:0.090174,0.736582,0.063170,0.667327 ElbowLeft:0.462345,-0.696560,0.040765,0.547156 ElbowRight:0.036977,0.856716,0.202980,0.472726 FootLeft:0.000000,0.000000,0.000000,0.000000 FootRight:0.000000,0.000000,0.000000,0.000000 HandLeft:0.189845,0.156853,-0.557032,0.793140 HandRight:-0.072064,0.746139,0.011640,-0.661777 HandTipLeft:0.000000,0.000000,0.000000,0.000000 HandTipRight:0.000000,0.000000,0.000000,0.000000 Head:0.000000,0.000000,0.000000,0.000000 HipLeft:0.118629,-0.679503,0.707379,-0.154330 HipRight:-0.131621,0.677282,0.701714,-0.177662 KneeLeft:0.018060,-0.700202,0.056388,0.711486 KneeRight:-0.002838,0.713879,0.022491,0.699902 Neck:0.043216,-0.013717,0.996262,-0.073531 ShoulderLeft:-0.022732,0.782078,-0.615708,0.093492 ShoulderRight:0.033472,0.782402,0.621357,-0.025355 SpineBase:-0.009568,-0.009494,0.999307,-0.034705 SpineMid:0.016525,-0.010397,0.999216,-0.034446 SpineShoulder:0.043168,-0.012069,0.997584,-0.053077 ThumbLeft:0.000000,0.000000,0.000000,0.000000 ThumbRight:0.000000,0.000000,0.000000,0.000000 WristLeft:0.153332,0.141011,-0.530152,0.821915 WristRight:-0.054287,0.750931,0.071567,-0.654242 END:
KINECT_DATA POSITION:5.463663,-0.776151,-4.867113 HEAD_JOINT1:0.981652,0.169034,-0.000000,0.088246 LARM_JOINT2:0.892106,0.000000,-0.397948,-0.213974 LARM_JOINT3:0.990657,0.000000,-0.121441,0.062052 LLEG_JOINT2:0.998368,0.027454,0.000000,0.050075 LLEG_JOINT4:0.995175,0.093071,0.000000,-0.031049 RARM_JOINT2:0.804010,0.000000,-0.095113,0.586959 RARM_JOINT3:0.966029,0.000000,0.194350,0.170344 RLEG_JOINT2:0.999693,0.014357,0.000000,-0.020179 RLEG_JOINT4:0.994948,0.095303,0.000000,0.031559 WAIST:0.999964,-0.000000,0.007662,0.003651 WAIST_JOINT0:0.999033,0.000000,-0.043920,0.002110 WAIST_JOINT1:0.998280,0.057498,0.000000,-0.011483 END:
KINECT_DATA_Sensor  AnkleLeft:0.076660,0.739756,-0.095256,-0.661673 AnkleRight:0.090712,0.739020,0.063229,0.664547 ElbowLeft:-0.509262,0.710827,-0.075423,-0.479259 ElbowRight:0.037109,0.856545,0.202337,0.473301 FootLeft:0.000000,0.000000,0.000000,0.000000 FootRight:0.000000,0.000000,0.000000,0.000000 HandLeft:0.176178,0.172341,-0.591265,0.767896 HandRight:-0.062382,0.730739,0.004370,-0.679786 HandTipLeft:0.000000,0.000000,0.000000,0.000000 HandTipRight:0.000000,0.000000,0.000000,0.000000 Head:0.000000,0.000000,0.000000,0.000000 HipLeft:0.119729,-0.678866,0.707709,-0.154774 HipRight:-0.131700,0.678224,0.701172,-0.176142 KneeLeft:0.018082,-0.701196,0.057542,0.710413 KneeRight:-0.001707,0.712889,0.021809,0.700935 Neck:0.044649,-0.012709,0.996302,-0.072302 ShoulderLeft:-0.025473,0.784274,-0.612652,0.094461 ShoulderRight:0.032381,0.784450,0.618881,-0.023995 SpineBase:-0.008172,-0.008152,0.999361,-0.033840 SpineMid:0.017966,-0.009034,0.999233,-0.033615 SpineShoulder:0.044643,-0.010826,0.997594,-0.051926 ThumbLeft:0.000000,0.000000,0.000000,0.000000 ThumbRight:0.000000,0.000000,0.000000,0.000000 WristLeft:0.157257,0.175144,-0.543604,0.805661 WristRight:-0.053306,0.735510,0.072698,-0.671489 END:
KINECT_DATA POSITION:5.353610,-0.731254,-4.889870 HEAD_JOINT1:0.982037,0.165027,-0.000000,0.091487 LARM_JOINT2:0.897685,0.000000,-0.392061,-0.201122 LARM_JOINT3:0.988504,0.000000,-0.128497,0.079682 LLEG_JOINT2:0.998367,0.028147,0.000000,0.049712 LLEG_JOINT4:0.995149,0.091765,0.000000,-0.035467 RARM_JOINT2:0.804140,0.000000,-0.094568,0.586869 RARM_JOINT3:0.966311,0.000000,0.193955,0.169190 RLEG_JOINT2:0.999689,0.014035,0.000000,-0.020607 RLEG_JOINT4:0.994997,0.095462,0.000000,0.029451 WAIST:0.999967,-0.000000,0.006024,0.005433 WAIST_JOINT0:0.998990,0.000000,-0.044711,0.004347 WAIST_JOINT1:0.998271,0.057583,0.000000,-0.011810 END:
KINECT_DATA_Sensor  AnkleLeft:0.076288,0.728648,-0.094093,-0.674091 AnkleRight:0.091181,0.748599,0.062086,0.653782 ElbowLeft:0.525346,-0.638176,0.018645,0.562491 ElbowRight:0.037797,0.856252,0.201031,0.474331 FootLeft:0.000000,0.000000,0.000000,0.000000 FootRight:0.000000,0.000000,0.000000,0.000000 HandLeft:0.205438,0.123286,-0.558759,0.793968 HandRight:-0.054300,0.945621,-0.016764,-0.320267 HandTipLeft:0.000000,0.000000,0.000000,0.000000 HandTipRight:0.000000,0.000000,0.000000,0.000000 Head:0.000000,0.000000,0.000000,0.000000 HipLeft:0.120487,-0.677471,0.708671,-0.155888 HipRight:-0.131233,0.679774,0.700060,-0.174932 KneeLeft:0.018677,-0.702286,0.059004,0.709199 KneeRight:-0.000939,0.711774,0.020627,0.702105 Neck:0.044817,-0.011219,0.996283,-0.072700 ShoulderLeft:-0.025386,0.781670,-0.615928,0.094767 ShoulderRight:0.032714,0.786056,0.616837,-0.023629 SpineBase:-0.006588,-0.006218,0.999391,-0.033695 SpineMid:0.018897,-0.007075,0.999234,-0.033526 SpineShoulder:0.044856,-0.009172,0.997594,-0.052057 ThumbLeft:0.000000,0.000000,0.000000,0.000000 ThumbRight:0.000000,0.000000,0.000000,0.000000 WristLeft:0.212554,0.122287,-0.573638,0.781541 WristRight:-0.078967,0.944382,0.043816,-0.316207 END:
KINECT_DATA POSITION:5.257970,-0.695256,-4.936552 HEAD_JOINT1:0.982487,0.160145,-0.000000,0.095254 LARM_JOINT2:0.901336,0.000000,-0.390044,-0.188307 LARM_JOINT3:0.988229,0.000000,-0.129149,0.082005 LLEG_JOINT2:0.998406,0.027436,0.000000,0.049321 LLEG_JOINT4:0.994990,0.092707,0.000000,-0.037430 RARM_JOINT2:0.801925,0.000000,-0.092324,0.590248 RARM_JOINT3:0.967826,0.000000,0.193091,0.161337 RLEG_JOINT2:0.999697,0.013286,0.000000,-0.020718 RLEG_JOINT4:0.994871,0.096916,0.000000,0.028954 WAIST:0.999966,-0.000000,0.004824,0.006664 WAIST_JOINT0:0.998873,0.000000,-0.047176,0.005255 WAIST_JOINT1:0.998221,0.058476,0.000000,-0.011654 END:
KINECT_DATA_Sensor  AnkleLeft:0.077498,0.732194,-0.093158,-0.670229 AnkleRight:0.086096,0.684356,0.070215,0.720635 ElbowLeft:0.534661,-0.648092,0.038067,0.540985 ElbowRight:0.037911,0.852529,0.196333,0.482918 FootLeft:0.000000,0.000000,0.000000,0.000000 FootRight:0.000000,0.000000,0.000000,0.000000 HandLeft:0.176776,0.190142,-0.590276,0.764311 HandRight:-0.045081,0.798528,0.002963,-0.600260 HandTipLeft:0.000000,0.000000,0.000000,0.000000 HandTipRight:0.000000,0.000000,0.000000,0.000000 Head:0.000000,0.000000,0.000000,0.000000 HipLeft:0.120422,-0.676484,0.709388,-0.156960 HipRight:-0.130352,0.680847,0.699342,-0.174288 KneeLeft:0.019846,-0.703044,0.059078,0.708410 KneeRight:-0.000646,0.710965,0.019307,0.702962 Neck:0.047261,-0.009946,0.996098,-0.073863 ShoulderLeft:-0.025454,0.780518,-0.617078,0.096739 ShoulderRight:0.035793,0.785905,0.616927,-0.021744 SpineBase:-0.005435,-0.004770,0.999388,-0.034217 SpineMid:0.020727,-0.005664,0.999188,-0.034080 SpineShoulder:0.047339,-0.007835,0.997443,-0.052966 ThumbLeft:0.000000,0.000000,0.000000,0.000000 ThumbRight:0.000000,0.000000,0.000000,0.000000 WristLeft:0.165924,0.181629,-0.593248,0.766510 WristRight:-0.061496,0.798957,0.067019,-0.594470 END:
KINECT_DATA POSITION:5.113912,-0.659749,-4.991472 HEAD_JOINT1:0.982773,0.158570,-0.000000,0.094935 LARM_JOINT2:0.905423,0.000000,-0.386267,-0.176087 LARM_JOINT3:0.989388,0.000000,-0.117559,0.085386 LLEG_JOINT2:0.998411,0.027610,0.000000,0.049134 LLEG_JOINT4:0.994796,0.094361,0.000000,-0.038432 RARM_JOINT2:0.803749,0.000000,-0.094022,0.587492 RARM_JOINT3:0.967163,0.000000,0.193525,0.164755 RLEG_JOINT2:0.999702,0.012426,0.000000,-0.020994 RLEG_JOINT4:0.994627,0.098744,0.000000,0.031092 WAIST:0.999964,-0.000000,0.003456,0.007744 WAIST_JOINT0:0.998902,0.000000,-0.046547,0.005236 WAIST_JOINT1:0.998197,0.058781,0.000000,-0.012175 END:
KINECT_DATA_Sensor  AnkleLeft:0.078320,0.729289,-0.094786,-0.673067 AnkleRight:0.089087,0.684169,0.068693,0.720595 ElbowLeft:0.544132,-0.640541,0.041806,0.540259 ElbowRight:0.039019,0.852710,0.199280,0.481301 FootLeft:0.000000,0.000000,0.000000,0.000000 FootRight:0.000000,0.000000,0.000000,0.000000 HandLeft:0.202673,0.211648,-0.594714,0.748628 HandRight:-0.041071,0.739759,0.004818,-0.671601 HandTipLeft:0.000000,0.000000,0.000000,0.000000 HandTipRight:0.000000,0.000000,0.000000,0.000000 Head:0.000000,0.000000,0.000000,0.000000 HipLeft:0.120703,-0.675612,0.709947,-0.157968 HipRight:-0.129486,0.681835,0.698723,-0.173552 KneeLeft:0.020427,-0.703952,0.059809,0.707430 KneeRight:-0.000652,0.710033,0.018136,0.703935 Neck:0.046260,-0.009310,0.996123,-0.074242 ShoulderLeft:-0.024075,0.780277,-0.617570,0.095891 ShoulderRight:0.035865,0.786722,0.615861,-0.022311 SpineBase:-0.004111,-0.003654,0.999388,-0.034537 SpineMid:0.020932,-0.004519,0.999178,-0.034434 SpineShoulder:0.046364,-0.007046,0.997475,-0.053331 ThumbLeft:0.000000,0.000000,0.000000,0.000000 ThumbRight:0.000000,0.000000,0.000000,0.000000 WristLeft:0.171526,0.188461,-0.599093,0.759044 WristRight:-0.055500,0.741256,0.072334,-0.665002 END:
KINECT_DATA POSITION:4.972848,-0.603496,-5.082881 HEAD_JOINT1:0.983020,0.158530,-0.000000,0.092415 LARM_JOINT2:0.916253,0.000000,-0.366776,-0.161109 LARM_JOINT3:0.989718,0.000000,-0.112016,0.088946 LLEG_JOINT2:0.998422,0.026785,0.000000,0.049365 LLEG_JOINT4:0.995048,0.091181,0.000000,-0.039564 RARM_JOINT2:0.802282,0.000000,-0.092945,0.589666 RARM_JOINT3:0.967050,0.000000,0.196411,0.161978 RLEG_JOINT2:0.999698,0.011667,0.000000,-0.021609 RLEG_JOINT4:0.994529,0.099553,0.000000,0.031655 WAIST:0.999960,-0.000000,0.003101,0.008446 WAIST_JOINT0:0.998906,0.000000,-0.046225,0.007060 WAIST_JOINT1:0.998171,0.059218,0.000000,-0.012161 END:
KINECT_DATA_Sensor  AnkleLeft:0.076469,0.737435,-0.091156,-0.664856 AnkleRight:0.093497,0.725293,0.062843,0.679161 ElbowLeft:0.556402,-0.604797,0.040193,0.568350 ElbowRight:0.039304,0.850916,0.196415,0.485611 FootLeft:0.000000,0.000000,0.000000,0.000000 FootRight:0.000000,0.000000,0.000000,0.000000 HandLeft:0.226568,0.231652,-0.578354,0.748673 HandRight:-0.053892,0.788155,0.009408,-0.613041 HandTipLeft:0.000000,0.000000,0.000000,0.000000 HandTipRight:0.000000,0.000000,0.000000,0.000000 Head:0.000000,0.000000,0.000000,0.000000 HipLeft:0.120370,-0.675095,0.710369,-0.158538 HipRight:-0.129207,0.682365,0.698236,-0.173637 KneeLeft:0.021693,-0.704128,0.059881,0.707211 KneeRight:-0.001119,0.709802,0.017537,0.704183 Neck:0.045964,-0.008572,0.996106,-0.074746 ShoulderLeft:-0.021909,0.778035,-0.620623,0.094915 ShoulderRight:0.037750,0.785924,0.616786,-0.021772 SpineBase:-0.003787,-0.002833,0.999376,-0.035016 SpineMid:0.020977,-0.003700,0.999163,-0.034935 SpineShoulder:0.046085,-0.006298,0.997468,-0.053805 ThumbLeft:0.000000,0.000000,0.000000,0.000000 ThumbRight:0.000000,0.000000,0.000000,0.000000 WristLeft:0.197627,0.198234,-0.611795,0.739834 WristRight:-0.060977,0.789320,0.067917,-0.607160 END:
KINECT_DATA POSITION:4.904200,-0.581345,-5.095291 HEAD_JOINT1:0.983109,0.160071,-0.000000,0.088732 LARM_JOINT2:0.923159,0.000000,-0.352913,-0.152416 LARM_JOINT3:0.988914,0.000000,-0.124246,0.081313 LLEG_JOINT2:0.998451,0.027343,0.000000,0.048463 LLEG_JOINT4:0.995168,0.090523,0.000000,-0.038018 RARM_JOINT2:0.800719,0.000000,-0.091081,0.592075 RARM_JOINT3:0.967080,0.000000,0.196640,0.161523 RLEG_JOINT2:0.999687,0.011534,0.000000,-0.022211 RLEG_JOINT4:0.994904,0.096031,0.000000,0.030740 WAIST:0.999949,-0.000000,0.003995,0.009292 WAIST_JOINT0:0.999033,0.000000,-0.042969,0.009266 WAIST_JOINT1:0.998188,0.058947,0.000000,-0.012123 END:
KINECT_DATA_Sensor  AnkleLeft:0.075982,0.740442,-0.091726,-0.661483 AnkleRight:0.086707,0.686477,0.065942,0.718946 ElbowLeft:0.562213,-0.602602,0.062403,0.562932 ElbowRight:0.038662,0.850578,0.192582,0.487784 FootLeft:0.000000,0.000000,0.000000,0.000000 FootRight:0.000000,0.000000,0.000000,0.000000 HandLeft:0.249680,0.192082,-0.554749,0.770077 HandRight:-0.067576,0.751497,0.007087,-0.656228 HandTipLeft:0.000000,0.000000,0.000000,0.000000 HandTipRight:0.000000,0.000000,0.000000,0.000000 Head:0.000000,0.000000,0.000000,0.000000 HipLeft:0.119974,-0.674546,0.711035,-0.158187 HipRight:-0.130141,0.682742,0.697561,-0.174169 KneeLeft:0.021210,-0.703479,0.060246,0.707840 KneeRight:-0.001062,0.710445,0.017262,0.703540 Neck:0.042528,-0.007516,0.996288,-0.074465 ShoulderLeft:-0.017186,0.775381,-0.624767,0.090306 ShoulderRight:0.038148,0.785445,0.617346,-0.022453 SpineBase:-0.004709,-0.002079,0.999377,-0.034901 SpineMid:0.018825,-0.002900,0.999211,-0.034842 SpineShoulder:0.042657,-0.005327,0.997637,-0.053598 ThumbLeft:0.000000,0.000000,0.000000,0.000000 ThumbRight:0.000000,0.000000,0.000000,0.000000 WristLeft:0.237186,0.160536,-0.606545,0.741670 WristRight:-0.058314,0.755655,0.070686,-0.648528 END:
KINECT_DATA POSITION:4.894404,-0.575286,-5.135298 HEAD_JOINT1:0.983004,0.160949,-0.000000,0.088307 LARM_JOINT2:0.924625,0.000000,-0.349909,-0.150440 LARM_JOINT3:0.988852,0.000000,-0.126199,0.079025 LLEG_JOINT2:0.998492,0.026671,0.000000,0.047975 LLEG_JOINT4:0.995279,0.089823,0.000000,-0.036764 RARM_JOINT2:0.802244,0.000000,-0.091171,0.589994 RARM_JOINT3:0.967121,0.000000,0.191299,0.167573 RLEG_JOINT2:0.999684,0.011114,0.000000,-0.022567 RLEG_JOINT4:0.994882,0.096151,0.000000,0.031051 WAIST:0.999942,-0.000000,0.004409,0.009784 WAIST_JOINT0:0.999037,0.000000,-0.042883,0.009251 WAIST_JOINT1:0.998174,0.059102,0.000000,-0.012489 END:
KINECT_DATA_Sensor  AnkleLeft:0.073929,0.738662,-0.091936,-0.663672 AnkleRight:0.086768,0.686490,0.065490,0.718967 ElbowLeft:0.562784,-0.605944,0.071365,0.557685 ElbowRight:0.038413,0.852410,0.194702,0.483748 FootLeft:0.000000,0.000000,0.000000,0.000000 FootRight:0.000000,0.000000,0.000000,0.000000 HandLeft:0.214060,0.245298,-0.568812,0.755288 HandRight:-0.064309,0.712151,-0.021132,-0.698756 HandTipLeft:0.000000,0.000000,0.000000,0.000000 HandTipRight:0.000000,0.000000,0.000000,0.000000 Head:0.000000,0.000000,0.000000,0.000000 HipLeft:0.119619,-0.674269,0.711390,-0.158039 HipRight:-0.130311,0.682991,0.697183,-0.174580 KneeLeft:0.021673,-0.703145,0.059778,0.708198 KneeRight:-0.001273,0.710757,0.016865,0.703234 Neck:0.042282,-0.007440,0.996287,-0.074633 ShoulderLeft:-0.017651,0.775156,-0.624966,0.090766 ShoulderRight:0.037374,0.785925,0.616755,-0.023209 SpineBase:-0.005154,-0.001911,0.999370,-0.035063 SpineMid:0.018482,-0.002739,0.999212,-0.035008 SpineShoulder:0.042412,-0.005246,0.997640,-0.053744 ThumbLeft:0.000000,0.000000,0.000000,0.000000 ThumbRight:0.000000,0.000000,0.000000,0.000000 WristLeft:0.196343,0.210663,-0.620652,0.729288 WristRight:-0.054290,0.721690,0.073245,-0.686185 END:
KINECT_DATA POSITION:4.900829,-0.563951,-5.151641 HEAD_JOINT1:0.982817,0.163369,-0.000000,0.085919 LARM_JOINT2:0.926958,0.000000,-0.344128,-0.149413 LARM_JOINT3:0.988731,0.000000,-0.130685,0.073030 LLEG_JOINT2:0.998491,0.026385,0.000000,0.048158 LLEG_JOINT4:0.995233,0.090943,0.000000,-0.035217 RARM_JOINT2:0.802058,0.000000,-0.089983,0.590428 RARM_JOINT3:0.965033,0.000000,0.200645,0.168680 RLEG_JOINT2:0.999701,0.010545,0.000000,-0.022068 RLEG_JOINT4:0.994745,0.097676,0.000000,0.030692 WAIST:0.999941,-0.000000,0.004639,0.009786 WAIST_JOINT0:0.999041,0.000000,-0.042939,0.008562 WAIST_JOINT1:0.998161,0.059231,0.000000,-0.012886 END:
KINECT_DATA_Sensor  AnkleLeft:0.075146,0.750419,-0.092404,-0.650143 AnkleRight:0.087489,0.686376,0.066137,0.718930 ElbowLeft:0.561847,-0.609490,0.083046,0.553130 ElbowRight:0.037955,0.853498,0.194264,0.482040 FootLeft:0.000000,0.000000,0.000000,0.000000 FootRight:0.000000,0.000000,0.000000,0.000000 HandLeft:0.283748,0.138729,-0.529419,0.787373 HandRight:-0.098399,0.938956,-0.031031,-0.328201 HandTipLeft:0.000000,0.000000,0.000000,0.000000 HandTipRight:0.000000,0.000000,0.000000,0.000000 Head:0.000000,0.000000,0.000000,0.000000 HipLeft:0.119355,-0.674276,0.711436,-0.158001 HipRight:-0.130303,0.682916,0.697184,-0.174876 KneeLeft:0.021996,-0.702966,0.059711,0.708371 KneeRight:-0.001324,0.710927,0.016106,0.703081 Neck:0.042363,-0.008071,0.996271,-0.074732 ShoulderLeft:-0.017738,0.775381,-0.624654,0.090973 ShoulderRight:0.037430,0.785390,0.617428,-0.023340 SpineBase:-0.005390,-0.002003,0.999361,-0.035268 SpineMid:0.018416,-0.002842,0.999206,-0.035210 SpineShoulder:0.042506,-0.005616,0.997628,-0.053848 ThumbLeft:0.000000,0.000000,0.000000,0.000000 ThumbRight:0.000000,0.000000,0.000000,0.000000 WristLeft:0.281355,0.111545,-0.584494,0.752837 WristRight:-0.080037,0.943360,0.043153,-0.319068 END:
KINECT_DATA POSITION:4.975515,-0.586940,-5.126131 HEAD_JOINT1:0.983208,0.166395,-0.000000,0.074936 LARM_JOINT2:0.927997,0.000000,-0.340780,-0.150635 LARM_JOINT3:0.989428,0.000000,-0.127226,0.069609 LLEG_JOINT2:0.998484,0.026364,0.000000,0.048309 LLEG_JOINT4:0.995259,0.090246,0.000000,-0.036273 RARM_JOINT2:0.807337,0.000000,-0.079751,0.584676 RARM_JOINT3:0.964954,0.000000,0.199192,0.170842 RLEG_JOINT2:0.999694,0.010751,0.000000,-0.022298 RLEG_JOINT4:0.994726,0.097857,0.000000,0.030739 WAIST:0.999931,-0.000000,0.007216,0.009307 WAIST_JOINT0:0.999196,0.000000,-0.039132,0.008749 WAIST_JOINT1:0.998161,0.059307,0.000000,-0.012538 END:
KINECT_DATA_Sensor  AnkleLeft:0.075404,0.746719,-0.090931,-0.654565 AnkleRight:0.087133,0.688649,0.067016,0.716714 ElbowLeft:0.558694,-0.616607,0.096621,0.546188 ElbowRight:0.030487,0.864812,0.197362,0.460672 FootLeft:0.000000,0.000000,0.000000,0.000000 FootRight:0.000000,0.000000,0.000000,0.000000 HandLeft:0.261237,0.194603,-0.544304,0.773058 HandRight:-0.093762,0.933975,-0.006074,-0.344763 HandTipLeft:0.000000,0.000000,0.000000,0.000000 HandTipRight:0.000000,0.000000,0.000000,0.000000 Head:0.000000,0.000000,0.000000,0.000000 HipLeft:0.117946,-0.674946,0.711328,-0.156678 HipRight:-0.132118,0.682231,0.697096,-0.176531 KneeLeft:0.021642,-0.701168,0.059505,0.710178 KneeRight:-0.001740,0.712713,0.016730,0.701255 Neck:0.038399,-0.008213,0.996426,-0.074791 ShoulderLeft:-0.016553,0.775144,-0.625264,0.089009 ShoulderRight:0.033533,0.785958,0.616759,-0.027451 SpineBase:-0.007933,-0.002151,0.999346,-0.035220 SpineMid:0.015158,-0.002964,0.999262,-0.035161 SpineShoulder:0.038524,-0.005833,0.997787,-0.053881 ThumbLeft:0.000000,0.000000,0.000000,0.000000 ThumbRight:0.000000,0.000000,0.000000,0.000000 WristLeft:0.246606,0.163515,-0.592364,0.749368 WristRight:-0.084538,0.935923,0.043284,-0.339158 END:
KINECT_DATA POSITION:5.100378,-0.621174,-5.076754 HEAD_JOINT1:0.982677,0.172605,-0.000000,0.067483 LARM_JOINT2:0.929411,0.000000,-0.340613,-0.142046 LARM_JOINT3:0.989645,0.000000,-0.131246,0.058118 LLEG_JOINT2:0.998492,0.026223,0.000000,0.048232 LLEG_JOINT4:0.995069,0.092322,0.000000,-0.036247 RARM_JOINT2:0.809962,0.000000,-0.072958,0.581927 RARM_JOINT3:0.966055,0.000000,0.191399,0.173508 RLEG_JOINT2:0.999700,0.009922,0.000000,-0.022375 RLEG_JOINT4:0.994513,0.099247,0.000000,0.033087 WAIST:0.999912,-0.000000,0.010209,0.008496 WAIST_JOINT0:0.999284,0.000000,-0.036919,0.008305 WAIST_JOINT1:0.998133,0.060041,0.000000,-0.011215 END:
KINECT_DATA_Sensor  AnkleLeft:0.074942,0.724656,-0.093543,-0.678607 AnkleRight:0.092057,0.730525,0.061493,0.673852 ElbowLeft:0.559750,-0.635038,0.125522,0.517350 ElbowRight:0.026479,0.872076,0.198169,0.446666 FootLeft:0.000000,0.000000,0.000000,0.000000 FootRight:0.000000,0.000000,0.000000,0.000000 HandLeft:0.285749,0.141050,-0.537808,0.780523 HandRight:-0.082551,0.875940,-0.006032,-0.475267 HandTipLeft:0.000000,0.000000,0.000000,0.000000 HandTipRight:0.000000,0.000000,0.000000,0.000000 Head:0.000000,0.000000,0.000000,0.000000 HipLeft:0.115547,-0.675766,0.711223,-0.155405 HipRight:-0.133640,0.681279,0.697319,-0.178172 KneeLeft:0.020958,-0.699093,0.058823,0.712299 KneeRight:-0.003020,0.714758,0.016743,0.699165 Neck:0.036326,-0.007923,0.996445,-0.075601 ShoulderLeft:-0.014715,0.775860,-0.624585,0.087854 ShoulderRight:0.032672,0.785699,0.617034,-0.029624 SpineBase:-0.010861,-0.001790,0.999302,-0.035701 SpineMid:0.012658,-0.002630,0.999281,-0.035649 SpineShoulder:0.036450,-0.005607,0.997829,-0.054569 ThumbLeft:0.000000,0.000000,0.000000,0.000000 ThumbRight:0.000000,0.000000,0.000000,0.000000 WristLeft:0.280814,0.123668,-0.568463,0.763348 WristRight:-0.076449,0.878537,0.053656,-0.468454 END:
KINECT_DATA POSITION:5.174906,-0.623824,-5.053174 HEAD_JOINT1:0.983073,0.170423,-0.000000,0.067254 LARM_JOINT2:0.929689,0.000000,-0.339056,-0.143946 LARM_JOINT3:0.987505,0.000000,-0.144383,0.063146 LLEG_JOINT2:0.998550,0.025972,0.000000,0.047147 LLEG_JOINT4:0.995166,0.091630,0.000000,-0.035332 RARM_JOINT2:0.808753,0.000000,-0.073692,0.583513 RARM_JOINT3:0.966359,0.000000,0.189396,0.174009 RLEG_JOINT2:0.999702,0.009494,0.000000,-0.022506 RLEG_JOINT4:0.994538,0.099583,0.000000,0.031267 WAIST:0.999895,-0.000000,0.011323,0.009023 WAIST_JOINT0:0.999349,0.000000,-0.034989,0.008760 WAIST_JOINT1:0.997984,0.062461,0.000000,-0.011280 END:
KINECT_DATA_Sensor  AnkleLeft:0.077458,0.748476,-0.090321,-0.652400 AnkleRight:0.087137,0.690992,0.067731,0.714387 ElbowLeft:0.557655,-0.631672,0.123989,0.524059 ElbowRight:0.028746,0.869982,0.197580,0.450852 FootLeft:0.000000,0.000000,0.000000,0.000000 FootRight:0.000000,0.000000,0.000000,0.000000 HandLeft:0.301434,0.086813,-0.529902,0.787912 HandRight:-0.073078,0.826687,-0.019202,-0.557567 HandTipLeft:0.000000,0.000000,0.000000,0.000000 HandTipRight:0.000000,0.000000,0.000000,0.000000 Head:0.000000,0.000000,0.000000,0.000000 HipLeft:0.113720,-0.675366,0.711863,-0.155562 HipRight:-0.133112,0.681300,0.697061,-0.179491 KneeLeft:0.020699,-0.698262,0.058259,0.713168 KneeRight:-0.003065,0.715571,0.016145,0.698346 Neck:0.034702,-0.007467,0.996290,-0.078400 ShoulderLeft:-0.011800,0.775458,-0.625122,0.088021 ShoulderRight:0.033539,0.784610,0.618231,-0.032440 SpineBase:-0.012027,-0.001524,0.999235,-0.037179 SpineMid:0.011268,-0.002390,0.999244,-0.037133 SpineShoulder:0.034817,-0.005382,0.997760,-0.056869 ThumbLeft:0.000000,0.000000,0.000000,0.000000 ThumbRight:0.000000,0.000000,0.000000,0.000000 WristLeft:0.309475,0.079073,-0.557014,0.766621 WristRight:-0.070603,0.831156,0.059893,-0.548277 END:
KINECT_DATA POSITION:5.189318,-0.633135,-5.009961 HEAD_JOINT1:0.983113,0.168588,-0.000000,0.071184 LARM_JOINT2:0.928783,0.000000,-0.340896,-0.145436 LARM_JOINT3:0.986660,0.000000,-0.149364,0.064747 LLEG_JOINT2:0.998563,0.026118,0.000000,0.046795 LLEG_JOINT4:0.995311,0.090616,0.000000,-0.033838 RARM_JOINT2:0.806956,0.000000,-0.075638,0.585749 RARM_JOINT3:0.967242,0.000000,0.187895,0.170702 RLEG_JOINT2:0.999704,0.009786,0.000000,-0.022260 RLEG_JOINT4:0.994449,0.101222,0.000000,0.028724 WAIST:0.999900,-0.000000,0.010805,0.009177 WAIST_JOINT0:0.999324,0.000000,-0.035650,0.009028 WAIST_JOINT1:0.997902,0.063682,0.000000,-0.011686 END:
KINECT_DATA_Sensor  AnkleLeft:0.076583,0.753682,-0.090263,-0.646492 AnkleRight:0.091262,0.734947,0.064838,0.668820 ElbowLeft:0.556974,-0.629532,0.117526,0.528826 ElbowRight:0.031320,0.867086,0.196649,0.456630 FootLeft:0.000000,0.000000,0.000000,0.000000 FootRight:0.000000,0.000000,0.000000,0.000000 HandLeft:0.299343,0.079691,-0.520831,0.795474 HandRight:0.059350,-0.581459,0.002287,0.811405 HandTipLeft:0.000000,0.000000,0.000000,0.000000 HandTipRight:0.000000,0.000000,0.000000,0.000000 Head:0.000000,0.000000,0.000000,0.000000 HipLeft:0.113319,-0.675002,0.712041,-0.156616 HipRight:-0.131893,0.681224,0.697211,-0.180097 KneeLeft:0.020486,-0.698606,0.058210,0.712841 KneeRight:-0.002564,0.715249,0.016077,0.698680 Neck:0.035661,-0.007826,0.996167,-0.079484 ShoulderLeft:-0.012022,0.775387,-0.624930,0.089963 ShoulderRight:0.034604,0.783878,0.619073,-0.032954 SpineBase:-0.011556,-0.001794,0.999191,-0.038470 SpineMid:0.011981,-0.002699,0.999186,-0.038417 SpineShoulder:0.035779,-0.005690,0.997652,-0.058115 ThumbLeft:0.000000,0.000000,0.000000,0.000000 ThumbRight:0.000000,0.000000,0.000000,0.000000 WristLeft:0.309230,0.066730,-0.562143,0.764146 WristRight:0.044595,-0.582848,-0.080434,0.807360 END:
KINECT_DATA POSITION:5.181657,-0.642125,-4.941189 HEAD_JOINT1:0.982410,0.170960,-0.000000,0.075116 LARM_JOINT2:0.926901,0.000000,-0.344879,-0.148030 LARM_JOINT3:0.986651,0.000000,-0.148937,0.065858 LLEG_JOINT2:0.998567,0.026034,0.000000,0.046758 LLEG_JOINT4:0.995218,0.090958,0.000000,-0.035601 RARM_JOINT2:0.805313,0.000000,-0.077641,0.587744 RARM_JOINT3:0.967772,0.000000,0.187874,0.167693 RLEG_JOINT2:0.999684,0.011121,0.000000,-0.022558 RLEG_JOINT4:0.994694,0.098199,0.000000,0.030667 WAIST:0.999890,-0.000000,0.011316,0.009578 WAIST_JOINT0:0.999233,0.000000,-0.038170,0.008703 WAIST_JOINT1:0.997842,0.064520,0.000000,-0.012154 END:
KINECT_DATA_Sensor  AnkleLeft:0.075648,0.738345,-0.091034,-0.663956 AnkleRight:0.091130,0.732542,0.062624,0.671682 ElbowLeft:0.556284,-0.625964,0.107475,0.535878 ElbowRight:0.033580,0.865141,0.195663,0.460563 FootLeft:0.000000,0.000000,0.000000,0.000000 FootRight:0.000000,0.000000,0.000000,0.000000 HandLeft:0.302276,0.062725,-0.512031,0.801573 HandRight:-0.043813,0.943417,-0.034786,-0.326855 HandTipLeft:0.000000,0.000000,0.000000,0.000000 HandTipRight:0.000000,0.000000,0.000000,0.000000 Head:0.000000,0.000000,0.000000,0.000000 HipLeft:0.112437,-0.674644,0.712455,-0.156910 HipRight:-0.131465,0.681218,0.697040,-0.181092 KneeLeft:0.020779,-0.698193,0.058414,0.713220 KneeRight:-0.001571,0.715646,0.016951,0.698256 Neck:0.038289,-0.008260,0.996007,-0.080228 ShoulderLeft:-0.013673,0.774831,-0.625147,0.092960 ShoulderRight:0.036418,0.782953,0.620193,-0.031924 SpineBase:-0.012121,-0.001893,0.999145,-0.039482 SpineMid:0.013009,-0.002885,0.999134,-0.039422 SpineShoulder:0.038415,-0.006019,0.997504,-0.058932 ThumbLeft:0.000000,0.000000,0.000000,0.000000 ThumbRight:0.000000,0.000000,0.000000,0.000000 WristLeft:0.318342,0.051246,-0.558247,0.764456 WristRight:-0.080619,0.942284,0.039624,-0.322537 END:
KINECT_DATA POSITION:5.161554,-0.659593,-4.798496 HEAD_JOINT1:0.981618,0.174403,-0.000000,0.077516 LARM_JOINT2:0.924957,0.000000,-0.349393,-0.149594 LARM_JOINT3:0.987206,0.000000,-0.144174,0.068104 LLEG_JOINT2:0.998488,0.027684,0.000000,0.047481 LLEG_JOINT4:0.995016,0.091421,0.000000,-0.039825 RARM_JOINT2:0.804841,0.000000,-0.079542,0.588136 RARM_JOINT3:0.967066,0.000000,0.189560,0.169857 RLEG_JOINT2:0.999671,0.012304,0.000000,-0.022523 RLEG_JOINT4:0.994714,0.097758,0.000000,0.031438 WAIST:0.999905,-0.000000,0.009924,0.009569 WAIST_JOINT0:0.999208,0.000000,-0.038876,0.008429 WAIST_JOINT1:0.997837,0.064559,0.000000,-0.012422 END:
KINECT_DATA_Sensor  AnkleLeft:0.077290,0.723328,-0.091645,-0.680018 AnkleRight:0.088281,0.688633,0.068014,0.716495 ElbowLeft:0.556150,-0.626479,0.099457,0.536964 ElbowRight:0.035266,0.863912,0.195995,0.462600 FootLeft:0.000000,0.000000,0.000000,0.000000 FootRight:0.000000,0.000000,0.000000,0.000000 HandLeft:0.201951,0.217767,-0.560847,0.772816 HandRight:-0.064173,0.793404,-0.020819,-0.604945 HandTipLeft:0.000000,0.000000,0.000000,0.000000 HandTipRight:0.000000,0.000000,0.000000,0.000000 Head:0.000000,0.000000,0.000000,0.000000 HipLeft:0.113287,-0.674421,0.712325,-0.157844 HipRight:-0.130550,0.681332,0.697246,-0.180532 KneeLeft:0.020163,-0.699203,0.060061,0.712110 KneeRight:-0.000690,0.714683,0.017789,0.699222 Neck:0.038867,-0.008416,0.995979,-0.080271 ShoulderLeft:-0.013595,0.774422,-0.625628,0.093146 ShoulderRight:0.037274,0.782671,0.620534,-0.031208 SpineBase:-0.010743,-0.002064,0.999153,-0.039674 SpineMid:0.013990,-0.003046,0.999113,-0.039611 SpineShoulder:0.038994,-0.006150,0.997478,-0.058985 ThumbLeft:0.000000,0.000000,0.000000,0.000000 ThumbRight:0.000000,0.000000,0.000000,0.000000 WristLeft:0.201123,0.195497,-0.610044,0.741064 WristRight:-0.063698,0.798455,0.061847,-0.595472 END:
KINECT_DATA POSITION:5.150421,-0.668380,-4.673266 HEAD_JOINT1:0.981092,0.176656,-0.000000,0.079059 LARM_JOINT2:0.925600,0.000000,-0.347503,-0.150019 LARM_JOINT3:0.987254,0.000000,-0.144420,0.066878 LLEG_JOINT2:0.998434,0.029040,0.000000,0.047811 LLEG_JOINT4:0.995095,0.090818,0.000000,-0.039224 RARM_JOINT2:0.803560,0.000000,-0.081244,0.589652 RARM_JOINT3:0.967667,0.000000,0.185351,0.171070 RLEG_JOINT2:0.999666,0.012792,0.000000,-0.022445 RLEG_JOINT4:0.994463,0.099922,0.000000,0.032529 WAIST:0.999921,-0.000000,0.007991,0.009677 WAIST_JOINT0:0.999140,0.000000,-0.040691,0.007968 WAIST_JOINT1:0.997871,0.063920,0.000000,-0.012954 END:
KINECT_DATA_Sensor  AnkleLeft:0.078871,0.738235,-0.091486,-0.663640 AnkleRight:0.094483,0.721909,0.064293,0.682486 ElbowLeft:0.556246,-0.625091,0.097791,0.538785 ElbowRight:0.036661,0.862072,0.194867,0.466384 FootLeft:0.000000,0.000000,0.000000,0.000000 FootRight:0.000000,0.000000,0.000000,0.000000 HandLeft:0.286484,0.086226,-0.520013,0.800049 HandRight:0.069302,-0.473554,0.014789,0.877909 HandTipLeft:0.000000,0.000000,0.000000,0.000000 HandTipRight:0.000000,0.000000,0.000000,0.000000 Head:0.000000,0.000000,0.000000,0.000000 HipLeft:0.115077,-0.674233,0.712098,-0.158377 HipRight:-0.129791,0.681761,0.697331,-0.179127 KneeLeft:0.019599,-0.700602,0.061299,0.710645 KneeRight:-0.000168,0.713340,0.018021,0.700587 Neck:0.041066,-0.008748,0.995934,-0.079702 ShoulderLeft:-0.017663,0.775372,-0.623920,0.095974 ShoulderRight:0.036016,0.782584,0.620742,-0.030727 SpineBase:-0.008822,-0.002435,0.999200,-0.038935 SpineMid:0.016040,-0.003403,0.999110,-0.038863 SpineShoulder:0.041196,-0.006414,0.997426,-0.058330 ThumbLeft:0.000000,0.000000,0.000000,0.000000 ThumbRight:0.000000,0.000000,0.000000,0.000000 WristLeft:0.299586,0.072455,-0.567871,0.763230 WristRight:0.031037,-0.474350,-0.082131,0.875947 END:
KINECT_DATA POSITION:5.165340,-0.672391,-4.614234 HEAD_JOINT1:0.980759,0.177909,-0.000000,0.080378 LARM_JOINT2:0.924031,0.000000,-0.351059,-0.151408 LARM_JOINT3:0.987549,0.000000,-0.141333,0.069084 LLEG_JOINT2:0.998435,0.029320,0.000000,0.047626 LLEG_JOINT4:0.995101,0.090813,0.000000,-0.039087 RARM_JOINT2:0.804912,0.000000,-0.078125,0.588229 RARM_JOINT3:0.967591,0.000000,0.185033,0.171841 RLEG_JOINT2:0.999671,0.012981,0.000000,-0.022133 RLEG_JOINT4:0.994701,0.098220,0.000000,0.030390 WAIST:0.999932,-0.000000,0.006729,0.009576 WAIST_JOINT0:0.999057,0.000000,-0.042750,0.007602 WAIST_JOINT1:0.997871,0.063867,0.000000,-0.013205 END:
KINECT_DATA_Sensor  AnkleLeft:0.077461,0.727410,-0.093023,-0.675442 AnkleRight:0.088824,0.686386,0.069017,0.718486 ElbowLeft:0.555697,-0.626960,0.092624,0.538092 ElbowRight:0.034767,0.864506,0.195600,0.461694 FootLeft:0.000000,0.000000,0.000000,0.000000 FootRight:0.000000,0.000000,0.000000,0.000000 HandLeft:0.203333,0.210431,-0.562240,0.773473 HandRight:-0.065635,0.760230,-0.032181,-0.645528 HandTipLeft:0.000000,0.000000,0.000000,0.000000 HandTipRight:0.000000,0.000000,0.000000,0.000000 Head:0.000000,0.000000,0.000000,0.000000 HipLeft:0.115824,-0.674116,0.711911,-0.159173 HipRight:-0.128961,0.681836,0.697566,-0.178519 KneeLeft:0.019266,-0.701513,0.061276,0.709756 KneeRight:0.000148,0.712456,0.018015,0.701485 Neck:0.042484,-0.009093,0.995881,-0.079580 ShoulderLeft:-0.015399,0.774704,-0.625013,0.094638 ShoulderRight:0.040133,0.782882,0.620286,-0.027022 SpineBase:-0.007561,-0.002564,0.999205,-0.039056 SpineMid:0.017388,-0.003538,0.999082,-0.038980 SpineShoulder:0.042618,-0.006672,0.997367,-0.058300 ThumbLeft:0.000000,0.000000,0.000000,0.000000 ThumbRight:0.000000,0.000000,0.000000,0.000000 WristLeft:0.203181,0.190376,-0.607650,0.743799 WristRight:-0.058758,0.768880,0.064639,-0.633398 END:
KINECT_DATA POSITION:5.171010,-0.678355,-4.601598 HEAD_JOINT1:0.980534,0.178904,-0.000000,0.080904 LARM_JOINT2:0.924412,0.000000,-0.350614,-0.150106 LARM_JOINT3:0.988156,0.000000,-0.138820,0.065389 LLEG_JOINT2:0.998444,0.028113,0.000000,0.048153 LLEG_JOINT4:0.994938,0.092403,0.000000,-0.039503 RARM_JOINT2:0.803832,0.000000,-0.078437,0.589662 RARM_JOINT3:0.967263,0.000000,0.186296,0.172325 RLEG_JOINT2:0.999677,0.012693,0.000000,-0.022039 RLEG_JOINT4:0.994466,0.100687,0.000000,0.029986 WAIST:0.999936,-0.000000,0.006187,0.009495 WAIST_JOINT0:0.998967,0.000000,-0.044905,0.006895 WAIST_JOINT1:0.997869,0.063860,0.000000,-0.013375 END:
KINECT_DATA_Sensor  AnkleLeft:0.080147,0.745420,-0.091235,-0.655440 AnkleRight:0.089997,0.685101,0.070918,0.719380 ElbowLeft:0.556396,-0.627462,0.093773,0.536583 ElbowRight:0.035252,0.863125,0.194411,0.464733 FootLeft:0.000000,0.000000,0.000000,0.000000 FootRight:0.000000,0.000000,0.000000,0.000000 HandLeft:0.213859,0.197304,-0.553175,0.780598 HandRight:-0.078253,0.761411,-0.035414,-0.642554 HandTipLeft:0.000000,0.000000,0.000000,0.000000 HandTipRight:0.000000,0.000000,0.000000,0.000000 Head:0.000000,0.000000,0.000000,0.000000 HipLeft:0.116144,-0.674096,0.711810,-0.159470 HipRight:-0.128580,0.681847,0.697697,-0.178245 KneeLeft:0.020473,-0.701859,0.060739,0.709426 KneeRight:-0.000032,0.712080,0.017805,0.701873 Neck:0.044804,-0.009496,0.995780,-0.079522 ShoulderLeft:-0.017720,0.775992,-0.622998,0.096938 ShoulderRight:0.040750,0.783134,0.619982,-0.025750 SpineBase:-0.007021,-0.002687,0.999207,-0.039093 SpineMid:0.018811,-0.003697,0.999055,-0.039011 SpineShoulder:0.044943,-0.006976,0.997263,-0.058285 ThumbLeft:0.000000,0.000000,0.000000,0.000000 ThumbRight:0.000000,0.000000,0.000000,0.000000 WristLeft:0.216494,0.177370,-0.601883,0.747935 WristRight:-0.058499,0.772584,0.064370,-0.628927 END:
KINECT_DATA POSITION:5.176818,-0.676117,-4.598868 HEAD_JOINT1:0.980386,0.179421,-0.000000,0.081559 LARM_JOINT2:0.921488,0.000000,-0.357485,-0.151872 LARM_JOINT3:0.988844,0.000000,-0.130739,0.071381 LLEG_JOINT2:0.998437,0.028035,0.000000,0.048339 LLEG_JOINT4:0.994735,0.094293,0.000000,-0.040127 RARM_JOINT2:0.802784,0.000000,-0.079020,0.591011 RARM_JOINT3:0.968995,0.000000,0.183712,0.165222 RLEG_JOINT2:0.999676,0.013240,0.000000,-0.021722 RLEG_JOINT4:0.994690,0.099195,0.000000,0.027408 WAIST:0.999938,-0.000000,0.005758,0.009552 WAIST_JOINT0:0.999050,0.000000,-0.042880,0.007775 WAIST_JOINT1:0.997886,0.063558,0.000000,-0.013583 END:
KINECT_DATA_Sensor  AnkleLeft:0.079187,0.727237,-0.094338,-0.675245 AnkleRight:0.087938,0.686628,0.071491,0.718121 ElbowLeft:0.557313,-0.622080,0.077702,0.544409 ElbowRight:0.035859,0.862220,0.193130,0.466895 FootLeft:0.000000,0.000000,0.000000,0.000000 FootRight:0.000000,0.000000,0.000000,0.000000 HandLeft:0.309974,0.063155,-0.515888,0.796108 HandRight:0.054476,-0.657743,0.015054,0.751119 HandTipLeft:0.000000,0.000000,0.000000,0.000000 HandTipRight:0.000000,0.000000,0.000000,0.000000 Head:0.000000,0.000000,0.000000,0.000000 HipLeft:0.116488,-0.674022,0.711800,-0.159581 HipRight:-0.128392,0.681958,0.697710,-0.177901 KneeLeft:0.020722,-0.702157,0.060851,0.709115 KneeRight:0.000629,0.711777,0.017932,0.702176 Neck:0.042270,-0.009410,0.995924,-0.079122 ShoulderLeft:-0.013122,0.774512,-0.625618,0.092530 ShoulderRight:0.042142,0.783395,0.619585,-0.025107 SpineBase:-0.006594,-0.002704,0.999216,-0.038945 SpineMid:0.017773,-0.003653,0.999080,-0.038868 SpineShoulder:0.042405,-0.006897,0.997389,-0.058045 ThumbLeft:0.000000,0.000000,0.000000,0.000000 ThumbRight:0.000000,0.000000,0.000000,0.000000 WristLeft:0.315393,0.048212,-0.556474,0.767163 WristRight:0.046350,-0.659254,-0.072526,0.746978 END:
KINECT_DATA POSITION:5.181232,-0.672530,-4.616606 HEAD_JOINT1:0.980399,0.178459,-0.000000,0.083487 LARM_JOINT2:0.925614,0.000000,-0.342166,-0.161743 LARM_JOINT3:0.984467,0.000000,-0.170355,0.042469 LLEG_JOINT2:0.998456,0.028026,0.000000,0.047950 LLEG_JOINT4:0.994764,0.095332,0.000000,-0.036818 RARM_JOINT2:0.803258,0.000000,-0.080507,0.590165 RARM_JOINT3:0.968912,0.000000,0.187618,0.161272 RLEG_JOINT2:0.999664,0.013422,0.000000,-0.022174 RLEG_JOINT4:0.994568,0.099974,0.000000,0.028988 WAIST:0.999937,-0.000000,0.005656,0.009693 WAIST_JOINT0:0.999065,0.000000,-0.042366,0.008608 WAIST_JOINT1:0.997949,0.062638,0.000000,-0.013213 END:
KINECT_DATA_Sensor  AnkleLeft:0.077908,0.727207,-0.097311,-0.675004 AnkleRight:0.089549,0.686632,0.071286,0.717939 ElbowLeft:0.539100,-0.665957,0.137038,0.497085 ElbowRight:0.035946,0.861876,0.193574,0.467341 FootLeft:0.000000,0.000000,0.000000,0.000000 FootRight:0.000000,0.000000,0.000000,0.000000 HandLeft:0.167576,0.155760,-0.545552,0.806244 HandRight:0.046426,-0.693506,-0.012439,0.718846 HandTipLeft:0.000000,0.000000,0.000000,0.000000 HandTipRight:0.000000,0.000000,0.000000,0.000000 Head:0.000000,0.000000,0.000000,0.000000 HipLeft:0.116691,-0.673994,0.711838,-0.159381 HipRight:-0.128579,0.682178,0.697565,-0.177496 KneeLeft:0.020561,-0.702237,0.060665,0.709056 KneeRight:0.000537,0.711697,0.018281,0.702248 Neck:0.041574,-0.008630,0.996044,-0.078057 ShoulderLeft:-0.011897,0.774058,-0.626511,0.090425 ShoulderRight:0.042422,0.784131,0.618678,-0.024006 SpineBase:-0.006485,-0.002450,0.999233,-0.038547 SpineMid:0.017474,-0.003374,0.999101,-0.038477 SpineShoulder:0.041699,-0.006331,0.997470,-0.057219 ThumbLeft:0.000000,0.000000,0.000000,0.000000 ThumbRight:0.000000,0.000000,0.000000,0.000000 WristLeft:0.209249,0.165764,-0.581172,0.768750 WristRight:0.050384,-0.693748,-0.070680,0.714969 END:
KINECT_DATA POSITION:5.181585,-0.645327,-4.615295 HEAD_JOINT1:0.979801,0.171494,-0.000000,0.102855 LARM_JOINT2:0.950249,0.000000,-0.138532,-0.278990 LARM_JOINT3:0.901973,0.000000,-0.422896,-0.087195 LLEG_JOINT2:0.998509,0.028291,0.000000,0.046685 LLEG_JOINT4:0.995061,0.092262,0.000000,-0.036623 RARM_JOINT2:0.799456,0.000000,-0.084743,0.594717 RARM_JOINT3:0.968566,0.000000,0.188742,0.162037 RLEG_JOINT2:0.999608,0.014183,0.000000,-0.024145 RLEG_JOINT4:0.994683,0.098822,0.000000,0.028984 WAIST:0.999926,-0.000000,0.004859,0.011118 WAIST_JOINT0:0.999113,0.000000,-0.040156,0.012693 WAIST_JOINT1:0.997962,0.062376,0.000000,-0.013441 END:
KINECT_DATA_Sensor  AnkleLeft:0.080705,0.764378,-0.091443,-0.633128 AnkleRight:0.089119,0.687941,0.071074,0.716759 ElbowLeft:-0.316774,0.768344,-0.344062,-0.436946 ElbowRight:0.038837,0.853421,0.189225,0.484105 FootLeft:0.000000,0.000000,0.000000,0.000000 FootRight:0.000000,0.000000,0.000000,0.000000 HandLeft:0.005592,0.092961,-0.559942,0.823281 HandRight:0.058799,-0.588767,0.014616,0.806029 HandTipLeft:0.000000,0.000000,0.000000,0.000000 HandTipRight:0.000000,0.000000,0.000000,0.000000 Head:0.000000,0.000000,0.000000,0.000000 HipLeft:0.117441,-0.672801,0.712743,-0.159823 HipRight:-0.128468,0.683109,0.696785,-0.177055 KneeLeft:0.020532,-0.702741,0.060948,0.708533 KneeRight:0.000702,0.711184,0.019208,0.702743 Neck:0.039187,-0.006955,0.996166,-0.077907 ShoulderLeft:-0.006439,0.772721,-0.628940,0.085416 ShoulderRight:0.044791,0.785816,0.616426,-0.022472 SpineBase:-0.005766,-0.001717,0.999246,-0.038347 SpineMid:0.016646,-0.002576,0.999124,-0.038299 SpineShoulder:0.039313,-0.004955,0.997586,-0.057034 ThumbLeft:0.000000,0.000000,0.000000,0.000000 ThumbRight:0.000000,0.000000,0.000000,0.000000 WristLeft:0.075531,0.156574,-0.457932,0.871824 WristRight:0.042603,-0.590322,-0.079295,0.802133 END:
KINECT_DATA POSITION:5.209146,-0.628257,-4.554105 HEAD_JOINT1:0.979405,0.171090,-0.000000,0.107213 LARM_JOINT2:0.903502,0.000000,-0.007754,-0.428515 LARM_JOINT3:0.903508,0.000000,-0.391291,-0.174827 LLEG_JOINT2:0.998517,0.028851,0.000000,0.046163 LLEG_JOINT4:0.995056,0.092336,0.000000,-0.036580 RARM_JOINT2:0.797923,0.000000,-0.086465,0.596525 RARM_JOINT3:0.967641,0.000000,0.199756,0.154168 RLEG_JOINT2:0.999599,0.014719,0.000000,-0.024185 RLEG_JOINT4:0.994874,0.097450,0.000000,0.027009 WAIST:0.999916,-0.000000,0.004941,0.011989 WAIST_JOINT0:0.999510,0.000000,-0.028347,0.013241 WAIST_JOINT1:0.997917,0.062928,0.000000,-0.014176 END:
KINECT_DATA_Sensor  AnkleLeft:0.081302,0.766595,-0.091819,-0.630310 AnkleRight:0.088339,0.694628,0.070465,0.710438 ElbowLeft:-0.148740,0.776941,-0.302542,-0.531703 ElbowRight:0.041108,0.852032,0.187998,0.486834 FootLeft:0.000000,0.000000,0.000000,0.000000 FootRight:0.000000,0.000000,0.000000,0.000000 HandLeft:0.096081,-0.390048,-0.314303,0.860142 HandRight:-0.079813,0.974517,-0.007057,-0.209516 HandTipLeft:0.000000,0.000000,0.000000,0.000000 HandTipRight:0.000000,0.000000,0.000000,0.000000 Head:0.000000,0.000000,0.000000,0.000000 HipLeft:0.117730,-0.672164,0.713197,-0.160264 HipRight:-0.128891,0.683565,0.696083,-0.177749 KneeLeft:0.020377,-0.702641,0.061586,0.708582 KneeRight:0.001664,0.711280,0.018998,0.702650 Neck:0.026933,-0.005998,0.996519,-0.078664 ShoulderLeft:0.010952,0.773785,-0.629548,0.069326 ShoulderRight:0.046414,0.786370,0.615477,-0.025603 SpineBase:-0.005909,-0.001418,0.999239,-0.038524 SpineMid:0.010486,-0.002050,0.999202,-0.038495 SpineShoulder:0.027044,-0.004122,0.997965,-0.057599 ThumbLeft:0.000000,0.000000,0.000000,0.000000 ThumbRight:0.000000,0.000000,0.000000,0.000000 WristLeft:0.233354,-0.322952,-0.263116,0.878645 WristRight:-0.082387,0.974558,0.030095,-0.206259 END:
KINECT_DATA POSITION:5.384897,-0.580775,-4.543912 HEAD_JOINT1:0.978872,0.176751,-0.000000,0.102801 LARM_JOINT2:0.870428,0.000000,0.012258,-0.492143 LARM_JOINT3:0.940883,0.000000,-0.262953,-0.213528 LLEG_JOINT2:0.998568,0.028621,0.000000,0.045201 LLEG_JOINT4:0.995197,0.091179,0.000000,-0.035637 RARM_JOINT2:0.798007,0.000000,-0.079990,0.597315 RARM_JOINT3:0.968963,0.000000,0.193267,0.154136 RLEG_JOINT2:0.999562,0.014968,0.000000,-0.025528 RLEG_JOINT4:0.994808,0.097446,0.000000,0.029346 WAIST:0.999922,-0.000000,0.005688,0.011148 WAIST_JOINT0:0.999735,0.000000,-0.018210,0.014059 WAIST_JOINT1:0.997940,0.062715,0.000000,-0.013499 END:
KINECT_DATA_Sensor  AnkleLeft:0.079601,0.757909,-0.091322,-0.641013 AnkleRight:0.089083,0.700123,0.069938,0.704983 ElbowLeft:-0.065205,0.844380,-0.266227,-0.460320 ElbowRight:0.037147,0.855438,0.185266,0.482206 FootLeft:0.000000,0.000000,0.000000,0.000000 FootRight:0.000000,0.000000,0.000000,0.000000 HandLeft:-0.132887,0.651573,-0.070550,0.743516 HandRight:-0.059902,0.991424,-0.040705,0.108783 HandTipLeft:0.000000,0.000000,0.000000,0.000000 HandTipRight:0.000000,0.000000,0.000000,0.000000 Head:0.000000,0.000000,0.000000,0.000000 HipLeft:0.117594,-0.672769,0.712657,-0.160227 HipRight:-0.129898,0.682945,0.696414,-0.178103 KneeLeft:0.019234,-0.702195,0.060155,0.709178 KneeRight:0.000270,0.711747,0.020711,0.702130 Neck:0.016632,-0.005598,0.996760,-0.078495 ShoulderLeft:0.019865,0.772097,-0.632402,0.059494 ShoulderRight:0.042204,0.786077,0.615864,-0.031833 SpineBase:-0.006575,-0.001141,0.999243,-0.038331 SpineMid:0.005041,-0.001587,0.999252,-0.038315 SpineShoulder:0.016732,-0.003719,0.998203,-0.057413 ThumbLeft:0.000000,0.000000,0.000000,0.000000 ThumbRight:0.000000,0.000000,0.000000,0.000000 WristLeft:-0.088344,0.652891,-0.196240,0.726236 WristRight:-0.088025,0.989925,0.002731,0.110869 END:
KINECT_DATA POSITION:5.646306,-0.645783,-4.682124 HEAD_JOINT1:0.978625,0.180440,-0.000000,0.098662 LARM_JOINT2:0.836808,0.000000,0.008008,-0.547438 LARM_JOINT3:0.961087,0.000000,-0.212074,-0.177022 LLEG_JOINT2:0.998675,0.028862,0.000000,0.042609 LLEG_JOINT4:0.995155,0.091928,0.000000,-0.034874 RARM_JOINT2:0.800581,0.000000,-0.077355,0.594211 RARM_JOINT3:0.968204,0.000000,0.190448,0.162206 RLEG_JOINT2:0.999507,0.014967,0.000000,-0.027600 RLEG_JOINT4:0.994673,0.098599,0.000000,0.030077 WAIST:0.999929,-0.000000,0.004703,0.010919 WAIST_JOINT0:0.999848,0.000000,-0.012810,0.011815 WAIST_JOINT1:0.997897,0.063135,0.000000,-0.014678 END:
KINECT_DATA_Sensor  AnkleLeft:0.078316,0.735328,-0.093304,-0.666674 AnkleRight:0.089247,0.703114,0.071268,0.701845 ElbowLeft:-0.040244,0.848997,-0.208059,-0.484042 ElbowRight:0.035581,0.860569,0.188861,0.471685 FootLeft:0.000000,0.000000,0.000000,0.000000 FootRight:0.000000,0.000000,0.000000,0.000000 HandLeft:-0.123556,0.854470,0.034415,0.503419 HandRight:-0.065638,0.970719,-0.033806,-0.228589 HandTipLeft:0.000000,0.000000,0.000000,0.000000 HandTipRight:0.000000,0.000000,0.000000,0.000000 Head:0.000000,0.000000,0.000000,0.000000 HipLeft:0.118523,-0.672696,0.712384,-0.161065 HipRight:-0.128944,0.682739,0.696777,-0.178163 KneeLeft:0.017136,-0.702941,0.058307,0.708647 KneeRight:-0.001334,0.711084,0.022340,0.702751 Neck:0.011421,-0.006546,0.996790,-0.078975 ShoulderLeft:0.024361,0.774936,-0.629171,0.054990 ShoulderRight:0.039917,0.786189,0.615667,-0.035617 SpineBase:-0.005623,-0.002183,0.999232,-0.038715 SpineMid:0.002909,-0.002513,0.999244,-0.038695 SpineShoulder:0.011490,-0.004689,0.998250,-0.057826 ThumbLeft:0.000000,0.000000,0.000000,0.000000 ThumbRight:0.000000,0.000000,0.000000,0.000000 WristLeft:-0.114546,0.866957,-0.124705,0.468735 WristRight:-0.082651,0.970648,0.030812,-0.223747 END:
KINECT_DATA POSITION:5.941526,-0.682967,-4.839051 HEAD_JOINT1:0.978268,0.180682,-0.000000,0.101716 LARM_JOINT2:0.822421,0.000000,0.002134,-0.568875 LARM_JOINT3:0.975039,0.000000,-0.149446,-0.164209 LLEG_JOINT2:0.998776,0.028579,0.000000,0.040371 LLEG_JOINT4:0.995581,0.089208,0.000000,-0.029323 RARM_JOINT2:0.799147,0.000000,-0.073499,0.596625 RARM_JOINT3:0.969030,0.000000,0.194259,0.152458 RLEG_JOINT2:0.999454,0.016236,0.000000,-0.028773 RLEG_JOINT4:0.995099,0.093579,0.000000,0.031965 WAIST:0.999957,-0.000000,0.003133,0.008731 WAIST_JOINT0:0.999874,0.000000,-0.014086,0.007305 WAIST_JOINT1:0.997959,0.061808,0.000000,-0.016073 END:
KINECT_DATA_Sensor  AnkleLeft:0.077414,0.753025,-0.090510,-0.647124 AnkleRight:0.085767,0.702859,0.069410,0.702720 ElbowLeft:-0.019779,0.883621,-0.181695,-0.431056 ElbowRight:0.030507,0.857526,0.187724,0.477993 FootLeft:0.000000,0.000000,0.000000,0.000000 FootRight:0.000000,0.000000,0.000000,0.000000 HandLeft:-0.037164,0.826289,0.061307,0.558666 HandRight:-0.072026,0.989404,-0.025616,0.123433 HandTipLeft:0.000000,0.000000,0.000000,0.000000 HandTipRight:0.000000,0.000000,0.000000,0.000000 Head:0.000000,0.000000,0.000000,0.000000 HipLeft:0.121057,-0.674169,0.710591,-0.160940 HipRight:-0.128009,0.681477,0.698432,-0.177190 KneeLeft:0.014301,-0.704211,0.054958,0.707716 KneeRight:-0.002767,0.709937,0.025629,0.703794 Neck:0.013240,-0.010005,0.996855,-0.077496 ShoulderLeft:0.020685,0.779199,-0.623879,0.056534 ShoulderRight:0.038401,0.784218,0.618325,-0.034683 SpineBase:-0.003989,-0.005447,0.999268,-0.037666 SpineMid:0.004573,-0.005769,0.999265,-0.037618 SpineShoulder:0.013238,-0.008144,0.998282,-0.056497 ThumbLeft:0.000000,0.000000,0.000000,0.000000 ThumbRight:0.000000,0.000000,0.000000,0.000000 WristLeft:-0.080007,0.831814,-0.086876,0.542344 WristRight:-0.092599,0.987797,0.004438,0.125152 END:
KINECT_DATA POSITION:6.112894,-0.741944,-4.939604 HEAD_JOINT1:0.977163,0.181387,-0.000000,0.110685 LARM_JOINT2:0.817971,0.000000,0.011302,-0.575148 LARM_JOINT3:0.979526,0.000000,-0.128304,-0.155137 LLEG_JOINT2:0.998797,0.028123,0.000000,0.040173 LLEG_JOINT4:0.995331,0.091470,0.000000,-0.030818 RARM_JOINT2:0.794924,0.000000,-0.075826,0.601952 RARM_JOINT3:0.970020,0.000000,0.192229,0.148689 RLEG_JOINT2:0.999466,0.014955,0.000000,-0.029059 RLEG_JOINT4:0.995220,0.092340,0.000000,0.031802 WAIST:0.999972,-0.000000,0.000229,0.007460 WAIST_JOINT0:0.999830,0.000000,-0.017347,0.006256 WAIST_JOINT1:0.997972,0.061439,0.000000,-0.016668 END:
KINECT_DATA_Sensor  AnkleLeft:0.077674,0.734668,-0.092077,-0.667646 AnkleRight:0.083045,0.701418,0.068554,0.704569 ElbowLeft:-0.006870,0.892093,-0.176523,-0.415888 ElbowRight:0.030345,0.844862,0.184607,0.501206 FootLeft:0.000000,0.000000,0.000000,0.000000 FootRight:0.000000,0.000000,0.000000,0.000000 HandLeft:-0.022702,0.724459,0.061801,0.686166 HandRight:-0.013779,0.846462,-0.054059,0.529518 HandTipLeft:0.000000,0.000000,0.000000,0.000000 HandTipRight:0.000000,0.000000,0.000000,0.000000 Head:0.000000,0.000000,0.000000,0.000000 HipLeft:0.123517,-0.674693,0.709399,-0.162131 HipRight:-0.126216,0.680946,0.699674,-0.175611 KneeLeft:-0.013731,0.706325,-0.053574,-0.705724 KneeRight:-0.004680,0.707873,0.025853,0.705851 Neck:0.016467,-0.011694,0.996813,-0.077173 ShoulderLeft:0.019654,0.779721,-0.623150,0.057736 ShoulderRight:0.041527,0.783457,0.619289,-0.030871 SpineBase:-0.001054,-0.007200,0.999278,-0.037291 SpineMid:0.007621,-0.007524,0.999249,-0.037227 SpineShoulder:0.016436,-0.009836,0.998239,-0.056136 ThumbLeft:0.000000,0.000000,0.000000,0.000000 ThumbRight:0.000000,0.000000,0.000000,0.000000 WristLeft:-0.045604,0.736881,-0.080166,0.669701 WristRight:-0.092467,0.842328,-0.032736,0.529964 END:
