EastLYD/RoboCupatHomeSim/InteractiveCleanUp/JapanOpen2016/Motion_Data/File76.dat
KINECT_DATA POSITION:8.888460,-0.267211,-7.514918 HEAD_JOINT1:0.977874,0.195004,-0.000000,0.075738 LARM_JOINT2:0.817404,0.000000,-0.018937,-0.575754 LARM_JOINT3:0.962997,0.000000,-0.223359,-0.150822 LLEG_JOINT2:0.999018,0.027128,0.000000,0.035030 LLEG_JOINT4:0.996302,0.081429,0.000000,-0.027411 RARM_JOINT2:0.803684,0.000000,-0.083282,0.589199 RARM_JOINT3:0.962796,0.000000,0.209985,0.170088 RLEG_JOINT2:0.999350,0.018787,0.000000,-0.030769 RLEG_JOINT4:0.994617,0.097542,0.000000,0.034959 WAIST:0.999995,-0.000000,0.001995,0.002468 WAIST_JOINT0:0.999952,0.000000,-0.005901,0.007871 WAIST_JOINT1:0.997764,0.065860,0.000000,-0.011412 END:
KINECT_DATA_Sensor  AnkleLeft:0.070953,0.709008,-0.082509,-0.696754 AnkleRight:0.090945,0.739180,0.072596,0.663379 ElbowLeft:-0.035666,0.864191,-0.165010,-0.473998 ElbowRight:0.037705,0.856575,0.201570,0.473526 FootLeft:0.000000,0.000000,0.000000,0.000000 FootRight:0.000000,0.000000,0.000000,0.000000 HandLeft:0.039296,-0.586652,-0.180471,0.788495 HandRight:-0.040477,0.621593,-0.072684,0.778910 HandTipLeft:0.000000,0.000000,0.000000,0.000000 HandTipRight:0.000000,0.000000,0.000000,0.000000 Head:0.000000,0.000000,0.000000,0.000000 HipLeft:0.106640,-0.680697,0.707919,-0.155339 HipRight:-0.109643,0.681282,0.704433,-0.166153 KneeLeft:0.007214,-0.705351,0.045712,0.707346 KneeRight:-0.006763,0.708874,0.033287,0.704517 Neck:0.004927,-0.010443,0.996659,-0.080853 ShoulderLeft:0.028989,0.772849,-0.631652,0.053671 ShoulderRight:0.036244,0.779303,0.624002,-0.044665 SpineBase:-0.002510,-0.007213,0.999055,-0.042798 SpineMid:0.001134,-0.007370,0.999057,-0.042771 SpineShoulder:0.004848,-0.009253,0.998090,-0.060889 ThumbLeft:0.000000,0.000000,0.000000,0.000000 ThumbRight:0.000000,0.000000,0.000000,0.000000 WristLeft:0.109544,-0.569923,-0.125415,0.804648 WristRight:-0.068969,0.618462,-0.071053,0.779551 END:
KINECT_DATA POSITION:8.901911,-0.269049,-7.502019 HEAD_JOINT1:0.977587,0.196213,-0.000000,0.076313 LARM_JOINT2:0.819488,0.000000,-0.013056,-0.572947 LARM_JOINT3:0.961690,0.000000,-0.226837,-0.153941 LLEG_JOINT2:0.999030,0.026757,0.000000,0.034973 LLEG_JOINT4:0.996212,0.082594,0.000000,-0.027191 RARM_JOINT2:0.803707,0.000000,-0.083739,0.589103 RARM_JOINT3:0.961181,0.000000,0.214162,0.173971 RLEG_JOINT2:0.999359,0.018750,0.000000,-0.030501 RLEG_JOINT4:0.994659,0.097975,0.000000,0.032466 WAIST:0.999996,-0.000000,0.001717,0.002411 WAIST_JOINT0:0.999929,0.000000,-0.009303,0.007415 WAIST_JOINT1:0.997765,0.065798,0.000000,-0.011607 END:
KINECT_DATA_Sensor  AnkleLeft:0.077181,0.757026,-0.077844,-0.644124 AnkleRight:0.090274,0.743806,0.073882,0.658138 ElbowLeft:-0.033166,0.863820,-0.170204,-0.473017 ElbowRight:0.037923,0.856431,0.201960,0.473603 FootLeft:0.000000,0.000000,0.000000,0.000000 FootRight:0.000000,0.000000,0.000000,0.000000 HandLeft:0.061576,-0.663990,-0.173806,0.724650 HandRight:-0.045220,0.656298,-0.096999,0.746873 HandTipLeft:0.000000,0.000000,0.000000,0.000000 HandTipRight:0.000000,0.000000,0.000000,0.000000 Head:0.000000,0.000000,0.000000,0.000000 HipLeft:0.106931,-0.680678,0.707854,-0.155517 HipRight:-0.109417,0.681215,0.704525,-0.166187 KneeLeft:0.007410,-0.705535,0.045367,0.707182 KneeRight:-0.006630,0.708691,0.033114,0.704711 Neck:0.008548,-0.010932,0.996643,-0.080691 ShoulderLeft:0.023941,0.773823,-0.630246,0.058426 ShoulderRight:0.035825,0.779132,0.624297,-0.043851 SpineBase:-0.002246,-0.007586,0.999050,-0.042863 SpineMid:0.003063,-0.007814,0.999048,-0.042822 SpineShoulder:0.008472,-0.009694,0.998066,-0.060817 ThumbLeft:0.000000,0.000000,0.000000,0.000000 ThumbRight:0.000000,0.000000,0.000000,0.000000 WristLeft:0.121651,-0.649975,-0.113033,0.741591 WristRight:-0.072110,0.652784,-0.067810,0.751049 END:
KINECT_DATA POSITION:8.895772,-0.274514,-7.495272 HEAD_JOINT1:0.977468,0.196836,-0.000000,0.076230 LARM_JOINT2:0.818017,0.000000,-0.014377,-0.575015 LARM_JOINT3:0.961142,0.000000,-0.228430,-0.154999 LLEG_JOINT2:0.999022,0.026818,0.000000,0.035156 LLEG_JOINT4:0.996338,0.080950,0.000000,-0.027517 RARM_JOINT2:0.803649,0.000000,-0.083579,0.589205 RARM_JOINT3:0.961229,0.000000,0.214672,0.173076 RLEG_JOINT2:0.999361,0.018726,0.000000,-0.030462 RLEG_JOINT4:0.994444,0.099229,0.000000,0.035128 WAIST:0.999996,-0.000000,0.001431,0.002240 WAIST_JOINT0:0.999940,0.000000,-0.008177,0.007356 WAIST_JOINT1:0.997766,0.065813,0.000000,-0.011478 END:
KINECT_DATA_Sensor  AnkleLeft:0.074705,0.745221,-0.078025,-0.658010 AnkleRight:0.091808,0.733625,0.074134,0.669230 ElbowLeft:-0.033651,0.862060,-0.167300,-0.477211 ElbowRight:0.037885,0.856258,0.201846,0.473968 FootLeft:0.000000,0.000000,0.000000,0.000000 FootRight:0.000000,0.000000,0.000000,0.000000 HandLeft:-0.083855,0.771461,0.179917,-0.604522 HandRight:-0.047457,0.642135,-0.097599,0.758871 HandTipLeft:0.000000,0.000000,0.000000,0.000000 HandTipRight:0.000000,0.000000,0.000000,0.000000 Head:0.000000,0.000000,0.000000,0.000000 HipLeft:0.107190,-0.680752,0.707670,-0.155852 HipRight:-0.109240,0.681112,0.704646,-0.166217 KneeLeft:-0.007387,0.705748,-0.045417,-0.706968 KneeRight:-0.006732,0.708481,0.033194,0.704916 Neck:0.007336,-0.010827,0.996654,-0.080686 ShoulderLeft:0.025973,0.773543,-0.630677,0.056591 ShoulderRight:0.036305,0.779075,0.624338,-0.043895 SpineBase:-0.001949,-0.007773,0.999044,-0.042975 SpineMid:0.002602,-0.007968,0.999043,-0.042939 SpineShoulder:0.007256,-0.009627,0.998073,-0.060864 ThumbLeft:0.000000,0.000000,0.000000,0.000000 ThumbRight:0.000000,0.000000,0.000000,0.000000 WristLeft:-0.140724,0.772370,0.088741,-0.612997 WristRight:-0.070983,0.639078,-0.069026,0.762743 END:
KINECT_DATA POSITION:8.812240,-0.308884,-7.380307 HEAD_JOINT1:0.977564,0.197272,-0.000000,0.073835 LARM_JOINT2:0.817736,0.000000,-0.014719,-0.575406 LARM_JOINT3:0.939737,0.000000,-0.298997,-0.165816 LLEG_JOINT2:0.999068,0.025395,0.000000,0.034905 LLEG_JOINT4:0.996454,0.080542,0.000000,-0.024331 RARM_JOINT2:0.803264,0.000000,-0.084654,0.589577 RARM_JOINT3:0.962079,0.000000,0.209657,0.174494 RLEG_JOINT2:0.999343,0.019894,0.000000,-0.030280 RLEG_JOINT4:0.994531,0.098177,0.000000,0.035616 WAIST:0.999995,-0.000000,0.002042,0.002349 WAIST_JOINT0:0.999949,0.000000,-0.007414,0.006846 WAIST_JOINT1:0.997819,0.065001,0.000000,-0.011475 END:
KINECT_DATA_Sensor  AnkleLeft:0.067249,0.710434,-0.082624,-0.695654 AnkleRight:0.092587,0.736030,0.073414,0.666556 ElbowLeft:-0.036738,0.854705,-0.165960,-0.490497 ElbowRight:0.037551,0.855130,0.201367,0.476230 FootLeft:0.000000,0.000000,0.000000,0.000000 FootRight:0.000000,0.000000,0.000000,0.000000 HandLeft:0.102847,-0.560242,-0.416477,0.708589 HandRight:-0.032397,0.720015,-0.085671,0.687887 HandTipLeft:0.000000,0.000000,0.000000,0.000000 HandTipRight:0.000000,0.000000,0.000000,0.000000 Head:0.000000,0.000000,0.000000,0.000000 HipLeft:0.107707,-0.680889,0.707687,-0.154816 HipRight:-0.110292,0.681187,0.704418,-0.166175 KneeLeft:0.008273,-0.705283,0.044317,0.707491 KneeRight:-0.005720,0.708917,0.033810,0.704457 Neck:0.006615,-0.010522,0.996734,-0.079792 ShoulderLeft:0.026664,0.773795,-0.630491,0.054869 ShoulderRight:0.036007,0.778900,0.624609,-0.043392 SpineBase:-0.002579,-0.008196,0.999083,-0.041955 SpineMid:0.001896,-0.008384,0.999084,-0.041918 SpineShoulder:0.006511,-0.009608,0.998127,-0.060072 ThumbLeft:0.000000,0.000000,0.000000,0.000000 ThumbRight:0.000000,0.000000,0.000000,0.000000 WristLeft:0.119676,-0.575381,-0.146834,0.795647 WristRight:-0.078795,0.717421,-0.060234,0.689543 END:
KINECT_DATA POSITION:8.619543,-0.355545,-7.204342 HEAD_JOINT1:0.977637,0.197525,-0.000000,0.072184 LARM_JOINT2:0.817008,0.000000,-0.015364,-0.576422 LARM_JOINT3:0.902845,0.000000,-0.393595,-0.173071 LLEG_JOINT2:0.998886,0.027098,0.000000,0.038634 LLEG_JOINT4:0.995756,0.086751,0.000000,-0.030737 RARM_JOINT2:0.802660,0.000000,-0.086190,0.590176 RARM_JOINT3:0.962511,0.000000,0.211590,0.169714 RLEG_JOINT2:0.999382,0.022935,0.000000,-0.026646 RLEG_JOINT4:0.995098,0.092657,0.000000,0.034575 WAIST:0.999994,-0.000000,0.003530,0.000751 WAIST_JOINT0:0.999960,0.000000,-0.006967,0.005621 WAIST_JOINT1:0.997906,0.063810,0.000000,-0.010564 END:
KINECT_DATA_Sensor  AnkleLeft:0.079016,0.732899,-0.082104,-0.670727 AnkleRight:0.091966,0.743642,0.070296,0.658481 ElbowLeft:-0.038026,0.851116,-0.163278,-0.497490 ElbowRight:0.037189,0.855079,0.201221,0.476411 FootLeft:0.000000,0.000000,0.000000,0.000000 FootRight:0.000000,0.000000,0.000000,0.000000 HandLeft:0.052801,-0.304896,-0.547974,0.777158 HandRight:-0.059042,0.765151,-0.076509,0.636557 HandTipLeft:0.000000,0.000000,0.000000,0.000000 HandTipRight:0.000000,0.000000,0.000000,0.000000 Head:0.000000,0.000000,0.000000,0.000000 HipLeft:0.108271,-0.682472,0.706640,-0.152214 HipRight:-0.112139,0.680114,0.705257,-0.165777 KneeLeft:0.008487,-0.704341,0.047045,0.708250 KneeRight:-0.002184,0.709866,0.034521,0.703487 Neck:0.006282,-0.010932,0.996816,-0.078737 ShoulderLeft:0.026507,0.774779,-0.629425,0.053274 ShoulderRight:0.035331,0.778638,0.625036,-0.042470 SpineBase:-0.003975,-0.009941,0.999148,-0.039859 SpineMid:0.000952,-0.010138,0.999155,-0.039810 SpineShoulder:0.006112,-0.010572,0.998195,-0.058799 ThumbLeft:0.000000,0.000000,0.000000,0.000000 ThumbRight:0.000000,0.000000,0.000000,0.000000 WristLeft:0.062448,-0.327941,-0.230560,0.914000 WristRight:-0.082746,0.763611,-0.053390,0.638122 END:
KINECT_DATA POSITION:8.353189,-0.376209,-6.975043 HEAD_JOINT1:0.977795,0.197317,-0.000000,0.070596 LARM_JOINT2:0.818668,0.000000,-0.011507,-0.574152 LARM_JOINT3:0.871581,0.000000,-0.445836,-0.203903 LLEG_JOINT2:0.998633,0.028852,0.000000,0.043582 LLEG_JOINT4:0.996008,0.083884,0.000000,-0.030529 RARM_JOINT2:0.801689,0.000000,-0.087001,0.591376 RARM_JOINT3:0.962561,0.000000,0.214045,0.166316 RLEG_JOINT2:0.999477,0.024659,0.000000,-0.020917 RLEG_JOINT4:0.995209,0.092098,0.000000,0.032809 WAIST:0.999990,0.000000,0.004194,-0.001742 WAIST_JOINT0:0.999968,0.000000,-0.006869,0.004015 WAIST_JOINT1:0.998019,0.062176,0.000000,-0.009620 END:
KINECT_DATA_Sensor  AnkleLeft:0.073577,0.709186,-0.085864,-0.695894 AnkleRight:0.093100,0.737873,0.070932,0.664714 ElbowLeft:-0.045062,0.826067,-0.163264,-0.537520 ElbowRight:0.035393,0.853245,0.200824,0.479990 FootLeft:0.000000,0.000000,0.000000,0.000000 FootRight:0.000000,0.000000,0.000000,0.000000 HandLeft:-0.328432,0.151041,-0.445072,0.819286 HandRight:-0.062670,0.675657,-0.083870,0.729744 HandTipLeft:0.000000,0.000000,0.000000,0.000000 HandTipRight:0.000000,0.000000,0.000000,0.000000 Head:0.000000,0.000000,0.000000,0.000000 HipLeft:0.109692,-0.684644,0.704854,-0.149701 HipRight:-0.113665,0.678581,0.706721,-0.164783 KneeLeft:0.008917,-0.704028,0.050041,0.708351 KneeRight:0.001306,0.710190,0.033467,0.703213 Neck:0.006363,-0.011832,0.996896,-0.077572 ShoulderLeft:0.025658,0.776080,-0.627993,0.051638 ShoulderRight:0.034463,0.778156,0.625788,-0.040925 SpineBase:-0.004522,-0.012535,0.999213,-0.037361 SpineMid:0.000609,-0.012727,0.999223,-0.037296 SpineShoulder:0.006079,-0.012391,0.998280,-0.056981 ThumbLeft:0.000000,0.000000,0.000000,0.000000 ThumbRight:0.000000,0.000000,0.000000,0.000000 WristLeft:-0.114921,0.253749,-0.296838,0.913396 WristRight:-0.077767,0.673693,-0.063566,0.732154 END:
KINECT_DATA POSITION:7.980763,-0.385121,-6.672633 HEAD_JOINT1:0.977853,0.197204,-0.000000,0.070101 LARM_JOINT2:0.825396,0.000000,-0.012874,-0.564408 LARM_JOINT3:0.839526,0.000000,-0.486512,-0.241871 LLEG_JOINT2:0.998135,0.032249,0.000000,0.051827 LLEG_JOINT4:0.996041,0.080768,0.000000,-0.037131 RARM_JOINT2:0.799652,0.000000,-0.087374,0.594072 RARM_JOINT3:0.963431,0.000000,0.208981,0.167716 RLEG_JOINT2:0.999536,0.026821,0.000000,-0.014418 RLEG_JOINT4:0.995326,0.091778,0.000000,0.030060 WAIST:0.999986,0.000000,0.002779,-0.004603 WAIST_JOINT0:0.999965,0.000000,-0.008102,0.002286 WAIST_JOINT1:0.998190,0.059361,0.000000,-0.009645 END:
KINECT_DATA_Sensor  AnkleLeft:0.078970,0.746314,-0.081128,-0.655895 AnkleRight:0.091607,0.704060,0.075882,0.700107 ElbowLeft:-0.051210,0.833506,-0.169036,-0.523519 ElbowRight:0.033602,0.852302,0.199024,0.482537 FootLeft:0.000000,0.000000,0.000000,0.000000 FootRight:0.000000,0.000000,0.000000,0.000000 HandLeft:-0.159036,-0.195577,-0.554305,0.793223 HandRight:-0.045835,0.696117,-0.080344,0.711945 HandTipLeft:0.000000,0.000000,0.000000,0.000000 HandTipRight:0.000000,0.000000,0.000000,0.000000 Head:0.000000,0.000000,0.000000,0.000000 HipLeft:0.113873,-0.686856,0.702295,-0.148470 HipRight:-0.115078,0.677000,0.708382,-0.163161 KneeLeft:-0.010337,0.705249,-0.056256,-0.706648 KneeRight:0.005453,0.708989,0.032434,0.704452 Neck:0.007748,-0.013996,0.997079,-0.074689 ShoulderLeft:0.023506,0.777518,-0.626417,0.050141 ShoulderRight:0.034013,0.777466,0.626887,-0.037448 SpineBase:-0.003009,-0.016048,0.999284,-0.034128 SpineMid:0.001952,-0.016217,0.999287,-0.034048 SpineShoulder:0.007352,-0.015317,0.998387,-0.054172 ThumbLeft:0.000000,0.000000,0.000000,0.000000 ThumbRight:0.000000,0.000000,0.000000,0.000000 WristLeft:-0.026144,-0.121550,-0.377712,0.917538 WristRight:-0.080937,0.691484,-0.061582,0.715197 END:
KINECT_DATA POSITION:7.730009,-0.410222,-6.492102 HEAD_JOINT1:0.978400,0.192082,-0.000000,0.076408 LARM_JOINT2:0.837819,0.000000,-0.019171,-0.545611 LARM_JOINT3:0.800714,0.000000,-0.512945,-0.309424 LLEG_JOINT2:0.997795,0.035475,0.000000,0.056089 LLEG_JOINT4:0.996006,0.080931,0.000000,-0.037723 RARM_JOINT2:0.796906,0.000000,-0.087381,0.597750 RARM_JOINT3:0.965239,0.000000,0.203300,0.164264 RLEG_JOINT2:0.999550,0.027449,0.000000,-0.012101 RLEG_JOINT4:0.995467,0.091492,0.000000,0.025964 WAIST:0.999983,0.000000,-0.001660,-0.005646 WAIST_JOINT0:0.999826,0.000000,-0.018526,0.002307 WAIST_JOINT1:0.998310,0.057047,0.000000,-0.011104 END:
KINECT_DATA_Sensor  AnkleLeft:0.079096,0.746346,-0.085931,-0.655231 AnkleRight:0.095241,0.747101,0.071417,0.653964 ElbowLeft:-0.061772,0.854414,-0.183592,-0.482135 ElbowRight:0.032161,0.847464,0.196033,0.492282 FootLeft:0.000000,0.000000,0.000000,0.000000 FootRight:0.000000,0.000000,0.000000,0.000000 HandLeft:-0.269704,-0.178396,-0.556140,0.765600 HandRight:-0.027778,0.706817,-0.061378,0.704181 HandTipLeft:0.000000,0.000000,0.000000,0.000000 HandTipRight:0.000000,0.000000,0.000000,0.000000 Head:0.000000,0.000000,0.000000,0.000000 HipLeft:0.118444,-0.686845,0.700933,-0.151354 HipRight:-0.114290,0.676667,0.709316,-0.161029 KneeLeft:-0.010575,0.708522,-0.060759,-0.702989 KneeRight:0.006923,0.705767,0.031933,0.707690 Neck:0.018252,-0.017540,0.997058,-0.072354 ShoulderLeft:0.012505,0.777900,-0.625539,0.058448 ShoulderRight:0.036679,0.776689,0.628131,-0.029329 SpineBase:0.001485,-0.016512,0.999315,-0.033079 SpineMid:0.009515,-0.016777,0.999271,-0.032945 SpineShoulder:0.017923,-0.017565,0.998344,-0.051756 ThumbLeft:0.000000,0.000000,0.000000,0.000000 ThumbRight:0.000000,0.000000,0.000000,0.000000 WristLeft:-0.104514,-0.086314,-0.417423,0.898546 WristRight:-0.084971,0.696922,-0.060663,0.709507 END:
KINECT_DATA POSITION:7.696123,-0.402803,-6.512594 HEAD_JOINT1:0.978765,0.187537,-0.000000,0.082764 LARM_JOINT2:0.839601,0.000000,-0.027850,-0.542490 LARM_JOINT3:0.776954,0.000000,-0.520099,-0.354738 LLEG_JOINT2:0.997877,0.034911,0.000000,0.054985 LLEG_JOINT4:0.995850,0.079628,0.000000,-0.044067 RARM_JOINT2:0.797104,0.000000,-0.087370,0.597488 RARM_JOINT3:0.964101,0.000000,0.208356,0.164609 RLEG_JOINT2:0.999548,0.026725,0.000000,-0.013755 RLEG_JOINT4:0.995061,0.095170,0.000000,0.028202 WAIST:0.999980,0.000000,-0.004053,-0.004783 WAIST_JOINT0:0.999753,0.000000,-0.022181,0.001703 WAIST_JOINT1:0.998288,0.057422,0.000000,-0.011132 END:
KINECT_DATA_Sensor  AnkleLeft:0.080555,0.737594,-0.081218,-0.665484 AnkleRight:0.093155,0.696106,0.078901,0.707483 ElbowLeft:-0.066181,0.866049,-0.184888,-0.459779 ElbowRight:0.032701,0.845150,0.195791,0.496305 FootLeft:0.000000,0.000000,0.000000,0.000000 FootRight:0.000000,0.000000,0.000000,0.000000 HandLeft:-0.547945,0.130566,-0.340589,0.752800 HandRight:-0.042117,0.715068,-0.075813,0.693654 HandTipLeft:0.000000,0.000000,0.000000,0.000000 HandTipRight:0.000000,0.000000,0.000000,0.000000 Head:0.000000,0.000000,0.000000,0.000000 HipLeft:0.119331,-0.685650,0.701497,-0.153446 HipRight:-0.112563,0.677336,0.709202,-0.159931 KneeLeft:-0.010959,0.710131,-0.060154,-0.701409 KneeRight:0.005923,0.704140,0.031963,0.709316 Neck:0.021718,-0.017273,0.996996,-0.072308 ShoulderLeft:0.012466,0.778467,-0.624683,0.060043 ShoulderRight:0.041124,0.777042,0.627588,-0.025444 SpineBase:0.003849,-0.015407,0.999301,-0.033857 SpineMid:0.012487,-0.015699,0.999230,-0.033722 SpineShoulder:0.021486,-0.016465,0.998265,-0.052297 ThumbLeft:0.000000,0.000000,0.000000,0.000000 ThumbRight:0.000000,0.000000,0.000000,0.000000 WristLeft:-0.299658,0.239468,-0.354590,0.852717 WristRight:-0.087346,0.711603,-0.059144,0.694617 END:
KINECT_DATA POSITION:7.587127,-0.367610,-6.554937 HEAD_JOINT1:0.978727,0.185056,-0.000000,0.088584 LARM_JOINT2:0.840684,0.000000,-0.023051,-0.541035 LARM_JOINT3:0.828634,0.000000,-0.539263,-0.150205 LLEG_JOINT2:0.998013,0.033936,0.000000,0.053095 LLEG_JOINT4:0.995842,0.081510,0.000000,-0.040672 RARM_JOINT2:0.796596,0.000000,-0.088591,0.597985 RARM_JOINT3:0.964175,0.000000,0.209562,0.162639 RLEG_JOINT2:0.999551,0.025544,0.000000,-0.015641 RLEG_JOINT4:0.994898,0.095829,0.000000,0.031546 WAIST:0.999973,0.000000,-0.006711,-0.003078 WAIST_JOINT0:0.999703,0.000000,-0.024345,0.001471 WAIST_JOINT1:0.998259,0.057572,0.000000,-0.012839 END:
KINECT_DATA_Sensor  AnkleLeft:0.076197,0.718311,-0.086811,-0.686067 AnkleRight:0.099103,0.730703,0.070909,0.671731 ElbowLeft:-0.084404,0.810903,-0.180226,-0.550301 ElbowRight:0.034005,0.842441,0.195635,0.500863 FootLeft:0.000000,0.000000,0.000000,0.000000 FootRight:0.000000,0.000000,0.000000,0.000000 HandLeft:-0.137084,0.069050,-0.560779,0.813614 HandRight:-0.045109,0.714807,-0.065072,0.694825 HandTipLeft:0.000000,0.000000,0.000000,0.000000 HandTipRight:0.000000,0.000000,0.000000,0.000000 Head:0.000000,0.000000,0.000000,0.000000 HipLeft:0.120111,-0.684187,0.702418,-0.155145 HipRight:-0.110072,0.678822,0.708440,-0.158737 KneeLeft:-0.011681,0.711867,-0.059296,-0.699709 KneeRight:0.005042,0.702377,0.031247,0.711101 Neck:0.023876,-0.017366,0.996948,-0.072264 ShoulderLeft:0.011031,0.779725,-0.622944,0.062027 ShoulderRight:0.042440,0.777892,0.626504,-0.024013 SpineBase:0.006397,-0.014853,0.999267,-0.034694 SpineMid:0.014876,-0.015147,0.999177,-0.034567 SpineShoulder:0.023681,-0.016215,0.998204,-0.052575 ThumbLeft:0.000000,0.000000,0.000000,0.000000 ThumbRight:0.000000,0.000000,0.000000,0.000000 WristLeft:-0.111061,0.078665,-0.442949,0.886156 WristRight:-0.088265,0.711000,-0.060262,0.695023 END:
KINECT_DATA POSITION:7.522824,-0.347267,-6.600785 HEAD_JOINT1:0.978751,0.185203,-0.000000,0.088018 LARM_JOINT2:0.862354,0.000000,-0.018375,-0.505973 LARM_JOINT3:0.866685,0.000000,-0.498607,-0.015786 LLEG_JOINT2:0.998226,0.031205,0.000000,0.050708 LLEG_JOINT4:0.995793,0.083559,0.000000,-0.037617 RARM_JOINT2:0.796823,0.000000,-0.089968,0.597477 RARM_JOINT3:0.964960,0.000000,0.213360,0.152744 RLEG_JOINT2:0.999569,0.023960,0.000000,-0.016952 RLEG_JOINT4:0.994893,0.095615,0.000000,0.032335 WAIST:0.999984,0.000000,-0.005433,-0.001679 WAIST_JOINT0:0.999716,0.000000,-0.023581,0.003488 WAIST_JOINT1:0.998215,0.058144,0.000000,-0.013639 END:
KINECT_DATA_Sensor  AnkleLeft:0.074486,0.718163,-0.087668,-0.686300 AnkleRight:0.097497,0.724296,0.070287,0.678933 ElbowLeft:-0.130238,0.732903,-0.201427,-0.636646 ElbowRight:0.033838,0.839228,0.196621,0.505858 FootLeft:0.000000,0.000000,0.000000,0.000000 FootRight:0.000000,0.000000,0.000000,0.000000 HandLeft:-0.031316,0.099483,-0.627809,0.771349 HandRight:-0.072074,0.645168,-0.059926,0.758269 HandTipLeft:0.000000,0.000000,0.000000,0.000000 HandTipRight:0.000000,0.000000,0.000000,0.000000 Head:0.000000,0.000000,0.000000,0.000000 HipLeft:0.118278,-0.683516,0.703556,-0.154353 HipRight:-0.109724,0.679722,0.707467,-0.159464 KneeLeft:-0.012836,0.710815,-0.056679,-0.700974 KneeRight:0.003947,0.703400,0.030086,0.710147 Neck:0.022982,-0.016912,0.996939,-0.072791 ShoulderLeft:0.013187,0.778164,-0.624966,0.060867 ShoulderRight:0.043527,0.777765,0.626581,-0.024158 SpineBase:0.005033,-0.014352,0.999256,-0.035441 SpineMid:0.013759,-0.014661,0.999174,-0.035315 SpineShoulder:0.022801,-0.015714,0.998203,-0.053148 ThumbLeft:0.000000,0.000000,0.000000,0.000000 ThumbRight:0.000000,0.000000,0.000000,0.000000 WristLeft:0.028165,0.177121,-0.419246,0.889982 WristRight:-0.084208,0.643985,-0.063552,0.757729 END:
KINECT_DATA POSITION:7.483695,-0.350373,-6.576049 HEAD_JOINT1:0.979372,0.184284,-0.000000,0.082886 LARM_JOINT2:0.868949,0.000000,0.013356,-0.494721 LARM_JOINT3:0.844930,0.000000,-0.533737,0.034913 LLEG_JOINT2:0.998338,0.030351,0.000000,0.048981 LLEG_JOINT4:0.995813,0.084618,0.000000,-0.034584 RARM_JOINT2:0.798297,0.000000,-0.086633,0.596001 RARM_JOINT3:0.960776,0.000000,0.225155,0.161909 RLEG_JOINT2:0.999530,0.025243,0.000000,-0.017412 RLEG_JOINT4:0.994851,0.095601,0.000000,0.033659 WAIST:0.999999,0.000000,-0.000917,-0.000859 WAIST_JOINT0:0.999833,0.000000,-0.017886,0.003675 WAIST_JOINT1:0.998236,0.057787,0.000000,-0.013592 END:
KINECT_DATA_Sensor  AnkleLeft:0.073588,0.715212,-0.089001,-0.689301 AnkleRight:0.100424,0.738530,0.068662,0.663155 ElbowLeft:-0.131897,0.686226,-0.223036,-0.679671 ElbowRight:0.030060,0.842753,0.196537,0.500238 FootLeft:0.000000,0.000000,0.000000,0.000000 FootRight:0.000000,0.000000,0.000000,0.000000 HandLeft:0.042019,0.170844,-0.643331,0.745098 HandRight:-0.090876,0.701348,-0.126403,0.695611 HandTipLeft:0.000000,0.000000,0.000000,0.000000 HandTipRight:0.000000,0.000000,0.000000,0.000000 Head:0.000000,0.000000,0.000000,0.000000 HipLeft:0.116306,-0.683599,0.704252,-0.152295 HipRight:-0.113152,0.679800,0.706161,-0.162499 KneeLeft:-0.012542,0.707597,-0.055494,-0.704323 KneeRight:0.004978,0.706589,0.030760,0.706937 Neck:0.017363,-0.016108,0.997118,-0.072079 ShoulderLeft:0.017694,0.778940,-0.624384,0.055532 ShoulderRight:0.040722,0.778009,0.626322,-0.027649 SpineBase:0.000494,-0.013859,0.999284,-0.035209 SpineMid:0.008681,-0.014147,0.999246,-0.035094 SpineShoulder:0.017177,-0.015086,0.998340,-0.052861 ThumbLeft:0.000000,0.000000,0.000000,0.000000 ThumbRight:0.000000,0.000000,0.000000,0.000000 WristLeft:0.042827,0.206609,-0.471611,0.856190 WristRight:-0.090483,0.701171,-0.059603,0.704712 END:
KINECT_DATA POSITION:7.543148,-0.365932,-6.465328 HEAD_JOINT1:0.980449,0.183901,-0.000000,0.070002 LARM_JOINT2:0.859088,0.000000,0.040005,-0.510263 LARM_JOINT3:0.819020,0.000000,-0.566734,0.089553 LLEG_JOINT2:0.998462,0.028776,0.000000,0.047387 LLEG_JOINT4:0.995883,0.085086,0.000000,-0.031274 RARM_JOINT2:0.801200,0.000000,-0.080969,0.592893 RARM_JOINT3:0.961665,0.000000,0.217789,0.166637 RLEG_JOINT2:0.999450,0.027674,0.000000,-0.018273 RLEG_JOINT4:0.994896,0.094223,0.000000,0.036123 WAIST:0.999968,0.000000,0.008048,-0.000121 WAIST_JOINT0:0.999971,0.000000,-0.005782,0.004956 WAIST_JOINT1:0.998314,0.056650,0.000000,-0.012637 END:
KINECT_DATA_Sensor  AnkleLeft:0.078548,0.760410,-0.083603,-0.639232 AnkleRight:0.100914,0.732512,0.070322,0.669550 ElbowLeft:0.116240,-0.635444,0.221151,0.730610 ElbowRight:0.023781,0.851883,0.196380,0.484938 FootLeft:0.000000,0.000000,0.000000,0.000000 FootRight:0.000000,0.000000,0.000000,0.000000 HandLeft:0.058328,0.241871,-0.661767,0.707221 HandRight:-0.074285,0.780632,-0.107729,0.611139 HandTipLeft:0.000000,0.000000,0.000000,0.000000 HandTipRight:0.000000,0.000000,0.000000,0.000000 Head:0.000000,0.000000,0.000000,0.000000 HipLeft:0.112748,-0.684165,0.705320,-0.147410 HipRight:-0.121142,0.679126,0.704257,-0.167731 KneeLeft:0.012573,-0.701210,0.053889,0.710804 KneeRight:0.006321,0.712836,0.032622,0.700543 Neck:0.005346,-0.014233,0.997423,-0.070110 ShoulderLeft:0.025534,0.779653,-0.624065,0.045078 ShoulderRight:0.033024,0.779680,0.624271,-0.035971 SpineBase:-0.008448,-0.012529,0.999320,-0.033632 SpineMid:-0.001795,-0.012753,0.999354,-0.033548 SpineShoulder:0.005129,-0.013873,0.998542,-0.051923 ThumbLeft:0.000000,0.000000,0.000000,0.000000 ThumbRight:0.000000,0.000000,0.000000,0.000000 WristLeft:0.039462,0.265818,-0.515365,0.813746 WristRight:-0.097886,0.780630,-0.053717,0.614939 END:
KINECT_DATA POSITION:7.639009,-0.360794,-6.367373 HEAD_JOINT1:0.980850,0.184790,-0.000000,0.061530 LARM_JOINT2:0.859786,0.000000,0.039285,-0.509141 LARM_JOINT3:0.820056,0.000000,-0.562909,0.103157 LLEG_JOINT2:0.998539,0.027652,0.000000,0.046433 LLEG_JOINT4:0.995444,0.090132,0.000000,-0.031109 RARM_JOINT2:0.802602,0.000000,-0.081332,0.590944 RARM_JOINT3:0.961941,0.000000,0.214375,0.169450 RLEG_JOINT2:0.999406,0.028461,0.000000,-0.019416 RLEG_JOINT4:0.994840,0.094218,0.000000,0.037637 WAIST:0.999904,-0.000000,0.013872,0.000161 WAIST_JOINT0:0.999976,-0.000000,0.001734,0.006762 WAIST_JOINT1:0.998399,0.055303,0.000000,-0.011865 END:
KINECT_DATA_Sensor  AnkleLeft:0.075575,0.704107,-0.091295,-0.700134 AnkleRight:0.102004,0.740842,0.070255,0.660161 ElbowLeft:0.121076,-0.620376,0.220283,0.742933 ElbowRight:0.022059,0.856748,0.197051,0.476096 FootLeft:0.000000,0.000000,0.000000,0.000000 FootRight:0.000000,0.000000,0.000000,0.000000 HandLeft:-0.054765,-0.251587,0.678928,-0.687577 HandRight:-0.066142,0.803207,-0.103021,0.582984 HandTipLeft:0.000000,0.000000,0.000000,0.000000 HandTipRight:0.000000,0.000000,0.000000,0.000000 Head:0.000000,0.000000,0.000000,0.000000 HipLeft:0.109240,-0.684911,0.706067,-0.142945 HipRight:-0.125608,0.678907,0.703249,-0.169555 KneeLeft:0.012603,-0.697054,0.052694,0.714969 KneeRight:0.006061,0.716871,0.033822,0.696359 Neck:-0.002254,-0.013201,0.997570,-0.068378 ShoulderLeft:0.030278,0.778118,-0.626242,0.037909 ShoulderRight:0.028032,0.780423,0.623305,-0.040569 SpineBase:-0.014218,-0.011108,0.999319,-0.032182 SpineMid:-0.008451,-0.011294,0.999385,-0.032118 SpineShoulder:-0.002478,-0.013069,0.998627,-0.050659 ThumbLeft:0.000000,0.000000,0.000000,0.000000 ThumbRight:0.000000,0.000000,0.000000,0.000000 WristLeft:0.045333,0.291126,-0.519103,0.802323 WristRight:-0.098626,0.802374,-0.052129,0.586303 END:
KINECT_DATA POSITION:7.714594,-0.361852,-6.349516 HEAD_JOINT1:0.980939,0.185989,-0.000000,0.056268 LARM_JOINT2:0.849415,0.000000,0.053770,-0.524980 LARM_JOINT3:0.805005,0.000000,-0.579155,0.128634 LLEG_JOINT2:0.998629,0.027087,0.000000,0.044783 LLEG_JOINT4:0.995534,0.089528,0.000000,-0.029962 RARM_JOINT2:0.803387,0.000000,-0.082053,0.589777 RARM_JOINT3:0.964069,0.000000,0.205872,0.167894 RLEG_JOINT2:0.999366,0.028945,0.000000,-0.020736 RLEG_JOINT4:0.994554,0.096371,0.000000,0.039678 WAIST:0.999870,-0.000000,0.016102,0.000755 WAIST_JOINT0:0.999958,-0.000000,0.005162,0.007535 WAIST_JOINT1:0.998487,0.053772,0.000000,-0.011501 END:
KINECT_DATA_Sensor  AnkleLeft:0.082429,0.761056,-0.083555,-0.637979 AnkleRight:0.104559,0.741053,0.071452,0.659395 ElbowLeft:0.108645,-0.587718,0.212372,0.773099 ElbowRight:0.021233,0.859138,0.196917,0.471863 FootLeft:0.000000,0.000000,0.000000,0.000000 FootRight:0.000000,0.000000,0.000000,0.000000 HandLeft:0.084342,0.233891,-0.649905,0.718195 HandRight:-0.031699,0.698818,-0.079971,0.710108 HandTipLeft:0.000000,0.000000,0.000000,0.000000 HandTipRight:0.000000,0.000000,0.000000,0.000000 Head:0.000000,0.000000,0.000000,0.000000 HipLeft:0.107130,-0.685001,0.706804,-0.140448 HipRight:-0.126775,0.679312,0.702661,-0.169502 KneeLeft:0.012168,-0.695444,0.051561,0.716625 KneeRight:0.005793,0.718428,0.034682,0.694712 Neck:-0.005662,-0.012108,0.997669,-0.066912 ShoulderLeft:0.031554,0.777366,-0.627328,0.034158 ShoulderRight:0.024888,0.780759,0.622912,-0.042153 SpineBase:-0.016447,-0.010200,0.999316,-0.031501 SpineMid:-0.011255,-0.010364,0.999388,-0.031447 SpineShoulder:-0.005889,-0.012180,0.998702,-0.049110 ThumbLeft:0.000000,0.000000,0.000000,0.000000 ThumbRight:0.000000,0.000000,0.000000,0.000000 WristLeft:0.080870,0.266192,-0.543214,0.792162 WristRight:-0.087356,0.690944,-0.068714,0.714314 END:
KINECT_DATA POSITION:7.716077,-0.358297,-6.431162 HEAD_JOINT1:0.980774,0.187130,-0.000000,0.055354 LARM_JOINT2:0.850009,0.000000,0.056104,-0.523771 LARM_JOINT3:0.802476,0.000000,-0.584634,0.119311 LLEG_JOINT2:0.998679,0.025771,0.000000,0.044450 LLEG_JOINT4:0.995346,0.091180,0.000000,-0.031174 RARM_JOINT2:0.802674,0.000000,-0.086485,0.590115 RARM_JOINT3:0.965041,0.000000,0.202700,0.166161 RLEG_JOINT2:0.999347,0.029322,0.000000,-0.021102 RLEG_JOINT4:0.994864,0.093762,0.000000,0.038129 WAIST:0.999857,-0.000000,0.016844,0.001331 WAIST_JOINT0:0.999970,0.000000,-0.000107,0.007772 WAIST_JOINT1:0.998486,0.053706,0.000000,-0.011884 END:
KINECT_DATA_Sensor  AnkleLeft:0.083004,0.757843,-0.083265,-0.641757 AnkleRight:0.101499,0.737596,0.071629,0.663716 ElbowLeft:0.110018,-0.580561,0.213950,0.777863 ElbowRight:0.023431,0.856126,0.197736,0.476864 FootLeft:0.000000,0.000000,0.000000,0.000000 FootRight:0.000000,0.000000,0.000000,0.000000 HandLeft:0.039866,0.235242,-0.636607,0.733350 HandRight:-0.029767,0.820186,-0.055475,0.568623 HandTipLeft:0.000000,0.000000,0.000000,0.000000 HandTipRight:0.000000,0.000000,0.000000,0.000000 Head:0.000000,0.000000,0.000000,0.000000 HipLeft:0.105766,-0.684807,0.707432,-0.139256 HipRight:-0.126232,0.679710,0.702418,-0.169319 KneeLeft:0.013258,-0.694842,0.050823,0.717242 KneeRight:0.006175,0.718962,0.034803,0.694150 Neck:-0.000258,-0.012597,0.997658,-0.067228 ShoulderLeft:0.023931,0.777041,-0.627644,0.041190 ShoulderRight:0.024223,0.780676,0.623139,-0.040689 SpineBase:-0.017226,-0.010218,0.999298,-0.031652 SpineMid:-0.008950,-0.010480,0.999407,-0.031566 SpineShoulder:-0.000459,-0.012256,0.998733,-0.048801 ThumbLeft:0.000000,0.000000,0.000000,0.000000 ThumbRight:0.000000,0.000000,0.000000,0.000000 WristLeft:0.072372,0.288213,-0.550323,0.780282 WristRight:-0.098839,0.814771,-0.049153,0.569178 END:
KINECT_DATA POSITION:7.724085,-0.361529,-6.503415 HEAD_JOINT1:0.980551,0.188068,-0.000000,0.056131 LARM_JOINT2:0.850060,0.000000,0.049034,-0.524399 LARM_JOINT3:0.808721,0.000000,-0.575062,0.123588 LLEG_JOINT2:0.998687,0.025688,0.000000,0.044322 LLEG_JOINT4:0.995308,0.091708,0.000000,-0.030856 RARM_JOINT2:0.802290,0.000000,-0.088132,0.590393 RARM_JOINT3:0.964063,0.000000,0.205557,0.168312 RLEG_JOINT2:0.999353,0.028945,0.000000,-0.021343 RLEG_JOINT4:0.995012,0.092578,0.000000,0.037152 WAIST:0.999891,-0.000000,0.014699,0.001412 WAIST_JOINT0:0.999969,0.000000,-0.001308,0.007754 WAIST_JOINT1:0.998473,0.053894,0.000000,-0.012126 END:
KINECT_DATA_Sensor  AnkleLeft:0.076056,0.705727,-0.090280,-0.698580 AnkleRight:0.100785,0.746113,0.069682,0.654448 ElbowLeft:0.114786,-0.579771,0.208485,0.779245 ElbowRight:0.025130,0.854408,0.198093,0.479703 FootLeft:0.000000,0.000000,0.000000,0.000000 FootRight:0.000000,0.000000,0.000000,0.000000 HandLeft:0.033179,0.238698,-0.628159,0.739824 HandRight:-0.040477,0.860463,-0.066941,0.503472 HandTipLeft:0.000000,0.000000,0.000000,0.000000 HandTipRight:0.000000,0.000000,0.000000,0.000000 Head:0.000000,0.000000,0.000000,0.000000 HipLeft:0.106442,-0.684539,0.707369,-0.140378 HipRight:-0.124232,0.680090,0.702726,-0.167990 KneeLeft:0.013394,-0.696366,0.050703,0.715769 KneeRight:0.005874,0.717490,0.034632,0.695682 Neck:0.000896,-0.012711,0.997636,-0.067529 ShoulderLeft:0.023697,0.777165,-0.627453,0.041903 ShoulderRight:0.025489,0.780816,0.622985,-0.039588 SpineBase:-0.015098,-0.010316,0.999318,-0.032070 SpineMid:-0.007302,-0.010566,0.999406,-0.031989 SpineShoulder:0.000706,-0.012219,0.998724,-0.048999 ThumbLeft:0.000000,0.000000,0.000000,0.000000 ThumbRight:0.000000,0.000000,0.000000,0.000000 WristLeft:0.072444,0.293311,-0.549589,0.778892 WristRight:-0.101751,0.856336,-0.040427,0.504679 END:
KINECT_DATA POSITION:7.749685,-0.366792,-6.573212 HEAD_JOINT1:0.980358,0.188714,-0.000000,0.057312 LARM_JOINT2:0.850177,0.000000,0.039892,-0.524983 LARM_JOINT3:0.809974,0.000000,-0.573071,0.124623 LLEG_JOINT2:0.998695,0.025941,0.000000,0.043990 LLEG_JOINT4:0.995614,0.088020,0.000000,-0.031690 RARM_JOINT2:0.802575,0.000000,-0.088562,0.589940 RARM_JOINT3:0.964639,0.000000,0.205829,0.164638 RLEG_JOINT2:0.999327,0.029715,0.000000,-0.021507 RLEG_JOINT4:0.995308,0.089457,0.000000,0.036867 WAIST:0.999909,-0.000000,0.013404,0.001559 WAIST_JOINT0:0.999969,0.000000,-0.003103,0.007244 WAIST_JOINT1:0.998444,0.054388,0.000000,-0.012268 END:
KINECT_DATA_Sensor  AnkleLeft:0.079586,0.750567,-0.082355,-0.650794 AnkleRight:0.097491,0.731613,0.070247,0.671047 ElbowLeft:0.118976,-0.584060,0.202918,0.776880 ElbowRight:0.025989,0.853945,0.198895,0.480149 FootLeft:0.000000,0.000000,0.000000,0.000000 FootRight:0.000000,0.000000,0.000000,0.000000 HandLeft:0.022724,0.223983,-0.638065,0.736335 HandRight:-0.035694,0.718704,-0.061421,0.691678 HandTipLeft:0.000000,0.000000,0.000000,0.000000 HandTipRight:0.000000,0.000000,0.000000,0.000000 Head:0.000000,0.000000,0.000000,0.000000 HipLeft:0.106530,-0.684276,0.707435,-0.141261 HipRight:-0.122737,0.680363,0.702886,-0.167312 KneeLeft:0.013150,-0.697285,0.050729,0.714875 KneeRight:0.006445,0.716589,0.035187,0.696578 Neck:0.002656,-0.012810,0.997589,-0.068150 ShoulderLeft:0.023266,0.777401,-0.627086,0.043252 ShoulderRight:0.027327,0.780653,0.623197,-0.038203 SpineBase:-0.013819,-0.010230,0.999318,-0.032681 SpineMid:-0.005775,-0.010493,0.999397,-0.032598 SpineShoulder:0.002480,-0.012142,0.998699,-0.049463 ThumbLeft:0.000000,0.000000,0.000000,0.000000 ThumbRight:0.000000,0.000000,0.000000,0.000000 WristLeft:0.070994,0.289588,-0.548620,0.781098 WristRight:-0.088995,0.714003,-0.061936,0.691696 END:
KINECT_DATA POSITION:7.745259,-0.370877,-6.591141 HEAD_JOINT1:0.980568,0.187293,-0.000000,0.058376 LARM_JOINT2:0.851612,0.000000,0.022800,-0.523677 LARM_JOINT3:0.818551,0.000000,-0.559335,0.130838 LLEG_JOINT2:0.998699,0.025977,0.000000,0.043885 LLEG_JOINT4:0.995752,0.086713,0.000000,-0.030956 RARM_JOINT2:0.802718,0.000000,-0.087375,0.589923 RARM_JOINT3:0.963802,0.000000,0.209848,0.164468 RLEG_JOINT2:0.999350,0.028685,0.000000,-0.021813 RLEG_JOINT4:0.995213,0.090105,0.000000,0.037835 WAIST:0.999923,-0.000000,0.012320,0.001757 WAIST_JOINT0:0.999959,0.000000,-0.005135,0.007430 WAIST_JOINT1:0.998387,0.055348,0.000000,-0.012662 END:
KINECT_DATA_Sensor  AnkleLeft:0.079302,0.761767,-0.081021,-0.637854 AnkleRight:0.097860,0.730595,0.069301,0.672199 ElbowLeft:0.128193,-0.590972,0.194100,0.772427 ElbowRight:0.026107,0.853755,0.199197,0.480356 FootLeft:0.000000,0.000000,0.000000,0.000000 FootRight:0.000000,0.000000,0.000000,0.000000 HandLeft:-0.000381,0.254833,-0.639207,0.725585 HandRight:-0.038241,0.611203,-0.079585,0.786534 HandTipLeft:0.000000,0.000000,0.000000,0.000000 HandTipRight:0.000000,0.000000,0.000000,0.000000 Head:0.000000,0.000000,0.000000,0.000000 HipLeft:0.106789,-0.684063,0.707483,-0.141851 HipRight:-0.121514,0.680676,0.702933,-0.166734 KneeLeft:0.013244,-0.698043,0.050806,0.714128 KneeRight:0.005686,0.715871,0.034519,0.697356 Neck:0.004614,-0.013181,0.997480,-0.069565 ShoulderLeft:0.022084,0.776814,-0.627681,0.045705 ShoulderRight:0.028714,0.780611,0.623229,-0.037522 SpineBase:-0.012759,-0.010403,0.999319,-0.033034 SpineMid:-0.004268,-0.010684,0.999391,-0.032945 SpineShoulder:0.004446,-0.012306,0.998650,-0.050268 ThumbLeft:0.000000,0.000000,0.000000,0.000000 ThumbRight:0.000000,0.000000,0.000000,0.000000 WristLeft:0.045705,0.318699,-0.548560,0.771637 WristRight:-0.079176,0.606000,-0.074025,0.788045 END:
KINECT_DATA POSITION:7.715069,-0.380411,-6.538749 HEAD_JOINT1:0.980652,0.185869,-0.000000,0.061428 LARM_JOINT2:0.854497,0.000000,0.007282,-0.519405 LARM_JOINT3:0.823827,0.000000,-0.550825,0.133795 LLEG_JOINT2:0.998674,0.026181,0.000000,0.044330 LLEG_JOINT4:0.995360,0.089918,0.000000,-0.034237 RARM_JOINT2:0.802514,0.000000,-0.086977,0.590260 RARM_JOINT3:0.963527,0.000000,0.210538,0.165193 RLEG_JOINT2:0.999436,0.026399,0.000000,-0.020777 RLEG_JOINT4:0.994767,0.095758,0.000000,0.035625 WAIST:0.999950,-0.000000,0.009977,0.001109 WAIST_JOINT0:0.999923,0.000000,-0.010578,0.006488 WAIST_JOINT1:0.998354,0.055921,0.000000,-0.012744 END:
KINECT_DATA_Sensor  AnkleLeft:0.077357,0.710519,-0.086931,-0.693990 AnkleRight:0.100192,0.737857,0.071361,0.663654 ElbowLeft:0.138751,-0.599329,0.187514,0.765762 ElbowRight:0.026196,0.851596,0.199624,0.483992 FootLeft:0.000000,0.000000,0.000000,0.000000 FootRight:0.000000,0.000000,0.000000,0.000000 HandLeft:0.014969,0.226981,-0.643330,0.731014 HandRight:-0.042724,0.696369,-0.079046,0.712037 HandTipLeft:0.000000,0.000000,0.000000,0.000000 HandTipRight:0.000000,0.000000,0.000000,0.000000 Head:0.000000,0.000000,0.000000,0.000000 HipLeft:0.108307,-0.684122,0.706839,-0.143617 HipRight:-0.119979,0.680409,0.703659,-0.165868 KneeLeft:0.013068,-0.699743,0.050781,0.712468 KneeRight:0.004450,0.714259,0.032610,0.699108 Neck:0.010093,-0.014177,0.997381,-0.070196 ShoulderLeft:0.017178,0.777460,-0.626579,0.051569 ShoulderRight:0.030884,0.780541,0.623369,-0.034822 SpineBase:-0.010399,-0.010982,0.999327,-0.033427 SpineMid:-0.000356,-0.011317,0.999381,-0.033315 SpineShoulder:0.009939,-0.013027,0.998575,-0.050795 ThumbLeft:0.000000,0.000000,0.000000,0.000000 ThumbRight:0.000000,0.000000,0.000000,0.000000 WristLeft:0.057437,0.289715,-0.547646,0.782848 WristRight:-0.088376,0.689972,-0.063962,0.715568 END:
KINECT_DATA POSITION:7.654399,-0.380354,-6.482506 HEAD_JOINT1:0.980421,0.185565,-0.000000,0.065877 LARM_JOINT2:0.855829,0.000000,0.001828,-0.517255 LARM_JOINT3:0.825565,0.000000,-0.551140,0.121195 LLEG_JOINT2:0.998620,0.026988,0.000000,0.045044 LLEG_JOINT4:0.995573,0.088494,0.000000,-0.031670 RARM_JOINT2:0.801087,0.000000,-0.086541,0.592259 RARM_JOINT3:0.964699,0.000000,0.207886,0.161677 RLEG_JOINT2:0.999457,0.026154,0.000000,-0.020058 RLEG_JOINT4:0.994763,0.096178,0.000000,0.034591 WAIST:0.999967,-0.000000,0.008032,0.000779 WAIST_JOINT0:0.999879,0.000000,-0.014734,0.005046 WAIST_JOINT1:0.998348,0.055965,0.000000,-0.013018 END:
KINECT_DATA_Sensor  AnkleLeft:0.074892,0.713264,-0.088684,-0.691217 AnkleRight:0.101153,0.747069,0.070164,0.653248 ElbowLeft:0.142265,-0.606184,0.185684,0.760147 ElbowRight:0.026489,0.849286,0.197916,0.488714 FootLeft:0.000000,0.000000,0.000000,0.000000 FootRight:0.000000,0.000000,0.000000,0.000000 HandLeft:-0.000845,0.206571,-0.630566,0.748140 HandRight:-0.057304,0.877042,-0.050179,0.474337 HandTipLeft:0.000000,0.000000,0.000000,0.000000 HandTipRight:0.000000,0.000000,0.000000,0.000000 Head:0.000000,0.000000,0.000000,0.000000 HipLeft:0.109936,-0.684087,0.706352,-0.144936 HipRight:-0.119009,0.680343,0.704046,-0.165197 KneeLeft:0.012853,-0.701155,0.051599,0.711023 KneeRight:0.004621,0.712893,0.032158,0.700520 Neck:0.014327,-0.014923,0.997316,-0.070228 ShoulderLeft:0.014272,0.777962,-0.625741,0.054951 ShoulderRight:0.033412,0.779440,0.624782,-0.031706 SpineBase:-0.008457,-0.011603,0.999337,-0.033449 SpineMid:0.002721,-0.011977,0.999369,-0.033318 SpineShoulder:0.014179,-0.013612,0.998514,-0.050818 ThumbLeft:0.000000,0.000000,0.000000,0.000000 ThumbRight:0.000000,0.000000,0.000000,0.000000 WristLeft:0.057919,0.274519,-0.548842,0.787437 WristRight:-0.104032,0.873192,-0.033706,0.474949 END:
KINECT_DATA POSITION:7.583117,-0.385122,-6.393814 HEAD_JOINT1:0.980312,0.183905,-0.000000,0.071883 LARM_JOINT2:0.857044,0.000000,-0.003394,-0.515232 LARM_JOINT3:0.823867,0.000000,-0.556786,0.105987 LLEG_JOINT2:0.998558,0.027934,0.000000,0.045842 LLEG_JOINT4:0.995250,0.090530,0.000000,-0.035796 RARM_JOINT2:0.800764,0.000000,-0.086253,0.592737 RARM_JOINT3:0.964351,0.000000,0.209051,0.162252 RLEG_JOINT2:0.999458,0.026159,0.000000,-0.019986 RLEG_JOINT4:0.994823,0.095398,0.000000,0.035013 WAIST:0.999985,-0.000000,0.005495,0.000857 WAIST_JOINT0:0.999782,0.000000,-0.020537,0.003824 WAIST_JOINT1:0.998337,0.055968,0.000000,-0.013802 END:
KINECT_DATA_Sensor  AnkleLeft:0.079207,0.715733,-0.088378,-0.688216 AnkleRight:0.101464,0.748615,0.068482,0.651606 ElbowLeft:0.142952,-0.624090,0.185786,0.745359 ElbowRight:0.026347,0.847173,0.197897,0.492383 FootLeft:0.000000,0.000000,0.000000,0.000000 FootRight:0.000000,0.000000,0.000000,0.000000 HandLeft:-0.031436,0.208385,-0.640831,0.738189 HandRight:-0.047338,0.779594,-0.066858,0.620905 HandTipLeft:0.000000,0.000000,0.000000,0.000000 HandTipRight:0.000000,0.000000,0.000000,0.000000 Head:0.000000,0.000000,0.000000,0.000000 HipLeft:0.111842,-0.683656,0.706152,-0.146477 HipRight:-0.117550,0.680549,0.704320,-0.164222 KneeLeft:0.012921,-0.702962,0.052856,0.709143 KneeRight:0.004815,0.711126,0.032044,0.702317 Neck:0.020054,-0.015724,0.997210,-0.070162 ShoulderLeft:0.011339,0.778627,-0.624634,0.058676 ShoulderRight:0.037839,0.779169,0.625108,-0.026530 SpineBase:-0.005954,-0.012247,0.999345,-0.033536 SpineMid:0.006821,-0.012675,0.999339,-0.033377 SpineShoulder:0.019908,-0.014336,0.998407,-0.050805 ThumbLeft:0.000000,0.000000,0.000000,0.000000 ThumbRight:0.000000,0.000000,0.000000,0.000000 WristLeft:0.030033,0.281676,-0.545976,0.788459 WristRight:-0.097772,0.775530,-0.050618,0.621637 END:
KINECT_DATA POSITION:7.533916,-0.392436,-6.332111 HEAD_JOINT1:0.980111,0.183169,-0.000000,0.076358 LARM_JOINT2:0.856914,0.000000,-0.003223,-0.515449 LARM_JOINT3:0.827250,0.000000,-0.553200,0.098120 LLEG_JOINT2:0.998551,0.027422,0.000000,0.046296 LLEG_JOINT4:0.995195,0.091474,0.000000,-0.034919 RARM_JOINT2:0.801604,0.000000,-0.085187,0.591755 RARM_JOINT3:0.964162,0.000000,0.208639,0.163893 RLEG_JOINT2:0.999461,0.026223,0.000000,-0.019735 RLEG_JOINT4:0.994635,0.097471,0.000000,0.034646 WAIST:0.999993,-0.000000,0.003553,0.000985 WAIST_JOINT0:0.999720,0.000000,-0.023347,0.003794 WAIST_JOINT1:0.998330,0.055882,0.000000,-0.014623 END:
KINECT_DATA_Sensor  AnkleLeft:0.078419,0.717432,-0.089835,-0.686346 AnkleRight:0.101943,0.735354,0.071522,0.666143 ElbowLeft:0.140523,-0.633752,0.186528,0.737441 ElbowRight:0.025678,0.847925,0.199065,0.490649 FootLeft:0.000000,0.000000,0.000000,0.000000 FootRight:0.000000,0.000000,0.000000,0.000000 HandLeft:-0.047113,0.232917,-0.638444,0.732066 HandRight:-0.047716,0.772286,-0.070427,0.629553 HandTipLeft:0.000000,0.000000,0.000000,0.000000 HandTipRight:0.000000,0.000000,0.000000,0.000000 Head:0.000000,0.000000,0.000000,0.000000 HipLeft:0.113327,-0.683329,0.706039,-0.147399 HipRight:-0.116356,0.680792,0.704501,-0.163283 KneeLeft:0.013797,-0.704308,0.052884,0.707788 KneeRight:0.005191,0.709765,0.031814,0.703701 Neck:0.022707,-0.016385,0.997147,-0.070101 ShoulderLeft:0.010661,0.779016,-0.624060,0.059743 ShoulderRight:0.040584,0.779859,0.624200,-0.023370 SpineBase:-0.004038,-0.012879,0.999350,-0.033440 SpineMid:0.009093,-0.013318,0.999316,-0.033268 SpineShoulder:0.022556,-0.014946,0.998347,-0.050709 ThumbLeft:0.000000,0.000000,0.000000,0.000000 ThumbRight:0.000000,0.000000,0.000000,0.000000 WristLeft:0.008339,0.301824,-0.537782,0.787162 WristRight:-0.097377,0.768413,-0.050891,0.630452 END:
KINECT_DATA POSITION:7.480784,-0.410900,-6.235576 HEAD_JOINT1:0.979738,0.183886,-0.000000,0.079367 LARM_JOINT2:0.856746,0.000000,-0.002116,-0.515735 LARM_JOINT3:0.828148,0.000000,-0.551643,0.099302 LLEG_JOINT2:0.998522,0.028762,0.000000,0.046108 LLEG_JOINT4:0.995473,0.089144,0.000000,-0.032961 RARM_JOINT2:0.799671,0.000000,-0.087277,0.594061 RARM_JOINT3:0.964237,0.000000,0.210226,0.161405 RLEG_JOINT2:0.999461,0.026630,0.000000,-0.019201 RLEG_JOINT4:0.994737,0.096495,0.000000,0.034464 WAIST:0.999995,-0.000000,0.003081,0.001125 WAIST_JOINT0:0.999697,0.000000,-0.024345,0.003712 WAIST_JOINT1:0.998346,0.055455,0.000000,-0.015159 END:
KINECT_DATA_Sensor  AnkleLeft:0.082493,0.764135,-0.085040,-0.634082 AnkleRight:0.101991,0.736138,0.070578,0.665370 ElbowLeft:0.139327,-0.635613,0.186731,0.736013 ElbowRight:0.026803,0.844464,0.197414,0.497181 FootLeft:0.000000,0.000000,0.000000,0.000000 FootRight:0.000000,0.000000,0.000000,0.000000 HandLeft:-0.004993,0.195526,-0.646069,0.737793 HandRight:-0.063118,0.867548,-0.063312,0.489253 HandTipLeft:0.000000,0.000000,0.000000,0.000000 HandTipRight:0.000000,0.000000,0.000000,0.000000 Head:0.000000,0.000000,0.000000,0.000000 HipLeft:0.113855,-0.683280,0.706061,-0.147116 HipRight:-0.116096,0.680989,0.704470,-0.162781 KneeLeft:0.012832,-0.704677,0.053789,0.707370 KneeRight:0.005971,0.709428,0.031624,0.704042 Neck:0.023789,-0.016765,0.997145,-0.069676 ShoulderLeft:0.009346,0.779196,-0.623783,0.060498 ShoulderRight:0.040647,0.779416,0.624782,-0.022491 SpineBase:-0.003595,-0.013353,0.999359,-0.033024 SpineMid:0.009844,-0.013796,0.999317,-0.032841 SpineShoulder:0.023630,-0.015340,0.998339,-0.050263 ThumbLeft:0.000000,0.000000,0.000000,0.000000 ThumbRight:0.000000,0.000000,0.000000,0.000000 WristLeft:0.037178,0.258432,-0.533132,0.804736 WristRight:-0.104981,0.864398,-0.032522,0.490651 END:
KINECT_DATA POSITION:7.462229,-0.408560,-6.217551 HEAD_JOINT1:0.979584,0.184039,-0.000000,0.080906 LARM_JOINT2:0.862278,0.000000,-0.016601,-0.506164 LARM_JOINT3:0.842268,0.000000,-0.530840,0.093776 LLEG_JOINT2:0.998536,0.029260,0.000000,0.045490 LLEG_JOINT4:0.995335,0.090930,0.000000,-0.032244 RARM_JOINT2:0.800087,0.000000,-0.087078,0.593531 RARM_JOINT3:0.964291,0.000000,0.209221,0.162389 RLEG_JOINT2:0.999446,0.027145,0.000000,-0.019237 RLEG_JOINT4:0.994934,0.094606,0.000000,0.034000 WAIST:0.999997,-0.000000,0.002268,0.001341 WAIST_JOINT0:0.999685,0.000000,-0.024799,0.003851 WAIST_JOINT1:0.998339,0.055449,0.000000,-0.015659 END:
KINECT_DATA_Sensor  AnkleLeft:0.085030,0.771933,-0.085768,-0.624126 AnkleRight:0.100110,0.728811,0.070830,0.673643 ElbowLeft:0.152202,-0.649322,0.186273,0.721469 ElbowRight:0.026732,0.844913,0.198098,0.496150 FootLeft:0.000000,0.000000,0.000000,0.000000 FootRight:0.000000,0.000000,0.000000,0.000000 HandLeft:-0.021179,0.217507,-0.653850,0.724377 HandRight:-0.048338,0.770829,-0.071387,0.631181 HandTipLeft:0.000000,0.000000,0.000000,0.000000 HandTipRight:0.000000,0.000000,0.000000,0.000000 Head:0.000000,0.000000,0.000000,0.000000 HipLeft:0.114495,-0.683011,0.706124,-0.147563 HipRight:-0.115592,0.681177,0.704446,-0.162460 KneeLeft:-0.012237,0.705261,-0.053844,-0.706794 KneeRight:0.006488,0.708854,0.031858,0.704605 Neck:0.024167,-0.017004,0.997132,-0.069680 ShoulderLeft:0.009685,0.779149,-0.623853,0.060333 ShoulderRight:0.041486,0.779629,0.624489,-0.021693 SpineBase:-0.002806,-0.013570,0.999358,-0.033034 SpineMid:0.010427,-0.014006,0.999308,-0.032852 SpineShoulder:0.024007,-0.015549,0.998326,-0.050269 ThumbLeft:0.000000,0.000000,0.000000,0.000000 ThumbRight:0.000000,0.000000,0.000000,0.000000 WristLeft:0.019307,0.285362,-0.518111,0.806075 WristRight:-0.097748,0.767052,-0.049937,0.632125 END:
KINECT_DATA POSITION:7.457872,-0.410823,-6.208861 HEAD_JOINT1:0.979496,0.184128,-0.000000,0.081754 LARM_JOINT2:0.862006,0.000000,-0.014818,-0.506682 LARM_JOINT3:0.842023,0.000000,-0.531050,0.094784 LLEG_JOINT2:0.998546,0.029185,0.000000,0.045327 LLEG_JOINT4:0.995289,0.091558,0.000000,-0.031888 RARM_JOINT2:0.799728,0.000000,-0.087371,0.593971 RARM_JOINT3:0.964419,0.000000,0.209566,0.161175 RLEG_JOINT2:0.999442,0.027170,0.000000,-0.019425 RLEG_JOINT4:0.994744,0.096355,0.000000,0.034645 WAIST:0.999997,-0.000000,0.002175,0.001394 WAIST_JOINT0:0.999689,0.000000,-0.024679,0.003634 WAIST_JOINT1:0.998331,0.055546,0.000000,-0.015835 END:
KINECT_DATA_Sensor  AnkleLeft:0.077956,0.718294,-0.092999,-0.685075 AnkleRight:0.101658,0.727562,0.071793,0.674659 ElbowLeft:0.150792,-0.648760,0.186955,0.722094 ElbowRight:0.026970,0.844185,0.197887,0.497458 FootLeft:0.000000,0.000000,0.000000,0.000000 FootRight:0.000000,0.000000,0.000000,0.000000 HandLeft:-0.010707,0.215675,-0.652074,0.726752 HandRight:-0.033976,0.615645,-0.078255,0.783392 HandTipLeft:0.000000,0.000000,0.000000,0.000000 HandTipRight:0.000000,0.000000,0.000000,0.000000 Head:0.000000,0.000000,0.000000,0.000000 HipLeft:0.114366,-0.682970,0.706181,-0.147581 HipRight:-0.115327,0.681215,0.704461,-0.162420 KneeLeft:-0.012219,0.705324,-0.053712,-0.706742 KneeRight:0.006413,0.708791,0.031970,0.704664 Neck:0.024070,-0.017127,0.997126,-0.069762 ShoulderLeft:0.009986,0.779173,-0.623831,0.060204 ShoulderRight:0.041664,0.779267,0.624927,-0.021743 SpineBase:-0.002715,-0.013631,0.999353,-0.033173 SpineMid:0.010425,-0.014066,0.999302,-0.032990 SpineShoulder:0.023910,-0.015655,0.998322,-0.050372 ThumbLeft:0.000000,0.000000,0.000000,0.000000 ThumbRight:0.000000,0.000000,0.000000,0.000000 WristLeft:0.024040,0.278334,-0.517908,0.808532 WristRight:-0.084538,0.608876,-0.070070,0.785630 END:
KINECT_DATA POSITION:7.450701,-0.409649,-6.208503 HEAD_JOINT1:0.979521,0.184089,-0.000000,0.081543 LARM_JOINT2:0.859722,0.000000,-0.008181,-0.510697 LARM_JOINT3:0.837064,0.000000,-0.538376,0.097335 LLEG_JOINT2:0.998541,0.028966,0.000000,0.045583 LLEG_JOINT4:0.995335,0.090725,0.000000,-0.032835 RARM_JOINT2:0.799719,0.000000,-0.087504,0.593964 RARM_JOINT3:0.963734,0.000000,0.214187,0.159186 RLEG_JOINT2:0.999461,0.026646,0.000000,-0.019171 RLEG_JOINT4:0.994977,0.093951,0.000000,0.034565 WAIST:0.999997,-0.000000,0.001994,0.001276 WAIST_JOINT0:0.999693,0.000000,-0.024538,0.003429 WAIST_JOINT1:0.998328,0.055613,0.000000,-0.015745 END:
KINECT_DATA_Sensor  AnkleLeft:0.081432,0.746101,-0.088433,-0.654891 AnkleRight:0.100327,0.735086,0.068659,0.666985 ElbowLeft:0.145176,-0.642903,0.187290,0.728369 ElbowRight:0.027086,0.843916,0.197992,0.497867 FootLeft:0.000000,0.000000,0.000000,0.000000 FootRight:0.000000,0.000000,0.000000,0.000000 HandLeft:-0.008643,0.212123,-0.648553,0.730964 HandRight:-0.075885,0.804507,-0.068632,0.585063 HandTipLeft:0.000000,0.000000,0.000000,0.000000 HandTipRight:0.000000,0.000000,0.000000,0.000000 Head:0.000000,0.000000,0.000000,0.000000 HipLeft:0.114387,-0.683031,0.706096,-0.147691 HipRight:-0.115138,0.681167,0.704566,-0.162299 KneeLeft:-0.012482,0.705446,-0.053653,-0.706620 KneeRight:0.006145,0.708673,0.031503,0.704806 Neck:0.023951,-0.017147,0.997122,-0.069856 ShoulderLeft:0.010069,0.779179,-0.623822,0.060197 ShoulderRight:0.041592,0.779031,0.625220,-0.021945 SpineBase:-0.002530,-0.013660,0.999351,-0.033232 SpineMid:0.010459,-0.014091,0.999300,-0.033052 SpineShoulder:0.023791,-0.015653,0.998321,-0.050441 ThumbLeft:0.000000,0.000000,0.000000,0.000000 ThumbRight:0.000000,0.000000,0.000000,0.000000 WristLeft:0.028441,0.274627,-0.522195,0.806898 WristRight:-0.100828,0.802351,-0.044167,0.586614 END:
KINECT_DATA POSITION:7.435991,-0.411966,-6.218719 HEAD_JOINT1:0.979603,0.183440,-0.000000,0.082021 LARM_JOINT2:0.859982,0.000000,-0.005942,-0.510289 LARM_JOINT3:0.835496,0.000000,-0.540464,0.099225 LLEG_JOINT2:0.998542,0.029121,0.000000,0.045450 LLEG_JOINT4:0.995305,0.091624,0.000000,-0.031188 RARM_JOINT2:0.798874,0.000000,-0.088013,0.595025 RARM_JOINT3:0.964386,0.000000,0.213661,0.155912 RLEG_JOINT2:0.999455,0.026917,0.000000,-0.019132 RLEG_JOINT4:0.994888,0.094945,0.000000,0.034403 WAIST:0.999997,-0.000000,0.001983,0.001435 WAIST_JOINT0:0.999695,0.000000,-0.024472,0.003235 WAIST_JOINT1:0.998313,0.055764,0.000000,-0.016163 END:
KINECT_DATA_Sensor  AnkleLeft:0.077334,0.718298,-0.093659,-0.685051 AnkleRight:0.099983,0.722518,0.071339,0.680354 ElbowLeft:0.144022,-0.642663,0.189008,0.728366 ElbowRight:0.027692,0.842981,0.197326,0.499679 FootLeft:0.000000,0.000000,0.000000,0.000000 FootRight:0.000000,0.000000,0.000000,0.000000 HandLeft:-0.009674,0.223102,-0.651529,0.725011 HandRight:-0.070365,0.730646,-0.064575,0.676044 HandTipLeft:0.000000,0.000000,0.000000,0.000000 HandTipRight:0.000000,0.000000,0.000000,0.000000 Head:0.000000,0.000000,0.000000,0.000000 HipLeft:0.114284,-0.682923,0.706214,-0.147706 HipRight:-0.114887,0.681242,0.704501,-0.162445 KneeLeft:-0.012391,0.705447,-0.053781,-0.706611 KneeRight:0.006477,0.708669,0.031554,0.704805 Neck:0.023966,-0.017502,0.997106,-0.069995 ShoulderLeft:0.009720,0.779607,-0.623251,0.060638 ShoulderRight:0.041258,0.778790,0.625526,-0.022389 SpineBase:-0.002538,-0.013866,0.999342,-0.033424 SpineMid:0.010464,-0.014300,0.999290,-0.033240 SpineShoulder:0.023810,-0.015887,0.998310,-0.050583 ThumbLeft:0.000000,0.000000,0.000000,0.000000 ThumbRight:0.000000,0.000000,0.000000,0.000000 WristLeft:0.022749,0.283031,-0.522745,0.803812 WristRight:-0.094910,0.728234,-0.055847,0.676423 END:
KINECT_DATA POSITION:7.439028,-0.414678,-6.207931 HEAD_JOINT1:0.979742,0.182545,-0.000000,0.082360 LARM_JOINT2:0.860167,0.000000,-0.005714,-0.509980 LARM_JOINT3:0.833769,0.000000,-0.543295,0.098284 LLEG_JOINT2:0.998534,0.029115,0.000000,0.045629 LLEG_JOINT4:0.995265,0.092462,0.000000,-0.029963 RARM_JOINT2:0.800494,0.000000,-0.087482,0.592922 RARM_JOINT3:0.963166,0.000000,0.215863,0.160357 RLEG_JOINT2:0.999458,0.027011,0.000000,-0.018791 RLEG_JOINT4:0.994838,0.095093,0.000000,0.035427 WAIST:0.999998,-0.000000,0.001741,0.001135 WAIST_JOINT0:0.999685,0.000000,-0.024929,0.002998 WAIST_JOINT1:0.998301,0.056031,0.000000,-0.015988 END:
KINECT_DATA_Sensor  AnkleLeft:0.077193,0.718595,-0.095027,-0.684567 AnkleRight:0.101178,0.724899,0.070316,0.677746 ElbowLeft:0.143993,-0.642679,0.189426,0.728249 ElbowRight:0.026864,0.844019,0.199615,0.497055 FootLeft:0.000000,0.000000,0.000000,0.000000 FootRight:0.000000,0.000000,0.000000,0.000000 HandLeft:-0.012943,0.214864,-0.654806,0.724497 HandRight:-0.078920,0.806085,-0.069504,0.582381 HandTipLeft:0.000000,0.000000,0.000000,0.000000 HandTipRight:0.000000,0.000000,0.000000,0.000000 Head:0.000000,0.000000,0.000000,0.000000 HipLeft:0.114234,-0.683096,0.706000,-0.147970 HipRight:-0.114595,0.681082,0.704720,-0.162371 KneeLeft:-0.012322,0.705627,-0.053689,-0.706439 KneeRight:0.006580,0.708488,0.031590,0.704985 Neck:0.024383,-0.017615,0.997076,-0.070246 ShoulderLeft:0.009389,0.779933,-0.622781,0.061315 ShoulderRight:0.041464,0.779295,0.624884,-0.022370 SpineBase:-0.002282,-0.013905,0.999335,-0.033624 SpineMid:0.010799,-0.014344,0.999279,-0.033439 SpineShoulder:0.024226,-0.016018,0.998284,-0.050854 ThumbLeft:0.000000,0.000000,0.000000,0.000000 ThumbRight:0.000000,0.000000,0.000000,0.000000 WristLeft:0.024231,0.279511,-0.523577,0.804458 WristRight:-0.101805,0.804078,-0.044154,0.584076 END:
KINECT_DATA POSITION:7.431387,-0.419952,-6.205821 HEAD_JOINT1:0.979861,0.181810,-0.000000,0.082569 LARM_JOINT2:0.859277,0.000000,-0.003795,-0.511497 LARM_JOINT3:0.833126,0.000000,-0.544351,0.097894 LLEG_JOINT2:0.998523,0.029070,0.000000,0.045898 LLEG_JOINT4:0.995273,0.091903,0.000000,-0.031390 RARM_JOINT2:0.802093,0.000000,-0.086887,0.590844 RARM_JOINT3:0.963460,0.000000,0.212240,0.163395 RLEG_JOINT2:0.999475,0.026607,0.000000,-0.018501 RLEG_JOINT4:0.994709,0.096685,0.000000,0.034725 WAIST:0.999999,-0.000000,0.001426,0.000858 WAIST_JOINT0:0.999679,0.000000,-0.025145,0.002969 WAIST_JOINT1:0.998294,0.056226,0.000000,-0.015767 END:
KINECT_DATA_Sensor  AnkleLeft:0.083535,0.761211,-0.088430,-0.636993 AnkleRight:0.102025,0.728626,0.070987,0.673540 ElbowLeft:0.142196,-0.640337,0.189147,0.730734 ElbowRight:0.026240,0.845610,0.201734,0.493516 FootLeft:0.000000,0.000000,0.000000,0.000000 FootRight:0.000000,0.000000,0.000000,0.000000 HandLeft:-0.001497,0.201109,-0.646867,0.735606 HandRight:-0.047980,0.650412,-0.075919,0.754254 HandTipLeft:0.000000,0.000000,0.000000,0.000000 HandTipRight:0.000000,0.000000,0.000000,0.000000 Head:0.000000,0.000000,0.000000,0.000000 HipLeft:0.114171,-0.683228,0.705831,-0.148209 HipRight:-0.114132,0.680930,0.704980,-0.162208 KneeLeft:-0.012365,0.705853,-0.053648,-0.706215 KneeRight:0.006315,0.708272,0.031293,0.705218 Neck:0.024520,-0.017639,0.997057,-0.070467 ShoulderLeft:0.009634,0.780026,-0.622654,0.061388 ShoulderRight:0.041892,0.779820,0.624207,-0.022170 SpineBase:-0.001961,-0.014027,0.999326,-0.033856 SpineMid:0.011024,-0.014466,0.999267,-0.033670 SpineShoulder:0.024361,-0.016054,0.998270,-0.051051 ThumbLeft:0.000000,0.000000,0.000000,0.000000 ThumbRight:0.000000,0.000000,0.000000,0.000000 WristLeft:0.035940,0.262550,-0.525112,0.808723 WristRight:-0.088780,0.644921,-0.066722,0.756137 END:
KINECT_DATA POSITION:7.405731,-0.415421,-6.211233 HEAD_JOINT1:0.979735,0.182557,-0.000000,0.082422 LARM_JOINT2:0.860325,0.000000,-0.006842,-0.509700 LARM_JOINT3:0.838730,0.000000,-0.536249,0.094702 LLEG_JOINT2:0.998483,0.029591,0.000000,0.046428 LLEG_JOINT4:0.995258,0.092043,0.000000,-0.031459 RARM_JOINT2:0.800251,0.000000,-0.087752,0.593209 RARM_JOINT3:0.963454,0.000000,0.213317,0.162028 RLEG_JOINT2:0.999473,0.027154,0.000000,-0.017785 RLEG_JOINT4:0.994816,0.096299,0.000000,0.032680 WAIST:0.999998,-0.000000,0.001799,0.000528 WAIST_JOINT0:0.999692,0.000000,-0.024633,0.002991 WAIST_JOINT1:0.998296,0.056249,0.000000,-0.015504 END:
KINECT_DATA_Sensor  AnkleLeft:0.078090,0.718271,-0.094140,-0.684928 AnkleRight:0.102915,0.746947,0.069584,0.653174 ElbowLeft:0.144607,-0.642843,0.188974,0.728100 ElbowRight:0.027321,0.843939,0.199595,0.497174 FootLeft:0.000000,0.000000,0.000000,0.000000 FootRight:0.000000,0.000000,0.000000,0.000000 HandLeft:-0.008965,0.215488,-0.639925,0.737551 HandRight:-0.055249,0.726551,-0.076028,0.680655 HandTipLeft:0.000000,0.000000,0.000000,0.000000 HandTipRight:0.000000,0.000000,0.000000,0.000000 Head:0.000000,0.000000,0.000000,0.000000 HipLeft:0.113840,-0.683505,0.705660,-0.148003 HipRight:-0.114202,0.680664,0.705179,-0.162409 KneeLeft:-0.012114,0.705625,-0.054163,-0.706408 KneeRight:0.006962,0.708498,0.031409,0.704979 Neck:0.024120,-0.017707,0.997066,-0.070459 ShoulderLeft:0.009705,0.780110,-0.622560,0.061264 ShoulderRight:0.041437,0.779182,0.625012,-0.022744 SpineBase:-0.002308,-0.014217,0.999320,-0.033946 SpineMid:0.010646,-0.014656,0.999266,-0.033759 SpineShoulder:0.023957,-0.016144,0.998277,-0.051074 ThumbLeft:0.000000,0.000000,0.000000,0.000000 ThumbRight:0.000000,0.000000,0.000000,0.000000 WristLeft:0.029096,0.276010,-0.520473,0.807515 WristRight:-0.095036,0.723257,-0.056837,0.681643 END:
KINECT_DATA POSITION:7.378651,-0.417767,-6.183374 HEAD_JOINT1:0.979670,0.183030,-0.000000,0.082132 LARM_JOINT2:0.859278,0.000000,-0.004565,-0.511488 LARM_JOINT3:0.836693,0.000000,-0.538994,0.097107 LLEG_JOINT2:0.998466,0.029683,0.000000,0.046743 LLEG_JOINT4:0.995379,0.091843,0.000000,-0.028021 RARM_JOINT2:0.799229,0.000000,-0.088559,0.594467 RARM_JOINT3:0.962810,0.000000,0.215375,0.163130 RLEG_JOINT2:0.999469,0.027309,0.000000,-0.017770 RLEG_JOINT4:0.994798,0.096072,0.000000,0.033866 WAIST:0.999998,-0.000000,0.001853,0.000512 WAIST_JOINT0:0.999705,0.000000,-0.024055,0.003341 WAIST_JOINT1:0.998303,0.056098,0.000000,-0.015627 END:
KINECT_DATA_Sensor  AnkleLeft:0.083027,0.771162,-0.090388,-0.624696 AnkleRight:0.103252,0.743290,0.069228,0.657317 ElbowLeft:0.142382,-0.640503,0.188552,0.730707 ElbowRight:0.027962,0.842818,0.198559,0.499450 FootLeft:0.000000,0.000000,0.000000,0.000000 FootRight:0.000000,0.000000,0.000000,0.000000 HandLeft:0.022606,0.179325,-0.642929,0.744294 HandRight:-0.056019,0.732232,-0.088761,0.672919 HandTipLeft:0.000000,0.000000,0.000000,0.000000 HandTipRight:0.000000,0.000000,0.000000,0.000000 Head:0.000000,0.000000,0.000000,0.000000 HipLeft:0.113916,-0.683566,0.705635,-0.147783 HipRight:-0.114303,0.680668,0.705169,-0.162364 KneeLeft:-0.012255,0.705586,-0.054441,-0.706423 KneeRight:0.007070,0.708532,0.031522,0.704938 Neck:0.023571,-0.017762,0.997087,-0.070330 ShoulderLeft:0.009788,0.779962,-0.622783,0.060869 ShoulderRight:0.040820,0.779132,0.625098,-0.023210 SpineBase:-0.002368,-0.014376,0.999323,-0.033770 SpineMid:0.010337,-0.014804,0.999273,-0.033585 SpineShoulder:0.023400,-0.016271,0.998296,-0.050922 ThumbLeft:0.000000,0.000000,0.000000,0.000000 ThumbRight:0.000000,0.000000,0.000000,0.000000 WristLeft:0.055282,0.236975,-0.519690,0.818968 WristRight:-0.095483,0.729701,-0.056107,0.674738 END:
KINECT_DATA POSITION:7.367641,-0.429963,-6.136811 HEAD_JOINT1:0.979419,0.184283,-0.000000,0.082332 LARM_JOINT2:0.858621,0.000000,-0.002673,-0.512604 LARM_JOINT3:0.835658,0.000000,-0.540257,0.098987 LLEG_JOINT2:0.998463,0.029718,0.000000,0.046773 LLEG_JOINT4:0.995146,0.093201,0.000000,-0.031592 RARM_JOINT2:0.802260,0.000000,-0.086447,0.590683 RARM_JOINT3:0.962590,0.000000,0.214074,0.166111 RLEG_JOINT2:0.999470,0.027548,0.000000,-0.017363 RLEG_JOINT4:0.994842,0.096172,0.000000,0.032256 WAIST:0.999999,-0.000000,0.001674,0.000383 WAIST_JOINT0:0.999694,0.000000,-0.024493,0.003436 WAIST_JOINT1:0.998311,0.055950,0.000000,-0.015638 END:
KINECT_DATA_Sensor  AnkleLeft:0.078952,0.718065,-0.095084,-0.684915 AnkleRight:0.102666,0.743492,0.070386,0.657058 ElbowLeft:0.140831,-0.638895,0.188448,0.732439 ElbowRight:0.026167,0.847662,0.201850,0.489941 FootLeft:0.000000,0.000000,0.000000,0.000000 FootRight:0.000000,0.000000,0.000000,0.000000 HandLeft:0.009449,0.202010,-0.641199,0.740248 HandRight:-0.060825,0.713533,-0.086557,0.692589 HandTipLeft:0.000000,0.000000,0.000000,0.000000 HandTipRight:0.000000,0.000000,0.000000,0.000000 Head:0.000000,0.000000,0.000000,0.000000 HipLeft:0.114126,-0.683668,0.705513,-0.147732 HipRight:-0.114305,0.680640,0.705251,-0.162123 KneeLeft:-0.012170,0.705720,-0.054393,-0.706295 KneeRight:0.007440,0.708393,0.031493,0.705076 Neck:0.023812,-0.017923,0.997089,-0.070175 ShoulderLeft:0.010182,0.779777,-0.623051,0.060431 ShoulderRight:0.041554,0.780111,0.623862,-0.022267 SpineBase:-0.002187,-0.014444,0.999329,-0.033574 SpineMid:0.010548,-0.014871,0.999276,-0.033388 SpineShoulder:0.023642,-0.016390,0.998296,-0.050775 ThumbLeft:0.000000,0.000000,0.000000,0.000000 ThumbRight:0.000000,0.000000,0.000000,0.000000 WristLeft:0.041752,0.258170,-0.522893,0.811288 WristRight:-0.093214,0.711215,-0.058615,0.694297 END:
KINECT_DATA POSITION:7.368031,-0.437100,-6.103253 HEAD_JOINT1:0.979369,0.184810,-0.000000,0.081735 LARM_JOINT2:0.869037,0.000000,-0.025923,-0.494068 LARM_JOINT3:0.854553,0.000000,-0.513020,0.080935 LLEG_JOINT2:0.998460,0.029562,0.000000,0.046948 LLEG_JOINT4:0.995423,0.089798,0.000000,-0.032710 RARM_JOINT2:0.802095,0.000000,-0.086892,0.590841 RARM_JOINT3:0.962949,0.000000,0.213744,0.164447 RLEG_JOINT2:0.999453,0.028097,0.000000,-0.017415 RLEG_JOINT4:0.994820,0.095483,0.000000,0.034862 WAIST:0.999998,-0.000000,0.002131,0.000409 WAIST_JOINT0:0.999706,0.000000,-0.023976,0.003508 WAIST_JOINT1:0.998323,0.055735,0.000000,-0.015647 END:
KINECT_DATA_Sensor  AnkleLeft:0.077006,0.718019,-0.091981,-0.685608 AnkleRight:0.103242,0.734210,0.069897,0.667376 ElbowLeft:0.162207,-0.666130,0.192148,0.702167 ElbowRight:0.026319,0.847845,0.201689,0.489681 FootLeft:0.000000,0.000000,0.000000,0.000000 FootRight:0.000000,0.000000,0.000000,0.000000 HandLeft:-0.019420,0.219542,-0.662469,0.715932 HandRight:-0.068475,0.739353,-0.078409,0.665222 HandTipLeft:0.000000,0.000000,0.000000,0.000000 HandTipRight:0.000000,0.000000,0.000000,0.000000 Head:0.000000,0.000000,0.000000,0.000000 HipLeft:0.114038,-0.683732,0.705545,-0.147349 HipRight:-0.114818,0.680630,0.705148,-0.162249 KneeLeft:-0.012397,0.705396,-0.054431,-0.706612 KneeRight:0.007794,0.708693,0.031903,0.704752 Neck:0.023312,-0.017947,0.997117,-0.069940 ShoulderLeft:0.010123,0.779630,-0.623269,0.060086 ShoulderRight:0.040858,0.780036,0.623987,-0.022707 SpineBase:-0.002636,-0.014361,0.999338,-0.033309 SpineMid:0.010077,-0.014784,0.999291,-0.033124 SpineShoulder:0.023143,-0.016383,0.998319,-0.050557 ThumbLeft:0.000000,0.000000,0.000000,0.000000 ThumbRight:0.000000,0.000000,0.000000,0.000000 WristLeft:0.016088,0.290860,-0.497922,0.816832 WristRight:-0.094987,0.737189,-0.054740,0.666734 END:
KINECT_DATA POSITION:7.367940,-0.443113,-6.079519 HEAD_JOINT1:0.979344,0.185135,-0.000000,0.081300 LARM_JOINT2:0.862045,0.000000,-0.009991,-0.506733 LARM_JOINT3:0.839283,0.000000,-0.535457,0.094286 LLEG_JOINT2:0.998471,0.029183,0.000000,0.046942 LLEG_JOINT4:0.995397,0.090229,0.000000,-0.032307 RARM_JOINT2:0.804081,0.000000,-0.085491,0.588341 RARM_JOINT3:0.962483,0.000000,0.209662,0.172247 RLEG_JOINT2:0.999447,0.028230,0.000000,-0.017557 RLEG_JOINT4:0.994774,0.095872,0.000000,0.035110 WAIST:0.999996,-0.000000,0.002669,0.000382 WAIST_JOINT0:0.999686,0.000000,-0.024838,0.003316 WAIST_JOINT1:0.998334,0.055566,0.000000,-0.015565 END:
KINECT_DATA_Sensor  AnkleLeft:0.076958,0.718489,-0.092150,-0.685098 AnkleRight:0.104780,0.745340,0.068534,0.654822 ElbowLeft:0.147430,-0.648206,0.189765,0.722553 ElbowRight:0.025213,0.851717,0.203714,0.482124 FootLeft:0.000000,0.000000,0.000000,0.000000 FootRight:0.000000,0.000000,0.000000,0.000000 HandLeft:-0.002652,0.208396,-0.658262,0.723364 HandRight:-0.043526,0.718726,-0.091140,0.687918 HandTipLeft:0.000000,0.000000,0.000000,0.000000 HandTipRight:0.000000,0.000000,0.000000,0.000000 Head:0.000000,0.000000,0.000000,0.000000 HipLeft:0.113782,-0.683810,0.705600,-0.146919 HipRight:-0.115236,0.680532,0.705127,-0.162460 KneeLeft:0.012615,-0.705010,0.054148,0.707015 KneeRight:0.007751,0.709063,0.032121,0.704370 Neck:0.024035,-0.017959,0.997115,-0.069729 ShoulderLeft:0.010390,0.779521,-0.623426,0.059823 ShoulderRight:0.042061,0.780554,0.623310,-0.021255 SpineBase:-0.003166,-0.014375,0.999341,-0.033165 SpineMid:0.010167,-0.014816,0.999295,-0.032970 SpineShoulder:0.023864,-0.016432,0.998311,-0.050365 ThumbLeft:0.000000,0.000000,0.000000,0.000000 ThumbRight:0.000000,0.000000,0.000000,0.000000 WristLeft:0.029319,0.271686,-0.515923,0.811881 WristRight:-0.092104,0.715944,-0.057631,0.689652 END:
KINECT_DATA POSITION:7.370042,-0.450758,-6.087697 HEAD_JOINT1:0.979390,0.184810,-0.000000,0.081491 LARM_JOINT2:0.866839,0.000000,-0.018657,-0.498238 LARM_JOINT3:0.823016,0.000000,-0.561933,0.082927 LLEG_JOINT2:0.998475,0.028721,0.000000,0.047142 LLEG_JOINT4:0.995245,0.092390,0.000000,-0.030831 RARM_JOINT2:0.803442,0.000000,-0.084895,0.589299 RARM_JOINT3:0.963641,0.000000,0.209872,0.165375 RLEG_JOINT2:0.999458,0.027852,0.000000,-0.017525 RLEG_JOINT4:0.994676,0.097191,0.000000,0.034250 WAIST:0.999996,-0.000000,0.002632,0.000409 WAIST_JOINT0:0.999666,0.000000,-0.025692,0.002826 WAIST_JOINT1:0.998332,0.055581,0.000000,-0.015637 END:
KINECT_DATA_Sensor  AnkleLeft:0.077132,0.718989,-0.094468,-0.684237 AnkleRight:0.103564,0.732199,0.071806,0.669330 ElbowLeft:0.157604,-0.654864,0.191568,0.713874 ElbowRight:0.024947,0.851089,0.202605,0.483711 FootLeft:0.000000,0.000000,0.000000,0.000000 FootRight:0.000000,0.000000,0.000000,0.000000 HandLeft:-0.014741,0.117857,-0.686672,0.717199 HandRight:-0.059106,0.711221,-0.073722,0.696589 HandTipLeft:0.000000,0.000000,0.000000,0.000000 HandTipRight:0.000000,0.000000,0.000000,0.000000 Head:0.000000,0.000000,0.000000,0.000000 HipLeft:0.113747,-0.683781,0.705620,-0.146989 HipRight:-0.115153,0.680542,0.705119,-0.162507 KneeLeft:0.013107,-0.705015,0.053981,0.707013 KneeRight:0.007528,0.709050,0.031811,0.704400 Neck:0.024925,-0.018084,0.997092,-0.069702 ShoulderLeft:0.010157,0.779921,-0.622889,0.060244 ShoulderRight:0.042945,0.780190,0.623735,-0.020335 SpineBase:-0.003132,-0.014387,0.999338,-0.033254 SpineMid:0.010629,-0.014844,0.999287,-0.033053 SpineShoulder:0.024757,-0.016511,0.998287,-0.050372 ThumbLeft:0.000000,0.000000,0.000000,0.000000 ThumbRight:0.000000,0.000000,0.000000,0.000000 WristLeft:0.048905,0.213908,-0.528440,0.820124 WristRight:-0.091743,0.708368,-0.058446,0.697411 END:
KINECT_DATA POSITION:7.330588,-0.468995,-6.089818 HEAD_JOINT1:0.979817,0.180983,-0.000000,0.084873 LARM_JOINT2:0.886061,0.000000,-0.081727,-0.456307 LARM_JOINT3:0.824266,0.000000,-0.555356,0.110296 LLEG_JOINT2:0.998442,0.028973,0.000000,0.047695 LLEG_JOINT4:0.995325,0.091310,0.000000,-0.031484 RARM_JOINT2:0.801466,0.000000,-0.087507,0.591604 RARM_JOINT3:0.964669,0.000000,0.208572,0.160968 RLEG_JOINT2:0.999458,0.028306,0.000000,-0.016793 RLEG_JOINT4:0.994762,0.096372,0.000000,0.034068 WAIST:0.999998,-0.000000,0.002110,0.000220 WAIST_JOINT0:0.999538,0.000000,-0.030363,0.001370 WAIST_JOINT1:0.998340,0.055366,0.000000,-0.015865 END:
KINECT_DATA_Sensor  AnkleLeft:0.083328,0.767549,-0.087874,-0.629447 AnkleRight:0.103800,0.734043,0.070913,0.667367 ElbowLeft:0.219016,-0.680682,0.182977,0.674702 ElbowRight:0.025982,0.846047,0.201281,0.492966 FootLeft:0.000000,0.000000,0.000000,0.000000 FootRight:0.000000,0.000000,0.000000,0.000000 HandLeft:-0.013052,-0.068542,0.753170,-0.654116 HandRight:-0.050483,0.710930,-0.053078,0.699437 HandTipLeft:0.000000,0.000000,0.000000,0.000000 HandTipRight:0.000000,0.000000,0.000000,0.000000 Head:0.000000,0.000000,0.000000,0.000000 HipLeft:0.114138,-0.683902,0.705403,-0.147163 HipRight:-0.114685,0.680510,0.705295,-0.162214 KneeLeft:-0.013210,0.705397,-0.054413,-0.706598 KneeRight:0.008249,0.708657,0.031747,0.704790 Neck:0.029817,-0.018807,0.996974,-0.069284 ShoulderLeft:0.005653,0.781719,-0.620241,0.064693 ShoulderRight:0.044632,0.779453,0.624630,-0.017287 SpineBase:-0.002610,-0.014831,0.999334,-0.033229 SpineMid:0.013322,-0.015359,0.999249,-0.032988 SpineShoulder:0.029656,-0.017100,0.998156,-0.050119 ThumbLeft:0.000000,0.000000,0.000000,0.000000 ThumbRight:0.000000,0.000000,0.000000,0.000000 WristLeft:0.049576,0.151456,-0.557477,0.814753 WristRight:-0.093932,0.706878,-0.059092,0.698576 END:
KINECT_DATA POSITION:7.272656,-0.490109,-6.095612 HEAD_JOINT1:0.980576,0.172545,-0.000000,0.093266 LARM_JOINT2:0.906471,0.000000,-0.117212,-0.405674 LARM_JOINT3:0.844180,0.000000,-0.502720,0.186098 LLEG_JOINT2:0.998466,0.028183,0.000000,0.047664 LLEG_JOINT4:0.995040,0.094086,0.000000,-0.032308 RARM_JOINT2:0.802753,0.000000,-0.089532,0.589552 RARM_JOINT3:0.963730,0.000000,0.213034,0.160749 RLEG_JOINT2:0.999450,0.028865,0.000000,-0.016325 RLEG_JOINT4:0.994942,0.094821,0.000000,0.033159 WAIST:0.999999,-0.000000,0.001293,0.000666 WAIST_JOINT0:0.999299,0.000000,-0.037340,0.002827 WAIST_JOINT1:0.998371,0.054976,0.000000,-0.015240 END:
KINECT_DATA_Sensor  AnkleLeft:0.085552,0.771235,-0.088379,-0.624553 AnkleRight:0.103022,0.732699,0.070315,0.669025 ElbowLeft:0.290065,-0.632901,0.171713,0.697003 ElbowRight:0.026445,0.844617,0.202952,0.494705 FootLeft:0.000000,0.000000,0.000000,0.000000 FootRight:0.000000,0.000000,0.000000,0.000000 HandLeft:0.150960,0.079165,-0.698974,0.694535 HandRight:-0.063536,0.705842,-0.051915,0.703601 HandTipLeft:0.000000,0.000000,0.000000,0.000000 HandTipRight:0.000000,0.000000,0.000000,0.000000 Head:0.000000,0.000000,0.000000,0.000000 HipLeft:0.114374,-0.683586,0.705626,-0.147381 HipRight:-0.114176,0.681063,0.705059,-0.161272 KneeLeft:-0.014111,0.705927,-0.054137,-0.706072 KneeRight:0.009316,0.708071,0.031489,0.705378 Neck:0.036664,-0.017897,0.996800,-0.068738 ShoulderLeft:-0.000517,0.782046,-0.619191,0.070761 ShoulderRight:0.047185,0.781809,0.621605,-0.012453 SpineBase:-0.001802,-0.014185,0.999352,-0.033041 SpineMid:0.017130,-0.014809,0.999207,-0.032767 SpineShoulder:0.036519,-0.016339,0.997962,-0.049709 ThumbLeft:0.000000,0.000000,0.000000,0.000000 ThumbRight:0.000000,0.000000,0.000000,0.000000 WristLeft:0.138211,0.089972,-0.615236,0.770900 WristRight:-0.094966,0.701243,-0.061298,0.703906 END:
KINECT_DATA POSITION:7.161270,-0.487616,-6.076825 HEAD_JOINT1:0.981136,0.165034,-0.000000,0.100679 LARM_JOINT2:0.925976,0.000000,-0.151875,-0.345692 LARM_JOINT3:0.869924,0.000000,-0.437685,0.227299 LLEG_JOINT2:0.998454,0.027116,0.000000,0.048524 LLEG_JOINT4:0.994722,0.097867,0.000000,-0.030836 RARM_JOINT2:0.805667,0.000000,-0.091116,0.585320 RARM_JOINT3:0.962060,0.000000,0.213677,0.169654 RLEG_JOINT2:0.999478,0.028918,0.000000,-0.014437 RLEG_JOINT4:0.995011,0.094759,0.000000,0.031213 WAIST:0.999998,-0.000000,0.001961,0.000732 WAIST_JOINT0:0.999107,0.000000,-0.041970,0.004972 WAIST_JOINT1:0.998562,0.051922,0.000000,-0.013359 END:
KINECT_DATA_Sensor  AnkleLeft:0.086234,0.770311,-0.091874,-0.625095 AnkleRight:0.101461,0.719031,0.072539,0.683694 ElbowLeft:0.363613,-0.596813,0.160984,0.696911 ElbowRight:0.024577,0.847091,0.204665,0.489843 FootLeft:0.000000,0.000000,0.000000,0.000000 FootRight:0.000000,0.000000,0.000000,0.000000 HandLeft:-0.185870,-0.093332,0.722758,-0.659062 HandRight:-0.054471,0.715624,-0.075152,0.692292 HandTipLeft:0.000000,0.000000,0.000000,0.000000 HandTipRight:0.000000,0.000000,0.000000,0.000000 Head:0.000000,0.000000,0.000000,0.000000 HipLeft:0.114326,-0.683864,0.705691,-0.145807 HipRight:-0.115781,0.681485,0.704760,-0.159643 KneeLeft:-0.015484,0.705448,-0.054050,-0.706528 KneeRight:0.010712,0.708481,0.030154,0.705004 Neck:0.041065,-0.016182,0.996894,-0.065221 ShoulderLeft:-0.008604,0.782110,-0.618598,0.074602 ShoulderRight:0.044605,0.786114,0.616404,-0.009040 SpineBase:-0.002394,-0.012514,0.999432,-0.031192 SpineMid:0.019040,-0.013180,0.999254,-0.030917 SpineShoulder:0.040963,-0.014552,0.997958,-0.046796 ThumbLeft:0.000000,0.000000,0.000000,0.000000 ThumbRight:0.000000,0.000000,0.000000,0.000000 WristLeft:0.180942,0.119361,-0.632397,0.743698 WristRight:-0.096678,0.711802,-0.061397,0.692980 END:
KINECT_DATA POSITION:7.034573,-0.446198,-6.095493 HEAD_JOINT1:0.981893,0.161586,-0.000000,0.098876 LARM_JOINT2:0.947929,0.000000,-0.166233,-0.271658 LARM_JOINT3:0.897433,0.000000,-0.345786,0.273945 LLEG_JOINT2:0.998464,0.026661,0.000000,0.048570 LLEG_JOINT4:0.995023,0.094452,0.000000,-0.031738 RARM_JOINT2:0.803915,0.000000,-0.090391,0.587835 RARM_JOINT3:0.963137,0.000000,0.216579,0.159567 RLEG_JOINT2:0.999490,0.028295,0.000000,-0.014794 RLEG_JOINT4:0.994949,0.094955,0.000000,0.032557 WAIST:0.999995,-0.000000,0.002699,0.001471 WAIST_JOINT0:0.998941,0.000000,-0.045457,0.007040 WAIST_JOINT1:0.998639,0.050391,0.000000,-0.013479 END:
KINECT_DATA_Sensor  AnkleLeft:0.083863,0.773879,-0.088842,-0.621438 AnkleRight:0.104692,0.742824,0.067487,0.657797 ElbowLeft:0.443882,-0.523672,0.146361,0.712260 ElbowRight:0.023264,0.845592,0.200614,0.494152 FootLeft:0.000000,0.000000,0.000000,0.000000 FootRight:0.000000,0.000000,0.000000,0.000000 HandLeft:0.343737,0.098799,-0.689949,0.629328 HandRight:-0.080392,0.669209,-0.069784,0.735409 HandTipLeft:0.000000,0.000000,0.000000,0.000000 HandTipRight:0.000000,0.000000,0.000000,0.000000 Head:0.000000,0.000000,0.000000,0.000000 HipLeft:0.114871,-0.683611,0.706107,-0.144544 HipRight:-0.117706,0.682098,0.703974,-0.159085 KneeLeft:0.016321,-0.704903,0.054297,0.707034 KneeRight:0.010518,0.709013,0.029449,0.704502 Neck:0.044441,-0.015878,0.996851,-0.063733 ShoulderLeft:-0.012849,0.781773,-0.618680,0.076814 ShoulderRight:0.044628,0.788104,0.613896,-0.005734 SpineBase:-0.003122,-0.011513,0.999492,-0.029546 SpineMid:0.020371,-0.012205,0.999290,-0.029267 SpineShoulder:0.044360,-0.014066,0.997894,-0.045197 ThumbLeft:0.000000,0.000000,0.000000,0.000000 ThumbRight:0.000000,0.000000,0.000000,0.000000 WristLeft:0.307371,0.088859,-0.642145,0.696618 WristRight:-0.093698,0.667573,-0.068059,0.735483 END:
KINECT_DATA POSITION:6.923752,-0.402180,-6.113839 HEAD_JOINT1:0.982450,0.158226,-0.000000,0.098770 LARM_JOINT2:0.960380,0.000000,-0.171171,-0.219932 LARM_JOINT3:0.913384,0.000000,-0.300738,0.274384 LLEG_JOINT2:0.998375,0.026634,0.000000,0.050386 LLEG_JOINT4:0.995199,0.092625,0.000000,-0.031622 RARM_JOINT2:0.805510,0.000000,-0.090110,0.585691 RARM_JOINT3:0.962880,0.000000,0.212669,0.166234 RLEG_JOINT2:0.999494,0.028551,0.000000,-0.014009 RLEG_JOINT4:0.995030,0.094185,0.000000,0.032331 WAIST:0.999997,-0.000000,0.002228,0.000968 WAIST_JOINT0:0.998832,0.000000,-0.047930,0.006142 WAIST_JOINT1:0.998676,0.049548,0.000000,-0.013823 END:
KINECT_DATA_Sensor  AnkleLeft:0.081613,0.775256,-0.088743,-0.620034 AnkleRight:0.106133,0.759897,0.064243,0.638095 ElbowLeft:0.491082,-0.495510,0.147021,0.701208 ElbowRight:0.021886,0.847576,0.203022,0.489815 FootLeft:0.000000,0.000000,0.000000,0.000000 FootRight:0.000000,0.000000,0.000000,0.000000 HandLeft:-0.277894,-0.216047,0.731704,-0.583703 HandRight:-0.068523,0.754594,-0.067585,0.649095 HandTipLeft:0.000000,0.000000,0.000000,0.000000 HandTipRight:0.000000,0.000000,0.000000,0.000000 Head:0.000000,0.000000,0.000000,0.000000 HipLeft:0.116094,-0.684046,0.705556,-0.144205 HipRight:-0.118116,0.681894,0.704224,-0.158550 KneeLeft:-0.017286,0.705248,-0.055204,-0.706596 KneeRight:0.010911,0.708634,0.029428,0.704878 Neck:0.046870,-0.016832,0.996786,-0.062753 ShoulderLeft:-0.017060,0.780877,-0.619359,0.079592 ShoulderRight:0.043598,0.787465,0.614798,-0.004739 SpineBase:-0.002632,-0.012308,0.999512,-0.028579 SpineMid:0.021814,-0.013003,0.999278,-0.028269 SpineShoulder:0.046782,-0.014916,0.997810,-0.044315 ThumbLeft:0.000000,0.000000,0.000000,0.000000 ThumbRight:0.000000,0.000000,0.000000,0.000000 WristLeft:-0.235594,-0.202044,0.694630,-0.648970 WristRight:-0.101511,0.751375,-0.055295,0.649672 END:
KINECT_DATA POSITION:6.849990,-0.296558,-6.201148 HEAD_JOINT1:0.982581,0.159147,-0.000000,0.095951 LARM_JOINT2:0.971753,0.000000,-0.173915,-0.159531 LARM_JOINT3:0.936766,0.000000,-0.258083,0.236353 LLEG_JOINT2:0.998290,0.026208,0.000000,0.052261 LLEG_JOINT4:0.994937,0.094274,0.000000,-0.034812 RARM_JOINT2:0.802994,0.000000,-0.090839,0.589023 RARM_JOINT3:0.964687,0.000000,0.205683,0.164538 RLEG_JOINT2:0.999570,0.026833,0.000000,-0.011864 RLEG_JOINT4:0.995060,0.094361,0.000000,0.030856 WAIST:1.000000,0.000000,-0.000000,-0.000000 WAIST_JOINT0:0.998780,0.000000,-0.048742,0.007934 WAIST_JOINT1:0.998677,0.049544,0.000000,-0.013778 END:
KINECT_DATA_Sensor  AnkleLeft:0.077448,0.731354,-0.093511,-0.671102 AnkleRight:0.103213,0.741615,0.065996,0.659544 ElbowLeft:0.537778,-0.489051,0.166249,0.666322 ElbowRight:0.023895,0.845728,0.200379,0.493985 FootLeft:0.000000,0.000000,0.000000,0.000000 FootRight:0.000000,0.000000,0.000000,0.000000 HandLeft:0.462865,0.097275,-0.628271,0.617714 HandRight:-0.007295,0.246001,-0.068096,0.966847 HandTipLeft:0.000000,0.000000,0.000000,0.000000 HandTipRight:0.000000,0.000000,0.000000,0.000000 Head:0.000000,0.000000,0.000000,0.000000 HipLeft:0.117463,-0.684513,0.704644,-0.145331 HipRight:-0.116678,0.681454,0.705193,-0.157192 KneeLeft:-0.018348,0.706846,-0.055510,-0.704947 KneeRight:0.010594,0.707040,0.027359,0.706565 Neck:0.047639,-0.017565,0.996737,-0.062745 ShoulderLeft:-0.018906,0.776494,-0.624582,0.081218 ShoulderRight:0.043068,0.785469,0.617378,-0.005239 SpineBase:-0.000345,-0.013018,0.999508,-0.028535 SpineMid:0.023349,-0.013690,0.999235,-0.028218 SpineShoulder:0.047538,-0.015655,0.997762,-0.044333 ThumbLeft:0.000000,0.000000,0.000000,0.000000 ThumbRight:0.000000,0.000000,0.000000,0.000000 WristLeft:0.410875,0.061893,-0.610767,0.674029 WristRight:-0.050695,0.243316,-0.101835,0.963253 END:
KINECT_DATA POSITION:6.843117,-0.194050,-6.243038 HEAD_JOINT1:0.982731,0.158655,-0.000000,0.095230 LARM_JOINT2:0.975545,0.000000,-0.192424,-0.106234 LARM_JOINT3:0.961302,0.000000,-0.204181,0.184956 LLEG_JOINT2:0.998102,0.027959,0.000000,0.054873 LLEG_JOINT4:0.995338,0.088920,0.000000,-0.037363 RARM_JOINT2:0.802674,0.000000,-0.090723,0.589477 RARM_JOINT3:0.963623,0.000000,0.205410,0.170991 RLEG_JOINT2:0.999630,0.025284,0.000000,-0.010074 RLEG_JOINT4:0.995011,0.095408,0.000000,0.029160 WAIST:0.999993,0.000000,-0.003374,-0.001325 WAIST_JOINT0:0.998664,0.000000,-0.050557,0.010659 WAIST_JOINT1:0.998651,0.050053,0.000000,-0.013800 END:
KINECT_DATA_Sensor  AnkleLeft:0.075125,0.732679,-0.090578,-0.670323 AnkleRight:0.100140,0.718542,0.069391,0.684730 ElbowLeft:0.576894,-0.501292,0.178081,0.619827 ElbowRight:0.025465,0.846220,0.201044,0.492793 FootLeft:0.000000,0.000000,0.000000,0.000000 FootRight:0.000000,0.000000,0.000000,0.000000 HandLeft:0.608041,-0.050892,-0.484507,0.626856 HandRight:-0.052912,0.911644,-0.054062,0.403959 HandTipLeft:0.000000,0.000000,0.000000,0.000000 HandTipRight:0.000000,0.000000,0.000000,0.000000 Head:0.000000,0.000000,0.000000,0.000000 HipLeft:0.119064,-0.684811,0.703646,-0.147445 HipRight:-0.114150,0.680898,0.706548,-0.155364 KneeLeft:-0.018206,0.709285,-0.057599,-0.702328 KneeRight:0.009912,0.704670,0.025899,0.708993 Neck:0.049158,-0.019206,0.996578,-0.063622 ShoulderLeft:-0.021668,0.770962,-0.630917,0.084208 ShoulderRight:0.042722,0.784277,0.618912,-0.005698 SpineBase:0.003048,-0.013633,0.999480,-0.029051 SpineMid:0.025839,-0.014292,0.999151,-0.028732 SpineShoulder:0.049084,-0.016591,0.997653,-0.044757 ThumbLeft:0.000000,0.000000,0.000000,0.000000 ThumbRight:0.000000,0.000000,0.000000,0.000000 WristLeft:0.551930,-0.083979,-0.466551,0.686040 WristRight:-0.110222,0.907387,-0.024059,0.404872 END:
KINECT_DATA POSITION:6.879877,-0.129170,-6.252265 HEAD_JOINT1:0.983102,0.156966,-0.000000,0.094190 LARM_JOINT2:0.975255,0.000000,-0.206575,-0.078766 LARM_JOINT3:0.970214,0.000000,-0.186860,0.154172 LLEG_JOINT2:0.998112,0.027925,0.000000,0.054697 LLEG_JOINT4:0.995381,0.088204,0.000000,-0.037915 RARM_JOINT2:0.805501,0.000000,-0.092895,0.585268 RARM_JOINT3:0.962285,0.000000,0.209456,0.173596 RLEG_JOINT2:0.999650,0.024375,0.000000,-0.010303 RLEG_JOINT4:0.994801,0.097696,0.000000,0.028742 WAIST:0.999987,0.000000,-0.004823,-0.001530 WAIST_JOINT0:0.998565,0.000000,-0.052166,0.012078 WAIST_JOINT1:0.998550,0.051768,0.000000,-0.014745 END:
KINECT_DATA_Sensor  AnkleLeft:0.075039,0.733540,-0.089522,-0.669532 AnkleRight:0.101876,0.729150,0.069055,0.673196 ElbowLeft:0.596218,-0.508929,0.180749,0.594007 ElbowRight:0.027386,0.847566,0.207760,0.487563 FootLeft:0.000000,0.000000,0.000000,0.000000 FootRight:0.000000,0.000000,0.000000,0.000000 HandLeft:0.640691,-0.156224,-0.420614,0.623052 HandRight:-0.049514,0.720493,-0.060029,0.689083 HandTipLeft:0.000000,0.000000,0.000000,0.000000 HandTipRight:0.000000,0.000000,0.000000,0.000000 Head:0.000000,0.000000,0.000000,0.000000 HipLeft:0.119731,-0.684701,0.703362,-0.148765 HipRight:-0.112851,0.680805,0.706873,-0.155240 KneeLeft:-0.018047,0.710305,-0.057278,-0.701327 KneeRight:0.008996,0.703678,0.025550,0.710002 Neck:0.050355,-0.020341,0.996356,-0.065772 ShoulderLeft:-0.023290,0.768010,-0.633996,0.087561 ShoulderRight:0.042914,0.784611,0.618463,-0.006908 SpineBase:0.004487,-0.014163,0.999447,-0.029765 SpineMid:0.027154,-0.014835,0.999088,-0.029436 SpineShoulder:0.050262,-0.017724,0.997505,-0.046303 ThumbLeft:0.000000,0.000000,0.000000,0.000000 ThumbRight:0.000000,0.000000,0.000000,0.000000 WristLeft:0.606237,-0.157494,-0.382035,0.679501 WristRight:-0.094942,0.716254,-0.059354,0.688799 END:
KINECT_DATA POSITION:6.963244,0.001241,-6.260490 HEAD_JOINT1:0.983368,0.156076,-0.000000,0.092890 LARM_JOINT2:0.972895,0.000000,-0.225509,-0.051205 LARM_JOINT3:0.978621,0.000000,-0.158505,0.131064 LLEG_JOINT2:0.998167,0.028379,0.000000,0.053457 LLEG_JOINT4:0.995051,0.091136,0.000000,-0.039597 RARM_JOINT2:0.801999,0.000000,-0.092068,0.590187 RARM_JOINT3:0.963429,0.000000,0.209189,0.167467 RLEG_JOINT2:0.999669,0.023088,0.000000,-0.011358 RLEG_JOINT4:0.994671,0.099239,0.000000,0.027953 WAIST:0.999978,0.000000,-0.006636,-0.000938 WAIST_JOINT0:0.998252,0.000000,-0.057907,0.011787 WAIST_JOINT1:0.998423,0.053813,0.000000,-0.016017 END:
KINECT_DATA_Sensor  AnkleLeft:0.079161,0.735958,-0.090034,-0.666328 AnkleRight:0.102248,0.736478,0.068674,0.665153 ElbowLeft:0.616123,-0.518281,0.179450,0.565310 ElbowRight:0.029274,0.842721,0.203981,0.497350 FootLeft:0.000000,0.000000,0.000000,0.000000 FootRight:0.000000,0.000000,0.000000,0.000000 HandLeft:0.647706,-0.164818,-0.403178,0.625107 HandRight:-0.052901,0.811669,-0.047047,0.579812 HandTipLeft:0.000000,0.000000,0.000000,0.000000 HandTipRight:0.000000,0.000000,0.000000,0.000000 Head:0.000000,0.000000,0.000000,0.000000 HipLeft:0.120153,-0.684034,0.703479,-0.150923 HipRight:-0.110734,0.681325,0.706626,-0.155610 KneeLeft:-0.017372,0.711547,-0.057111,-0.700098 KneeRight:0.007805,0.702491,0.024960,0.711212 Neck:0.056337,-0.021186,0.995874,-0.067908 ShoulderLeft:-0.027075,0.765451,-0.635973,0.094283 ShoulderRight:0.047204,0.781306,0.622343,-0.004614 SpineBase:0.006229,-0.014510,0.999383,-0.031364 SpineMid:0.031012,-0.015284,0.998921,-0.030995 SpineShoulder:0.056236,-0.018628,0.997078,-0.048219 ThumbLeft:0.000000,0.000000,0.000000,0.000000 ThumbRight:0.000000,0.000000,0.000000,0.000000 WristLeft:0.614205,-0.165924,-0.366629,0.678825 WristRight:-0.102454,0.807290,-0.043745,0.579545 END:
KINECT_DATA POSITION:6.991937,0.072398,-6.234360 HEAD_JOINT1:0.984007,0.154246,-0.000000,0.089094 LARM_JOINT2:0.973636,0.000000,-0.226200,-0.029423 LARM_JOINT3:0.986441,0.000000,-0.128269,0.102376 LLEG_JOINT2:0.998175,0.028347,0.000000,0.053321 LLEG_JOINT4:0.995305,0.087963,0.000000,-0.040367 RARM_JOINT2:0.800604,0.000000,-0.090955,0.592250 RARM_JOINT3:0.964978,0.000000,0.207284,0.160783 RLEG_JOINT2:0.999661,0.023041,0.000000,-0.012148 RLEG_JOINT4:0.994385,0.101661,0.000000,0.029398 WAIST:0.999962,0.000000,-0.008679,-0.000703 WAIST_JOINT0:0.997858,0.000000,-0.064589,0.010387 WAIST_JOINT1:0.998196,0.057664,0.000000,-0.016740 END:
KINECT_DATA_Sensor  AnkleLeft:0.077339,0.739682,-0.087316,-0.662771 AnkleRight:0.105815,0.744974,0.067728,0.655157 ElbowLeft:0.621969,-0.536072,0.209201,0.531053 ElbowRight:0.031462,0.838084,0.203923,0.505016 FootLeft:0.000000,0.000000,0.000000,0.000000 FootRight:0.000000,0.000000,0.000000,0.000000 HandLeft:0.665433,-0.145981,-0.349368,0.643297 HandRight:-0.048852,0.899312,-0.019101,0.434151 HandTipLeft:0.000000,0.000000,0.000000,0.000000 HandTipRight:0.000000,0.000000,0.000000,0.000000 Head:0.000000,0.000000,0.000000,0.000000 HipLeft:0.120093,-0.683263,0.703626,-0.153751 HipRight:-0.107892,0.681302,0.706915,-0.156394 KneeLeft:-0.017586,0.712909,-0.057121,-0.698705 KneeRight:0.007437,0.701112,0.025308,0.712564 Neck:0.062923,-0.021880,0.995189,-0.071838 ShoulderLeft:-0.028181,0.763991,-0.636614,0.101224 ShoulderRight:0.054969,0.778799,0.624859,-0.001486 SpineBase:0.008202,-0.015011,0.999279,-0.033906 SpineMid:0.035274,-0.015924,0.998690,-0.033487 SpineShoulder:0.062818,-0.019461,0.996482,-0.051946 ThumbLeft:0.000000,0.000000,0.000000,0.000000 ThumbRight:0.000000,0.000000,0.000000,0.000000 WristLeft:0.620538,-0.172660,-0.343423,0.683507 WristRight:-0.107548,0.894613,-0.021899,0.433152 END:
KINECT_DATA POSITION:7.006538,0.114901,-6.236291 HEAD_JOINT1:0.983599,0.157108,-0.000000,0.088602 LARM_JOINT2:0.975305,0.000000,-0.219912,-0.020470 LARM_JOINT3:0.988666,0.000000,-0.121862,0.087693 LLEG_JOINT2:0.998159,0.028364,0.000000,0.053614 LLEG_JOINT4:0.995141,0.089166,0.000000,-0.041760 RARM_JOINT2:0.800267,0.000000,-0.091915,0.592558 RARM_JOINT3:0.964065,0.000000,0.210901,0.161553 RLEG_JOINT2:0.999683,0.022409,0.000000,-0.011468 RLEG_JOINT4:0.994757,0.098501,0.000000,0.027502 WAIST:0.999948,0.000000,-0.010103,-0.001363 WAIST_JOINT0:0.997726,0.000000,-0.066721,0.009533 WAIST_JOINT1:0.998054,0.059837,0.000000,-0.017547 END:
KINECT_DATA_Sensor  AnkleLeft:0.079290,0.740461,-0.086952,-0.661718 AnkleRight:0.100021,0.726953,0.069226,0.675828 ElbowLeft:0.618142,-0.548552,0.235478,0.511412 ElbowRight:0.033505,0.836264,0.206132,0.507001 FootLeft:0.000000,0.000000,0.000000,0.000000 FootRight:0.000000,0.000000,0.000000,0.000000 HandLeft:0.665776,-0.135706,-0.331078,0.654762 HandRight:-0.051147,0.741169,-0.046509,0.667749 HandTipLeft:0.000000,0.000000,0.000000,0.000000 HandTipRight:0.000000,0.000000,0.000000,0.000000 Head:0.000000,0.000000,0.000000,0.000000 HipLeft:0.119955,-0.683292,0.703248,-0.155449 HipRight:-0.105706,0.680717,0.707729,-0.156746 KneeLeft:-0.017403,0.713898,-0.056845,-0.697722 KneeRight:0.007031,0.700135,0.024834,0.713544 Neck:0.064991,-0.023514,0.994862,-0.073977 ShoulderLeft:-0.027970,0.763531,-0.636723,0.104031 ShoulderRight:0.058105,0.777510,0.626179,-0.001090 SpineBase:0.009612,-0.015949,0.999192,-0.035612 SpineMid:0.037013,-0.016919,0.998553,-0.035161 SpineShoulder:0.064880,-0.020936,0.996208,-0.054049 ThumbLeft:0.000000,0.000000,0.000000,0.000000 ThumbRight:0.000000,0.000000,0.000000,0.000000 WristLeft:0.619233,-0.169496,-0.336604,0.688854 WristRight:-0.096080,0.737281,-0.047181,0.667053 END:
KINECT_DATA POSITION:7.083488,0.199450,-6.217873 HEAD_JOINT1:0.982876,0.160979,-0.000000,0.089666 LARM_JOINT2:0.976903,0.000000,-0.213370,-0.011595 LARM_JOINT3:0.991520,0.000000,-0.105136,0.076389 LLEG_JOINT2:0.998135,0.029024,0.000000,0.053713 LLEG_JOINT4:0.995066,0.090463,0.000000,-0.040754 RARM_JOINT2:0.798603,0.000000,-0.091328,0.594889 RARM_JOINT3:0.963907,0.000000,0.210430,0.163105 RLEG_JOINT2:0.999693,0.022116,0.000000,-0.011187 RLEG_JOINT4:0.994769,0.098670,0.000000,0.026440 WAIST:0.999925,0.000000,-0.012118,-0.001935 WAIST_JOINT0:0.997680,0.000000,-0.067534,0.008565 WAIST_JOINT1:0.997918,0.061671,0.000000,-0.018886 END:
KINECT_DATA_Sensor  AnkleLeft:0.080074,0.740816,-0.088914,-0.660964 AnkleRight:0.100390,0.737506,0.068179,0.664348 ElbowLeft:0.618566,-0.550036,0.248230,0.503208 ElbowRight:0.034913,0.834063,0.205968,0.510586 FootLeft:0.000000,0.000000,0.000000,0.000000 FootRight:0.000000,0.000000,0.000000,0.000000 HandLeft:0.666685,-0.109417,-0.325461,0.661539 HandRight:-0.039407,0.756120,-0.055883,0.650851 HandTipLeft:0.000000,0.000000,0.000000,0.000000 HandTipRight:0.000000,0.000000,0.000000,0.000000 Head:0.000000,0.000000,0.000000,0.000000 HipLeft:0.120119,-0.683297,0.702671,-0.157894 HipRight:-0.102632,0.680340,0.708394,-0.157424 KneeLeft:-0.016726,0.715296,-0.056943,-0.696297 KneeRight:0.006663,0.698764,0.024817,0.714891 Neck:0.066045,-0.025322,0.994620,-0.075679 ShoulderLeft:-0.025376,0.763076,-0.637312,0.104419 ShoulderRight:0.062345,0.774468,0.629533,-0.000132 SpineBase:0.011570,-0.017534,0.999060,-0.037914 SpineMid:0.038514,-0.018551,0.998385,-0.037427 SpineShoulder:0.065910,-0.022743,0.995999,-0.055891 ThumbLeft:0.000000,0.000000,0.000000,0.000000 ThumbRight:0.000000,0.000000,0.000000,0.000000 WristLeft:0.617802,-0.144358,-0.332680,0.697715 WristRight:-0.096615,0.751796,-0.043098,0.650854 END:
KINECT_DATA POSITION:7.143715,0.223667,-6.199598 HEAD_JOINT1:0.982532,0.162682,-0.000000,0.090366 LARM_JOINT2:0.978187,0.000000,-0.207091,-0.016210 LARM_JOINT3:0.992191,0.000000,-0.091633,0.084614 LLEG_JOINT2:0.998132,0.029161,0.000000,0.053679 LLEG_JOINT4:0.995013,0.090204,0.000000,-0.042577 RARM_JOINT2:0.800272,0.000000,-0.092551,0.592452 RARM_JOINT3:0.963394,0.000000,0.208386,0.168665 RLEG_JOINT2:0.999702,0.021394,0.000000,-0.011741 RLEG_JOINT4:0.994730,0.099101,0.000000,0.026284 WAIST:0.999908,0.000000,-0.013438,-0.001879 WAIST_JOINT0:0.997711,0.000000,-0.067037,0.008911 WAIST_JOINT1:0.997878,0.062136,0.000000,-0.019461 END:
KINECT_DATA_Sensor  AnkleLeft:0.080920,0.740411,-0.087770,-0.661468 AnkleRight:0.099808,0.736349,0.068398,0.665695 ElbowLeft:0.625381,-0.524301,0.220480,0.534224 ElbowRight:0.036147,0.835824,0.209339,0.506230 FootLeft:0.000000,0.000000,0.000000,0.000000 FootRight:0.000000,0.000000,0.000000,0.000000 HandLeft:0.679341,-0.103741,-0.305607,0.659043 HandRight:-0.021147,0.625580,-0.066385,0.777043 HandTipLeft:0.000000,0.000000,0.000000,0.000000 HandTipRight:0.000000,0.000000,0.000000,0.000000 Head:0.000000,0.000000,0.000000,0.000000 HipLeft:0.120457,-0.683052,0.702599,-0.159010 HipRight:-0.100958,0.680435,0.708557,-0.157358 KneeLeft:-0.016724,0.716187,-0.057032,-0.695373 KneeRight:0.005832,0.697887,0.024660,0.715760 Neck:0.065390,-0.025574,0.994625,-0.076105 ShoulderLeft:-0.023709,0.762346,-0.638388,0.103576 ShoulderRight:0.063264,0.774307,0.629640,-0.000255 SpineBase:0.012843,-0.018252,0.998997,-0.038828 SpineMid:0.038814,-0.019256,0.998325,-0.038341 SpineShoulder:0.065242,-0.023105,0.996004,-0.056439 ThumbLeft:0.000000,0.000000,0.000000,0.000000 ThumbRight:0.000000,0.000000,0.000000,0.000000 WristLeft:0.629716,-0.140152,-0.315849,0.695741 WristRight:-0.085495,0.617195,-0.057872,0.780007 END:
KINECT_DATA POSITION:7.213030,0.264421,-6.199431 HEAD_JOINT1:0.982218,0.165422,-0.000000,0.088786 LARM_JOINT2:0.980420,0.000000,-0.196448,-0.013616 LARM_JOINT3:0.993490,0.000000,-0.096697,0.060228 LLEG_JOINT2:0.998076,0.029437,0.000000,0.054565 LLEG_JOINT4:0.994793,0.091700,0.000000,-0.044483 RARM_JOINT2:0.798749,0.000000,-0.092679,0.594483 RARM_JOINT3:0.962559,0.000000,0.212252,0.168609 RLEG_JOINT2:0.999698,0.021518,0.000000,-0.011865 RLEG_JOINT4:0.994840,0.098214,0.000000,0.025425 WAIST:0.999894,0.000000,-0.014376,-0.002348 WAIST_JOINT0:0.997669,0.000000,-0.067495,0.010101 WAIST_JOINT1:0.997884,0.062188,0.000000,-0.018957 END:
KINECT_DATA_Sensor  AnkleLeft:0.083042,0.740056,-0.088039,-0.661566 AnkleRight:0.091495,0.670444,0.077776,0.732178 ElbowLeft:0.613926,-0.542970,0.257599,0.511781 ElbowRight:0.037311,0.834861,0.207159,0.508626 FootLeft:0.000000,0.000000,0.000000,0.000000 FootRight:0.000000,0.000000,0.000000,0.000000 HandLeft:0.651122,-0.110197,-0.298694,0.688970 HandRight:-0.050391,0.794738,-0.077864,0.599825 HandTipLeft:0.000000,0.000000,0.000000,0.000000 HandTipRight:0.000000,0.000000,0.000000,0.000000 Head:0.000000,0.000000,0.000000,0.000000 HipLeft:0.120864,-0.683195,0.702148,-0.160078 HipRight:-0.100259,0.680227,0.708893,-0.157195 KneeLeft:-0.016889,0.716857,-0.057502,-0.694640 KneeRight:0.005526,0.697201,0.025159,0.716412 Neck:0.065826,-0.025450,0.994596,-0.076142 ShoulderLeft:-0.024899,0.759524,-0.641520,0.104667 ShoulderRight:0.062923,0.773236,0.630989,-0.000774 SpineBase:0.013806,-0.018265,0.998965,-0.039291 SpineMid:0.039522,-0.019270,0.998279,-0.038808 SpineShoulder:0.065682,-0.022981,0.995973,-0.056532 ThumbLeft:0.000000,0.000000,0.000000,0.000000 ThumbRight:0.000000,0.000000,0.000000,0.000000 WristLeft:0.625751,-0.130447,-0.306672,0.705246 WristRight:-0.096019,0.792596,-0.034660,0.601140 END:
KINECT_DATA POSITION:7.268588,0.258275,-6.237495 HEAD_JOINT1:0.981777,0.167656,-0.000000,0.089469 LARM_JOINT2:0.980629,0.000000,-0.194516,-0.023024 LARM_JOINT3:0.993809,0.000000,-0.105836,0.033803 LLEG_JOINT2:0.998101,0.029766,0.000000,0.053937 LLEG_JOINT4:0.994857,0.091173,0.000000,-0.044131 RARM_JOINT2:0.797271,0.000000,-0.092463,0.596498 RARM_JOINT3:0.963992,0.000000,0.207405,0.166439 RLEG_JOINT2:0.999679,0.021643,0.000000,-0.013142 RLEG_JOINT4:0.994772,0.098460,0.000000,0.027104 WAIST:0.999874,0.000000,-0.015781,-0.001733 WAIST_JOINT0:0.997583,0.000000,-0.068689,0.010497 WAIST_JOINT1:0.997888,0.062029,0.000000,-0.019299 END:
KINECT_DATA_Sensor  AnkleLeft:0.085271,0.761324,-0.085642,-0.637009 AnkleRight:0.099594,0.736746,0.067935,0.665335 ElbowLeft:0.576072,-0.599437,0.320586,0.453917 ElbowRight:0.039420,0.836707,0.204373,0.506557 FootLeft:0.000000,0.000000,0.000000,0.000000 FootRight:0.000000,0.000000,0.000000,0.000000 HandLeft:0.628183,-0.150851,-0.293927,0.704441 HandRight:-0.039523,0.763636,-0.062344,0.641413 HandTipLeft:0.000000,0.000000,0.000000,0.000000 HandTipRight:0.000000,0.000000,0.000000,0.000000 Head:0.000000,0.000000,0.000000,0.000000 HipLeft:0.121516,-0.682609,0.702357,-0.161164 HipRight:-0.099270,0.680863,0.708555,-0.156591 KneeLeft:-0.016726,0.717810,-0.057708,-0.693641 KneeRight:0.005197,0.696226,0.025720,0.717343 Neck:0.067040,-0.025071,0.994540,-0.075942 ShoulderLeft:-0.025184,0.758900,-0.642182,0.105065 ShoulderRight:0.064261,0.772840,0.631338,0.000633 SpineBase:0.015171,-0.017831,0.998941,-0.039605 SpineMid:0.040828,-0.018843,0.998222,-0.039133 SpineShoulder:0.066906,-0.022612,0.995904,-0.056456 ThumbLeft:0.000000,0.000000,0.000000,0.000000 ThumbRight:0.000000,0.000000,0.000000,0.000000 WristLeft:0.611597,-0.147794,-0.276828,0.726273 WristRight:-0.090512,0.760274,-0.041381,0.641933 END:
KINECT_DATA POSITION:7.275064,0.254124,-6.301272 HEAD_JOINT1:0.981460,0.169783,-0.000000,0.088937 LARM_JOINT2:0.979171,0.000000,-0.197008,-0.049110 LARM_JOINT3:0.993590,0.000000,-0.107824,0.033969 LLEG_JOINT2:0.998121,0.029258,0.000000,0.053840 LLEG_JOINT4:0.994840,0.091077,0.000000,-0.044696 RARM_JOINT2:0.796021,0.000000,-0.092226,0.598201 RARM_JOINT3:0.964061,0.000000,0.209733,0.163093 RLEG_JOINT2:0.999672,0.021669,0.000000,-0.013626 RLEG_JOINT4:0.994571,0.100131,0.000000,0.028332 WAIST:0.999880,0.000000,-0.015398,-0.001362 WAIST_JOINT0:0.997475,0.000000,-0.070202,0.010751 WAIST_JOINT1:0.997885,0.062204,0.000000,-0.018855 END:
KINECT_DATA_Sensor  AnkleLeft:0.084797,0.759217,-0.085250,-0.639634 AnkleRight:0.099121,0.712920,0.071750,0.690487 ElbowLeft:0.567338,-0.600240,0.296648,0.479416 ElbowRight:0.040090,0.835913,0.201958,0.508779 FootLeft:0.000000,0.000000,0.000000,0.000000 FootRight:0.000000,0.000000,0.000000,0.000000 HandLeft:0.610786,-0.173164,-0.275175,0.721964 HandRight:-0.047765,0.714175,-0.066995,0.695115 HandTipLeft:0.000000,0.000000,0.000000,0.000000 HandTipRight:0.000000,0.000000,0.000000,0.000000 Head:0.000000,0.000000,0.000000,0.000000 HipLeft:0.121025,-0.682377,0.702655,-0.161215 HipRight:-0.099321,0.681062,0.708267,-0.156998 KneeLeft:-0.017253,0.717496,-0.057545,-0.693967 KneeRight:0.005132,0.696520,0.025825,0.717054 Neck:0.068564,-0.024241,0.994440,-0.076157 ShoulderLeft:-0.025468,0.758210,-0.642864,0.105808 ShoulderRight:0.065986,0.772379,0.631722,0.002132 SpineBase:0.014768,-0.017497,0.998940,-0.039942 SpineMid:0.041378,-0.018555,0.998192,-0.039461 SpineShoulder:0.068427,-0.021999,0.995807,-0.056597 ThumbLeft:0.000000,0.000000,0.000000,0.000000 ThumbRight:0.000000,0.000000,0.000000,0.000000 WristLeft:0.603725,-0.166516,-0.260177,0.734912 WristRight:-0.086488,0.711376,-0.048567,0.695777 END:
KINECT_DATA POSITION:7.283331,0.246132,-6.317103 HEAD_JOINT1:0.981277,0.171361,-0.000000,0.087922 LARM_JOINT2:0.977700,0.000000,-0.199114,-0.066753 LARM_JOINT3:0.993233,0.000000,-0.106998,0.045151 LLEG_JOINT2:0.998123,0.029467,0.000000,0.053686 LLEG_JOINT4:0.995026,0.089187,0.000000,-0.044367 RARM_JOINT2:0.796203,0.000000,-0.092330,0.597944 RARM_JOINT3:0.963836,0.000000,0.213848,0.159028 RLEG_JOINT2:0.999670,0.021487,0.000000,-0.014097 RLEG_JOINT4:0.994850,0.097864,0.000000,0.026369 WAIST:0.999886,0.000000,-0.015040,-0.001165 WAIST_JOINT0:0.997512,0.000000,-0.069669,0.010786 WAIST_JOINT1:0.997861,0.062721,0.000000,-0.018426 END:
KINECT_DATA_Sensor  AnkleLeft:0.084423,0.767521,-0.083297,-0.629957 AnkleRight:0.098828,0.742903,0.067557,0.658608 ElbowLeft:0.565950,-0.590920,0.269840,0.507642 ElbowRight:0.040654,0.836002,0.202010,0.508566 FootLeft:0.000000,0.000000,0.000000,0.000000 FootRight:0.000000,0.000000,0.000000,0.000000 HandLeft:0.606907,-0.151089,-0.293475,0.722985 HandRight:-0.089589,0.886044,-0.040653,0.453043 HandTipLeft:0.000000,0.000000,0.000000,0.000000 HandTipRight:0.000000,0.000000,0.000000,0.000000 Head:0.000000,0.000000,0.000000,0.000000 HipLeft:0.120576,-0.682236,0.702865,-0.161235 HipRight:-0.099401,0.681117,0.708126,-0.157345 KneeLeft:-0.017114,0.717242,-0.057733,-0.694218 KneeRight:0.004804,0.696795,0.025900,0.716787 Neck:0.068061,-0.023536,0.994440,-0.076834 ShoulderLeft:-0.024678,0.757871,-0.643306,0.105732 ShoulderRight:0.066132,0.772047,0.632114,0.001364 SpineBase:0.014401,-0.017226,0.998938,-0.040224 SpineMid:0.040937,-0.018288,0.998203,-0.039753 SpineShoulder:0.067922,-0.021444,0.995825,-0.057091 ThumbLeft:0.000000,0.000000,0.000000,0.000000 ThumbRight:0.000000,0.000000,0.000000,0.000000 WristLeft:0.589974,-0.147756,-0.275216,0.744550 WristRight:-0.096180,0.885256,-0.020563,0.454586 END:
KINECT_DATA POSITION:7.285748,0.238657,-6.319714 HEAD_JOINT1:0.981548,0.172162,-0.000000,0.083215 LARM_JOINT2:0.976721,0.000000,-0.202102,-0.071915 LARM_JOINT3:0.990837,0.000000,-0.115897,0.069351 LLEG_JOINT2:0.998170,0.029165,0.000000,0.052964 LLEG_JOINT4:0.995247,0.087098,0.000000,-0.043551 RARM_JOINT2:0.797285,0.000000,-0.091361,0.596649 RARM_JOINT3:0.962658,0.000000,0.219341,0.158677 RLEG_JOINT2:0.999708,0.019570,0.000000,-0.014143 RLEG_JOINT4:0.994582,0.100269,0.000000,0.027425 WAIST:0.999913,0.000000,-0.013135,-0.000928 WAIST_JOINT0:0.997721,0.000000,-0.066578,0.010974 WAIST_JOINT1:0.997775,0.064392,0.000000,-0.017285 END:
KINECT_DATA_Sensor  AnkleLeft:0.079170,0.740389,-0.085134,-0.662048 AnkleRight:0.098993,0.735404,0.068414,0.666859 ElbowLeft:0.567693,-0.583786,0.257395,0.520256 ElbowRight:0.040096,0.835004,0.203077,0.509824 FootLeft:0.000000,0.000000,0.000000,0.000000 FootRight:0.000000,0.000000,0.000000,0.000000 HandLeft:0.634757,-0.145550,-0.336136,0.680377 HandRight:-0.108431,0.910343,-0.047072,0.396614 HandTipLeft:0.000000,0.000000,0.000000,0.000000 HandTipRight:0.000000,0.000000,0.000000,0.000000 Head:0.000000,0.000000,0.000000,0.000000 HipLeft:0.118563,-0.682209,0.703289,-0.160989 HipRight:-0.099994,0.681014,0.707786,-0.158934 KneeLeft:-0.016868,0.715890,-0.057213,-0.695661 KneeRight:0.003518,0.698227,0.024438,0.715450 Neck:0.064909,-0.022179,0.994536,-0.078698 ShoulderLeft:-0.020861,0.757949,-0.643598,0.104204 ShoulderRight:0.065812,0.772262,0.631883,-0.001916 SpineBase:0.012497,-0.016471,0.998935,-0.041255 SpineMid:0.038409,-0.017536,0.998274,-0.040814 SpineShoulder:0.064783,-0.020202,0.995963,-0.058752 ThumbLeft:0.000000,0.000000,0.000000,0.000000 ThumbRight:0.000000,0.000000,0.000000,0.000000 WristLeft:0.585821,-0.142945,-0.287170,0.744254 WristRight:-0.097987,0.911055,-0.013216,0.400253 END:
