EastLYD/RoboCupatHomeSim/InteractiveCleanUp/JapanOpen2016/Motion_Data/File12.dat
KINECT_DATA POSITION:0.571621,-1.012322,-1.288319 HEAD_JOINT1:0.971314,0.194872,-0.000000,0.136287 LARM_JOINT2:0.836474,0.000000,-0.002809,-0.548000 LARM_JOINT3:0.964736,0.000000,-0.177070,-0.194757 LLEG_JOINT2:0.998495,0.025273,0.000000,0.048681 LLEG_JOINT4:0.995426,0.086594,0.000000,-0.040356 RARM_JOINT2:0.780337,0.000000,-0.010306,0.625274 RARM_JOINT3:0.956516,0.000000,0.240558,0.164949 RLEG_JOINT2:0.999497,0.014776,0.000000,-0.028055 RLEG_JOINT4:0.995098,0.094970,0.000000,0.027580 WAIST:0.999601,0.000000,-0.028182,-0.001633 WAIST_JOINT0:0.998876,0.000000,-0.047365,0.001683 WAIST_JOINT1:0.996131,0.085730,0.000000,-0.019333 END:
KINECT_DATA_Sensor  AnkleLeft:0.073377,0.730596,-0.084319,-0.673599 AnkleRight:0.083574,0.730575,0.070893,0.673980 ElbowLeft:-0.001903,0.918798,-0.199997,-0.340305 ElbowRight:0.016714,0.833856,0.159099,0.528292 FootLeft:0.000000,0.000000,0.000000,0.000000 FootRight:0.000000,0.000000,0.000000,0.000000 HandLeft:-0.017873,-0.657658,-0.079239,0.748925 HandRight:0.180440,-0.486333,-0.045988,0.853702 HandTipLeft:0.000000,0.000000,0.000000,0.000000 HandTipRight:0.000000,0.000000,0.000000,0.000000 Head:0.000000,0.000000,0.000000,0.000000 HipLeft:0.124343,-0.675080,0.701898,-0.190116 HipRight:-0.087949,0.677267,0.710045,-0.171495 KneeLeft:-0.016861,0.725812,-0.050656,-0.685819 KneeRight:-0.009627,0.687867,0.031710,0.725080 Neck:0.046267,-0.021908,0.993452,-0.102144 ShoulderLeft:0.004104,0.774878,-0.622909,0.107383 ShoulderRight:0.065763,0.776752,0.625481,-0.033241 SpineBase:0.027253,-0.015877,0.997649,-0.060846 SpineMid:0.036634,-0.016448,0.997348,-0.060694 SpineShoulder:0.046212,-0.019506,0.995480,-0.080648 ThumbLeft:0.000000,0.000000,0.000000,0.000000 ThumbRight:0.000000,0.000000,0.000000,0.000000 WristLeft:0.055058,-0.648733,-0.085929,0.754142 WristRight:0.078979,-0.493867,-0.134183,0.855484 END:
KINECT_DATA POSITION:0.573441,-1.013527,-1.283944 HEAD_JOINT1:0.971446,0.194128,-0.000000,0.136410 LARM_JOINT2:0.836561,0.000000,-0.004818,-0.547852 LARM_JOINT3:0.965045,0.000000,-0.174686,-0.195380 LLEG_JOINT2:0.998462,0.026328,0.000000,0.048787 LLEG_JOINT4:0.995607,0.085037,0.000000,-0.039173 RARM_JOINT2:0.780559,0.000000,-0.011754,0.624971 RARM_JOINT3:0.957897,0.000000,0.238666,0.159599 RLEG_JOINT2:0.999510,0.014529,0.000000,-0.027720 RLEG_JOINT4:0.995165,0.094889,0.000000,0.025345 WAIST:0.999607,0.000000,-0.027989,-0.001541 WAIST_JOINT0:0.998909,0.000000,-0.046653,0.002037 WAIST_JOINT1:0.996146,0.085573,0.000000,-0.019270 END:
KINECT_DATA_Sensor  AnkleLeft:0.072043,0.730470,-0.084924,-0.673803 AnkleRight:0.080565,0.715849,0.073891,0.689645 ElbowLeft:-0.003632,0.918896,-0.199508,-0.340314 ElbowRight:0.017104,0.832767,0.159796,0.529785 FootLeft:0.000000,0.000000,0.000000,0.000000 FootRight:0.000000,0.000000,0.000000,0.000000 HandLeft:-0.032268,-0.581507,-0.066402,0.810185 HandRight:0.154700,-0.499401,-0.042541,0.851385 HandTipLeft:0.000000,0.000000,0.000000,0.000000 HandTipRight:0.000000,0.000000,0.000000,0.000000 Head:0.000000,0.000000,0.000000,0.000000 HipLeft:0.124362,-0.675057,0.701949,-0.189998 HipRight:-0.088189,0.677306,0.709947,-0.171622 KneeLeft:-0.016264,0.725712,-0.051564,-0.685871 KneeRight:-0.009518,0.688019,0.031231,0.724958 Neck:0.045607,-0.021643,0.993507,-0.101956 ShoulderLeft:0.003591,0.774902,-0.622876,0.107427 ShoulderRight:0.064381,0.777099,0.625137,-0.034306 SpineBase:0.027052,-0.015867,0.997660,-0.060752 SpineMid:0.036195,-0.016424,0.997370,-0.060604 SpineShoulder:0.045541,-0.019358,0.995525,-0.080510 ThumbLeft:0.000000,0.000000,0.000000,0.000000 ThumbRight:0.000000,0.000000,0.000000,0.000000 WristLeft:0.047236,-0.572921,-0.093300,0.812912 WristRight:0.080808,-0.505976,-0.133908,0.848249 END:
KINECT_DATA POSITION:0.563150,-1.012543,-1.292133 HEAD_JOINT1:0.971516,0.193454,-0.000000,0.136869 LARM_JOINT2:0.836826,0.000000,-0.006363,-0.547432 LARM_JOINT3:0.965077,0.000000,-0.173493,-0.196284 LLEG_JOINT2:0.998467,0.026148,0.000000,0.048778 LLEG_JOINT4:0.995710,0.084253,0.000000,-0.038240 RARM_JOINT2:0.782325,0.000000,-0.017796,0.622616 RARM_JOINT3:0.956964,0.000000,0.242052,0.160098 RLEG_JOINT2:0.999504,0.014529,0.000000,-0.027957 RLEG_JOINT4:0.995245,0.093741,0.000000,0.026442 WAIST:0.999613,0.000000,-0.027770,-0.001537 WAIST_JOINT0:0.999054,0.000000,-0.043402,0.002807 WAIST_JOINT1:0.996142,0.085633,0.000000,-0.019190 END:
KINECT_DATA_Sensor  AnkleLeft:0.070541,0.728970,-0.085029,-0.675572 AnkleRight:0.082670,0.739236,0.069723,0.664707 ElbowLeft:-0.004479,0.919668,-0.199500,-0.338216 ElbowRight:0.019839,0.832141,0.164541,0.529220 FootLeft:0.000000,0.000000,0.000000,0.000000 FootRight:0.000000,0.000000,0.000000,0.000000 HandLeft:-0.026755,-0.676608,-0.069662,0.732552 HandRight:0.138479,-0.471163,-0.056749,0.869257 HandTipLeft:0.000000,0.000000,0.000000,0.000000 HandTipRight:0.000000,0.000000,0.000000,0.000000 Head:0.000000,0.000000,0.000000,0.000000 HipLeft:0.124098,-0.675109,0.701992,-0.189829 HipRight:-0.088105,0.677291,0.709945,-0.171734 KneeLeft:-0.016374,0.725547,-0.051433,-0.686052 KneeRight:-0.009683,0.688185,0.031398,0.724791 Neck:0.042394,-0.021212,0.993645,-0.102090 ShoulderLeft:0.003175,0.775026,-0.622797,0.107001 ShoulderRight:0.059820,0.778208,0.623948,-0.038779 SpineBase:0.026825,-0.015985,0.997658,-0.060852 SpineMid:0.034465,-0.016450,0.997423,-0.060728 SpineShoulder:0.042312,-0.019067,0.995664,-0.080618 ThumbLeft:0.000000,0.000000,0.000000,0.000000 ThumbRight:0.000000,0.000000,0.000000,0.000000 WristLeft:0.058055,-0.666201,-0.087125,0.738387 WristRight:0.076010,-0.477225,-0.136374,0.864801 END:
KINECT_DATA POSITION:0.553325,-1.021270,-1.272833 HEAD_JOINT1:0.971660,0.192811,-0.000000,0.136750 LARM_JOINT2:0.837173,0.000000,-0.006604,-0.546899 LARM_JOINT3:0.964637,0.000000,-0.174673,-0.197393 LLEG_JOINT2:0.998461,0.026417,0.000000,0.048764 LLEG_JOINT4:0.995384,0.088146,0.000000,-0.037972 RARM_JOINT2:0.781175,0.000000,-0.013455,0.624167 RARM_JOINT3:0.957877,0.000000,0.240170,0.157447 RLEG_JOINT2:0.999496,0.014549,0.000000,-0.028228 RLEG_JOINT4:0.995327,0.092967,0.000000,0.026107 WAIST:0.999616,0.000000,-0.027663,-0.001447 WAIST_JOINT0:0.998923,0.000000,-0.046325,0.002574 WAIST_JOINT1:0.996135,0.085732,0.000000,-0.019122 END:
KINECT_DATA_Sensor  AnkleLeft:0.073442,0.730176,-0.088030,-0.673573 AnkleRight:0.076314,0.687604,0.075588,0.718097 ElbowLeft:-0.004600,0.920007,-0.200163,-0.336900 ElbowRight:0.017773,0.832101,0.161202,0.530383 FootLeft:0.000000,0.000000,0.000000,0.000000 FootRight:0.000000,0.000000,0.000000,0.000000 HandLeft:-0.034616,-0.570870,-0.070196,0.817302 HandRight:0.147482,-0.515237,-0.048705,0.842857 HandTipLeft:0.000000,0.000000,0.000000,0.000000 HandTipRight:0.000000,0.000000,0.000000,0.000000 Head:0.000000,0.000000,0.000000,0.000000 HipLeft:0.124048,-0.675047,0.702059,-0.189833 HipRight:-0.088178,0.677321,0.709877,-0.171859 KneeLeft:-0.016235,0.725476,-0.051685,-0.686112 KneeRight:-0.009795,0.688267,0.031546,0.724705 Neck:0.045275,-0.021307,0.993507,-0.102176 ShoulderLeft:0.003484,0.774998,-0.622733,0.107561 ShoulderRight:0.063819,0.777708,0.624403,-0.034898 SpineBase:0.026709,-0.015945,0.997659,-0.060898 SpineMid:0.035839,-0.016502,0.997373,-0.060749 SpineShoulder:0.045195,-0.019181,0.995533,-0.080642 ThumbLeft:0.000000,0.000000,0.000000,0.000000 ThumbRight:0.000000,0.000000,0.000000,0.000000 WristLeft:0.045735,-0.562012,-0.094253,0.820468 WristRight:0.082186,-0.521500,-0.132349,0.838909 END:
KINECT_DATA POSITION:0.558810,-1.033379,-1.256227 HEAD_JOINT1:0.971668,0.192776,-0.000000,0.136746 LARM_JOINT2:0.837051,0.000000,-0.006926,-0.547081 LARM_JOINT3:0.965675,0.000000,-0.169058,-0.197208 LLEG_JOINT2:0.998502,0.026179,0.000000,0.048044 LLEG_JOINT4:0.995471,0.085785,0.000000,-0.040962 RARM_JOINT2:0.780851,0.000000,-0.011858,0.624604 RARM_JOINT3:0.959610,0.000000,0.234158,0.155947 RLEG_JOINT2:0.999472,0.014754,0.000000,-0.028943 RLEG_JOINT4:0.995231,0.094022,0.000000,0.025984 WAIST:0.999623,0.000000,-0.027446,-0.001067 WAIST_JOINT0:0.998860,0.000000,-0.047663,0.002458 WAIST_JOINT1:0.996104,0.086083,0.000000,-0.019127 END:
KINECT_DATA_Sensor  AnkleLeft:0.074063,0.730600,-0.083813,-0.673582 AnkleRight:0.081792,0.733262,0.071584,0.671203 ElbowLeft:-0.004533,0.919908,-0.200332,-0.337069 ElbowRight:0.017202,0.831744,0.160014,0.531321 FootLeft:0.000000,0.000000,0.000000,0.000000 FootRight:0.000000,0.000000,0.000000,0.000000 HandLeft:-0.042081,-0.613625,-0.051847,0.786769 HandRight:0.138098,-0.533928,-0.025708,0.833780 HandTipLeft:0.000000,0.000000,0.000000,0.000000 HandTipRight:0.000000,0.000000,0.000000,0.000000 Head:0.000000,0.000000,0.000000,0.000000 HipLeft:0.123795,-0.674842,0.702316,-0.189777 HipRight:-0.088237,0.677567,0.709583,-0.172074 KneeLeft:-0.016137,0.725299,-0.051288,-0.686331 KneeRight:-0.009874,0.688441,0.031936,0.724522 Neck:0.046597,-0.020985,0.993410,-0.102594 ShoulderLeft:0.003896,0.774901,-0.622782,0.107964 ShoulderRight:0.065902,0.777427,0.624625,-0.033294 SpineBase:0.026457,-0.015748,0.997661,-0.061025 SpineMid:0.036364,-0.016354,0.997349,-0.060866 SpineShoulder:0.046511,-0.018991,0.995453,-0.080935 ThumbLeft:0.000000,0.000000,0.000000,0.000000 ThumbRight:0.000000,0.000000,0.000000,0.000000 WristLeft:0.050816,-0.604077,-0.091101,0.790069 WristRight:0.084125,-0.539672,-0.130367,0.827455 END:
KINECT_DATA POSITION:0.579344,-1.050799,-1.186168 HEAD_JOINT1:0.971803,0.192197,-0.000000,0.136599 LARM_JOINT2:0.836888,0.000000,-0.006915,-0.547331 LARM_JOINT3:0.964917,0.000000,-0.175754,-0.195054 LLEG_JOINT2:0.998523,0.026963,0.000000,0.047166 LLEG_JOINT4:0.995641,0.084527,0.000000,-0.039421 RARM_JOINT2:0.781925,0.000000,-0.005949,0.623344 RARM_JOINT3:0.954070,0.000000,0.258538,0.151354 RLEG_JOINT2:0.999446,0.015058,0.000000,-0.029682 RLEG_JOINT4:0.995063,0.095541,0.000000,0.026860 WAIST:0.999635,0.000000,-0.026991,-0.000666 WAIST_JOINT0:0.998972,0.000000,-0.045240,0.002952 WAIST_JOINT1:0.996127,0.085768,0.000000,-0.019358 END:
KINECT_DATA_Sensor  AnkleLeft:0.072904,0.729503,-0.084297,-0.674837 AnkleRight:0.084312,0.740714,0.071429,0.662670 ElbowLeft:-0.004902,0.919314,-0.200104,-0.338814 ElbowRight:0.012048,0.832202,0.158886,0.531084 FootLeft:0.000000,0.000000,0.000000,0.000000 FootRight:0.000000,0.000000,0.000000,0.000000 HandLeft:-0.026326,-0.574764,-0.068976,0.814982 HandRight:0.169142,-0.428255,-0.139258,0.876696 HandTipLeft:0.000000,0.000000,0.000000,0.000000 HandTipRight:0.000000,0.000000,0.000000,0.000000 Head:0.000000,0.000000,0.000000,0.000000 HipLeft:0.124118,-0.674718,0.702551,-0.189137 HipRight:-0.089147,0.677839,0.709238,-0.171955 KneeLeft:-0.015215,0.725019,-0.051545,-0.686629 KneeRight:-0.009892,0.688764,0.032394,0.724194 Neck:0.044231,-0.020717,0.993552,-0.102314 ShoulderLeft:0.003441,0.775242,-0.622470,0.107329 ShoulderRight:0.062374,0.778320,0.623708,-0.036275 SpineBase:0.025983,-0.015538,0.997723,-0.060267 SpineMid:0.034949,-0.016079,0.997449,-0.060125 SpineShoulder:0.044147,-0.018696,0.995588,-0.080658 ThumbLeft:0.000000,0.000000,0.000000,0.000000 ThumbRight:0.000000,0.000000,0.000000,0.000000 WristLeft:0.047190,-0.566809,-0.094244,0.817080 WristRight:0.069807,-0.441606,-0.143996,0.882823 END:
KINECT_DATA POSITION:0.700171,-1.082729,-0.978088 HEAD_JOINT1:0.972567,0.191028,-0.000000,0.132750 LARM_JOINT2:0.835806,0.000000,-0.007305,-0.548977 LARM_JOINT3:0.966228,0.000000,-0.169541,-0.194062 LLEG_JOINT2:0.998590,0.028244,0.000000,0.044944 LLEG_JOINT4:0.995825,0.083827,0.000000,-0.036139 RARM_JOINT2:0.782260,0.000000,0.015176,0.622767 RARM_JOINT3:0.952402,0.000000,0.275717,0.130039 RLEG_JOINT2:0.999336,0.017083,0.000000,-0.032181 RLEG_JOINT4:0.995186,0.093449,0.000000,0.029534 WAIST:0.999701,0.000000,-0.024455,-0.000068 WAIST_JOINT0:0.999117,0.000000,-0.041820,0.004123 WAIST_JOINT1:0.996283,0.084030,0.000000,-0.018944 END:
KINECT_DATA_Sensor  AnkleLeft:0.072344,0.727803,-0.085713,-0.676551 AnkleRight:0.078919,0.689843,0.077225,0.715490 ElbowLeft:-0.006106,0.918052,-0.198472,-0.343150 ElbowRight:-0.004869,0.831699,0.149315,0.534751 FootLeft:0.000000,0.000000,0.000000,0.000000 FootRight:0.000000,0.000000,0.000000,0.000000 HandLeft:-0.032310,-0.654605,-0.050662,0.753579 HandRight:0.178827,-0.496897,-0.200169,0.825256 HandTipLeft:0.000000,0.000000,0.000000,0.000000 HandTipRight:0.000000,0.000000,0.000000,0.000000 Head:0.000000,0.000000,0.000000,0.000000 HipLeft:0.124397,-0.674981,0.702905,-0.186683 HipRight:-0.093207,0.678348,0.708312,-0.171612 KneeLeft:-0.013003,0.723435,-0.051404,-0.688354 KneeRight:-0.009806,0.690428,0.035151,0.722480 Neck:0.040752,-0.019773,0.993964,-0.099917 ShoulderLeft:0.004984,0.775840,-0.622391,0.103329 ShoulderRight:0.059291,0.779836,0.622035,-0.037595 SpineBase:0.023540,-0.013892,0.997972,-0.057494 SpineMid:0.032033,-0.014381,0.997735,-0.057373 SpineShoulder:0.040668,-0.017869,0.995877,-0.079099 ThumbLeft:0.000000,0.000000,0.000000,0.000000 ThumbRight:0.000000,0.000000,0.000000,0.000000 WristLeft:0.058198,-0.644864,-0.090275,0.756712 WristRight:0.090632,-0.515224,-0.154344,0.838157 END:
KINECT_DATA POSITION:0.797340,-1.085143,-0.841975 HEAD_JOINT1:0.973900,0.188771,-0.000000,0.126035 LARM_JOINT2:0.833691,0.000000,-0.005499,-0.552204 LARM_JOINT3:0.967199,0.000000,-0.169035,-0.189613 LLEG_JOINT2:0.998627,0.029000,0.000000,0.043627 LLEG_JOINT4:0.995923,0.083618,0.000000,-0.033832 RARM_JOINT2:0.784399,0.000000,0.029155,0.619571 RARM_JOINT3:0.945724,0.000000,0.299606,0.125869 RLEG_JOINT2:0.999306,0.016459,0.000000,-0.033425 RLEG_JOINT4:0.994915,0.095941,0.000000,0.030660 WAIST:0.999751,0.000000,-0.022324,-0.000044 WAIST_JOINT0:0.999417,0.000000,-0.033528,0.006421 WAIST_JOINT1:0.996444,0.082336,0.000000,-0.017881 END:
KINECT_DATA_Sensor  AnkleLeft:0.071810,0.723445,-0.086982,-0.681105 AnkleRight:0.080421,0.694379,0.078353,0.710796 ElbowLeft:-0.006356,0.914483,-0.195985,-0.353936 ElbowRight:-0.018951,0.827604,0.144627,0.542028 FootLeft:0.000000,0.000000,0.000000,0.000000 FootRight:0.000000,0.000000,0.000000,0.000000 HandLeft:-0.037168,-0.593597,-0.040892,0.802863 HandRight:0.226935,-0.557020,-0.215132,0.769381 HandTipLeft:0.000000,0.000000,0.000000,0.000000 HandTipRight:0.000000,0.000000,0.000000,0.000000 Head:0.000000,0.000000,0.000000,0.000000 HipLeft:0.124169,-0.675442,0.703013,-0.184752 HipRight:-0.096148,0.678406,0.707930,-0.171335 KneeLeft:-0.011429,0.722095,-0.051086,-0.689810 KneeRight:-0.011179,0.691840,0.035582,0.721087 Neck:0.032290,-0.017840,0.994570,-0.097313 ShoulderLeft:0.008961,0.775177,-0.624262,0.096523 ShoulderRight:0.052263,0.781687,0.619932,-0.043801 SpineBase:0.021521,-0.012630,0.998143,-0.055573 SpineMid:0.026811,-0.012925,0.998015,-0.055505 SpineShoulder:0.032157,-0.016605,0.996313,-0.077786 ThumbLeft:0.000000,0.000000,0.000000,0.000000 ThumbRight:0.000000,0.000000,0.000000,0.000000 WristLeft:0.054435,-0.585301,-0.094838,0.803409 WristRight:0.121745,-0.580951,-0.168914,0.786856 END:
KINECT_DATA POSITION:0.889085,-1.097839,-0.742233 HEAD_JOINT1:0.975018,0.187167,-0.000000,0.119615 LARM_JOINT2:0.831424,0.000000,-0.002263,-0.555634 LARM_JOINT3:0.966990,0.000000,-0.173706,-0.186433 LLEG_JOINT2:0.998662,0.030540,0.000000,0.041742 LLEG_JOINT4:0.996100,0.081833,0.000000,-0.032984 RARM_JOINT2:0.786388,0.000000,0.107559,0.608297 RARM_JOINT3:0.950315,0.000000,0.301858,0.076052 RLEG_JOINT2:0.999255,0.016931,0.000000,-0.034674 RLEG_JOINT4:0.994801,0.096529,0.000000,0.032452 WAIST:0.999748,0.000000,-0.022455,-0.000015 WAIST_JOINT0:0.999597,0.000000,-0.027091,0.008509 WAIST_JOINT1:0.996913,0.076728,0.000000,-0.016639 END:
KINECT_DATA_Sensor  AnkleLeft:0.071861,0.719895,-0.086526,-0.684909 AnkleRight:0.085575,0.730117,0.074283,0.673861 ElbowLeft:-0.008423,0.913338,-0.192401,-0.358782 ElbowRight:-0.080105,0.820697,0.110070,0.554909 FootLeft:0.000000,0.000000,0.000000,0.000000 FootRight:0.000000,0.000000,0.000000,0.000000 HandLeft:-0.017499,-0.615850,-0.066212,0.784881 HandRight:0.173371,-0.413955,-0.300453,0.841613 HandTipLeft:0.000000,0.000000,0.000000,0.000000 HandTipRight:0.000000,0.000000,0.000000,0.000000 Head:0.000000,0.000000,0.000000,0.000000 HipLeft:0.125421,-0.675668,0.702842,-0.183726 HipRight:-0.097679,0.678820,0.707735,-0.169626 KneeLeft:-0.009022,0.722316,-0.050917,-0.689628 KneeRight:-0.011678,0.691638,0.036791,0.721212 Neck:0.025957,-0.015431,0.995399,-0.090929 ShoulderLeft:0.006928,0.775635,-0.624691,0.090015 ShoulderRight:0.041755,0.784396,0.617053,-0.047173 SpineBase:0.021732,-0.011725,0.998267,-0.053422 SpineMid:0.023748,-0.011833,0.998221,-0.053398 SpineShoulder:0.025760,-0.015114,0.996917,-0.072551 ThumbLeft:0.000000,0.000000,0.000000,0.000000 ThumbRight:0.000000,0.000000,0.000000,0.000000 WristLeft:0.059177,-0.607105,-0.094488,0.786762 WristRight:0.111466,-0.435184,-0.248088,0.858279 END:
KINECT_DATA POSITION:0.993240,-1.096081,-0.659788 HEAD_JOINT1:0.976888,0.182018,-0.000000,0.112071 LARM_JOINT2:0.828846,0.000000,0.000533,-0.559477 LARM_JOINT3:0.967421,0.000000,-0.171155,-0.186553 LLEG_JOINT2:0.998742,0.031152,0.000000,0.039303 LLEG_JOINT4:0.996200,0.082350,0.000000,-0.028350 RARM_JOINT2:0.786430,0.000000,0.214212,0.579345 RARM_JOINT3:0.956331,0.000000,0.291540,0.020885 RLEG_JOINT2:0.999211,0.016941,0.000000,-0.035929 RLEG_JOINT4:0.994643,0.097382,0.000000,0.034683 WAIST:0.999760,0.000000,-0.021893,-0.000101 WAIST_JOINT0:0.999786,0.000000,-0.016312,0.012687 WAIST_JOINT1:0.997509,0.069291,0.000000,-0.013229 END:
KINECT_DATA_Sensor  AnkleLeft:0.070494,0.714301,-0.089319,-0.690526 AnkleRight:0.083795,0.703370,0.077529,0.701597 ElbowLeft:-0.012049,0.913405,-0.189316,-0.360146 ElbowRight:-0.159899,0.812399,0.056730,0.557872 FootLeft:0.000000,0.000000,0.000000,0.000000 FootRight:0.000000,0.000000,0.000000,0.000000 HandLeft:-0.013124,-0.656902,-0.068873,0.750709 HandRight:-0.048588,0.130495,-0.409245,0.901736 HandTipLeft:0.000000,0.000000,0.000000,0.000000 HandTipRight:0.000000,0.000000,0.000000,0.000000 Head:0.000000,0.000000,0.000000,0.000000 HipLeft:0.126663,-0.676423,0.702557,-0.181167 HipRight:-0.100301,0.679460,0.707410,-0.166871 KneeLeft:-0.006742,0.722069,-0.049616,-0.690006 KneeRight:-0.012625,0.691886,0.037758,0.720908 Neck:0.015238,-0.011098,0.996289,-0.083983 ShoulderLeft:0.001138,0.776206,-0.625076,0.082357 ShoulderRight:0.021669,0.789907,0.610283,-0.055966 SpineBase:0.021302,-0.010392,0.998479,-0.049784 SpineMid:0.018163,-0.010235,0.998541,-0.049817 SpineShoulder:0.015026,-0.011414,0.997705,-0.065026 ThumbLeft:0.000000,0.000000,0.000000,0.000000 ThumbRight:0.000000,0.000000,0.000000,0.000000 WristLeft:0.066237,-0.647080,-0.094247,0.753669 WristRight:-0.063695,0.122724,-0.344339,0.928608 END:
KINECT_DATA POSITION:1.171673,-1.081641,-0.577724 HEAD_JOINT1:0.978681,0.178132,-0.000000,0.102234 LARM_JOINT2:0.825208,0.000000,0.005474,-0.564803 LARM_JOINT3:0.968895,0.000000,-0.167898,-0.181802 LLEG_JOINT2:0.998863,0.031088,0.000000,0.036152 LLEG_JOINT4:0.996339,0.081963,0.000000,-0.024315 RARM_JOINT2:0.794064,0.000000,0.277017,0.541040 RARM_JOINT3:0.962036,0.000000,0.272643,-0.012381 RLEG_JOINT2:0.999094,0.017729,0.000000,-0.038684 RLEG_JOINT4:0.994524,0.097440,0.000000,0.037789 WAIST:0.999867,0.000000,-0.016308,0.000208 WAIST_JOINT0:0.999813,-0.000000,0.003663,0.019001 WAIST_JOINT1:0.997846,0.064815,0.000000,-0.010115 END:
KINECT_DATA_Sensor  AnkleLeft:0.068907,0.703555,-0.090158,-0.701522 AnkleRight:0.086493,0.725448,0.075772,0.678604 ElbowLeft:-0.013209,0.904829,-0.186440,-0.382558 ElbowRight:-0.217417,0.804528,0.030496,0.551846 FootLeft:0.000000,0.000000,0.000000,0.000000 FootRight:0.000000,0.000000,0.000000,0.000000 HandLeft:-0.031508,-0.581485,-0.045363,0.811680 HandRight:-0.039871,0.034226,-0.429996,0.901300 HandTipLeft:0.000000,0.000000,0.000000,0.000000 HandTipRight:0.000000,0.000000,0.000000,0.000000 Head:0.000000,0.000000,0.000000,0.000000 HipLeft:0.125855,-0.677505,0.702990,-0.175931 HipRight:-0.107577,0.679614,0.706177,-0.166933 KneeLeft:-0.004462,0.718322,-0.047632,-0.694064 KneeRight:-0.013970,0.695709,0.039995,0.717073 Neck:-0.004915,-0.007117,0.996750,-0.080087 ShoulderLeft:0.004077,0.776500,-0.626323,0.068927 ShoulderRight:-0.001707,0.796266,0.600490,-0.073273 SpineBase:0.015872,-0.008070,0.998818,-0.045236 SpineMid:0.005438,-0.007597,0.998929,-0.045318 SpineShoulder:-0.005106,-0.007569,0.998136,-0.060338 ThumbLeft:0.000000,0.000000,0.000000,0.000000 ThumbRight:0.000000,0.000000,0.000000,0.000000 WristLeft:0.064896,-0.572123,-0.102124,0.811193 WristRight:-0.041700,0.032406,-0.397522,0.916072 END:
KINECT_DATA POSITION:1.269189,-1.046580,-0.527501 HEAD_JOINT1:0.979699,0.176625,-0.000000,0.094830 LARM_JOINT2:0.823811,0.000000,0.007145,-0.566819 LARM_JOINT3:0.968625,0.000000,-0.171165,-0.180190 LLEG_JOINT2:0.998921,0.030555,0.000000,0.034976 LLEG_JOINT4:0.996440,0.081091,0.000000,-0.023041 RARM_JOINT2:0.798305,0.000000,0.298224,0.523232 RARM_JOINT3:0.964643,0.000000,0.262490,-0.023715 RLEG_JOINT2:0.999063,0.017616,0.000000,-0.039520 RLEG_JOINT4:0.994444,0.098232,0.000000,0.037825 WAIST:0.999916,0.000000,-0.012984,-0.000018 WAIST_JOINT0:0.999728,-0.000000,0.013119,0.019274 WAIST_JOINT1:0.997991,0.062799,0.000000,-0.008424 END:
KINECT_DATA_Sensor  AnkleLeft:-0.067944,-0.698406,0.089131,0.706872 AnkleRight:0.085132,0.719300,0.078305,0.685002 ElbowLeft:-0.013431,0.902010,-0.185323,-0.389684 ElbowRight:-0.240307,0.794909,0.019493,0.556770 FootLeft:0.000000,0.000000,0.000000,0.000000 FootRight:0.000000,0.000000,0.000000,0.000000 HandLeft:-0.021157,-0.616786,-0.060230,0.784538 HandRight:-0.049548,0.026207,-0.414402,0.908366 HandTipLeft:0.000000,0.000000,0.000000,0.000000 HandTipRight:0.000000,0.000000,0.000000,0.000000 Head:0.000000,0.000000,0.000000,0.000000 HipLeft:0.125363,-0.678393,0.702968,-0.172925 HipRight:-0.111629,0.679475,0.705693,-0.166886 KneeLeft:-0.003673,0.716079,-0.046284,-0.696474 KneeRight:-0.014932,0.697977,0.040628,0.714811 Neck:-0.014316,-0.005592,0.996820,-0.078190 ShoulderLeft:0.005205,0.776664,-0.626738,0.062978 ShoulderRight:-0.012893,0.796342,0.599122,-0.082012 SpineBase:0.012656,-0.006909,0.998986,-0.042646 SpineMid:-0.000831,-0.006333,0.999066,-0.042736 SpineShoulder:-0.014490,-0.005993,0.998180,-0.058232 ThumbLeft:0.000000,0.000000,0.000000,0.000000 ThumbRight:0.000000,0.000000,0.000000,0.000000 WristLeft:0.071685,-0.605829,-0.098673,0.786191 WristRight:-0.046982,0.027721,-0.423507,0.904249 END:
KINECT_DATA POSITION:1.323468,-1.019634,-0.517273 HEAD_JOINT1:0.980066,0.176077,-0.000000,0.092018 LARM_JOINT2:0.823041,0.000000,0.005540,-0.567955 LARM_JOINT3:0.968507,0.000000,-0.176404,-0.175714 LLEG_JOINT2:0.998932,0.030546,0.000000,0.034663 LLEG_JOINT4:0.996275,0.083785,0.000000,-0.020381 RARM_JOINT2:0.804784,0.000000,0.333361,0.491114 RARM_JOINT3:0.966138,0.000000,0.254051,-0.045108 RLEG_JOINT2:0.999051,0.018074,0.000000,-0.039640 RLEG_JOINT4:0.994459,0.097912,0.000000,0.038258 WAIST:0.999938,0.000000,-0.011107,-0.000405 WAIST_JOINT0:0.999627,-0.000000,0.018164,0.020384 WAIST_JOINT1:0.998041,0.062122,0.000000,-0.007434 END:
KINECT_DATA_Sensor  AnkleLeft:-0.068368,-0.695630,0.092410,0.709143 AnkleRight:0.086885,0.736634,0.076552,0.666304 ElbowLeft:-0.014608,0.901378,-0.183822,-0.391808 ElbowRight:-0.277128,0.791757,0.010202,0.544258 FootLeft:0.000000,0.000000,0.000000,0.000000 FootRight:0.000000,0.000000,0.000000,0.000000 HandLeft:0.002047,-0.590580,-0.073734,0.803601 HandRight:-0.106942,0.083167,-0.463104,0.875889 HandTipLeft:0.000000,0.000000,0.000000,0.000000 HandTipRight:0.000000,0.000000,0.000000,0.000000 Head:0.000000,0.000000,0.000000,0.000000 HipLeft:0.124905,-0.679246,0.702772,-0.170687 HipRight:-0.113663,0.679395,0.705569,-0.166357 KneeLeft:-0.003095,0.714819,-0.045792,-0.697802 KneeRight:-0.015039,0.699255,0.041278,0.713521 Neck:-0.019456,-0.005083,0.996774,-0.077699 ShoulderLeft:0.004614,0.776691,-0.626898,0.061066 ShoulderRight:-0.020224,0.797381,0.596704,-0.087857 SpineBase:0.010847,-0.006486,0.999083,-0.040903 SpineMid:-0.004280,-0.005866,0.999133,-0.040996 SpineShoulder:-0.019611,-0.005280,0.998141,-0.057467 ThumbLeft:0.000000,0.000000,0.000000,0.000000 ThumbRight:0.000000,0.000000,0.000000,0.000000 WristLeft:0.069906,-0.582453,-0.101467,0.803471 WristRight:-0.089006,0.091556,-0.439231,0.889253 END:
KINECT_DATA POSITION:1.357835,-0.998959,-0.521433 HEAD_JOINT1:0.980343,0.174369,-0.000000,0.092325 LARM_JOINT2:0.823653,0.000000,0.004843,-0.567074 LARM_JOINT3:0.969069,0.000000,-0.174074,-0.174940 LLEG_JOINT2:0.998928,0.030913,0.000000,0.034454 LLEG_JOINT4:0.996277,0.083409,0.000000,-0.021774 RARM_JOINT2:0.810189,0.000000,0.351197,0.469312 RARM_JOINT3:0.967233,0.000000,0.248218,-0.053367 RLEG_JOINT2:0.999075,0.017945,0.000000,-0.039089 RLEG_JOINT4:0.994419,0.098408,0.000000,0.038026 WAIST:0.999943,0.000000,-0.010655,-0.000911 WAIST_JOINT0:0.999601,-0.000000,0.019930,0.020019 WAIST_JOINT1:0.998032,0.062318,0.000000,-0.006912 END:
KINECT_DATA_Sensor  AnkleLeft:-0.069799,-0.694335,0.091026,0.710451 AnkleRight:0.086810,0.735215,0.077185,0.667806 ElbowLeft:-0.014986,0.901883,-0.184653,-0.390237 ElbowRight:-0.299590,0.788093,0.008280,0.537668 FootLeft:0.000000,0.000000,0.000000,0.000000 FootRight:0.000000,0.000000,0.000000,0.000000 HandLeft:0.001929,-0.596476,-0.059278,0.800437 HandRight:-0.118664,0.078959,-0.474852,0.868447 HandTipLeft:0.000000,0.000000,0.000000,0.000000 HandTipRight:0.000000,0.000000,0.000000,0.000000 Head:0.000000,0.000000,0.000000,0.000000 HipLeft:0.124669,-0.679766,0.702465,-0.170055 HipRight:-0.114026,0.679172,0.705812,-0.165986 KneeLeft:-0.002309,0.714543,-0.045550,-0.698103 KneeRight:-0.015124,0.699541,0.041144,0.713246 Neck:-0.021178,-0.005129,0.996719,-0.077945 ShoulderLeft:0.004678,0.776860,-0.626720,0.060735 ShoulderRight:-0.022408,0.796917,0.596893,-0.090224 SpineBase:0.010442,-0.006436,0.999107,-0.040434 SpineMid:-0.005333,-0.005797,0.999147,-0.040531 SpineShoulder:-0.021323,-0.005164,0.998096,-0.057645 ThumbLeft:0.000000,0.000000,0.000000,0.000000 ThumbRight:0.000000,0.000000,0.000000,0.000000 WristLeft:0.070767,-0.589221,-0.101251,0.798473 WristRight:-0.096866,0.089694,-0.454478,0.880921 END:
KINECT_DATA POSITION:1.380176,-0.983307,-0.515640 HEAD_JOINT1:0.980377,0.173599,-0.000000,0.093403 LARM_JOINT2:0.824651,0.000000,0.004107,-0.565627 LARM_JOINT3:0.967877,0.000000,-0.178163,-0.177407 LLEG_JOINT2:0.998930,0.031385,0.000000,0.033965 LLEG_JOINT4:0.996583,0.079867,0.000000,-0.021073 RARM_JOINT2:0.816978,0.000000,0.375530,0.437635 RARM_JOINT3:0.973169,0.000000,0.223015,-0.056625 RLEG_JOINT2:0.999088,0.017989,0.000000,-0.038722 RLEG_JOINT4:0.994521,0.097652,0.000000,0.037318 WAIST:0.999947,0.000000,-0.010258,-0.001244 WAIST_JOINT0:0.999562,-0.000000,0.021963,0.019814 WAIST_JOINT1:0.998029,0.062413,0.000000,-0.006587 END:
KINECT_DATA_Sensor  AnkleLeft:-0.067690,-0.693456,0.088793,0.711796 AnkleRight:0.084476,0.724156,0.078709,0.679902 ElbowLeft:-0.015789,0.902276,-0.186017,-0.388647 ElbowRight:-0.331094,0.787809,0.008539,0.519290 FootLeft:0.000000,0.000000,0.000000,0.000000 FootRight:0.000000,0.000000,0.000000,0.000000 HandLeft:0.008958,-0.624429,-0.074807,0.777440 HandRight:-0.126556,0.039951,-0.487178,0.863160 HandTipLeft:0.000000,0.000000,0.000000,0.000000 HandTipRight:0.000000,0.000000,0.000000,0.000000 Head:0.000000,0.000000,0.000000,0.000000 HipLeft:0.124424,-0.680155,0.702261,-0.169518 HipRight:-0.114310,0.679057,0.705945,-0.165699 KneeLeft:-0.001375,0.714296,-0.045311,-0.698374 KneeRight:-0.015088,0.699800,0.041142,0.712994 Neck:-0.023189,-0.005117,0.996660,-0.078128 ShoulderLeft:0.004369,0.777006,-0.626567,0.060470 ShoulderRight:-0.025362,0.796618,0.596737,-0.093066 SpineBase:0.010078,-0.006358,0.999126,-0.040070 SpineMid:-0.006507,-0.005692,0.999156,-0.040170 SpineShoulder:-0.023329,-0.005067,0.998048,-0.057715 ThumbLeft:0.000000,0.000000,0.000000,0.000000 ThumbRight:0.000000,0.000000,0.000000,0.000000 WristLeft:0.074719,-0.616196,-0.099590,0.777690 WristRight:-0.095533,0.055504,-0.462509,0.879703 END:
KINECT_DATA POSITION:1.384582,-0.978415,-0.523794 HEAD_JOINT1:0.980503,0.172354,-0.000000,0.094377 LARM_JOINT2:0.825070,0.000000,0.003806,-0.565018 LARM_JOINT3:0.967087,0.000000,-0.177086,-0.182712 LLEG_JOINT2:0.998970,0.030593,0.000000,0.033523 LLEG_JOINT4:0.996715,0.079073,0.000000,-0.017509 RARM_JOINT2:0.820905,0.000000,0.386212,0.420660 RARM_JOINT3:0.970743,0.000000,0.227430,-0.077023 RLEG_JOINT2:0.999089,0.018640,0.000000,-0.038384 RLEG_JOINT4:0.994557,0.097607,0.000000,0.036464 WAIST:0.999951,0.000000,-0.009854,-0.001370 WAIST_JOINT0:0.999553,-0.000000,0.022781,0.019382 WAIST_JOINT1:0.998017,0.062630,0.000000,-0.006321 END:
KINECT_DATA_Sensor  AnkleLeft:-0.064480,-0.693539,0.089663,0.711904 AnkleRight:0.085887,0.736521,0.078088,0.666380 ElbowLeft:-0.015987,0.902298,-0.186796,-0.388214 ElbowRight:-0.347069,0.765836,-0.003966,0.541315 FootLeft:0.000000,0.000000,0.000000,0.000000 FootRight:0.000000,0.000000,0.000000,0.000000 HandLeft:-0.008465,-0.650273,-0.082152,0.755198 HandRight:-0.182452,0.111226,-0.492587,0.843622 HandTipLeft:0.000000,0.000000,0.000000,0.000000 HandTipRight:0.000000,0.000000,0.000000,0.000000 Head:0.000000,0.000000,0.000000,0.000000 HipLeft:0.124110,-0.680348,0.702222,-0.169140 HipRight:-0.114518,0.679006,0.705974,-0.165643 KneeLeft:-0.001509,0.714016,-0.044348,-0.698722 KneeRight:-0.014492,0.700083,0.041439,0.712711 Neck:-0.023970,-0.004996,0.996621,-0.078401 ShoulderLeft:0.004139,0.777201,-0.626313,0.060611 ShoulderRight:-0.026631,0.796224,0.596988,-0.094468 SpineBase:0.009690,-0.006254,0.999136,-0.039925 SpineMid:-0.007089,-0.005583,0.999158,-0.040024 SpineShoulder:-0.024107,-0.004911,0.998019,-0.057904 ThumbLeft:0.000000,0.000000,0.000000,0.000000 ThumbRight:0.000000,0.000000,0.000000,0.000000 WristLeft:0.077812,-0.637958,-0.097471,0.759904 WristRight:-0.151042,0.128409,-0.479284,0.854976 END:
KINECT_DATA POSITION:1.375680,-0.951529,-0.582314 HEAD_JOINT1:0.980495,0.171449,-0.000000,0.096094 LARM_JOINT2:0.824630,0.000000,0.003224,-0.565663 LARM_JOINT3:0.967996,0.000000,-0.174109,-0.180745 LLEG_JOINT2:0.998985,0.030532,0.000000,0.033128 LLEG_JOINT4:0.996751,0.078936,0.000000,-0.015996 RARM_JOINT2:0.822298,0.000000,0.395387,0.409262 RARM_JOINT3:0.971472,0.000000,0.221852,-0.083806 RLEG_JOINT2:0.999074,0.019083,0.000000,-0.038554 RLEG_JOINT4:0.994617,0.096659,0.000000,0.037349 WAIST:0.999965,0.000000,-0.008246,-0.001317 WAIST_JOINT0:0.999536,-0.000000,0.023953,0.018836 WAIST_JOINT1:0.998015,0.062649,0.000000,-0.006439 END:
KINECT_DATA_Sensor  AnkleLeft:-0.063708,-0.692994,0.090173,0.712440 AnkleRight:0.085736,0.736390,0.077477,0.666615 ElbowLeft:-0.016078,0.901131,-0.185848,-0.391363 ElbowRight:-0.357816,0.754468,-0.013898,0.550048 FootLeft:0.000000,0.000000,0.000000,0.000000 FootRight:0.000000,0.000000,0.000000,0.000000 HandLeft:-0.016176,-0.594278,-0.066379,0.801353 HandRight:-0.169372,0.089000,-0.499929,0.844667 HandTipLeft:0.000000,0.000000,0.000000,0.000000 HandTipRight:0.000000,0.000000,0.000000,0.000000 Head:0.000000,0.000000,0.000000,0.000000 HipLeft:0.123361,-0.680710,0.702348,-0.167701 HipRight:-0.115615,0.679024,0.705700,-0.165975 KneeLeft:-0.001236,0.712894,-0.044068,-0.699885 KneeRight:-0.014322,0.701225,0.041811,0.711569 Neck:-0.025177,-0.005254,0.996584,-0.078483 ShoulderLeft:0.004547,0.776906,-0.626728,0.060065 ShoulderRight:-0.027800,0.795336,0.597900,-0.095828 SpineBase:0.008085,-0.006255,0.999174,-0.039322 SpineMid:-0.008496,-0.005602,0.999171,-0.039421 SpineShoulder:-0.025313,-0.005080,0.997989,-0.057897 ThumbLeft:0.000000,0.000000,0.000000,0.000000 ThumbRight:0.000000,0.000000,0.000000,0.000000 WristLeft:0.071673,-0.583748,-0.103259,0.802147 WristRight:-0.146443,0.102090,-0.494669,0.850550 END:
KINECT_DATA POSITION:1.368415,-0.912475,-0.749540 HEAD_JOINT1:0.980099,0.172345,-0.000000,0.098501 LARM_JOINT2:0.825092,0.000000,0.005248,-0.564974 LARM_JOINT3:0.968958,0.000000,-0.169519,-0.179952 LLEG_JOINT2:0.999005,0.029828,0.000000,0.033160 LLEG_JOINT4:0.996897,0.077621,0.000000,-0.013117 RARM_JOINT2:0.823804,0.000000,0.409720,0.391760 RARM_JOINT3:0.975388,0.000000,0.204421,-0.082639 RLEG_JOINT2:0.999086,0.019918,0.000000,-0.037825 RLEG_JOINT4:0.994994,0.092658,0.000000,0.037446 WAIST:0.999972,0.000000,-0.007391,-0.001269 WAIST_JOINT0:0.999518,-0.000000,0.025412,0.017820 WAIST_JOINT1:0.998027,0.062368,0.000000,-0.007174 END:
KINECT_DATA_Sensor  AnkleLeft:-0.060276,-0.692762,0.090685,0.712898 AnkleRight:0.082591,0.726177,0.076220,0.678260 ElbowLeft:-0.015106,0.899824,-0.186546,-0.394066 ElbowRight:-0.374792,0.752312,-0.018788,0.541484 FootLeft:0.000000,0.000000,0.000000,0.000000 FootRight:0.000000,0.000000,0.000000,0.000000 HandLeft:-0.026869,-0.552520,-0.042882,0.831962 HandRight:-0.160644,0.056294,-0.500800,0.848660 HandTipLeft:0.000000,0.000000,0.000000,0.000000 HandTipRight:0.000000,0.000000,0.000000,0.000000 Head:0.000000,0.000000,0.000000,0.000000 HipLeft:0.123346,-0.680996,0.702309,-0.166710 HipRight:-0.116213,0.679094,0.705480,-0.166200 KneeLeft:-0.001751,0.712282,-0.043626,-0.700534 KneeRight:-0.013215,0.701862,0.041832,0.710961 Neck:-0.026507,-0.006053,0.996566,-0.078211 ShoulderLeft:0.004263,0.777085,-0.626549,0.059636 ShoulderRight:-0.029816,0.794062,0.599212,-0.097583 SpineBase:0.007206,-0.006836,0.999199,-0.038763 SpineMid:-0.009606,-0.006183,0.999179,-0.038872 SpineShoulder:-0.026652,-0.005777,0.997964,-0.057650 ThumbLeft:0.000000,0.000000,0.000000,0.000000 ThumbRight:0.000000,0.000000,0.000000,0.000000 WristLeft:0.067150,-0.544154,-0.105974,0.829552 WristRight:-0.135564,0.071402,-0.503860,0.850088 END:
KINECT_DATA POSITION:1.528528,-0.837452,-1.150346 HEAD_JOINT1:0.979338,0.176262,-0.000000,0.099140 LARM_JOINT2:0.824073,0.000000,0.004720,-0.566465 LARM_JOINT3:0.969364,0.000000,-0.170927,-0.176403 LLEG_JOINT2:0.999110,0.026974,0.000000,0.032430 LLEG_JOINT4:0.996385,0.083794,0.000000,-0.014002 RARM_JOINT2:0.825723,0.000000,0.418078,0.378672 RARM_JOINT3:0.974360,0.000000,0.208027,-0.085717 RLEG_JOINT2:0.999105,0.016606,0.000000,-0.038892 RLEG_JOINT4:0.994652,0.095540,0.000000,0.039227 WAIST:0.999950,0.000000,-0.009824,-0.001772 WAIST_JOINT0:0.999551,-0.000000,0.024915,0.016653 WAIST_JOINT1:0.997987,0.063044,0.000000,-0.006941 END:
KINECT_DATA_Sensor  AnkleLeft:-0.063660,-0.692547,0.091926,0.712654 AnkleRight:0.083531,0.732718,0.074541,0.671260 ElbowLeft:-0.015222,0.899542,-0.184698,-0.395575 ElbowRight:-0.386412,0.752294,-0.016606,0.533351 FootLeft:0.000000,0.000000,0.000000,0.000000 FootRight:0.000000,0.000000,0.000000,0.000000 HandLeft:-0.016880,-0.621161,-0.043950,0.782268 HandRight:-0.179137,0.095667,-0.523254,0.827625 HandTipLeft:0.000000,0.000000,0.000000,0.000000 HandTipRight:0.000000,0.000000,0.000000,0.000000 Head:0.000000,0.000000,0.000000,0.000000 HipLeft:0.124658,-0.680995,0.701640,-0.168543 HipRight:-0.114466,0.679151,0.705996,-0.164988 KneeLeft:-0.002989,0.713978,-0.040716,-0.698977 KneeRight:-0.016587,0.700067,0.040662,0.712725 Neck:-0.026161,-0.006002,0.996513,-0.078999 ShoulderLeft:0.004082,0.777370,-0.626103,0.060612 ShoulderRight:-0.029550,0.793470,0.599921,-0.098119 SpineBase:0.009671,-0.006917,0.999162,-0.039155 SpineMid:-0.008191,-0.006216,0.999176,-0.039273 SpineShoulder:-0.026305,-0.005730,0.997934,-0.058329 ThumbLeft:0.000000,0.000000,0.000000,0.000000 ThumbRight:0.000000,0.000000,0.000000,0.000000 WristLeft:0.075657,-0.611744,-0.100766,0.780955 WristRight:-0.160445,0.105155,-0.501358,0.843706 END:
KINECT_DATA POSITION:1.735302,-0.789630,-1.521766 HEAD_JOINT1:0.979735,0.175420,-0.000000,0.096678 LARM_JOINT2:0.824297,0.000000,0.003844,-0.566144 LARM_JOINT3:0.969065,0.000000,-0.170812,-0.178146 LLEG_JOINT2:0.999176,0.023879,0.000000,0.032829 LLEG_JOINT4:0.996417,0.082833,0.000000,-0.017091 RARM_JOINT2:0.826941,0.000000,0.430927,0.361205 RARM_JOINT3:0.973685,0.000000,0.206136,-0.097191 RLEG_JOINT2:0.999067,0.015924,0.000000,-0.040132 RLEG_JOINT4:0.994658,0.095813,0.000000,0.038412 WAIST:0.999941,0.000000,-0.010635,-0.002328 WAIST_JOINT0:0.999576,-0.000000,0.024687,0.015461 WAIST_JOINT1:0.997963,0.063441,0.000000,-0.006722 END:
KINECT_DATA_Sensor  AnkleLeft:-0.063085,-0.692658,0.086883,0.713230 AnkleRight:0.080881,0.726063,0.076887,0.678513 ElbowLeft:-0.014896,0.901677,-0.184647,-0.390719 ElbowRight:-0.401383,0.736791,-0.029438,0.543290 FootLeft:0.000000,0.000000,0.000000,0.000000 FootRight:0.000000,0.000000,0.000000,0.000000 HandLeft:-0.019039,-0.598607,-0.044601,0.799574 HandRight:-0.180016,0.086399,-0.533310,0.822016 HandTipLeft:0.000000,0.000000,0.000000,0.000000 HandTipRight:0.000000,0.000000,0.000000,0.000000 Head:0.000000,0.000000,0.000000,0.000000 HipLeft:0.124950,-0.681234,0.701152,-0.169392 HipRight:-0.113594,0.678928,0.706423,-0.164681 KneeLeft:-0.005085,0.714524,-0.038387,-0.698538 KneeRight:-0.018303,0.699433,0.041479,0.713259 Neck:-0.026128,-0.006244,0.996479,-0.079418 ShoulderLeft:0.003664,0.777068,-0.626392,0.061521 ShoulderRight:-0.029954,0.792318,0.601273,-0.099024 SpineBase:0.010513,-0.007116,0.999136,-0.039573 SpineMid:-0.007752,-0.006392,0.999161,-0.039697 SpineShoulder:-0.026274,-0.005935,0.997910,-0.058741 ThumbLeft:0.000000,0.000000,0.000000,0.000000 ThumbRight:0.000000,0.000000,0.000000,0.000000 WristLeft:0.070525,-0.589915,-0.103797,0.797655 WristRight:-0.164268,0.095762,-0.525191,0.829470 END:
KINECT_DATA POSITION:1.919527,-0.752002,-1.811135 HEAD_JOINT1:0.979122,0.178338,-0.000000,0.097547 LARM_JOINT2:0.824992,0.000000,0.007213,-0.565098 LARM_JOINT3:0.969336,0.000000,-0.172272,-0.175244 LLEG_JOINT2:0.999202,0.022304,0.000000,0.033122 LLEG_JOINT4:0.996273,0.083828,0.000000,-0.020300 RARM_JOINT2:0.830191,0.000000,0.446840,0.333343 RARM_JOINT3:0.974208,0.000000,0.201532,-0.101505 RLEG_JOINT2:0.999047,0.013594,0.000000,-0.041477 RLEG_JOINT4:0.994696,0.094592,0.000000,0.040391 WAIST:0.999918,0.000000,-0.012517,-0.002655 WAIST_JOINT0:0.999552,-0.000000,0.026080,0.014710 WAIST_JOINT1:0.997984,0.063031,0.000000,-0.007472 END:
KINECT_DATA_Sensor  AnkleLeft:-0.064607,-0.691585,0.084583,0.714410 AnkleRight:0.079176,0.730593,0.073505,0.674212 ElbowLeft:-0.013887,0.900706,-0.185735,-0.392477 ElbowRight:-0.426388,0.733160,-0.029857,0.528940 FootLeft:0.000000,0.000000,0.000000,0.000000 FootRight:0.000000,0.000000,0.000000,0.000000 HandLeft:-0.009009,-0.595777,-0.046351,0.801761 HandRight:-0.202104,0.102187,-0.549887,0.803951 HandTipLeft:0.000000,0.000000,0.000000,0.000000 HandTipRight:0.000000,0.000000,0.000000,0.000000 Head:0.000000,0.000000,0.000000,0.000000 HipLeft:0.126725,-0.681272,0.700594,-0.170227 HipRight:-0.112594,0.678986,0.706781,-0.163589 KneeLeft:-0.006244,0.715813,-0.037220,-0.697272 KneeRight:-0.021067,0.698046,0.041079,0.714563 Neck:-0.027526,-0.007011,0.996461,-0.079113 ShoulderLeft:0.002329,0.777115,-0.626317,0.061757 ShoulderRight:-0.033151,0.791380,0.601937,-0.101443 SpineBase:0.012384,-0.007929,0.999124,-0.039176 SpineMid:-0.007511,-0.007147,0.999173,-0.039326 SpineShoulder:-0.027690,-0.006699,0.997887,-0.058400 ThumbLeft:0.000000,0.000000,0.000000,0.000000 ThumbRight:0.000000,0.000000,0.000000,0.000000 WristLeft:0.070981,-0.588204,-0.100905,0.799247 WristRight:-0.182709,0.114088,-0.537547,0.815257 END:
KINECT_DATA POSITION:1.998410,-0.738896,-1.879966 HEAD_JOINT1:0.979484,0.177568,-0.000000,0.095288 LARM_JOINT2:0.824702,0.000000,0.007952,-0.565512 LARM_JOINT3:0.968160,0.000000,-0.179553,-0.174435 LLEG_JOINT2:0.999209,0.021684,0.000000,0.033342 LLEG_JOINT4:0.996055,0.085363,0.000000,-0.024248 RARM_JOINT2:0.832172,0.000000,0.454809,0.317235 RARM_JOINT3:0.975906,0.000000,0.196371,-0.095106 RLEG_JOINT2:0.999023,0.013885,0.000000,-0.041965 RLEG_JOINT4:0.994959,0.091191,0.000000,0.041712 WAIST:0.999924,0.000000,-0.012039,-0.002580 WAIST_JOINT0:0.999462,-0.000000,0.029686,0.013959 WAIST_JOINT1:0.998019,0.062461,0.000000,-0.007492 END:
KINECT_DATA_Sensor  AnkleLeft:-0.067710,-0.688989,0.082934,0.716820 AnkleRight:0.077152,0.728989,0.071085,0.676439 ElbowLeft:-0.013881,0.899821,-0.185344,-0.394687 ElbowRight:-0.440401,0.732511,-0.029596,0.518265 FootLeft:0.000000,0.000000,0.000000,0.000000 FootRight:0.000000,0.000000,0.000000,0.000000 HandLeft:0.005238,-0.571395,-0.080252,0.816725 HandRight:-0.182388,0.084828,-0.551825,0.809338 HandTipLeft:0.000000,0.000000,0.000000,0.000000 HandTipRight:0.000000,0.000000,0.000000,0.000000 Head:0.000000,0.000000,0.000000,0.000000 HipLeft:0.126754,-0.681413,0.700601,-0.169614 HipRight:-0.113084,0.679098,0.706608,-0.163529 KneeLeft:-0.006868,0.715467,-0.036987,-0.697633 KneeRight:-0.021166,0.698381,0.041570,0.714204 Neck:-0.030782,-0.006743,0.996414,-0.078530 ShoulderLeft:0.002765,0.777083,-0.626531,0.059946 ShoulderRight:-0.037043,0.789567,0.603498,-0.104887 SpineBase:0.011903,-0.008006,0.999148,-0.038693 SpineMid:-0.009377,-0.007180,0.999175,-0.038855 SpineShoulder:-0.030959,-0.006562,0.997823,-0.057857 ThumbLeft:0.000000,0.000000,0.000000,0.000000 ThumbRight:0.000000,0.000000,0.000000,0.000000 WristLeft:0.068929,-0.563571,-0.101042,0.816962 WristRight:-0.171015,0.092355,-0.549190,0.812782 END:
KINECT_DATA POSITION:2.015135,-0.729280,-1.899552 HEAD_JOINT1:0.979508,0.177421,-0.000000,0.095321 LARM_JOINT2:0.824865,0.000000,0.007658,-0.565278 LARM_JOINT3:0.968036,0.000000,-0.181708,-0.172883 LLEG_JOINT2:0.999193,0.021908,0.000000,0.033678 LLEG_JOINT4:0.996105,0.085018,0.000000,-0.023374 RARM_JOINT2:0.834314,0.000000,0.454639,0.311808 RARM_JOINT3:0.976134,0.000000,0.197719,-0.089827 RLEG_JOINT2:0.999079,0.012953,0.000000,-0.040898 RLEG_JOINT4:0.994905,0.093120,0.000000,0.038642 WAIST:0.999930,0.000000,-0.011453,-0.003062 WAIST_JOINT0:0.999463,-0.000000,0.029973,0.013264 WAIST_JOINT1:0.998046,0.062065,0.000000,-0.007208 END:
KINECT_DATA_Sensor  AnkleLeft:-0.067174,-0.688934,0.083269,0.716885 AnkleRight:0.076777,0.734376,0.073079,0.670415 ElbowLeft:-0.014416,0.899560,-0.185156,-0.395350 ElbowRight:-0.445357,0.733802,-0.025051,0.512410 FootLeft:0.000000,0.000000,0.000000,0.000000 FootRight:0.000000,0.000000,0.000000,0.000000 HandLeft:0.015760,-0.572667,-0.084725,0.815246 HandRight:-0.177264,0.086852,-0.544800,0.815002 HandTipLeft:0.000000,0.000000,0.000000,0.000000 HandTipRight:0.000000,0.000000,0.000000,0.000000 Head:0.000000,0.000000,0.000000,0.000000 HipLeft:0.126518,-0.681888,0.700317,-0.169050 HipRight:-0.113532,0.678780,0.706831,-0.163577 KneeLeft:-0.006588,0.715087,-0.037048,-0.698022 KneeRight:-0.021453,0.698781,0.040482,0.713867 Neck:-0.031200,-0.007029,0.996433,-0.078095 ShoulderLeft:0.001777,0.777372,-0.626166,0.060053 ShoulderRight:-0.038593,0.789324,0.603581,-0.105679 SpineBase:0.011348,-0.008199,0.999165,-0.038395 SpineMid:-0.009864,-0.007383,0.999180,-0.038560 SpineShoulder:-0.031380,-0.006818,0.997830,-0.057476 ThumbLeft:0.000000,0.000000,0.000000,0.000000 ThumbRight:0.000000,0.000000,0.000000,0.000000 WristLeft:0.069770,-0.565932,-0.101428,0.815209 WristRight:-0.170706,0.092352,-0.552681,0.810478 END:
KINECT_DATA POSITION:2.032011,-0.730871,-1.889431 HEAD_JOINT1:0.979592,0.176994,-0.000000,0.095247 LARM_JOINT2:0.824917,0.000000,0.007638,-0.565203 LARM_JOINT3:0.967440,0.000000,-0.183711,-0.174097 LLEG_JOINT2:0.999218,0.021793,0.000000,0.032987 LLEG_JOINT4:0.996358,0.082273,0.000000,-0.022425 RARM_JOINT2:0.834265,0.000000,0.455146,0.311197 RARM_JOINT3:0.976743,0.000000,0.196280,-0.086293 RLEG_JOINT2:0.999071,0.012438,0.000000,-0.041271 RLEG_JOINT4:0.994877,0.093499,0.000000,0.038438 WAIST:0.999936,0.000000,-0.011026,-0.002722 WAIST_JOINT0:0.999415,-0.000000,0.031158,0.014113 WAIST_JOINT1:0.998043,0.062089,0.000000,-0.007383 END:
KINECT_DATA_Sensor  AnkleLeft:-0.064793,-0.688572,0.081592,0.717645 AnkleRight:0.075992,0.730078,0.073728,0.675111 ElbowLeft:-0.014853,0.898444,-0.185361,-0.397768 ElbowRight:-0.445760,0.734078,-0.025507,0.511641 FootLeft:0.000000,0.000000,0.000000,0.000000 FootRight:0.000000,0.000000,0.000000,0.000000 HandLeft:0.010573,-0.553370,-0.092983,0.827662 HandRight:-0.176867,0.090634,-0.532839,0.822549 HandTipLeft:0.000000,0.000000,0.000000,0.000000 HandTipRight:0.000000,0.000000,0.000000,0.000000 Head:0.000000,0.000000,0.000000,0.000000 HipLeft:0.126352,-0.681743,0.700536,-0.168849 HipRight:-0.113923,0.678968,0.706511,-0.163911 KneeLeft:-0.006399,0.714775,-0.036726,-0.698361 KneeRight:-0.021859,0.699092,0.040141,0.713570 Neck:-0.032043,-0.006859,0.996404,-0.078135 ShoulderLeft:0.000860,0.777317,-0.626192,0.060511 ShoulderRight:-0.040667,0.789360,0.603100,-0.107365 SpineBase:0.010902,-0.008044,0.999172,-0.038355 SpineMid:-0.010501,-0.007221,0.999177,-0.038518 SpineShoulder:-0.032222,-0.006657,0.997804,-0.057489 ThumbLeft:0.000000,0.000000,0.000000,0.000000 ThumbRight:0.000000,0.000000,0.000000,0.000000 WristLeft:0.068536,-0.545710,-0.103621,0.828713 WristRight:-0.172028,0.096526,-0.553475,0.809169 END:
KINECT_DATA POSITION:2.025216,-0.729395,-1.883423 HEAD_JOINT1:0.979621,0.176995,-0.000000,0.094952 LARM_JOINT2:0.825134,0.000000,0.006797,-0.564896 LARM_JOINT3:0.967809,0.000000,-0.181241,-0.174633 LLEG_JOINT2:0.999220,0.022141,0.000000,0.032699 LLEG_JOINT4:0.996286,0.083621,0.000000,-0.020558 RARM_JOINT2:0.833382,0.000000,0.455725,0.312712 RARM_JOINT3:0.977562,0.000000,0.192539,-0.085445 RLEG_JOINT2:0.999068,0.012097,0.000000,-0.041435 RLEG_JOINT4:0.994630,0.095884,0.000000,0.038967 WAIST:0.999941,0.000000,-0.010456,-0.002790 WAIST_JOINT0:0.999379,-0.000000,0.032090,0.014555 WAIST_JOINT1:0.998040,0.062185,0.000000,-0.007080 END:
KINECT_DATA_Sensor  AnkleLeft:-0.064891,-0.688134,0.083816,0.717800 AnkleRight:0.077703,0.730360,0.074869,0.674486 ElbowLeft:-0.015482,0.898348,-0.185657,-0.397822 ElbowRight:-0.444241,0.733140,-0.028675,0.514133 FootLeft:0.000000,0.000000,0.000000,0.000000 FootRight:0.000000,0.000000,0.000000,0.000000 HandLeft:0.006792,-0.581664,-0.082512,0.809205 HandRight:-0.183251,0.093940,-0.520017,0.828961 HandTipLeft:0.000000,0.000000,0.000000,0.000000 HandTipRight:0.000000,0.000000,0.000000,0.000000 Head:0.000000,0.000000,0.000000,0.000000 HipLeft:0.126099,-0.681788,0.700576,-0.168694 HipRight:-0.114373,0.678797,0.706513,-0.164292 KneeLeft:-0.005879,0.714390,-0.036730,-0.698758 KneeRight:-0.022287,0.699482,0.040056,0.713178 Neck:-0.032588,-0.006606,0.996380,-0.078238 ShoulderLeft:0.000498,0.777258,-0.626245,0.060723 ShoulderRight:-0.041787,0.788975,0.603335,-0.108441 SpineBase:0.010341,-0.007944,0.999178,-0.038384 SpineMid:-0.011057,-0.007120,0.999170,-0.038545 SpineShoulder:-0.032770,-0.006469,0.997783,-0.057562 ThumbLeft:0.000000,0.000000,0.000000,0.000000 ThumbRight:0.000000,0.000000,0.000000,0.000000 WristLeft:0.072571,-0.573246,-0.101889,0.809778 WristRight:-0.175489,0.103200,-0.552942,0.807966 END:
KINECT_DATA POSITION:1.984763,-0.725617,-1.837814 HEAD_JOINT1:0.979688,0.176738,-0.000000,0.094733 LARM_JOINT2:0.825538,0.000000,0.005598,-0.564319 LARM_JOINT3:0.966837,0.000000,-0.181937,-0.179235 LLEG_JOINT2:0.999215,0.022067,0.000000,0.032909 LLEG_JOINT4:0.996259,0.083887,0.000000,-0.020760 RARM_JOINT2:0.832746,0.000000,0.456442,0.313361 RARM_JOINT3:0.975934,0.000000,0.199514,-0.088013 RLEG_JOINT2:0.999089,0.012901,0.000000,-0.040673 RLEG_JOINT4:0.994745,0.094976,0.000000,0.038236 WAIST:0.999947,0.000000,-0.009973,-0.002684 WAIST_JOINT0:0.999358,-0.000000,0.032449,0.015175 WAIST_JOINT1:0.998000,0.062845,0.000000,-0.006792 END:
KINECT_DATA_Sensor  AnkleLeft:-0.065000,-0.687910,0.083987,0.717984 AnkleRight:0.077087,0.725444,0.075351,0.679787 ElbowLeft:-0.015527,0.899460,-0.186539,-0.394884 ElbowRight:-0.442964,0.732968,-0.030718,0.515361 FootLeft:0.000000,0.000000,0.000000,0.000000 FootRight:0.000000,0.000000,0.000000,0.000000 HandLeft:0.005988,-0.658219,-0.093829,0.746933 HandRight:-0.173468,0.106773,-0.535233,0.819777 HandTipLeft:0.000000,0.000000,0.000000,0.000000 HandTipRight:0.000000,0.000000,0.000000,0.000000 Head:0.000000,0.000000,0.000000,0.000000 HipLeft:0.125539,-0.681722,0.700749,-0.168663 HipRight:-0.114480,0.678758,0.706425,-0.164758 KneeLeft:-0.006137,0.714046,-0.036902,-0.699098 KneeRight:-0.021123,0.699855,0.039990,0.712852 Neck:-0.032781,-0.006158,0.996316,-0.079006 ShoulderLeft:0.000999,0.776709,-0.626886,0.061128 ShoulderRight:-0.041582,0.788725,0.603561,-0.109080 SpineBase:0.009858,-0.007766,0.999171,-0.038731 SpineMid:-0.011403,-0.006940,0.999154,-0.038887 SpineShoulder:-0.032964,-0.006111,0.997745,-0.058154 ThumbLeft:0.000000,0.000000,0.000000,0.000000 ThumbRight:0.000000,0.000000,0.000000,0.000000 WristLeft:0.081108,-0.646879,-0.094711,0.752329 WristRight:-0.176557,0.106948,-0.552822,0.807327 END:
KINECT_DATA POSITION:1.927232,-0.746568,-1.711881 HEAD_JOINT1:0.979651,0.177521,-0.000000,0.093644 LARM_JOINT2:0.825382,0.000000,0.004763,-0.564554 LARM_JOINT3:0.967121,0.000000,-0.179804,-0.179857 LLEG_JOINT2:0.999212,0.022454,0.000000,0.032738 LLEG_JOINT4:0.996355,0.083397,0.000000,-0.017920 RARM_JOINT2:0.832447,0.000000,0.457377,0.312791 RARM_JOINT3:0.977688,0.000000,0.193190,-0.082487 RLEG_JOINT2:0.999081,0.013570,0.000000,-0.040668 RLEG_JOINT4:0.994774,0.094354,0.000000,0.039015 WAIST:0.999953,0.000000,-0.009348,-0.002700 WAIST_JOINT0:0.999347,-0.000000,0.032742,0.015287 WAIST_JOINT1:0.997964,0.063484,0.000000,-0.006157 END:
KINECT_DATA_Sensor  AnkleLeft:-0.063109,-0.688109,0.085625,0.717768 AnkleRight:0.078110,0.730643,0.074308,0.674194 ElbowLeft:-0.015220,0.900036,-0.186851,-0.393434 ElbowRight:-0.442757,0.735408,-0.030222,0.512082 FootLeft:0.000000,0.000000,0.000000,0.000000 FootRight:0.000000,0.000000,0.000000,0.000000 HandLeft:0.000724,-0.646426,-0.085198,0.758204 HandRight:-0.175903,0.104319,-0.518078,0.830524 HandTipLeft:0.000000,0.000000,0.000000,0.000000 HandTipRight:0.000000,0.000000,0.000000,0.000000 Head:0.000000,0.000000,0.000000,0.000000 HipLeft:0.124586,-0.681700,0.700930,-0.168703 HipRight:-0.114599,0.678605,0.706435,-0.165266 KneeLeft:-0.005707,0.713625,-0.037053,-0.699524 KneeRight:-0.020677,0.700291,0.040454,0.712410 Neck:-0.033327,-0.005523,0.996252,-0.079623 ShoulderLeft:0.002993,0.776140,-0.627659,0.060342 ShoulderRight:-0.040300,0.788685,0.603696,-0.109099 SpineBase:0.009253,-0.007255,0.999159,-0.039272 SpineMid:-0.011976,-0.006419,0.999130,-0.039417 SpineShoulder:-0.033503,-0.005513,0.997695,-0.058753 ThumbLeft:0.000000,0.000000,0.000000,0.000000 ThumbRight:0.000000,0.000000,0.000000,0.000000 WristLeft:0.078901,-0.635261,-0.096428,0.762181 WristRight:-0.175764,0.108504,-0.550385,0.808956 END:
KINECT_DATA POSITION:1.902794,-0.753140,-1.657951 HEAD_JOINT1:0.979425,0.179610,-0.000000,0.092015 LARM_JOINT2:0.824946,0.000000,0.004025,-0.565198 LARM_JOINT3:0.967669,0.000000,-0.176189,-0.180484 LLEG_JOINT2:0.999203,0.023212,0.000000,0.032477 LLEG_JOINT4:0.996298,0.083640,0.000000,-0.019844 RARM_JOINT2:0.832214,0.000000,0.458263,0.312113 RARM_JOINT3:0.978587,0.000000,0.189984,-0.079208 RLEG_JOINT2:0.999071,0.013918,0.000000,-0.040791 RLEG_JOINT4:0.994488,0.096637,0.000000,0.040691 WAIST:0.999956,0.000000,-0.008965,-0.002807 WAIST_JOINT0:0.999335,-0.000000,0.033065,0.015344 WAIST_JOINT1:0.997933,0.064001,0.000000,-0.005799 END:
KINECT_DATA_Sensor  AnkleLeft:-0.065461,-0.687449,0.084800,0.718288 AnkleRight:0.080830,0.728946,0.075173,0.675614 ElbowLeft:-0.014979,0.900083,-0.186346,-0.393574 ElbowRight:-0.442921,0.737694,-0.029271,0.508695 FootLeft:0.000000,0.000000,0.000000,0.000000 FootRight:0.000000,0.000000,0.000000,0.000000 HandLeft:-0.014310,-0.643843,-0.076971,0.761142 HandRight:-0.172194,0.099505,-0.514708,0.833981 HandTipLeft:0.000000,0.000000,0.000000,0.000000 HandTipRight:0.000000,0.000000,0.000000,0.000000 Head:0.000000,0.000000,0.000000,0.000000 HipLeft:0.124139,-0.681724,0.700933,-0.168922 HipRight:-0.114780,0.678414,0.706464,-0.165796 KneeLeft:-0.004898,0.713379,-0.037337,-0.699766 KneeRight:-0.020604,0.700552,0.040853,0.712133 Neck:-0.033793,-0.005258,0.996195,-0.080162 ShoulderLeft:0.004008,0.775582,-0.628359,0.060185 ShoulderRight:-0.039911,0.788379,0.604030,-0.109606 SpineBase:0.008886,-0.007030,0.999148,-0.039675 SpineMid:-0.012391,-0.006183,0.999111,-0.039816 SpineShoulder:-0.033965,-0.005255,0.997652,-0.059243 ThumbLeft:0.000000,0.000000,0.000000,0.000000 ThumbRight:0.000000,0.000000,0.000000,0.000000 WristLeft:0.078070,-0.630934,-0.096194,0.765881 WristRight:-0.171969,0.103902,-0.548348,0.811754 END:
KINECT_DATA POSITION:1.869698,-0.758647,-1.603222 HEAD_JOINT1:0.979520,0.179681,-0.000000,0.090861 LARM_JOINT2:0.824486,0.000000,0.003016,-0.565874 LARM_JOINT3:0.966886,0.000000,-0.180806,-0.180114 LLEG_JOINT2:0.999165,0.023986,0.000000,0.033088 LLEG_JOINT4:0.996328,0.083520,0.000000,-0.018833 RARM_JOINT2:0.832869,0.000000,0.457425,0.311595 RARM_JOINT3:0.978694,0.000000,0.190365,-0.076937 RLEG_JOINT2:0.999082,0.014497,0.000000,-0.040313 RLEG_JOINT4:0.994588,0.095735,0.000000,0.040377 WAIST:0.999955,0.000000,-0.008977,-0.003142 WAIST_JOINT0:0.999331,-0.000000,0.033309,0.015073 WAIST_JOINT1:0.997928,0.064105,0.000000,-0.005414 END:
KINECT_DATA_Sensor  AnkleLeft:-0.064964,-0.687461,0.086145,0.718161 AnkleRight:0.080730,0.731328,0.074806,0.673087 ElbowLeft:-0.015379,0.900143,-0.185347,-0.393893 ElbowRight:-0.443413,0.741001,-0.025018,0.503663 FootLeft:0.000000,0.000000,0.000000,0.000000 FootRight:0.000000,0.000000,0.000000,0.000000 HandLeft:-0.006095,-0.623692,-0.096116,0.775714 HandRight:-0.174895,0.100750,-0.512973,0.834338 HandTipLeft:0.000000,0.000000,0.000000,0.000000 HandTipRight:0.000000,0.000000,0.000000,0.000000 Head:0.000000,0.000000,0.000000,0.000000 HipLeft:0.124078,-0.681915,0.700754,-0.168938 HipRight:-0.114777,0.678173,0.706714,-0.165720 KneeLeft:-0.004553,0.713416,-0.038081,-0.699690 KneeRight:-0.020092,0.700533,0.041155,0.712149 Neck:-0.034325,-0.005116,0.996166,-0.080301 ShoulderLeft:0.005482,0.775253,-0.628852,0.059140 ShoulderRight:-0.039115,0.788285,0.604245,-0.109386 SpineBase:0.008925,-0.007048,0.999148,-0.039682 SpineMid:-0.012643,-0.006190,0.999108,-0.039825 SpineShoulder:-0.034503,-0.005177,0.997628,-0.059332 ThumbLeft:0.000000,0.000000,0.000000,0.000000 ThumbRight:0.000000,0.000000,0.000000,0.000000 WristLeft:0.075669,-0.611425,-0.098463,0.781498 WristRight:-0.171972,0.106751,-0.546489,0.812638 END:
KINECT_DATA POSITION:1.858283,-0.761493,-1.585793 HEAD_JOINT1:0.979445,0.180357,-0.000000,0.090327 LARM_JOINT2:0.823773,0.000000,0.003305,-0.566910 LARM_JOINT3:0.968054,0.000000,-0.174992,-0.179580 LLEG_JOINT2:0.999161,0.024350,0.000000,0.032945 LLEG_JOINT4:0.996372,0.082522,0.000000,-0.020792 RARM_JOINT2:0.833837,0.000000,0.455429,0.311929 RARM_JOINT3:0.978648,0.000000,0.189668,-0.079211 RLEG_JOINT2:0.999072,0.014230,0.000000,-0.040663 RLEG_JOINT4:0.994580,0.096134,0.000000,0.039598 WAIST:0.999952,0.000000,-0.009294,-0.003248 WAIST_JOINT0:0.999363,-0.000000,0.032608,0.014533 WAIST_JOINT1:0.997934,0.064042,0.000000,-0.005201 END:
KINECT_DATA_Sensor  AnkleLeft:-0.066097,-0.687559,0.084218,0.718193 AnkleRight:0.079962,0.730398,0.075871,0.674068 ElbowLeft:-0.015384,0.899118,-0.184352,-0.396692 ElbowRight:-0.443145,0.741995,-0.021788,0.502585 FootLeft:0.000000,0.000000,0.000000,0.000000 FootRight:0.000000,0.000000,0.000000,0.000000 HandLeft:-0.025819,-0.609947,-0.074227,0.788536 HandRight:-0.186235,0.096318,-0.514647,0.831371 HandTipLeft:0.000000,0.000000,0.000000,0.000000 HandTipRight:0.000000,0.000000,0.000000,0.000000 Head:0.000000,0.000000,0.000000,0.000000 HipLeft:0.124194,-0.681910,0.700687,-0.169152 HipRight:-0.114575,0.678126,0.706842,-0.165504 KneeLeft:-0.004133,0.713651,-0.038163,-0.699449 KneeRight:-0.020591,0.700287,0.041298,0.712368 Neck:-0.033819,-0.005036,0.996196,-0.080153 ShoulderLeft:0.005489,0.775326,-0.628757,0.059195 ShoulderRight:-0.038434,0.788248,0.604460,-0.108702 SpineBase:0.009252,-0.006976,0.999144,-0.039721 SpineMid:-0.012225,-0.006121,0.999112,-0.039862 SpineShoulder:-0.033989,-0.005054,0.997649,-0.059286 ThumbLeft:0.000000,0.000000,0.000000,0.000000 ThumbRight:0.000000,0.000000,0.000000,0.000000 WristLeft:0.074420,-0.596445,-0.100112,0.792901 WristRight:-0.173356,0.108195,-0.545080,0.813099 END:
KINECT_DATA POSITION:1.846743,-0.766360,-1.579332 HEAD_JOINT1:0.979242,0.181240,-0.000000,0.090757 LARM_JOINT2:0.823468,0.000000,0.004417,-0.567346 LARM_JOINT3:0.967915,0.000000,-0.176946,-0.178413 LLEG_JOINT2:0.999151,0.024553,0.000000,0.033080 LLEG_JOINT4:0.996440,0.082172,0.000000,-0.018832 RARM_JOINT2:0.834038,0.000000,0.453300,0.314482 RARM_JOINT3:0.978224,0.000000,0.190524,-0.082331 RLEG_JOINT2:0.999097,0.013980,0.000000,-0.040116 RLEG_JOINT4:0.994661,0.095773,0.000000,0.038435 WAIST:0.999950,0.000000,-0.009389,-0.003294 WAIST_JOINT0:0.999364,-0.000000,0.032421,0.014820 WAIST_JOINT1:0.997959,0.063627,0.000000,-0.005381 END:
KINECT_DATA_Sensor  AnkleLeft:-0.064526,-0.687992,0.085481,0.717771 AnkleRight:0.079884,0.737625,0.075112,0.666248 ElbowLeft:-0.014897,0.898573,-0.183880,-0.398161 ElbowRight:-0.441364,0.740991,-0.021708,0.505626 FootLeft:0.000000,0.000000,0.000000,0.000000 FootRight:0.000000,0.000000,0.000000,0.000000 HandLeft:-0.015112,-0.628905,-0.078055,0.773406 HandRight:-0.184503,0.085218,-0.521817,0.828495 HandTipLeft:0.000000,0.000000,0.000000,0.000000 HandTipRight:0.000000,0.000000,0.000000,0.000000 Head:0.000000,0.000000,0.000000,0.000000 HipLeft:0.124408,-0.681964,0.700612,-0.169086 HipRight:-0.114624,0.678129,0.706859,-0.165387 KneeLeft:-0.004058,0.713721,-0.038369,-0.699367 KneeRight:-0.020416,0.700228,0.040766,0.712462 Neck:-0.033484,-0.005422,0.996248,-0.079615 ShoulderLeft:0.005241,0.775457,-0.628613,0.059019 ShoulderRight:-0.038206,0.788437,0.604354,-0.107998 SpineBase:0.009346,-0.007097,0.999149,-0.039546 SpineMid:-0.012004,-0.006251,0.999120,-0.039689 SpineShoulder:-0.033643,-0.005271,0.997681,-0.058925 ThumbLeft:0.000000,0.000000,0.000000,0.000000 ThumbRight:0.000000,0.000000,0.000000,0.000000 WristLeft:0.076785,-0.616175,-0.098752,0.777612 WristRight:-0.168374,0.098469,-0.545774,0.814914 END:
KINECT_DATA POSITION:1.843629,-0.760522,-1.587534 HEAD_JOINT1:0.979257,0.181036,-0.000000,0.091000 LARM_JOINT2:0.823779,0.000000,0.004949,-0.566889 LARM_JOINT3:0.968089,0.000000,-0.175685,-0.178716 LLEG_JOINT2:0.999121,0.025363,0.000000,0.033387 LLEG_JOINT4:0.996316,0.083145,0.000000,-0.021022 RARM_JOINT2:0.835419,0.000000,0.450243,0.315207 RARM_JOINT3:0.977590,0.000000,0.193657,-0.082553 RLEG_JOINT2:0.999095,0.014951,0.000000,-0.039810 RLEG_JOINT4:0.994654,0.095123,0.000000,0.040190 WAIST:0.999951,0.000000,-0.009368,-0.003205 WAIST_JOINT0:0.999397,-0.000000,0.031392,0.014865 WAIST_JOINT1:0.997983,0.063235,0.000000,-0.005656 END:
KINECT_DATA_Sensor  AnkleLeft:-0.067100,-0.688162,0.085520,0.717368 AnkleRight:0.080699,0.730152,0.074598,0.674389 ElbowLeft:-0.014837,0.898836,-0.184244,-0.397402 ElbowRight:-0.441024,0.740303,-0.019134,0.507034 FootLeft:0.000000,0.000000,0.000000,0.000000 FootRight:0.000000,0.000000,0.000000,0.000000 HandLeft:-0.019264,-0.602263,-0.071605,0.794846 HandRight:-0.189534,0.091544,-0.518444,0.828802 HandTipLeft:0.000000,0.000000,0.000000,0.000000 HandTipRight:0.000000,0.000000,0.000000,0.000000 Head:0.000000,0.000000,0.000000,0.000000 HipLeft:0.124498,-0.681957,0.700666,-0.168824 HipRight:-0.114664,0.678217,0.706806,-0.165223 KneeLeft:-0.003770,0.713709,-0.039227,-0.699333 KneeRight:-0.019444,0.700269,0.041164,0.712426 Neck:-0.032459,-0.005752,0.996314,-0.079192 ShoulderLeft:0.004505,0.775565,-0.628453,0.059379 ShoulderRight:-0.037580,0.788729,0.604233,-0.106757 SpineBase:0.009313,-0.007197,0.999157,-0.039326 SpineMid:-0.011509,-0.006376,0.999134,-0.039468 SpineShoulder:-0.032615,-0.005529,0.997736,-0.058551 ThumbLeft:0.000000,0.000000,0.000000,0.000000 ThumbRight:0.000000,0.000000,0.000000,0.000000 WristLeft:0.073274,-0.590397,-0.101477,0.797349 WristRight:-0.173814,0.104970,-0.545256,0.813305 END:
KINECT_DATA POSITION:1.853310,-0.750762,-1.608872 HEAD_JOINT1:0.979256,0.180730,-0.000000,0.091622 LARM_JOINT2:0.824348,0.000000,0.005124,-0.566060 LARM_JOINT3:0.967857,0.000000,-0.178471,-0.177205 LLEG_JOINT2:0.999131,0.024694,0.000000,0.033588 LLEG_JOINT4:0.996343,0.082827,0.000000,-0.020980 RARM_JOINT2:0.836298,0.000000,0.447251,0.317133 RARM_JOINT3:0.975565,0.000000,0.201078,-0.088552 RLEG_JOINT2:0.999089,0.014554,0.000000,-0.040119 RLEG_JOINT4:0.994604,0.095514,0.000000,0.040487 WAIST:0.999956,0.000000,-0.008710,-0.003372 WAIST_JOINT0:0.999409,-0.000000,0.030951,0.014928 WAIST_JOINT1:0.998000,0.062981,0.000000,-0.005504 END:
KINECT_DATA_Sensor  AnkleLeft:-0.066515,-0.688492,0.084743,0.717198 AnkleRight:0.080353,0.728968,0.074967,0.675669 ElbowLeft:-0.014763,0.899455,-0.185125,-0.395591 ElbowRight:-0.439453,0.739004,-0.018636,0.510301 FootLeft:0.000000,0.000000,0.000000,0.000000 FootRight:0.000000,0.000000,0.000000,0.000000 HandLeft:-0.007252,-0.546193,-0.074878,0.834274 HandRight:-0.200528,0.111493,-0.531140,0.815628 HandTipLeft:0.000000,0.000000,0.000000,0.000000 HandTipRight:0.000000,0.000000,0.000000,0.000000 Head:0.000000,0.000000,0.000000,0.000000 HipLeft:0.124044,-0.682230,0.700619,-0.168250 HipRight:-0.115084,0.678093,0.706824,-0.165368 KneeLeft:-0.004238,0.713252,-0.038776,-0.699822 KneeRight:-0.020089,0.700711,0.041212,0.711971 Neck:-0.031817,-0.005902,0.996355,-0.078926 ShoulderLeft:0.003516,0.775674,-0.628270,0.059955 ShoulderRight:-0.037744,0.788598,0.604463,-0.106367 SpineBase:0.008673,-0.007178,0.999170,-0.039155 SpineMid:-0.011511,-0.006385,0.999141,-0.039292 SpineShoulder:-0.031974,-0.005679,0.997771,-0.058289 ThumbLeft:0.000000,0.000000,0.000000,0.000000 ThumbRight:0.000000,0.000000,0.000000,0.000000 WristLeft:0.066100,-0.537606,-0.106205,0.833865 WristRight:-0.185990,0.122594,-0.542641,0.809888 END:
KINECT_DATA POSITION:1.862379,-0.742880,-1.627946 HEAD_JOINT1:0.979368,0.180272,-0.000000,0.091322 LARM_JOINT2:0.824856,0.000000,0.004375,-0.565326 LARM_JOINT3:0.967230,0.000000,-0.179608,-0.179462 LLEG_JOINT2:0.999167,0.024198,0.000000,0.032867 LLEG_JOINT4:0.996250,0.084372,0.000000,-0.019151 RARM_JOINT2:0.837565,0.000000,0.444197,0.318078 RARM_JOINT3:0.976974,0.000000,0.195940,-0.084433 RLEG_JOINT2:0.999081,0.015399,0.000000,-0.040007 RLEG_JOINT4:0.994510,0.095938,0.000000,0.041793 WAIST:0.999960,0.000000,-0.008352,-0.003080 WAIST_JOINT0:0.999432,-0.000000,0.030354,0.014664 WAIST_JOINT1:0.997993,0.063086,0.000000,-0.005503 END:
KINECT_DATA_Sensor  AnkleLeft:-0.066334,-0.688920,0.086372,0.716609 AnkleRight:0.078139,0.690451,0.079020,0.714792 ElbowLeft:-0.015129,0.900328,-0.186004,-0.393171 ElbowRight:-0.438170,0.735032,-0.019583,0.517060 FootLeft:0.000000,0.000000,0.000000,0.000000 FootRight:0.000000,0.000000,0.000000,0.000000 HandLeft:-0.000853,-0.616152,-0.082153,0.783331 HandRight:-0.190282,0.085739,-0.505828,0.837006 HandTipLeft:0.000000,0.000000,0.000000,0.000000 HandTipRight:0.000000,0.000000,0.000000,0.000000 Head:0.000000,0.000000,0.000000,0.000000 HipLeft:0.123655,-0.682053,0.700906,-0.168061 HipRight:-0.115179,0.678217,0.706645,-0.165552 KneeLeft:-0.004265,0.712985,-0.038124,-0.700130 KneeRight:-0.019215,0.700991,0.041513,0.711702 Neck:-0.031162,-0.005625,0.996363,-0.079106 ShoulderLeft:0.002729,0.775772,-0.628077,0.060747 ShoulderRight:-0.037710,0.788403,0.604747,-0.106203 SpineBase:0.008302,-0.006964,0.999170,-0.039272 SpineMid:-0.011374,-0.006189,0.999140,-0.039401 SpineShoulder:-0.031323,-0.005494,0.997790,-0.058344 ThumbLeft:0.000000,0.000000,0.000000,0.000000 ThumbRight:0.000000,0.000000,0.000000,0.000000 WristLeft:0.074507,-0.606007,-0.100704,0.785533 WristRight:-0.174534,0.101190,-0.549724,0.810618 END:
KINECT_DATA POSITION:1.852883,-0.738440,-1.636338 HEAD_JOINT1:0.979338,0.179970,-0.000000,0.092240 LARM_JOINT2:0.825064,0.000000,0.003217,-0.565030 LARM_JOINT3:0.966726,0.000000,-0.179837,-0.181932 LLEG_JOINT2:0.999181,0.023785,0.000000,0.032736 LLEG_JOINT4:0.996444,0.082063,0.000000,-0.019129 RARM_JOINT2:0.838619,0.000000,0.442589,0.317541 RARM_JOINT3:0.974975,0.000000,0.204067,-0.088210 RLEG_JOINT2:0.999066,0.015462,0.000000,-0.040353 RLEG_JOINT4:0.994896,0.092905,0.000000,0.039390 WAIST:0.999961,0.000000,-0.008426,-0.002810 WAIST_JOINT0:0.999483,-0.000000,0.029016,0.013834 WAIST_JOINT1:0.997982,0.063242,0.000000,-0.005721 END:
KINECT_DATA_Sensor  AnkleLeft:-0.064436,-0.689909,0.084446,0.716060 AnkleRight:0.078460,0.728624,0.074542,0.676310 ElbowLeft:-0.015562,0.901388,-0.186068,-0.390687 ElbowRight:-0.438397,0.734629,-0.017634,0.517510 FootLeft:0.000000,0.000000,0.000000,0.000000 FootRight:0.000000,0.000000,0.000000,0.000000 HandLeft:-0.002671,-0.641546,-0.091732,0.761575 HandRight:-0.194517,0.109697,-0.522821,0.822671 HandTipLeft:0.000000,0.000000,0.000000,0.000000 HandTipRight:0.000000,0.000000,0.000000,0.000000 Head:0.000000,0.000000,0.000000,0.000000 HipLeft:0.123675,-0.681845,0.701080,-0.168160 HipRight:-0.115064,0.678384,0.706490,-0.165615 KneeLeft:-0.004656,0.713015,-0.037928,-0.700107 KneeRight:-0.019218,0.700952,0.041616,0.711734 Neck:-0.029967,-0.005625,0.996385,-0.079293 ShoulderLeft:0.002711,0.775831,-0.627956,0.061241 ShoulderRight:-0.036151,0.788026,0.605552,-0.104948 SpineBase:0.008355,-0.006924,0.999166,-0.039375 SpineMid:-0.010757,-0.006169,0.999143,-0.039500 SpineShoulder:-0.030126,-0.005504,0.997819,-0.058481 ThumbLeft:0.000000,0.000000,0.000000,0.000000 ThumbRight:0.000000,0.000000,0.000000,0.000000 WristLeft:0.077053,-0.629784,-0.098177,0.766678 WristRight:-0.187045,0.117613,-0.545918,0.808180 END:
KINECT_DATA POSITION:1.826657,-0.736497,-1.610672 HEAD_JOINT1:0.979365,0.180239,-0.000000,0.091425 LARM_JOINT2:0.824448,0.000000,0.003226,-0.565928 LARM_JOINT3:0.967932,0.000000,-0.174752,-0.180472 LLEG_JOINT2:0.999166,0.024391,0.000000,0.032742 LLEG_JOINT4:0.996227,0.084654,0.000000,-0.019131 RARM_JOINT2:0.838468,0.000000,0.442957,0.317430 RARM_JOINT3:0.975748,0.000000,0.202901,-0.082139 RLEG_JOINT2:0.999083,0.014977,0.000000,-0.040101 RLEG_JOINT4:0.994755,0.094358,0.000000,0.039485 WAIST:0.999957,0.000000,-0.008801,-0.002825 WAIST_JOINT0:0.999493,-0.000000,0.028818,0.013545 WAIST_JOINT1:0.997980,0.063288,0.000000,-0.005450 END:
KINECT_DATA_Sensor  AnkleLeft:-0.066579,-0.689755,0.086796,0.715732 AnkleRight:0.078941,0.723810,0.075424,0.681306 ElbowLeft:-0.015944,0.900124,-0.185287,-0.393942 ElbowRight:-0.438415,0.736466,-0.016264,0.514923 FootLeft:0.000000,0.000000,0.000000,0.000000 FootRight:0.000000,0.000000,0.000000,0.000000 HandLeft:-0.017039,-0.644501,-0.070848,0.761123 HandRight:-0.171205,0.087013,-0.518470,0.833251 HandTipLeft:0.000000,0.000000,0.000000,0.000000 HandTipRight:0.000000,0.000000,0.000000,0.000000 Head:0.000000,0.000000,0.000000,0.000000 HipLeft:0.123967,-0.681808,0.701015,-0.168370 HipRight:-0.115004,0.678445,0.706509,-0.165323 KneeLeft:-0.004239,0.713290,-0.038352,-0.699806 KneeRight:-0.019385,0.700679,0.041112,0.712027 Neck:-0.029796,-0.005278,0.996386,-0.079363 ShoulderLeft:0.002337,0.775935,-0.627798,0.061557 ShoulderRight:-0.036329,0.787924,0.605657,-0.105048 SpineBase:0.008736,-0.006768,0.999168,-0.039255 SpineMid:-0.010481,-0.006012,0.999151,-0.039378 SpineShoulder:-0.029955,-0.005227,0.997824,-0.058507 ThumbLeft:0.000000,0.000000,0.000000,0.000000 ThumbRight:0.000000,0.000000,0.000000,0.000000 WristLeft:0.078527,-0.631558,-0.098184,0.765068 WristRight:-0.169031,0.092545,-0.549990,0.812635 END:
KINECT_DATA POSITION:1.804384,-0.736475,-1.604247 HEAD_JOINT1:0.979322,0.180667,-0.000000,0.091036 LARM_JOINT2:0.824198,0.000000,0.003375,-0.566291 LARM_JOINT3:0.968524,0.000000,-0.172672,-0.179293 LLEG_JOINT2:0.999172,0.023919,0.000000,0.032925 LLEG_JOINT4:0.996314,0.083648,0.000000,-0.019028 RARM_JOINT2:0.837908,0.000000,0.443655,0.317933 RARM_JOINT3:0.976159,0.000000,0.201914,-0.079654 RLEG_JOINT2:0.999082,0.014967,0.000000,-0.040144 RLEG_JOINT4:0.994645,0.095309,0.000000,0.039972 WAIST:0.999958,0.000000,-0.008728,-0.002708 WAIST_JOINT0:0.999465,-0.000000,0.029552,0.014022 WAIST_JOINT1:0.997979,0.063308,0.000000,-0.005562 END:
KINECT_DATA_Sensor  AnkleLeft:-0.065250,-0.689537,0.086018,0.716158 AnkleRight:0.081556,0.737663,0.073971,0.666131 ElbowLeft:-0.015812,0.899716,-0.184949,-0.395038 ElbowRight:-0.438024,0.737011,-0.017036,0.514450 FootLeft:0.000000,0.000000,0.000000,0.000000 FootRight:0.000000,0.000000,0.000000,0.000000 HandLeft:-0.018240,-0.659245,-0.062585,0.749097 HandRight:-0.174086,0.098736,-0.510880,0.836030 HandTipLeft:0.000000,0.000000,0.000000,0.000000 HandTipRight:0.000000,0.000000,0.000000,0.000000 Head:0.000000,0.000000,0.000000,0.000000 HipLeft:0.123998,-0.681740,0.701073,-0.168377 HipRight:-0.115080,0.678513,0.706404,-0.165440 KneeLeft:-0.004780,0.713224,-0.038228,-0.699877 KneeRight:-0.019342,0.700740,0.041052,0.711973 Neck:-0.030459,-0.005230,0.996365,-0.079378 ShoulderLeft:0.002702,0.775793,-0.628010,0.061168 ShoulderRight:-0.036836,0.788059,0.605350,-0.105631 SpineBase:0.008653,-0.006775,0.999169,-0.039262 SpineMid:-0.010853,-0.006007,0.999147,-0.039387 SpineShoulder:-0.030620,-0.005190,0.997802,-0.058533 ThumbLeft:0.000000,0.000000,0.000000,0.000000 ThumbRight:0.000000,0.000000,0.000000,0.000000 WristLeft:0.080609,-0.646269,-0.096294,0.752706 WristRight:-0.174969,0.103017,-0.547712,0.811656 END:
KINECT_DATA POSITION:1.791720,-0.737018,-1.614368 HEAD_JOINT1:0.979209,0.181191,-0.000000,0.091210 LARM_JOINT2:0.824070,0.000000,0.004513,-0.566470 LARM_JOINT3:0.968454,0.000000,-0.174407,-0.177987 LLEG_JOINT2:0.999158,0.023818,0.000000,0.033417 LLEG_JOINT4:0.996186,0.084990,0.000000,-0.019730 RARM_JOINT2:0.837765,0.000000,0.443672,0.318285 RARM_JOINT3:0.975263,0.000000,0.205075,-0.082499 RLEG_JOINT2:0.999083,0.015114,0.000000,-0.040060 RLEG_JOINT4:0.994816,0.093812,0.000000,0.039248 WAIST:0.999959,0.000000,-0.008579,-0.002840 WAIST_JOINT0:0.999463,-0.000000,0.029640,0.013998 WAIST_JOINT1:0.997985,0.063211,0.000000,-0.005559 END:
KINECT_DATA_Sensor  AnkleLeft:-0.066365,-0.689321,0.086671,0.716185 AnkleRight:0.079019,0.728892,0.074760,0.675932 ElbowLeft:-0.015356,0.898596,-0.184963,-0.397590 ElbowRight:-0.437928,0.738834,-0.015790,0.511951 FootLeft:0.000000,0.000000,0.000000,0.000000 FootRight:0.000000,0.000000,0.000000,0.000000 HandLeft:-0.020184,-0.578128,-0.063417,0.813227 HandRight:-0.169742,0.093328,-0.527404,0.827238 HandTipLeft:0.000000,0.000000,0.000000,0.000000 HandTipRight:0.000000,0.000000,0.000000,0.000000 Head:0.000000,0.000000,0.000000,0.000000 HipLeft:0.123956,-0.681887,0.700964,-0.168272 HipRight:-0.115199,0.678435,0.706439,-0.165529 KneeLeft:-0.005103,0.713124,-0.038408,-0.699967 KneeRight:-0.019276,0.700840,0.041186,0.711868 Neck:-0.030536,-0.005428,0.996372,-0.079253 ShoulderLeft:0.002717,0.775819,-0.627990,0.061041 ShoulderRight:-0.036908,0.788019,0.605399,-0.105621 SpineBase:0.008513,-0.006876,0.999171,-0.039216 SpineMid:-0.010960,-0.006111,0.999147,-0.039343 SpineShoulder:-0.030694,-0.005322,0.997804,-0.058451 ThumbLeft:0.000000,0.000000,0.000000,0.000000 ThumbRight:0.000000,0.000000,0.000000,0.000000 WristLeft:0.071208,-0.567554,-0.103378,0.813710 WristRight:-0.169210,0.096291,-0.547848,0.813608 END:
KINECT_DATA POSITION:1.801751,-0.731149,-1.631021 HEAD_JOINT1:0.978942,0.182558,-0.000000,0.091352 LARM_JOINT2:0.824111,0.000000,0.005416,-0.566402 LARM_JOINT3:0.968565,0.000000,-0.173122,-0.178637 LLEG_JOINT2:0.999170,0.023950,0.000000,0.032946 LLEG_JOINT4:0.996301,0.084341,0.000000,-0.016484 RARM_JOINT2:0.837987,0.000000,0.443229,0.318317 RARM_JOINT3:0.976102,0.000000,0.202993,-0.077586 RLEG_JOINT2:0.999092,0.014105,0.000000,-0.040213 RLEG_JOINT4:0.994743,0.094172,0.000000,0.040227 WAIST:0.999956,0.000000,-0.008938,-0.002858 WAIST_JOINT0:0.999456,-0.000000,0.029875,0.013995 WAIST_JOINT1:0.998025,0.062568,0.000000,-0.005528 END:
KINECT_DATA_Sensor  AnkleLeft:-0.063961,-0.689644,0.088208,0.715905 AnkleRight:0.080024,0.737173,0.072693,0.666999 ElbowLeft:-0.015410,0.898550,-0.185088,-0.397634 ElbowRight:-0.438406,0.739866,-0.014185,0.510095 FootLeft:0.000000,0.000000,0.000000,0.000000 FootRight:0.000000,0.000000,0.000000,0.000000 HandLeft:-0.025130,-0.571771,-0.061311,0.817733 HandRight:-0.171593,0.098094,-0.514048,0.834678 HandTipLeft:0.000000,0.000000,0.000000,0.000000 HandTipRight:0.000000,0.000000,0.000000,0.000000 Head:0.000000,0.000000,0.000000,0.000000 HipLeft:0.124270,-0.681909,0.700915,-0.168153 HipRight:-0.115139,0.678528,0.706485,-0.164990 KneeLeft:-0.004675,0.713383,-0.038156,-0.699720 KneeRight:-0.020105,0.700567,0.040607,0.712147 Neck:-0.030853,-0.005361,0.996423,-0.078483 ShoulderLeft:0.002369,0.776025,-0.627795,0.060446 ShoulderRight:-0.037674,0.788393,0.604882,-0.105517 SpineBase:0.008875,-0.006826,0.999182,-0.038859 SpineMid:-0.010931,-0.006054,0.999162,-0.038986 SpineShoulder:-0.031011,-0.005281,0.997829,-0.057855 ThumbLeft:0.000000,0.000000,0.000000,0.000000 ThumbRight:0.000000,0.000000,0.000000,0.000000 WristLeft:0.070561,-0.560872,-0.103489,0.818372 WristRight:-0.172468,0.101713,-0.546322,0.813291 END:
KINECT_DATA POSITION:1.810817,-0.735824,-1.634717 HEAD_JOINT1:0.978858,0.183009,-0.000000,0.091346 LARM_JOINT2:0.824249,0.000000,0.006537,-0.566190 LARM_JOINT3:0.968768,0.000000,-0.173139,-0.177514 LLEG_JOINT2:0.999168,0.023866,0.000000,0.033080 LLEG_JOINT4:0.996259,0.084939,0.000000,-0.015905 RARM_JOINT2:0.837363,0.000000,0.444415,0.318307 RARM_JOINT3:0.975799,0.000000,0.205587,-0.074502 RLEG_JOINT2:0.999108,0.013496,0.000000,-0.040004 RLEG_JOINT4:0.994663,0.095787,0.000000,0.038357 WAIST:0.999958,0.000000,-0.008756,-0.002864 WAIST_JOINT0:0.999400,-0.000000,0.031533,0.014311 WAIST_JOINT1:0.998051,0.062147,0.000000,-0.005626 END:
KINECT_DATA_Sensor  AnkleLeft:-0.063731,-0.688803,0.089111,0.716623 AnkleRight:0.080486,0.744357,0.073760,0.658797 ElbowLeft:-0.015168,0.897966,-0.185430,-0.398801 ElbowRight:-0.438911,0.742429,-0.013502,0.505939 FootLeft:0.000000,0.000000,0.000000,0.000000 FootRight:0.000000,0.000000,0.000000,0.000000 HandLeft:-0.027128,-0.483403,-0.053502,0.873340 HandRight:-0.156663,0.093676,-0.518578,0.835319 HandTipLeft:0.000000,0.000000,0.000000,0.000000 HandTipRight:0.000000,0.000000,0.000000,0.000000 Head:0.000000,0.000000,0.000000,0.000000 HipLeft:0.124270,-0.682008,0.700891,-0.167852 HipRight:-0.115367,0.678566,0.706430,-0.164913 KneeLeft:-0.004819,0.713256,-0.038188,-0.699846 KneeRight:-0.020405,0.700692,0.040031,0.712048 Neck:-0.032505,-0.005421,0.996407,-0.078015 ShoulderLeft:0.003369,0.776111,-0.627842,0.058778 ShoulderRight:-0.038811,0.788633,0.604345,-0.106388 SpineBase:0.008695,-0.006838,0.999193,-0.038612 SpineMid:-0.011838,-0.006043,0.999161,-0.038744 SpineShoulder:-0.032664,-0.005319,0.997799,-0.057468 ThumbLeft:0.000000,0.000000,0.000000,0.000000 ThumbRight:0.000000,0.000000,0.000000,0.000000 WristLeft:0.060103,-0.475676,-0.110250,0.870612 WristRight:-0.163418,0.093098,-0.548345,0.814828 END:
KINECT_DATA POSITION:1.817737,-0.732110,-1.662111 HEAD_JOINT1:0.978976,0.182924,-0.000000,0.090247 LARM_JOINT2:0.823569,0.000000,0.006450,-0.567179 LARM_JOINT3:0.968772,0.000000,-0.173419,-0.177218 LLEG_JOINT2:0.999164,0.024123,0.000000,0.032994 LLEG_JOINT4:0.996440,0.082225,0.000000,-0.018592 RARM_JOINT2:0.836748,0.000000,0.447172,0.316054 RARM_JOINT3:0.973549,0.000000,0.214809,-0.077841 RLEG_JOINT2:0.999079,0.014767,0.000000,-0.040285 RLEG_JOINT4:0.994322,0.097966,0.000000,0.041563 WAIST:0.999966,0.000000,-0.007786,-0.002793 WAIST_JOINT0:0.999313,-0.000000,0.034061,0.014576 WAIST_JOINT1:0.998062,0.061967,0.000000,-0.005694 END:
KINECT_DATA_Sensor  AnkleLeft:-0.063973,-0.687154,0.085524,0.718618 AnkleRight:0.082307,0.720729,0.076739,0.684022 ElbowLeft:-0.014992,0.897092,-0.184257,-0.401311 ElbowRight:-0.441132,0.747144,-0.011901,0.497027 FootLeft:0.000000,0.000000,0.000000,0.000000 FootRight:0.000000,0.000000,0.000000,0.000000 HandLeft:-0.020634,-0.608817,-0.065900,0.790299 HandRight:-0.156914,0.121639,-0.547995,0.812578 HandTipLeft:0.000000,0.000000,0.000000,0.000000 HandTipRight:0.000000,0.000000,0.000000,0.000000 Head:0.000000,0.000000,0.000000,0.000000 HipLeft:0.123751,-0.682136,0.701035,-0.167112 HipRight:-0.115956,0.678527,0.706283,-0.165290 KneeLeft:-0.004588,0.712577,-0.038367,-0.700529 KneeRight:-0.019680,0.701394,0.041055,0.711318 Neck:-0.035156,-0.005376,0.996331,-0.077845 ShoulderLeft:0.005668,0.775959,-0.628250,0.056188 ShoulderRight:-0.039945,0.788731,0.603879,-0.107876 SpineBase:0.007719,-0.006870,0.999208,-0.038436 SpineMid:-0.013647,-0.006047,0.999144,-0.038574 SpineShoulder:-0.035321,-0.005284,0.997718,-0.057293 ThumbLeft:0.000000,0.000000,0.000000,0.000000 ThumbRight:0.000000,0.000000,0.000000,0.000000 WristLeft:0.075957,-0.596693,-0.098924,0.792718 WristRight:-0.170931,0.111521,-0.544321,0.813671 END:
KINECT_DATA POSITION:1.817562,-0.744317,-1.673031 HEAD_JOINT1:0.979743,0.181665,-0.000000,0.084274 LARM_JOINT2:0.822663,0.000000,0.008452,-0.568466 LARM_JOINT3:0.970321,0.000000,-0.169834,-0.172142 LLEG_JOINT2:0.999172,0.023930,0.000000,0.032906 LLEG_JOINT4:0.996470,0.081887,0.000000,-0.018502 RARM_JOINT2:0.828227,0.000000,0.470013,0.305168 RARM_JOINT3:0.976442,0.000000,0.205833,-0.064754 RLEG_JOINT2:0.999103,0.013020,0.000000,-0.040282 RLEG_JOINT4:0.994572,0.096569,0.000000,0.038730 WAIST:0.999983,0.000000,-0.005049,-0.002957 WAIST_JOINT0:0.999094,-0.000000,0.039541,0.015749 WAIST_JOINT1:0.998107,0.061311,0.000000,-0.004817 END:
KINECT_DATA_Sensor  AnkleLeft:-0.063820,-0.683995,0.084970,0.721704 AnkleRight:0.079042,0.734228,0.075763,0.670016 ElbowLeft:-0.014096,0.893957,-0.183905,-0.408437 ElbowRight:-0.451527,0.758453,-0.023719,0.469372 FootLeft:0.000000,0.000000,0.000000,0.000000 FootRight:0.000000,0.000000,0.000000,0.000000 HandLeft:-0.018516,-0.566574,-0.042632,0.822699 HandRight:-0.133920,0.141651,-0.544420,0.815847 HandTipLeft:0.000000,0.000000,0.000000,0.000000 HandTipRight:0.000000,0.000000,0.000000,0.000000 Head:0.000000,0.000000,0.000000,0.000000 HipLeft:0.121979,-0.682925,0.701032,-0.165193 HipRight:-0.117636,0.678436,0.705873,-0.166221 KneeLeft:-0.004434,0.710676,-0.038069,-0.702475 KneeRight:-0.021148,0.703289,0.039892,0.709469 Neck:-0.040876,-0.004536,0.996176,-0.077085 ShoulderLeft:0.007783,0.776245,-0.628222,0.052150 ShoulderRight:-0.045325,0.790112,0.600834,-0.112544 SpineBase:0.005015,-0.006546,0.999244,-0.037997 SpineMid:-0.017844,-0.005675,0.999097,-0.038136 SpineShoulder:-0.041050,-0.004634,0.997540,-0.056633 ThumbLeft:0.000000,0.000000,0.000000,0.000000 ThumbRight:0.000000,0.000000,0.000000,0.000000 WristLeft:0.073159,-0.558299,-0.100957,0.820218 WristRight:-0.159198,0.124713,-0.548703,0.811189 END:
KINECT_DATA POSITION:1.838488,-0.755088,-1.672876 HEAD_JOINT1:0.980354,0.181635,-0.000000,0.076909 LARM_JOINT2:0.821916,0.000000,0.010376,-0.569515 LARM_JOINT3:0.969072,0.000000,-0.176711,-0.172256 LLEG_JOINT2:0.999173,0.023589,0.000000,0.033110 LLEG_JOINT4:0.996467,0.081871,0.000000,-0.018747 RARM_JOINT2:0.819417,0.000000,0.492932,0.292530 RARM_JOINT3:0.978213,0.000000,0.202018,-0.047839 RLEG_JOINT2:0.999083,0.014030,0.000000,-0.040459 RLEG_JOINT4:0.994430,0.097326,0.000000,0.040445 WAIST:0.999995,0.000000,-0.000332,-0.003175 WAIST_JOINT0:0.998668,-0.000000,0.048893,0.016500 WAIST_JOINT1:0.998149,0.060738,0.000000,-0.003170 END:
KINECT_DATA_Sensor  AnkleLeft:-0.063936,-0.678574,0.084423,0.726858 AnkleRight:0.079968,0.729108,0.077288,0.675303 ElbowLeft:-0.013496,0.889230,-0.184457,-0.418406 ElbowRight:-0.463973,0.798296,-0.003736,0.383977 FootLeft:0.000000,0.000000,0.000000,0.000000 FootRight:0.000000,0.000000,0.000000,0.000000 HandLeft:-0.006125,-0.638147,-0.064441,0.767188 HandRight:-0.108283,0.135111,-0.589291,0.789149 HandTipLeft:0.000000,0.000000,0.000000,0.000000 HandTipRight:0.000000,0.000000,0.000000,0.000000 Head:0.000000,0.000000,0.000000,0.000000 HipLeft:0.119409,-0.683776,0.701195,-0.162843 HipRight:-0.121505,0.677739,0.705185,-0.169178 KneeLeft:-0.004476,0.707379,-0.037850,-0.705806 KneeRight:-0.020889,0.706591,0.040793,0.706136 Neck:-0.050648,-0.002725,0.995789,-0.076370 ShoulderLeft:0.012725,0.775234,-0.629918,0.045325 ShoulderRight:-0.053308,0.789655,0.599193,-0.120708 SpineBase:0.000349,-0.005878,0.999271,-0.037710 SpineMid:-0.025054,-0.004917,0.998957,-0.037847 SpineShoulder:-0.050851,-0.003336,0.997128,-0.056031 ThumbLeft:0.000000,0.000000,0.000000,0.000000 ThumbRight:0.000000,0.000000,0.000000,0.000000 WristLeft:0.084987,-0.626364,-0.093668,0.769202 WristRight:-0.116710,0.127213,-0.540732,0.823289 END:
KINECT_DATA POSITION:1.851035,-0.786768,-1.620817 HEAD_JOINT1:0.982438,0.176212,-0.000000,0.061365 LARM_JOINT2:0.820210,0.000000,0.007952,-0.572007 LARM_JOINT3:0.969419,0.000000,-0.176185,-0.170838 LLEG_JOINT2:0.999159,0.022632,0.000000,0.034188 LLEG_JOINT4:0.996424,0.082143,0.000000,-0.019796 RARM_JOINT2:0.802147,0.000000,0.531922,0.271329 RARM_JOINT3:0.983625,0.000000,0.178156,-0.027241 RLEG_JOINT2:0.999036,0.015814,0.000000,-0.040954 RLEG_JOINT4:0.994230,0.098657,0.000000,0.042119 WAIST:0.999955,0.000000,0.008975,-0.003114 WAIST_JOINT0:0.997918,-0.000000,0.061825,0.018389 WAIST_JOINT1:0.998182,0.060236,0.000000,-0.001921 END:
KINECT_DATA_Sensor  AnkleLeft:-0.064121,-0.671012,0.083473,0.733937 AnkleRight:0.081719,0.729367,0.079932,0.674504 ElbowLeft:-0.013854,0.884292,-0.181989,-0.429785 ElbowRight:-0.481926,0.798358,-0.042496,0.358562 FootLeft:0.000000,0.000000,0.000000,0.000000 FootRight:0.000000,0.000000,0.000000,0.000000 HandLeft:-0.011458,-0.591592,-0.064353,0.803583 HandRight:-0.151193,0.160187,-0.459936,0.860197 HandTipLeft:0.000000,0.000000,0.000000,0.000000 HandTipRight:0.000000,0.000000,0.000000,0.000000 Head:0.000000,0.000000,0.000000,0.000000 HipLeft:0.116534,-0.684659,0.701648,-0.159224 HipRight:-0.130155,0.676234,0.703432,-0.175928 KneeLeft:0.005583,-0.700780,0.038053,0.712340 KneeRight:-0.020305,0.713116,0.042194,0.699480 Neck:-0.063462,-0.001577,0.995108,-0.075699 ShoulderLeft:0.020036,0.775007,-0.630619,0.035807 ShoulderRight:-0.062753,0.789751,0.595998,-0.130929 SpineBase:-0.008921,-0.005239,0.999269,-0.036796 SpineMid:-0.036081,-0.004236,0.998657,-0.036925 SpineShoulder:-0.063688,-0.002467,0.996421,-0.055517 ThumbLeft:0.000000,0.000000,0.000000,0.000000 ThumbRight:0.000000,0.000000,0.000000,0.000000 WristLeft:0.082863,-0.579997,-0.099176,0.804302 WristRight:-0.085102,0.188345,-0.592075,0.778929 END:
KINECT_DATA POSITION:2.027601,-0.898932,-1.410830 HEAD_JOINT1:0.983531,0.174866,-0.000000,0.045700 LARM_JOINT2:0.814574,0.000000,0.013686,-0.579898 LARM_JOINT3:0.970924,0.000000,-0.176117,-0.162141 LLEG_JOINT2:0.999234,0.020981,0.000000,0.033047 LLEG_JOINT4:0.996465,0.082633,0.000000,-0.015113 RARM_JOINT2:0.775955,0.000000,0.605622,0.176398 RARM_JOINT3:0.991941,0.000000,0.102552,0.074399 RLEG_JOINT2:0.998755,0.019430,0.000000,-0.045941 RLEG_JOINT4:0.993872,0.097191,0.000000,0.052662 WAIST:0.999624,0.000000,0.027284,-0.002791 WAIST_JOINT0:0.996170,-0.000000,0.084728,0.021585 WAIST_JOINT1:0.998275,0.058717,-0.000000,0.000123 END:
KINECT_DATA_Sensor  AnkleLeft:-0.062147,-0.657898,0.084197,0.745800 AnkleRight:0.083246,0.718546,0.081523,0.685650 ElbowLeft:-0.008069,0.867524,-0.176843,-0.464827 ElbowRight:-0.553909,0.802439,-0.051374,0.215957 FootLeft:0.000000,0.000000,0.000000,0.000000 FootRight:0.000000,0.000000,0.000000,0.000000 HandLeft:-0.005788,-0.605090,-0.067047,0.793308 HandRight:-0.022892,0.243529,-0.365737,0.898001 HandTipLeft:0.000000,0.000000,0.000000,0.000000 HandTipRight:0.000000,0.000000,0.000000,0.000000 Head:0.000000,0.000000,0.000000,0.000000 HipLeft:0.109561,-0.686005,0.703544,-0.149736 HipRight:-0.145725,0.673326,0.700535,-0.186138 KneeLeft:0.005489,-0.687638,0.036454,0.725117 KneeRight:-0.021929,0.725709,0.047687,0.685996 Neck:-0.086793,-0.000259,0.993459,-0.074204 ShoulderLeft:0.030764,0.775425,-0.630396,0.019247 ShoulderRight:-0.082427,0.791520,0.586640,-0.150185 SpineBase:-0.027162,-0.003386,0.999046,-0.034040 SpineMid:-0.056779,-0.002375,0.997801,-0.034126 SpineShoulder:-0.087006,-0.000885,0.994748,-0.053906 ThumbLeft:0.000000,0.000000,0.000000,0.000000 ThumbRight:0.000000,0.000000,0.000000,0.000000 WristLeft:0.090689,-0.592267,-0.089874,0.795561 WristRight:-0.121096,0.202084,-0.578532,0.780896 END:
KINECT_DATA POSITION:2.232100,-0.976948,-1.060414 HEAD_JOINT1:0.983869,0.174912,-0.000000,0.037527 LARM_JOINT2:0.812011,0.000000,0.015867,-0.583427 LARM_JOINT3:0.969031,0.000000,-0.184957,-0.163612 LLEG_JOINT2:0.999332,0.019597,0.000000,0.030860 LLEG_JOINT4:0.996540,0.082766,0.000000,-0.007604 RARM_JOINT2:0.782211,0.000000,0.609764,0.127805 RARM_JOINT3:0.983804,0.000000,0.125254,0.128224 RLEG_JOINT2:0.998497,0.024521,0.000000,-0.049013 RLEG_JOINT4:0.993699,0.096864,0.000000,0.056387 WAIST:0.998968,0.000000,0.045382,-0.001593 WAIST_JOINT0:0.995661,-0.000000,0.090214,0.022816 WAIST_JOINT1:0.998401,0.056479,-0.000000,0.002206 END:
KINECT_DATA_Sensor  AnkleLeft:-0.059457,-0.655211,0.086017,0.748174 AnkleRight:0.089972,0.758984,0.081351,0.639711 ElbowLeft:-0.006465,0.854153,-0.175754,-0.489379 ElbowRight:-0.493583,0.734592,0.321013,-0.337197 FootLeft:0.000000,0.000000,0.000000,0.000000 FootRight:0.000000,0.000000,0.000000,0.000000 HandLeft:0.002408,-0.589079,-0.085950,0.803488 HandRight:-0.122320,-0.260250,0.717915,-0.633960 HandTipLeft:0.000000,0.000000,0.000000,0.000000 HandTipRight:0.000000,0.000000,0.000000,0.000000 Head:0.000000,0.000000,0.000000,0.000000 HipLeft:0.101323,-0.687051,0.706128,-0.138119 HipRight:-0.159169,0.671915,0.697160,-0.192780 KneeLeft:0.005188,-0.674380,0.034881,0.737541 KneeRight:-0.020723,0.738068,0.052307,0.672377 Neck:-0.091529,0.001269,0.993145,-0.072690 ShoulderLeft:0.037562,0.774986,-0.630787,0.009656 ShoulderRight:-0.081409,0.791718,0.586924,-0.148579 SpineBase:-0.045236,-0.000430,0.998519,-0.030236 SpineMid:-0.068233,0.000267,0.997211,-0.030238 SpineShoulder:-0.091738,0.000502,0.994458,-0.051361 ThumbLeft:0.000000,0.000000,0.000000,0.000000 ThumbRight:0.000000,0.000000,0.000000,0.000000 WristLeft:0.096392,-0.574624,-0.094305,0.807231 WristRight:-0.020925,0.121084,-0.460043,0.879353 END:
KINECT_DATA POSITION:2.382149,-0.999369,-0.709605 HEAD_JOINT1:0.984436,0.173376,-0.000000,0.028749 LARM_JOINT2:0.809496,0.000000,0.020583,-0.586764 LARM_JOINT3:0.970430,0.000000,-0.181943,-0.158629 LLEG_JOINT2:0.999291,0.018986,0.000000,0.032497 LLEG_JOINT4:0.996423,0.084292,0.000000,-0.006073 RARM_JOINT2:0.785114,0.000000,0.594010,0.175350 RARM_JOINT3:0.979230,0.000000,0.171808,0.107657 RLEG_JOINT2:0.998456,0.029753,0.000000,-0.046917 RLEG_JOINT4:0.993450,0.098046,0.000000,0.058692 WAIST:0.997925,0.000000,0.064295,-0.003469 WAIST_JOINT0:0.993173,-0.000000,0.115386,0.017147 WAIST_JOINT1:0.998550,0.053146,-0.000000,0.008536 END:
KINECT_DATA_Sensor  AnkleLeft:-0.060865,-0.639798,0.086639,0.761215 AnkleRight:0.090302,0.737521,0.090630,0.663095 ElbowLeft:-0.004073,0.839994,-0.176290,-0.513142 ElbowRight:-0.490176,0.770517,0.268261,-0.306704 FootLeft:0.000000,0.000000,0.000000,0.000000 FootRight:0.000000,0.000000,0.000000,0.000000 HandLeft:0.007077,-0.560515,-0.067325,0.825373 HandRight:-0.228297,-0.266126,0.797033,-0.491727 HandTipLeft:0.000000,0.000000,0.000000,0.000000 HandTipRight:0.000000,0.000000,0.000000,0.000000 Head:0.000000,0.000000,0.000000,0.000000 HipLeft:0.091890,-0.689785,0.706838,-0.127014 HipRight:-0.173642,0.667915,0.695306,-0.200719 KneeLeft:0.004716,-0.660392,0.034495,0.750114 KneeRight:-0.017966,0.750704,0.055796,0.658033 Neck:-0.116422,0.006368,0.990740,-0.069569 ShoulderLeft:0.041025,0.775271,-0.630283,-0.003896 ShoulderRight:-0.111872,0.781553,0.588610,-0.173778 SpineBase:-0.063970,0.002310,0.997572,-0.027424 SpineMid:-0.090020,0.003026,0.995560,-0.027354 SpineShoulder:-0.116715,0.003859,0.991986,-0.048233 ThumbLeft:0.000000,0.000000,0.000000,0.000000 ThumbRight:0.000000,0.000000,0.000000,0.000000 WristLeft:0.100924,-0.548346,-0.091752,0.825053 WristRight:0.063831,0.037553,-0.433004,0.898344 END:
KINECT_DATA POSITION:2.432301,-0.949349,-0.551140 HEAD_JOINT1:0.984753,0.172684,-0.000000,0.021000 LARM_JOINT2:0.808780,0.000000,0.024090,-0.587617 LARM_JOINT3:0.968685,0.000000,-0.187031,-0.163305 LLEG_JOINT2:0.999222,0.017783,0.000000,0.035197 LLEG_JOINT4:0.996093,0.088171,0.000000,-0.004891 RARM_JOINT2:0.819190,0.000000,0.557973,0.132641 RARM_JOINT3:0.961101,0.000000,0.231456,0.150709 RLEG_JOINT2:0.998571,0.029982,0.000000,-0.044240 RLEG_JOINT4:0.993403,0.098522,0.000000,0.058691 WAIST:0.997316,0.000000,0.072924,-0.006611 WAIST_JOINT0:0.991882,-0.000000,0.126760,0.010085 WAIST_JOINT1:0.998584,0.051085,-0.000000,0.014866 END:
KINECT_DATA_Sensor  AnkleLeft:-0.063232,-0.632464,0.088669,0.766896 AnkleRight:0.089027,0.737537,0.093158,0.662899 ElbowLeft:-0.002965,0.833371,-0.178553,-0.523070 ElbowRight:-0.497601,0.766177,0.307288,-0.266345 FootLeft:0.000000,0.000000,0.000000,0.000000 FootRight:0.000000,0.000000,0.000000,0.000000 HandLeft:0.013074,-0.614634,-0.084563,0.784157 HandRight:-0.198388,-0.224109,0.776012,-0.555178 HandTipLeft:0.000000,0.000000,0.000000,0.000000 HandTipRight:0.000000,0.000000,0.000000,0.000000 Head:0.000000,0.000000,0.000000,0.000000 HipLeft:0.086444,-0.692821,0.705468,-0.121826 HipRight:-0.180065,0.664992,0.695602,-0.203718 KneeLeft:0.004850,-0.654011,0.033593,0.755723 KneeRight:-0.018470,0.756279,0.056302,0.651560 Neck:-0.127104,0.009856,0.989552,-0.067331 ShoulderLeft:0.046129,0.775537,-0.629476,-0.013206 ShoulderRight:-0.121396,0.771565,0.597416,-0.181782 SpineBase:-0.072398,0.003874,0.997018,-0.026422 SpineMid:-0.099589,0.004594,0.994670,-0.026306 SpineShoulder:-0.127398,0.006561,0.990731,-0.046682 ThumbLeft:0.000000,0.000000,0.000000,0.000000 ThumbRight:0.000000,0.000000,0.000000,0.000000 WristLeft:0.110509,-0.598304,-0.083686,0.789187 WristRight:0.063641,0.088220,-0.405773,0.907478 END:
KINECT_DATA POSITION:2.443086,-0.923242,-0.495887 HEAD_JOINT1:0.984845,0.172789,-0.000000,0.015007 LARM_JOINT2:0.806554,0.000000,0.035894,-0.590070 LARM_JOINT3:0.969103,0.000000,-0.187597,-0.160147 LLEG_JOINT2:0.999193,0.018579,0.000000,0.035616 LLEG_JOINT4:0.996073,0.088452,0.000000,-0.003836 RARM_JOINT2:0.828100,0.000000,0.537931,0.157735 RARM_JOINT3:0.953987,0.000000,0.269791,0.130846 RLEG_JOINT2:0.998541,0.031270,0.000000,-0.044033 RLEG_JOINT4:0.992986,0.100623,0.000000,0.062075 WAIST:0.997017,0.000000,0.076825,-0.007373 WAIST_JOINT0:0.991237,-0.000000,0.131847,0.008162 WAIST_JOINT1:0.998612,0.049529,-0.000000,0.017941 END:
KINECT_DATA_Sensor  AnkleLeft:-0.063939,-0.629210,0.089746,0.769384 AnkleRight:0.098665,0.778602,0.088430,0.613371 ElbowLeft:0.002986,0.822650,-0.180669,-0.539070 ElbowRight:-0.541779,0.822582,0.167451,-0.042361 FootLeft:0.000000,0.000000,0.000000,0.000000 FootRight:0.000000,0.000000,0.000000,0.000000 HandLeft:0.007212,-0.568905,-0.073352,0.819094 HandRight:0.078039,0.285078,-0.555631,0.777120 HandTipLeft:0.000000,0.000000,0.000000,0.000000 HandTipRight:0.000000,0.000000,0.000000,0.000000 Head:0.000000,0.000000,0.000000,0.000000 HipLeft:0.083980,-0.693873,0.705143,-0.119418 HipRight:-0.182946,0.664195,0.695186,-0.205161 KneeLeft:0.003829,-0.651081,0.033927,0.758240 KneeRight:-0.018205,0.758827,0.057630,0.648483 Neck:-0.132058,0.012155,0.989009,-0.065377 ShoulderLeft:0.046624,0.773963,-0.631309,-0.016045 ShoulderRight:-0.128196,0.766521,0.601112,-0.186212 SpineBase:-0.076245,0.004763,0.996740,-0.025941 SpineMid:-0.103987,0.005484,0.994229,-0.025798 SpineShoulder:-0.132311,0.008732,0.990127,-0.045459 ThumbLeft:0.000000,0.000000,0.000000,0.000000 ThumbRight:0.000000,0.000000,0.000000,0.000000 WristLeft:0.107906,-0.554019,-0.083233,0.821274 WristRight:0.032862,0.266718,-0.511349,0.816274 END:
KINECT_DATA POSITION:2.447603,-0.899339,-0.488472 HEAD_JOINT1:0.984719,0.173861,-0.000000,0.010000 LARM_JOINT2:0.805676,0.000000,0.035512,-0.591291 LARM_JOINT3:0.969207,0.000000,-0.186870,-0.160366 LLEG_JOINT2:0.999199,0.018267,0.000000,0.035593 LLEG_JOINT4:0.996016,0.089060,0.000000,-0.004580 RARM_JOINT2:0.830397,0.000000,0.528943,0.175103 RARM_JOINT3:0.951701,0.000000,0.281317,0.122989 RLEG_JOINT2:0.998495,0.031565,0.000000,-0.044852 RLEG_JOINT4:0.992959,0.100766,0.000000,0.062275 WAIST:0.996818,0.000000,0.079373,-0.007304 WAIST_JOINT0:0.990358,-0.000000,0.138328,0.007548 WAIST_JOINT1:0.998677,0.047438,-0.000000,0.019852 END:
KINECT_DATA_Sensor  AnkleLeft:0.077694,0.737245,-0.078352,-0.666554 AnkleRight:0.093830,0.749046,0.094105,0.649053 ElbowLeft:0.002299,0.824784,-0.180110,-0.535991 ElbowRight:-0.523929,0.828725,0.184176,-0.069230 FootLeft:0.000000,0.000000,0.000000,0.000000 FootRight:0.000000,0.000000,0.000000,0.000000 HandLeft:0.016006,-0.564591,-0.081918,0.821140 HandRight:-0.171553,-0.238575,0.720476,-0.628145 HandTipLeft:0.000000,0.000000,0.000000,0.000000 HandTipRight:0.000000,0.000000,0.000000,0.000000 Head:0.000000,0.000000,0.000000,0.000000 HipLeft:0.081981,-0.694117,0.705500,-0.117260 HipRight:-0.184691,0.664090,0.694732,-0.205479 KneeLeft:0.004000,-0.649137,0.033779,0.759910 KneeRight:-0.018716,0.760496,0.058305,0.646448 Neck:-0.138663,0.013983,0.988225,-0.063152 ShoulderLeft:0.050503,0.772353,-0.632764,-0.023012 ShoulderRight:-0.133231,0.763891,0.602433,-0.189194 SpineBase:-0.078778,0.005894,0.996552,-0.025379 SpineMid:-0.108515,0.006649,0.993753,-0.025191 SpineShoulder:-0.138849,0.010913,0.989299,-0.043461 ThumbLeft:0.000000,0.000000,0.000000,0.000000 ThumbRight:0.000000,0.000000,0.000000,0.000000 WristLeft:0.106290,-0.550569,-0.081623,0.823963 WristRight:0.077338,0.198138,-0.479203,0.851542 END:
KINECT_DATA POSITION:2.377401,-0.878740,-0.579619 HEAD_JOINT1:0.985169,0.171195,-0.000000,0.011576 LARM_JOINT2:0.806777,0.000000,0.032546,-0.589959 LARM_JOINT3:0.969219,0.000000,-0.184706,-0.162785 LLEG_JOINT2:0.999208,0.016765,0.000000,0.036080 LLEG_JOINT4:0.996162,0.087407,0.000000,-0.004518 RARM_JOINT2:0.829665,0.000000,0.536177,0.155471 RARM_JOINT3:0.957923,0.000000,0.257386,0.127025 RLEG_JOINT2:0.998490,0.030811,0.000000,-0.045478 RLEG_JOINT4:0.993078,0.099539,0.000000,0.062350 WAIST:0.996636,0.000000,0.081667,-0.006926 WAIST_JOINT0:0.989691,-0.000000,0.143057,0.006818 WAIST_JOINT1:0.998755,0.045917,-0.000000,0.019499 END:
KINECT_DATA_Sensor  AnkleLeft:-0.061738,-0.622501,0.087963,0.775205 AnkleRight:0.092279,0.751392,0.092842,0.646742 ElbowLeft:-0.000306,0.827296,-0.180209,-0.532076 ElbowRight:-0.556581,0.821079,0.125621,0.016337 FootLeft:0.000000,0.000000,0.000000,0.000000 FootRight:0.000000,0.000000,0.000000,0.000000 HandLeft:0.020318,-0.610594,-0.083522,0.787265 HandRight:0.067847,0.342329,-0.471836,0.809677 HandTipLeft:0.000000,0.000000,0.000000,0.000000 HandTipRight:0.000000,0.000000,0.000000,0.000000 Head:0.000000,0.000000,0.000000,0.000000 HipLeft:0.080359,-0.694510,0.705770,-0.114402 HipRight:-0.185972,0.664703,0.693969,-0.204917 KneeLeft:0.005639,-0.647349,0.033468,0.761437 KneeRight:-0.019538,0.762008,0.057838,0.644684 Neck:-0.143301,0.013623,0.987653,-0.061813 ShoulderLeft:0.051234,0.772047,-0.632935,-0.026677 ShoulderRight:-0.138789,0.761895,0.602669,-0.192467 SpineBase:-0.081101,0.006742,0.996392,-0.024098 SpineMid:-0.111935,0.007486,0.993400,-0.023878 SpineShoulder:-0.143450,0.011100,0.988709,-0.041864 ThumbLeft:0.000000,0.000000,0.000000,0.000000 ThumbRight:0.000000,0.000000,0.000000,0.000000 WristLeft:0.111403,-0.595326,-0.076546,0.792033 WristRight:-0.012874,0.284779,-0.549328,0.785477 END:
KINECT_DATA POSITION:2.242538,-0.862134,-0.742710 HEAD_JOINT1:0.985407,0.169733,-0.000000,0.012829 LARM_JOINT2:0.807040,0.000000,0.046058,-0.588697 LARM_JOINT3:0.965569,0.000000,-0.200530,-0.165723 LLEG_JOINT2:0.999202,0.016067,0.000000,0.036564 LLEG_JOINT4:0.996154,0.087384,0.000000,-0.006418 RARM_JOINT2:0.809704,0.000000,0.562744,0.166428 RARM_JOINT3:0.969361,0.000000,0.218761,0.111724 RLEG_JOINT2:0.998651,0.028618,0.000000,-0.043335 RLEG_JOINT4:0.993104,0.101082,0.000000,0.059385 WAIST:0.997130,0.000000,0.075364,-0.007221 WAIST_JOINT0:0.990966,-0.000000,0.134031,0.004731 WAIST_JOINT1:0.998769,0.045809,-0.000000,0.019039 END:
KINECT_DATA_Sensor  AnkleLeft:-0.061833,-0.627901,0.086547,0.770990 AnkleRight:0.096244,0.780158,0.087656,0.611888 ElbowLeft:0.005881,0.822042,-0.184544,-0.538662 ElbowRight:-0.544175,0.820905,0.154460,-0.078299 FootLeft:0.000000,0.000000,0.000000,0.000000 FootRight:0.000000,0.000000,0.000000,0.000000 HandLeft:0.032968,-0.545897,-0.110171,0.829923 HandRight:0.008948,0.235580,-0.581411,0.778706 HandTipLeft:0.000000,0.000000,0.000000,0.000000 HandTipRight:0.000000,0.000000,0.000000,0.000000 Head:0.000000,0.000000,0.000000,0.000000 HipLeft:0.082748,-0.694650,0.704994,-0.116609 HipRight:-0.181200,0.666184,0.695223,-0.200075 KneeLeft:0.006518,-0.652155,0.033104,0.757334 KneeRight:-0.019232,0.757899,0.055074,0.649758 Neck:-0.135017,0.012784,0.988839,-0.061684 ShoulderLeft:0.037485,0.773931,-0.631993,-0.014479 ShoulderRight:-0.142343,0.761907,0.602127,-0.191519 SpineBase:-0.074793,0.006915,0.996891,-0.023818 SpineMid:-0.104593,0.007625,0.994206,-0.023600 SpineShoulder:-0.135138,0.010634,0.989894,-0.041651 ThumbLeft:0.000000,0.000000,0.000000,0.000000 ThumbRight:0.000000,0.000000,0.000000,0.000000 WristLeft:0.105189,-0.532573,-0.085288,0.835480 WristRight:0.028549,0.265162,-0.508987,0.818417 END:
KINECT_DATA POSITION:1.994742,-0.801486,-0.997937 HEAD_JOINT1:0.986040,0.165659,-0.000000,0.016807 LARM_JOINT2:0.810402,0.000000,0.031926,-0.585004 LARM_JOINT3:0.966626,0.000000,-0.192597,-0.168940 LLEG_JOINT2:0.999079,0.014998,0.000000,0.040195 LLEG_JOINT4:0.996046,0.088248,0.000000,-0.010280 RARM_JOINT2:0.816340,0.000000,0.539342,0.206640 RARM_JOINT3:0.960681,0.000000,0.274726,0.040227 RLEG_JOINT2:0.998840,0.027485,0.000000,-0.039541 RLEG_JOINT4:0.993399,0.098059,0.000000,0.059515 WAIST:0.997279,0.000000,0.073229,-0.008444 WAIST_JOINT0:0.990124,0.000000,0.140003,-0.007332 WAIST_JOINT1:0.998776,0.045350,-0.000000,0.019727 END:
KINECT_DATA_Sensor  AnkleLeft:-0.061918,-0.623881,0.085949,0.774307 AnkleRight:0.096068,0.783220,0.082091,0.608768 ElbowLeft:-0.003648,0.834145,-0.184219,-0.519858 ElbowRight:-0.530518,0.841786,0.080176,0.059319 FootLeft:0.000000,0.000000,0.000000,0.000000 FootRight:0.000000,0.000000,0.000000,0.000000 HandLeft:0.024967,-0.546395,-0.115660,0.829127 HandRight:-0.049930,-0.147159,0.744277,-0.649540 HandTipLeft:0.000000,0.000000,0.000000,0.000000 HandTipRight:0.000000,0.000000,0.000000,0.000000 Head:0.000000,0.000000,0.000000,0.000000 HipLeft:0.083964,-0.695557,0.703781,-0.117659 HipRight:-0.180432,0.666002,0.696003,-0.198660 KneeLeft:0.008915,-0.653791,0.034268,0.755846 KneeRight:-0.017871,0.756500,0.052628,0.651628 Neck:-0.143502,0.012864,0.987677,-0.061126 ShoulderLeft:0.042577,0.774989,-0.630155,-0.022011 ShoulderRight:-0.148996,0.750392,0.612872,-0.197737 SpineBase:-0.072612,0.006923,0.997060,-0.023473 SpineMid:-0.107687,0.007746,0.993884,-0.023215 SpineShoulder:-0.143633,0.010699,0.988718,-0.041123 ThumbLeft:0.000000,0.000000,0.000000,0.000000 ThumbRight:0.000000,0.000000,0.000000,0.000000 WristLeft:0.105051,-0.531068,-0.086876,0.836292 WristRight:0.070504,0.218909,-0.544144,0.806855 END:
KINECT_DATA POSITION:1.883086,-0.894222,-1.032913 HEAD_JOINT1:0.986046,0.165372,-0.000000,0.019103 LARM_JOINT2:0.807111,0.000000,0.059606,-0.587383 LARM_JOINT3:0.962609,0.000000,-0.205875,-0.176067 LLEG_JOINT2:0.999171,0.015307,0.000000,0.037732 LLEG_JOINT4:0.996267,0.085901,0.000000,-0.008596 RARM_JOINT2:0.823893,0.000000,0.528342,0.205073 RARM_JOINT3:0.956723,0.000000,0.290728,-0.012569 RLEG_JOINT2:0.998808,0.028022,0.000000,-0.039969 RLEG_JOINT4:0.993546,0.096878,0.000000,0.058992 WAIST:0.997304,0.000000,0.073049,-0.006947 WAIST_JOINT0:0.993068,-0.000000,0.116632,0.014587 WAIST_JOINT1:0.998822,0.044792,-0.000000,0.018646 END:
