EastLYD/RoboCupatHomeSim/InteractiveCleanUp/JapanOpen2016/Motion_Data/File4.dat
KINECT_DATA POSITION:1.025459,-1.235285,-2.321219 HEAD_JOINT1:0.979290,0.151284,-0.000000,0.134553 LARM_JOINT2:0.831625,0.000000,-0.066076,-0.551393 LARM_JOINT3:0.960170,0.000000,-0.214897,-0.178583 LLEG_JOINT2:0.999247,0.024975,0.000000,0.029692 LLEG_JOINT4:0.995279,0.089292,0.000000,-0.038031 RARM_JOINT2:0.799730,0.000000,-0.030803,0.599569 RARM_JOINT3:0.967069,0.000000,0.208295,0.146257 RLEG_JOINT2:0.999708,0.023665,0.000000,-0.004786 RLEG_JOINT4:0.996680,0.073420,0.000000,0.035179 WAIST:0.999970,0.000000,-0.007166,0.002805 WAIST_JOINT0:0.999229,0.000000,-0.038581,0.007243 WAIST_JOINT1:0.997345,0.069637,0.000000,-0.021285 END:
KINECT_DATA_Sensor  AnkleLeft:0.091153,0.768657,-0.068847,-0.629378 AnkleRight:0.095436,0.748488,0.037469,0.655174 ElbowLeft:-0.064607,0.900719,-0.165350,-0.396473 ElbowRight:0.008758,0.867204,0.184329,0.462496 FootLeft:0.000000,0.000000,0.000000,0.000000 FootRight:0.000000,0.000000,0.000000,0.000000 HandLeft:-0.195066,0.777632,-0.005653,0.597667 HandRight:-0.171656,0.969552,-0.037528,0.170571 HandTipLeft:0.000000,0.000000,0.000000,0.000000 HandTipRight:0.000000,0.000000,0.000000,0.000000 Head:0.000000,0.000000,0.000000,0.000000 HipLeft:0.120591,-0.676635,0.707277,-0.165474 HipRight:-0.114838,0.676770,0.705361,-0.176806 KneeLeft:-0.005594,0.711517,-0.040613,-0.701472 KneeRight:0.015492,0.702504,0.018025,0.711282 Neck:0.036915,-0.021999,0.995419,-0.085402 ShoulderLeft:0.008195,0.779994,-0.620430,0.081297 ShoulderRight:0.057002,0.785036,0.616454,-0.021299 SpineBase:0.006203,-0.015445,0.998867,-0.044590 SpineMid:0.021328,-0.016119,0.998658,-0.044351 SpineShoulder:0.036798,-0.019448,0.997082,-0.063999 ThumbLeft:0.000000,0.000000,0.000000,0.000000 ThumbRight:0.000000,0.000000,0.000000,0.000000 WristLeft:-0.155122,0.797223,-0.099173,0.574924 WristRight:-0.105850,0.978136,0.002085,0.179000 END:
KINECT_DATA POSITION:1.006654,-1.255105,-2.276897 HEAD_JOINT1:0.978981,0.152617,-0.000000,0.135289 LARM_JOINT2:0.830205,0.000000,-0.065428,-0.553606 LARM_JOINT3:0.961073,0.000000,-0.214696,-0.173908 LLEG_JOINT2:0.999235,0.025904,0.000000,0.029285 LLEG_JOINT4:0.995444,0.087864,0.000000,-0.037041 RARM_JOINT2:0.801793,0.000000,-0.032922,0.596695 RARM_JOINT3:0.966164,0.000000,0.208282,0.152138 RLEG_JOINT2:0.999702,0.023941,0.000000,-0.004671 RLEG_JOINT4:0.996630,0.074319,0.000000,0.034728 WAIST:0.999967,0.000000,-0.007708,0.002758 WAIST_JOINT0:0.999240,0.000000,-0.038298,0.007297 WAIST_JOINT1:0.997344,0.069640,0.000000,-0.021331 END:
KINECT_DATA_Sensor  AnkleLeft:0.088142,0.748665,-0.071840,-0.653123 AnkleRight:0.096352,0.752313,0.037842,0.650622 ElbowLeft:-0.063085,0.900916,-0.163202,-0.397159 ElbowRight:0.008952,0.866805,0.188222,0.461673 FootLeft:0.000000,0.000000,0.000000,0.000000 FootRight:0.000000,0.000000,0.000000,0.000000 HandLeft:-0.176297,0.561533,-0.073722,0.805087 HandRight:-0.156984,0.974853,-0.039844,0.153071 HandTipLeft:0.000000,0.000000,0.000000,0.000000 HandTipRight:0.000000,0.000000,0.000000,0.000000 Head:0.000000,0.000000,0.000000,0.000000 HipLeft:0.120828,-0.676594,0.707195,-0.165820 HipRight:-0.114439,0.676806,0.705452,-0.176564 KneeLeft:-0.004638,0.711924,-0.040955,-0.701046 KneeRight:0.015748,0.702107,0.018163,0.711665 Neck:0.036593,-0.022042,0.995432,-0.085388 ShoulderLeft:0.007076,0.780282,-0.619977,0.082088 ShoulderRight:0.055476,0.786093,0.615204,-0.022463 SpineBase:0.006745,-0.015480,0.998858,-0.044695 SpineMid:0.021442,-0.016135,0.998651,-0.044462 SpineShoulder:0.036482,-0.019427,0.997091,-0.064044 ThumbLeft:0.000000,0.000000,0.000000,0.000000 ThumbRight:0.000000,0.000000,0.000000,0.000000 WristLeft:-0.115768,0.570392,-0.142016,0.800676 WristRight:-0.108088,0.981022,0.003572,0.160936 END:
KINECT_DATA POSITION:0.982860,-1.276959,-2.219892 HEAD_JOINT1:0.978585,0.154122,-0.000000,0.136451 LARM_JOINT2:0.829704,0.000000,-0.064791,-0.554430 LARM_JOINT3:0.962301,0.000000,-0.211390,-0.171148 LLEG_JOINT2:0.999212,0.026684,0.000000,0.029375 LLEG_JOINT4:0.995488,0.087380,0.000000,-0.037006 RARM_JOINT2:0.801769,0.000000,-0.033516,0.596694 RARM_JOINT3:0.964307,0.000000,0.213602,0.156484 RLEG_JOINT2:0.999689,0.024432,0.000000,-0.005063 RLEG_JOINT4:0.996552,0.073501,0.000000,0.038502 WAIST:0.999962,0.000000,-0.008276,0.002789 WAIST_JOINT0:0.999213,0.000000,-0.039019,0.007128 WAIST_JOINT1:0.997362,0.069293,0.000000,-0.021607 END:
KINECT_DATA_Sensor  AnkleLeft:0.091074,0.774874,-0.068560,-0.621752 AnkleRight:0.097619,0.739115,0.036844,0.665448 ElbowLeft:-0.062535,0.901086,-0.162230,-0.397260 ElbowRight:0.008795,0.865759,0.188479,0.463529 FootLeft:0.000000,0.000000,0.000000,0.000000 FootRight:0.000000,0.000000,0.000000,0.000000 HandLeft:-0.178476,0.783043,-0.019527,0.595490 HandRight:-0.167268,0.964734,-0.064695,0.192678 HandTipLeft:0.000000,0.000000,0.000000,0.000000 HandTipRight:0.000000,0.000000,0.000000,0.000000 Head:0.000000,0.000000,0.000000,0.000000 HipLeft:0.121496,-0.676538,0.707110,-0.165923 HipRight:-0.114337,0.676897,0.705471,-0.176205 KneeLeft:-0.004196,0.712341,-0.041593,-0.700588 KneeRight:0.015856,0.701692,0.018757,0.712057 Neck:0.037334,-0.022251,0.995432,-0.085011 ShoulderLeft:0.006096,0.780601,-0.619516,0.082614 ShoulderRight:0.055421,0.786260,0.615018,-0.021825 SpineBase:0.007303,-0.015706,0.998864,-0.044386 SpineMid:0.022086,-0.016361,0.998647,-0.044148 SpineShoulder:0.037219,-0.019639,0.997081,-0.063712 ThumbLeft:0.000000,0.000000,0.000000,0.000000 ThumbRight:0.000000,0.000000,0.000000,0.000000 WristLeft:-0.154097,0.795429,-0.097217,0.578011 WristRight:-0.110350,0.972693,-0.002314,0.204173 END:
KINECT_DATA POSITION:0.936289,-1.278189,-2.186430 HEAD_JOINT1:0.978412,0.154228,-0.000000,0.137564 LARM_JOINT2:0.829606,0.000000,-0.063908,-0.554680 LARM_JOINT3:0.962326,0.000000,-0.211512,-0.170856 LLEG_JOINT2:0.999186,0.027419,0.000000,0.029576 LLEG_JOINT4:0.995619,0.086294,0.000000,-0.036000 RARM_JOINT2:0.798456,0.000000,-0.026140,0.601486 RARM_JOINT3:0.956873,0.000000,0.241353,0.161686 RLEG_JOINT2:0.999701,0.023807,0.000000,-0.005594 RLEG_JOINT4:0.996440,0.074976,0.000000,0.038547 WAIST:0.999945,0.000000,-0.010025,0.003043 WAIST_JOINT0:0.999067,0.000000,-0.042500,0.007644 WAIST_JOINT1:0.997381,0.068826,0.000000,-0.022245 END:
KINECT_DATA_Sensor  AnkleLeft:0.087953,0.759940,-0.071890,-0.639990 AnkleRight:0.097343,0.723225,0.039535,0.682573 ElbowLeft:-0.062318,0.901761,-0.161747,-0.395956 ElbowRight:0.003547,0.860287,0.181023,0.476575 FootLeft:0.000000,0.000000,0.000000,0.000000 FootRight:0.000000,0.000000,0.000000,0.000000 HandLeft:-0.179315,0.775955,-0.021503,0.604382 HandRight:-0.231466,0.946438,-0.112952,0.194733 HandTipLeft:0.000000,0.000000,0.000000,0.000000 HandTipRight:0.000000,0.000000,0.000000,0.000000 Head:0.000000,0.000000,0.000000,0.000000 HipLeft:0.123204,-0.676149,0.707007,-0.166685 HipRight:-0.113720,0.677242,0.705462,-0.175311 KneeLeft:-0.004072,0.713570,-0.042434,-0.699286 KneeRight:0.015254,0.700489,0.018494,0.713261 Neck:0.040679,-0.022635,0.995334,-0.084516 ShoulderLeft:0.006124,0.780604,-0.619469,0.082930 ShoulderRight:0.059721,0.785918,0.615208,-0.016908 SpineBase:0.009020,-0.016063,0.998864,-0.043949 SpineMid:0.024607,-0.016747,0.998602,-0.043693 SpineShoulder:0.040565,-0.019999,0.996972,-0.063256 ThumbLeft:0.000000,0.000000,0.000000,0.000000 ThumbRight:0.000000,0.000000,0.000000,0.000000 WristLeft:-0.153222,0.788746,-0.098007,0.587195 WristRight:-0.128173,0.967079,-0.015246,0.219313 END:
KINECT_DATA POSITION:0.913493,-1.280859,-2.170801 HEAD_JOINT1:0.978963,0.150974,-0.000000,0.137251 LARM_JOINT2:0.829436,0.000000,-0.063997,-0.554924 LARM_JOINT3:0.962956,0.000000,-0.210869,-0.168078 LLEG_JOINT2:0.999169,0.027693,0.000000,0.029892 LLEG_JOINT4:0.995501,0.087301,0.000000,-0.036816 RARM_JOINT2:0.796787,0.000000,-0.019416,0.603949 RARM_JOINT3:0.955316,0.000000,0.249063,0.159182 RLEG_JOINT2:0.999704,0.023488,0.000000,-0.006372 RLEG_JOINT4:0.996478,0.073569,0.000000,0.040237 WAIST:0.999935,0.000000,-0.010943,0.003180 WAIST_JOINT0:0.999097,0.000000,-0.041376,0.009673 WAIST_JOINT1:0.997478,0.067466,0.000000,-0.022025 END:
KINECT_DATA_Sensor  AnkleLeft:0.087141,0.743145,-0.074867,-0.659194 AnkleRight:0.096677,0.720273,0.037850,0.685877 ElbowLeft:-0.063510,0.902612,-0.161247,-0.394028 ElbowRight:-0.002274,0.856531,0.175090,0.485482 FootLeft:0.000000,0.000000,0.000000,0.000000 FootRight:0.000000,0.000000,0.000000,0.000000 HandLeft:-0.174291,0.759549,-0.036467,0.625602 HandRight:-0.228859,0.949504,-0.104724,0.187343 HandTipLeft:0.000000,0.000000,0.000000,0.000000 HandTipRight:0.000000,0.000000,0.000000,0.000000 Head:0.000000,0.000000,0.000000,0.000000 HipLeft:0.124299,-0.675990,0.706905,-0.166954 HipRight:-0.113748,0.677510,0.705384,-0.174574 KneeLeft:-0.004237,0.714227,-0.042946,-0.698582 KneeRight:0.014598,0.699844,0.018720,0.713901 Neck:0.039386,-0.021960,0.995541,-0.082853 ShoulderLeft:0.007079,0.780138,-0.620374,0.080437 ShoulderRight:0.059014,0.787278,0.613550,-0.016313 SpineBase:0.009943,-0.015970,0.998883,-0.043350 SpineMid:0.024423,-0.016597,0.998634,-0.043114 SpineShoulder:0.039274,-0.019431,0.997108,-0.062096 ThumbLeft:0.000000,0.000000,0.000000,0.000000 ThumbRight:0.000000,0.000000,0.000000,0.000000 WristLeft:-0.150842,0.770265,-0.102603,0.611074 WristRight:-0.144594,0.967246,-0.022509,0.207415 END:
KINECT_DATA POSITION:0.923367,-1.282413,-2.118778 HEAD_JOINT1:0.979419,0.148786,-0.000000,0.136389 LARM_JOINT2:0.829089,0.000000,-0.061664,-0.555705 LARM_JOINT3:0.963158,0.000000,-0.210489,-0.167394 LLEG_JOINT2:0.999179,0.028058,0.000000,0.029212 LLEG_JOINT4:0.995493,0.086866,0.000000,-0.038061 RARM_JOINT2:0.794657,0.000000,-0.013000,0.606920 RARM_JOINT3:0.935826,0.000000,0.301509,0.182541 RLEG_JOINT2:0.999726,0.022668,0.000000,-0.005898 RLEG_JOINT4:0.996405,0.075357,0.000000,0.038717 WAIST:0.999929,0.000000,-0.011454,0.003311 WAIST_JOINT0:0.999161,0.000000,-0.039379,0.011222 WAIST_JOINT1:0.997680,0.064491,0.000000,-0.021825 END:
KINECT_DATA_Sensor  AnkleLeft:0.089323,0.752968,-0.072259,-0.647950 AnkleRight:0.098792,0.756311,0.033794,0.645826 ElbowLeft:-0.064878,0.901197,-0.160343,-0.397397 ElbowRight:-0.009996,0.849605,0.167752,0.499931 FootLeft:0.000000,0.000000,0.000000,0.000000 FootRight:0.000000,0.000000,0.000000,0.000000 HandLeft:-0.176016,0.795423,-0.026550,0.579324 HandRight:-0.295436,0.908216,-0.205755,0.213371 HandTipLeft:0.000000,0.000000,0.000000,0.000000 HandTipRight:0.000000,0.000000,0.000000,0.000000 Head:0.000000,0.000000,0.000000,0.000000 HipLeft:0.125310,-0.676099,0.706759,-0.166370 HipRight:-0.114242,0.677953,0.705171,-0.173383 KneeLeft:-0.003607,0.714627,-0.042824,-0.698184 KneeRight:0.014444,0.699468,0.017708,0.714299 Neck:0.037397,-0.021350,0.995920,-0.079300 ShoulderLeft:0.006874,0.780995,-0.619763,0.076770 ShoulderRight:0.056124,0.789108,0.611483,-0.015722 SpineBase:0.010480,-0.015782,0.998936,-0.042049 SpineMid:0.023709,-0.016337,0.998710,-0.041837 SpineShoulder:0.037290,-0.018863,0.997359,-0.059399 ThumbLeft:0.000000,0.000000,0.000000,0.000000 ThumbRight:0.000000,0.000000,0.000000,0.000000 WristLeft:-0.157356,0.804910,-0.095694,0.564094 WristRight:-0.182135,0.947166,-0.059899,0.257128 END:
KINECT_DATA POSITION:1.046106,-1.247881,-2.039933 HEAD_JOINT1:0.979647,0.146709,-0.000000,0.136999 LARM_JOINT2:0.828656,0.000000,-0.058809,-0.556660 LARM_JOINT3:0.962579,0.000000,-0.213737,-0.166609 LLEG_JOINT2:0.999216,0.029569,0.000000,0.026311 LLEG_JOINT4:0.995780,0.085922,0.000000,-0.032230 RARM_JOINT2:0.791417,0.000000,-0.012766,0.611144 RARM_JOINT3:0.902945,0.000000,0.378742,0.203090 RLEG_JOINT2:0.999742,0.021886,0.000000,-0.006150 RLEG_JOINT4:0.996166,0.080333,0.000000,0.034642 WAIST:0.999921,0.000000,-0.012026,0.003711 WAIST_JOINT0:0.999152,0.000000,-0.039306,0.012263 WAIST_JOINT1:0.997858,0.062096,0.000000,-0.020580 END:
KINECT_DATA_Sensor  AnkleLeft:0.088450,0.761837,-0.074048,-0.637415 AnkleRight:0.098888,0.744385,0.041167,0.659103 ElbowLeft:-0.065162,0.901305,-0.161160,-0.396774 ElbowRight:-0.012344,0.838552,0.160294,0.520561 FootLeft:0.000000,0.000000,0.000000,0.000000 FootRight:0.000000,0.000000,0.000000,0.000000 HandLeft:-0.182993,0.742082,-0.054445,0.642545 HandRight:-0.406573,0.871836,-0.238542,0.133033 HandTipLeft:0.000000,0.000000,0.000000,0.000000 HandTipRight:0.000000,0.000000,0.000000,0.000000 Head:0.000000,0.000000,0.000000,0.000000 HipLeft:0.125928,-0.676044,0.706863,-0.165684 HipRight:-0.115022,0.678855,0.704737,-0.171090 KneeLeft:-0.000777,0.715121,-0.042161,-0.697727 KneeRight:0.014002,0.699012,0.017055,0.714770 Neck:0.037474,-0.019065,0.996173,-0.076621 ShoulderLeft:0.004966,0.781293,-0.619553,0.075569 ShoulderRight:0.054088,0.790244,0.610227,-0.014535 SpineBase:0.011135,-0.013923,0.999028,-0.040318 SpineMid:0.024090,-0.014445,0.998799,-0.040134 SpineShoulder:0.037342,-0.017291,0.997516,-0.057166 ThumbLeft:0.000000,0.000000,0.000000,0.000000 ThumbRight:0.000000,0.000000,0.000000,0.000000 WristLeft:-0.148129,0.754010,-0.109082,0.630578 WristRight:-0.245601,0.945196,-0.091381,0.194767 END:
KINECT_DATA POSITION:1.352741,-1.200649,-1.871955 HEAD_JOINT1:0.980040,0.143673,-0.000000,0.137404 LARM_JOINT2:0.827896,0.000000,-0.059094,-0.557760 LARM_JOINT3:0.962528,0.000000,-0.212174,-0.168887 LLEG_JOINT2:0.999331,0.031178,0.000000,0.019094 LLEG_JOINT4:0.995973,0.085649,0.000000,-0.026491 RARM_JOINT2:0.793702,0.000000,-0.009032,0.608240 RARM_JOINT3:0.875397,0.000000,0.435583,0.209635 RLEG_JOINT2:0.999667,0.023637,0.000000,-0.010328 RLEG_JOINT4:0.996097,0.081523,0.000000,0.033838 WAIST:0.999930,0.000000,-0.010278,0.005817 WAIST_JOINT0:0.999227,0.000000,-0.037099,0.013002 WAIST_JOINT1:0.998001,0.060262,0.000000,-0.019055 END:
KINECT_DATA_Sensor  AnkleLeft:0.093052,0.793710,-0.070428,-0.596998 AnkleRight:0.099567,0.750446,0.044652,0.651862 ElbowLeft:-0.066813,0.902045,-0.162800,-0.394140 ElbowRight:-0.020591,0.827103,0.157457,0.539152 FootLeft:0.000000,0.000000,0.000000,0.000000 FootRight:0.000000,0.000000,0.000000,0.000000 HandLeft:-0.184687,0.759540,-0.049685,0.621709 HandRight:-0.412599,0.842006,-0.286592,0.196602 HandTipLeft:0.000000,0.000000,0.000000,0.000000 HandTipRight:0.000000,0.000000,0.000000,0.000000 Head:0.000000,0.000000,0.000000,0.000000 HipLeft:0.125061,-0.675206,0.708317,-0.163537 HipRight:-0.118223,0.680971,0.702728,-0.168746 KneeLeft:0.004084,0.713920,-0.039741,-0.699086 KneeRight:0.013782,0.700175,0.019798,0.713563 Neck:0.035539,-0.014008,0.996493,-0.074441 ShoulderLeft:0.004603,0.781068,-0.620103,0.073370 ShoulderRight:0.050905,0.791236,0.609186,-0.015708 SpineBase:0.009475,-0.009076,0.999206,-0.037617 SpineMid:0.022332,-0.009559,0.999001,-0.037497 SpineShoulder:0.035315,-0.014218,0.997733,-0.055501 ThumbLeft:0.000000,0.000000,0.000000,0.000000 ThumbRight:0.000000,0.000000,0.000000,0.000000 WristLeft:-0.150390,0.771314,-0.105949,0.609289 WristRight:-0.298267,0.907624,-0.145765,0.256919 END:
KINECT_DATA POSITION:1.601677,-1.135925,-1.725256 HEAD_JOINT1:0.980449,0.141150,-0.000000,0.137100 LARM_JOINT2:0.827209,0.000000,-0.060220,-0.558657 LARM_JOINT3:0.961748,0.000000,-0.214777,-0.170031 LLEG_JOINT2:0.999389,0.032712,0.000000,0.012306 LLEG_JOINT4:0.996345,0.082025,0.000000,-0.023832 RARM_JOINT2:0.797408,0.000000,-0.001102,0.603439 RARM_JOINT3:0.865697,0.000000,0.446878,0.225541 RLEG_JOINT2:0.999520,0.026078,0.000000,-0.016754 RLEG_JOINT4:0.996041,0.080865,0.000000,0.036911 WAIST:0.999930,0.000000,-0.007563,0.009056 WAIST_JOINT0:0.999348,0.000000,-0.033188,0.014234 WAIST_JOINT1:0.998064,0.059235,0.000000,-0.018969 END:
KINECT_DATA_Sensor  AnkleLeft:0.089984,0.773501,-0.071035,-0.623341 AnkleRight:0.100669,0.750921,0.046295,0.651030 ElbowLeft:-0.068580,0.901400,-0.164233,-0.394719 ElbowRight:-0.027680,0.832572,0.155930,0.530795 FootLeft:0.000000,0.000000,0.000000,0.000000 FootRight:0.000000,0.000000,0.000000,0.000000 HandLeft:-0.196357,0.800038,-0.042046,0.565345 HandRight:-0.421806,0.858806,-0.270375,0.106908 HandTipLeft:0.000000,0.000000,0.000000,0.000000 HandTipRight:0.000000,0.000000,0.000000,0.000000 Head:0.000000,0.000000,0.000000,0.000000 HipLeft:0.124171,-0.673658,0.710457,-0.161300 HipRight:-0.121893,0.683398,0.699822,-0.168400 KneeLeft:0.007800,0.711908,-0.038337,-0.701182 KneeRight:0.013239,0.702152,0.023825,0.711505 Neck:0.031825,-0.010073,0.996740,-0.073454 ShoulderLeft:0.005775,0.780132,-0.621619,0.070357 ShoulderRight:0.047161,0.791696,0.608804,-0.018738 SpineBase:0.006720,-0.005207,0.999334,-0.035491 SpineMid:0.019147,-0.005648,0.999173,-0.035424 SpineShoulder:0.031582,-0.011222,0.997950,-0.054514 ThumbLeft:0.000000,0.000000,0.000000,0.000000 ThumbRight:0.000000,0.000000,0.000000,0.000000 WristLeft:-0.158254,0.812267,-0.097227,0.552924 WristRight:-0.330482,0.919325,-0.137374,0.163557 END:
KINECT_DATA POSITION:1.814537,-1.078442,-1.618505 HEAD_JOINT1:0.981216,0.139806,-0.000000,0.132930 LARM_JOINT2:0.825778,0.000000,-0.057397,-0.561067 LARM_JOINT3:0.963142,0.000000,-0.212896,-0.164417 LLEG_JOINT2:0.999397,0.033999,0.000000,0.007003 LLEG_JOINT4:0.996242,0.084383,0.000000,-0.019509 RARM_JOINT2:0.801641,0.000000,0.011056,0.597703 RARM_JOINT3:0.841258,0.000000,0.485901,0.237035 RLEG_JOINT2:0.999423,0.026185,0.000000,-0.021634 RLEG_JOINT4:0.995920,0.081105,0.000000,0.039560 WAIST:0.999928,0.000000,-0.003893,0.011311 WAIST_JOINT0:0.999594,0.000000,-0.022414,0.017615 WAIST_JOINT1:0.998171,0.057891,0.000000,-0.017422 END:
KINECT_DATA_Sensor  AnkleLeft:0.093485,0.781639,-0.072386,-0.612422 AnkleRight:0.100130,0.744476,0.048181,0.658338 ElbowLeft:-0.069837,0.893666,-0.165090,-0.411375 ElbowRight:-0.041056,0.829355,0.152096,0.536051 FootLeft:0.000000,0.000000,0.000000,0.000000 FootRight:0.000000,0.000000,0.000000,0.000000 HandLeft:-0.161924,0.774674,-0.054401,0.608853 HandRight:-0.412157,0.851845,-0.304394,0.108766 HandTipLeft:0.000000,0.000000,0.000000,0.000000 HandTipRight:0.000000,0.000000,0.000000,0.000000 Head:0.000000,0.000000,0.000000,0.000000 HipLeft:0.122800,-0.672722,0.712049,-0.159222 HipRight:-0.126245,0.684829,0.697418,-0.169352 KneeLeft:0.010992,0.709223,-0.037056,-0.703923 KneeRight:0.011362,0.704826,0.025797,0.708820 Neck:0.021210,-0.005536,0.997157,-0.072097 ShoulderLeft:0.010944,0.779057,-0.623779,0.062046 ShoulderRight:0.038638,0.793837,0.606296,-0.027121 SpineBase:0.003058,-0.001820,0.999420,-0.033878 SpineMid:0.012060,-0.002125,0.999352,-0.033860 SpineShoulder:0.020973,-0.007389,0.998333,-0.053259 ThumbLeft:0.000000,0.000000,0.000000,0.000000 ThumbRight:0.000000,0.000000,0.000000,0.000000 WristLeft:-0.155140,0.779817,-0.114052,0.595659 WristRight:-0.383157,0.891168,-0.176714,0.166680 END:
KINECT_DATA POSITION:1.956064,-1.073107,-1.459849 HEAD_JOINT1:0.982330,0.142467,-0.000000,0.121374 LARM_JOINT2:0.820707,0.000000,-0.047013,-0.569411 LARM_JOINT3:0.964296,0.000000,-0.214040,-0.155951 LLEG_JOINT2:0.999380,0.034994,0.000000,0.003964 LLEG_JOINT4:0.996601,0.080372,0.000000,-0.018067 RARM_JOINT2:0.804838,0.000000,0.024847,0.592974 RARM_JOINT3:0.831331,0.000000,0.494225,0.254223 RLEG_JOINT2:0.999270,0.028592,0.000000,-0.025338 RLEG_JOINT4:0.995984,0.080590,0.000000,0.039011 WAIST:0.999884,-0.000000,0.007289,0.013371 WAIST_JOINT0:0.999761,-0.000000,0.000749,0.021843 WAIST_JOINT1:0.998338,0.056162,0.000000,-0.012961 END:
KINECT_DATA_Sensor  AnkleLeft:0.090715,0.767984,-0.070813,-0.630045 AnkleRight:0.100306,0.762647,0.050384,0.637000 ElbowLeft:-0.066191,0.873532,-0.164519,-0.453315 ElbowRight:-0.052210,0.839245,0.143736,0.521807 FootLeft:0.000000,0.000000,0.000000,0.000000 FootRight:0.000000,0.000000,0.000000,0.000000 HandLeft:-0.145198,0.777754,-0.049234,0.609583 HandRight:0.342380,-0.071982,-0.395703,0.849125 HandTipLeft:0.000000,0.000000,0.000000,0.000000 HandTipRight:0.000000,0.000000,0.000000,0.000000 Head:0.000000,0.000000,0.000000,0.000000 HipLeft:0.119141,-0.672727,0.713750,-0.154291 HipRight:-0.137342,0.684829,0.693603,-0.176242 KneeLeft:-0.012699,-0.701220,0.036831,0.711880 KneeRight:0.011494,0.712729,0.028689,0.700758 Neck:-0.001777,0.000921,0.997534,-0.070151 ShoulderLeft:0.022991,0.777713,-0.626625,0.044441 ShoulderRight:0.021238,0.797291,0.601499,-0.045553 SpineBase:-0.008084,0.001333,0.999463,-0.031725 SpineMid:-0.004964,0.001234,0.999483,-0.031729 SpineShoulder:-0.001912,-0.000778,0.998669,-0.051534 ThumbLeft:0.000000,0.000000,0.000000,0.000000 ThumbRight:0.000000,0.000000,0.000000,0.000000 WristLeft:-0.148481,0.781794,-0.129489,0.591595 WristRight:0.197780,-0.139610,-0.403407,0.882414 END:
KINECT_DATA POSITION:2.191338,-1.103289,-1.291609 HEAD_JOINT1:0.983353,0.144855,-0.000000,0.109694 LARM_JOINT2:0.814963,0.000000,-0.038598,-0.578227 LARM_JOINT3:0.964329,0.000000,-0.217282,-0.151189 LLEG_JOINT2:0.999366,0.035585,0.000000,-0.000811 LLEG_JOINT4:0.996697,0.079477,0.000000,-0.016699 RARM_JOINT2:0.807144,0.000000,0.037962,0.589132 RARM_JOINT3:0.828058,0.000000,0.469660,0.306168 RLEG_JOINT2:0.998997,0.031586,0.000000,-0.031729 RLEG_JOINT4:0.995950,0.078614,0.000000,0.043635 WAIST:0.999678,-0.000000,0.018950,0.016865 WAIST_JOINT0:0.999458,-0.000000,0.019196,0.026760 WAIST_JOINT1:0.998444,0.054818,0.000000,-0.010215 END:
KINECT_DATA_Sensor  AnkleLeft:0.089383,0.745164,-0.071645,-0.656969 AnkleRight:0.100352,0.756503,0.052875,0.644078 ElbowLeft:-0.060662,0.858712,-0.163377,-0.481915 ElbowRight:-0.058796,0.861049,0.136166,0.486412 FootLeft:0.000000,0.000000,0.000000,0.000000 FootRight:0.000000,0.000000,0.000000,0.000000 HandLeft:-0.149177,0.773915,-0.052457,0.613229 HandRight:0.453438,-0.000525,-0.310724,0.835371 HandTipLeft:0.000000,0.000000,0.000000,0.000000 HandTipRight:0.000000,0.000000,0.000000,0.000000 Head:0.000000,0.000000,0.000000,0.000000 HipLeft:0.114440,-0.671711,0.716695,-0.148511 HipRight:-0.147982,0.685813,0.688932,-0.182030 KneeLeft:-0.014279,-0.692696,0.036010,0.720188 KneeRight:0.010996,0.720976,0.032830,0.692095 Neck:-0.020264,0.006936,0.997405,-0.068732 ShoulderLeft:0.030228,0.775383,-0.629952,0.032061 ShoulderRight:0.004790,0.801446,0.594839,-0.061870 SpineBase:-0.019745,0.005897,0.999356,-0.029387 SpineMid:-0.019959,0.005904,0.999351,-0.029386 SpineShoulder:-0.020317,0.005189,0.998526,-0.050066 ThumbLeft:0.000000,0.000000,0.000000,0.000000 ThumbRight:0.000000,0.000000,0.000000,0.000000 WristLeft:-0.140156,0.780904,-0.137761,0.592931 WristRight:0.217761,-0.100997,-0.397308,0.885735 END:
KINECT_DATA POSITION:2.187636,-1.108907,-1.279700 HEAD_JOINT1:0.983827,0.147737,-0.000000,0.101278 LARM_JOINT2:0.812548,0.000000,-0.040055,-0.581517 LARM_JOINT3:0.963707,0.000000,-0.218656,-0.153161 LLEG_JOINT2:0.999362,0.035713,0.000000,-0.000880 LLEG_JOINT4:0.996773,0.077851,0.000000,-0.019573 RARM_JOINT2:0.806982,0.000000,0.047129,0.588693 RARM_JOINT3:0.821748,0.000000,0.460693,0.335398 RLEG_JOINT2:0.998963,0.032777,0.000000,-0.031610 RLEG_JOINT4:0.996024,0.078130,0.000000,0.042806 WAIST:0.999595,-0.000000,0.022521,0.017410 WAIST_JOINT0:0.999233,-0.000000,0.026875,0.028471 WAIST_JOINT1:0.998507,0.054002,0.000000,-0.008208 END:
KINECT_DATA_Sensor  AnkleLeft:0.089437,0.738192,-0.069104,-0.665055 AnkleRight:0.101233,0.767481,0.052412,0.630855 ElbowLeft:-0.061058,0.857145,-0.161321,-0.485334 ElbowRight:-0.062108,0.873280,0.130507,0.465287 FootLeft:0.000000,0.000000,0.000000,0.000000 FootRight:0.000000,0.000000,0.000000,0.000000 HandLeft:-0.151266,0.591872,-0.090321,0.786542 HandRight:0.525322,-0.045459,-0.246340,0.813195 HandTipLeft:0.000000,0.000000,0.000000,0.000000 HandTipRight:0.000000,0.000000,0.000000,0.000000 Head:0.000000,0.000000,0.000000,0.000000 HipLeft:0.111776,-0.671672,0.717564,-0.146510 HipRight:-0.150142,0.685835,0.688152,-0.183126 KneeLeft:-0.014119,-0.690088,0.036340,0.722675 KneeRight:0.012130,0.723460,0.033218,0.689460 Neck:-0.028227,0.008274,0.997220,-0.068466 ShoulderLeft:0.034628,0.773192,-0.632716,0.025390 ShoulderRight:-0.000863,0.802345,0.593042,-0.067408 SpineBase:-0.023292,0.007548,0.999273,-0.029234 SpineMid:-0.025634,0.007617,0.999215,-0.029216 SpineShoulder:-0.028118,0.008199,0.998368,-0.049028 ThumbLeft:0.000000,0.000000,0.000000,0.000000 ThumbRight:0.000000,0.000000,0.000000,0.000000 WristLeft:-0.096505,0.597886,-0.170026,0.777374 WristRight:0.260291,-0.150432,-0.372556,0.877964 END:
KINECT_DATA POSITION:2.090003,-1.110379,-1.342583 HEAD_JOINT1:0.983955,0.149633,-0.000000,0.097175 LARM_JOINT2:0.811720,0.000000,-0.040593,-0.582634 LARM_JOINT3:0.962578,0.000000,-0.222003,-0.155431 LLEG_JOINT2:0.999413,0.034225,0.000000,0.001209 LLEG_JOINT4:0.996604,0.079907,0.000000,-0.019884 RARM_JOINT2:0.802441,0.000000,0.060512,0.593655 RARM_JOINT3:0.821104,0.000000,0.454500,0.345279 RLEG_JOINT2:0.998982,0.032911,0.000000,-0.030860 RLEG_JOINT4:0.996090,0.076828,0.000000,0.043607 WAIST:0.999521,-0.000000,0.025601,0.017358 WAIST_JOINT0:0.999185,-0.000000,0.028784,0.028297 WAIST_JOINT1:0.998505,0.054065,0.000000,-0.008048 END:
KINECT_DATA_Sensor  AnkleLeft:0.089934,0.745155,-0.069247,-0.657161 AnkleRight:0.100350,0.759446,0.052398,0.640645 ElbowLeft:-0.060545,0.855094,-0.160099,-0.489405 ElbowRight:-0.065004,0.885309,0.119759,0.444590 FootLeft:0.000000,0.000000,0.000000,0.000000 FootRight:0.000000,0.000000,0.000000,0.000000 HandLeft:-0.181425,0.763336,-0.047585,0.618174 HandRight:0.502222,0.057361,-0.304440,0.807341 HandTipLeft:0.000000,0.000000,0.000000,0.000000 HandTipRight:0.000000,0.000000,0.000000,0.000000 Head:0.000000,0.000000,0.000000,0.000000 HipLeft:0.109653,-0.671783,0.718107,-0.144933 HipRight:-0.151849,0.685267,0.688022,-0.184329 KneeLeft:-0.011713,-0.687914,0.036711,0.724768 KneeRight:0.012588,0.725575,0.032835,0.687244 Neck:-0.030288,0.007551,0.997130,-0.068979 ShoulderLeft:0.035106,0.772535,-0.633529,0.024445 ShoulderRight:-0.002975,0.802254,0.592916,-0.069507 SpineBase:-0.026345,0.008315,0.999189,-0.029309 SpineMid:-0.028146,0.008367,0.999139,-0.029294 SpineShoulder:-0.030123,0.008278,0.998314,-0.048923 ThumbLeft:0.000000,0.000000,0.000000,0.000000 ThumbRight:0.000000,0.000000,0.000000,0.000000 WristLeft:-0.139134,0.780710,-0.139651,0.592985 WristRight:0.243466,-0.053656,-0.390592,0.886162 END:
KINECT_DATA POSITION:1.918748,-1.079144,-1.513195 HEAD_JOINT1:0.983988,0.151230,-0.000000,0.094324 LARM_JOINT2:0.811747,0.000000,-0.041597,-0.582526 LARM_JOINT3:0.962248,0.000000,-0.223565,-0.155235 LLEG_JOINT2:0.999523,0.030572,0.000000,0.004413 LLEG_JOINT4:0.996521,0.080628,0.000000,-0.021088 RARM_JOINT2:0.801546,0.000000,0.076771,0.592984 RARM_JOINT3:0.817773,0.000000,0.450793,0.357819 RLEG_JOINT2:0.999103,0.031152,0.000000,-0.028675 RLEG_JOINT4:0.995840,0.079516,0.000000,0.044503 WAIST:0.999443,-0.000000,0.029077,0.016380 WAIST_JOINT0:0.999252,-0.000000,0.028025,0.026633 WAIST_JOINT1:0.998481,0.054603,0.000000,-0.007370 END:
KINECT_DATA_Sensor  AnkleLeft:0.085867,0.729877,-0.069629,-0.674580 AnkleRight:0.101201,0.748570,0.053873,0.653069 ElbowLeft:-0.059497,0.855561,-0.160185,-0.488689 ElbowRight:-0.073490,0.895782,0.113745,0.423362 FootLeft:0.000000,0.000000,0.000000,0.000000 FootRight:0.000000,0.000000,0.000000,0.000000 HandLeft:-0.180932,0.776903,-0.051433,0.600866 HandRight:0.518743,0.091485,-0.311317,0.790960 HandTipLeft:0.000000,0.000000,0.000000,0.000000 HandTipRight:0.000000,0.000000,0.000000,0.000000 Head:0.000000,0.000000,0.000000,0.000000 HipLeft:0.106943,-0.672573,0.718071,-0.143468 HipRight:-0.153608,0.683859,0.688429,-0.186568 KneeLeft:-0.007634,-0.685522,0.035762,0.727133 KneeRight:0.012120,0.727917,0.030748,0.684868 Neck:-0.029731,0.006532,0.997093,-0.069853 ShoulderLeft:0.034583,0.772568,-0.633472,0.025597 ShoulderRight:-0.002762,0.801828,0.593470,-0.069702 SpineBase:-0.029775,0.008309,0.999070,-0.030045 SpineMid:-0.029580,0.008303,0.999076,-0.030046 SpineShoulder:-0.029548,0.007658,0.998314,-0.049376 ThumbLeft:0.000000,0.000000,0.000000,0.000000 ThumbRight:0.000000,0.000000,0.000000,0.000000 WristLeft:-0.143706,0.791460,-0.135891,0.578337 WristRight:0.250542,-0.024616,-0.390991,0.885296 END:
KINECT_DATA POSITION:1.772295,-1.068826,-1.707172 HEAD_JOINT1:0.983984,0.152529,-0.000000,0.092256 LARM_JOINT2:0.811523,0.000000,-0.045137,-0.582574 LARM_JOINT3:0.962547,0.000000,-0.221603,-0.156191 LLEG_JOINT2:0.999579,0.027726,0.000000,0.008499 LLEG_JOINT4:0.996163,0.084592,0.000000,-0.022458 RARM_JOINT2:0.800932,0.000000,0.080300,0.593346 RARM_JOINT3:0.812845,0.000000,0.446231,0.374381 RLEG_JOINT2:0.999213,0.030283,0.000000,-0.025605 RLEG_JOINT4:0.995811,0.079968,0.000000,0.044342 WAIST:0.999441,-0.000000,0.030437,0.013833 WAIST_JOINT0:0.999141,-0.000000,0.031491,0.026930 WAIST_JOINT1:0.998481,0.054847,0.000000,-0.005154 END:
KINECT_DATA_Sensor  AnkleLeft:0.087007,0.731077,-0.070093,-0.673085 AnkleRight:0.102315,0.764034,0.051192,0.634951 ElbowLeft:-0.060816,0.856663,-0.158660,-0.487091 ElbowRight:-0.074340,0.900674,0.112626,0.413007 FootLeft:0.000000,0.000000,0.000000,0.000000 FootRight:0.000000,0.000000,0.000000,0.000000 HandLeft:-0.171468,0.686589,-0.070448,0.703016 HandRight:0.546961,0.106559,-0.294779,0.776263 HandTipLeft:0.000000,0.000000,0.000000,0.000000 HandTipRight:0.000000,0.000000,0.000000,0.000000 Head:0.000000,0.000000,0.000000,0.000000 HipLeft:0.105676,-0.674288,0.716683,-0.143296 HipRight:-0.154561,0.681904,0.689936,-0.187365 KneeLeft:-0.004598,-0.684698,0.034963,0.727973 KneeRight:0.011900,0.728741,0.029815,0.684037 Neck:-0.033270,0.006188,0.996953,-0.070287 ShoulderLeft:0.036224,0.771657,-0.634560,0.023815 ShoulderRight:-0.005666,0.801403,0.593586,-0.073324 SpineBase:-0.030992,0.008143,0.999021,-0.030504 SpineMid:-0.031949,0.008172,0.998991,-0.030497 SpineShoulder:-0.033092,0.007394,0.998193,-0.049611 ThumbLeft:0.000000,0.000000,0.000000,0.000000 ThumbRight:0.000000,0.000000,0.000000,0.000000 WristLeft:-0.125887,0.706089,-0.153969,0.679621 WristRight:0.258078,-0.015847,-0.389022,0.884198 END:
KINECT_DATA POSITION:1.695299,-1.034225,-1.884758 HEAD_JOINT1:0.984108,0.152173,-0.000000,0.091513 LARM_JOINT2:0.811061,0.000000,-0.047056,-0.583065 LARM_JOINT3:0.963689,0.000000,-0.218079,-0.154095 LLEG_JOINT2:0.999609,0.025863,0.000000,0.010584 LLEG_JOINT4:0.995808,0.088846,0.000000,-0.021766 RARM_JOINT2:0.799029,0.000000,0.089637,0.594573 RARM_JOINT3:0.812652,0.000000,0.441567,0.380282 RLEG_JOINT2:0.999289,0.028747,0.000000,-0.024384 RLEG_JOINT4:0.995590,0.081197,0.000000,0.046995 WAIST:0.999409,-0.000000,0.031980,0.012583 WAIST_JOINT0:0.999101,-0.000000,0.033007,0.026597 WAIST_JOINT1:0.998457,0.055381,0.000000,-0.004051 END:
KINECT_DATA_Sensor  AnkleLeft:0.088191,0.731227,-0.072466,-0.672516 AnkleRight:0.102238,0.744716,0.052458,0.657414 ElbowLeft:-0.060832,0.856841,-0.157569,-0.487129 ElbowRight:-0.077765,0.906583,0.107645,0.400589 FootLeft:0.000000,0.000000,0.000000,0.000000 FootRight:0.000000,0.000000,0.000000,0.000000 HandLeft:-0.169960,0.830930,-0.030775,0.528888 HandRight:0.558736,0.123660,-0.291161,0.766647 HandTipLeft:0.000000,0.000000,0.000000,0.000000 HandTipRight:0.000000,0.000000,0.000000,0.000000 Head:0.000000,0.000000,0.000000,0.000000 HipLeft:0.104349,-0.675144,0.716118,-0.143064 HipRight:-0.155392,0.680675,0.690602,-0.188689 KneeLeft:-0.002736,-0.683656,0.034304,0.728993 KneeRight:0.010794,0.729748,0.028747,0.683026 Neck:-0.034772,0.005950,0.996860,-0.070889 ShoulderLeft:0.036666,0.771464,-0.634770,0.023796 ShoulderRight:-0.007196,0.800712,0.594216,-0.075606 SpineBase:-0.032470,0.007970,0.998954,-0.031181 SpineMid:-0.033444,0.008001,0.998922,-0.031173 SpineShoulder:-0.034601,0.007146,0.998116,-0.050156 ThumbLeft:0.000000,0.000000,0.000000,0.000000 ThumbRight:0.000000,0.000000,0.000000,0.000000 WristLeft:-0.157296,0.838802,-0.121845,0.506778 WristRight:0.263358,-0.000322,-0.387997,0.883233 END:
KINECT_DATA POSITION:1.653527,-0.999302,-2.013218 HEAD_JOINT1:0.983991,0.153417,-0.000000,0.090690 LARM_JOINT2:0.810340,0.000000,-0.048056,-0.583986 LARM_JOINT3:0.963577,0.000000,-0.219729,-0.152440 LLEG_JOINT2:0.999626,0.024234,0.000000,0.012649 LLEG_JOINT4:0.995872,0.088255,0.000000,-0.021206 RARM_JOINT2:0.798196,0.000000,0.096246,0.594659 RARM_JOINT3:0.812137,0.000000,0.440660,0.382430 RLEG_JOINT2:0.999376,0.027246,0.000000,-0.022462 RLEG_JOINT4:0.995693,0.079876,0.000000,0.047058 WAIST:0.999382,-0.000000,0.033445,0.010785 WAIST_JOINT0:0.999040,-0.000000,0.034655,0.026814 WAIST_JOINT1:0.998452,0.055565,0.000000,-0.002293 END:
KINECT_DATA_Sensor  AnkleLeft:0.086663,0.735920,-0.070936,-0.667742 AnkleRight:0.101700,0.763760,0.047719,0.635650 ElbowLeft:-0.060359,0.856945,-0.156361,-0.487394 ElbowRight:-0.080802,0.910852,0.104793,0.390946 FootLeft:0.000000,0.000000,0.000000,0.000000 FootRight:0.000000,0.000000,0.000000,0.000000 HandLeft:-0.169684,0.761418,-0.059342,0.622840 HandRight:0.566338,0.125515,-0.293464,0.759859 HandTipLeft:0.000000,0.000000,0.000000,0.000000 HandTipRight:0.000000,0.000000,0.000000,0.000000 Head:0.000000,0.000000,0.000000,0.000000 HipLeft:0.103204,-0.676385,0.715183,-0.142705 HipRight:-0.156359,0.679209,0.691598,-0.189522 KneeLeft:-0.001444,-0.682688,0.033412,0.729944 KneeRight:0.009844,0.730672,0.027613,0.682099 Neck:-0.036459,0.005869,0.996783,-0.071130 ShoulderLeft:0.037412,0.770753,-0.635612,0.023177 ShoulderRight:-0.008648,0.800262,0.594555,-0.077531 SpineBase:-0.033827,0.007864,0.998900,-0.031509 SpineMid:-0.034970,0.007900,0.998861,-0.031500 SpineShoulder:-0.036295,0.007031,0.998045,-0.050386 ThumbLeft:0.000000,0.000000,0.000000,0.000000 ThumbRight:0.000000,0.000000,0.000000,0.000000 WristLeft:-0.141883,0.773100,-0.138772,0.602435 WristRight:0.270437,0.001139,-0.383427,0.883089 END:
KINECT_DATA POSITION:1.628658,-0.981881,-2.078938 HEAD_JOINT1:0.984051,0.153610,-0.000000,0.089707 LARM_JOINT2:0.810297,0.000000,-0.048929,-0.583974 LARM_JOINT3:0.962878,0.000000,-0.223031,-0.152064 LLEG_JOINT2:0.999607,0.024258,0.000000,0.014043 LLEG_JOINT4:0.996147,0.085341,0.000000,-0.020207 RARM_JOINT2:0.799841,0.000000,0.095547,0.592558 RARM_JOINT3:0.810900,0.000000,0.434559,0.391918 RLEG_JOINT2:0.999413,0.027006,0.000000,-0.021061 RLEG_JOINT4:0.995531,0.082846,0.000000,0.045329 WAIST:0.999382,-0.000000,0.033754,0.009790 WAIST_JOINT0:0.999025,-0.000000,0.035306,0.026509 WAIST_JOINT1:0.998444,0.055749,0.000000,-0.001328 END:
KINECT_DATA_Sensor  AnkleLeft:0.085716,0.756391,-0.067622,-0.644943 AnkleRight:0.101012,0.741944,0.054039,0.660602 ElbowLeft:-0.060309,0.858158,-0.156226,-0.485306 ElbowRight:-0.080946,0.913026,0.107954,0.384939 FootLeft:0.000000,0.000000,0.000000,0.000000 FootRight:0.000000,0.000000,0.000000,0.000000 HandLeft:-0.180171,0.760462,-0.068937,0.620068 HandRight:0.571831,0.124147,-0.273990,0.763234 HandTipLeft:0.000000,0.000000,0.000000,0.000000 HandTipRight:0.000000,0.000000,0.000000,0.000000 Head:0.000000,0.000000,0.000000,0.000000 HipLeft:0.102747,-0.677004,0.714643,-0.142808 HipRight:-0.156540,0.678459,0.692241,-0.189714 KneeLeft:-0.001225,-0.682509,0.033743,0.730097 KneeRight:0.009988,0.730835,0.027186,0.681939 Neck:-0.037120,0.005841,0.996744,-0.071338 ShoulderLeft:0.037654,0.770584,-0.635805,0.023114 ShoulderRight:-0.009284,0.799836,0.594993,-0.078484 SpineBase:-0.034075,0.007859,0.998883,-0.031777 SpineMid:-0.035423,0.007902,0.998836,-0.031767 SpineShoulder:-0.036958,0.007002,0.998010,-0.050601 ThumbLeft:0.000000,0.000000,0.000000,0.000000 ThumbRight:0.000000,0.000000,0.000000,0.000000 WristLeft:-0.142169,0.773504,-0.137634,0.602110 WristRight:0.274552,0.001396,-0.379711,0.883425 END:
KINECT_DATA POSITION:1.605931,-0.975089,-2.104521 HEAD_JOINT1:0.984317,0.152211,-0.000000,0.089174 LARM_JOINT2:0.810868,0.000000,-0.049892,-0.583099 LARM_JOINT3:0.962499,0.000000,-0.226006,-0.150058 LLEG_JOINT2:0.999606,0.023661,0.000000,0.015091 LLEG_JOINT4:0.995936,0.087871,0.000000,-0.019761 RARM_JOINT2:0.800454,0.000000,0.095792,0.591690 RARM_JOINT3:0.803596,0.000000,0.436308,0.404807 RLEG_JOINT2:0.999448,0.026196,0.000000,-0.020416 RLEG_JOINT4:0.995695,0.081415,0.000000,0.044298 WAIST:0.999404,-0.000000,0.033270,0.009150 WAIST_JOINT0:0.999049,-0.000000,0.034828,0.026232 WAIST_JOINT1:0.998428,0.056043,0.000000,-0.000753 END:
KINECT_DATA_Sensor  AnkleLeft:0.088295,0.770814,-0.067538,-0.627287 AnkleRight:0.100069,0.758311,0.050627,0.642173 ElbowLeft:-0.061297,0.858198,-0.156756,-0.484940 ElbowRight:-0.080072,0.917170,0.109916,0.374573 FootLeft:0.000000,0.000000,0.000000,0.000000 FootRight:0.000000,0.000000,0.000000,0.000000 HandLeft:-0.193865,0.830348,-0.055356,0.519494 HandRight:0.594001,0.076383,-0.234917,0.765599 HandTipLeft:0.000000,0.000000,0.000000,0.000000 HandTipRight:0.000000,0.000000,0.000000,0.000000 Head:0.000000,0.000000,0.000000,0.000000 HipLeft:0.102732,-0.677285,0.714282,-0.143290 HipRight:-0.156032,0.678016,0.692830,-0.189564 KneeLeft:-0.000513,-0.682896,0.033651,0.729739 KneeRight:0.009468,0.730478,0.026604,0.682352 Neck:-0.036649,0.005831,0.996731,-0.071770 ShoulderLeft:0.037155,0.770714,-0.635646,0.023957 ShoulderRight:-0.009200,0.799705,0.595157,-0.078583 SpineBase:-0.033560,0.007688,0.998890,-0.032145 SpineMid:-0.034935,0.007732,0.998843,-0.032134 SpineShoulder:-0.036490,0.006947,0.998014,-0.050877 ThumbLeft:0.000000,0.000000,0.000000,0.000000 ThumbRight:0.000000,0.000000,0.000000,0.000000 WristLeft:-0.158059,0.841376,-0.120062,0.502681 WristRight:0.309921,-0.040497,-0.363849,0.877453 END:
KINECT_DATA POSITION:1.575316,-0.963680,-2.154577 HEAD_JOINT1:0.984383,0.151661,-0.000000,0.089383 LARM_JOINT2:0.812065,0.000000,-0.052044,-0.581242 LARM_JOINT3:0.962700,0.000000,-0.223804,-0.152056 LLEG_JOINT2:0.999599,0.023417,0.000000,0.015930 LLEG_JOINT4:0.995868,0.087740,0.000000,-0.023428 RARM_JOINT2:0.797657,0.000000,0.100934,0.594605 RARM_JOINT3:0.801537,0.000000,0.433392,0.411959 RLEG_JOINT2:0.999477,0.025803,0.000000,-0.019479 RLEG_JOINT4:0.995445,0.083875,0.000000,0.045333 WAIST:0.999414,-0.000000,0.033142,0.008557 WAIST_JOINT0:0.999090,-0.000000,0.033995,0.025743 WAIST_JOINT1:0.998410,0.056362,0.000000,-0.000397 END:
KINECT_DATA_Sensor  AnkleLeft:0.086988,0.742048,-0.068510,-0.661139 AnkleRight:0.102111,0.752695,0.051908,0.648327 ElbowLeft:-0.062850,0.860070,-0.157937,-0.481025 ElbowRight:-0.080721,0.919350,0.104890,0.370510 FootLeft:0.000000,0.000000,0.000000,0.000000 FootRight:0.000000,0.000000,0.000000,0.000000 HandLeft:-0.191137,0.843443,-0.045049,0.500041 HandRight:0.567242,0.162086,-0.301786,0.748926 HandTipLeft:0.000000,0.000000,0.000000,0.000000 HandTipRight:0.000000,0.000000,0.000000,0.000000 Head:0.000000,0.000000,0.000000,0.000000 HipLeft:0.102622,-0.677590,0.713939,-0.143636 HipRight:-0.155817,0.677537,0.693293,-0.189762 KneeLeft:-0.000177,-0.683017,0.033679,0.729625 KneeRight:0.009469,0.730363,0.026097,0.682495 Neck:-0.035794,0.005563,0.996743,-0.072044 ShoulderLeft:0.036672,0.770802,-0.635527,0.025005 ShoulderRight:-0.008610,0.799201,0.595879,-0.078306 SpineBase:-0.033404,0.007430,0.998885,-0.032510 SpineMid:-0.034438,0.007464,0.998850,-0.032502 SpineShoulder:-0.035640,0.006667,0.998028,-0.051233 ThumbLeft:0.000000,0.000000,0.000000,0.000000 ThumbRight:0.000000,0.000000,0.000000,0.000000 WristLeft:-0.161336,0.853340,-0.116145,0.481966 WristRight:0.281594,0.036235,-0.387135,0.877222 END:
KINECT_DATA POSITION:1.564120,-0.955651,-2.175951 HEAD_JOINT1:0.984313,0.151661,-0.000000,0.090154 LARM_JOINT2:0.812208,0.000000,-0.051878,-0.581057 LARM_JOINT3:0.962932,0.000000,-0.220337,-0.155607 LLEG_JOINT2:0.999591,0.023134,0.000000,0.016842 LLEG_JOINT4:0.995960,0.087203,0.000000,-0.021445 RARM_JOINT2:0.829327,0.000000,0.131785,0.543000 RARM_JOINT3:0.750542,0.000000,0.444215,0.489245 RLEG_JOINT2:0.999494,0.025542,0.000000,-0.018939 RLEG_JOINT4:0.995336,0.083876,0.000000,0.047661 WAIST:0.999437,-0.000000,0.032630,0.007862 WAIST_JOINT0:0.999132,-0.000000,0.033045,0.025382 WAIST_JOINT1:0.998411,0.056355,0.000000,-0.000215 END:
KINECT_DATA_Sensor  AnkleLeft:0.084703,0.739876,-0.070148,-0.663692 AnkleRight:0.102931,0.745032,0.051280,0.657041 ElbowLeft:-0.062844,0.859899,-0.157664,-0.481422 ElbowRight:-0.117715,0.943627,0.153601,0.268549 FootLeft:0.000000,0.000000,0.000000,0.000000 FootRight:0.000000,0.000000,0.000000,0.000000 HandLeft:-0.168622,0.665017,-0.079365,0.723201 HandRight:0.561643,0.176578,-0.315619,0.744152 HandTipLeft:0.000000,0.000000,0.000000,0.000000 HandTipRight:0.000000,0.000000,0.000000,0.000000 Head:0.000000,0.000000,0.000000,0.000000 HipLeft:0.102865,-0.677975,0.713481,-0.143919 HipRight:-0.155478,0.677130,0.693855,-0.189438 KneeLeft:0.000175,-0.683422,0.033662,0.729247 KneeRight:0.009209,0.729987,0.026027,0.682903 Neck:-0.034835,0.004850,0.996779,-0.072068 ShoulderLeft:0.035608,0.771089,-0.635196,0.026080 ShoulderRight:-0.008434,0.799010,0.596197,-0.077851 SpineBase:-0.032857,0.007152,0.998904,-0.032552 SpineMid:-0.033679,0.007179,0.998877,-0.032546 SpineShoulder:-0.034669,0.006226,0.998065,-0.051231 ThumbLeft:0.000000,0.000000,0.000000,0.000000 ThumbRight:0.000000,0.000000,0.000000,0.000000 WristLeft:-0.119881,0.671520,-0.158963,0.713736 WristRight:0.368779,0.087965,-0.368462,0.848822 END:
KINECT_DATA POSITION:1.565644,-0.958257,-2.174747 HEAD_JOINT1:0.984044,0.152285,-0.000000,0.092011 LARM_JOINT2:0.812287,0.000000,-0.052004,-0.580935 LARM_JOINT3:0.962746,0.000000,-0.220722,-0.156211 LLEG_JOINT2:0.999584,0.022986,0.000000,0.017424 LLEG_JOINT4:0.995898,0.087798,0.000000,-0.021887 RARM_JOINT2:0.830579,0.000000,0.126164,0.542422 RARM_JOINT3:0.746371,0.000000,0.445308,0.494602 RLEG_JOINT2:0.999508,0.025553,0.000000,-0.018181 RLEG_JOINT4:0.995385,0.084509,0.000000,0.045463 WAIST:0.999433,-0.000000,0.032885,0.007243 WAIST_JOINT0:0.999175,-0.000000,0.032123,0.024843 WAIST_JOINT1:0.998422,0.056159,0.000000,-0.000579 END:
KINECT_DATA_Sensor  AnkleLeft:0.086498,0.750251,-0.068652,-0.651866 AnkleRight:0.101535,0.740371,0.053977,0.662290 ElbowLeft:-0.062437,0.860700,-0.156911,-0.480288 ElbowRight:-0.115463,0.942002,0.157391,0.272999 FootLeft:0.000000,0.000000,0.000000,0.000000 FootRight:0.000000,0.000000,0.000000,0.000000 HandLeft:-0.165231,0.610156,-0.092547,0.769313 HandRight:0.563340,0.164708,-0.299735,0.752116 HandTipLeft:0.000000,0.000000,0.000000,0.000000 HandTipRight:0.000000,0.000000,0.000000,0.000000 Head:0.000000,0.000000,0.000000,0.000000 HipLeft:0.102945,-0.678447,0.713063,-0.143708 HipRight:-0.155765,0.676682,0.694184,-0.189598 KneeLeft:0.000235,-0.683261,0.033548,0.729403 KneeRight:0.009324,0.730137,0.025954,0.682745 Neck:-0.033852,0.003599,0.996835,-0.071847 ShoulderLeft:0.034401,0.772020,-0.634094,0.026956 ShoulderRight:-0.008338,0.799081,0.596186,-0.077213 SpineBase:-0.033085,0.006706,0.998905,-0.032395 SpineMid:-0.033298,0.006713,0.998898,-0.032393 SpineShoulder:-0.033687,0.005231,0.998115,-0.051036 ThumbLeft:0.000000,0.000000,0.000000,0.000000 ThumbRight:0.000000,0.000000,0.000000,0.000000 WristLeft:-0.108921,0.617362,-0.166357,0.761135 WristRight:0.376886,0.074606,-0.367427,0.846988 END:
KINECT_DATA POSITION:1.574345,-0.958099,-2.162576 HEAD_JOINT1:0.983869,0.153090,-0.000000,0.092543 LARM_JOINT2:0.811980,0.000000,-0.053118,-0.581263 LARM_JOINT3:0.963286,0.000000,-0.219337,-0.154826 LLEG_JOINT2:0.999601,0.022320,0.000000,0.017302 LLEG_JOINT4:0.995849,0.088624,0.000000,-0.020772 RARM_JOINT2:0.830138,0.000000,0.126002,0.543134 RARM_JOINT3:0.747595,0.000000,0.448357,0.489978 RLEG_JOINT2:0.999519,0.025333,0.000000,-0.017878 RLEG_JOINT4:0.995487,0.083137,0.000000,0.045757 WAIST:0.999440,-0.000000,0.032672,0.007178 WAIST_JOINT0:0.999212,-0.000000,0.031338,0.024376 WAIST_JOINT1:0.998423,0.056126,0.000000,-0.000994 END:
KINECT_DATA_Sensor  AnkleLeft:0.084795,0.738572,-0.071046,-0.665036 AnkleRight:0.101929,0.754575,0.050254,0.646299 ElbowLeft:-0.062260,0.862821,-0.155854,-0.476838 ElbowRight:-0.115250,0.941809,0.157102,0.273918 FootLeft:0.000000,0.000000,0.000000,0.000000 FootRight:0.000000,0.000000,0.000000,0.000000 HandLeft:-0.173491,0.727802,-0.068397,0.659945 HandRight:0.552071,0.174734,-0.319676,0.749995 HandTipLeft:0.000000,0.000000,0.000000,0.000000 HandTipRight:0.000000,0.000000,0.000000,0.000000 Head:0.000000,0.000000,0.000000,0.000000 HipLeft:0.103242,-0.678486,0.712979,-0.143727 HipRight:-0.155644,0.676655,0.694257,-0.189526 KneeLeft:0.000599,-0.683421,0.032959,0.729280 KneeRight:0.009355,0.729989,0.025633,0.682914 Neck:-0.033032,0.003084,0.996867,-0.071797 ShoulderLeft:0.034046,0.772380,-0.633657,0.027368 ShoulderRight:-0.007627,0.798875,0.596578,-0.076392 SpineBase:-0.032878,0.006397,0.998917,-0.032299 SpineMid:-0.032789,0.006395,0.998920,-0.032300 SpineShoulder:-0.032875,0.004736,0.998146,-0.050996 ThumbLeft:0.000000,0.000000,0.000000,0.000000 ThumbRight:0.000000,0.000000,0.000000,0.000000 WristLeft:-0.137639,0.741829,-0.142449,0.640667 WristRight:0.369531,0.088293,-0.373926,0.846067 END:
KINECT_DATA POSITION:1.598735,-0.962059,-2.132607 HEAD_JOINT1:0.983543,0.154386,-0.000000,0.093851 LARM_JOINT2:0.811866,0.000000,-0.053490,-0.581388 LARM_JOINT3:0.963054,0.000000,-0.220616,-0.154453 LLEG_JOINT2:0.999586,0.022086,0.000000,0.018457 LLEG_JOINT4:0.995660,0.090097,0.000000,-0.023305 RARM_JOINT2:0.830308,0.000000,0.126270,0.542812 RARM_JOINT3:0.746141,0.000000,0.449542,0.491105 RLEG_JOINT2:0.999507,0.025980,0.000000,-0.017622 RLEG_JOINT4:0.995518,0.081937,0.000000,0.047224 WAIST:0.999467,-0.000000,0.031930,0.006788 WAIST_JOINT0:0.999258,-0.000000,0.029954,0.024210 WAIST_JOINT1:0.998410,0.056355,0.000000,-0.001211 END:
KINECT_DATA_Sensor  AnkleLeft:0.090379,0.772504,-0.065866,-0.625085 AnkleRight:0.101286,0.738030,0.051337,0.665144 ElbowLeft:-0.061879,0.863931,-0.155153,-0.475103 ElbowRight:-0.115449,0.941500,0.158035,0.274360 FootLeft:0.000000,0.000000,0.000000,0.000000 FootRight:0.000000,0.000000,0.000000,0.000000 HandLeft:-0.170789,0.668013,-0.088658,0.718839 HandRight:0.567550,0.143650,-0.297194,0.754273 HandTipLeft:0.000000,0.000000,0.000000,0.000000 HandTipRight:0.000000,0.000000,0.000000,0.000000 Head:0.000000,0.000000,0.000000,0.000000 HipLeft:0.103785,-0.678676,0.712639,-0.144129 HipRight:-0.155135,0.676475,0.694624,-0.189241 KneeLeft:0.001304,-0.683974,0.033370,0.728742 KneeRight:0.009732,0.729469,0.026202,0.683442 Neck:-0.031657,0.002481,0.996893,-0.072077 ShoulderLeft:0.033582,0.772348,-0.633676,0.028384 ShoulderRight:-0.006308,0.798646,0.597046,-0.075243 SpineBase:-0.032127,0.005923,0.998943,-0.032330 SpineMid:-0.031734,0.005910,0.998956,-0.032333 SpineShoulder:-0.031510,0.004128,0.998182,-0.051206 ThumbLeft:0.000000,0.000000,0.000000,0.000000 ThumbRight:0.000000,0.000000,0.000000,0.000000 WristLeft:-0.123382,0.674762,-0.154035,0.711159 WristRight:0.383447,0.055853,-0.360077,0.848642 END:
KINECT_DATA POSITION:1.622960,-0.960788,-2.103698 HEAD_JOINT1:0.983241,0.155624,-0.000000,0.094961 LARM_JOINT2:0.811709,0.000000,-0.053550,-0.581602 LARM_JOINT3:0.963344,0.000000,-0.219324,-0.154486 LLEG_JOINT2:0.999585,0.022446,0.000000,0.018060 LLEG_JOINT4:0.995735,0.089354,0.000000,-0.022961 RARM_JOINT2:0.829017,0.000000,0.129133,0.544110 RARM_JOINT3:0.748195,0.000000,0.450932,0.486687 RLEG_JOINT2:0.999520,0.025699,0.000000,-0.017324 RLEG_JOINT4:0.995396,0.084612,0.000000,0.045031 WAIST:0.999487,-0.000000,0.031341,0.006622 WAIST_JOINT0:0.999300,-0.000000,0.028770,0.023920 WAIST_JOINT1:0.998414,0.056272,0.000000,-0.001419 END:
KINECT_DATA_Sensor  AnkleLeft:0.087787,0.750406,-0.068672,-0.651513 AnkleRight:0.103097,0.756935,0.051398,0.643257 ElbowLeft:-0.061576,0.864962,-0.154585,-0.473447 ElbowRight:-0.116740,0.941732,0.155637,0.274389 FootLeft:0.000000,0.000000,0.000000,0.000000 FootRight:0.000000,0.000000,0.000000,0.000000 HandLeft:-0.183919,0.795399,-0.051722,0.575186 HandRight:0.563999,0.147059,-0.306129,0.752704 HandTipLeft:0.000000,0.000000,0.000000,0.000000 HandTipRight:0.000000,0.000000,0.000000,0.000000 Head:0.000000,0.000000,0.000000,0.000000 HipLeft:0.104292,-0.678739,0.712456,-0.144373 HipRight:-0.154821,0.676453,0.694807,-0.188905 KneeLeft:0.000669,-0.684405,0.033210,0.728345 KneeRight:0.009657,0.729061,0.025907,0.683891 Neck:-0.030470,0.002075,0.996938,-0.071981 ShoulderLeft:0.032895,0.772418,-0.633593,0.029141 ShoulderRight:-0.005467,0.798449,0.597453,-0.074151 SpineBase:-0.031536,0.005666,0.998967,-0.032217 SpineMid:-0.030849,0.005644,0.998989,-0.032221 SpineShoulder:-0.030325,0.003768,0.998225,-0.051123 ThumbLeft:0.000000,0.000000,0.000000,0.000000 ThumbRight:0.000000,0.000000,0.000000,0.000000 WristLeft:-0.152203,0.807054,-0.124039,0.556878 WristRight:0.380564,0.060521,-0.362550,0.848567 END:
KINECT_DATA POSITION:1.640153,-0.958800,-2.083182 HEAD_JOINT1:0.983209,0.155455,-0.000000,0.095569 LARM_JOINT2:0.811561,0.000000,-0.053174,-0.581843 LARM_JOINT3:0.963151,0.000000,-0.219822,-0.154975 LLEG_JOINT2:0.999563,0.023049,0.000000,0.018509 LLEG_JOINT4:0.995842,0.088213,0.000000,-0.022729 RARM_JOINT2:0.830664,0.000000,0.135465,0.540043 RARM_JOINT3:0.748574,0.000000,0.450652,0.486363 RLEG_JOINT2:0.999540,0.025027,0.000000,-0.017150 RLEG_JOINT4:0.995449,0.084541,0.000000,0.043974 WAIST:0.999526,-0.000000,0.030120,0.006400 WAIST_JOINT0:0.999436,-0.000000,0.024824,0.022593 WAIST_JOINT1:0.998423,0.056123,0.000000,-0.001557 END:
KINECT_DATA_Sensor  AnkleLeft:0.087274,0.753773,-0.068489,-0.647702 AnkleRight:0.102444,0.763421,0.050426,0.635728 ElbowLeft:-0.061393,0.865424,-0.154023,-0.472810 ElbowRight:-0.122920,0.941169,0.157215,0.272716 FootLeft:0.000000,0.000000,0.000000,0.000000 FootRight:0.000000,0.000000,0.000000,0.000000 HandLeft:-0.192617,0.838686,-0.033700,0.508299 HandRight:0.568293,0.135878,-0.286017,0.759457 HandTipLeft:0.000000,0.000000,0.000000,0.000000 HandTipRight:0.000000,0.000000,0.000000,0.000000 Head:0.000000,0.000000,0.000000,0.000000 HipLeft:0.105279,-0.678779,0.712139,-0.145029 HipRight:-0.154274,0.676500,0.695060,-0.188254 KneeLeft:0.000415,-0.685297,0.033798,0.727479 KneeRight:0.009203,0.728219,0.025450,0.684810 Neck:-0.026778,0.001595,0.997057,-0.071817 ShoulderLeft:0.032777,0.772377,-0.633606,0.030034 ShoulderRight:-0.000752,0.798647,0.597792,-0.069336 SpineBase:-0.030309,0.005434,0.999012,-0.032046 SpineMid:-0.028397,0.005372,0.999068,-0.032057 SpineShoulder:-0.026630,0.003362,0.998339,-0.050988 ThumbLeft:0.000000,0.000000,0.000000,0.000000 ThumbRight:0.000000,0.000000,0.000000,0.000000 WristLeft:-0.161530,0.850098,-0.110495,0.488910 WristRight:0.387572,0.046967,-0.357943,0.848209 END:
KINECT_DATA POSITION:1.640886,-0.961518,-2.082813 HEAD_JOINT1:0.983220,0.154840,-0.000000,0.096457 LARM_JOINT2:0.811579,0.000000,-0.053764,-0.581764 LARM_JOINT3:0.963276,0.000000,-0.218416,-0.156183 LLEG_JOINT2:0.999555,0.023066,0.000000,0.018939 LLEG_JOINT4:0.995822,0.087992,0.000000,-0.024408 RARM_JOINT2:0.830452,0.000000,0.133475,0.540864 RARM_JOINT3:0.749448,0.000000,0.450137,0.485494 RLEG_JOINT2:0.999542,0.025400,0.000000,-0.016467 RLEG_JOINT4:0.995400,0.084869,0.000000,0.044456 WAIST:0.999532,-0.000000,0.030017,0.005945 WAIST_JOINT0:0.999423,-0.000000,0.024954,0.023048 WAIST_JOINT1:0.998434,0.055926,0.000000,-0.001453 END:
KINECT_DATA_Sensor  AnkleLeft:0.086665,0.739611,-0.068923,-0.663863 AnkleRight:0.103508,0.763936,0.050273,0.634950 ElbowLeft:-0.061505,0.866674,-0.153596,-0.470639 ElbowRight:-0.121566,0.940912,0.157566,0.274007 FootLeft:0.000000,0.000000,0.000000,0.000000 FootRight:0.000000,0.000000,0.000000,0.000000 HandLeft:-0.180488,0.698466,-0.073996,0.688545 HandRight:0.552331,0.169934,-0.312885,0.753761 HandTipLeft:0.000000,0.000000,0.000000,0.000000 HandTipRight:0.000000,0.000000,0.000000,0.000000 Head:0.000000,0.000000,0.000000,0.000000 HipLeft:0.105461,-0.679102,0.711837,-0.144867 HipRight:-0.154170,0.676232,0.695397,-0.188057 KneeLeft:0.000379,-0.685387,0.033803,0.727394 KneeRight:0.009638,0.728129,0.025574,0.684895 Neck:-0.026850,0.001311,0.997069,-0.071624 ShoulderLeft:0.032327,0.772472,-0.633510,0.030131 ShoulderRight:-0.001298,0.798785,0.597585,-0.069523 SpineBase:-0.030190,0.005012,0.999023,-0.031875 SpineMid:-0.028384,0.004955,0.999076,-0.031884 SpineShoulder:-0.026713,0.003023,0.998347,-0.050792 ThumbLeft:0.000000,0.000000,0.000000,0.000000 ThumbRight:0.000000,0.000000,0.000000,0.000000 WristLeft:-0.132739,0.718963,-0.142821,0.667139 WristRight:0.370890,0.082071,-0.373969,0.846081 END:
KINECT_DATA POSITION:1.655857,-0.956878,-2.091885 HEAD_JOINT1:0.983283,0.154418,-0.000000,0.096489 LARM_JOINT2:0.812021,0.000000,-0.054927,-0.581038 LARM_JOINT3:0.963500,0.000000,-0.218965,-0.154018 LLEG_JOINT2:0.999561,0.023082,0.000000,0.018597 LLEG_JOINT4:0.995966,0.087622,0.000000,-0.019323 RARM_JOINT2:0.829044,0.000000,0.135800,0.542443 RARM_JOINT3:0.751280,0.000000,0.452155,0.480765 RLEG_JOINT2:0.999531,0.026162,0.000000,-0.015934 RLEG_JOINT4:0.995731,0.081806,0.000000,0.042745 WAIST:0.999553,-0.000000,0.029281,0.005968 WAIST_JOINT0:0.999448,-0.000000,0.023977,0.022981 WAIST_JOINT1:0.998429,0.056008,0.000000,-0.001454 END:
KINECT_DATA_Sensor  AnkleLeft:0.084269,0.748298,-0.071483,-0.654094 AnkleRight:0.101123,0.764339,0.049389,0.634918 ElbowLeft:-0.062064,0.869106,-0.154142,-0.465879 ElbowRight:-0.121858,0.941533,0.154987,0.273212 FootLeft:0.000000,0.000000,0.000000,0.000000 FootRight:0.000000,0.000000,0.000000,0.000000 HandLeft:-0.183049,0.735214,-0.076531,0.648148 HandRight:0.535485,0.196601,-0.345857,0.744974 HandTipLeft:0.000000,0.000000,0.000000,0.000000 HandTipRight:0.000000,0.000000,0.000000,0.000000 Head:0.000000,0.000000,0.000000,0.000000 HipLeft:0.105752,-0.679043,0.711788,-0.145174 HipRight:-0.153643,0.676383,0.695489,-0.187600 KneeLeft:0.000171,-0.685921,0.033582,0.726901 KneeRight:0.010586,0.727618,0.025743,0.685418 Neck:-0.025810,0.001366,0.997088,-0.071747 ShoulderLeft:0.031553,0.772400,-0.633588,0.031114 ShoulderRight:-0.000771,0.798351,0.598238,-0.068894 SpineBase:-0.029457,0.005011,0.999044,-0.031897 SpineMid:-0.027498,0.004948,0.999100,-0.031907 SpineShoulder:-0.025671,0.003061,0.998371,-0.050865 ThumbLeft:0.000000,0.000000,0.000000,0.000000 ThumbRight:0.000000,0.000000,0.000000,0.000000 WristLeft:-0.139188,0.749140,-0.135099,0.633375 WristRight:0.356487,0.113140,-0.386418,0.843088 END:
KINECT_DATA POSITION:1.677232,-0.960954,-2.098417 HEAD_JOINT1:0.983206,0.154296,-0.000000,0.097458 LARM_JOINT2:0.812887,0.000000,-0.056754,-0.579649 LARM_JOINT3:0.962821,0.000000,-0.220141,-0.156568 LLEG_JOINT2:0.999548,0.023654,0.000000,0.018559 LLEG_JOINT4:0.995964,0.087314,0.000000,-0.020766 RARM_JOINT2:0.826402,0.000000,0.142649,0.544711 RARM_JOINT3:0.755496,0.000000,0.448870,0.477223 RLEG_JOINT2:0.999536,0.025784,0.000000,-0.016189 RLEG_JOINT4:0.995627,0.082947,0.000000,0.042974 WAIST:0.999581,-0.000000,0.028347,0.005779 WAIST_JOINT0:0.999507,-0.000000,0.021463,0.022911 WAIST_JOINT1:0.998425,0.056082,0.000000,-0.001283 END:
KINECT_DATA_Sensor  AnkleLeft:0.086147,0.755474,-0.069538,-0.645757 AnkleRight:0.102039,0.769378,0.049054,0.628681 ElbowLeft:-0.063463,0.871566,-0.155058,-0.460762 ElbowRight:-0.124309,0.943208,0.149741,0.269228 FootLeft:0.000000,0.000000,0.000000,0.000000 FootRight:0.000000,0.000000,0.000000,0.000000 HandLeft:-0.194240,0.761199,-0.067826,0.615018 HandRight:0.565117,0.150691,-0.311595,0.748895 HandTipLeft:0.000000,0.000000,0.000000,0.000000 HandTipRight:0.000000,0.000000,0.000000,0.000000 Head:0.000000,0.000000,0.000000,0.000000 HipLeft:0.106180,-0.679072,0.711578,-0.145754 HipRight:-0.153013,0.676411,0.695737,-0.187097 KneeLeft:-0.000378,-0.686604,0.033819,0.726245 KneeRight:0.010035,0.726976,0.025771,0.686106 Neck:-0.023253,0.001275,0.997146,-0.071820 ShoulderLeft:0.029213,0.772326,-0.633656,0.033754 ShoulderRight:0.000118,0.797974,0.598900,-0.067497 SpineBase:-0.028514,0.004993,0.999068,-0.032004 SpineMid:-0.025751,0.004905,0.999143,-0.032018 SpineShoulder:-0.023108,0.003013,0.998429,-0.050955 ThumbLeft:0.000000,0.000000,0.000000,0.000000 ThumbRight:0.000000,0.000000,0.000000,0.000000 WristLeft:-0.146082,0.776345,-0.128078,0.599620 WristRight:0.375435,0.064487,-0.361178,0.851141 END:
KINECT_DATA POSITION:1.677467,-0.966263,-2.106202 HEAD_JOINT1:0.983207,0.153024,-0.000000,0.099438 LARM_JOINT2:0.813613,0.000000,-0.058321,-0.578474 LARM_JOINT3:0.962731,0.000000,-0.217379,-0.160917 LLEG_JOINT2:0.999541,0.023977,0.000000,0.018532 LLEG_JOINT4:0.995825,0.088454,0.000000,-0.022568 RARM_JOINT2:0.825643,0.000000,0.142408,0.545925 RARM_JOINT3:0.757540,0.000000,0.449701,0.473184 RLEG_JOINT2:0.999527,0.025984,0.000000,-0.016443 RLEG_JOINT4:0.995715,0.081991,0.000000,0.042764 WAIST:0.999622,-0.000000,0.026875,0.005864 WAIST_JOINT0:0.999570,-0.000000,0.019041,0.022303 WAIST_JOINT1:0.998420,0.056172,0.000000,-0.001739 END:
KINECT_DATA_Sensor  AnkleLeft:0.086457,0.739413,-0.071406,-0.663848 AnkleRight:0.100068,0.752719,0.051168,0.648677 ElbowLeft:-0.064363,0.874641,-0.155570,-0.454597 ElbowRight:-0.123611,0.942485,0.148913,0.272519 FootLeft:0.000000,0.000000,0.000000,0.000000 FootRight:0.000000,0.000000,0.000000,0.000000 HandLeft:-0.199362,0.815816,-0.036915,0.541606 HandRight:0.559629,0.145705,-0.314872,0.752622 HandTipLeft:0.000000,0.000000,0.000000,0.000000 HandTipRight:0.000000,0.000000,0.000000,0.000000 Head:0.000000,0.000000,0.000000,0.000000 HipLeft:0.106825,-0.678951,0.711471,-0.146368 HipRight:-0.151775,0.676769,0.695902,-0.186195 KneeLeft:-0.000527,-0.687664,0.034088,0.725228 KneeRight:0.010093,0.725971,0.026023,0.687159 Neck:-0.020740,0.000854,0.997195,-0.071911 ShoulderLeft:0.027602,0.772662,-0.633209,0.035750 ShoulderRight:0.001712,0.797346,0.599943,-0.065618 SpineBase:-0.027056,0.004789,0.999107,-0.032084 SpineMid:-0.023767,0.004683,0.999191,-0.032100 SpineShoulder:-0.020591,0.002686,0.998481,-0.051036 ThumbLeft:0.000000,0.000000,0.000000,0.000000 ThumbRight:0.000000,0.000000,0.000000,0.000000 WristLeft:-0.158101,0.830408,-0.111633,0.522461 WristRight:0.373925,0.060879,-0.361946,0.851744 END:
KINECT_DATA POSITION:1.661675,-0.966828,-2.105045 HEAD_JOINT1:0.983009,0.152968,-0.000000,0.101457 LARM_JOINT2:0.813416,0.000000,-0.058177,-0.578765 LARM_JOINT3:0.963195,0.000000,-0.213249,-0.163649 LLEG_JOINT2:0.999525,0.024503,0.000000,0.018698 LLEG_JOINT4:0.996078,0.085539,0.000000,-0.022609 RARM_JOINT2:0.829313,0.000000,0.137735,0.541543 RARM_JOINT3:0.756492,0.000000,0.448164,0.476307 RLEG_JOINT2:0.999508,0.026405,0.000000,-0.016935 RLEG_JOINT4:0.995600,0.082214,0.000000,0.044951 WAIST:0.999637,-0.000000,0.026318,0.005720 WAIST_JOINT0:0.999605,-0.000000,0.017392,0.022090 WAIST_JOINT1:0.998434,0.055907,0.000000,-0.001882 END:
KINECT_DATA_Sensor  AnkleLeft:0.089389,0.785891,-0.063685,-0.608547 AnkleRight:0.102031,0.757282,0.049631,0.643157 ElbowLeft:-0.064116,0.875492,-0.155001,-0.453186 ElbowRight:-0.123008,0.941280,0.156227,0.272864 FootLeft:0.000000,0.000000,0.000000,0.000000 FootRight:0.000000,0.000000,0.000000,0.000000 HandLeft:-0.189671,0.807418,-0.026827,0.558016 HandRight:0.557375,0.130034,-0.301809,0.762454 HandTipLeft:0.000000,0.000000,0.000000,0.000000 HandTipRight:0.000000,0.000000,0.000000,0.000000 Head:0.000000,0.000000,0.000000,0.000000 HipLeft:0.107318,-0.679008,0.711307,-0.146534 HipRight:-0.151409,0.676753,0.696086,-0.185864 KneeLeft:-0.000880,-0.688067,0.034470,0.724827 KneeRight:0.009942,0.725589,0.026765,0.687536 Neck:-0.019010,0.000490,0.997254,-0.071573 ShoulderLeft:0.026365,0.772709,-0.633140,0.036887 ShoulderRight:0.002682,0.796854,0.600758,-0.064080 SpineBase:-0.026501,0.004432,0.999128,-0.031964 SpineMid:-0.022633,0.004309,0.999223,-0.031981 SpineShoulder:-0.018859,0.002390,0.998528,-0.050793 ThumbLeft:0.000000,0.000000,0.000000,0.000000 ThumbRight:0.000000,0.000000,0.000000,0.000000 WristLeft:-0.156908,0.821630,-0.113079,0.536206 WristRight:0.377415,0.046806,-0.355092,0.853977 END:
KINECT_DATA POSITION:1.649153,-0.964533,-2.079332 HEAD_JOINT1:0.982906,0.153298,-0.000000,0.101955 LARM_JOINT2:0.813213,0.000000,-0.056846,-0.579183 LARM_JOINT3:0.963284,0.000000,-0.214188,-0.161885 LLEG_JOINT2:0.999554,0.023549,0.000000,0.018378 LLEG_JOINT4:0.995930,0.087348,0.000000,-0.022201 RARM_JOINT2:0.790284,0.000000,0.126480,0.599545 RARM_JOINT3:0.817009,0.000000,0.444706,0.367060 RLEG_JOINT2:0.999515,0.025894,0.000000,-0.017306 RLEG_JOINT4:0.995581,0.081930,0.000000,0.045884 WAIST:0.999654,-0.000000,0.025608,0.005980 WAIST_JOINT0:0.999621,-0.000000,0.016690,0.021908 WAIST_JOINT1:0.998481,0.055064,0.000000,-0.001933 END:
KINECT_DATA_Sensor  AnkleLeft:0.087526,0.764371,-0.067637,-0.635217 AnkleRight:0.101818,0.753781,0.048901,0.647346 ElbowLeft:-0.063884,0.875828,-0.154959,-0.452583 ElbowRight:-0.095122,0.917355,0.089695,0.375986 FootLeft:0.000000,0.000000,0.000000,0.000000 FootRight:0.000000,0.000000,0.000000,0.000000 HandLeft:-0.188218,0.807308,-0.035193,0.558201 HandRight:0.640821,-0.218227,-0.039775,0.734944 HandTipLeft:0.000000,0.000000,0.000000,0.000000 HandTipRight:0.000000,0.000000,0.000000,0.000000 Head:0.000000,0.000000,0.000000,0.000000 HipLeft:0.108174,-0.678797,0.711372,-0.146567 HipRight:-0.151343,0.677068,0.695968,-0.185209 KneeLeft:-0.000202,-0.688575,0.033770,0.724378 KneeRight:0.009527,0.725115,0.026461,0.688053 Neck:-0.018225,0.000875,0.997347,-0.070472 ShoulderLeft:0.025043,0.772681,-0.633208,0.037207 ShoulderRight:0.002301,0.796564,0.601234,-0.063233 SpineBase:-0.025807,0.004400,0.999164,-0.031412 SpineMid:-0.021905,0.004277,0.999257,-0.031429 SpineShoulder:-0.018080,0.002626,0.998580,-0.050038 ThumbLeft:0.000000,0.000000,0.000000,0.000000 ThumbRight:0.000000,0.000000,0.000000,0.000000 WristLeft:-0.157286,0.819837,-0.113008,0.538849 WristRight:0.414774,-0.323861,-0.250612,0.812570 END:
KINECT_DATA POSITION:1.639043,-0.929456,-1.996863 HEAD_JOINT1:0.983238,0.151590,-0.000000,0.101312 LARM_JOINT2:0.812827,0.000000,-0.054056,-0.579991 LARM_JOINT3:0.963321,0.000000,-0.215123,-0.160418 LLEG_JOINT2:0.999534,0.024737,0.000000,0.017858 LLEG_JOINT4:0.995607,0.090544,0.000000,-0.023829 RARM_JOINT2:0.842217,0.000000,0.205118,0.498594 RARM_JOINT3:0.776694,0.000000,0.523962,0.349587 RLEG_JOINT2:0.999517,0.026323,0.000000,-0.016505 RLEG_JOINT4:0.995631,0.081928,0.000000,0.044790 WAIST:0.999644,-0.000000,0.025979,0.006058 WAIST_JOINT0:0.999620,-0.000000,0.017899,0.020959 WAIST_JOINT1:0.998586,0.053135,0.000000,-0.001365 END:
KINECT_DATA_Sensor  AnkleLeft:0.091069,0.752365,-0.070156,-0.648638 AnkleRight:0.101565,0.748971,0.050185,0.652846 ElbowLeft:-0.063955,0.873964,-0.154930,-0.456173 ElbowRight:-0.199043,0.920288,0.150301,0.301432 FootLeft:0.000000,0.000000,0.000000,0.000000 FootRight:0.000000,0.000000,0.000000,0.000000 HandLeft:-0.183719,0.758703,-0.056894,0.622399 HandRight:0.449504,0.003708,-0.362219,0.816535 HandTipLeft:0.000000,0.000000,0.000000,0.000000 HandTipRight:0.000000,0.000000,0.000000,0.000000 Head:0.000000,0.000000,0.000000,0.000000 HipLeft:0.108808,-0.679004,0.711339,-0.145300 HipRight:-0.152332,0.677357,0.695707,-0.184323 KneeLeft:-0.001378,-0.688296,0.034262,0.724619 KneeRight:0.010446,0.725362,0.026167,0.687791 Neck:-0.019356,0.001833,0.997497,-0.067975 ShoulderLeft:0.023322,0.773162,-0.632752,0.036081 ShoulderRight:-0.001003,0.796468,0.601282,-0.064003 SpineBase:-0.026174,0.004470,0.999200,-0.029915 SpineMid:-0.022672,0.004365,0.999285,-0.029930 SpineShoulder:-0.019225,0.003285,0.998642,-0.048318 ThumbLeft:0.000000,0.000000,0.000000,0.000000 ThumbRight:0.000000,0.000000,0.000000,0.000000 WristLeft:-0.147122,0.772353,-0.127291,0.604667 WristRight:0.414144,-0.025106,-0.389625,0.822221 END:
KINECT_DATA POSITION:1.670757,-0.891680,-1.945627 HEAD_JOINT1:0.983565,0.150690,-0.000000,0.099460 LARM_JOINT2:0.812666,0.000000,-0.050555,-0.580532 LARM_JOINT3:0.964684,0.000000,-0.207943,-0.161690 LLEG_JOINT2:0.999573,0.024881,0.000000,0.015303 LLEG_JOINT4:0.995726,0.089986,0.000000,-0.020811 RARM_JOINT2:0.853419,0.000000,0.274157,0.443299 RARM_JOINT3:0.805415,0.000000,0.520763,0.283043 RLEG_JOINT2:0.999448,0.027243,0.000000,-0.019011 RLEG_JOINT4:0.995809,0.079958,0.000000,0.044391 WAIST:0.999601,-0.000000,0.027107,0.007955 WAIST_JOINT0:0.999429,-0.000000,0.025752,0.021894 WAIST_JOINT1:0.998777,0.049346,0.000000,-0.003003 END:
KINECT_DATA_Sensor  AnkleLeft:0.091853,0.774558,-0.068384,-0.622050 AnkleRight:0.101621,0.771033,0.046916,0.626881 ElbowLeft:-0.064660,0.872878,-0.154590,-0.458263 ElbowRight:-0.273264,0.910859,0.153719,0.268389 FootLeft:0.000000,0.000000,0.000000,0.000000 FootRight:0.000000,0.000000,0.000000,0.000000 HandLeft:-0.166623,0.750672,-0.047718,0.637535 HandRight:0.358474,0.108774,-0.463478,0.803027 HandTipLeft:0.000000,0.000000,0.000000,0.000000 HandTipRight:0.000000,0.000000,0.000000,0.000000 Head:0.000000,0.000000,0.000000,0.000000 HipLeft:0.109376,-0.678131,0.712497,-0.143261 HipRight:-0.153993,0.678700,0.694117,-0.183994 KneeLeft:-0.001930,-0.687403,0.033842,0.725485 KneeRight:0.010569,0.726210,0.027223,0.686852 Neck:-0.026938,0.002672,0.997594,-0.063829 ShoulderLeft:0.021048,0.774141,-0.631897,0.031111 ShoulderRight:-0.013196,0.797782,0.598621,-0.070867 SpineBase:-0.027387,0.004816,0.999219,-0.028059 SpineMid:-0.027059,0.004807,0.999228,-0.028061 SpineShoulder:-0.026828,0.003867,0.998639,-0.044559 ThumbLeft:0.000000,0.000000,0.000000,0.000000 ThumbRight:0.000000,0.000000,0.000000,0.000000 WristLeft:-0.144216,0.762525,-0.131043,0.616916 WristRight:0.323909,0.098007,-0.447581,0.827737 END:
KINECT_DATA POSITION:1.797013,-0.864115,-1.864612 HEAD_JOINT1:0.983832,0.151205,-0.000000,0.095976 LARM_JOINT2:0.811860,0.000000,-0.048307,-0.581851 LARM_JOINT3:0.963767,0.000000,-0.209874,-0.164642 LLEG_JOINT2:0.999612,0.025001,0.000000,0.012280 LLEG_JOINT4:0.995852,0.089067,0.000000,-0.018621 RARM_JOINT2:0.857041,0.000000,0.333843,0.392466 RARM_JOINT3:0.826729,0.000000,0.515530,0.225272 RLEG_JOINT2:0.999335,0.029704,0.000000,-0.021159 RLEG_JOINT4:0.995728,0.079746,0.000000,0.046541 WAIST:0.999473,-0.000000,0.031126,0.009247 WAIST_JOINT0:0.999327,-0.000000,0.029467,0.021858 WAIST_JOINT1:0.998872,0.047389,0.000000,-0.003014 END:
KINECT_DATA_Sensor  AnkleLeft:0.089719,0.759064,-0.069776,-0.641018 AnkleRight:0.102949,0.761011,0.049829,0.638578 ElbowLeft:-0.063716,0.871905,-0.154870,-0.460148 ElbowRight:-0.338703,0.895177,0.143513,0.251677 FootLeft:0.000000,0.000000,0.000000,0.000000 FootRight:0.000000,0.000000,0.000000,0.000000 HandLeft:-0.174898,0.750566,-0.051351,0.635157 HandRight:0.352155,0.090310,-0.472042,0.803123 HandTipLeft:0.000000,0.000000,0.000000,0.000000 HandTipRight:0.000000,0.000000,0.000000,0.000000 Head:0.000000,0.000000,0.000000,0.000000 HipLeft:0.108000,-0.677997,0.713465,-0.140085 HipRight:-0.157965,0.679460,0.692251,-0.184848 KneeLeft:-0.003285,-0.684435,0.032603,0.728337 KneeRight:0.011472,0.729012,0.029592,0.683764 Neck:-0.031094,0.004213,0.997595,-0.061809 ShoulderLeft:0.020685,0.773925,-0.632325,0.027875 ShoulderRight:-0.018992,0.799546,0.595722,-0.074034 SpineBase:-0.031407,0.006520,0.999145,-0.026095 SpineMid:-0.031129,0.006513,0.999153,-0.026097 SpineShoulder:-0.031003,0.004890,0.998599,-0.042601 ThumbLeft:0.000000,0.000000,0.000000,0.000000 ThumbRight:0.000000,0.000000,0.000000,0.000000 WristLeft:-0.144898,0.763891,-0.130861,0.615102 WristRight:0.318926,0.076202,-0.463238,0.823341 END:
KINECT_DATA POSITION:1.852012,-0.836988,-1.843202 HEAD_JOINT1:0.984135,0.150885,-0.000000,0.093334 LARM_JOINT2:0.811627,0.000000,-0.047785,-0.582218 LARM_JOINT3:0.963828,0.000000,-0.208759,-0.165694 LLEG_JOINT2:0.999639,0.024551,0.000000,0.010898 LLEG_JOINT4:0.995821,0.090000,0.000000,-0.015491 RARM_JOINT2:0.833115,0.000000,0.432270,0.345055 RARM_JOINT3:0.852083,0.000000,0.485432,0.195732 RLEG_JOINT2:0.999273,0.030822,0.000000,-0.022445 RLEG_JOINT4:0.995800,0.077879,0.000000,0.048135 WAIST:0.999342,-0.000000,0.034900,0.009908 WAIST_JOINT0:0.998912,-0.000000,0.039894,0.024142 WAIST_JOINT1:0.998901,0.046782,0.000000,-0.002916 END:
KINECT_DATA_Sensor  AnkleLeft:0.090430,0.770379,-0.069696,-0.627281 AnkleRight:0.102192,0.755028,0.050300,0.645724 ElbowLeft:-0.063084,0.871183,-0.155503,-0.461387 ElbowRight:-0.404551,0.894624,0.118397,0.148218 FootLeft:0.000000,0.000000,0.000000,0.000000 FootRight:0.000000,0.000000,0.000000,0.000000 HandLeft:-0.171027,0.736422,-0.054131,0.652306 HandRight:0.350493,0.132538,-0.530752,0.760191 HandTipLeft:0.000000,0.000000,0.000000,0.000000 HandTipRight:0.000000,0.000000,0.000000,0.000000 Head:0.000000,0.000000,0.000000,0.000000 HipLeft:0.106374,-0.677871,0.714362,-0.137344 HipRight:-0.161098,0.679280,0.691298,-0.186370 KneeLeft:-0.003527,-0.681663,0.031714,0.730971 KneeRight:0.011627,0.731618,0.030838,0.680918 Neck:-0.041640,0.005265,0.997229,-0.061422 ShoulderLeft:0.020791,0.773724,-0.632724,0.024079 ShoulderRight:-0.032643,0.801189,0.591254,-0.086314 SpineBase:-0.035187,0.007109,0.999041,-0.025079 SpineMid:-0.038264,0.007187,0.998928,-0.025057 SpineShoulder:-0.041557,0.005763,0.998242,-0.041856 ThumbLeft:0.000000,0.000000,0.000000,0.000000 ThumbRight:0.000000,0.000000,0.000000,0.000000 WristLeft:-0.141485,0.749948,-0.134350,0.632068 WristRight:0.317774,0.150174,-0.452401,0.819635 END:
KINECT_DATA POSITION:1.918092,-0.728691,-1.888430 HEAD_JOINT1:0.984821,0.151799,-0.000000,0.084174 LARM_JOINT2:0.810309,0.000000,-0.038266,-0.584752 LARM_JOINT3:0.962268,0.000000,-0.214669,-0.167205 LLEG_JOINT2:0.999718,0.022413,0.000000,0.007895 LLEG_JOINT4:0.995735,0.091133,0.000000,-0.014344 RARM_JOINT2:0.836480,0.000000,0.419733,0.352314 RARM_JOINT3:0.828275,0.000000,0.525777,0.193701 RLEG_JOINT2:0.999181,0.031350,0.000000,-0.025593 RLEG_JOINT4:0.995878,0.078892,0.000000,0.044750 WAIST:0.999053,-0.000000,0.041787,0.012128 WAIST_JOINT0:0.997807,-0.000000,0.061125,0.025390 WAIST_JOINT1:0.998926,0.046313,0.000000,-0.001634 END:
KINECT_DATA_Sensor  AnkleLeft:0.090786,0.775675,-0.067344,-0.620927 AnkleRight:0.101538,0.780213,0.051721,0.615047 ElbowLeft:-0.056983,0.864139,-0.159568,-0.473872 ElbowRight:-0.399499,0.892422,0.103379,0.182473 FootLeft:0.000000,0.000000,0.000000,0.000000 FootRight:0.000000,0.000000,0.000000,0.000000 HandLeft:-0.171716,0.826633,-0.037044,0.534621 HandRight:0.226576,0.338787,-0.602031,0.686619 HandTipLeft:0.000000,0.000000,0.000000,0.000000 HandTipRight:0.000000,0.000000,0.000000,0.000000 Head:0.000000,0.000000,0.000000,0.000000 HipLeft:0.102078,-0.676744,0.716903,-0.132845 HipRight:-0.165424,0.679599,0.689232,-0.189051 KneeLeft:-0.002583,-0.676562,0.029555,0.735788 KneeRight:0.010978,0.736395,0.031819,0.675714 Neck:-0.062961,0.009847,0.996090,-0.061185 ShoulderLeft:0.013515,0.772473,-0.634476,0.023315 ShoulderRight:-0.068841,0.798072,0.586961,-0.117551 SpineBase:-0.042121,0.009119,0.998772,-0.024435 SpineMid:-0.052330,0.009368,0.998289,-0.024341 SpineShoulder:-0.062895,0.009388,0.997128,-0.041139 ThumbLeft:0.000000,0.000000,0.000000,0.000000 ThumbRight:0.000000,0.000000,0.000000,0.000000 WristLeft:-0.159770,0.833495,-0.114665,0.516345 WristRight:0.216706,0.360582,-0.553637,0.718682 END:
KINECT_DATA POSITION:1.886178,-0.424807,-2.082241 HEAD_JOINT1:0.985810,0.150788,-0.000000,0.073773 LARM_JOINT2:0.809285,0.000000,-0.051548,-0.585150 LARM_JOINT3:0.963550,0.000000,-0.209220,-0.166726 LLEG_JOINT2:0.999827,0.017149,0.000000,0.007233 LLEG_JOINT4:0.995412,0.095532,0.000000,-0.005338 RARM_JOINT2:0.817209,0.000000,0.472251,0.330375 RARM_JOINT3:0.845922,0.000000,0.501554,0.181270 RLEG_JOINT2:0.999095,0.031981,0.000000,-0.028028 RLEG_JOINT4:0.995761,0.079645,0.000000,0.045999 WAIST:0.998373,-0.000000,0.055308,0.013845 WAIST_JOINT0:0.996302,-0.000000,0.082632,0.023561 WAIST_JOINT1:0.998853,0.047886,-0.000000,0.000471 END:
KINECT_DATA_Sensor  AnkleLeft:0.086815,0.780135,-0.072154,-0.615343 AnkleRight:0.101470,0.782395,0.054481,0.612041 ElbowLeft:-0.061667,0.865760,-0.159509,-0.470333 ElbowRight:-0.429858,0.891480,0.073703,0.122689 FootLeft:0.000000,0.000000,0.000000,0.000000 FootRight:0.000000,0.000000,0.000000,0.000000 HandLeft:-0.165214,0.775742,-0.060977,0.605979 HandRight:0.311177,0.275196,-0.564080,0.713617 HandTipLeft:0.000000,0.000000,0.000000,0.000000 HandTipRight:0.000000,0.000000,0.000000,0.000000 Head:0.000000,0.000000,0.000000,0.000000 HipLeft:0.093276,-0.676664,0.719216,-0.127096 HipRight:-0.173086,0.678695,0.686024,-0.196943 KneeLeft:0.001832,-0.666578,0.026612,0.744958 KneeRight:0.010254,0.745571,0.032728,0.665543 Neck:-0.085052,0.013915,0.994284,-0.063017 ShoulderLeft:0.021494,0.768847,-0.638921,0.013890 ShoulderRight:-0.090779,0.789953,0.589636,-0.141644 SpineBase:-0.055663,0.011794,0.998049,-0.025707 SpineMid:-0.070095,0.012165,0.997139,-0.025534 SpineShoulder:-0.084998,0.012762,0.995393,-0.042477 ThumbLeft:0.000000,0.000000,0.000000,0.000000 ThumbRight:0.000000,0.000000,0.000000,0.000000 WristLeft:-0.146660,0.783805,-0.130879,0.589076 WristRight:0.298046,0.299479,-0.511101,0.748503 END:
KINECT_DATA POSITION:1.836015,-0.169041,-2.204168 HEAD_JOINT1:0.986346,0.149315,-0.000000,0.069473 LARM_JOINT2:0.809183,0.000000,-0.054261,-0.585046 LARM_JOINT3:0.963921,0.000000,-0.205131,-0.169639 LLEG_JOINT2:0.999869,0.012307,0.000000,0.010549 LLEG_JOINT4:0.995079,0.098785,0.000000,-0.007743 RARM_JOINT2:0.809980,0.000000,0.497981,0.309753 RARM_JOINT3:0.855809,0.000000,0.491282,0.161965 RLEG_JOINT2:0.999167,0.033011,0.000000,-0.023983 RLEG_JOINT4:0.995965,0.077388,0.000000,0.045438 WAIST:0.997641,-0.000000,0.067708,0.011323 WAIST_JOINT0:0.997160,-0.000000,0.071655,0.023187 WAIST_JOINT1:0.998778,0.049172,-0.000000,0.004937 END:
KINECT_DATA_Sensor  AnkleLeft:0.086955,0.770346,-0.069184,-0.627869 AnkleRight:0.101206,0.796904,0.053037,0.593202 ElbowLeft:-0.060650,0.861500,-0.161735,-0.477474 ElbowRight:-0.451062,0.884800,0.053887,0.103770 FootLeft:0.000000,0.000000,0.000000,0.000000 FootRight:0.000000,0.000000,0.000000,0.000000 HandLeft:-0.156234,0.766837,-0.055006,0.620102 HandRight:0.288065,0.318136,-0.576139,0.695609 HandTipLeft:0.000000,0.000000,0.000000,0.000000 HandTipRight:0.000000,0.000000,0.000000,0.000000 Head:0.000000,0.000000,0.000000,0.000000 HipLeft:0.084166,-0.679260,0.718918,-0.121159 HipRight:-0.179988,0.675018,0.685929,-0.203609 KneeLeft:0.005666,-0.657468,0.024046,0.753077 KneeRight:0.011667,0.753692,0.032628,0.656313 Neck:-0.074911,0.014005,0.994976,-0.064924 ShoulderLeft:0.026069,0.766154,-0.641932,0.015875 ShoulderRight:-0.072460,0.790770,0.594136,-0.128201 SpineBase:-0.067892,0.012994,0.997241,-0.027054 SpineMid:-0.071238,0.013085,0.997008,-0.027011 SpineShoulder:-0.074832,0.012987,0.996128,-0.044276 ThumbLeft:0.000000,0.000000,0.000000,0.000000 ThumbRight:0.000000,0.000000,0.000000,0.000000 WristLeft:-0.140918,0.775319,-0.136345,0.600361 WristRight:0.278796,0.340995,-0.530904,0.723973 END:
KINECT_DATA POSITION:1.854400,0.035859,-2.258599 HEAD_JOINT1:0.986865,0.147814,-0.000000,0.065183 LARM_JOINT2:0.808037,0.000000,-0.052098,-0.586823 LARM_JOINT3:0.963663,0.000000,-0.207576,-0.168123 LLEG_JOINT2:0.999893,0.009805,0.000000,0.010815 LLEG_JOINT4:0.994872,0.100953,0.000000,-0.006148 RARM_JOINT2:0.810313,0.000000,0.488934,0.323012 RARM_JOINT3:0.853559,0.000000,0.497335,0.155228 RLEG_JOINT2:0.999139,0.033858,0.000000,-0.023968 RLEG_JOINT4:0.995990,0.075713,0.000000,0.047659 WAIST:0.997020,-0.000000,0.076339,0.011088 WAIST_JOINT0:0.996158,-0.000000,0.085250,0.020053 WAIST_JOINT1:0.998710,0.050262,-0.000000,0.007259 END:
KINECT_DATA_Sensor  AnkleLeft:0.087560,0.775679,-0.068122,-0.621301 AnkleRight:0.100123,0.786489,0.054471,0.606995 ElbowLeft:-0.057665,0.854223,-0.163025,-0.490306 ElbowRight:-0.439425,0.889941,0.042351,0.114530 FootLeft:0.000000,0.000000,0.000000,0.000000 FootRight:0.000000,0.000000,0.000000,0.000000 HandLeft:-0.154686,0.749866,-0.063049,0.640155 HandRight:0.256483,0.370641,-0.601895,0.659215 HandTipLeft:0.000000,0.000000,0.000000,0.000000 HandTipRight:0.000000,0.000000,0.000000,0.000000 Head:0.000000,0.000000,0.000000,0.000000 HipLeft:0.078654,-0.679840,0.719583,-0.117603 HipRight:-0.185649,0.673173,0.684664,-0.208824 KneeLeft:0.007432,-0.651020,0.022437,0.758693 KneeRight:0.011715,0.759352,0.033458,0.649713 Neck:-0.088309,0.016068,0.993747,-0.066414 ShoulderLeft:0.026854,0.765441,-0.642805,0.013432 ShoulderRight:-0.090325,0.782768,0.598152,-0.146049 SpineBase:-0.076460,0.014501,0.996579,-0.027823 SpineMid:-0.082192,0.014661,0.996123,-0.027739 SpineShoulder:-0.088239,0.014731,0.994956,-0.045373 ThumbLeft:0.000000,0.000000,0.000000,0.000000 ThumbRight:0.000000,0.000000,0.000000,0.000000 WristLeft:-0.133034,0.759759,-0.143654,0.620026 WristRight:0.240779,0.391722,-0.554497,0.693623 END:
KINECT_DATA POSITION:1.832590,0.184678,-2.265239 HEAD_JOINT1:0.987311,0.146761,-0.000000,0.060646 LARM_JOINT2:0.806692,0.000000,-0.049823,-0.588868 LARM_JOINT3:0.962868,0.000000,-0.208208,-0.171855 LLEG_JOINT2:0.999888,0.007987,0.000000,0.012641 LLEG_JOINT4:0.994357,0.105359,0.000000,-0.012380 RARM_JOINT2:0.806765,0.000000,0.496593,0.320197 RARM_JOINT3:0.861419,0.000000,0.490411,0.132115 RLEG_JOINT2:0.999121,0.035898,0.000000,-0.021629 RLEG_JOINT4:0.996311,0.071870,0.000000,0.046893 WAIST:0.996363,-0.000000,0.084627,0.009954 WAIST_JOINT0:0.996369,-0.000000,0.083280,0.017683 WAIST_JOINT1:0.998625,0.051433,-0.000000,0.010123 END:
KINECT_DATA_Sensor  AnkleLeft:0.090462,0.744304,-0.067517,-0.658232 AnkleRight:0.098904,0.793444,0.053408,0.598174 ElbowLeft:-0.053691,0.848727,-0.163927,-0.499907 ElbowRight:-0.442704,0.888918,0.026650,0.114579 FootLeft:0.000000,0.000000,0.000000,0.000000 FootRight:0.000000,0.000000,0.000000,0.000000 HandLeft:-0.157608,0.736097,-0.055237,0.655950 HandRight:-0.235776,-0.361645,0.615703,-0.659191 HandTipLeft:0.000000,0.000000,0.000000,0.000000 HandTipRight:0.000000,0.000000,0.000000,0.000000 Head:0.000000,0.000000,0.000000,0.000000 HipLeft:0.073696,-0.681047,0.719487,-0.114374 HipRight:-0.191122,0.670839,0.683898,-0.213850 KneeLeft:0.009073,-0.644798,0.021853,0.763986 KneeRight:0.013674,0.764686,0.034339,0.643342 Neck:-0.086747,0.016498,0.993752,-0.068256 ShoulderLeft:0.026963,0.766647,-0.641325,0.015054 ShoulderRight:-0.088053,0.782120,0.599443,-0.145611 SpineBase:-0.084645,0.015417,0.995883,-0.028522 SpineMid:-0.085525,0.015442,0.995808,-0.028508 SpineShoulder:-0.086636,0.015521,0.995016,-0.046868 ThumbLeft:0.000000,0.000000,0.000000,0.000000 ThumbRight:0.000000,0.000000,0.000000,0.000000 WristLeft:-0.128228,0.750012,-0.147055,0.631992 WristRight:0.240171,0.395096,-0.562952,0.685056 END:
KINECT_DATA POSITION:1.784125,0.259324,-2.261913 HEAD_JOINT1:0.987372,0.147083,-0.000000,0.058854 LARM_JOINT2:0.804259,0.000000,-0.059494,-0.591293 LARM_JOINT3:0.963992,0.000000,-0.207798,-0.165949 LLEG_JOINT2:0.999877,0.006498,0.000000,0.014296 LLEG_JOINT4:0.994378,0.105543,0.000000,-0.008551 RARM_JOINT2:0.800150,0.000000,0.497693,0.334756 RARM_JOINT3:0.880338,0.000000,0.461426,0.109965 RLEG_JOINT2:0.999122,0.036727,0.000000,-0.020166 RLEG_JOINT4:0.996342,0.070344,0.000000,0.048529 WAIST:0.996043,-0.000000,0.088468,0.008467 WAIST_JOINT0:0.994396,-0.000000,0.105372,0.008509 WAIST_JOINT1:0.998572,0.052051,-0.000000,0.012048 END:
KINECT_DATA_Sensor  AnkleLeft:0.087410,0.739968,-0.070205,-0.663233 AnkleRight:0.100358,0.805958,0.050492,0.581215 ElbowLeft:-0.057756,0.849265,-0.158495,-0.500293 ElbowRight:-0.432616,0.893367,0.009724,0.121014 FootLeft:0.000000,0.000000,0.000000,0.000000 FootRight:0.000000,0.000000,0.000000,0.000000 HandLeft:-0.171995,0.745956,-0.065160,0.640095 HandRight:0.623398,-0.665863,0.149854,0.381505 HandTipLeft:0.000000,0.000000,0.000000,0.000000 HandTipRight:0.000000,0.000000,0.000000,0.000000 Head:0.000000,0.000000,0.000000,0.000000 HipLeft:0.071392,-0.682517,0.718553,-0.112944 HipRight:-0.193554,0.669358,0.683920,-0.216215 KneeLeft:0.010168,-0.641941,0.021126,0.766396 KneeRight:0.014119,0.767106,0.035111,0.640403 Neck:-0.107792,0.017753,0.991628,-0.068850 ShoulderLeft:0.034294,0.765719,-0.642242,0.004906 ShoulderRight:-0.110083,0.764198,0.612916,-0.167978 SpineBase:-0.088393,0.015393,0.995547,-0.028897 SpineMid:-0.097869,0.015667,0.994661,-0.028749 SpineShoulder:-0.107713,0.016567,0.992915,-0.047368 ThumbLeft:0.000000,0.000000,0.000000,0.000000 ThumbRight:0.000000,0.000000,0.000000,0.000000 WristLeft:-0.128974,0.761407,-0.145617,0.618402 WristRight:0.577943,-0.663257,0.193276,0.434416 END:
KINECT_DATA POSITION:1.739077,0.306303,-2.253556 HEAD_JOINT1:0.987410,0.147210,-0.000000,0.057882 LARM_JOINT2:0.802563,0.000000,-0.063441,-0.593185 LARM_JOINT3:0.965576,0.000000,-0.201370,-0.164658 LLEG_JOINT2:0.999869,0.006378,0.000000,0.014891 LLEG_JOINT4:0.994402,0.105466,0.000000,-0.006472 RARM_JOINT2:0.793602,0.000000,0.515034,0.323938 RARM_JOINT3:0.897969,0.000000,0.428306,0.101027 RLEG_JOINT2:0.999090,0.037739,0.000000,-0.019876 RLEG_JOINT4:0.996163,0.073586,0.000000,0.047376 WAIST:0.995856,-0.000000,0.090574,0.008212 WAIST_JOINT0:0.993721,-0.000000,0.111663,0.007025 WAIST_JOINT1:0.998565,0.052138,-0.000000,0.012256 END:
KINECT_DATA_Sensor  AnkleLeft:0.088589,0.761250,-0.068939,-0.638669 AnkleRight:0.102163,0.804320,0.054971,0.582761 ElbowLeft:-0.058900,0.849601,-0.155028,-0.500675 ElbowRight:-0.444018,0.886880,-0.010131,0.127241 FootLeft:0.000000,0.000000,0.000000,0.000000 FootRight:0.000000,0.000000,0.000000,0.000000 HandLeft:-0.165238,0.756122,-0.050004,0.631250 HandRight:0.592269,-0.677524,0.128637,0.416691 HandTipLeft:0.000000,0.000000,0.000000,0.000000 HandTipRight:0.000000,0.000000,0.000000,0.000000 Head:0.000000,0.000000,0.000000,0.000000 HipLeft:0.070494,-0.683137,0.718164,-0.112229 HipRight:-0.194984,0.668996,0.683348,-0.217857 KneeLeft:0.010427,-0.640325,0.021333,0.767737 KneeRight:0.014724,0.768448,0.035899,0.638734 Neck:-0.113995,0.017874,0.990931,-0.068861 ShoulderLeft:0.038590,0.764690,-0.643242,0.000435 ShoulderRight:-0.114374,0.760186,0.615749,-0.172882 SpineBase:-0.090488,0.015182,0.995360,-0.028989 SpineMid:-0.102014,0.015517,0.994245,-0.028811 SpineShoulder:-0.113932,0.016601,0.992217,-0.047433 ThumbLeft:0.000000,0.000000,0.000000,0.000000 ThumbRight:0.000000,0.000000,0.000000,0.000000 WristLeft:-0.131021,0.770944,-0.143121,0.606626 WristRight:0.588912,-0.664033,0.156792,0.433196 END:
KINECT_DATA POSITION:1.705354,0.333761,-2.271163 HEAD_JOINT1:0.987286,0.147919,-0.000000,0.058198 LARM_JOINT2:0.801681,0.000000,-0.066039,-0.594094 LARM_JOINT3:0.967235,0.000000,-0.195014,-0.162560 LLEG_JOINT2:0.999854,0.006427,0.000000,0.015806 LLEG_JOINT4:0.994486,0.104735,0.000000,-0.005374 RARM_JOINT2:0.791206,0.000000,0.522399,0.317948 RARM_JOINT3:0.904461,0.000000,0.415483,0.096563 RLEG_JOINT2:0.999085,0.038058,0.000000,-0.019488 RLEG_JOINT4:0.996125,0.072702,0.000000,0.049490 WAIST:0.995767,-0.000000,0.091612,0.007494 WAIST_JOINT0:0.993360,-0.000000,0.114896,0.005847 WAIST_JOINT1:0.998560,0.052137,-0.000000,0.012598 END:
KINECT_DATA_Sensor  AnkleLeft:0.089842,0.782334,-0.066595,-0.612737 AnkleRight:0.101722,0.790561,0.055943,0.601279 ElbowLeft:-0.058958,0.852610,-0.153085,-0.496130 ElbowRight:-0.449761,0.884875,-0.013282,0.120558 FootLeft:0.000000,0.000000,0.000000,0.000000 FootRight:0.000000,0.000000,0.000000,0.000000 HandLeft:-0.156493,0.831811,-0.028325,0.531787 HandRight:0.592371,-0.675694,0.128805,0.419455 HandTipLeft:0.000000,0.000000,0.000000,0.000000 HandTipRight:0.000000,0.000000,0.000000,0.000000 Head:0.000000,0.000000,0.000000,0.000000 HipLeft:0.070115,-0.683945,0.717470,-0.111979 HipRight:-0.195744,0.668517,0.683324,-0.218717 KneeLeft:0.010450,-0.639544,0.021567,0.768381 KneeRight:0.014675,0.769089,0.036414,0.637935 Neck:-0.117265,0.017406,0.990563,-0.068774 ShoulderLeft:0.041859,0.764517,-0.643237,-0.002854 ShoulderRight:-0.115441,0.758331,0.617330,-0.174675 SpineBase:-0.091492,0.014865,0.995271,-0.029048 SpineMid:-0.104145,0.015234,0.994027,-0.028856 SpineShoulder:-0.117199,0.016339,0.991838,-0.047474 ThumbLeft:0.000000,0.000000,0.000000,0.000000 ThumbRight:0.000000,0.000000,0.000000,0.000000 WristLeft:-0.146581,0.838772,-0.123445,0.509644 WristRight:0.585725,-0.670024,0.145740,0.432152 END:
KINECT_DATA POSITION:1.695156,0.331119,-2.289534 HEAD_JOINT1:0.987248,0.148172,-0.000000,0.058185 LARM_JOINT2:0.802041,0.000000,-0.057241,-0.594519 LARM_JOINT3:0.965589,0.000000,-0.202118,-0.163668 LLEG_JOINT2:0.999848,0.006568,0.000000,0.016161 LLEG_JOINT4:0.994625,0.103374,0.000000,-0.005908 RARM_JOINT2:0.790074,0.000000,0.534420,0.300297 RARM_JOINT3:0.909784,0.000000,0.403726,0.096426 RLEG_JOINT2:0.999079,0.038010,0.000000,-0.019909 RLEG_JOINT4:0.996063,0.071876,0.000000,0.051882 WAIST:0.995778,-0.000000,0.091510,0.007207 WAIST_JOINT0:0.994922,-0.000000,0.100228,0.009253 WAIST_JOINT1:0.998554,0.052215,-0.000000,0.012755 END:
KINECT_DATA_Sensor  AnkleLeft:0.087280,0.766591,-0.067900,-0.632543 AnkleRight:0.103131,0.798560,0.052768,0.590662 ElbowLeft:-0.053462,0.848909,-0.155580,-0.502285 ElbowRight:-0.464406,0.879319,-0.010467,0.104949 FootLeft:0.000000,0.000000,0.000000,0.000000 FootRight:0.000000,0.000000,0.000000,0.000000 HandLeft:-0.157878,0.786104,-0.049354,0.595550 HandRight:-0.127915,-0.420043,0.587250,-0.679955 HandTipLeft:0.000000,0.000000,0.000000,0.000000 HandTipRight:0.000000,0.000000,0.000000,0.000000 Head:0.000000,0.000000,0.000000,0.000000 HipLeft:0.070013,-0.684306,0.717124,-0.112059 HipRight:-0.195550,0.668506,0.683399,-0.218692 KneeLeft:0.010367,-0.639632,0.021726,0.768305 KneeRight:0.014124,0.769020,0.036849,0.638005 Neck:-0.103618,0.016245,0.992082,-0.069084 ShoulderLeft:0.037484,0.765342,-0.642518,0.004149 ShoulderRight:-0.100636,0.767837,0.611868,-0.160988 SpineBase:-0.091375,0.014783,0.995280,-0.029146 SpineMid:-0.097302,0.014956,0.994718,-0.029057 SpineShoulder:-0.103516,0.015588,0.993357,-0.047792 ThumbLeft:0.000000,0.000000,0.000000,0.000000 ThumbRight:0.000000,0.000000,0.000000,0.000000 WristLeft:-0.136366,0.795622,-0.134046,0.574824 WristRight:-0.142021,-0.429935,0.582685,-0.674881 END:
KINECT_DATA POSITION:1.698449,0.330795,-2.323008 HEAD_JOINT1:0.987377,0.147837,-0.000000,0.056838 LARM_JOINT2:0.801695,0.000000,-0.062642,-0.594442 LARM_JOINT3:0.965832,0.000000,-0.200198,-0.164588 LLEG_JOINT2:0.999858,0.006128,0.000000,0.015671 LLEG_JOINT4:0.994528,0.104367,0.000000,-0.004748 RARM_JOINT2:0.787812,0.000000,0.544343,0.288172 RARM_JOINT3:0.918212,0.000000,0.383140,0.100452 RLEG_JOINT2:0.999062,0.038715,0.000000,-0.019424 RLEG_JOINT4:0.996157,0.070824,0.000000,0.051536 WAIST:0.995699,-0.000000,0.092347,0.007452 WAIST_JOINT0:0.994768,-0.000000,0.101357,0.012809 WAIST_JOINT1:0.998534,0.052534,-0.000000,0.013028 END:
KINECT_DATA_Sensor  AnkleLeft:0.087393,0.766326,-0.068837,-0.632747 AnkleRight:0.099756,0.762006,0.058457,0.637165 ElbowLeft:-0.056114,0.851871,-0.154538,-0.497278 ElbowRight:-0.474328,0.875879,-0.008837,0.088150 FootLeft:0.000000,0.000000,0.000000,0.000000 FootRight:0.000000,0.000000,0.000000,0.000000 HandLeft:-0.160187,0.729131,-0.061722,0.662494 HandRight:0.129043,0.408490,-0.566217,0.704189 HandTipLeft:0.000000,0.000000,0.000000,0.000000 HandTipRight:0.000000,0.000000,0.000000,0.000000 Head:0.000000,0.000000,0.000000,0.000000 HipLeft:0.068886,-0.684350,0.717253,-0.111658 HipRight:-0.195662,0.668641,0.683064,-0.219223 KneeLeft:0.010552,-0.639003,0.021247,0.768838 KneeRight:0.015085,0.769556,0.036914,0.637333 Neck:-0.104721,0.016731,0.991928,-0.069517 ShoulderLeft:0.044483,0.763217,-0.644609,-0.000728 ShoulderRight:-0.094630,0.770932,0.609796,-0.157666 SpineBase:-0.092211,0.015133,0.995186,-0.029553 SpineMid:-0.098271,0.015312,0.994606,-0.029461 SpineShoulder:-0.104614,0.016040,0.993219,-0.048103 ThumbLeft:0.000000,0.000000,0.000000,0.000000 ThumbRight:0.000000,0.000000,0.000000,0.000000 WristLeft:-0.124174,0.743444,-0.144693,0.641043 WristRight:-0.146886,-0.415426,0.573727,-0.690422 END:
KINECT_DATA POSITION:1.698940,0.327364,-2.347398 HEAD_JOINT1:0.987272,0.148499,-0.000000,0.056939 LARM_JOINT2:0.801903,0.000000,-0.063959,-0.594021 LARM_JOINT3:0.966546,0.000000,-0.196238,-0.165165 LLEG_JOINT2:0.999856,0.006719,0.000000,0.015595 LLEG_JOINT4:0.994744,0.102289,0.000000,-0.004721 RARM_JOINT2:0.785624,0.000000,0.546859,0.289380 RARM_JOINT3:0.921058,0.000000,0.376796,0.098371 RLEG_JOINT2:0.999062,0.038730,0.000000,-0.019360 RLEG_JOINT4:0.996303,0.069033,0.000000,0.051130 WAIST:0.995737,-0.000000,0.091941,0.007335 WAIST_JOINT0:0.994351,-0.000000,0.105411,0.012419 WAIST_JOINT1:0.998531,0.052563,-0.000000,0.013150 END:
KINECT_DATA_Sensor  AnkleLeft:0.088476,0.788392,-0.064970,-0.605300 AnkleRight:0.101207,0.794641,0.052068,0.596315 ElbowLeft:-0.057045,0.852822,-0.154576,-0.495527 ElbowRight:-0.473972,0.876295,-0.011079,0.085642 FootLeft:0.000000,0.000000,0.000000,0.000000 FootRight:0.000000,0.000000,0.000000,0.000000 HandLeft:-0.152233,0.732919,-0.049861,0.661187 HandRight:-0.109576,-0.434476,0.574194,-0.685219 HandTipLeft:0.000000,0.000000,0.000000,0.000000 HandTipRight:0.000000,0.000000,0.000000,0.000000 Head:0.000000,0.000000,0.000000,0.000000 HipLeft:0.069034,-0.684485,0.717046,-0.112071 HipRight:-0.195415,0.668708,0.683102,-0.219123 KneeLeft:0.009972,-0.639321,0.021481,0.768575 KneeRight:0.015079,0.769291,0.036965,0.637650 Neck:-0.108638,0.017051,0.991503,-0.069490 ShoulderLeft:0.046297,0.762570,-0.645240,-0.002971 ShoulderRight:-0.098252,0.768806,0.610956,-0.161298 SpineBase:-0.091795,0.015212,0.995219,-0.029698 SpineMid:-0.100009,0.015457,0.994427,-0.029571 SpineShoulder:-0.108539,0.016277,0.992796,-0.048066 ThumbLeft:0.000000,0.000000,0.000000,0.000000 ThumbRight:0.000000,0.000000,0.000000,0.000000 WristLeft:-0.125214,0.746697,-0.144096,0.637182 WristRight:-0.120381,-0.439187,0.575902,-0.678940 END:
KINECT_DATA POSITION:1.722615,0.308360,-2.355087 HEAD_JOINT1:0.986809,0.150765,-0.000000,0.058967 LARM_JOINT2:0.802176,0.000000,-0.064403,-0.593605 LARM_JOINT3:0.965753,0.000000,-0.199939,-0.165366 LLEG_JOINT2:0.999859,0.007151,0.000000,0.015171 LLEG_JOINT4:0.994943,0.100320,0.000000,-0.004989 RARM_JOINT2:0.782389,0.000000,0.552692,0.287053 RARM_JOINT3:0.924872,0.000000,0.367354,0.098300 RLEG_JOINT2:0.999062,0.038489,0.000000,-0.019820 RLEG_JOINT4:0.996333,0.068675,0.000000,0.051030 WAIST:0.995861,-0.000000,0.090580,0.007468 WAIST_JOINT0:0.994448,-0.000000,0.104305,0.013906 WAIST_JOINT1:0.998527,0.052645,-0.000000,0.013142 END:
KINECT_DATA_Sensor  AnkleLeft:0.084722,0.765382,-0.067235,-0.634422 AnkleRight:0.100346,0.791434,0.052191,0.600698 ElbowLeft:-0.057543,0.854070,-0.155008,-0.493179 ElbowRight:-0.476802,0.877254,0.000040,0.055551 FootLeft:0.000000,0.000000,0.000000,0.000000 FootRight:0.000000,0.000000,0.000000,0.000000 HandLeft:-0.159655,0.702336,-0.065926,0.690571 HandRight:-0.048658,-0.440073,0.595544,-0.670295 HandTipLeft:0.000000,0.000000,0.000000,0.000000 HandTipRight:0.000000,0.000000,0.000000,0.000000 Head:0.000000,0.000000,0.000000,0.000000 HipLeft:0.069624,-0.684487,0.716873,-0.112796 HipRight:-0.194635,0.669230,0.683062,-0.218345 KneeLeft:0.009485,-0.640370,0.021518,0.767706 KneeRight:0.014723,0.768431,0.036966,0.638694 Neck:-0.107509,0.017267,0.991617,-0.069571 ShoulderLeft:0.047667,0.761957,-0.645862,-0.003580 ShoulderRight:-0.095180,0.770507,0.609917,-0.158935 SpineBase:-0.090435,0.015501,0.995339,-0.029694 SpineMid:-0.098756,0.015749,0.994548,-0.029563 SpineShoulder:-0.107404,0.016476,0.992913,-0.048122 ThumbLeft:0.000000,0.000000,0.000000,0.000000 ThumbRight:0.000000,0.000000,0.000000,0.000000 WristLeft:-0.119612,0.718835,-0.148958,0.668417 WristRight:-0.106400,-0.484434,0.567187,-0.657496 END:
KINECT_DATA POSITION:1.720035,0.292820,-2.376378 HEAD_JOINT1:0.986977,0.150059,-0.000000,0.057956 LARM_JOINT2:0.801507,0.000000,-0.066432,-0.594284 LARM_JOINT3:0.966377,0.000000,-0.199144,-0.162659 LLEG_JOINT2:0.999860,0.007335,0.000000,0.015069 LLEG_JOINT4:0.994868,0.100988,0.000000,-0.006202 RARM_JOINT2:0.781034,0.000000,0.556021,0.284302 RARM_JOINT3:0.928402,0.000000,0.358117,0.099102 RLEG_JOINT2:0.999070,0.038267,0.000000,-0.019856 RLEG_JOINT4:0.996367,0.069210,0.000000,0.049632 WAIST:0.995927,-0.000000,0.089844,0.007544 WAIST_JOINT0:0.994448,-0.000000,0.104170,0.014894 WAIST_JOINT1:0.998460,0.053573,-0.000000,0.014376 END:
KINECT_DATA_Sensor  AnkleLeft:0.085027,0.756359,-0.067888,-0.645045 AnkleRight:0.100005,0.795631,0.052501,0.595159 ElbowLeft:-0.058165,0.855087,-0.154984,-0.491348 ElbowRight:-0.478058,0.874889,-0.014064,0.076364 FootLeft:0.000000,0.000000,0.000000,0.000000 FootRight:0.000000,0.000000,0.000000,0.000000 HandLeft:-0.160737,0.791666,-0.048295,0.587448 HandRight:-0.097109,-0.441765,0.562983,-0.691711 HandTipLeft:0.000000,0.000000,0.000000,0.000000 HandTipRight:0.000000,0.000000,0.000000,0.000000 Head:0.000000,0.000000,0.000000,0.000000 HipLeft:0.069510,-0.684435,0.716833,-0.113435 HipRight:-0.193968,0.669512,0.683111,-0.217922 KneeLeft:0.009343,-0.640956,0.021609,0.767217 KneeRight:0.014638,0.767962,0.036758,0.639272 Neck:-0.107659,0.018677,0.991490,-0.070773 ShoulderLeft:0.050249,0.761495,-0.646204,-0.004636 ShoulderRight:-0.092626,0.772124,0.608462,-0.158174 SpineBase:-0.089685,0.016027,0.995387,-0.030075 SpineMid:-0.098455,0.016291,0.994558,-0.029932 SpineShoulder:-0.107538,0.017773,0.992832,-0.049044 ThumbLeft:0.000000,0.000000,0.000000,0.000000 ThumbRight:0.000000,0.000000,0.000000,0.000000 WristLeft:-0.138251,0.801237,-0.131456,0.567120 WristRight:-0.107678,-0.442598,0.572571,-0.681671 END:
KINECT_DATA POSITION:1.719588,0.275949,-2.386713 HEAD_JOINT1:0.986398,0.152692,-0.000000,0.060861 LARM_JOINT2:0.803587,0.000000,-0.054566,-0.592681 LARM_JOINT3:0.964069,0.000000,-0.204705,-0.169314 LLEG_JOINT2:0.999854,0.007923,0.000000,0.015171 LLEG_JOINT4:0.994409,0.105461,0.000000,0.005441 RARM_JOINT2:0.778477,0.000000,0.561376,0.280766 RARM_JOINT3:0.933246,0.000000,0.343807,0.104159 RLEG_JOINT2:0.999069,0.038416,0.000000,-0.019618 RLEG_JOINT4:0.996373,0.069168,0.000000,0.049567 WAIST:0.995996,-0.000000,0.089082,0.007514 WAIST_JOINT0:0.995170,-0.000000,0.097067,0.014680 WAIST_JOINT1:0.998475,0.053344,-0.000000,0.014198 END:
KINECT_DATA_Sensor  AnkleLeft:0.086971,0.783874,-0.076854,-0.609977 AnkleRight:0.100223,0.795126,0.052418,0.595805 ElbowLeft:-0.051713,0.851726,-0.160771,-0.496025 ElbowRight:-0.481973,0.875173,0.000341,0.042120 FootLeft:0.000000,0.000000,0.000000,0.000000 FootRight:0.000000,0.000000,0.000000,0.000000 HandLeft:-0.158144,0.750876,-0.054002,0.638952 HandRight:0.068770,0.403749,-0.568936,0.713140 HandTipLeft:0.000000,0.000000,0.000000,0.000000 HandTipRight:0.000000,0.000000,0.000000,0.000000 Head:0.000000,0.000000,0.000000,0.000000 HipLeft:0.069988,-0.684551,0.716607,-0.113866 HipRight:-0.193575,0.669785,0.683093,-0.217487 KneeLeft:0.008949,-0.641533,0.022038,0.766726 KneeRight:0.014926,0.767470,0.036734,0.639857 Neck:-0.100854,0.017967,0.992242,-0.070433 ShoulderLeft:0.040196,0.762341,-0.645907,0.004957 ShoulderRight:-0.094115,0.772686,0.607844,-0.156920 SpineBase:-0.088921,0.016088,0.995457,-0.029994 SpineMid:-0.094673,0.016261,0.994926,-0.029901 SpineShoulder:-0.100709,0.017368,0.993558,-0.048970 ThumbLeft:0.000000,0.000000,0.000000,0.000000 ThumbRight:0.000000,0.000000,0.000000,0.000000 WristLeft:-0.129522,0.763247,-0.139400,0.617451 WristRight:-0.128045,-0.447946,0.554937,-0.689198 END:
KINECT_DATA POSITION:1.723042,0.262441,-2.380443 HEAD_JOINT1:0.986074,0.154192,-0.000000,0.062319 LARM_JOINT2:0.804181,0.000000,-0.045392,-0.592649 LARM_JOINT3:0.962406,0.000000,-0.210626,-0.171499 LLEG_JOINT2:0.999855,0.008250,0.000000,0.014914 LLEG_JOINT4:0.994947,0.100298,0.000000,-0.004491 RARM_JOINT2:0.776405,0.000000,0.564664,0.279913 RARM_JOINT3:0.934525,0.000000,0.340787,0.102603 RLEG_JOINT2:0.999083,0.038239,0.000000,-0.019237 RLEG_JOINT4:0.996353,0.069538,0.000000,0.049445 WAIST:0.996083,-0.000000,0.088111,0.007460 WAIST_JOINT0:0.995758,-0.000000,0.091009,0.013549 WAIST_JOINT1:0.998458,0.053573,-0.000000,0.014554 END:
KINECT_DATA_Sensor  AnkleLeft:0.084864,0.761981,-0.068837,-0.638314 AnkleRight:0.099882,0.786788,0.053620,0.606723 ElbowLeft:-0.046187,0.848673,-0.164274,-0.500635 ElbowRight:-0.482983,0.874742,-0.001281,0.039399 FootLeft:0.000000,0.000000,0.000000,0.000000 FootRight:0.000000,0.000000,0.000000,0.000000 HandLeft:-0.161789,0.771702,-0.054064,0.612680 HandRight:0.004987,-0.483729,0.574620,-0.660146 HandTipLeft:0.000000,0.000000,0.000000,0.000000 HandTipRight:0.000000,0.000000,0.000000,0.000000 Head:0.000000,0.000000,0.000000,0.000000 HipLeft:0.070480,-0.684598,0.716415,-0.114492 HipRight:-0.193115,0.670013,0.683165,-0.216966 KneeLeft:0.008511,-0.642287,0.022010,0.766101 KneeRight:0.015107,0.766841,0.036383,0.640627 Neck:-0.095268,0.017949,0.992774,-0.070723 ShoulderLeft:0.032775,0.763764,-0.644548,0.012210 ShoulderRight:-0.094349,0.773497,0.607126,-0.155559 SpineBase:-0.087942,0.016301,0.995540,-0.030007 SpineMid:-0.091395,0.016405,0.995229,-0.029951 SpineShoulder:-0.095102,0.017482,0.994092,-0.049312 ThumbLeft:0.000000,0.000000,0.000000,0.000000 ThumbRight:0.000000,0.000000,0.000000,0.000000 WristLeft:-0.133385,0.782834,-0.134285,0.592746 WristRight:-0.065361,-0.522636,0.565567,-0.634597 END:
KINECT_DATA POSITION:1.718122,0.267043,-2.332389 HEAD_JOINT1:0.986084,0.154155,-0.000000,0.062243 LARM_JOINT2:0.804364,0.000000,-0.045036,-0.592427 LARM_JOINT3:0.962133,0.000000,-0.210779,-0.172835 LLEG_JOINT2:0.999854,0.009099,0.000000,0.014478 LLEG_JOINT4:0.995184,0.097921,0.000000,-0.004473 RARM_JOINT2:0.775762,0.000000,0.565758,0.279484 RARM_JOINT3:0.934777,0.000000,0.339205,0.105509 RLEG_JOINT2:0.999094,0.038176,0.000000,-0.018790 RLEG_JOINT4:0.996559,0.067605,0.000000,0.047957 WAIST:0.996170,-0.000000,0.087081,0.007853 WAIST_JOINT0:0.995824,-0.000000,0.090334,0.013224 WAIST_JOINT1:0.998443,0.053889,-0.000000,0.014414 END:
KINECT_DATA_Sensor  AnkleLeft:0.085518,0.782140,-0.065522,-0.613719 AnkleRight:0.098491,0.791001,0.051732,0.601615 ElbowLeft:-0.045833,0.849695,-0.164994,-0.498694 ElbowRight:-0.483206,0.874619,-0.001630,0.039390 FootLeft:0.000000,0.000000,0.000000,0.000000 FootRight:0.000000,0.000000,0.000000,0.000000 HandLeft:-0.166295,0.817644,-0.040012,0.549731 HandRight:-0.045941,-0.444239,0.569060,-0.690443 HandTipLeft:0.000000,0.000000,0.000000,0.000000 HandTipRight:0.000000,0.000000,0.000000,0.000000 Head:0.000000,0.000000,0.000000,0.000000 HipLeft:0.070919,-0.684091,0.716710,-0.115397 HipRight:-0.192561,0.670322,0.683162,-0.216515 KneeLeft:0.007876,-0.643067,0.022495,0.765439 KneeRight:0.015728,0.766181,0.035758,0.641436 Neck:-0.094830,0.018011,0.992814,-0.070737 ShoulderLeft:0.033637,0.764149,-0.644052,0.011877 ShoulderRight:-0.092733,0.774195,0.606709,-0.154685 SpineBase:-0.086918,0.016804,0.995614,-0.030263 SpineMid:-0.090638,0.016917,0.995282,-0.030200 SpineShoulder:-0.094634,0.017878,0.994111,-0.049680 ThumbLeft:0.000000,0.000000,0.000000,0.000000 ThumbRight:0.000000,0.000000,0.000000,0.000000 WristLeft:-0.143624,0.826809,-0.122586,0.529841 WristRight:-0.099884,-0.475967,0.558787,-0.671741 END:
KINECT_DATA POSITION:1.714760,0.299610,-2.294481 HEAD_JOINT1:0.986149,0.153999,-0.000000,0.061591 LARM_JOINT2:0.804105,0.000000,-0.043139,-0.592920 LARM_JOINT3:0.961816,0.000000,-0.209789,-0.175779 LLEG_JOINT2:0.999861,0.009214,0.000000,0.013914 LLEG_JOINT4:0.995217,0.097592,0.000000,-0.004425 RARM_JOINT2:0.776202,0.000000,0.565400,0.278986 RARM_JOINT3:0.935720,0.000000,0.335736,0.108208 RLEG_JOINT2:0.999061,0.038801,0.000000,-0.019271 RLEG_JOINT4:0.996547,0.068541,0.000000,0.046862 WAIST:0.996201,-0.000000,0.086685,0.008343 WAIST_JOINT0:0.995989,-0.000000,0.088516,0.013062 WAIST_JOINT1:0.998405,0.054605,-0.000000,0.014364 END:
KINECT_DATA_Sensor  AnkleLeft:0.085439,0.783889,-0.065207,-0.611528 AnkleRight:0.098450,0.787368,0.054088,0.606163 ElbowLeft:-0.044154,0.848817,-0.165671,-0.500113 ElbowRight:-0.482782,0.875101,0.002666,0.033361 FootLeft:0.000000,0.000000,0.000000,0.000000 FootRight:0.000000,0.000000,0.000000,0.000000 HandLeft:-0.160985,0.787863,-0.037072,0.593281 HandRight:-0.086052,-0.420295,0.570065,-0.700695 HandTipLeft:0.000000,0.000000,0.000000,0.000000 HandTipRight:0.000000,0.000000,0.000000,0.000000 Head:0.000000,0.000000,0.000000,0.000000 HipLeft:0.071041,-0.683601,0.717069,-0.115993 HipRight:-0.192309,0.670593,0.682973,-0.216498 KneeLeft:0.007778,-0.643365,0.022483,0.765189 KneeRight:0.016126,0.765948,0.036195,0.641680 Neck:-0.093368,0.018214,0.992893,-0.071516 ShoulderLeft:0.033253,0.764402,-0.643745,0.013272 ShoulderRight:-0.091121,0.775038,0.606086,-0.153858 SpineBase:-0.086538,0.017215,0.995631,-0.030557 SpineMid:-0.089705,0.017312,0.995351,-0.030502 SpineShoulder:-0.093150,0.018263,0.994209,-0.050386 ThumbLeft:0.000000,0.000000,0.000000,0.000000 ThumbRight:0.000000,0.000000,0.000000,0.000000 WristLeft:-0.137628,0.799201,-0.129229,0.570646 WristRight:0.114008,0.442698,-0.546609,0.701598 END:
