EastLYD/RoboCupatHomeSim/InteractiveCleanUp/JapanOpen2016/Motion_Data/File34.dat
KINECT_DATA POSITION:-1.664001,-0.572786,-4.415619 HEAD_JOINT1:0.976314,0.178413,-0.000000,0.122394 LARM_JOINT2:0.834756,0.000000,-0.023831,-0.550103 LARM_JOINT3:0.969417,0.000000,-0.184717,-0.161589 LLEG_JOINT2:0.998601,0.006373,0.000000,0.052499 LLEG_JOINT4:0.995036,0.096149,0.000000,-0.025671 RARM_JOINT2:0.797037,0.000000,-0.068718,0.600008 RARM_JOINT3:0.967279,0.000000,0.221548,0.123645 RLEG_JOINT2:0.999363,0.025256,0.000000,-0.025202 RLEG_JOINT4:0.995245,0.091793,0.000000,0.032580 WAIST:0.999965,-0.000000,0.008000,0.002432 WAIST_JOINT0:0.999418,0.000000,-0.031145,0.013909 WAIST_JOINT1:0.997085,0.073983,0.000000,-0.018642 END:
KINECT_DATA_Sensor  AnkleLeft:0.058876,0.741419,-0.088577,-0.662560 AnkleRight:0.092477,0.737588,0.072122,0.664989 ElbowLeft:-0.031121,0.887876,-0.189210,-0.418220 ElbowRight:0.021141,0.826087,0.198137,0.527138 FootLeft:0.000000,0.000000,0.000000,0.000000 FootRight:0.000000,0.000000,0.000000,0.000000 HandLeft:0.017151,-0.534273,-0.114804,0.837304 HandRight:0.022489,-0.348348,-0.120302,0.929342 HandTipLeft:0.000000,0.000000,0.000000,0.000000 HandTipRight:0.000000,0.000000,0.000000,0.000000 Head:0.000000,0.000000,0.000000,0.000000 HipLeft:0.105520,-0.679468,0.708630,-0.158216 HipRight:-0.120201,0.674692,0.703717,-0.187416 KneeLeft:0.034048,-0.699552,0.043568,0.712439 KneeRight:0.001520,0.713380,0.033958,0.699952 Neck:0.028060,-0.021616,0.995377,-0.089276 ShoulderLeft:0.025051,0.776078,-0.626150,0.070797 ShoulderRight:0.063125,0.787991,0.611977,-0.023863 SpineBase:-0.008932,-0.014690,0.998644,-0.049147 SpineMid:0.009325,-0.015586,0.998640,-0.048871 SpineShoulder:0.027977,-0.018780,0.997118,-0.067973 ThumbLeft:0.000000,0.000000,0.000000,0.000000 ThumbRight:0.000000,0.000000,0.000000,0.000000 WristLeft:0.091630,-0.521259,-0.094406,0.843196 WristRight:-0.007642,-0.351986,-0.110581,0.929419 END:
KINECT_DATA POSITION:-1.665610,-0.582442,-4.439008 HEAD_JOINT1:0.976464,0.176334,-0.000000,0.124199 LARM_JOINT2:0.835896,0.000000,-0.025054,-0.548316 LARM_JOINT3:0.969795,0.000000,-0.181689,-0.162746 LLEG_JOINT2:0.998596,0.006879,0.000000,0.052518 LLEG_JOINT4:0.994731,0.098169,0.000000,-0.029542 RARM_JOINT2:0.796868,0.000000,-0.067184,0.600406 RARM_JOINT3:0.967926,0.000000,0.218624,0.123783 RLEG_JOINT2:0.999341,0.025356,0.000000,-0.025987 RLEG_JOINT4:0.995322,0.090500,0.000000,0.033831 WAIST:0.999970,-0.000000,0.007262,0.002803 WAIST_JOINT0:0.999367,0.000000,-0.032709,0.014010 WAIST_JOINT1:0.997068,0.074090,0.000000,-0.019134 END:
KINECT_DATA_Sensor  AnkleLeft:0.061372,0.729344,-0.088748,-0.675584 AnkleRight:0.092114,0.736158,0.070772,0.666767 ElbowLeft:-0.032163,0.889742,-0.190635,-0.413501 ElbowRight:0.020574,0.826239,0.197334,0.527224 FootLeft:0.000000,0.000000,0.000000,0.000000 FootRight:0.000000,0.000000,0.000000,0.000000 HandLeft:0.011540,-0.510495,-0.103174,0.853590 HandRight:0.020653,-0.334335,-0.110247,0.935756 HandTipLeft:0.000000,0.000000,0.000000,0.000000 HandTipRight:0.000000,0.000000,0.000000,0.000000 Head:0.000000,0.000000,0.000000,0.000000 HipLeft:0.105754,-0.679146,0.708804,-0.158663 HipRight:-0.119525,0.675031,0.703569,-0.187185 KneeLeft:0.033994,-0.700058,0.044175,0.711907 KneeRight:0.001322,0.712894,0.034318,0.700431 Neck:0.029521,-0.021774,0.995321,-0.089385 ShoulderLeft:0.024898,0.776090,-0.626073,0.071394 ShoulderRight:0.064866,0.788008,0.611837,-0.022150 SpineBase:-0.008237,-0.014699,0.998637,-0.049390 SpineMid:0.010406,-0.015618,0.998617,-0.049107 SpineShoulder:0.029443,-0.018900,0.997067,-0.068070 ThumbLeft:0.000000,0.000000,0.000000,0.000000 ThumbRight:0.000000,0.000000,0.000000,0.000000 WristLeft:0.088690,-0.498362,-0.097866,0.856850 WristRight:-0.009548,-0.337225,-0.110397,0.934880 END:
KINECT_DATA POSITION:-1.662256,-0.576703,-4.471087 HEAD_JOINT1:0.976360,0.176566,-0.000000,0.124679 LARM_JOINT2:0.836447,0.000000,-0.024733,-0.547490 LARM_JOINT3:0.970057,0.000000,-0.176747,-0.166586 LLEG_JOINT2:0.998565,0.007115,0.000000,0.053073 LLEG_JOINT4:0.994882,0.096240,0.000000,-0.030793 RARM_JOINT2:0.796805,0.000000,-0.066945,0.600516 RARM_JOINT3:0.967444,0.000000,0.219179,0.126544 RLEG_JOINT2:0.999379,0.024165,0.000000,-0.025640 RLEG_JOINT4:0.995430,0.089775,0.000000,0.032546 WAIST:0.999972,-0.000000,0.006966,0.002734 WAIST_JOINT0:0.999349,0.000000,-0.033212,0.014063 WAIST_JOINT1:0.997059,0.074190,0.000000,-0.019224 END:
KINECT_DATA_Sensor  AnkleLeft:0.060771,0.731166,-0.086947,-0.673902 AnkleRight:0.089127,0.727399,0.071364,0.676649 ElbowLeft:-0.031896,0.890533,-0.191577,-0.411378 ElbowRight:0.020677,0.826493,0.197301,0.526834 FootLeft:0.000000,0.000000,0.000000,0.000000 FootRight:0.000000,0.000000,0.000000,0.000000 HandLeft:-0.002344,-0.533589,-0.089466,0.840995 HandRight:0.034776,-0.340407,-0.110434,0.933123 HandTipLeft:0.000000,0.000000,0.000000,0.000000 HandTipRight:0.000000,0.000000,0.000000,0.000000 Head:0.000000,0.000000,0.000000,0.000000 HipLeft:0.105802,-0.679085,0.708777,-0.159009 HipRight:-0.119215,0.674943,0.703698,-0.187213 KneeLeft:0.034179,-0.700260,0.044678,0.711668 KneeRight:0.000694,0.712715,0.033276,0.700663 Neck:0.029983,-0.021984,0.995296,-0.089460 ShoulderLeft:0.024744,0.775988,-0.626164,0.071754 ShoulderRight:0.065332,0.787986,0.611831,-0.021756 SpineBase:-0.007943,-0.014758,0.998626,-0.049652 SpineMid:0.010789,-0.015687,0.998599,-0.049367 SpineShoulder:0.029910,-0.019036,0.997043,-0.068174 ThumbLeft:0.000000,0.000000,0.000000,0.000000 ThumbRight:0.000000,0.000000,0.000000,0.000000 WristLeft:0.090494,-0.519790,-0.095731,0.844076 WristRight:-0.008789,-0.344502,-0.110047,0.932272 END:
KINECT_DATA POSITION:-1.642405,-0.572712,-4.526460 HEAD_JOINT1:0.976369,0.176144,-0.000000,0.125211 LARM_JOINT2:0.836739,0.000000,-0.023755,-0.547086 LARM_JOINT3:0.969455,0.000000,-0.179212,-0.167453 LLEG_JOINT2:0.998591,0.006734,0.000000,0.052644 LLEG_JOINT4:0.994748,0.097208,0.000000,-0.032033 RARM_JOINT2:0.795826,0.000000,-0.067007,0.601807 RARM_JOINT3:0.953909,0.000000,0.260446,0.149084 RLEG_JOINT2:0.999367,0.025124,0.000000,-0.025193 RLEG_JOINT4:0.995303,0.091220,0.000000,0.032401 WAIST:0.999969,-0.000000,0.007292,0.003101 WAIST_JOINT0:0.999342,0.000000,-0.033463,0.013998 WAIST_JOINT1:0.997034,0.074444,0.000000,-0.019514 END:
KINECT_DATA_Sensor  AnkleLeft:0.060957,0.721917,-0.087148,-0.683759 AnkleRight:0.091273,0.727223,0.072589,0.676422 ElbowLeft:-0.031048,0.890414,-0.192582,-0.411232 ElbowRight:0.023091,0.830445,0.195892,0.521013 FootLeft:0.000000,0.000000,0.000000,0.000000 FootRight:0.000000,0.000000,0.000000,0.000000 HandLeft:0.006910,-0.587583,-0.096079,0.803410 HandRight:0.064203,-0.000012,-0.261182,0.963152 HandTipLeft:0.000000,0.000000,0.000000,0.000000 HandTipRight:0.000000,0.000000,0.000000,0.000000 Head:0.000000,0.000000,0.000000,0.000000 HipLeft:0.105509,-0.678831,0.709057,-0.159040 HipRight:-0.119335,0.675080,0.703433,-0.187638 KneeLeft:0.034397,-0.699985,0.044372,0.711947 KneeRight:0.001933,0.712949,0.033384,0.700418 Neck:0.030217,-0.022022,0.995272,-0.089646 ShoulderLeft:0.024915,0.776012,-0.626100,0.071993 ShoulderRight:0.065812,0.787841,0.611970,-0.021628 SpineBase:-0.008304,-0.014596,0.998613,-0.049898 SpineMid:0.010732,-0.015545,0.998590,-0.049611 SpineShoulder:0.030150,-0.019028,0.997019,-0.068426 ThumbLeft:0.000000,0.000000,0.000000,0.000000 ThumbRight:0.000000,0.000000,0.000000,0.000000 WristLeft:0.096100,-0.572897,-0.089342,0.809056 WristRight:-0.029236,-0.029822,-0.116044,0.992366 END:
KINECT_DATA POSITION:-1.600465,-0.582794,-4.536510 HEAD_JOINT1:0.976410,0.172709,-0.000000,0.129599 LARM_JOINT2:0.837092,0.000000,-0.021129,-0.546653 LARM_JOINT3:0.968473,0.000000,-0.184674,-0.167201 LLEG_JOINT2:0.998646,0.007492,0.000000,0.051483 LLEG_JOINT4:0.994851,0.096267,0.000000,-0.031679 RARM_JOINT2:0.794246,0.000000,-0.062995,0.604322 RARM_JOINT3:0.904855,0.000000,0.378850,0.194192 RLEG_JOINT2:0.999324,0.025090,0.000000,-0.026863 RLEG_JOINT4:0.995144,0.093010,0.000000,0.032199 WAIST:0.999977,-0.000000,0.005251,0.004225 WAIST_JOINT0:0.999273,0.000000,-0.034541,0.016120 WAIST_JOINT1:0.997205,0.072197,0.000000,-0.019207 END:
KINECT_DATA_Sensor  AnkleLeft:0.060706,0.725522,-0.087189,-0.679949 AnkleRight:0.091978,0.723826,0.074397,0.679766 ElbowLeft:-0.032292,0.890680,-0.194398,-0.409702 ElbowRight:0.016230,0.816719,0.189954,0.544633 FootLeft:0.000000,0.000000,0.000000,0.000000 FootRight:0.000000,0.000000,0.000000,0.000000 HandLeft:0.019992,-0.570868,-0.107114,0.813779 HandRight:0.155513,-0.139820,-0.324242,0.922569 HandTipLeft:0.000000,0.000000,0.000000,0.000000 HandTipRight:0.000000,0.000000,0.000000,0.000000 Head:0.000000,0.000000,0.000000,0.000000 HipLeft:0.107299,-0.677970,0.709464,-0.159697 HipRight:-0.119071,0.676313,0.702721,-0.186027 KneeLeft:0.033919,-0.701473,0.044809,0.710477 KneeRight:0.001590,0.711547,0.033742,0.701826 Neck:0.031229,-0.019910,0.995512,-0.087089 ShoulderLeft:0.022586,0.776055,-0.626179,0.071612 ShoulderRight:0.064638,0.790251,0.609049,-0.019624 SpineBase:-0.006318,-0.013694,0.998688,-0.048946 SpineMid:0.012220,-0.014600,0.998633,-0.048683 SpineShoulder:0.031155,-0.017404,0.997152,-0.066440 ThumbLeft:0.000000,0.000000,0.000000,0.000000 ThumbRight:0.000000,0.000000,0.000000,0.000000 WristLeft:0.095464,-0.557976,-0.092846,0.819102 WristRight:0.062479,-0.170283,-0.237680,0.954258 END:
KINECT_DATA POSITION:-1.570155,-0.587561,-4.517698 HEAD_JOINT1:0.976232,0.174098,-0.000000,0.129079 LARM_JOINT2:0.837494,0.000000,-0.019045,-0.546114 LARM_JOINT3:0.968682,0.000000,-0.179742,-0.171313 LLEG_JOINT2:0.998720,0.008831,0.000000,0.049799 LLEG_JOINT4:0.994988,0.095799,0.000000,-0.028654 RARM_JOINT2:0.796693,0.000000,-0.059514,0.601447 RARM_JOINT3:0.875782,0.000000,0.426703,0.225676 RLEG_JOINT2:0.999307,0.024119,0.000000,-0.028349 RLEG_JOINT4:0.995090,0.094353,0.000000,0.029881 WAIST:0.999982,-0.000000,0.002981,0.005276 WAIST_JOINT0:0.999317,0.000000,-0.032553,0.017488 WAIST_JOINT1:0.997458,0.068925,0.000000,-0.018073 END:
KINECT_DATA_Sensor  AnkleLeft:0.062819,0.751584,-0.087421,-0.650794 AnkleRight:0.091616,0.731980,0.075141,0.670944 ElbowLeft:-0.034421,0.892635,-0.196497,-0.404236 ElbowRight:0.007930,0.807495,0.188234,0.558979 FootLeft:0.000000,0.000000,0.000000,0.000000 FootRight:0.000000,0.000000,0.000000,0.000000 HandLeft:0.006422,-0.539278,-0.098488,0.836324 HandRight:0.213052,-0.152122,-0.307436,0.914850 HandTipLeft:0.000000,0.000000,0.000000,0.000000 HandTipRight:0.000000,0.000000,0.000000,0.000000 Head:0.000000,0.000000,0.000000,0.000000 HipLeft:0.109662,-0.677118,0.709816,-0.160144 HipRight:-0.119195,0.677554,0.702090,-0.183800 KneeLeft:0.032613,-0.703203,0.045238,0.708799 KneeRight:0.000677,0.709967,0.033362,0.703444 Neck:0.029469,-0.016923,0.995906,-0.083764 ShoulderLeft:0.020677,0.776198,-0.626357,0.069038 ShoulderRight:0.060216,0.792002,0.607214,-0.019966 SpineBase:-0.004066,-0.012593,0.998791,-0.047335 SpineMid:0.012464,-0.013375,0.998722,-0.047120 SpineShoulder:0.029412,-0.014737,0.997443,-0.063450 ThumbLeft:0.000000,0.000000,0.000000,0.000000 ThumbRight:0.000000,0.000000,0.000000,0.000000 WristLeft:0.092587,-0.525585,-0.096578,0.840155 WristRight:0.105590,-0.187282,-0.307692,0.926877 END:
KINECT_DATA POSITION:-1.406901,-0.563234,-4.353857 HEAD_JOINT1:0.975960,0.175956,-0.000000,0.128615 LARM_JOINT2:0.836682,0.000000,-0.013505,-0.547522 LARM_JOINT3:0.968526,0.000000,-0.178807,-0.173162 LLEG_JOINT2:0.998977,0.012681,0.000000,0.043401 LLEG_JOINT4:0.995573,0.089955,0.000000,-0.027245 RARM_JOINT2:0.801440,0.000000,-0.058054,0.595250 RARM_JOINT3:0.858541,0.000000,0.426504,0.284607 RLEG_JOINT2:0.999124,0.023842,0.000000,-0.034399 RLEG_JOINT4:0.994925,0.095523,0.000000,0.031629 WAIST:0.999964,0.000000,-0.000943,0.008486 WAIST_JOINT0:0.999419,0.000000,-0.027968,0.019458 WAIST_JOINT1:0.997616,0.066205,0.000000,-0.019473 END:
KINECT_DATA_Sensor  AnkleLeft:0.061532,0.750184,-0.085485,-0.652787 AnkleRight:0.094754,0.754867,0.072549,0.644929 ElbowLeft:-0.035112,0.890161,-0.197284,-0.409218 ElbowRight:0.007601,0.820601,0.190907,0.538620 FootLeft:0.000000,0.000000,0.000000,0.000000 FootRight:0.000000,0.000000,0.000000,0.000000 HandLeft:0.004386,-0.618601,-0.099040,0.779426 HandRight:-0.291706,0.916542,-0.273249,0.013926 HandTipLeft:0.000000,0.000000,0.000000,0.000000 HandTipRight:0.000000,0.000000,0.000000,0.000000 Head:0.000000,0.000000,0.000000,0.000000 HipLeft:0.113400,-0.674887,0.711280,-0.160463 HipRight:-0.118745,0.680975,0.700074,-0.179076 KneeLeft:-0.027781,0.706247,-0.045610,-0.705949 KneeRight:-0.001375,0.707260,0.035195,0.706075 Neck:0.025024,-0.013770,0.996317,-0.080849 ShoulderLeft:0.021935,0.776053,-0.627018,0.064098 ShoulderRight:0.055593,0.793699,0.605360,-0.022156 SpineBase:-0.000253,-0.009939,0.998967,-0.044352 SpineMid:0.012210,-0.010492,0.998892,-0.044224 SpineShoulder:0.024959,-0.012188,0.997744,-0.061120 ThumbLeft:0.000000,0.000000,0.000000,0.000000 ThumbRight:0.000000,0.000000,0.000000,0.000000 WristLeft:0.103974,-0.600708,-0.085880,0.788013 WristRight:-0.339079,0.932761,-0.101392,0.068571 END:
KINECT_DATA POSITION:-1.178613,-0.542691,-4.229712 HEAD_JOINT1:0.976193,0.178420,-0.000000,0.123342 LARM_JOINT2:0.834213,0.000000,-0.009038,-0.551368 LARM_JOINT3:0.969267,0.000000,-0.178823,-0.168946 LLEG_JOINT2:0.999231,0.014995,0.000000,0.036244 LLEG_JOINT4:0.995943,0.086683,0.000000,-0.024173 RARM_JOINT2:0.807234,0.000000,-0.059757,0.587199 RARM_JOINT3:0.849946,0.000000,0.431627,0.302141 RLEG_JOINT2:0.998794,0.026314,0.000000,-0.041459 RLEG_JOINT4:0.995009,0.094040,0.000000,0.033383 WAIST:0.999928,-0.000000,0.001055,0.011977 WAIST_JOINT0:0.999540,0.000000,-0.020619,0.022224 WAIST_JOINT1:0.997750,0.063995,0.000000,-0.019995 END:
KINECT_DATA_Sensor  AnkleLeft:0.061566,0.750931,-0.084135,-0.652099 AnkleRight:0.092648,0.742918,0.076598,0.658500 ElbowLeft:-0.033901,0.886197,-0.196541,-0.418183 ElbowRight:0.005269,0.827243,0.196180,0.526455 FootLeft:0.000000,0.000000,0.000000,0.000000 FootRight:0.000000,0.000000,0.000000,0.000000 HandLeft:0.000808,-0.524471,-0.090693,0.846584 HandRight:-0.301253,0.912163,-0.277687,-0.009736 HandTipLeft:0.000000,0.000000,0.000000,0.000000 HandTipRight:0.000000,0.000000,0.000000,0.000000 Head:0.000000,0.000000,0.000000,0.000000 HipLeft:0.113372,-0.673218,0.713317,-0.158441 HipRight:-0.122291,0.683836,0.696897,-0.178178 KneeLeft:0.023467,-0.705033,0.044697,0.707375 KneeRight:-0.002234,0.708685,0.039453,0.704418 Neck:0.017748,-0.009922,0.996693,-0.078670 ShoulderLeft:0.025571,0.774926,-0.628972,0.056830 ShoulderRight:0.049804,0.795721,0.603033,-0.026440 SpineBase:-0.002305,-0.006034,0.999106,-0.041786 SpineMid:0.007617,-0.006449,0.999079,-0.041724 SpineShoulder:0.017659,-0.009178,0.998059,-0.059008 ThumbLeft:0.000000,0.000000,0.000000,0.000000 ThumbRight:0.000000,0.000000,0.000000,0.000000 WristLeft:0.095760,-0.510005,-0.096280,0.849385 WristRight:-0.348148,0.929976,-0.108481,0.046582 END:
KINECT_DATA POSITION:-0.863539,-0.507247,-4.020131 HEAD_JOINT1:0.977008,0.178426,-0.000000,0.116699 LARM_JOINT2:0.832212,0.000000,-0.006947,-0.554414 LARM_JOINT3:0.969093,0.000000,-0.182586,-0.165893 LLEG_JOINT2:0.999464,0.016254,0.000000,0.028419 LLEG_JOINT4:0.996133,0.085775,0.000000,-0.019038 RARM_JOINT2:0.810759,0.000000,-0.060769,0.582217 RARM_JOINT3:0.834202,0.000000,0.448212,0.321267 RLEG_JOINT2:0.998393,0.028912,0.000000,-0.048745 RLEG_JOINT4:0.995194,0.090508,0.000000,0.037370 WAIST:0.999862,-0.000000,0.006672,0.015229 WAIST_JOINT0:0.999624,0.000000,-0.012358,0.024490 WAIST_JOINT1:0.997929,0.061400,0.000000,-0.019159 END:
KINECT_DATA_Sensor  AnkleLeft:0.060821,0.739265,-0.085170,-0.665232 AnkleRight:0.091362,0.746159,0.076513,0.655016 ElbowLeft:-0.034099,0.882540,-0.196776,-0.425722 ElbowRight:0.002738,0.832896,0.196901,0.517211 FootLeft:0.000000,0.000000,0.000000,0.000000 FootRight:0.000000,0.000000,0.000000,0.000000 HandLeft:0.027175,-0.589570,-0.099911,0.801053 HandRight:-0.209617,0.912196,-0.333328,-0.113366 HandTipLeft:0.000000,0.000000,0.000000,0.000000 HandTipRight:0.000000,0.000000,0.000000,0.000000 Head:0.000000,0.000000,0.000000,0.000000 HipLeft:0.111863,-0.672067,0.715516,-0.154432 HipRight:-0.129393,0.686100,0.693261,-0.178643 KneeLeft:0.019163,-0.701266,0.042401,0.711380 KneeRight:-0.003561,0.712617,0.044066,0.700159 Neck:0.009795,-0.004920,0.997084,-0.075525 ShoulderLeft:0.028334,0.774540,-0.629938,0.049621 ShoulderRight:0.042133,0.797769,0.600639,-0.031974 SpineBase:-0.007855,-0.000844,0.999239,-0.038202 SpineMid:0.000937,-0.001180,0.999269,-0.038193 SpineShoulder:0.009656,-0.005592,0.998337,-0.056559 ThumbLeft:0.000000,0.000000,0.000000,0.000000 ThumbRight:0.000000,0.000000,0.000000,0.000000 WristLeft:0.106240,-0.575753,-0.086530,0.806061 WristRight:-0.396836,0.910452,-0.107877,-0.044291 END:
KINECT_DATA POSITION:-0.649348,-0.515488,-3.721261 HEAD_JOINT1:0.978037,0.175481,-0.000000,0.112473 LARM_JOINT2:0.831082,0.000000,-0.007930,-0.556093 LARM_JOINT3:0.968477,0.000000,-0.186147,-0.165535 LLEG_JOINT2:0.999573,0.018027,0.000000,0.023001 LLEG_JOINT4:0.996341,0.083766,0.000000,-0.016968 RARM_JOINT2:0.810206,0.000000,-0.051855,0.583847 RARM_JOINT3:0.827057,0.000000,0.441032,0.348522 RLEG_JOINT2:0.998151,0.028985,0.000000,-0.053429 RLEG_JOINT4:0.994781,0.094051,0.000000,0.039552 WAIST:0.999754,-0.000000,0.013381,0.017673 WAIST_JOINT0:0.999621,0.000000,-0.006326,0.026776 WAIST_JOINT1:0.998061,0.059623,0.000000,-0.017873 END:
KINECT_DATA_Sensor  AnkleLeft:0.060898,0.728626,-0.084423,-0.676955 AnkleRight:0.088548,0.710561,0.084833,0.692868 ElbowLeft:-0.035516,0.880071,-0.197464,-0.430373 ElbowRight:-0.004713,0.835044,0.187912,0.517076 FootLeft:0.000000,0.000000,0.000000,0.000000 FootRight:0.000000,0.000000,0.000000,0.000000 HandLeft:0.047329,-0.637502,-0.107515,0.761440 HandRight:-0.267815,0.889114,-0.349891,-0.123801 HandTipLeft:0.000000,0.000000,0.000000,0.000000 HandTipRight:0.000000,0.000000,0.000000,0.000000 Head:0.000000,0.000000,0.000000,0.000000 HipLeft:0.110384,-0.671591,0.717291,-0.149244 HipRight:-0.137059,0.687549,0.690073,-0.179696 KneeLeft:0.015622,-0.696622,0.041540,0.716064 KneeRight:-0.005509,0.717288,0.045566,0.695264 Neck:0.003973,-0.001306,0.997276,-0.073637 ShoulderLeft:0.029463,0.774237,-0.630607,0.044989 ShoulderRight:0.035669,0.799689,0.598238,-0.036556 SpineBase:-0.014471,0.002792,0.999308,-0.034145 SpineMid:-0.005234,0.002477,0.999399,-0.034169 SpineShoulder:0.003857,-0.002376,0.998491,-0.054736 ThumbLeft:0.000000,0.000000,0.000000,0.000000 ThumbRight:0.000000,0.000000,0.000000,0.000000 WristLeft:0.114566,-0.624559,-0.079761,0.768400 WristRight:-0.404994,0.906329,-0.112287,-0.044044 END:
KINECT_DATA POSITION:-0.578137,-0.550089,-3.440237 HEAD_JOINT1:0.979577,0.171171,-0.000000,0.105496 LARM_JOINT2:0.829886,0.000000,-0.006936,-0.557890 LARM_JOINT3:0.968277,0.000000,-0.186263,-0.166568 LLEG_JOINT2:0.999585,0.020055,0.000000,0.020668 LLEG_JOINT4:0.996590,0.081359,0.000000,-0.013716 RARM_JOINT2:0.811008,0.000000,-0.035502,0.583957 RARM_JOINT3:0.819162,0.000000,0.443348,0.363890 RLEG_JOINT2:0.997918,0.033418,0.000000,-0.055168 RLEG_JOINT4:0.995144,0.090284,0.000000,0.039199 WAIST:0.999635,-0.000000,0.019025,0.019196 WAIST_JOINT0:0.999605,-0.000000,0.001463,0.028056 WAIST_JOINT1:0.998235,0.057342,0.000000,-0.015485 END:
KINECT_DATA_Sensor  AnkleLeft:0.060014,0.729810,-0.085161,-0.675665 AnkleRight:0.088044,0.714839,0.086079,0.688363 ElbowLeft:-0.037097,0.875764,-0.198520,-0.438466 ElbowRight:-0.012157,0.854171,0.177320,0.488673 FootLeft:0.000000,0.000000,0.000000,0.000000 FootRight:0.000000,0.000000,0.000000,0.000000 HandLeft:0.024637,-0.475394,-0.110805,0.872420 HandRight:-0.335973,0.806436,-0.393565,-0.286163 HandTipLeft:0.000000,0.000000,0.000000,0.000000 HandTipRight:0.000000,0.000000,0.000000,0.000000 Head:0.000000,0.000000,0.000000,0.000000 HipLeft:0.108773,-0.671376,0.718616,-0.144962 HipRight:-0.142997,0.688142,0.687920,-0.181048 KneeLeft:0.013449,-0.692630,0.042362,0.719923 KneeRight:-0.002933,0.721248,0.048785,0.690951 Neck:-0.003586,0.002003,0.997431,-0.071518 ShoulderLeft:0.031587,0.774091,-0.631114,0.038474 ShoulderRight:0.028043,0.801285,0.596149,-0.041982 SpineBase:-0.020047,0.005006,0.999295,-0.031344 SpineMid:-0.011767,0.004746,0.999427,-0.031385 SpineShoulder:-0.003595,0.001534,0.998618,-0.052406 ThumbLeft:0.000000,0.000000,0.000000,0.000000 ThumbRight:0.000000,0.000000,0.000000,0.000000 WristLeft:0.101215,-0.462323,-0.102217,0.874965 WristRight:-0.418061,0.888596,-0.091037,-0.165330 END:
KINECT_DATA POSITION:-0.587496,-0.551290,-3.364551 HEAD_JOINT1:0.980472,0.168508,-0.000000,0.101386 LARM_JOINT2:0.826656,0.000000,-0.004354,-0.562691 LARM_JOINT3:0.968702,0.000000,-0.186176,-0.164181 LLEG_JOINT2:0.999595,0.020037,0.000000,0.020215 LLEG_JOINT4:0.996696,0.080464,0.000000,-0.011099 RARM_JOINT2:0.810443,0.000000,-0.024478,0.585306 RARM_JOINT3:0.814272,0.000000,0.443665,0.374329 RLEG_JOINT2:0.997865,0.034704,0.000000,-0.055324 RLEG_JOINT4:0.994950,0.092340,0.000000,0.039346 WAIST:0.999598,-0.000000,0.020407,0.019672 WAIST_JOINT0:0.999614,-0.000000,0.005172,0.027306 WAIST_JOINT1:0.998305,0.056382,0.000000,-0.014443 END:
KINECT_DATA_Sensor  AnkleLeft:0.059618,0.743859,-0.085172,-0.660201 AnkleRight:0.095532,0.754270,0.082815,0.644276 ElbowLeft:-0.036375,0.869971,-0.194902,-0.451487 ElbowRight:-0.018568,0.858469,0.169903,0.483549 FootLeft:0.000000,0.000000,0.000000,0.000000 FootRight:0.000000,0.000000,0.000000,0.000000 HandLeft:0.017583,-0.490281,-0.110003,0.864416 HandRight:-0.333047,0.812998,-0.404262,-0.254336 HandTipLeft:0.000000,0.000000,0.000000,0.000000 HandTipRight:0.000000,0.000000,0.000000,0.000000 Head:0.000000,0.000000,0.000000,0.000000 HipLeft:0.108209,-0.671081,0.719103,-0.144334 HipRight:-0.144514,0.688194,0.687390,-0.181661 KneeLeft:0.013444,-0.691634,0.042359,0.720879 KneeRight:-0.001902,0.722232,0.049459,0.689878 Neck:-0.007232,0.002879,0.997455,-0.070877 ShoulderLeft:0.032854,0.773905,-0.631466,0.035246 ShoulderRight:0.024667,0.801500,0.595829,-0.044477 SpineBase:-0.021417,0.005925,0.999272,-0.031014 SpineMid:-0.014233,0.005702,0.999400,-0.031056 SpineShoulder:-0.007145,0.003365,0.998649,-0.051363 ThumbLeft:0.000000,0.000000,0.000000,0.000000 ThumbRight:0.000000,0.000000,0.000000,0.000000 WristLeft:0.105271,-0.474827,-0.100436,0.867969 WristRight:-0.424362,0.887617,-0.114114,-0.137949 END:
KINECT_DATA POSITION:-0.656861,-0.543863,-3.384435 HEAD_JOINT1:0.980897,0.168355,-0.000000,0.097457 LARM_JOINT2:0.826680,0.000000,-0.004433,-0.562654 LARM_JOINT3:0.969099,0.000000,-0.181731,-0.166795 LLEG_JOINT2:0.999589,0.019161,0.000000,0.021322 LLEG_JOINT4:0.996522,0.082437,0.000000,-0.012200 RARM_JOINT2:0.809323,0.000000,-0.003891,0.587352 RARM_JOINT3:0.801496,0.000000,0.439822,0.405167 RLEG_JOINT2:0.997853,0.034370,0.000000,-0.055745 RLEG_JOINT4:0.994909,0.093032,0.000000,0.038756 WAIST:0.999536,-0.000000,0.022535,0.020493 WAIST_JOINT0:0.999589,-0.000000,0.008687,0.027330 WAIST_JOINT1:0.998333,0.055905,0.000000,-0.014376 END:
KINECT_DATA_Sensor  AnkleLeft:0.060538,0.745629,-0.086008,-0.658009 AnkleRight:0.090617,0.718399,0.088589,0.683991 ElbowLeft:-0.035542,0.871910,-0.195803,-0.447404 ElbowRight:-0.028504,0.871493,0.158852,0.463092 FootLeft:0.000000,0.000000,0.000000,0.000000 FootRight:0.000000,0.000000,0.000000,0.000000 HandLeft:0.011440,-0.490266,-0.108355,0.864736 HandRight:-0.225696,0.803154,-0.548206,-0.058949 HandTipLeft:0.000000,0.000000,0.000000,0.000000 HandTipRight:0.000000,0.000000,0.000000,0.000000 Head:0.000000,0.000000,0.000000,0.000000 HipLeft:0.107425,-0.670479,0.719911,-0.143684 HipRight:-0.146225,0.688187,0.686646,-0.183123 KneeLeft:0.015363,-0.690038,0.043133,0.722323 KneeRight:-0.001994,0.723735,0.048894,0.688341 Neck:-0.010756,0.003048,0.997428,-0.070792 ShoulderLeft:0.035872,0.773481,-0.632035,0.031180 ShoulderRight:0.023270,0.801111,0.596292,-0.045988 SpineBase:-0.023575,0.006546,0.999219,-0.031022 SpineMid:-0.017035,0.006343,0.999352,-0.031064 SpineShoulder:-0.010588,0.004445,0.998647,-0.050724 ThumbLeft:0.000000,0.000000,0.000000,0.000000 ThumbRight:0.000000,0.000000,0.000000,0.000000 WristLeft:0.104016,-0.473975,-0.096952,0.868982 WristRight:-0.383422,0.893751,-0.225485,0.057911 END:
KINECT_DATA POSITION:-0.792336,-0.536690,-3.495777 HEAD_JOINT1:0.980915,0.169334,-0.000000,0.095565 LARM_JOINT2:0.826601,0.000000,-0.004453,-0.562771 LARM_JOINT3:0.969138,0.000000,-0.180761,-0.167622 LLEG_JOINT2:0.999561,0.017509,0.000000,0.023892 LLEG_JOINT4:0.996149,0.086433,0.000000,-0.014745 RARM_JOINT2:0.809631,0.000000,0.004458,0.586922 RARM_JOINT3:0.797378,0.000000,0.429497,0.423934 RLEG_JOINT2:0.997877,0.035513,0.000000,-0.054596 RLEG_JOINT4:0.995105,0.089962,0.000000,0.040901 WAIST:0.999489,-0.000000,0.024600,0.020425 WAIST_JOINT0:0.999564,-0.000000,0.011063,0.027364 WAIST_JOINT1:0.998303,0.056358,0.000000,-0.014692 END:
KINECT_DATA_Sensor  AnkleLeft:0.062927,0.746696,-0.086987,-0.656444 AnkleRight:0.093541,0.737334,0.082763,0.663882 ElbowLeft:-0.033841,0.872740,-0.195695,-0.445964 ElbowRight:-0.032343,0.879776,0.156740,0.447639 FootLeft:0.000000,0.000000,0.000000,0.000000 FootRight:0.000000,0.000000,0.000000,0.000000 HandLeft:0.028167,-0.610202,-0.111111,0.783910 HandRight:0.560792,0.070062,-0.209070,0.798056 HandTipLeft:0.000000,0.000000,0.000000,0.000000 HandTipRight:0.000000,0.000000,0.000000,0.000000 Head:0.000000,0.000000,0.000000,0.000000 HipLeft:0.106339,-0.670578,0.720039,-0.143389 HipRight:-0.147422,0.687426,0.686452,-0.185729 KneeLeft:0.018227,-0.688460,0.043808,0.723720 KneeRight:-0.000551,0.725176,0.048941,0.686822 Neck:-0.013164,0.002498,0.997362,-0.071343 ShoulderLeft:0.038178,0.772997,-0.632585,0.029212 ShoulderRight:0.022560,0.800719,0.596705,-0.047781 SpineBase:-0.025685,0.005779,0.999145,-0.031882 SpineMid:-0.019313,0.005576,0.999288,-0.031919 SpineShoulder:-0.013003,0.003967,0.998602,-0.051082 ThumbLeft:0.000000,0.000000,0.000000,0.000000 ThumbRight:0.000000,0.000000,0.000000,0.000000 WristLeft:0.114842,-0.592739,-0.078078,0.793332 WristRight:0.237511,-0.047913,-0.380489,0.892480 END:
KINECT_DATA POSITION:-0.945610,-0.512684,-3.690791 HEAD_JOINT1:0.980632,0.171615,-0.000000,0.094385 LARM_JOINT2:0.826347,0.000000,-0.002881,-0.563153 LARM_JOINT3:0.969700,0.000000,-0.180603,-0.164511 LLEG_JOINT2:0.999501,0.015988,0.000000,0.027249 LLEG_JOINT4:0.996216,0.085472,0.000000,-0.015766 RARM_JOINT2:0.810645,0.000000,0.010995,0.585435 RARM_JOINT3:0.783856,0.000000,0.436583,0.441548 RLEG_JOINT2:0.998027,0.034870,0.000000,-0.052208 RLEG_JOINT4:0.995218,0.089008,0.000000,0.040241 WAIST:0.999476,-0.000000,0.025992,0.019268 WAIST_JOINT0:0.999540,-0.000000,0.013609,0.027103 WAIST_JOINT1:0.998253,0.057272,0.000000,-0.014544 END:
KINECT_DATA_Sensor  AnkleLeft:0.060822,0.749317,-0.085979,-0.653784 AnkleRight:0.094413,0.752436,0.079381,0.647013 ElbowLeft:-0.031939,0.870069,-0.195199,-0.451505 ElbowRight:-0.035868,0.885679,0.157202,0.435402 FootLeft:0.000000,0.000000,0.000000,0.000000 FootRight:0.000000,0.000000,0.000000,0.000000 HandLeft:0.029601,-0.604924,-0.104015,0.788906 HandRight:0.529859,0.228920,-0.328889,0.747447 HandTipLeft:0.000000,0.000000,0.000000,0.000000 HandTipRight:0.000000,0.000000,0.000000,0.000000 Head:0.000000,0.000000,0.000000,0.000000 HipLeft:0.105088,-0.671378,0.719442,-0.143565 HipRight:-0.147502,0.686050,0.687159,-0.188125 KneeLeft:0.020784,-0.687383,0.044381,0.724639 KneeRight:-0.000171,0.726099,0.047625,0.685938 Neck:-0.015704,0.001537,0.997267,-0.072177 ShoulderLeft:0.040444,0.772549,-0.633050,0.027919 ShoulderRight:0.021611,0.799850,0.597686,-0.050442 SpineBase:-0.027092,0.004354,0.999069,-0.033300 SpineMid:-0.021320,0.004162,0.999209,-0.033324 SpineShoulder:-0.015577,0.002886,0.998523,-0.051973 ThumbLeft:0.000000,0.000000,0.000000,0.000000 ThumbRight:0.000000,0.000000,0.000000,0.000000 WristLeft:0.114532,-0.588530,-0.077242,0.796585 WristRight:0.198910,0.080118,-0.414463,0.884441 END:
KINECT_DATA POSITION:-1.047710,-0.456744,-3.812921 HEAD_JOINT1:0.980568,0.172603,-0.000000,0.093248 LARM_JOINT2:0.826510,0.000000,-0.002679,-0.562916 LARM_JOINT3:0.969737,0.000000,-0.181927,-0.162825 LLEG_JOINT2:0.999431,0.014560,0.000000,0.030428 LLEG_JOINT4:0.996216,0.084738,0.000000,-0.019325 RARM_JOINT2:0.810662,0.000000,0.017304,0.585259 RARM_JOINT3:0.771235,0.000000,0.432912,0.466672 RLEG_JOINT2:0.998177,0.034012,0.000000,-0.049849 RLEG_JOINT4:0.994965,0.091233,0.000000,0.041475 WAIST:0.999473,-0.000000,0.027000,0.018002 WAIST_JOINT0:0.999545,-0.000000,0.014380,0.026522 WAIST_JOINT1:0.998222,0.057923,0.000000,-0.014056 END:
KINECT_DATA_Sensor  AnkleLeft:0.057354,0.726089,-0.085302,-0.679874 AnkleRight:0.096481,0.749115,0.079298,0.650562 ElbowLeft:-0.031115,0.869020,-0.195081,-0.453628 ElbowRight:-0.037941,0.892769,0.156215,0.420857 FootLeft:0.000000,0.000000,0.000000,0.000000 FootRight:0.000000,0.000000,0.000000,0.000000 HandLeft:0.025828,-0.540686,-0.105909,0.834132 HandRight:0.424900,0.462266,-0.455064,0.631417 HandTipLeft:0.000000,0.000000,0.000000,0.000000 HandTipRight:0.000000,0.000000,0.000000,0.000000 Head:0.000000,0.000000,0.000000,0.000000 HipLeft:0.104021,-0.672281,0.718779,-0.143435 HipRight:-0.147444,0.684870,0.687991,-0.189427 KneeLeft:0.023083,-0.686602,0.044817,0.725284 KneeRight:-0.000008,0.726745,0.046259,0.685348 Neck:-0.016426,0.000674,0.997218,-0.072702 ShoulderLeft:0.040448,0.772528,-0.633045,0.028600 ShoulderRight:0.020675,0.799135,0.598524,-0.052196 SpineBase:-0.028076,0.003267,0.999016,-0.034193 SpineMid:-0.022200,0.003066,0.999163,-0.034212 SpineShoulder:-0.016317,0.002012,0.998478,-0.052649 ThumbLeft:0.000000,0.000000,0.000000,0.000000 ThumbRight:0.000000,0.000000,0.000000,0.000000 WristLeft:0.108264,-0.525617,-0.085502,0.839461 WristRight:0.119231,0.291405,-0.469914,0.824650 END:
KINECT_DATA POSITION:-1.088671,-0.420162,-3.845549 HEAD_JOINT1:0.980346,0.173989,-0.000000,0.093000 LARM_JOINT2:0.823991,0.000000,0.001070,-0.566602 LARM_JOINT3:0.969067,0.000000,-0.188855,-0.158883 LLEG_JOINT2:0.999378,0.014387,0.000000,0.032199 LLEG_JOINT4:0.996191,0.084522,0.000000,-0.021416 RARM_JOINT2:0.810833,0.000000,0.035375,0.584207 RARM_JOINT3:0.758845,0.000000,0.430156,0.488998 RLEG_JOINT2:0.998304,0.032314,0.000000,-0.048427 RLEG_JOINT4:0.994821,0.093062,0.000000,0.040861 WAIST:0.999510,-0.000000,0.026443,0.016763 WAIST_JOINT0:0.999646,-0.000000,0.009982,0.024674 WAIST_JOINT1:0.998228,0.057893,0.000000,-0.013751 END:
KINECT_DATA_Sensor  AnkleLeft:0.059096,0.735068,-0.083172,-0.670273 AnkleRight:0.097114,0.754838,0.078753,0.643884 ElbowLeft:-0.028634,0.863820,-0.191258,-0.465204 ElbowRight:-0.046906,0.905060,0.151645,0.394551 FootLeft:0.000000,0.000000,0.000000,0.000000 FootRight:0.000000,0.000000,0.000000,0.000000 HandLeft:0.036065,-0.557193,-0.121434,0.820664 HandRight:0.575827,0.282356,-0.287294,0.711450 HandTipLeft:0.000000,0.000000,0.000000,0.000000 HandTipRight:0.000000,0.000000,0.000000,0.000000 Head:0.000000,0.000000,0.000000,0.000000 HipLeft:0.104149,-0.673019,0.718038,-0.143592 HipRight:-0.146834,0.684117,0.689014,-0.188899 KneeLeft:0.023566,-0.687034,0.045102,0.724842 KneeRight:-0.000992,0.726301,0.044931,0.685906 Neck:-0.012158,-0.000883,0.997280,-0.072692 ShoulderLeft:0.037569,0.771856,-0.633877,0.032050 ShoulderRight:0.023304,0.798372,0.599730,-0.048807 SpineBase:-0.027457,0.002655,0.999032,-0.034269 SpineMid:-0.019753,0.002391,0.999214,-0.034289 SpineShoulder:-0.012019,0.001046,0.998541,-0.052626 ThumbLeft:0.000000,0.000000,0.000000,0.000000 ThumbRight:0.000000,0.000000,0.000000,0.000000 WristLeft:0.110110,-0.542050,-0.083418,0.828914 WristRight:0.248321,0.127510,-0.443922,0.851476 END:
KINECT_DATA POSITION:-1.106977,-0.408152,-3.844047 HEAD_JOINT1:0.979963,0.176160,-0.000000,0.092951 LARM_JOINT2:0.825243,0.000000,0.000800,-0.564778 LARM_JOINT3:0.968283,0.000000,-0.193114,-0.158541 LLEG_JOINT2:0.999362,0.013794,0.000000,0.032941 LLEG_JOINT4:0.996209,0.084606,0.000000,-0.020242 RARM_JOINT2:0.809025,0.000000,0.042065,0.586267 RARM_JOINT3:0.766916,0.000000,0.437050,0.469923 RLEG_JOINT2:0.998366,0.031994,0.000000,-0.047347 RLEG_JOINT4:0.994795,0.093520,0.000000,0.040466 WAIST:0.999520,-0.000000,0.026278,0.016378 WAIST_JOINT0:0.999673,-0.000000,0.009972,0.023560 WAIST_JOINT1:0.998209,0.058119,0.000000,-0.014157 END:
KINECT_DATA_Sensor  AnkleLeft:0.059030,0.745490,-0.083153,-0.658670 AnkleRight:0.097038,0.751409,0.079127,0.647848 ElbowLeft:-0.028946,0.864572,-0.192551,-0.463251 ElbowRight:-0.050570,0.905009,0.147268,0.395871 FootLeft:0.000000,0.000000,0.000000,0.000000 FootRight:0.000000,0.000000,0.000000,0.000000 HandLeft:0.051769,-0.580093,-0.128445,0.802692 HandRight:0.606262,0.043389,-0.131316,0.783148 HandTipLeft:0.000000,0.000000,0.000000,0.000000 HandTipRight:0.000000,0.000000,0.000000,0.000000 Head:0.000000,0.000000,0.000000,0.000000 HipLeft:0.104250,-0.673281,0.717790,-0.143534 HipRight:-0.146630,0.683889,0.689325,-0.188750 KneeLeft:0.024242,-0.687141,0.044958,0.724727 KneeRight:-0.000693,0.726170,0.044229,0.686091 Neck:-0.012086,-0.002079,0.997244,-0.073171 ShoulderLeft:0.037216,0.772043,-0.633646,0.032524 ShoulderRight:0.023043,0.797171,0.601307,-0.049158 SpineBase:-0.027278,0.002288,0.999039,-0.034229 SpineMid:-0.019608,0.002025,0.999219,-0.034245 SpineShoulder:-0.011920,0.000393,0.998537,-0.052746 ThumbLeft:0.000000,0.000000,0.000000,0.000000 ThumbRight:0.000000,0.000000,0.000000,0.000000 WristLeft:0.112728,-0.566914,-0.080730,0.812024 WristRight:0.346969,-0.081246,-0.373481,0.856460 END:
KINECT_DATA POSITION:-1.107422,-0.401591,-3.804731 HEAD_JOINT1:0.979819,0.176578,-0.000000,0.093677 LARM_JOINT2:0.827214,0.000000,-0.001212,-0.561885 LARM_JOINT3:0.967805,0.000000,-0.194698,-0.159519 LLEG_JOINT2:0.999346,0.014034,0.000000,0.033325 LLEG_JOINT4:0.996098,0.086168,0.000000,-0.019055 RARM_JOINT2:0.807948,0.000000,0.040677,0.587849 RARM_JOINT3:0.769484,0.000000,0.439012,0.463856 RLEG_JOINT2:0.998388,0.032155,0.000000,-0.046775 RLEG_JOINT4:0.994958,0.091955,0.000000,0.040029 WAIST:0.999534,-0.000000,0.025939,0.016072 WAIST_JOINT0:0.999681,-0.000000,0.010741,0.022856 WAIST_JOINT1:0.998173,0.058706,0.000000,-0.014282 END:
KINECT_DATA_Sensor  AnkleLeft:0.058629,0.737626,-0.085984,-0.667141 AnkleRight:0.094951,0.743190,0.079462,0.657525 ElbowLeft:-0.030643,0.866083,-0.194864,-0.459336 ElbowRight:-0.048822,0.903551,0.146691,0.399618 FootLeft:0.000000,0.000000,0.000000,0.000000 FootRight:0.000000,0.000000,0.000000,0.000000 HandLeft:0.051583,-0.551515,-0.131185,0.822168 HandRight:0.604660,0.045633,-0.133131,0.783952 HandTipLeft:0.000000,0.000000,0.000000,0.000000 HandTipRight:0.000000,0.000000,0.000000,0.000000 Head:0.000000,0.000000,0.000000,0.000000 HipLeft:0.104356,-0.673467,0.717543,-0.143819 HipRight:-0.146332,0.683734,0.689557,-0.188695 KneeLeft:0.024126,-0.687397,0.045181,0.724474 KneeRight:-0.000365,0.725926,0.044171,0.686353 Neck:-0.012734,-0.002457,0.997174,-0.073999 ShoulderLeft:0.036755,0.772568,-0.632991,0.033327 ShoulderRight:0.021691,0.796442,0.602171,-0.050993 SpineBase:-0.026929,0.002098,0.999043,-0.034391 SpineMid:-0.019753,0.001851,0.999211,-0.034405 SpineShoulder:-0.012576,0.000016,0.998502,-0.053249 ThumbLeft:0.000000,0.000000,0.000000,0.000000 ThumbRight:0.000000,0.000000,0.000000,0.000000 WristLeft:0.110909,-0.538703,-0.085920,0.830732 WristRight:0.341670,-0.078903,-0.375940,0.857733 END:
KINECT_DATA POSITION:-1.090835,-0.391027,-3.693068 HEAD_JOINT1:0.979889,0.175814,-0.000000,0.094374 LARM_JOINT2:0.828863,0.000000,-0.003000,-0.559443 LARM_JOINT3:0.967048,0.000000,-0.195804,-0.162727 LLEG_JOINT2:0.999344,0.014714,0.000000,0.033102 LLEG_JOINT4:0.996083,0.086098,0.000000,-0.020120 RARM_JOINT2:0.807430,0.000000,0.037251,0.588786 RARM_JOINT3:0.771113,0.000000,0.439719,0.460468 RLEG_JOINT2:0.998401,0.032536,0.000000,-0.046237 RLEG_JOINT4:0.994853,0.092472,0.000000,0.041438 WAIST:0.999555,-0.000000,0.025140,0.016025 WAIST_JOINT0:0.999686,-0.000000,0.010652,0.022662 WAIST_JOINT1:0.998172,0.058716,0.000000,-0.014298 END:
KINECT_DATA_Sensor  AnkleLeft:0.059491,0.735088,-0.085657,-0.669903 AnkleRight:0.096031,0.734526,0.079826,0.666991 ElbowLeft:-0.032749,0.867608,-0.196837,-0.455455 ElbowRight:-0.046366,0.901679,0.147139,0.403949 FootLeft:0.000000,0.000000,0.000000,0.000000 FootRight:0.000000,0.000000,0.000000,0.000000 HandLeft:0.047550,-0.548994,-0.135206,0.823446 HandRight:0.610212,0.055339,-0.126005,0.780194 HandTipLeft:0.000000,0.000000,0.000000,0.000000 HandTipRight:0.000000,0.000000,0.000000,0.000000 Head:0.000000,0.000000,0.000000,0.000000 HipLeft:0.104763,-0.673444,0.717436,-0.144167 HipRight:-0.145876,0.683878,0.689674,-0.188101 KneeLeft:0.023472,-0.688003,0.045447,0.723903 KneeRight:0.000298,0.725374,0.044118,0.686939 Neck:-0.012519,-0.002359,0.997169,-0.074100 ShoulderLeft:0.035014,0.772509,-0.633084,0.034781 ShoulderRight:0.020132,0.795715,0.603090,-0.052104 SpineBase:-0.026123,0.002195,0.999067,-0.034317 SpineMid:-0.019239,0.001959,0.999223,-0.034331 SpineShoulder:-0.012367,0.000009,0.998505,-0.053245 ThumbLeft:0.000000,0.000000,0.000000,0.000000 ThumbRight:0.000000,0.000000,0.000000,0.000000 WristLeft:0.111649,-0.534907,-0.088525,0.832810 WristRight:0.333387,-0.070656,-0.380963,0.859493 END:
KINECT_DATA POSITION:-1.108368,-0.403808,-3.546047 HEAD_JOINT1:0.980245,0.173109,-0.000000,0.095667 LARM_JOINT2:0.829801,0.000000,-0.005050,-0.558037 LARM_JOINT3:0.966786,0.000000,-0.195314,-0.164856 LLEG_JOINT2:0.999327,0.015792,0.000000,0.033104 LLEG_JOINT4:0.996138,0.085518,0.000000,-0.019916 RARM_JOINT2:0.806825,0.000000,0.037586,0.589594 RARM_JOINT3:0.776447,0.000000,0.442767,0.448429 RLEG_JOINT2:0.998401,0.033599,0.000000,-0.045458 RLEG_JOINT4:0.994795,0.094335,0.000000,0.038512 WAIST:0.999564,-0.000000,0.024901,0.015872 WAIST_JOINT0:0.999727,-0.000000,0.009243,0.021470 WAIST_JOINT1:0.998126,0.059483,0.000000,-0.014389 END:
KINECT_DATA_Sensor  AnkleLeft:0.059557,0.733132,-0.086216,-0.671966 AnkleRight:0.096589,0.734902,0.083388,0.666060 ElbowLeft:-0.032890,0.870835,-0.197904,-0.448774 ElbowRight:-0.046970,0.897604,0.146242,0.413175 FootLeft:0.000000,0.000000,0.000000,0.000000 FootRight:0.000000,0.000000,0.000000,0.000000 HandLeft:0.038994,-0.497210,-0.142034,0.855037 HandRight:0.439292,0.468416,-0.452710,0.618597 HandTipLeft:0.000000,0.000000,0.000000,0.000000 HandTipRight:0.000000,0.000000,0.000000,0.000000 Head:0.000000,0.000000,0.000000,0.000000 HipLeft:0.104452,-0.673451,0.717383,-0.144625 HipRight:-0.145317,0.683703,0.689896,-0.188353 KneeLeft:0.022590,-0.688194,0.046081,0.723709 KneeRight:0.001502,0.725215,0.044461,0.687084 Neck:-0.011008,-0.002669,0.997124,-0.074942 ShoulderLeft:0.034621,0.772982,-0.632438,0.036369 ShoulderRight:0.021627,0.794479,0.604724,-0.051431 SpineBase:-0.025896,0.002061,0.999052,-0.034938 SpineMid:-0.018373,0.001798,0.999218,-0.034953 SpineShoulder:-0.010862,-0.000336,0.998483,-0.053984 ThumbLeft:0.000000,0.000000,0.000000,0.000000 ThumbRight:0.000000,0.000000,0.000000,0.000000 WristLeft:0.104302,-0.482901,-0.094611,0.864278 WristRight:0.131247,0.289083,-0.477379,0.819338 END:
KINECT_DATA POSITION:-1.119420,-0.422755,-3.446817 HEAD_JOINT1:0.979839,0.174932,-0.000000,0.096511 LARM_JOINT2:0.830198,0.000000,-0.005491,-0.557441 LARM_JOINT3:0.966864,0.000000,-0.192864,-0.167265 LLEG_JOINT2:0.999305,0.016465,0.000000,0.033445 LLEG_JOINT4:0.996064,0.086204,0.000000,-0.020643 RARM_JOINT2:0.807694,0.000000,0.041911,0.588111 RARM_JOINT3:0.777497,0.000000,0.446300,0.443074 RLEG_JOINT2:0.998426,0.032916,0.000000,-0.045413 RLEG_JOINT4:0.994690,0.095646,0.000000,0.038000 WAIST:0.999559,-0.000000,0.025306,0.015556 WAIST_JOINT0:0.999763,-0.000000,0.005816,0.020981 WAIST_JOINT1:0.998096,0.060059,0.000000,-0.014047 END:
KINECT_DATA_Sensor  AnkleLeft:0.062619,0.744595,-0.085402,-0.659062 AnkleRight:0.094093,0.716476,0.087044,0.685735 ElbowLeft:-0.032318,0.872015,-0.198747,-0.446144 ElbowRight:-0.049804,0.899318,0.146260,0.409091 FootLeft:0.000000,0.000000,0.000000,0.000000 FootRight:0.000000,0.000000,0.000000,0.000000 HandLeft:0.032535,-0.503579,-0.134553,0.852786 HandRight:0.621548,0.071023,-0.106117,0.772899 HandTipLeft:0.000000,0.000000,0.000000,0.000000 HandTipRight:0.000000,0.000000,0.000000,0.000000 Head:0.000000,0.000000,0.000000,0.000000 HipLeft:0.103782,-0.673636,0.717301,-0.144649 HipRight:-0.145228,0.683365,0.690143,-0.188745 KneeLeft:0.022097,-0.687923,0.046573,0.723950 KneeRight:0.000817,0.725485,0.044155,0.686819 Neck:-0.007692,-0.002929,0.997108,-0.075551 ShoulderLeft:0.034641,0.773501,-0.631715,0.037847 ShoulderRight:0.025949,0.794643,0.604638,-0.047772 SpineBase:-0.026289,0.002056,0.999025,-0.035407 SpineMid:-0.016920,0.001724,0.999228,-0.035425 SpineShoulder:-0.007542,-0.000574,0.998483,-0.054546 ThumbLeft:0.000000,0.000000,0.000000,0.000000 ThumbRight:0.000000,0.000000,0.000000,0.000000 WristLeft:0.103792,-0.488697,-0.094268,0.861113 WristRight:0.317988,-0.056468,-0.389468,0.862560 END:
KINECT_DATA POSITION:-1.141022,-0.438619,-3.392005 HEAD_JOINT1:0.979876,0.174269,-0.000000,0.097331 LARM_JOINT2:0.830389,0.000000,-0.005850,-0.557153 LARM_JOINT3:0.966752,0.000000,-0.192518,-0.168305 LLEG_JOINT2:0.999299,0.016964,0.000000,0.033377 LLEG_JOINT4:0.996271,0.083967,0.000000,-0.019838 RARM_JOINT2:0.806837,0.000000,0.039215,0.589471 RARM_JOINT3:0.777251,0.000000,0.446615,0.443188 RLEG_JOINT2:0.998405,0.034165,0.000000,-0.044937 RLEG_JOINT4:0.994834,0.093962,0.000000,0.038425 WAIST:0.999556,-0.000000,0.025415,0.015570 WAIST_JOINT0:0.999777,-0.000000,0.005857,0.020292 WAIST_JOINT1:0.998039,0.060932,0.000000,-0.014337 END:
KINECT_DATA_Sensor  AnkleLeft:0.061070,0.746845,-0.084717,-0.656747 AnkleRight:0.095939,0.728588,0.084435,0.672924 ElbowLeft:-0.031368,0.873017,-0.199104,-0.444089 ElbowRight:-0.046486,0.899543,0.146685,0.408833 FootLeft:0.000000,0.000000,0.000000,0.000000 FootRight:0.000000,0.000000,0.000000,0.000000 HandLeft:0.036079,-0.539787,-0.133530,0.830360 HandRight:0.635074,0.075478,-0.119701,0.759379 HandTipLeft:0.000000,0.000000,0.000000,0.000000 HandTipRight:0.000000,0.000000,0.000000,0.000000 Head:0.000000,0.000000,0.000000,0.000000 HipLeft:0.103272,-0.673547,0.717398,-0.144946 HipRight:-0.144805,0.683214,0.690237,-0.189273 KneeLeft:0.021695,-0.687837,0.046879,0.724025 KneeRight:0.002028,0.725574,0.044719,0.686687 Neck:-0.007675,-0.003281,0.997037,-0.076469 ShoulderLeft:0.034948,0.773718,-0.631384,0.038641 ShoulderRight:0.026261,0.793839,0.605616,-0.048568 SpineBase:-0.026425,0.001883,0.998997,-0.036094 SpineMid:-0.016978,0.001542,0.999202,-0.036111 SpineShoulder:-0.007527,-0.000895,0.998436,-0.055384 ThumbLeft:0.000000,0.000000,0.000000,0.000000 ThumbRight:0.000000,0.000000,0.000000,0.000000 WristLeft:0.106351,-0.524915,-0.089339,0.839745 WristRight:0.311914,-0.052367,-0.386191,0.866501 END:
KINECT_DATA POSITION:-1.136594,-0.444580,-3.305185 HEAD_JOINT1:0.979487,0.176049,-0.000000,0.098036 LARM_JOINT2:0.830214,0.000000,-0.005155,-0.557421 LARM_JOINT3:0.966221,0.000000,-0.192968,-0.170824 LLEG_JOINT2:0.999298,0.017469,0.000000,0.033150 LLEG_JOINT4:0.996184,0.085485,0.000000,-0.017577 RARM_JOINT2:0.807041,0.000000,0.041687,0.589023 RARM_JOINT3:0.777941,0.000000,0.455578,0.432731 RLEG_JOINT2:0.998415,0.034357,0.000000,-0.044566 RLEG_JOINT4:0.994997,0.092790,0.000000,0.037014 WAIST:0.999590,-0.000000,0.024090,0.015478 WAIST_JOINT0:0.999793,-0.000000,0.002855,0.020129 WAIST_JOINT1:0.998026,0.061145,0.000000,-0.014316 END:
KINECT_DATA_Sensor  AnkleLeft:0.055515,0.703091,-0.091403,-0.703012 AnkleRight:0.092969,0.715060,0.086193,0.687471 ElbowLeft:-0.030478,0.874193,-0.199098,-0.441835 ElbowRight:-0.050144,0.893119,0.145578,0.422648 FootLeft:0.000000,0.000000,0.000000,0.000000 FootRight:0.000000,0.000000,0.000000,0.000000 HandLeft:0.024557,-0.490164,-0.139569,0.860033 HandRight:0.615918,0.002901,-0.160747,0.771231 HandTipLeft:0.000000,0.000000,0.000000,0.000000 HandTipRight:0.000000,0.000000,0.000000,0.000000 Head:0.000000,0.000000,0.000000,0.000000 HipLeft:0.103819,-0.673432,0.717247,-0.145835 HipRight:-0.143811,0.683315,0.690507,-0.188675 KneeLeft:0.021154,-0.688811,0.046986,0.723108 KneeRight:0.002438,0.724663,0.044679,0.687649 Neck:-0.004805,-0.003368,0.997039,-0.076679 ShoulderLeft:0.035380,0.773655,-0.631394,0.039332 ShoulderRight:0.030422,0.793765,0.605808,-0.044814 SpineBase:-0.025104,0.001848,0.999020,-0.036394 SpineMid:-0.014886,0.001476,0.999225,-0.036411 SpineShoulder:-0.004654,-0.000993,0.998440,-0.055624 ThumbLeft:0.000000,0.000000,0.000000,0.000000 ThumbRight:0.000000,0.000000,0.000000,0.000000 WristLeft:0.099309,-0.474451,-0.095342,0.869450 WristRight:0.316222,-0.115172,-0.369468,0.866160 END:
KINECT_DATA POSITION:-1.121947,-0.456069,-3.271961 HEAD_JOINT1:0.979508,0.175869,-0.000000,0.098154 LARM_JOINT2:0.830198,0.000000,-0.004992,-0.557446 LARM_JOINT3:0.966675,0.000000,-0.190029,-0.171548 LLEG_JOINT2:0.999302,0.018017,0.000000,0.032729 LLEG_JOINT4:0.996122,0.086033,0.000000,-0.018430 RARM_JOINT2:0.809067,0.000000,0.045344,0.585964 RARM_JOINT3:0.783526,0.000000,0.457401,0.420561 RLEG_JOINT2:0.998402,0.034787,0.000000,-0.044523 RLEG_JOINT4:0.994819,0.094403,0.000000,0.037729 WAIST:0.999605,-0.000000,0.023410,0.015525 WAIST_JOINT0:0.999793,0.000000,-0.001321,0.020284 WAIST_JOINT1:0.998029,0.061100,0.000000,-0.014309 END:
KINECT_DATA_Sensor  AnkleLeft:0.063831,0.754606,-0.086686,-0.647288 AnkleRight:0.098056,0.738353,0.083618,0.661987 ElbowLeft:-0.030408,0.874749,-0.199163,-0.440708 ElbowRight:-0.055601,0.889157,0.146601,0.429903 FootLeft:0.000000,0.000000,0.000000,0.000000 FootRight:0.000000,0.000000,0.000000,0.000000 HandLeft:0.027230,-0.550238,-0.129223,0.824499 HandRight:0.597385,-0.002742,-0.169350,0.783865 HandTipLeft:0.000000,0.000000,0.000000,0.000000 HandTipRight:0.000000,0.000000,0.000000,0.000000 Head:0.000000,0.000000,0.000000,0.000000 HipLeft:0.104199,-0.673317,0.717222,-0.146217 HipRight:-0.143446,0.683464,0.690560,-0.188223 KneeLeft:0.020523,-0.689322,0.047086,0.722632 KneeRight:0.002838,0.724196,0.044933,0.688123 Neck:-0.000872,-0.003531,0.997052,-0.076642 ShoulderLeft:0.035787,0.773649,-0.631340,0.039954 ShoulderRight:0.035975,0.794495,0.604930,-0.039283 SpineBase:-0.024423,0.001993,0.999038,-0.036372 SpineMid:-0.012580,0.001561,0.999257,-0.036393 SpineShoulder:-0.000709,-0.001074,0.998453,-0.055586 ThumbLeft:0.000000,0.000000,0.000000,0.000000 ThumbRight:0.000000,0.000000,0.000000,0.000000 WristLeft:0.105279,-0.534129,-0.088343,0.834157 WristRight:0.306539,-0.121371,-0.372913,0.867317 END:
KINECT_DATA POSITION:-1.106153,-0.465465,-3.246272 HEAD_JOINT1:0.979305,0.177051,-0.000000,0.098056 LARM_JOINT2:0.829810,0.000000,-0.004954,-0.558025 LARM_JOINT3:0.967448,0.000000,-0.187583,-0.169873 LLEG_JOINT2:0.999321,0.018261,0.000000,0.031989 LLEG_JOINT4:0.996263,0.084776,0.000000,-0.016522 RARM_JOINT2:0.806461,0.000000,0.042153,0.589783 RARM_JOINT3:0.788064,0.000000,0.461512,0.407385 RLEG_JOINT2:0.998346,0.035814,0.000000,-0.044966 RLEG_JOINT4:0.995017,0.092559,0.000000,0.037076 WAIST:0.999607,-0.000000,0.023099,0.015890 WAIST_JOINT0:0.999790,-0.000000,0.002175,0.020353 WAIST_JOINT1:0.998059,0.060536,0.000000,-0.014616 END:
KINECT_DATA_Sensor  AnkleLeft:0.055242,0.703518,-0.091773,-0.702558 AnkleRight:0.097138,0.739541,0.083356,0.660829 ElbowLeft:-0.030621,0.875072,-0.198385,-0.440403 ElbowRight:-0.051858,0.888208,0.143687,0.433302 FootLeft:0.000000,0.000000,0.000000,0.000000 FootRight:0.000000,0.000000,0.000000,0.000000 HandLeft:0.013584,-0.450522,-0.121927,0.884296 HandRight:0.224078,0.583999,-0.562117,0.541072 HandTipLeft:0.000000,0.000000,0.000000,0.000000 HandTipRight:0.000000,0.000000,0.000000,0.000000 Head:0.000000,0.000000,0.000000,0.000000 HipLeft:0.104794,-0.673119,0.717323,-0.146209 HipRight:-0.143704,0.683832,0.690224,-0.187920 KneeLeft:0.020105,-0.689553,0.046973,0.722430 KneeRight:0.003504,0.723990,0.045725,0.688284 Neck:-0.004160,-0.003091,0.997109,-0.075802 ShoulderLeft:0.035492,0.773562,-0.631537,0.038783 ShoulderRight:0.031364,0.793941,0.605639,-0.043295 SpineBase:-0.024119,0.002170,0.999062,-0.035907 SpineMid:-0.014064,0.001809,0.999254,-0.035927 SpineShoulder:-0.004011,-0.000793,0.998471,-0.055118 ThumbLeft:0.000000,0.000000,0.000000,0.000000 ThumbRight:0.000000,0.000000,0.000000,0.000000 WristLeft:0.094156,-0.435891,-0.100297,0.889424 WristRight:0.076392,0.330163,-0.475527,0.811807 END:
KINECT_DATA POSITION:-1.047421,-0.473014,-3.225243 HEAD_JOINT1:0.979252,0.178286,-0.000000,0.096335 LARM_JOINT2:0.827927,0.000000,-0.003652,-0.560824 LARM_JOINT3:0.968717,0.000000,-0.182951,-0.167683 LLEG_JOINT2:0.999364,0.018457,0.000000,0.030503 LLEG_JOINT4:0.996269,0.084561,0.000000,-0.017241 RARM_JOINT2:0.802358,0.000000,0.048988,0.594830 RARM_JOINT3:0.799331,0.000000,0.455618,0.391769 RLEG_JOINT2:0.998262,0.035563,0.000000,-0.046983 RLEG_JOINT4:0.994947,0.093638,0.000000,0.036221 WAIST:0.999568,-0.000000,0.023899,0.017090 WAIST_JOINT0:0.999720,-0.000000,0.006869,0.022624 WAIST_JOINT1:0.998126,0.059265,0.000000,-0.015265 END:
KINECT_DATA_Sensor  AnkleLeft:-0.055669,-0.700845,0.091109,0.705278 AnkleRight:0.096794,0.742540,0.084803,0.657323 ElbowLeft:-0.030776,0.871950,-0.195653,-0.447745 ElbowRight:-0.053493,0.891464,0.134284,0.429417 FootLeft:0.000000,0.000000,0.000000,0.000000 FootRight:0.000000,0.000000,0.000000,0.000000 HandLeft:0.011428,-0.512570,-0.107486,0.851815 HandRight:0.441217,0.260664,-0.396234,0.761827 HandTipLeft:0.000000,0.000000,0.000000,0.000000 HandTipRight:0.000000,0.000000,0.000000,0.000000 Head:0.000000,0.000000,0.000000,0.000000 HipLeft:0.104894,-0.672495,0.718026,-0.145556 HipRight:-0.144893,0.684609,0.689129,-0.188194 KneeLeft:0.019758,-0.688952,0.046887,0.723019 KneeRight:0.002673,0.724590,0.046083,0.687632 Neck:-0.008940,-0.001991,0.997205,-0.074146 ShoulderLeft:0.037947,0.772090,-0.633455,0.034236 ShoulderRight:0.027747,0.795281,0.603845,-0.046151 SpineBase:-0.024960,0.002872,0.999063,-0.035229 SpineMid:-0.016865,0.002586,0.999233,-0.035252 SpineShoulder:-0.008818,-0.000102,0.998505,-0.053952 ThumbLeft:0.000000,0.000000,0.000000,0.000000 ThumbRight:0.000000,0.000000,0.000000,0.000000 WristLeft:0.102503,-0.496465,-0.093249,0.856925 WristRight:0.180719,0.144086,-0.441073,0.867199 END:
KINECT_DATA POSITION:-1.007169,-0.492121,-3.233433 HEAD_JOINT1:0.978758,0.181170,-0.000000,0.095968 LARM_JOINT2:0.823899,0.000000,-0.000184,-0.566737 LARM_JOINT3:0.969145,0.000000,-0.186742,-0.160890 LLEG_JOINT2:0.999391,0.018555,0.000000,0.029547 LLEG_JOINT4:0.996278,0.084156,0.000000,-0.018669 RARM_JOINT2:0.802277,0.000000,0.046197,0.595161 RARM_JOINT3:0.802205,0.000000,0.448726,0.393844 RLEG_JOINT2:0.998207,0.036451,0.000000,-0.047472 RLEG_JOINT4:0.995128,0.091776,0.000000,0.036027 WAIST:0.999538,-0.000000,0.024766,0.017599 WAIST_JOINT0:0.999682,-0.000000,0.009258,0.023465 WAIST_JOINT1:0.998194,0.057925,0.000000,-0.015917 END:
KINECT_DATA_Sensor  AnkleLeft:0.061362,0.736311,-0.086354,-0.668299 AnkleRight:0.094515,0.732661,0.085847,0.668510 ElbowLeft:-0.028619,0.866321,-0.189543,-0.461241 ElbowRight:-0.052805,0.891749,0.134694,0.428781 FootLeft:0.000000,0.000000,0.000000,0.000000 FootRight:0.000000,0.000000,0.000000,0.000000 HandLeft:0.025862,-0.552632,-0.116623,0.824820 HandRight:0.438510,0.287321,-0.389475,0.757275 HandTipLeft:0.000000,0.000000,0.000000,0.000000 HandTipRight:0.000000,0.000000,0.000000,0.000000 Head:0.000000,0.000000,0.000000,0.000000 HipLeft:0.105154,-0.672438,0.718277,-0.144389 HipRight:-0.145918,0.684967,0.688528,-0.188301 KneeLeft:0.019359,-0.688322,0.046629,0.723646 KneeRight:0.003241,0.725193,0.046695,0.686953 Neck:-0.011370,-0.002033,0.997277,-0.072842 ShoulderLeft:0.036285,0.771537,-0.634277,0.033260 ShoulderRight:0.022984,0.796995,0.601575,-0.048766 SpineBase:-0.025841,0.002652,0.999075,-0.034263 SpineMid:-0.018527,0.002401,0.999238,-0.034282 SpineShoulder:-0.011256,-0.000152,0.998554,-0.052558 ThumbLeft:0.000000,0.000000,0.000000,0.000000 ThumbRight:0.000000,0.000000,0.000000,0.000000 WristLeft:0.107115,-0.536848,-0.087716,0.832242 WristRight:0.168479,0.168541,-0.444725,0.863382 END:
KINECT_DATA POSITION:-0.992857,-0.502788,-3.254294 HEAD_JOINT1:0.978805,0.181367,-0.000000,0.095114 LARM_JOINT2:0.823900,0.000000,-0.000433,-0.566735 LARM_JOINT3:0.967455,0.000000,-0.194992,-0.161273 LLEG_JOINT2:0.999390,0.018447,0.000000,0.029643 LLEG_JOINT4:0.996134,0.086149,0.000000,-0.017215 RARM_JOINT2:0.806670,0.000000,0.035089,0.589960 RARM_JOINT3:0.794212,0.000000,0.440822,0.418214 RLEG_JOINT2:0.998193,0.036918,0.000000,-0.047403 RLEG_JOINT4:0.995231,0.090924,0.000000,0.035322 WAIST:0.999545,-0.000000,0.024659,0.017350 WAIST_JOINT0:0.999712,-0.000000,0.007254,0.022890 WAIST_JOINT1:0.998193,0.057973,0.000000,-0.015809 END:
KINECT_DATA_Sensor  AnkleLeft:0.063896,0.750409,-0.087199,-0.652073 AnkleRight:0.091694,0.717604,0.088255,0.684724 ElbowLeft:-0.028627,0.866640,-0.189365,-0.460714 ElbowRight:-0.049189,0.889190,0.145287,0.431061 FootLeft:0.000000,0.000000,0.000000,0.000000 FootRight:0.000000,0.000000,0.000000,0.000000 HandLeft:0.037962,-0.533010,-0.144007,0.832899 HandRight:0.491041,0.270367,-0.337678,0.756144 HandTipLeft:0.000000,0.000000,0.000000,0.000000 HandTipRight:0.000000,0.000000,0.000000,0.000000 Head:0.000000,0.000000,0.000000,0.000000 HipLeft:0.105294,-0.672593,0.718131,-0.144290 HipRight:-0.145862,0.684840,0.688739,-0.188038 KneeLeft:0.019331,-0.688414,0.046448,0.723571 KneeRight:0.003445,0.725103,0.047162,0.687014 Neck:-0.009397,-0.002399,0.997283,-0.073028 ShoulderLeft:0.035913,0.771414,-0.634405,0.034074 ShoulderRight:0.025162,0.796467,0.602365,-0.046522 SpineBase:-0.025716,0.002520,0.999084,-0.034098 SpineMid:-0.017480,0.002239,0.999262,-0.034117 SpineShoulder:-0.009273,-0.000355,0.998574,-0.052562 ThumbLeft:0.000000,0.000000,0.000000,0.000000 ThumbRight:0.000000,0.000000,0.000000,0.000000 WristLeft:0.104822,-0.518218,-0.090603,0.843951 WristRight:0.179582,0.141414,-0.440059,0.868390 END:
KINECT_DATA POSITION:-0.953852,-0.526058,-3.278446 HEAD_JOINT1:0.978702,0.181721,-0.000000,0.095498 LARM_JOINT2:0.825878,0.000000,-0.001543,-0.563846 LARM_JOINT3:0.967663,0.000000,-0.192356,-0.163180 LLEG_JOINT2:0.999401,0.018656,0.000000,0.029150 LLEG_JOINT4:0.996354,0.083954,0.000000,-0.015203 RARM_JOINT2:0.813550,0.000000,0.005483,0.581469 RARM_JOINT3:0.799459,0.000000,0.420259,0.429241 RLEG_JOINT2:0.998236,0.036325,0.000000,-0.046953 RLEG_JOINT4:0.995237,0.091119,0.000000,0.034650 WAIST:0.999553,-0.000000,0.024446,0.017225 WAIST_JOINT0:0.999736,-0.000000,0.004734,0.022496 WAIST_JOINT1:0.998182,0.058153,0.000000,-0.015861 END:
KINECT_DATA_Sensor  AnkleLeft:0.061391,0.750266,-0.087159,-0.652484 AnkleRight:0.095582,0.751585,0.083421,0.647321 ElbowLeft:-0.029309,0.869862,-0.192184,-0.453371 ElbowRight:-0.035542,0.882280,0.166956,0.438686 FootLeft:0.000000,0.000000,0.000000,0.000000 FootRight:0.000000,0.000000,0.000000,0.000000 HandLeft:0.039845,-0.540119,-0.132061,0.830207 HandRight:0.532828,-0.035013,-0.085199,0.841195 HandTipLeft:0.000000,0.000000,0.000000,0.000000 HandTipRight:0.000000,0.000000,0.000000,0.000000 Head:0.000000,0.000000,0.000000,0.000000 HipLeft:0.105260,-0.672648,0.718094,-0.144245 HipRight:-0.145454,0.684797,0.688943,-0.187758 KneeLeft:0.018758,-0.688584,0.046144,0.723444 KneeRight:0.003284,0.724951,0.046513,0.687220 Neck:-0.006831,-0.002848,0.997282,-0.073305 ShoulderLeft:0.034240,0.772269,-0.633339,0.036183 ShoulderRight:0.026749,0.796144,0.602863,-0.044657 SpineBase:-0.025503,0.002341,0.999089,-0.034142 SpineMid:-0.016093,0.002019,0.999285,-0.034163 SpineShoulder:-0.006694,-0.000619,0.998587,-0.052708 ThumbLeft:0.000000,0.000000,0.000000,0.000000 ThumbRight:0.000000,0.000000,0.000000,0.000000 WristLeft:0.104838,-0.526649,-0.090561,0.838719 WristRight:0.293139,-0.135401,-0.360741,0.874987 END:
KINECT_DATA POSITION:-0.898778,-0.548432,-3.260660 HEAD_JOINT1:0.978861,0.180799,-0.000000,0.095614 LARM_JOINT2:0.826832,0.000000,-0.002071,-0.562445 LARM_JOINT3:0.967856,0.000000,-0.192949,-0.161325 LLEG_JOINT2:0.999416,0.019136,0.000000,0.028306 LLEG_JOINT4:0.996104,0.086225,0.000000,-0.018474 RARM_JOINT2:0.813596,0.000000,0.005564,0.581404 RARM_JOINT3:0.798261,0.000000,0.436216,0.415326 RLEG_JOINT2:0.998153,0.037006,0.000000,-0.048183 RLEG_JOINT4:0.995351,0.089737,0.000000,0.034979 WAIST:0.999558,-0.000000,0.023732,0.017926 WAIST_JOINT0:0.999722,-0.000000,0.005233,0.022992 WAIST_JOINT1:0.998178,0.058082,0.000000,-0.016354 END:
KINECT_DATA_Sensor  AnkleLeft:-0.059168,-0.701215,0.090718,0.704675 AnkleRight:0.095050,0.751693,0.082945,0.647336 ElbowLeft:-0.030576,0.870263,-0.193647,-0.451895 ElbowRight:-0.035519,0.881932,0.166793,0.439449 FootLeft:0.000000,0.000000,0.000000,0.000000 FootRight:0.000000,0.000000,0.000000,0.000000 HandLeft:0.048457,-0.540060,-0.125917,0.830742 HandRight:0.487419,0.110319,-0.241810,0.831734 HandTipLeft:0.000000,0.000000,0.000000,0.000000 HandTipRight:0.000000,0.000000,0.000000,0.000000 Head:0.000000,0.000000,0.000000,0.000000 HipLeft:0.105684,-0.672164,0.718444,-0.144446 HipRight:-0.145103,0.685478,0.688520,-0.187098 KneeLeft:0.018348,-0.689090,0.046356,0.722959 KneeRight:0.003403,0.724492,0.047366,0.687646 Neck:-0.007306,-0.002615,0.997281,-0.073279 ShoulderLeft:0.033547,0.772076,-0.633592,0.036532 ShoulderRight:0.025425,0.796220,0.602743,-0.045699 SpineBase:-0.024816,0.002803,0.999113,-0.033917 SpineMid:-0.015968,0.002502,0.999293,-0.033941 SpineShoulder:-0.007155,-0.000276,0.998588,-0.052630 ThumbLeft:0.000000,0.000000,0.000000,0.000000 ThumbRight:0.000000,0.000000,0.000000,0.000000 WristLeft:0.106143,-0.528475,-0.091378,0.837316 WristRight:0.227498,0.010377,-0.403020,0.886404 END:
KINECT_DATA POSITION:-0.816238,-0.552814,-3.275645 HEAD_JOINT1:0.978800,0.180853,-0.000000,0.096137 LARM_JOINT2:0.827454,0.000000,-0.002005,-0.561529 LARM_JOINT3:0.968973,0.000000,-0.186292,-0.162437 LLEG_JOINT2:0.999445,0.019632,0.000000,0.026915 LLEG_JOINT4:0.996241,0.084566,0.000000,-0.018759 RARM_JOINT2:0.805832,0.000000,0.031035,0.591330 RARM_JOINT3:0.818196,0.000000,0.428118,0.383757 RLEG_JOINT2:0.998027,0.037566,0.000000,-0.050302 RLEG_JOINT4:0.995404,0.088654,0.000000,0.036216 WAIST:0.999544,-0.000000,0.023409,0.019085 WAIST_JOINT0:0.999696,-0.000000,0.005401,0.024051 WAIST_JOINT1:0.998178,0.057903,0.000000,-0.016996 END:
KINECT_DATA_Sensor  AnkleLeft:0.062121,0.729035,-0.087163,-0.676056 AnkleRight:0.090444,0.716728,0.087174,0.685946 ElbowLeft:-0.031327,0.870412,-0.195035,-0.450957 ElbowRight:-0.046181,0.885929,0.144929,0.438169 FootLeft:0.000000,0.000000,0.000000,0.000000 FootRight:0.000000,0.000000,0.000000,0.000000 HandLeft:0.032180,-0.533400,-0.103471,0.838893 HandRight:0.201066,0.631400,-0.491753,0.564876 HandTipLeft:0.000000,0.000000,0.000000,0.000000 HandTipRight:0.000000,0.000000,0.000000,0.000000 Head:0.000000,0.000000,0.000000,0.000000 HipLeft:0.106134,-0.671339,0.719087,-0.144753 HipRight:-0.145292,0.686307,0.687689,-0.186968 KneeLeft:0.017859,-0.689297,0.046509,0.722763 KneeRight:0.003098,0.724326,0.048419,0.687748 Neck:-0.007572,-0.002077,0.997299,-0.073026 ShoulderLeft:0.034452,0.771620,-0.634154,0.035563 ShoulderRight:0.026042,0.796893,0.601870,-0.045119 SpineBase:-0.024541,0.003541,0.999123,-0.033734 SpineMid:-0.015943,0.003250,0.999297,-0.033763 SpineShoulder:-0.007406,0.000307,0.998595,-0.052474 ThumbLeft:0.000000,0.000000,0.000000,0.000000 ThumbRight:0.000000,0.000000,0.000000,0.000000 WristLeft:0.106194,-0.520665,-0.092582,0.842057 WristRight:0.049257,0.358142,-0.454515,0.814079 END:
KINECT_DATA POSITION:-0.729218,-0.558561,-3.275514 HEAD_JOINT1:0.978795,0.180876,-0.000000,0.096146 LARM_JOINT2:0.825979,0.000000,-0.001850,-0.563697 LARM_JOINT3:0.969343,0.000000,-0.183453,-0.163460 LLEG_JOINT2:0.999479,0.020343,0.000000,0.025071 LLEG_JOINT4:0.996398,0.082953,0.000000,-0.017590 RARM_JOINT2:0.801574,0.000000,0.038533,0.596653 RARM_JOINT3:0.824232,0.000000,0.428095,0.370643 RLEG_JOINT2:0.997901,0.038063,0.000000,-0.052393 RLEG_JOINT4:0.995220,0.090691,0.000000,0.036212 WAIST:0.999507,-0.000000,0.024267,0.019925 WAIST_JOINT0:0.999667,-0.000000,0.006916,0.024868 WAIST_JOINT1:0.998187,0.057709,0.000000,-0.017107 END:
KINECT_DATA_Sensor  AnkleLeft:0.062240,0.735397,-0.086020,-0.669267 AnkleRight:0.095263,0.748083,0.085573,0.651133 ElbowLeft:-0.030564,0.869907,-0.193338,-0.452712 ElbowRight:-0.048154,0.885995,0.134984,0.440990 FootLeft:0.000000,0.000000,0.000000,0.000000 FootRight:0.000000,0.000000,0.000000,0.000000 HandLeft:0.022226,-0.537134,-0.102646,0.836933 HandRight:0.447003,0.209690,-0.289629,0.819960 HandTipLeft:0.000000,0.000000,0.000000,0.000000 HandTipRight:0.000000,0.000000,0.000000,0.000000 Head:0.000000,0.000000,0.000000,0.000000 HipLeft:0.105907,-0.670815,0.719687,-0.144364 HipRight:-0.146286,0.686752,0.686949,-0.187278 KneeLeft:0.016638,-0.688686,0.046262,0.723391 KneeRight:0.002472,0.724958,0.049621,0.686999 Neck:-0.009167,-0.001332,0.997303,-0.072808 ShoulderLeft:0.035580,0.771083,-0.634828,0.034034 ShoulderRight:0.025167,0.797805,0.600628,-0.046036 SpineBase:-0.025416,0.004385,0.999109,-0.033414 SpineMid:-0.017160,0.004109,0.999285,-0.033449 SpineShoulder:-0.008992,0.001027,0.998592,-0.052278 ThumbLeft:0.000000,0.000000,0.000000,0.000000 ThumbRight:0.000000,0.000000,0.000000,0.000000 WristLeft:0.105764,-0.522624,-0.091162,0.841051 WristRight:0.179454,0.103658,-0.421915,0.882632 END:
KINECT_DATA POSITION:-0.715344,-0.563237,-3.280783 HEAD_JOINT1:0.978687,0.181298,-0.000000,0.096449 LARM_JOINT2:0.826385,0.000000,-0.001698,-0.563103 LARM_JOINT3:0.967861,0.000000,-0.187857,-0.167197 LLEG_JOINT2:0.999478,0.020436,0.000000,0.025004 LLEG_JOINT4:0.996458,0.082546,0.000000,-0.016023 RARM_JOINT2:0.801512,0.000000,0.033980,0.597013 RARM_JOINT3:0.824821,0.000000,0.420666,0.377771 RLEG_JOINT2:0.997915,0.037748,0.000000,-0.052348 RLEG_JOINT4:0.995243,0.090350,0.000000,0.036452 WAIST:0.999511,-0.000000,0.024140,0.019878 WAIST_JOINT0:0.999660,-0.000000,0.007419,0.025003 WAIST_JOINT1:0.998193,0.057657,0.000000,-0.016942 END:
KINECT_DATA_Sensor  AnkleLeft:0.061421,0.738222,-0.086710,-0.666136 AnkleRight:0.094392,0.743643,0.085581,0.656324 ElbowLeft:-0.030256,0.871276,-0.194205,-0.449720 ElbowRight:-0.045508,0.883754,0.136385,0.445317 FootLeft:0.000000,0.000000,0.000000,0.000000 FootRight:0.000000,0.000000,0.000000,0.000000 HandLeft:0.021748,-0.523316,-0.124503,0.842714 HandRight:0.518954,-0.037609,-0.110943,0.846737 HandTipLeft:0.000000,0.000000,0.000000,0.000000 HandTipRight:0.000000,0.000000,0.000000,0.000000 Head:0.000000,0.000000,0.000000,0.000000 HipLeft:0.106031,-0.670843,0.719628,-0.144440 HipRight:-0.146262,0.686764,0.686973,-0.187163 KneeLeft:0.016495,-0.688784,0.046244,0.723302 KneeRight:0.002262,0.724867,0.049396,0.687112 Neck:-0.009609,-0.001159,0.997300,-0.072796 ShoulderLeft:0.035161,0.771314,-0.634564,0.034174 ShoulderRight:0.024143,0.797767,0.600656,-0.046873 SpineBase:-0.025283,0.004416,0.999114,-0.033361 SpineMid:-0.017315,0.004150,0.999284,-0.033396 SpineShoulder:-0.009433,0.001182,0.998590,-0.052224 ThumbLeft:0.000000,0.000000,0.000000,0.000000 ThumbRight:0.000000,0.000000,0.000000,0.000000 WristLeft:0.103175,-0.507237,-0.092695,0.850572 WristRight:0.281152,-0.134359,-0.360702,0.879088 END:
KINECT_DATA POSITION:-0.717916,-0.566860,-3.267896 HEAD_JOINT1:0.978539,0.181757,-0.000000,0.097087 LARM_JOINT2:0.827150,0.000000,-0.000839,-0.561981 LARM_JOINT3:0.966691,0.000000,-0.190859,-0.170533 LLEG_JOINT2:0.999480,0.020623,0.000000,0.024775 LLEG_JOINT4:0.996414,0.082941,0.000000,-0.016718 RARM_JOINT2:0.809029,0.000000,0.024414,0.587261 RARM_JOINT3:0.814116,0.000000,0.429391,0.390947 RLEG_JOINT2:0.997985,0.036513,0.000000,-0.051894 RLEG_JOINT4:0.995223,0.091375,0.000000,0.034373 WAIST:0.999528,-0.000000,0.023572,0.019712 WAIST_JOINT0:0.999695,-0.000000,0.003353,0.024474 WAIST_JOINT1:0.998210,0.057356,0.000000,-0.016915 END:
KINECT_DATA_Sensor  AnkleLeft:0.057888,0.702477,-0.089449,-0.703686 AnkleRight:0.094881,0.757083,0.084690,0.640820 ElbowLeft:-0.030023,0.872398,-0.195528,-0.446979 ElbowRight:-0.045197,0.883065,0.151039,0.441973 FootLeft:0.000000,0.000000,0.000000,0.000000 FootRight:0.000000,0.000000,0.000000,0.000000 HandLeft:0.014986,-0.471788,-0.136984,0.870877 HandRight:0.448654,0.232852,-0.285602,0.814199 HandTipLeft:0.000000,0.000000,0.000000,0.000000 HandTipRight:0.000000,0.000000,0.000000,0.000000 Head:0.000000,0.000000,0.000000,0.000000 HipLeft:0.106512,-0.670936,0.719428,-0.144645 HipRight:-0.146001,0.686790,0.687119,-0.186738 KneeLeft:0.016103,-0.689212,0.046088,0.722913 KneeRight:0.001654,0.724460,0.048314,0.687619 Neck:-0.005608,-0.001506,0.997355,-0.072454 ShoulderLeft:0.034324,0.771802,-0.633944,0.035479 ShoulderRight:0.028460,0.797585,0.601068,-0.042020 SpineBase:-0.024704,0.004281,0.999135,-0.033188 SpineMid:-0.015034,0.003959,0.999327,-0.033228 SpineShoulder:-0.005426,0.000913,0.998634,-0.051951 ThumbLeft:0.000000,0.000000,0.000000,0.000000 ThumbRight:0.000000,0.000000,0.000000,0.000000 WristLeft:0.096699,-0.455145,-0.099192,0.879575 WristRight:0.165889,0.129351,-0.430365,0.877801 END:
KINECT_DATA POSITION:-0.727463,-0.573152,-3.227735 HEAD_JOINT1:0.978620,0.182155,-0.000000,0.095513 LARM_JOINT2:0.826338,0.000000,-0.000255,-0.563175 LARM_JOINT3:0.969017,0.000000,-0.184509,-0.164203 LLEG_JOINT2:0.999469,0.021037,0.000000,0.024880 LLEG_JOINT4:0.996479,0.082542,0.000000,-0.014734 RARM_JOINT2:0.812374,0.000000,0.032991,0.582203 RARM_JOINT3:0.805944,0.000000,0.459233,0.373576 RLEG_JOINT2:0.997999,0.036163,0.000000,-0.051876 RLEG_JOINT4:0.994970,0.093353,0.000000,0.036323 WAIST:0.999529,-0.000000,0.023639,0.019562 WAIST_JOINT0:0.999655,-0.000000,0.008135,0.024987 WAIST_JOINT1:0.998324,0.055440,0.000000,-0.016584 END:
KINECT_DATA_Sensor  AnkleLeft:0.062027,0.743891,-0.087288,-0.659667 AnkleRight:0.097090,0.755232,0.084706,0.642669 ElbowLeft:-0.031520,0.870678,-0.193720,-0.450997 ElbowRight:-0.054836,0.885465,0.151631,0.435836 FootLeft:0.000000,0.000000,0.000000,0.000000 FootRight:0.000000,0.000000,0.000000,0.000000 HandLeft:0.024027,-0.507704,-0.107711,0.854434 HandRight:0.547870,-0.171103,-0.102040,0.812496 HandTipLeft:0.000000,0.000000,0.000000,0.000000 HandTipRight:0.000000,0.000000,0.000000,0.000000 Head:0.000000,0.000000,0.000000,0.000000 HipLeft:0.107054,-0.671145,0.719306,-0.143883 HipRight:-0.146520,0.686822,0.687162,-0.186053 KneeLeft:0.015765,-0.689195,0.046344,0.722921 KneeRight:0.001313,0.724478,0.048154,0.687612 Neck:-0.010257,-0.000804,0.997492,-0.070030 ShoulderLeft:0.037027,0.771517,-0.634421,0.030008 ShoulderRight:0.025176,0.797461,0.601238,-0.043995 SpineBase:-0.024733,0.004160,0.999166,-0.032211 SpineMid:-0.017381,0.003923,0.999321,-0.032241 SpineShoulder:-0.010096,0.001371,0.998687,-0.050212 ThumbLeft:0.000000,0.000000,0.000000,0.000000 ThumbRight:0.000000,0.000000,0.000000,0.000000 WristLeft:0.102879,-0.494033,-0.095635,0.858022 WristRight:0.351928,-0.264512,-0.319764,0.839006 END:
KINECT_DATA POSITION:-0.701727,-0.558350,-3.186548 HEAD_JOINT1:0.979938,0.179866,-0.000000,0.085846 LARM_JOINT2:0.819010,0.000000,0.014967,-0.573585 LARM_JOINT3:0.970035,0.000000,-0.190949,-0.150233 LLEG_JOINT2:0.999454,0.020984,0.000000,0.025520 LLEG_JOINT4:0.996633,0.080686,0.000000,-0.014608 RARM_JOINT2:0.819099,0.000000,0.093521,0.565977 RARM_JOINT3:0.810627,0.000000,0.491000,0.319066 RLEG_JOINT2:0.998017,0.035997,0.000000,-0.051627 RLEG_JOINT4:0.994872,0.093722,0.000000,0.038018 WAIST:0.999475,-0.000000,0.026511,0.018605 WAIST_JOINT0:0.999538,-0.000000,0.018267,0.024291 WAIST_JOINT1:0.998504,0.052827,0.000000,-0.014082 END:
KINECT_DATA_Sensor  AnkleLeft:-0.054799,-0.694668,0.089772,0.711600 AnkleRight:0.093204,0.723183,0.089258,0.678492 ElbowLeft:-0.024954,0.850293,-0.187156,-0.491276 ElbowRight:-0.101760,0.901237,0.138040,0.397947 FootLeft:0.000000,0.000000,0.000000,0.000000 FootRight:0.000000,0.000000,0.000000,0.000000 HandLeft:0.037288,-0.539675,-0.096796,0.835459 HandRight:0.422508,0.079425,-0.438600,0.789182 HandTipLeft:0.000000,0.000000,0.000000,0.000000 HandTipRight:0.000000,0.000000,0.000000,0.000000 Head:0.000000,0.000000,0.000000,0.000000 HipLeft:0.106583,-0.671819,0.719102,-0.142095 HipRight:-0.149998,0.685613,0.687397,-0.186868 KneeLeft:0.015469,-0.687203,0.046105,0.724836 KneeRight:0.000524,0.726387,0.048504,0.685572 Neck:-0.020107,0.001544,0.997530,-0.067285 ShoulderLeft:0.041049,0.770647,-0.635586,0.021186 ShoulderRight:0.016468,0.797802,0.600553,-0.050762 SpineBase:-0.027475,0.004824,0.999136,-0.030808 SpineMid:-0.023685,0.004708,0.999233,-0.030826 SpineShoulder:-0.019975,0.003086,0.998659,-0.047671 ThumbLeft:0.000000,0.000000,0.000000,0.000000 ThumbRight:0.000000,0.000000,0.000000,0.000000 WristLeft:0.112818,-0.526848,-0.089075,0.837717 WristRight:0.258238,0.012764,-0.412136,0.873667 END:
KINECT_DATA POSITION:-0.659879,-0.530710,-3.218532 HEAD_JOINT1:0.981529,0.177556,-0.000000,0.071233 LARM_JOINT2:0.819574,0.000000,0.017456,-0.572708 LARM_JOINT3:0.970528,0.000000,-0.187625,-0.151236 LLEG_JOINT2:0.999505,0.018737,0.000000,0.025274 LLEG_JOINT4:0.996474,0.082439,0.000000,-0.015580 RARM_JOINT2:0.824596,0.000000,0.112518,0.554420 RARM_JOINT3:0.797461,0.000000,0.507750,0.325953 RLEG_JOINT2:0.998013,0.036727,0.000000,-0.051188 RLEG_JOINT4:0.994824,0.093989,0.000000,0.038619 WAIST:0.999187,-0.000000,0.035817,0.018498 WAIST_JOINT0:0.998515,-0.000000,0.047640,0.026430 WAIST_JOINT1:0.998625,0.051141,0.000000,-0.011519 END:
KINECT_DATA_Sensor  AnkleLeft:0.061553,0.732743,-0.084054,-0.672483 AnkleRight:0.095391,0.742668,0.088190,0.656937 ElbowLeft:-0.025028,0.843701,-0.190456,-0.501268 ElbowRight:-0.119618,0.912645,0.137940,0.365710 FootLeft:0.000000,0.000000,0.000000,0.000000 FootRight:0.000000,0.000000,0.000000,0.000000 HandLeft:0.027655,-0.495187,-0.095237,0.863108 HandRight:0.303134,0.260580,-0.556359,0.728473 HandTipLeft:0.000000,0.000000,0.000000,0.000000 HandTipRight:0.000000,0.000000,0.000000,0.000000 Head:0.000000,0.000000,0.000000,0.000000 HipLeft:0.100141,-0.673075,0.720382,-0.134135 HipRight:-0.155682,0.684611,0.686526,-0.189085 KneeLeft:0.016567,-0.680467,0.044337,0.731248 KneeRight:0.000694,0.732718,0.048694,0.678788 Neck:-0.048890,0.005066,0.996612,-0.065942 ShoulderLeft:0.054665,0.768254,-0.637807,0.000734 ShoulderRight:-0.007100,0.795741,0.600883,-0.075401 SpineBase:-0.036668,0.006098,0.998893,-0.028815 SpineMid:-0.042636,0.006270,0.998656,-0.028778 SpineShoulder:-0.048788,0.005964,0.997746,-0.045689 ThumbLeft:0.000000,0.000000,0.000000,0.000000 ThumbRight:0.000000,0.000000,0.000000,0.000000 WristLeft:0.113701,-0.480806,-0.088122,0.864946 WristRight:0.195834,0.222457,-0.473378,0.829503 END:
KINECT_DATA POSITION:-0.583099,-0.458350,-3.351605 HEAD_JOINT1:0.982742,0.174347,-0.000000,0.061823 LARM_JOINT2:0.819580,0.000000,0.019925,-0.572618 LARM_JOINT3:0.969143,0.000000,-0.196120,-0.149330 LLEG_JOINT2:0.999566,0.016649,0.000000,0.024285 LLEG_JOINT4:0.996365,0.083958,0.000000,-0.014426 RARM_JOINT2:0.825709,0.000000,0.132112,0.548408 RARM_JOINT3:0.798286,0.000000,0.513195,0.315230 RLEG_JOINT2:0.997973,0.037544,0.000000,-0.051378 RLEG_JOINT4:0.994975,0.092147,0.000000,0.039170 WAIST:0.998802,-0.000000,0.044948,0.019327 WAIST_JOINT0:0.997909,-0.000000,0.059214,0.025899 WAIST_JOINT1:0.998653,0.050884,0.000000,-0.010127 END:
KINECT_DATA_Sensor  AnkleLeft:0.063087,0.742551,-0.082321,-0.661711 AnkleRight:0.093981,0.744447,0.087997,0.655151 ElbowLeft:-0.023457,0.836915,-0.193280,-0.511532 ElbowRight:-0.134502,0.920299,0.131102,0.343179 FootLeft:0.000000,0.000000,0.000000,0.000000 FootRight:0.000000,0.000000,0.000000,0.000000 HandLeft:0.056473,-0.527661,-0.106429,0.840867 HandRight:0.313101,0.208369,-0.553557,0.743051 HandTipLeft:0.000000,0.000000,0.000000,0.000000 HandTipRight:0.000000,0.000000,0.000000,0.000000 Head:0.000000,0.000000,0.000000,0.000000 HipLeft:0.094223,-0.673806,0.721596,-0.128089 HipRight:-0.161026,0.684524,0.684464,-0.192371 KneeLeft:0.017745,-0.673750,0.042816,0.737505 KneeRight:0.001127,0.738935,0.048722,0.672012 Neck:-0.060156,0.007055,0.995997,-0.065741 ShoulderLeft:0.057979,0.768382,-0.637337,-0.005400 ShoulderRight:-0.018467,0.794615,0.600580,-0.086888 SpineBase:-0.045761,0.007815,0.998534,-0.027850 SpineMid:-0.052791,0.008011,0.998187,-0.027794 SpineShoulder:-0.060045,0.007796,0.997138,-0.045282 ThumbLeft:0.000000,0.000000,0.000000,0.000000 ThumbRight:0.000000,0.000000,0.000000,0.000000 WristLeft:0.121061,-0.515080,-0.081296,0.844646 WristRight:0.237436,0.195898,-0.467024,0.828937 END:
KINECT_DATA POSITION:-0.485292,-0.334390,-3.615415 HEAD_JOINT1:0.983697,0.171744,-0.000000,0.053323 LARM_JOINT2:0.819053,0.000000,0.014860,-0.573525 LARM_JOINT3:0.969769,0.000000,-0.194033,-0.147985 LLEG_JOINT2:0.999626,0.012694,0.000000,0.024243 LLEG_JOINT4:0.996283,0.085354,0.000000,-0.011636 RARM_JOINT2:0.846803,0.000000,0.214712,0.486645 RARM_JOINT3:0.792713,0.000000,0.515252,0.325762 RLEG_JOINT2:0.997974,0.036898,0.000000,-0.051823 RLEG_JOINT4:0.994771,0.092650,0.000000,0.042984 WAIST:0.998415,-0.000000,0.052981,0.018992 WAIST_JOINT0:0.997996,-0.000000,0.057329,0.026775 WAIST_JOINT1:0.998634,0.051640,0.000000,-0.007995 END:
KINECT_DATA_Sensor  AnkleLeft:-0.052345,-0.672828,0.087387,0.732752 AnkleRight:0.094465,0.743378,0.087361,0.656379 ElbowLeft:-0.024834,0.834683,-0.192714,-0.515314 ElbowRight:-0.211972,0.932899,0.148454,0.250459 FootLeft:0.000000,0.000000,0.000000,0.000000 FootRight:0.000000,0.000000,0.000000,0.000000 HandLeft:0.071946,-0.634330,-0.098186,0.763419 HandRight:0.293846,0.275092,-0.588883,0.700853 HandTipLeft:0.000000,0.000000,0.000000,0.000000 HandTipRight:0.000000,0.000000,0.000000,0.000000 Head:0.000000,0.000000,0.000000,0.000000 HipLeft:0.089799,-0.675012,0.721566,-0.125051 HipRight:-0.166596,0.683467,0.682851,-0.197060 KneeLeft:0.020191,-0.667818,0.039935,0.742978 KneeRight:-0.000371,0.744322,0.048675,0.666045 Neck:-0.058602,0.007728,0.996023,-0.066669 ShoulderLeft:0.063967,0.766963,-0.638434,-0.008795 ShoulderRight:-0.010090,0.796424,0.599175,-0.081220 SpineBase:-0.053725,0.009426,0.998119,-0.027991 SpineMid:-0.055988,0.009489,0.997994,-0.027969 SpineShoulder:-0.058452,0.008726,0.997188,-0.046081 ThumbLeft:0.000000,0.000000,0.000000,0.000000 ThumbRight:0.000000,0.000000,0.000000,0.000000 WristLeft:0.132564,-0.621384,-0.061827,0.769731 WristRight:0.243756,0.300052,-0.474101,0.791062 END:
KINECT_DATA POSITION:-0.330864,-0.248720,-3.799438 HEAD_JOINT1:0.985041,0.166649,-0.000000,0.043855 LARM_JOINT2:0.812658,0.000000,0.043412,-0.581121 LARM_JOINT3:0.967008,0.000000,-0.209819,-0.144469 LLEG_JOINT2:0.999658,0.009861,0.000000,0.024208 LLEG_JOINT4:0.996118,0.087425,0.000000,-0.010268 RARM_JOINT2:0.847880,0.000000,0.221413,0.481742 RARM_JOINT3:0.781954,0.000000,0.521648,0.341220 RLEG_JOINT2:0.997982,0.036829,0.000000,-0.051734 RLEG_JOINT4:0.994461,0.092769,0.000000,0.049409 WAIST:0.997958,-0.000000,0.061381,0.017692 WAIST_JOINT0:0.998530,-0.000000,0.048069,0.025062 WAIST_JOINT1:0.998628,0.052147,0.000000,-0.004811 END:
KINECT_DATA_Sensor  AnkleLeft:-0.053732,-0.677867,0.085626,0.728202 AnkleRight:0.096229,0.738294,0.086130,0.662000 ElbowLeft:-0.007101,0.804009,-0.195023,-0.561680 ElbowRight:-0.219195,0.933907,0.144887,0.242444 FootLeft:0.000000,0.000000,0.000000,0.000000 FootRight:0.000000,0.000000,0.000000,0.000000 HandLeft:0.057415,-0.521326,-0.095663,0.846033 HandRight:0.353530,0.284499,-0.536686,0.711368 HandTipLeft:0.000000,0.000000,0.000000,0.000000 HandTipRight:0.000000,0.000000,0.000000,0.000000 Head:0.000000,0.000000,0.000000,0.000000 HipLeft:0.083398,-0.676617,0.721540,-0.120888 HipRight:-0.171441,0.681469,0.682450,-0.201169 KneeLeft:0.021149,-0.661654,0.037170,0.748589 KneeRight:-0.001786,0.749876,0.049367,0.659732 Neck:-0.050074,0.007956,0.996442,-0.067325 ShoulderLeft:0.048329,0.767013,-0.639770,0.007099 ShoulderRight:-0.015207,0.797965,0.596778,-0.082931 SpineBase:-0.062000,0.011265,0.997603,-0.028598 SpineMid:-0.055863,0.011089,0.997965,-0.028667 SpineShoulder:-0.049871,0.009371,0.997611,-0.046879 ThumbLeft:0.000000,0.000000,0.000000,0.000000 ThumbRight:0.000000,0.000000,0.000000,0.000000 WristLeft:0.127421,-0.508244,-0.076442,0.848297 WristRight:0.281543,0.277245,-0.473430,0.787231 END:
KINECT_DATA POSITION:-0.015861,-0.090363,-3.924787 HEAD_JOINT1:0.985517,0.165613,-0.000000,0.036452 LARM_JOINT2:0.816447,0.000000,0.021005,-0.577038 LARM_JOINT3:0.969242,0.000000,-0.197844,-0.146381 LLEG_JOINT2:0.999694,0.006833,0.000000,0.023755 LLEG_JOINT4:0.996150,0.087403,0.000000,-0.006808 RARM_JOINT2:0.849712,0.000000,0.213520,0.482077 RARM_JOINT3:0.768428,0.000000,0.540267,0.342972 RLEG_JOINT2:0.997878,0.037149,0.000000,-0.053471 RLEG_JOINT4:0.994302,0.093871,0.000000,0.050516 WAIST:0.997381,-0.000000,0.070389,0.016654 WAIST_JOINT0:0.996302,-0.000000,0.080696,0.029506 WAIST_JOINT1:0.998634,0.052237,0.000000,-0.001264 END:
KINECT_DATA_Sensor  AnkleLeft:-0.049472,-0.659677,0.085500,0.745030 AnkleRight:0.098011,0.765617,0.085811,0.629969 ElbowLeft:-0.019358,0.817216,-0.195049,-0.541977 ElbowRight:-0.217166,0.932363,0.142230,0.251611 FootLeft:0.000000,0.000000,0.000000,0.000000 FootRight:0.000000,0.000000,0.000000,0.000000 HandLeft:0.058734,-0.495806,-0.110958,0.859311 HandRight:0.342455,0.298329,-0.522658,0.721494 HandTipLeft:0.000000,0.000000,0.000000,0.000000 HandTipRight:0.000000,0.000000,0.000000,0.000000 Head:0.000000,0.000000,0.000000,0.000000 HipLeft:0.078903,-0.677667,0.721612,-0.117545 HipRight:-0.178881,0.679002,0.681404,-0.206509 KneeLeft:0.022180,-0.654999,0.034190,0.754530 KneeRight:-0.004170,0.755782,0.051356,0.652793 Neck:-0.082154,0.011530,0.994265,-0.067496 ShoulderLeft:0.071666,0.764489,-0.640335,-0.019788 ShoulderRight:-0.032855,0.797327,0.593169,-0.106492 SpineBase:-0.070877,0.013248,0.996990,-0.028492 SpineMid:-0.076261,0.013402,0.996593,-0.028420 SpineShoulder:-0.081968,0.012494,0.995455,-0.046849 ThumbLeft:0.000000,0.000000,0.000000,0.000000 ThumbRight:0.000000,0.000000,0.000000,0.000000 WristLeft:0.126688,-0.481268,-0.074443,0.864170 WristRight:0.291094,0.287813,-0.494707,0.766611 END:
KINECT_DATA POSITION:0.091437,-0.023066,-3.962004 HEAD_JOINT1:0.985639,0.166027,-0.000000,0.030839 LARM_JOINT2:0.816306,0.000000,0.018752,-0.577316 LARM_JOINT3:0.968453,0.000000,-0.199528,-0.149286 LLEG_JOINT2:0.999705,0.006966,0.000000,0.023276 LLEG_JOINT4:0.996058,0.088417,0.000000,-0.007068 RARM_JOINT2:0.847192,0.000000,0.239070,0.474458 RARM_JOINT3:0.774972,0.000000,0.544382,0.321039 RLEG_JOINT2:0.997896,0.036342,0.000000,-0.053700 RLEG_JOINT4:0.993914,0.097721,0.000000,0.050844 WAIST:0.997215,-0.000000,0.072758,0.016370 WAIST_JOINT0:0.996892,-0.000000,0.072994,0.029640 WAIST_JOINT1:0.998641,0.052108,0.000000,-0.000142 END:
KINECT_DATA_Sensor  AnkleLeft:0.062023,0.750742,-0.077812,-0.653058 AnkleRight:0.097502,0.750894,0.090815,0.646842 ElbowLeft:-0.020234,0.817964,-0.194818,-0.540899 ElbowRight:-0.235934,0.932345,0.130524,0.240896 FootLeft:0.000000,0.000000,0.000000,0.000000 FootRight:0.000000,0.000000,0.000000,0.000000 HandLeft:0.053523,-0.467766,-0.127005,0.873041 HandRight:0.281402,0.374208,-0.579198,0.667316 HandTipLeft:0.000000,0.000000,0.000000,0.000000 HandTipRight:0.000000,0.000000,0.000000,0.000000 Head:0.000000,0.000000,0.000000,0.000000 HipLeft:0.077797,-0.678102,0.721481,-0.116576 HipRight:-0.180673,0.678569,0.681015,-0.207651 KneeLeft:0.021512,-0.653252,0.033738,0.756082 KneeRight:-0.005221,0.757309,0.051058,0.651036 Neck:-0.074340,0.011636,0.994870,-0.067615 ShoulderLeft:0.075034,0.764803,-0.639543,-0.020763 ShoulderRight:-0.018927,0.798984,0.593675,-0.093899 SpineBase:-0.073209,0.013767,0.996820,-0.028313 SpineMid:-0.073541,0.013777,0.996795,-0.028308 SpineShoulder:-0.074129,0.012711,0.996064,-0.046894 ThumbLeft:0.000000,0.000000,0.000000,0.000000 ThumbRight:0.000000,0.000000,0.000000,0.000000 WristLeft:0.124244,-0.451282,-0.078711,0.880178 WristRight:0.231795,0.377087,-0.525728,0.726420 END:
KINECT_DATA POSITION:0.116000,0.016738,-3.971767 HEAD_JOINT1:0.985037,0.164393,-0.000000,0.051735 LARM_JOINT2:0.820935,0.000000,0.015905,-0.570800 LARM_JOINT3:0.968421,0.000000,-0.199116,-0.150045 LLEG_JOINT2:0.999695,0.006736,0.000000,0.023767 LLEG_JOINT4:0.996331,0.085325,0.000000,-0.006580 RARM_JOINT2:0.843080,0.000000,0.245961,0.478245 RARM_JOINT3:0.777257,0.000000,0.546643,0.311534 RLEG_JOINT2:0.997922,0.037637,0.000000,-0.052295 RLEG_JOINT4:0.994299,0.094175,0.000000,0.049996 WAIST:0.997122,-0.000000,0.074160,0.015732 WAIST_JOINT0:0.996935,-0.000000,0.072621,0.029091 WAIST_JOINT1:0.998563,0.053119,0.000000,-0.007035 END:
KINECT_DATA_Sensor  AnkleLeft:-0.049373,-0.664329,0.082934,0.741182 AnkleRight:0.095683,0.750972,0.089519,0.647204 ElbowLeft:-0.020266,0.820629,-0.194849,-0.536834 ElbowRight:-0.241307,0.929103,0.125078,0.250788 FootLeft:0.000000,0.000000,0.000000,0.000000 FootRight:0.000000,0.000000,0.000000,0.000000 HandLeft:0.044853,-0.401246,-0.130400,0.905531 HandRight:0.311184,0.345013,-0.532189,0.707747 HandTipLeft:0.000000,0.000000,0.000000,0.000000 HandTipRight:0.000000,0.000000,0.000000,0.000000 Head:0.000000,0.000000,0.000000,0.000000 HipLeft:0.077881,-0.678686,0.721122,-0.115333 HipRight:-0.180475,0.677496,0.681533,-0.209621 KneeLeft:0.021529,-0.652101,0.033521,0.757084 KneeRight:-0.003851,0.758184,0.051547,0.649988 Neck:-0.073842,0.003512,0.994941,-0.068031 ShoulderLeft:0.077826,0.768426,-0.634802,-0.022163 ShoulderRight:-0.015142,0.797754,0.595728,-0.092019 SpineBase:-0.074680,0.010163,0.996749,-0.028494 SpineMid:-0.074034,0.010145,0.996797,-0.028500 SpineShoulder:-0.073753,0.005078,0.996135,-0.047433 ThumbLeft:0.000000,0.000000,0.000000,0.000000 ThumbRight:0.000000,0.000000,0.000000,0.000000 WristLeft:0.116565,-0.385414,-0.088594,0.911054 WristRight:0.263384,0.326596,-0.523019,0.741899 END:
KINECT_DATA POSITION:0.116172,0.036324,-3.998291 HEAD_JOINT1:0.984814,0.168588,-0.000000,0.041465 LARM_JOINT2:0.819509,0.000000,0.017878,-0.572787 LARM_JOINT3:0.967743,0.000000,-0.198785,-0.154787 LLEG_JOINT2:0.999693,0.006516,0.000000,0.023905 LLEG_JOINT4:0.996248,0.086219,0.000000,-0.007529 RARM_JOINT2:0.846159,0.000000,0.232046,0.479760 RARM_JOINT3:0.772989,0.000000,0.547564,0.320409 RLEG_JOINT2:0.997871,0.038441,0.000000,-0.052689 RLEG_JOINT4:0.994383,0.093409,0.000000,0.049770 WAIST:0.997112,-0.000000,0.074361,0.015451 WAIST_JOINT0:0.996452,-0.000000,0.078953,0.029152 WAIST_JOINT1:0.998717,0.050519,0.000000,-0.003554 END:
KINECT_DATA_Sensor  AnkleLeft:0.058854,0.737014,-0.076863,-0.668908 AnkleRight:0.091938,0.728939,0.093302,0.671930 ElbowLeft:-0.020314,0.823020,-0.195234,-0.533019 ElbowRight:-0.234360,0.928407,0.129365,0.257683 FootLeft:0.000000,0.000000,0.000000,0.000000 FootRight:0.000000,0.000000,0.000000,0.000000 HandLeft:-0.087486,0.704600,0.115399,-0.694672 HandRight:0.296126,0.360172,-0.536046,0.703733 HandTipLeft:0.000000,0.000000,0.000000,0.000000 HandTipRight:0.000000,0.000000,0.000000,0.000000 Head:0.000000,0.000000,0.000000,0.000000 HipLeft:0.078344,-0.678990,0.720872,-0.114797 HipRight:-0.181348,0.677538,0.681461,-0.208965 KneeLeft:0.021582,-0.651980,0.033287,0.757198 KneeRight:-0.003831,0.758313,0.052609,0.649753 Neck:-0.079820,0.008421,0.994624,-0.065429 ShoulderLeft:0.072250,0.767773,-0.636250,-0.022150 ShoulderRight:-0.029004,0.797297,0.594334,-0.101210 SpineBase:-0.074837,0.010615,0.996759,-0.027533 SpineMid:-0.077169,0.010679,0.996581,-0.027508 SpineShoulder:-0.079781,0.008353,0.995755,-0.045128 ThumbLeft:0.000000,0.000000,0.000000,0.000000 ThumbRight:0.000000,0.000000,0.000000,0.000000 WristLeft:0.139650,-0.688229,-0.041273,0.710728 WristRight:0.251694,0.340989,-0.531497,0.733408 END:
KINECT_DATA POSITION:0.091821,0.076064,-4.051876 HEAD_JOINT1:0.985024,0.168722,-0.000000,0.035512 LARM_JOINT2:0.814064,0.000000,0.040586,-0.579356 LARM_JOINT3:0.965210,0.000000,-0.210268,-0.155423 LLEG_JOINT2:0.999710,0.005941,0.000000,0.023335 LLEG_JOINT4:0.996403,0.084529,0.000000,-0.005944 RARM_JOINT2:0.845950,0.000000,0.236527,0.477938 RARM_JOINT3:0.775625,0.000000,0.550832,0.308204 RLEG_JOINT2:0.997812,0.038885,0.000000,-0.053479 RLEG_JOINT4:0.994418,0.091906,0.000000,0.051819 WAIST:0.997019,-0.000000,0.075627,0.015307 WAIST_JOINT0:0.997784,-0.000000,0.060556,0.027562 WAIST_JOINT1:0.998747,0.050027,0.000000,-0.001477 END:
KINECT_DATA_Sensor  AnkleLeft:0.057356,0.743241,-0.075688,-0.662250 AnkleRight:0.093876,0.743407,0.089982,0.656077 ElbowLeft:-0.006303,0.805763,-0.196135,-0.558783 ElbowRight:-0.237224,0.929623,0.126596,0.251989 FootLeft:0.000000,0.000000,0.000000,0.000000 FootRight:0.000000,0.000000,0.000000,0.000000 HandLeft:0.049006,-0.473902,-0.132075,0.869236 HandRight:0.273748,0.359983,-0.574973,0.681821 HandTipLeft:0.000000,0.000000,0.000000,0.000000 HandTipRight:0.000000,0.000000,0.000000,0.000000 Head:0.000000,0.000000,0.000000,0.000000 HipLeft:0.077643,-0.679345,0.720765,-0.113844 HipRight:-0.182438,0.677539,0.681151,-0.209023 KneeLeft:0.021516,-0.651058,0.032391,0.758031 KneeRight:-0.004318,0.759143,0.053545,0.648703 Neck:-0.062004,0.009071,0.995878,-0.065578 ShoulderLeft:0.052878,0.767449,-0.638922,-0.002148 ShoulderRight:-0.026086,0.797995,0.594948,-0.092517 SpineBase:-0.076070,0.011289,0.996672,-0.027031 SpineMid:-0.068923,0.011095,0.997192,-0.027111 SpineShoulder:-0.061889,0.009390,0.997030,-0.044862 ThumbLeft:0.000000,0.000000,0.000000,0.000000 ThumbRight:0.000000,0.000000,0.000000,0.000000 WristLeft:0.121163,-0.456854,-0.079472,0.877661 WristRight:0.237372,0.363284,-0.534731,0.725080 END:
KINECT_DATA POSITION:0.074300,0.081713,-4.060137 HEAD_JOINT1:0.984985,0.169240,-0.000000,0.034099 LARM_JOINT2:0.815876,0.000000,0.025372,-0.577670 LARM_JOINT3:0.967060,0.000000,-0.202276,-0.154529 LLEG_JOINT2:0.999703,0.005798,0.000000,0.023680 LLEG_JOINT4:0.996436,0.084228,0.000000,-0.004668 RARM_JOINT2:0.844855,0.000000,0.244569,0.475821 RARM_JOINT3:0.784621,0.000000,0.547069,0.291693 RLEG_JOINT2:0.997827,0.039526,0.000000,-0.052707 RLEG_JOINT4:0.994582,0.090062,0.000000,0.051919 WAIST:0.997023,-0.000000,0.075635,0.014965 WAIST_JOINT0:0.997556,-0.000000,0.063740,0.028625 WAIST_JOINT1:0.998773,0.049519,0.000000,-0.000664 END:
KINECT_DATA_Sensor  AnkleLeft:-0.047976,-0.669698,0.082021,0.736530 AnkleRight:0.093936,0.746663,0.088306,0.652589 ElbowLeft:-0.015419,0.817734,-0.193846,-0.541753 ElbowRight:-0.243585,0.928162,0.121044,0.254027 FootLeft:0.000000,0.000000,0.000000,0.000000 FootRight:0.000000,0.000000,0.000000,0.000000 HandLeft:0.059560,-0.519756,-0.133055,0.841785 HandRight:0.255068,0.347982,-0.575242,0.694943 HandTipLeft:0.000000,0.000000,0.000000,0.000000 HandTipRight:0.000000,0.000000,0.000000,0.000000 Head:0.000000,0.000000,0.000000,0.000000 HipLeft:0.077828,-0.679586,0.720551,-0.113632 HipRight:-0.182763,0.677434,0.681312,-0.208555 KneeLeft:0.021605,-0.651074,0.032318,0.758018 KneeRight:-0.003556,0.759149,0.053769,0.648682 Neck:-0.064963,0.009658,0.995712,-0.065151 ShoulderLeft:0.064342,0.766147,-0.639309,-0.012760 ShoulderRight:-0.017965,0.797652,0.596522,-0.087124 SpineBase:-0.076046,0.011538,0.996683,-0.026602 SpineMid:-0.070376,0.011387,0.997099,-0.026667 SpineShoulder:-0.064833,0.010074,0.996858,-0.044383 ThumbLeft:0.000000,0.000000,0.000000,0.000000 ThumbRight:0.000000,0.000000,0.000000,0.000000 WristLeft:0.124751,-0.503540,-0.073298,0.851770 WristRight:0.234877,0.358701,-0.537197,0.726351 END:
KINECT_DATA POSITION:0.021954,0.067335,-4.046094 HEAD_JOINT1:0.985007,0.169191,-0.000000,0.033708 LARM_JOINT2:0.814963,0.000000,0.029008,-0.578786 LARM_JOINT3:0.965140,0.000000,-0.209725,-0.156588 LLEG_JOINT2:0.999694,0.005734,0.000000,0.024074 LLEG_JOINT4:0.996180,0.087145,0.000000,-0.005614 RARM_JOINT2:0.845707,0.000000,0.245596,0.473775 RARM_JOINT3:0.791241,0.000000,0.545175,0.276987 RLEG_JOINT2:0.997874,0.039028,0.000000,-0.052202 RLEG_JOINT4:0.994622,0.090039,0.000000,0.051195 WAIST:0.997074,-0.000000,0.075022,0.014666 WAIST_JOINT0:0.997820,-0.000000,0.059618,0.028294 WAIST_JOINT1:0.998795,0.049083,-0.000000,0.000011 END:
KINECT_DATA_Sensor  AnkleLeft:0.058651,0.739112,-0.077794,-0.666500 AnkleRight:0.093062,0.744693,0.088449,0.654941 ElbowLeft:-0.013341,0.816225,-0.193845,-0.544080 ElbowRight:-0.247209,0.923944,0.118442,0.266808 FootLeft:0.000000,0.000000,0.000000,0.000000 FootRight:0.000000,0.000000,0.000000,0.000000 HandLeft:0.056195,-0.451102,-0.153850,0.877314 HandRight:0.219885,0.369463,-0.566563,0.702961 HandTipLeft:0.000000,0.000000,0.000000,0.000000 HandTipRight:0.000000,0.000000,0.000000,0.000000 Head:0.000000,0.000000,0.000000,0.000000 HipLeft:0.078551,-0.679863,0.720193,-0.113746 HipRight:-0.182834,0.677554,0.681404,-0.207799 KneeLeft:0.021713,-0.651554,0.032357,0.757600 KneeRight:-0.003672,0.758735,0.053280,0.649206 Neck:-0.060967,0.009730,0.995984,-0.064839 ShoulderLeft:0.059361,0.765491,-0.640652,-0.008022 ShoulderRight:-0.018005,0.797222,0.597352,-0.085337 SpineBase:-0.075406,0.011706,0.996744,-0.026041 SpineMid:-0.068056,0.011513,0.997273,-0.026127 SpineShoulder:-0.060805,0.010416,0.997124,-0.044029 ThumbLeft:0.000000,0.000000,0.000000,0.000000 ThumbRight:0.000000,0.000000,0.000000,0.000000 WristLeft:0.117760,-0.434723,-0.084889,0.888787 WristRight:0.208659,0.372168,-0.551147,0.717070 END:
KINECT_DATA POSITION:-0.061531,0.008320,-4.024780 HEAD_JOINT1:0.985086,0.168155,-0.000000,0.036474 LARM_JOINT2:0.815049,0.000000,0.033976,-0.578394 LARM_JOINT3:0.962031,0.000000,-0.220163,-0.161324 LLEG_JOINT2:0.999685,0.005641,0.000000,0.024443 LLEG_JOINT4:0.996112,0.087868,0.000000,-0.006398 RARM_JOINT2:0.839132,0.000000,0.256336,0.479740 RARM_JOINT3:0.822948,0.000000,0.505183,0.259896 RLEG_JOINT2:0.997827,0.039170,0.000000,-0.052981 RLEG_JOINT4:0.994559,0.090851,0.000000,0.050967 WAIST:0.997064,-0.000000,0.075087,0.015022 WAIST_JOINT0:0.997428,-0.000000,0.065480,0.029155 WAIST_JOINT1:0.998832,0.048314,-0.000000,0.000027 END:
KINECT_DATA_Sensor  AnkleLeft:0.058108,0.729684,-0.078875,-0.676730 AnkleRight:0.093572,0.747661,0.089143,0.651383 ElbowLeft:-0.011068,0.814377,-0.195725,-0.546224 ElbowRight:-0.247540,0.929479,0.108343,0.251105 FootLeft:0.000000,0.000000,0.000000,0.000000 FootRight:0.000000,0.000000,0.000000,0.000000 HandLeft:0.088750,-0.569734,-0.164274,0.800338 HandRight:0.191098,0.369802,-0.571057,0.707546 HandTipLeft:0.000000,0.000000,0.000000,0.000000 HandTipRight:0.000000,0.000000,0.000000,0.000000 Head:0.000000,0.000000,0.000000,0.000000 HipLeft:0.079147,-0.679718,0.720342,-0.113254 HipRight:-0.183486,0.677909,0.680984,-0.207446 KneeLeft:0.022275,-0.651478,0.032830,0.757629 KneeRight:-0.003921,0.758790,0.053644,0.649110 Neck:-0.067004,0.010545,0.995645,-0.063953 ShoulderLeft:0.050642,0.766426,-0.640324,-0.003497 ShoulderRight:-0.035005,0.798463,0.592882,-0.098603 SpineBase:-0.075476,0.011872,0.996758,-0.025202 SpineMid:-0.071100,0.011762,0.997080,-0.025254 SpineShoulder:-0.066845,0.011114,0.996765,-0.043225 ThumbLeft:0.000000,0.000000,0.000000,0.000000 ThumbRight:0.000000,0.000000,0.000000,0.000000 WristLeft:0.129187,-0.557057,-0.070764,0.817307 WristRight:0.176958,0.386649,-0.521751,0.739570 END:
KINECT_DATA POSITION:-0.162025,-0.077135,-4.054439 HEAD_JOINT1:0.985161,0.167111,-0.000000,0.039146 LARM_JOINT2:0.815877,0.000000,0.026703,-0.577608 LARM_JOINT3:0.964230,0.000000,-0.211010,-0.160419 LLEG_JOINT2:0.999681,0.005372,0.000000,0.024666 LLEG_JOINT4:0.996244,0.086262,0.000000,-0.007543 RARM_JOINT2:0.833493,0.000000,0.274645,0.479437 RARM_JOINT3:0.840188,0.000000,0.483604,0.245382 RLEG_JOINT2:0.997795,0.039442,0.000000,-0.053385 RLEG_JOINT4:0.994965,0.086676,0.000000,0.050309 WAIST:0.997188,-0.000000,0.073265,0.015733 WAIST_JOINT0:0.997704,-0.000000,0.061104,0.029202 WAIST_JOINT1:0.998830,0.048354,0.000000,-0.001022 END:
KINECT_DATA_Sensor  AnkleLeft:0.059376,0.755785,-0.075575,-0.647728 AnkleRight:0.090749,0.745811,0.086416,0.654265 ElbowLeft:-0.015336,0.820992,-0.194222,-0.536670 ElbowRight:-0.251111,0.941391,0.109539,0.196791 FootLeft:0.000000,0.000000,0.000000,0.000000 FootRight:0.000000,0.000000,0.000000,0.000000 HandLeft:0.062727,-0.490132,-0.151653,0.856059 HandRight:-0.208640,-0.251311,0.755817,-0.567496 HandTipLeft:0.000000,0.000000,0.000000,0.000000 HandTipRight:0.000000,0.000000,0.000000,0.000000 Head:0.000000,0.000000,0.000000,0.000000 HipLeft:0.080737,-0.679150,0.720546,-0.114236 HipRight:-0.182606,0.678633,0.680702,-0.206778 KneeLeft:0.023168,-0.652801,0.033303,0.756443 KneeRight:-0.003430,0.757623,0.053638,0.650475 Neck:-0.062685,0.010150,0.995934,-0.063898 ShoulderLeft:0.052281,0.766664,-0.639906,-0.003818 ShoulderRight:-0.027492,0.799785,0.592584,-0.091826 SpineBase:-0.073697,0.011555,0.996901,-0.024983 SpineMid:-0.068061,0.011414,0.997301,-0.025047 SpineShoulder:-0.062526,0.010747,0.997049,-0.043234 ThumbLeft:0.000000,0.000000,0.000000,0.000000 ThumbRight:0.000000,0.000000,0.000000,0.000000 WristLeft:0.120631,-0.474935,-0.086026,0.867459 WristRight:0.187722,0.361710,-0.453698,0.792518 END:
KINECT_DATA POSITION:-0.215043,-0.126569,-4.052484 HEAD_JOINT1:0.984990,0.167909,-0.000000,0.040025 LARM_JOINT2:0.815064,0.000000,0.030289,-0.578578 LARM_JOINT3:0.964430,0.000000,-0.210237,-0.160237 LLEG_JOINT2:0.999668,0.006060,0.000000,0.025049 LLEG_JOINT4:0.996180,0.087019,0.000000,-0.007339 RARM_JOINT2:0.852419,0.000000,0.224250,0.472329 RARM_JOINT3:0.809028,0.000000,0.517678,0.278357 RLEG_JOINT2:0.997904,0.039201,0.000000,-0.051488 RLEG_JOINT4:0.994825,0.089150,0.000000,0.048739 WAIST:0.997410,-0.000000,0.070213,0.015597 WAIST_JOINT0:0.998449,-0.000000,0.049062,0.026309 WAIST_JOINT1:0.998828,0.048375,0.000000,-0.001493 END:
KINECT_DATA_Sensor  AnkleLeft:0.058611,0.744452,-0.078131,-0.660493 AnkleRight:0.092360,0.741444,0.088055,0.658770 ElbowLeft:-0.012974,0.821018,-0.193651,-0.536899 ElbowRight:-0.237136,0.921540,0.136677,0.275409 FootLeft:0.000000,0.000000,0.000000,0.000000 FootRight:0.000000,0.000000,0.000000,0.000000 HandLeft:0.077219,-0.604046,-0.136986,0.781282 HandRight:0.213828,0.376603,-0.566489,0.701098 HandTipLeft:0.000000,0.000000,0.000000,0.000000 HandTipRight:0.000000,0.000000,0.000000,0.000000 Head:0.000000,0.000000,0.000000,0.000000 HipLeft:0.082446,-0.679259,0.720043,-0.115534 HipRight:-0.180224,0.679381,0.681209,-0.204733 KneeLeft:0.022871,-0.655101,0.033909,0.754434 KneeRight:-0.002061,0.755615,0.052350,0.652917 Neck:-0.050642,0.009118,0.996623,-0.063993 ShoulderLeft:0.047709,0.767434,-0.639344,0.002901 ShoulderRight:-0.016571,0.798488,0.596449,-0.079946 SpineBase:-0.070652,0.011037,0.997130,-0.024856 SpineMid:-0.060540,0.010784,0.997795,-0.024966 SpineShoulder:-0.050469,0.009896,0.997737,-0.043318 ThumbLeft:0.000000,0.000000,0.000000,0.000000 ThumbRight:0.000000,0.000000,0.000000,0.000000 WristLeft:0.129320,-0.590494,-0.069215,0.793601 WristRight:0.163959,0.369719,-0.520477,0.752017 END:
KINECT_DATA POSITION:-0.248082,-0.189613,-4.023933 HEAD_JOINT1:0.984392,0.170646,-0.000000,0.043033 LARM_JOINT2:0.815970,0.000000,0.020527,-0.577730 LARM_JOINT3:0.965216,0.000000,-0.205786,-0.161280 LLEG_JOINT2:0.999640,0.008221,0.000000,0.025527 LLEG_JOINT4:0.996382,0.084754,0.000000,-0.006281 RARM_JOINT2:0.861877,0.000000,0.188459,0.470799 RARM_JOINT3:0.783619,0.000000,0.542233,0.303192 RLEG_JOINT2:0.998032,0.038891,0.000000,-0.049195 RLEG_JOINT4:0.995278,0.086315,0.000000,0.044404 WAIST:0.997811,-0.000000,0.064381,0.015114 WAIST_JOINT0:0.998605,-0.000000,0.046441,0.025115 WAIST_JOINT1:0.998828,0.048354,0.000000,-0.001887 END:
KINECT_DATA_Sensor  AnkleLeft:0.058021,0.752022,-0.079037,-0.651805 AnkleRight:0.089038,0.738455,0.086865,0.662730 ElbowLeft:-0.018996,0.831671,-0.190971,-0.521050 ElbowRight:-0.219319,0.914482,0.162212,0.298846 FootLeft:0.000000,0.000000,0.000000,0.000000 FootRight:0.000000,0.000000,0.000000,0.000000 HandLeft:0.060286,-0.544027,-0.143872,0.824440 HandRight:0.217878,0.367092,-0.565523,0.705660 HandTipLeft:0.000000,0.000000,0.000000,0.000000 HandTipRight:0.000000,0.000000,0.000000,0.000000 Head:0.000000,0.000000,0.000000,0.000000 HipLeft:0.086487,-0.679538,0.718723,-0.119103 HipRight:-0.177064,0.680400,0.681868,-0.201894 KneeLeft:0.021354,-0.659518,0.035285,0.750556 KneeRight:-0.000520,0.751754,0.051015,0.657467 Neck:-0.047758,0.008572,0.996769,-0.064004 ShoulderLeft:0.051716,0.767941,-0.638430,0.000174 ShoulderRight:-0.008667,0.797157,0.599261,-0.073152 SpineBase:-0.064813,0.010455,0.997537,-0.024681 SpineMid:-0.056169,0.010241,0.998061,-0.024771 SpineShoulder:-0.047580,0.009479,0.997886,-0.043239 ThumbLeft:0.000000,0.000000,0.000000,0.000000 ThumbRight:0.000000,0.000000,0.000000,0.000000 WristLeft:0.121370,-0.528939,-0.084691,0.835655 WristRight:0.170691,0.356443,-0.531562,0.749170 END:
KINECT_DATA POSITION:-0.266427,-0.200762,-3.993726 HEAD_JOINT1:0.984076,0.171676,-0.000000,0.046070 LARM_JOINT2:0.816486,0.000000,0.015500,-0.577157 LARM_JOINT3:0.966843,0.000000,-0.201720,-0.156597 LLEG_JOINT2:0.999634,0.008766,0.000000,0.025607 LLEG_JOINT4:0.996396,0.084482,0.000000,-0.007538 RARM_JOINT2:0.852685,0.000000,0.221614,0.473091 RARM_JOINT3:0.797620,0.000000,0.532777,0.282757 RLEG_JOINT2:0.998060,0.038020,0.000000,-0.049293 RLEG_JOINT4:0.994932,0.090346,0.000000,0.044147 WAIST:0.998027,-0.000000,0.060915,0.015223 WAIST_JOINT0:0.998633,-0.000000,0.045740,0.025310 WAIST_JOINT1:0.998827,0.048348,0.000000,-0.002498 END:
KINECT_DATA_Sensor  AnkleLeft:0.058810,0.756011,-0.078366,-0.647185 AnkleRight:0.091527,0.737737,0.088845,0.662928 ElbowLeft:-0.022399,0.836788,-0.189628,-0.513153 ElbowRight:-0.233924,0.919690,0.141999,0.281577 FootLeft:0.000000,0.000000,0.000000,0.000000 FootRight:0.000000,0.000000,0.000000,0.000000 HandLeft:0.085412,-0.652822,-0.123397,0.742497 HandRight:0.281495,0.264330,-0.560970,0.732259 HandTipLeft:0.000000,0.000000,0.000000,0.000000 HandTipRight:0.000000,0.000000,0.000000,0.000000 Head:0.000000,0.000000,0.000000,0.000000 HipLeft:0.089220,-0.678961,0.718566,-0.121303 HipRight:-0.175534,0.680786,0.682349,-0.200295 KneeLeft:0.021160,-0.662110,0.035745,0.748255 KneeRight:-0.000884,0.749454,0.050391,0.660135 Neck:-0.047051,0.008330,0.996806,-0.063995 ShoulderLeft:0.052402,0.767812,-0.638529,-0.000276 ShoulderRight:-0.007024,0.797114,0.599523,-0.071638 SpineBase:-0.061359,0.010204,0.997763,-0.024505 SpineMid:-0.054079,0.010025,0.998184,-0.024579 SpineShoulder:-0.046872,0.009293,0.997925,-0.043166 ThumbLeft:0.000000,0.000000,0.000000,0.000000 ThumbRight:0.000000,0.000000,0.000000,0.000000 WristLeft:0.131257,-0.641660,-0.067257,0.752676 WristRight:0.235668,0.265781,-0.500048,0.789793 END:
KINECT_DATA POSITION:-0.190413,-0.203737,-3.916299 HEAD_JOINT1:0.984181,0.171545,-0.000000,0.044281 LARM_JOINT2:0.816305,0.000000,0.014756,-0.577433 LARM_JOINT3:0.969477,0.000000,-0.191154,-0.153539 LLEG_JOINT2:0.999641,0.008504,0.000000,0.025395 LLEG_JOINT4:0.996204,0.086821,0.000000,-0.006304 RARM_JOINT2:0.834065,0.000000,0.303339,0.460782 RARM_JOINT3:0.840846,0.000000,0.490557,0.228762 RLEG_JOINT2:0.998020,0.037525,0.000000,-0.050487 RLEG_JOINT4:0.994540,0.093527,0.000000,0.046282 WAIST:0.997843,-0.000000,0.063822,0.015368 WAIST_JOINT0:0.998356,-0.000000,0.051116,0.025927 WAIST_JOINT1:0.998851,0.047882,0.000000,-0.002158 END:
KINECT_DATA_Sensor  AnkleLeft:0.059296,0.747422,-0.080861,-0.656739 AnkleRight:0.093909,0.739898,0.090263,0.659988 ElbowLeft:-0.022579,0.836254,-0.189417,-0.514092 ElbowRight:-0.284757,0.916438,0.086947,0.267386 FootLeft:0.000000,0.000000,0.000000,0.000000 FootRight:0.000000,0.000000,0.000000,0.000000 HandLeft:0.055085,-0.516826,-0.107392,0.847539 HandRight:0.235954,0.357328,-0.529296,0.732453 HandTipLeft:0.000000,0.000000,0.000000,0.000000 HandTipRight:0.000000,0.000000,0.000000,0.000000 Head:0.000000,0.000000,0.000000,0.000000 HipLeft:0.088026,-0.678899,0.719074,-0.119498 HipRight:-0.178131,0.680242,0.681839,-0.201581 KneeLeft:0.021247,-0.659938,0.035546,0.750178 KneeRight:-0.002180,0.751379,0.050673,0.657919 Neck:-0.052369,0.008813,0.996568,-0.063501 ShoulderLeft:0.056648,0.767539,-0.638470,-0.005652 ShoulderRight:-0.009493,0.797662,0.598388,-0.074677 SpineBase:-0.064247,0.010772,0.997591,-0.023848 SpineMid:-0.058165,0.010626,0.997964,-0.023913 SpineShoulder:-0.052187,0.009793,0.997676,-0.042695 ThumbLeft:0.000000,0.000000,0.000000,0.000000 ThumbRight:0.000000,0.000000,0.000000,0.000000 WristLeft:0.118347,-0.504741,-0.084484,0.850937 WristRight:0.170187,0.323444,-0.526744,0.767438 END:
