EastLYD/RoboCupatHomeSim/InteractiveCleanUp/JapanOpen2016/Motion_Data/File31.dat
KINECT_DATA POSITION:11.697074,-0.541100,9.168112 HEAD_JOINT1:0.976110,0.166654,-0.000000,0.139412 LARM_JOINT2:0.839000,0.000000,-0.046931,-0.542104 LARM_JOINT3:0.954894,0.000000,-0.187075,-0.230608 LLEG_JOINT2:0.998759,0.018779,0.000000,0.046127 LLEG_JOINT4:0.995882,0.087145,0.000000,-0.024998 RARM_JOINT2:0.782073,0.000000,-0.062141,0.620081 RARM_JOINT3:0.958441,0.000000,0.252411,0.132961 RLEG_JOINT2:0.999450,0.020244,0.000000,-0.026254 RLEG_JOINT4:0.996331,0.078157,0.000000,0.034859 WAIST:0.999705,0.000000,-0.023970,-0.003882 WAIST_JOINT0:0.998068,0.000000,-0.062108,-0.001853 WAIST_JOINT1:0.997173,0.072517,0.000000,-0.019655 END:
KINECT_DATA_Sensor  AnkleLeft:0.063616,0.740900,-0.086084,-0.663031 AnkleRight:0.073706,0.676606,0.065038,0.729755 ElbowLeft:-0.037317,0.938056,-0.183836,-0.291312 ElbowRight:0.025820,0.796794,0.179636,0.576354 FootLeft:0.000000,0.000000,0.000000,0.000000 FootRight:0.000000,0.000000,0.000000,0.000000 HandLeft:-0.017176,0.862523,0.169776,-0.476378 HandRight:-0.119972,0.886222,-0.084812,0.439346 HandTipLeft:0.000000,0.000000,0.000000,0.000000 HandTipRight:0.000000,0.000000,0.000000,0.000000 Head:0.000000,0.000000,0.000000,0.000000 HipLeft:0.132504,-0.678652,0.699341,-0.181095 HipRight:-0.099299,0.676025,0.710369,-0.168835 KneeLeft:-0.017698,0.723004,-0.042673,-0.689297 KneeRight:-0.006149,0.690543,0.035723,0.722382 Neck:0.061544,-0.026150,0.993884,-0.087877 ShoulderLeft:-0.012728,0.790228,-0.603227,0.107217 ShoulderRight:0.066930,0.784708,0.616177,-0.008910 SpineBase:0.023274,-0.020115,0.998331,-0.048875 SpineMid:0.042052,-0.021031,0.997716,-0.048488 SpineShoulder:0.061373,-0.023959,0.995574,-0.067016 ThumbLeft:0.000000,0.000000,0.000000,0.000000 ThumbRight:0.000000,0.000000,0.000000,0.000000 WristLeft:-0.093970,0.861528,0.116163,-0.485227 WristRight:-0.141915,0.883884,-0.031289,0.444557 END:
KINECT_DATA POSITION:11.646621,-0.541221,9.132934 HEAD_JOINT1:0.975966,0.166838,-0.000000,0.140195 LARM_JOINT2:0.839011,0.000000,-0.046849,-0.542093 LARM_JOINT3:0.954573,0.000000,-0.190563,-0.229076 LLEG_JOINT2:0.998750,0.017572,0.000000,0.046800 LLEG_JOINT4:0.995928,0.086829,0.000000,-0.024232 RARM_JOINT2:0.781827,0.000000,-0.061112,0.620493 RARM_JOINT3:0.953929,0.000000,0.268335,0.134222 RLEG_JOINT2:0.999457,0.020247,0.000000,-0.026002 RLEG_JOINT4:0.996498,0.076850,0.000000,0.032963 WAIST:0.999697,0.000000,-0.024347,-0.003704 WAIST_JOINT0:0.998048,0.000000,-0.062428,-0.001843 WAIST_JOINT1:0.997146,0.072777,0.000000,-0.020071 END:
KINECT_DATA_Sensor  AnkleLeft:0.061395,0.741418,-0.086185,-0.662648 AnkleRight:0.071798,0.676761,0.065137,0.729793 ElbowLeft:-0.037295,0.937740,-0.183676,-0.292431 ElbowRight:0.025585,0.796918,0.179171,0.576337 FootLeft:0.000000,0.000000,0.000000,0.000000 FootRight:0.000000,0.000000,0.000000,0.000000 HandLeft:-0.024598,0.850783,0.170543,-0.496466 HandRight:-0.180724,0.888260,-0.109854,0.407756 HandTipLeft:0.000000,0.000000,0.000000,0.000000 HandTipRight:0.000000,0.000000,0.000000,0.000000 Head:0.000000,0.000000,0.000000,0.000000 HipLeft:0.132698,-0.678475,0.699408,-0.181360 HipRight:-0.098833,0.676126,0.710311,-0.168948 KneeLeft:-0.019166,0.723158,-0.042379,-0.689114 KneeRight:-0.005834,0.690308,0.035419,0.722625 Neck:0.061846,-0.026332,0.993831,-0.088209 ShoulderLeft:-0.012447,0.789792,-0.603770,0.107402 ShoulderRight:0.067645,0.784250,0.616685,-0.008644 SpineBase:0.023611,-0.020473,0.998303,-0.049134 SpineMid:0.042362,-0.021393,0.997683,-0.048741 SpineShoulder:0.061668,-0.024178,0.995534,-0.067268 ThumbLeft:0.000000,0.000000,0.000000,0.000000 ThumbRight:0.000000,0.000000,0.000000,0.000000 WristLeft:-0.091672,0.849881,0.119846,-0.504912 WristRight:-0.144335,0.894407,-0.029678,0.422283 END:
KINECT_DATA POSITION:11.621290,-0.554562,9.163690 HEAD_JOINT1:0.975922,0.166358,-0.000000,0.141074 LARM_JOINT2:0.839370,0.000000,-0.046406,-0.541576 LARM_JOINT3:0.954465,0.000000,-0.194231,-0.226433 LLEG_JOINT2:0.998732,0.018138,0.000000,0.046953 LLEG_JOINT4:0.995676,0.088472,0.000000,-0.028335 RARM_JOINT2:0.781771,0.000000,-0.055607,0.621081 RARM_JOINT3:0.940092,0.000000,0.308766,0.144535 RLEG_JOINT2:0.999478,0.019040,0.000000,-0.026111 RLEG_JOINT4:0.996190,0.080585,0.000000,0.033332 WAIST:0.999691,0.000000,-0.024628,-0.003471 WAIST_JOINT0:0.998057,0.000000,-0.062285,-0.001407 WAIST_JOINT1:0.997146,0.072731,0.000000,-0.020252 END:
KINECT_DATA_Sensor  AnkleLeft:0.065463,0.740673,-0.085146,-0.663226 AnkleRight:0.074004,0.676583,0.066496,0.729615 ElbowLeft:-0.037468,0.937437,-0.184394,-0.292928 ElbowRight:0.020271,0.791307,0.176845,0.584934 FootLeft:0.000000,0.000000,0.000000,0.000000 FootRight:0.000000,0.000000,0.000000,0.000000 HandLeft:-0.035543,0.833440,0.168669,-0.525038 HandRight:-0.223675,0.837708,-0.183386,0.463232 HandTipLeft:0.000000,0.000000,0.000000,0.000000 HandTipRight:0.000000,0.000000,0.000000,0.000000 Head:0.000000,0.000000,0.000000,0.000000 HipLeft:0.133125,-0.678309,0.699485,-0.181371 HipRight:-0.098896,0.676330,0.710162,-0.168725 KneeLeft:-0.019063,0.723363,-0.043054,-0.688861 KneeRight:-0.006610,0.690143,0.034503,0.722820 Neck:0.061669,-0.026203,0.993843,-0.088246 ShoulderLeft:-0.011829,0.789654,-0.604060,0.106855 ShoulderRight:0.068028,0.784315,0.616565,-0.008351 SpineBase:0.023873,-0.020462,0.998310,-0.048871 SpineMid:0.042403,-0.021366,0.997695,-0.048483 SpineShoulder:0.061488,-0.024081,0.995550,-0.067227 ThumbLeft:0.000000,0.000000,0.000000,0.000000 ThumbRight:0.000000,0.000000,0.000000,0.000000 WristLeft:-0.088194,0.832611,0.123772,-0.532599 WristRight:-0.168923,0.853041,-0.063631,0.489630 END:
KINECT_DATA POSITION:11.661110,-0.577889,9.349084 HEAD_JOINT1:0.976199,0.166070,-0.000000,0.139487 LARM_JOINT2:0.839044,0.000000,-0.046220,-0.542097 LARM_JOINT3:0.956063,0.000000,-0.190090,-0.223179 LLEG_JOINT2:0.998746,0.019844,0.000000,0.045958 LLEG_JOINT4:0.996288,0.081574,0.000000,-0.027508 RARM_JOINT2:0.791331,0.000000,-0.020463,0.611045 RARM_JOINT3:0.915741,0.000000,0.369883,0.156858 RLEG_JOINT2:0.999452,0.019361,0.000000,-0.026847 RLEG_JOINT4:0.996301,0.079140,0.000000,0.033496 WAIST:0.999730,0.000000,-0.023003,-0.003309 WAIST_JOINT0:0.998269,0.000000,-0.058809,-0.000513 WAIST_JOINT1:0.997214,0.072067,0.000000,-0.019243 END:
KINECT_DATA_Sensor  AnkleLeft:0.061774,0.739291,-0.081530,-0.665572 AnkleRight:0.072894,0.678766,0.066041,0.727737 ElbowLeft:-0.038138,0.936275,-0.184754,-0.296311 ElbowRight:-0.007702,0.805501,0.172939,0.566746 FootLeft:0.000000,0.000000,0.000000,0.000000 FootRight:0.000000,0.000000,0.000000,0.000000 HandLeft:-0.047931,0.893558,0.143719,-0.422613 HandRight:-0.338589,0.874492,-0.177396,0.298582 HandTipLeft:0.000000,0.000000,0.000000,0.000000 HandTipRight:0.000000,0.000000,0.000000,0.000000 Head:0.000000,0.000000,0.000000,0.000000 HipLeft:0.133263,-0.678574,0.699617,-0.179764 HipRight:-0.101648,0.676499,0.709704,-0.168335 KneeLeft:-0.017194,0.722425,-0.043754,-0.689849 KneeRight:-0.006828,0.691213,0.035136,0.721765 Neck:0.058394,-0.024593,0.994136,-0.087631 ShoulderLeft:-0.011024,0.789099,-0.605201,0.104565 ShoulderRight:0.064608,0.784413,0.616760,-0.011393 SpineBase:0.022331,-0.019204,0.998462,-0.046970 SpineMid:0.039996,-0.020032,0.997910,-0.046623 SpineShoulder:0.058175,-0.023037,0.995817,-0.066583 ThumbLeft:0.000000,0.000000,0.000000,0.000000 ThumbRight:0.000000,0.000000,0.000000,0.000000 WristLeft:-0.104351,0.890302,0.110780,-0.429187 WristRight:-0.240945,0.907582,-0.085737,0.333001 END:
KINECT_DATA POSITION:11.841018,-0.542694,9.812784 HEAD_JOINT1:0.977654,0.164381,-0.000000,0.131040 LARM_JOINT2:0.837628,0.000000,-0.042625,-0.544575 LARM_JOINT3:0.956485,0.000000,-0.195581,-0.216530 LLEG_JOINT2:0.998822,0.023845,0.000000,0.042270 LLEG_JOINT4:0.996476,0.081336,0.000000,-0.020476 RARM_JOINT2:0.810128,0.000000,0.082569,0.580410 RARM_JOINT3:0.893316,0.000000,0.432032,0.123832 RLEG_JOINT2:0.999337,0.020815,0.000000,-0.029876 RLEG_JOINT4:0.995865,0.083451,0.000000,0.035908 WAIST:0.999793,0.000000,-0.020135,-0.002966 WAIST_JOINT0:0.998986,0.000000,-0.044982,0.001845 WAIST_JOINT1:0.997506,0.068656,0.000000,-0.016405 END:
KINECT_DATA_Sensor  AnkleLeft:0.061469,0.732171,-0.087104,-0.672725 AnkleRight:0.077236,0.686266,0.069800,0.719862 ElbowLeft:-0.040561,0.930728,-0.184821,-0.312956 ElbowRight:-0.093779,0.820829,0.150553,0.542935 FootLeft:0.000000,0.000000,0.000000,0.000000 FootRight:0.000000,0.000000,0.000000,0.000000 HandLeft:0.003911,-0.640447,-0.149287,0.753343 HandRight:-0.446846,0.848843,-0.181819,0.216186 HandTipLeft:0.000000,0.000000,0.000000,0.000000 HandTipRight:0.000000,0.000000,0.000000,0.000000 Head:0.000000,0.000000,0.000000,0.000000 HipLeft:0.134048,-0.679538,0.699657,-0.175325 HipRight:-0.107552,0.677582,0.708537,-0.165198 KneeLeft:-0.011848,0.720859,-0.044390,-0.691558 KneeRight:-0.007736,0.693005,0.038070,0.719885 Neck:0.044983,-0.019214,0.995352,-0.082955 ShoulderLeft:-0.005769,0.787248,-0.609458,0.093640 ShoulderRight:0.052557,0.784798,0.617127,-0.022016 SpineBase:0.019675,-0.015767,0.998828,-0.041314 SpineMid:0.031988,-0.016275,0.998510,-0.041117 SpineShoulder:0.044641,-0.019807,0.996763,-0.063860 ThumbLeft:0.000000,0.000000,0.000000,0.000000 ThumbRight:0.000000,0.000000,0.000000,0.000000 WristLeft:0.057981,-0.631286,-0.146295,0.759417 WristRight:-0.355396,0.893598,-0.126963,0.243018 END:
KINECT_DATA POSITION:12.115944,-0.487371,10.290968 HEAD_JOINT1:0.981194,0.155824,-0.000000,0.113918 LARM_JOINT2:0.833012,0.000000,-0.032812,-0.552281 LARM_JOINT3:0.958849,0.000000,-0.196803,-0.204642 LLEG_JOINT2:0.998930,0.024286,0.000000,0.039355 LLEG_JOINT4:0.996482,0.081622,0.000000,-0.018986 RARM_JOINT2:0.829442,0.000000,0.351414,0.434205 RARM_JOINT3:0.955277,0.000000,0.273198,0.113173 RLEG_JOINT2:0.999199,0.021348,0.000000,-0.033833 RLEG_JOINT4:0.995136,0.088810,0.000000,0.042638 WAIST:0.999964,0.000000,-0.007949,-0.003049 WAIST_JOINT0:0.999940,-0.000000,0.001474,0.010902 WAIST_JOINT1:0.997994,0.062551,0.000000,-0.009736 END:
KINECT_DATA_Sensor  AnkleLeft:0.061963,0.706858,-0.087373,-0.699198 AnkleRight:0.087676,0.744942,0.066604,0.657981 ElbowLeft:-0.041827,0.914042,-0.183248,-0.359441 ElbowRight:-0.304922,0.906317,0.135027,0.259576 FootLeft:0.000000,0.000000,0.000000,0.000000 FootRight:0.000000,0.000000,0.000000,0.000000 HandLeft:-0.005619,-0.592671,-0.131264,0.794657 HandRight:-0.123292,0.391693,-0.430419,0.803813 HandTipLeft:0.000000,0.000000,0.000000,0.000000 HandTipRight:0.000000,0.000000,0.000000,0.000000 Head:0.000000,0.000000,0.000000,0.000000 HipLeft:0.130642,-0.681705,0.700177,-0.167224 HipRight:-0.121186,0.677081,0.706156,-0.167984 KneeLeft:-0.008826,0.712625,-0.042768,-0.700185 KneeRight:-0.010633,0.701454,0.041252,0.711441 Neck:-0.000901,-0.009617,0.997127,-0.075124 ShoulderLeft:0.007881,0.784877,-0.616264,0.064230 ShoulderRight:0.007234,0.791354,0.607926,-0.064286 SpineBase:0.007767,-0.010780,0.999292,-0.035198 SpineMid:0.003206,-0.010619,0.999317,-0.035246 SpineShoulder:-0.001305,-0.012363,0.998195,-0.058752 ThumbLeft:0.000000,0.000000,0.000000,0.000000 ThumbRight:0.000000,0.000000,0.000000,0.000000 WristLeft:0.070497,-0.579051,-0.147987,0.798643 WristRight:-0.111439,0.402365,-0.371691,0.829174 END:
KINECT_DATA POSITION:12.222157,-0.477646,10.271418 HEAD_JOINT1:0.983754,0.157340,-0.000000,0.086445 LARM_JOINT2:0.829103,0.000000,-0.013743,-0.558927 LARM_JOINT3:0.959901,0.000000,-0.198971,-0.197486 LLEG_JOINT2:0.999160,0.021184,0.000000,0.035083 LLEG_JOINT4:0.996210,0.086008,0.000000,-0.013004 RARM_JOINT2:0.818466,0.000000,0.410422,0.402079 RARM_JOINT3:0.971081,0.000000,0.215373,0.103034 RLEG_JOINT2:0.999074,0.022988,0.000000,-0.036381 RLEG_JOINT4:0.995124,0.088046,0.000000,0.044461 WAIST:0.999979,0.000000,0.006350,-0.001316 WAIST_JOINT0:0.998596,-0.000000,0.047324,0.023810 WAIST_JOINT1:0.998188,0.060170,-0.000000,0.000172 END:
KINECT_DATA_Sensor  AnkleLeft:-0.059814,-0.681491,0.091152,0.723660 AnkleRight:0.086106,0.735568,0.070139,0.668285 ElbowLeft:-0.033523,0.895958,-0.192427,-0.398883 ElbowRight:-0.347992,0.911306,0.110592,0.190242 FootLeft:0.000000,0.000000,0.000000,0.000000 FootRight:0.000000,0.000000,0.000000,0.000000 HandLeft:0.006294,-0.626154,-0.105294,0.772531 HandRight:-0.105477,0.427483,-0.416592,0.795351 HandTipLeft:0.000000,0.000000,0.000000,0.000000 HandTipRight:0.000000,0.000000,0.000000,0.000000 Head:0.000000,0.000000,0.000000,0.000000 HipLeft:0.117848,-0.682620,0.703875,-0.157170 HipRight:-0.128987,0.676643,0.703885,-0.173385 KneeLeft:0.008622,-0.702499,0.038923,0.710568 KneeRight:-0.010625,0.711537,0.042858,0.701260 Neck:-0.047487,0.002657,0.996087,-0.074483 ShoulderLeft:0.021466,0.779652,-0.624726,0.037417 ShoulderRight:-0.039680,0.799506,0.589390,-0.108785 SpineBase:-0.006467,-0.006303,0.999338,-0.035228 SpineMid:-0.027079,-0.005575,0.998993,-0.035351 SpineShoulder:-0.047718,0.000433,0.997313,-0.055583 ThumbLeft:0.000000,0.000000,0.000000,0.000000 ThumbRight:0.000000,0.000000,0.000000,0.000000 WristLeft:0.092246,-0.611535,-0.131484,0.774744 WristRight:-0.134382,0.416486,-0.368820,0.820032 END:
KINECT_DATA POSITION:12.322422,-0.475927,10.176134 HEAD_JOINT1:0.984995,0.157813,-0.000000,0.069863 LARM_JOINT2:0.826080,0.000000,-0.003586,-0.563542 LARM_JOINT3:0.960410,0.000000,-0.200590,-0.193329 LLEG_JOINT2:0.999306,0.018334,0.000000,0.032437 LLEG_JOINT4:0.995880,0.089569,0.000000,-0.014130 RARM_JOINT2:0.819295,0.000000,0.448516,0.357197 RARM_JOINT3:0.972438,0.000000,0.183519,0.143824 RLEG_JOINT2:0.999037,0.022973,0.000000,-0.037376 RLEG_JOINT4:0.994936,0.090064,0.000000,0.044614 WAIST:0.999841,0.000000,0.017835,-0.000039 WAIST_JOINT0:0.997175,-0.000000,0.069021,0.029622 WAIST_JOINT1:0.998112,0.061139,-0.000000,0.005828 END:
KINECT_DATA_Sensor  AnkleLeft:0.070947,0.736520,-0.083122,-0.667529 AnkleRight:0.087428,0.746530,0.071707,0.655673 ElbowLeft:-0.027431,0.881309,-0.197422,-0.428447 ElbowRight:-0.365970,0.915024,0.169693,0.001320 FootLeft:0.000000,0.000000,0.000000,0.000000 FootRight:0.000000,0.000000,0.000000,0.000000 HandLeft:-0.013585,-0.492896,-0.095102,0.864769 HandRight:0.168464,-0.128918,-0.407871,0.888055 HandTipLeft:0.000000,0.000000,0.000000,0.000000 HandTipRight:0.000000,0.000000,0.000000,0.000000 Head:0.000000,0.000000,0.000000,0.000000 HipLeft:0.107233,-0.682963,0.706626,-0.150805 HipRight:-0.134399,0.676395,0.702130,-0.177316 KneeLeft:0.009282,-0.694321,0.036051,0.718702 KneeRight:-0.010935,0.719515,0.042522,0.693088 Neck:-0.069755,0.009273,0.994599,-0.076301 ShoulderLeft:0.030545,0.776115,-0.629347,0.025172 ShoulderRight:-0.059842,0.801192,0.580971,-0.130321 SpineBase:-0.017835,-0.001069,0.999182,-0.036284 SpineMid:-0.043750,-0.000128,0.998383,-0.036299 SpineShoulder:-0.069869,0.007440,0.995958,-0.055952 ThumbLeft:0.000000,0.000000,0.000000,0.000000 ThumbRight:0.000000,0.000000,0.000000,0.000000 WristLeft:0.082345,-0.479279,-0.135302,0.863252 WristRight:0.125561,-0.143813,-0.336538,0.922114 END:
KINECT_DATA POSITION:12.331796,-0.481087,10.055208 HEAD_JOINT1:0.985399,0.161062,-0.000000,0.055197 LARM_JOINT2:0.823833,0.000000,-0.005060,-0.566810 LARM_JOINT3:0.958317,0.000000,-0.207453,-0.196448 LLEG_JOINT2:0.999373,0.017190,0.000000,0.030958 LLEG_JOINT4:0.996437,0.083361,0.000000,-0.012833 RARM_JOINT2:0.809756,0.000000,0.425349,0.404195 RARM_JOINT3:0.976894,0.000000,0.204363,0.062565 RLEG_JOINT2:0.998932,0.024290,0.000000,-0.039297 RLEG_JOINT4:0.994766,0.091434,0.000000,0.045605 WAIST:0.999569,-0.000000,0.029326,0.001441 WAIST_JOINT0:0.995729,-0.000000,0.085985,0.033617 WAIST_JOINT1:0.998044,0.061759,-0.000000,0.009652 END:
KINECT_DATA_Sensor  AnkleLeft:-0.057255,-0.658971,0.084727,0.745185 AnkleRight:0.087666,0.743119,0.075558,0.659075 ElbowLeft:-0.026452,0.875551,-0.198644,-0.439604 ElbowRight:-0.355977,0.903285,0.051736,0.233838 FootLeft:0.000000,0.000000,0.000000,0.000000 FootRight:0.000000,0.000000,0.000000,0.000000 HandLeft:0.010990,-0.615783,-0.135277,0.776138 HandRight:0.148381,-0.118736,-0.417405,0.888627 HandTipLeft:0.000000,0.000000,0.000000,0.000000 HandTipRight:0.000000,0.000000,0.000000,0.000000 Head:0.000000,0.000000,0.000000,0.000000 HipLeft:0.098551,-0.682855,0.708992,-0.146036 HipRight:-0.142038,0.676148,0.699637,-0.182093 KneeLeft:0.009726,-0.686116,0.035342,0.726568 KneeRight:-0.010872,0.727397,0.043624,0.684743 Neck:-0.087609,0.013927,0.993061,-0.077202 ShoulderLeft:0.039246,0.771983,-0.634257,0.014822 ShoulderRight:-0.074776,0.801014,0.575538,-0.146771 SpineBase:-0.029174,0.005343,0.998882,-0.036812 SpineMid:-0.058149,0.006410,0.997615,-0.036641 SpineShoulder:-0.087621,0.012547,0.994484,-0.056270 ThumbLeft:0.000000,0.000000,0.000000,0.000000 ThumbRight:0.000000,0.000000,0.000000,0.000000 WristLeft:0.105555,-0.596167,-0.116453,0.787326 WristRight:0.121017,-0.130568,-0.399720,0.899183 END:
KINECT_DATA POSITION:12.323082,-0.487010,9.990156 HEAD_JOINT1:0.985081,0.162984,-0.000000,0.055234 LARM_JOINT2:0.823438,0.000000,-0.007988,-0.567350 LARM_JOINT3:0.958946,0.000000,-0.205421,-0.195513 LLEG_JOINT2:0.999408,0.016995,0.000000,0.029925 LLEG_JOINT4:0.996269,0.085574,0.000000,-0.011198 RARM_JOINT2:0.812109,0.000000,0.467912,0.348621 RARM_JOINT3:0.980579,0.000000,0.163387,0.108489 RLEG_JOINT2:0.998843,0.025400,0.000000,-0.040838 RLEG_JOINT4:0.994723,0.088997,0.000000,0.051051 WAIST:0.999435,-0.000000,0.033542,0.002133 WAIST_JOINT0:0.995106,-0.000000,0.092210,0.035522 WAIST_JOINT1:0.998033,0.061634,-0.000000,0.011424 END:
KINECT_DATA_Sensor  AnkleLeft:0.066561,0.727606,-0.080504,-0.677995 AnkleRight:0.090955,0.758092,0.070012,0.641967 ElbowLeft:-0.026770,0.877677,-0.199572,-0.434899 ElbowRight:-0.384422,0.912055,0.142621,-0.005930 FootLeft:0.000000,0.000000,0.000000,0.000000 FootRight:0.000000,0.000000,0.000000,0.000000 HandLeft:0.017394,-0.575359,-0.133905,0.806678 HandRight:-0.160361,0.429753,-0.431971,0.776529 HandTipLeft:0.000000,0.000000,0.000000,0.000000 HandTipRight:0.000000,0.000000,0.000000,0.000000 Head:0.000000,0.000000,0.000000,0.000000 HipLeft:0.095945,-0.682472,0.709956,-0.144879 HipRight:-0.145700,0.675998,0.698526,-0.184009 KneeLeft:0.009504,-0.683102,0.034979,0.729423 KneeRight:-0.010936,0.730274,0.044947,0.681587 Neck:-0.094251,0.016307,0.992425,-0.077097 ShoulderLeft:0.040966,0.769881,-0.636759,0.011925 ShoulderRight:-0.082134,0.800779,0.573087,-0.153552 SpineBase:-0.033320,0.008410,0.998730,-0.036832 SpineMid:-0.063455,0.009518,0.997269,-0.036562 SpineShoulder:-0.094231,0.014881,0.993860,-0.056042 ThumbLeft:0.000000,0.000000,0.000000,0.000000 ThumbRight:0.000000,0.000000,0.000000,0.000000 WristLeft:0.098965,-0.559387,-0.119008,0.814327 WristRight:-0.116651,0.457847,-0.359438,0.804720 END:
KINECT_DATA POSITION:12.286086,-0.495132,9.922290 HEAD_JOINT1:0.984537,0.165154,-0.000000,0.058395 LARM_JOINT2:0.824087,0.000000,-0.009588,-0.566382 LARM_JOINT3:0.957228,0.000000,-0.211043,-0.197926 LLEG_JOINT2:0.999427,0.016375,0.000000,0.029624 LLEG_JOINT4:0.996330,0.084951,0.000000,-0.010523 RARM_JOINT2:0.813543,0.000000,0.472033,0.339607 RARM_JOINT3:0.980856,0.000000,0.163164,0.106297 RLEG_JOINT2:0.998801,0.025751,0.000000,-0.041646 RLEG_JOINT4:0.994895,0.087427,0.000000,0.050412 WAIST:0.999354,-0.000000,0.035817,0.002981 WAIST_JOINT0:0.994813,-0.000000,0.094923,0.036561 WAIST_JOINT1:0.997975,0.062454,-0.000000,0.012076 END:
KINECT_DATA_Sensor  AnkleLeft:-0.056532,-0.653831,0.086650,0.749534 AnkleRight:0.087131,0.738257,0.072693,0.664907 ElbowLeft:-0.027061,0.878054,-0.201893,-0.433044 ElbowRight:-0.390130,0.909128,0.145387,-0.012159 FootLeft:0.000000,0.000000,0.000000,0.000000 FootRight:0.000000,0.000000,0.000000,0.000000 HandLeft:0.048145,-0.671458,-0.147676,0.724581 HandRight:-0.167304,0.404518,-0.441023,0.783501 HandTipLeft:0.000000,0.000000,0.000000,0.000000 HandTipRight:0.000000,0.000000,0.000000,0.000000 Head:0.000000,0.000000,0.000000,0.000000 HipLeft:0.094630,-0.681765,0.710690,-0.145471 HipRight:-0.148074,0.675999,0.697455,-0.186162 KneeLeft:0.010274,-0.681467,0.034956,0.730942 KneeRight:-0.010794,0.731830,0.045127,0.679905 Neck:-0.097274,0.017707,0.992041,-0.077971 ShoulderLeft:0.041671,0.768217,-0.638721,0.011935 ShoulderRight:-0.085775,0.800041,0.572457,-0.157701 SpineBase:-0.035566,0.010573,0.998604,-0.037599 SpineMid:-0.066031,0.011716,0.997053,-0.037258 SpineShoulder:-0.097231,0.016309,0.993507,-0.056777 ThumbLeft:0.000000,0.000000,0.000000,0.000000 ThumbRight:0.000000,0.000000,0.000000,0.000000 WristLeft:0.113588,-0.657538,-0.105040,0.737365 WristRight:-0.106600,0.441181,-0.366722,0.812103 END:
KINECT_DATA POSITION:12.214358,-0.471774,9.861290 HEAD_JOINT1:0.981693,0.179318,-0.000000,0.064219 LARM_JOINT2:0.823695,0.000000,-0.014208,-0.566855 LARM_JOINT3:0.957083,0.000000,-0.207029,-0.202808 LLEG_JOINT2:0.999488,0.014877,0.000000,0.028321 LLEG_JOINT4:0.996251,0.085703,0.000000,-0.011787 RARM_JOINT2:0.839913,0.000000,0.448842,0.305100 RARM_JOINT3:0.959276,0.000000,0.249468,0.132495 RLEG_JOINT2:0.998703,0.026384,0.000000,-0.043553 RLEG_JOINT4:0.994729,0.089199,0.000000,0.050573 WAIST:0.999262,-0.000000,0.038093,0.004937 WAIST_JOINT0:0.994589,-0.000000,0.096324,0.038923 WAIST_JOINT1:0.997607,0.068006,-0.000000,0.012488 END:
KINECT_DATA_Sensor  AnkleLeft:-0.056656,-0.652809,0.085448,0.750552 AnkleRight:0.091058,0.760377,0.071537,0.639075 ElbowLeft:-0.024834,0.879089,-0.204131,-0.430020 ElbowRight:-0.403968,0.898546,0.157847,0.067149 FootLeft:0.000000,0.000000,0.000000,0.000000 FootRight:0.000000,0.000000,0.000000,0.000000 HandLeft:-0.007763,-0.507918,-0.139190,0.850050 HandRight:-0.130462,0.403327,-0.462279,0.778849 HandTipLeft:0.000000,0.000000,0.000000,0.000000 HandTipRight:0.000000,0.000000,0.000000,0.000000 Head:0.000000,0.000000,0.000000,0.000000 HipLeft:0.091386,-0.680168,0.712255,-0.147356 HipRight:-0.148334,0.676445,0.695971,-0.189851 KneeLeft:0.011794,-0.679816,0.034385,0.732481 KneeRight:-0.010489,0.733412,0.045477,0.678180 Neck:-0.098599,0.019972,0.991350,-0.084294 ShoulderLeft:0.045662,0.765462,-0.641671,0.015546 ShoulderRight:-0.084018,0.798339,0.573708,-0.162648 SpineBase:-0.037877,0.012747,0.998361,-0.040972 SpineMid:-0.067828,0.013972,0.996774,-0.040570 SpineShoulder:-0.098523,0.018586,0.993029,-0.061971 ThumbLeft:0.000000,0.000000,0.000000,0.000000 ThumbRight:0.000000,0.000000,0.000000,0.000000 WristLeft:0.086841,-0.489626,-0.126603,0.858310 WristRight:-0.072026,0.439043,-0.415264,0.793479 END:
KINECT_DATA POSITION:12.263702,-0.466771,9.551561 HEAD_JOINT1:0.981187,0.185053,-0.000000,0.055013 LARM_JOINT2:0.818254,0.000000,-0.016537,-0.574619 LARM_JOINT3:0.961788,0.000000,-0.191816,-0.195372 LLEG_JOINT2:0.999749,0.004698,0.000000,0.021926 LLEG_JOINT4:0.995894,0.090139,0.000000,-0.008327 RARM_JOINT2:0.811085,0.000000,0.485877,0.325674 RARM_JOINT3:0.982974,0.000000,0.151818,0.103503 RLEG_JOINT2:0.998272,0.030731,0.000000,-0.050089 RLEG_JOINT4:0.994867,0.085581,0.000000,0.053993 WAIST:0.998457,-0.000000,0.054320,0.011526 WAIST_JOINT0:0.990444,-0.000000,0.126261,0.055494 WAIST_JOINT1:0.996713,0.078692,-0.000000,0.019239 END:
KINECT_DATA_Sensor  AnkleLeft:-0.050466,-0.635096,0.083302,0.766268 AnkleRight:0.087338,0.725044,0.077071,0.678781 ElbowLeft:-0.013531,0.874164,-0.211059,-0.437159 ElbowRight:-0.394448,0.911765,0.114047,-0.009386 FootLeft:0.000000,0.000000,0.000000,0.000000 FootRight:0.000000,0.000000,0.000000,0.000000 HandLeft:-0.005492,-0.537328,-0.082115,0.839348 HandRight:-0.142042,0.433944,-0.403308,0.793007 HandTipLeft:0.000000,0.000000,0.000000,0.000000 HandTipRight:0.000000,0.000000,0.000000,0.000000 Head:0.000000,0.000000,0.000000,0.000000 HipLeft:0.074923,-0.675370,0.719529,-0.143315 HipRight:-0.153667,0.676596,0.691376,-0.201503 KneeLeft:0.019259,-0.668022,0.027628,0.743379 KneeRight:-0.008580,0.744566,0.048191,0.665752 Neck:-0.130291,0.034500,0.986285,-0.095263 ShoulderLeft:0.066917,0.751983,-0.655746,0.006360 ShoulderRight:-0.107107,0.797819,0.559283,-0.198028 SpineBase:-0.054266,0.020023,0.997142,-0.048599 SpineMid:-0.091810,0.021840,0.994388,-0.047810 SpineShoulder:-0.130171,0.031686,0.988394,-0.071620 ThumbLeft:0.000000,0.000000,0.000000,0.000000 ThumbRight:0.000000,0.000000,0.000000,0.000000 WristLeft:0.091047,-0.523862,-0.103835,0.840534 WristRight:-0.098836,0.455275,-0.377895,0.800095 END:
KINECT_DATA POSITION:12.364494,-0.450782,9.236610 HEAD_JOINT1:0.979613,0.191694,-0.000000,0.060105 LARM_JOINT2:0.820858,0.000000,-0.013294,-0.570977 LARM_JOINT3:0.960161,0.000000,-0.200868,-0.194277 LLEG_JOINT2:0.999874,-0.000181,0.000000,0.015846 LLEG_JOINT4:0.995565,0.093724,0.000000,-0.008147 RARM_JOINT2:0.811475,0.000000,0.482287,0.330012 RARM_JOINT3:0.984723,0.000000,0.143806,0.098184 RLEG_JOINT2:0.997869,0.031323,0.000000,-0.057234 RLEG_JOINT4:0.995121,0.081397,0.000000,0.055754 WAIST:0.998200,-0.000000,0.057446,0.017204 WAIST_JOINT0:0.989444,-0.000000,0.131834,0.060164 WAIST_JOINT1:0.996541,0.081196,-0.000000,0.017705 END:
KINECT_DATA_Sensor  AnkleLeft:-0.049576,-0.631543,0.081924,0.769405 AnkleRight:0.085120,0.731280,0.073731,0.672717 ElbowLeft:-0.010405,0.873012,-0.220726,-0.434765 ElbowRight:-0.386017,0.914538,0.117312,-0.029121 FootLeft:0.000000,0.000000,0.000000,0.000000 FootRight:0.000000,0.000000,0.000000,0.000000 HandLeft:0.044133,-0.605981,-0.110918,0.786471 HandRight:-0.106857,0.316749,-0.426521,0.840435 HandTipLeft:0.000000,0.000000,0.000000,0.000000 HandTipRight:0.000000,0.000000,0.000000,0.000000 Head:0.000000,0.000000,0.000000,0.000000 HipLeft:0.070617,-0.671125,0.723073,-0.147544 HipRight:-0.155077,0.678997,0.686822,-0.207822 KneeLeft:0.022811,-0.665837,0.023900,0.745366 KneeRight:-0.009682,0.746806,0.049327,0.663139 Neck:-0.136801,0.038491,0.985110,-0.096763 ShoulderLeft:0.073759,0.745738,-0.662130,0.004196 ShoulderRight:-0.109828,0.796450,0.558451,-0.204300 SpineBase:-0.057674,0.025302,0.996561,-0.053858 SpineMid:-0.096646,0.027391,0.993538,-0.052826 SpineShoulder:-0.136606,0.035873,0.987217,-0.073852 ThumbLeft:0.000000,0.000000,0.000000,0.000000 ThumbRight:0.000000,0.000000,0.000000,0.000000 WristLeft:0.101141,-0.595673,-0.081814,0.792623 WristRight:-0.045593,0.349674,-0.375268,0.857218 END:
KINECT_DATA POSITION:12.343157,-0.438152,8.969784 HEAD_JOINT1:0.976790,0.201517,-0.000000,0.072608 LARM_JOINT2:0.825059,0.000000,-0.019831,-0.564698 LARM_JOINT3:0.955946,0.000000,-0.210634,-0.204450 LLEG_JOINT2:0.999858,0.003461,0.000000,0.016468 LLEG_JOINT4:0.995882,0.090060,0.000000,-0.010421 RARM_JOINT2:0.822829,0.000000,0.462076,0.330815 RARM_JOINT3:0.973903,0.000000,0.200205,0.106916 RLEG_JOINT2:0.997942,0.028354,0.000000,-0.057513 RLEG_JOINT4:0.995107,0.082314,0.000000,0.054651 WAIST:0.998724,-0.000000,0.047453,0.017307 WAIST_JOINT0:0.992977,-0.000000,0.105431,0.053681 WAIST_JOINT1:0.996785,0.079488,-0.000000,0.010065 END:
KINECT_DATA_Sensor  AnkleLeft:-0.050814,-0.647563,0.080853,0.756005 AnkleRight:0.085432,0.741342,0.070223,0.661954 ElbowLeft:-0.016342,0.883553,-0.218151,-0.414097 ElbowRight:-0.381651,0.914943,0.129095,0.023562 FootLeft:0.000000,0.000000,0.000000,0.000000 FootRight:0.000000,0.000000,0.000000,0.000000 HandLeft:0.037464,-0.548262,-0.157145,0.820555 HandRight:-0.170823,0.431405,-0.459850,0.757131 HandTipLeft:0.000000,0.000000,0.000000,0.000000 HandTipRight:0.000000,0.000000,0.000000,0.000000 Head:0.000000,0.000000,0.000000,0.000000 HipLeft:0.076150,-0.670298,0.722162,-0.152914 HipRight:-0.147637,0.680758,0.688081,-0.203265 KneeLeft:0.020727,-0.673003,0.026766,0.738864 KneeRight:-0.011204,0.740084,0.047461,0.670744 Neck:-0.110791,0.028524,0.988902,-0.094785 ShoulderLeft:0.065052,0.747741,-0.660601,0.016061 ShoulderRight:-0.082219,0.797580,0.570572,-0.177631 SpineBase:-0.047850,0.023299,0.997084,-0.054696 SpineMid:-0.078688,0.024981,0.995125,-0.053948 SpineShoulder:-0.110450,0.028434,0.990796,-0.072907 ThumbLeft:0.000000,0.000000,0.000000,0.000000 ThumbRight:0.000000,0.000000,0.000000,0.000000 WristLeft:0.088831,-0.537996,-0.102314,0.831986 WristRight:-0.090964,0.481844,-0.376546,0.785980 END:
KINECT_DATA POSITION:12.378057,-0.416411,8.710182 HEAD_JOINT1:0.975581,0.206074,-0.000000,0.075992 LARM_JOINT2:0.825583,0.000000,-0.026551,-0.563655 LARM_JOINT3:0.957320,0.000000,-0.202318,-0.206410 LLEG_JOINT2:0.999826,0.006535,0.000000,0.017467 LLEG_JOINT4:0.996000,0.089127,0.000000,-0.006372 RARM_JOINT2:0.822660,0.000000,0.458111,0.336698 RARM_JOINT3:0.974338,0.000000,0.191868,0.117694 RLEG_JOINT2:0.998105,0.024657,0.000000,-0.056373 RLEG_JOINT4:0.995158,0.082476,0.000000,0.053469 WAIST:0.999063,-0.000000,0.040334,0.015715 WAIST_JOINT0:0.993880,-0.000000,0.098676,0.049647 WAIST_JOINT1:0.996689,0.080977,-0.000000,0.007357 END:
KINECT_DATA_Sensor  AnkleLeft:-0.049419,-0.652203,0.085345,0.751602 AnkleRight:0.085101,0.762677,0.065002,0.637852 ElbowLeft:-0.018424,0.891475,-0.213706,-0.399078 ElbowRight:-0.375064,0.916767,0.133223,0.033408 FootLeft:0.000000,0.000000,0.000000,0.000000 FootRight:0.000000,0.000000,0.000000,0.000000 HandLeft:0.022417,-0.574602,-0.133896,0.807095 HandRight:-0.421739,0.886012,-0.130231,0.141982 HandTipLeft:0.000000,0.000000,0.000000,0.000000 HandTipRight:0.000000,0.000000,0.000000,0.000000 Head:0.000000,0.000000,0.000000,0.000000 HipLeft:0.079730,-0.670534,0.720535,-0.157659 HipRight:-0.141519,0.680602,0.690251,-0.200765 KneeLeft:0.018125,-0.678163,0.028394,0.734139 KneeRight:-0.013583,0.735100,0.045260,0.676310 Neck:-0.103452,0.024863,0.989611,-0.096691 ShoulderLeft:0.057559,0.750134,-0.658288,0.025358 ShoulderRight:-0.080445,0.794836,0.575253,-0.175638 SpineBase:-0.040736,0.020795,0.997356,-0.056474 SpineMid:-0.071469,0.022527,0.995626,-0.055806 SpineShoulder:-0.103179,0.024717,0.991571,-0.074368 ThumbLeft:0.000000,0.000000,0.000000,0.000000 ThumbRight:0.000000,0.000000,0.000000,0.000000 WristLeft:0.084662,-0.563439,-0.106856,0.814832 WristRight:-0.348209,0.916068,-0.159282,0.119159 END:
KINECT_DATA POSITION:12.392672,-0.386644,8.492052 HEAD_JOINT1:0.974339,0.214760,-0.000000,0.067394 LARM_JOINT2:0.823033,0.000000,-0.032912,-0.567039 LARM_JOINT3:0.963377,0.000000,-0.181079,-0.197775 LLEG_JOINT2:0.999888,0.004153,0.000000,0.014354 LLEG_JOINT4:0.996156,0.087107,0.000000,-0.009241 RARM_JOINT2:0.806292,0.000000,0.398064,0.437536 RARM_JOINT3:0.973579,0.000000,0.227935,-0.013792 RLEG_JOINT2:0.997904,0.025108,0.000000,-0.059648 RLEG_JOINT4:0.995213,0.081768,0.000000,0.053527 WAIST:0.998616,-0.000000,0.049019,0.019035 WAIST_JOINT0:0.991227,-0.000000,0.118705,0.058118 WAIST_JOINT1:0.995229,0.096097,-0.000000,0.016859 END:
KINECT_DATA_Sensor  AnkleLeft:-0.047921,-0.639413,0.080167,0.763170 AnkleRight:0.080432,0.731990,0.069878,0.672933 ElbowLeft:-0.007835,0.891131,-0.224626,-0.394166 ElbowRight:-0.286431,0.854713,-0.031769,0.431756 FootLeft:0.000000,0.000000,0.000000,0.000000 FootRight:0.000000,0.000000,0.000000,0.000000 HandLeft:0.005381,-0.539690,-0.058189,0.839833 HandRight:-0.217241,0.589101,-0.358020,0.691077 HandTipLeft:0.000000,0.000000,0.000000,0.000000 HandTipRight:0.000000,0.000000,0.000000,0.000000 Head:0.000000,0.000000,0.000000,0.000000 HipLeft:0.067860,-0.667798,0.724383,-0.157195 HipRight:-0.142746,0.680068,0.688232,-0.208491 KneeLeft:0.019986,-0.672061,0.026904,0.739737 KneeRight:-0.013863,0.740873,0.045230,0.669977 Neck:-0.125254,0.040252,0.984852,-0.112952 ShoulderLeft:0.081554,0.738474,-0.669003,0.020952 ShoulderRight:-0.087992,0.789102,0.573222,-0.202464 SpineBase:-0.049487,0.025835,0.996412,-0.063607 SpineMid:-0.086899,0.028207,0.993849,-0.062591 SpineShoulder:-0.125043,0.037602,0.987515,-0.088113 ThumbLeft:0.000000,0.000000,0.000000,0.000000 ThumbRight:0.000000,0.000000,0.000000,0.000000 WristLeft:0.079026,-0.532198,-0.085602,0.838566 WristRight:-0.236191,0.578868,-0.376362,0.683723 END:
KINECT_DATA POSITION:12.339031,-0.415652,8.244324 HEAD_JOINT1:0.973118,0.222167,-0.000000,0.060690 LARM_JOINT2:0.823721,0.000000,-0.031798,-0.566104 LARM_JOINT3:0.961820,0.000000,-0.186305,-0.200483 LLEG_JOINT2:0.999966,0.000991,0.000000,0.008165 LLEG_JOINT4:0.996164,0.087086,0.000000,-0.008603 RARM_JOINT2:0.807095,0.000000,0.491733,0.326798 RARM_JOINT3:0.985726,0.000000,0.116291,0.121737 RLEG_JOINT2:0.997349,0.028004,0.000000,-0.067165 RLEG_JOINT4:0.994989,0.082500,0.000000,0.056484 WAIST:0.997880,-0.000000,0.059526,0.026313 WAIST_JOINT0:0.987724,-0.000000,0.138491,0.072266 WAIST_JOINT1:0.993893,0.108196,-0.000000,0.021685 END:
KINECT_DATA_Sensor  AnkleLeft:-0.044341,-0.626686,0.078545,0.774034 AnkleRight:0.082344,0.726455,0.072713,0.678377 ElbowLeft:0.000735,0.881626,-0.240686,-0.405962 ElbowRight:-0.354560,0.914705,0.139072,-0.135130 FootLeft:0.000000,0.000000,0.000000,0.000000 FootRight:0.000000,0.000000,0.000000,0.000000 HandLeft:0.004087,-0.517209,-0.045755,0.854625 HandRight:-0.160936,0.498227,-0.361043,0.771698 HandTipLeft:0.000000,0.000000,0.000000,0.000000 HandTipRight:0.000000,0.000000,0.000000,0.000000 Head:0.000000,0.000000,0.000000,0.000000 HipLeft:0.052043,-0.661418,0.731047,-0.159337 HipRight:-0.144366,0.680845,0.683728,-0.219372 KneeLeft:0.023231,-0.664844,0.025415,0.746189 KneeRight:-0.013053,0.747887,0.046954,0.662035 Neck:-0.146451,0.052431,0.980044,-0.123762 ShoulderLeft:0.105289,0.723010,-0.682587,0.015680 ShoulderRight:-0.095428,0.784478,0.569656,-0.225786 SpineBase:-0.060267,0.035644,0.994758,-0.074521 SpineMid:-0.102736,0.038797,0.991273,-0.072929 SpineShoulder:-0.146085,0.049875,0.983004,-0.099371 ThumbLeft:0.000000,0.000000,0.000000,0.000000 ThumbRight:0.000000,0.000000,0.000000,0.000000 WristLeft:0.083186,-0.510216,-0.074566,0.852760 WristRight:-0.088058,0.529737,-0.312648,0.783502 END:
KINECT_DATA POSITION:12.224751,-0.454094,8.071232 HEAD_JOINT1:0.972328,0.225034,-0.000000,0.062754 LARM_JOINT2:0.827383,0.000000,-0.028247,-0.560927 LARM_JOINT3:0.955748,0.000000,-0.207513,-0.208529 LLEG_JOINT2:0.999990,-0.000242,0.000000,0.004384 LLEG_JOINT4:0.996008,0.088668,0.000000,-0.010288 RARM_JOINT2:0.827612,0.000000,0.459330,0.322605 RARM_JOINT3:0.976156,0.000000,0.182523,0.117497 RLEG_JOINT2:0.997067,0.029292,0.000000,-0.070701 RLEG_JOINT4:0.995440,0.078511,0.000000,0.054174 WAIST:0.997586,-0.000000,0.062234,0.030791 WAIST_JOINT0:0.988309,-0.000000,0.133921,0.072879 WAIST_JOINT1:0.993906,0.108868,-0.000000,0.017261 END:
KINECT_DATA_Sensor  AnkleLeft:-0.045688,-0.628909,0.077446,0.772262 AnkleRight:0.081028,0.747025,0.069347,0.656186 ElbowLeft:0.003190,0.880410,-0.247624,-0.404413 ElbowRight:-0.352112,0.925625,0.134374,-0.034331 FootLeft:0.000000,0.000000,0.000000,0.000000 FootRight:0.000000,0.000000,0.000000,0.000000 HandLeft:0.039924,-0.535292,-0.120904,0.835016 HandRight:-0.402708,0.857160,-0.201167,0.250268 HandTipLeft:0.000000,0.000000,0.000000,0.000000 HandTipRight:0.000000,0.000000,0.000000,0.000000 Head:0.000000,0.000000,0.000000,0.000000 HipLeft:0.047717,-0.658074,0.733859,-0.161593 HipRight:-0.145649,0.682696,0.680214,-0.223657 KneeLeft:0.024799,-0.662780,0.024942,0.747987 KneeRight:-0.011863,0.749937,0.047014,0.659730 Neck:-0.143050,0.050775,0.980666,-0.123505 ShoulderLeft:0.106981,0.720616,-0.684812,0.017326 ShoulderRight:-0.088630,0.785189,0.571288,-0.221929 SpineBase:-0.063459,0.038310,0.994111,-0.079054 SpineMid:-0.102513,0.041390,0.990845,-0.077486 SpineShoulder:-0.142607,0.049114,0.983439,-0.100490 ThumbLeft:0.000000,0.000000,0.000000,0.000000 ThumbRight:0.000000,0.000000,0.000000,0.000000 WristLeft:0.085438,-0.526814,-0.069555,0.842811 WristRight:-0.279016,0.908560,-0.203276,0.235259 END:
KINECT_DATA POSITION:12.227513,-0.454467,8.150566 HEAD_JOINT1:0.972541,0.218443,-0.000000,0.080292 LARM_JOINT2:0.829964,0.000000,-0.038224,-0.556506 LARM_JOINT3:0.952732,0.000000,-0.215079,-0.214576 LLEG_JOINT2:0.999969,0.003243,0.000000,0.007234 LLEG_JOINT4:0.996260,0.085804,0.000000,-0.010189 RARM_JOINT2:0.834659,0.000000,0.448438,0.319761 RARM_JOINT3:0.969590,0.000000,0.216911,0.113334 RLEG_JOINT2:0.997376,0.027163,0.000000,-0.067102 RLEG_JOINT4:0.995540,0.077683,0.000000,0.053538 WAIST:0.998230,-0.000000,0.052819,0.027332 WAIST_JOINT0:0.991399,-0.000000,0.115342,0.061849 WAIST_JOINT1:0.995110,0.098572,-0.000000,0.006262 END:
KINECT_DATA_Sensor  AnkleLeft:-0.046568,-0.640997,0.077981,0.762151 AnkleRight:0.079799,0.742219,0.066912,0.662016 ElbowLeft:-0.011498,0.890464,-0.232939,-0.390745 ElbowRight:-0.363659,0.919984,0.145180,0.017460 FootLeft:0.000000,0.000000,0.000000,0.000000 FootRight:0.000000,0.000000,0.000000,0.000000 HandLeft:0.033732,-0.525495,-0.165017,0.833959 HandRight:-0.457765,0.762048,0.176896,-0.422424 HandTipLeft:0.000000,0.000000,0.000000,0.000000 HandTipRight:0.000000,0.000000,0.000000,0.000000 Head:0.000000,0.000000,0.000000,0.000000 HipLeft:0.058520,-0.660785,0.729661,-0.165934 HipRight:-0.142446,0.682776,0.682114,-0.219651 KneeLeft:0.021714,-0.669325,0.026900,0.742165 KneeRight:-0.012394,0.743679,0.045781,0.666852 Neck:-0.122959,0.035163,0.985406,-0.112337 ShoulderLeft:0.083284,0.733516,-0.674014,0.026902 ShoulderRight:-0.083261,0.788574,0.574549,-0.202762 SpineBase:-0.054006,0.032755,0.995113,-0.075898 SpineMid:-0.087577,0.035300,0.992722,-0.074748 SpineShoulder:-0.122607,0.034805,0.987617,-0.091481 ThumbLeft:0.000000,0.000000,0.000000,0.000000 ThumbRight:0.000000,0.000000,0.000000,0.000000 WristLeft:0.080154,-0.516357,-0.096845,0.847096 WristRight:-0.362955,0.791918,0.069620,-0.486089 END:
KINECT_DATA POSITION:12.242813,-0.449406,8.227337 HEAD_JOINT1:0.972652,0.217586,-0.000000,0.081270 LARM_JOINT2:0.829514,0.000000,-0.042039,-0.556901 LARM_JOINT3:0.958288,0.000000,-0.197656,-0.206437 LLEG_JOINT2:0.999949,0.002775,0.000000,0.009702 LLEG_JOINT4:0.996364,0.084742,0.000000,-0.008770 RARM_JOINT2:0.807722,0.000000,0.438829,0.393718 RARM_JOINT3:0.974318,0.000000,0.222476,0.034759 RLEG_JOINT2:0.997608,0.024655,0.000000,-0.064577 RLEG_JOINT4:0.995259,0.081775,0.000000,0.052649 WAIST:0.998522,-0.000000,0.048149,0.025189 WAIST_JOINT0:0.992504,-0.000000,0.107725,0.057712 WAIST_JOINT1:0.995268,0.096996,-0.000000,0.005782 END:
KINECT_DATA_Sensor  AnkleLeft:-0.044228,-0.646334,0.078461,0.757720 AnkleRight:0.083989,0.768180,0.064469,0.631419 ElbowLeft:-0.014627,0.895244,-0.228391,-0.382311 ElbowRight:-0.333695,0.903989,0.012866,0.266993 FootLeft:0.000000,0.000000,0.000000,0.000000 FootRight:0.000000,0.000000,0.000000,0.000000 HandLeft:0.027144,-0.520217,-0.100321,0.847687 HandRight:-0.388347,0.779504,0.174941,-0.459299 HandTipLeft:0.000000,0.000000,0.000000,0.000000 HandTipRight:0.000000,0.000000,0.000000,0.000000 Head:0.000000,0.000000,0.000000,0.000000 HipLeft:0.063415,-0.662618,0.727313,-0.167130 HipRight:-0.139531,0.682562,0.683585,-0.217603 KneeLeft:0.022244,-0.672637,0.026881,0.739149 KneeRight:-0.013421,0.740461,0.043885,0.670531 Neck:-0.114821,0.033119,0.986544,-0.111579 ShoulderLeft:0.076315,0.737243,-0.670578,0.031211 ShoulderRight:-0.079002,0.789032,0.576963,-0.195707 SpineBase:-0.049267,0.029725,0.995601,-0.073950 SpineMid:-0.081257,0.032088,0.993501,-0.072956 SpineShoulder:-0.114554,0.032178,0.988813,-0.089948 ThumbLeft:0.000000,0.000000,0.000000,0.000000 ThumbRight:0.000000,0.000000,0.000000,0.000000 WristLeft:0.076415,-0.513346,-0.100988,0.848786 WristRight:-0.421715,0.761284,0.119799,-0.477757 END:
KINECT_DATA POSITION:12.269125,-0.448732,8.202017 HEAD_JOINT1:0.971367,0.224908,-0.000000,0.076564 LARM_JOINT2:0.828848,0.000000,-0.035522,-0.558345 LARM_JOINT3:0.962631,0.000000,-0.179435,-0.202842 LLEG_JOINT2:0.999951,0.003468,0.000000,0.009275 LLEG_JOINT4:0.996269,0.085720,0.000000,-0.009996 RARM_JOINT2:0.810967,0.000000,0.479925,0.334669 RARM_JOINT3:0.982060,0.000000,0.146962,0.118156 RLEG_JOINT2:0.997551,0.026025,0.000000,-0.064923 RLEG_JOINT4:0.995394,0.080415,0.000000,0.052189 WAIST:0.998454,-0.000000,0.049365,0.025549 WAIST_JOINT0:0.991612,-0.000000,0.113565,0.061714 WAIST_JOINT1:0.994740,0.101937,-0.000000,0.010033 END:
KINECT_DATA_Sensor  AnkleLeft:-0.046073,-0.642236,0.078775,0.761055 AnkleRight:0.080430,0.738613,0.068710,0.665779 ElbowLeft:-0.006520,0.892049,-0.234715,-0.386154 ElbowRight:-0.354920,0.920659,0.140685,-0.081402 FootLeft:0.000000,0.000000,0.000000,0.000000 FootRight:0.000000,0.000000,0.000000,0.000000 HandLeft:-0.001128,-0.567828,-0.037391,0.822297 HandRight:-0.196315,0.500189,-0.383818,0.750970 HandTipLeft:0.000000,0.000000,0.000000,0.000000 HandTipRight:0.000000,0.000000,0.000000,0.000000 Head:0.000000,0.000000,0.000000,0.000000 HipLeft:0.061034,-0.662304,0.727977,-0.166365 HipRight:-0.139120,0.682473,0.683630,-0.218004 KneeLeft:0.021685,-0.671793,0.027294,0.739918 KneeRight:-0.012577,0.741312,0.044842,0.669543 Neck:-0.120707,0.039992,0.984812,-0.118216 ShoulderLeft:0.083738,0.733370,-0.673993,0.029817 ShoulderRight:-0.080445,0.788086,0.575574,-0.202891 SpineBase:-0.050473,0.030539,0.995445,-0.074888 SpineMid:-0.084980,0.033119,0.993095,-0.073783 SpineShoulder:-0.120634,0.036615,0.987558,-0.093999 ThumbLeft:0.000000,0.000000,0.000000,0.000000 ThumbRight:0.000000,0.000000,0.000000,0.000000 WristLeft:0.082430,-0.560795,-0.079318,0.820014 WristRight:-0.091262,0.546716,-0.321934,0.767549 END:
KINECT_DATA POSITION:12.290464,-0.447734,8.142304 HEAD_JOINT1:0.971474,0.227006,-0.000000,0.068600 LARM_JOINT2:0.828296,0.000000,-0.024782,-0.559742 LARM_JOINT3:0.959479,0.000000,-0.193154,-0.205162 LLEG_JOINT2:0.999971,0.003428,0.000000,0.006794 LLEG_JOINT4:0.996288,0.085455,0.000000,-0.010357 RARM_JOINT2:0.806142,0.000000,0.395667,0.439980 RARM_JOINT3:0.973423,0.000000,0.228301,-0.018054 RLEG_JOINT2:0.997394,0.026349,0.000000,-0.067157 RLEG_JOINT4:0.995286,0.081757,0.000000,0.052166 WAIST:0.998232,-0.000000,0.052746,0.027396 WAIST_JOINT0:0.990760,-0.000000,0.118940,0.065174 WAIST_JOINT1:0.994311,0.105610,-0.000000,0.013828 END:
KINECT_DATA_Sensor  AnkleLeft:-0.046554,-0.638510,0.077636,0.764271 AnkleRight:0.081115,0.742940,0.070085,0.660719 ElbowLeft:0.001482,0.883565,-0.242944,-0.400360 ElbowRight:-0.274388,0.869008,-0.025793,0.410939 FootLeft:0.000000,0.000000,0.000000,0.000000 FootRight:0.000000,0.000000,0.000000,0.000000 HandLeft:0.014030,-0.527295,-0.069973,0.846680 HandRight:-0.201561,0.504297,-0.383259,0.747109 HandTipLeft:0.000000,0.000000,0.000000,0.000000 HandTipRight:0.000000,0.000000,0.000000,0.000000 Head:0.000000,0.000000,0.000000,0.000000 HipLeft:0.055935,-0.660857,0.729921,-0.165392 HipRight:-0.140215,0.683013,0.682492,-0.219177 KneeLeft:0.021327,-0.669444,0.026745,0.742075 KneeRight:-0.012936,0.743542,0.045168,0.667037 Neck:-0.127439,0.045231,0.983365,-0.121268 ShoulderLeft:0.094470,0.727044,-0.679585,0.025426 ShoulderRight:-0.079249,0.786323,0.576307,-0.208052 SpineBase:-0.053925,0.033150,0.995002,-0.077231 SpineMid:-0.090101,0.035939,0.992380,-0.075973 SpineShoulder:-0.127214,0.042397,0.986163,-0.097480 ThumbLeft:0.000000,0.000000,0.000000,0.000000 ThumbRight:0.000000,0.000000,0.000000,0.000000 WristLeft:0.081862,-0.519214,-0.074921,0.847409 WristRight:-0.177066,0.514771,-0.389209,0.743085 END:
KINECT_DATA POSITION:12.294449,-0.438204,8.175778 HEAD_JOINT1:0.971910,0.223873,-0.000000,0.072605 LARM_JOINT2:0.829459,0.000000,-0.026354,-0.557946 LARM_JOINT3:0.953968,0.000000,-0.213072,-0.211057 LLEG_JOINT2:0.999968,0.002881,0.000000,0.007486 LLEG_JOINT4:0.996069,0.087886,0.000000,-0.011113 RARM_JOINT2:0.813590,0.000000,0.456760,0.359781 RARM_JOINT3:0.985166,0.000000,0.165277,0.046160 RLEG_JOINT2:0.997480,0.025543,0.000000,-0.066185 RLEG_JOINT4:0.995072,0.084008,0.000000,0.052682 WAIST:0.998274,-0.000000,0.052227,0.026847 WAIST_JOINT0:0.990906,-0.000000,0.118387,0.063952 WAIST_JOINT1:0.994870,0.100602,-0.000000,0.010672 END:
KINECT_DATA_Sensor  AnkleLeft:-0.048333,-0.638762,0.078551,0.763856 AnkleRight:0.086168,0.773520,0.066405,0.624365 ElbowLeft:-0.003929,0.884625,-0.239459,-0.400103 ElbowRight:-0.351630,0.927377,0.069917,0.106961 FootLeft:0.000000,0.000000,0.000000,0.000000 FootRight:0.000000,0.000000,0.000000,0.000000 HandLeft:0.039431,-0.546984,-0.140597,0.824309 HandRight:-0.274428,0.529134,-0.384170,0.705068 HandTipLeft:0.000000,0.000000,0.000000,0.000000 HandTipRight:0.000000,0.000000,0.000000,0.000000 Head:0.000000,0.000000,0.000000,0.000000 HipLeft:0.057423,-0.661396,0.729428,-0.164900 HipRight:-0.140575,0.682985,0.682753,-0.218215 KneeLeft:0.021812,-0.669800,0.026501,0.741748 KneeRight:-0.013108,0.743170,0.044323,0.667504 Neck:-0.126476,0.040044,0.984519,-0.114550 ShoulderLeft:0.087528,0.729743,-0.677609,0.025692 ShoulderRight:-0.084579,0.787131,0.575035,-0.206411 SpineBase:-0.053367,0.032476,0.995156,-0.075910 SpineMid:-0.089175,0.035189,0.992588,-0.074692 SpineShoulder:-0.126114,0.039079,0.986857,-0.093178 ThumbLeft:0.000000,0.000000,0.000000,0.000000 ThumbRight:0.000000,0.000000,0.000000,0.000000 WristLeft:0.084332,-0.538485,-0.085116,0.834073 WristRight:-0.164521,0.577918,-0.341366,0.722781 END:
KINECT_DATA POSITION:12.497469,-0.411542,8.168912 HEAD_JOINT1:0.971416,0.219635,-0.000000,0.090060 LARM_JOINT2:0.832462,0.000000,-0.034394,-0.553014 LARM_JOINT3:0.958267,0.000000,-0.194833,-0.209200 LLEG_JOINT2:0.999950,0.002923,0.000000,0.009545 LLEG_JOINT4:0.996414,0.083886,0.000000,-0.011029 RARM_JOINT2:0.815178,0.000000,0.447878,0.367275 RARM_JOINT3:0.986129,0.000000,0.160279,0.043135 RLEG_JOINT2:0.997580,0.025104,0.000000,-0.064838 RLEG_JOINT4:0.995290,0.082322,0.000000,0.051204 WAIST:0.998588,-0.000000,0.046793,0.025145 WAIST_JOINT0:0.992926,-0.000000,0.104219,0.056896 WAIST_JOINT1:0.995440,0.095103,-0.000000,0.007353 END:
KINECT_DATA_Sensor  AnkleLeft:-0.045427,-0.648343,0.076234,0.756159 AnkleRight:0.081284,0.745378,0.069115,0.658049 ElbowLeft:-0.010684,0.897627,-0.236161,-0.371994 ElbowRight:-0.353339,0.916564,0.053160,0.179545 FootLeft:0.000000,0.000000,0.000000,0.000000 FootRight:0.000000,0.000000,0.000000,0.000000 HandLeft:0.044812,-0.546258,-0.090268,0.831532 HandRight:-0.125394,0.335278,-0.413829,0.837025 HandTipLeft:0.000000,0.000000,0.000000,0.000000 HandTipRight:0.000000,0.000000,0.000000,0.000000 Head:0.000000,0.000000,0.000000,0.000000 HipLeft:0.064451,-0.662972,0.727624,-0.163941 HipRight:-0.138054,0.683376,0.684288,-0.213750 KneeLeft:0.022017,-0.673465,0.026821,0.738404 KneeRight:-0.013250,0.739688,0.044470,0.671348 Neck:-0.111071,0.034781,0.987099,-0.109950 ShoulderLeft:0.072382,0.737347,-0.670836,0.032566 ShoulderRight:-0.078151,0.789217,0.578189,-0.191642 SpineBase:-0.047978,0.028483,0.995900,-0.071209 SpineMid:-0.078882,0.030681,0.993929,-0.070290 SpineShoulder:-0.110793,0.033499,0.989370,-0.088030 ThumbLeft:0.000000,0.000000,0.000000,0.000000 ThumbRight:0.000000,0.000000,0.000000,0.000000 WristLeft:0.076930,-0.542181,-0.091309,0.831736 WristRight:-0.101823,0.348367,-0.377065,0.852112 END:
KINECT_DATA POSITION:12.799819,-0.397757,8.317196 HEAD_JOINT1:0.972995,0.208906,-0.000000,0.098179 LARM_JOINT2:0.835240,0.000000,-0.028723,-0.549134 LARM_JOINT3:0.957152,0.000000,-0.197257,-0.212015 LLEG_JOINT2:0.999915,0.005704,0.000000,0.011719 LLEG_JOINT4:0.996369,0.083900,0.000000,-0.014445 RARM_JOINT2:0.813669,0.000000,0.446373,0.372416 RARM_JOINT3:0.981795,0.000000,0.184508,0.045118 RLEG_JOINT2:0.997731,0.024117,0.000000,-0.062858 RLEG_JOINT4:0.995450,0.081377,0.000000,0.049569 WAIST:0.999007,-0.000000,0.038681,0.022123 WAIST_JOINT0:0.994968,-0.000000,0.086921,0.049843 WAIST_JOINT1:0.996293,0.085967,-0.000000,0.003286 END:
KINECT_DATA_Sensor  AnkleLeft:-0.050412,-0.658405,0.075451,0.747174 AnkleRight:0.079450,0.746231,0.068403,0.657380 ElbowLeft:-0.015057,0.902172,-0.233039,-0.362700 ElbowRight:-0.358713,0.912759,0.057642,0.186745 FootLeft:0.000000,0.000000,0.000000,0.000000 FootRight:0.000000,0.000000,0.000000,0.000000 HandLeft:0.051655,-0.536753,-0.122864,0.833146 HandRight:-0.152565,0.408308,-0.448533,0.780274 HandTipLeft:0.000000,0.000000,0.000000,0.000000 HandTipRight:0.000000,0.000000,0.000000,0.000000 Head:0.000000,0.000000,0.000000,0.000000 HipLeft:0.074360,-0.665439,0.724414,-0.163967 HipRight:-0.135950,0.684172,0.686402,-0.205617 KneeLeft:0.019395,-0.679212,0.028126,0.733146 KneeRight:-0.014088,0.734205,0.044788,0.677302 Neck:-0.092910,0.026935,0.990272,-0.100017 ShoulderLeft:0.056265,0.745093,-0.663546,0.037114 ShoulderRight:-0.068492,0.792988,0.580900,-0.170397 SpineBase:-0.039701,0.024652,0.996801,-0.064841 SpineMid:-0.065682,0.026335,0.995426,-0.064176 SpineShoulder:-0.092656,0.026345,0.992146,-0.079796 ThumbLeft:0.000000,0.000000,0.000000,0.000000 ThumbRight:0.000000,0.000000,0.000000,0.000000 WristLeft:0.074350,-0.533217,-0.094880,0.837347 WristRight:-0.135525,0.422920,-0.376534,0.813015 END:
KINECT_DATA POSITION:13.378495,-0.419626,8.978486 HEAD_JOINT1:0.981142,0.174688,-0.000000,0.082734 LARM_JOINT2:0.834829,0.000000,-0.018490,-0.550199 LARM_JOINT3:0.956114,0.000000,-0.202375,-0.211872 LLEG_JOINT2:0.999812,0.013154,0.000000,0.014250 LLEG_JOINT4:0.996632,0.080923,0.000000,-0.013295 RARM_JOINT2:0.828284,0.000000,0.458694,0.321785 RARM_JOINT3:0.948600,0.000000,0.295990,0.112019 RLEG_JOINT2:0.997887,0.025969,0.000000,-0.059555 RLEG_JOINT4:0.995489,0.081518,0.000000,0.048554 WAIST:0.999473,-0.000000,0.028702,0.015133 WAIST_JOINT0:0.995227,-0.000000,0.086733,0.044726 WAIST_JOINT1:0.997957,0.063806,0.000000,-0.003137 END:
KINECT_DATA_Sensor  AnkleLeft:-0.054703,-0.658785,0.077556,0.746320 AnkleRight:0.080456,0.756906,0.070431,0.644717 ElbowLeft:-0.030001,0.899314,-0.215339,-0.379425 ElbowRight:-0.405576,0.899557,0.136720,0.087248 FootLeft:0.000000,0.000000,0.000000,0.000000 FootRight:0.000000,0.000000,0.000000,0.000000 HandLeft:0.045242,-0.587187,-0.156269,0.792935 HandRight:-0.061421,0.346063,-0.582417,0.732979 HandTipLeft:0.000000,0.000000,0.000000,0.000000 HandTipRight:0.000000,0.000000,0.000000,0.000000 Head:0.000000,0.000000,0.000000,0.000000 HipLeft:0.094705,-0.671804,0.717561,-0.157530 HipRight:-0.139212,0.684008,0.690417,-0.189941 KneeLeft:0.010907,-0.686250,0.030091,0.726661 KneeRight:-0.014721,0.727419,0.049105,0.684276 Neck:-0.087902,0.014439,0.993061,-0.076772 ShoulderLeft:0.025894,0.763376,-0.644691,0.030999 ShoulderRight:-0.091034,0.800907,0.570080,-0.158964 SpineBase:-0.029287,0.015745,0.998346,-0.046902 SpineMid:-0.057962,0.017086,0.997092,-0.046430 SpineShoulder:-0.087859,0.013648,0.994318,-0.058536 ThumbLeft:0.000000,0.000000,0.000000,0.000000 ThumbRight:0.000000,0.000000,0.000000,0.000000 WristLeft:0.088449,-0.579120,-0.111614,0.802708 WristRight:-0.034391,0.397124,-0.435679,0.807028 END:
KINECT_DATA POSITION:13.810476,-0.481607,9.556556 HEAD_JOINT1:0.987679,0.148043,-0.000000,0.050728 LARM_JOINT2:0.834345,0.000000,-0.003112,-0.551234 LARM_JOINT3:0.956373,0.000000,-0.200897,-0.212111 LLEG_JOINT2:0.999715,0.013233,0.000000,0.019859 LLEG_JOINT4:0.996179,0.086683,0.000000,-0.010691 RARM_JOINT2:0.826815,0.000000,0.469573,0.309643 RARM_JOINT3:0.928246,0.000000,0.355078,0.110812 RLEG_JOINT2:0.997911,0.033758,0.000000,-0.055089 RLEG_JOINT4:0.995681,0.077650,0.000000,0.050901 WAIST:0.998752,-0.000000,0.049121,0.008979 WAIST_JOINT0:0.994736,-0.000000,0.096593,0.034210 WAIST_JOINT1:0.998687,0.051217,0.000000,-0.000678 END:
KINECT_DATA_Sensor  AnkleLeft:-0.060088,-0.652606,0.081182,0.750935 AnkleRight:0.081299,0.761570,0.075305,0.638538 ElbowLeft:-0.028340,0.881986,-0.211426,-0.420234 ElbowRight:-0.442827,0.878738,0.082623,0.157787 FootLeft:0.000000,0.000000,0.000000,0.000000 FootRight:0.000000,0.000000,0.000000,0.000000 HandLeft:0.036173,-0.568330,-0.095661,0.816420 HandRight:0.323678,0.109162,-0.493409,0.799915 HandTipLeft:0.000000,0.000000,0.000000,0.000000 HandTipRight:0.000000,0.000000,0.000000,0.000000 Head:0.000000,0.000000,0.000000,0.000000 HipLeft:0.097609,-0.678722,0.714361,-0.139631 HipRight:-0.163277,0.677070,0.690178,-0.196397 KneeLeft:0.009867,-0.671335,0.029951,0.740483 KneeRight:-0.011710,0.741231,0.055690,0.668834 Neck:-0.097445,0.009193,0.993071,-0.065035 ShoulderLeft:0.019325,0.774144,-0.632532,0.015200 ShoulderRight:-0.109102,0.800632,0.566789,-0.160734 SpineBase:-0.049328,0.009156,0.998216,-0.032373 SpineMid:-0.072956,0.009920,0.996768,-0.032147 SpineShoulder:-0.097520,0.007919,0.994129,-0.046197 ThumbLeft:0.000000,0.000000,0.000000,0.000000 ThumbRight:0.000000,0.000000,0.000000,0.000000 WristLeft:0.096837,-0.559618,-0.132557,0.812329 WristRight:0.179462,0.027666,-0.478190,0.859280 END:
KINECT_DATA POSITION:14.668545,-0.045081,9.709728 HEAD_JOINT1:0.990698,0.134314,-0.000000,0.021847 LARM_JOINT2:0.826049,0.000000,0.010622,-0.563498 LARM_JOINT3:0.960281,0.000000,-0.200642,-0.193918 LLEG_JOINT2:0.999533,0.012077,0.000000,0.028056 LLEG_JOINT4:0.995826,0.090944,0.000000,-0.007762 RARM_JOINT2:0.853810,0.000000,0.434544,0.286671 RARM_JOINT3:0.869587,0.000000,0.465423,0.164927 RLEG_JOINT2:0.997542,0.040663,0.000000,-0.057062 RLEG_JOINT4:0.994626,0.079061,0.000000,0.066844 WAIST:0.996476,-0.000000,0.083861,0.001519 WAIST_JOINT0:0.989286,-0.000000,0.142988,0.029442 WAIST_JOINT1:0.998798,0.047062,-0.000000,0.013701 END:
KINECT_DATA_Sensor  AnkleLeft:-0.062857,-0.624184,0.084181,0.774181 AnkleRight:0.089488,0.783389,0.079562,0.609887 ElbowLeft:-0.021578,0.843247,-0.206613,-0.495762 ElbowRight:-0.446449,0.878797,0.123970,0.114152 FootLeft:0.000000,0.000000,0.000000,0.000000 FootRight:0.000000,0.000000,0.000000,0.000000 HandLeft:0.030402,-0.589319,-0.100646,0.801030 HandRight:0.216069,0.345558,-0.611144,0.678532 HandTipLeft:0.000000,0.000000,0.000000,0.000000 HandTipRight:0.000000,0.000000,0.000000,0.000000 Head:0.000000,0.000000,0.000000,0.000000 HipLeft:0.085006,-0.686370,0.711975,-0.121498 HipRight:-0.193912,0.666645,0.687467,-0.213007 KneeLeft:0.009932,-0.645478,0.030307,0.763112 KneeRight:-0.016096,0.763894,0.066859,0.641667 Neck:-0.144384,0.015376,0.987442,-0.062245 ShoulderLeft:0.051979,0.771087,-0.634038,-0.026826 ShoulderRight:-0.137509,0.789126,0.566730,-0.192843 SpineBase:-0.083550,0.011761,0.996105,-0.025621 SpineMid:-0.113487,0.012526,0.993139,-0.025256 SpineShoulder:-0.144433,0.013734,0.988508,-0.042451 ThumbLeft:0.000000,0.000000,0.000000,0.000000 ThumbRight:0.000000,0.000000,0.000000,0.000000 WristLeft:0.126533,-0.571399,-0.103893,0.804176 WristRight:0.158663,0.350264,-0.517408,0.764480 END:
KINECT_DATA POSITION:15.035955,0.914748,9.384001 HEAD_JOINT1:0.991870,0.127130,0.000000,-0.005681 LARM_JOINT2:0.824655,0.000000,0.024982,-0.565085 LARM_JOINT3:0.957883,0.000000,-0.200835,-0.205246 LLEG_JOINT2:0.999750,0.007820,0.000000,0.020953 LLEG_JOINT4:0.995992,0.089248,0.000000,-0.005895 RARM_JOINT2:0.848477,0.000000,0.450778,0.277282 RARM_JOINT3:0.861837,0.000000,0.479491,0.165306 RLEG_JOINT2:0.996630,0.048110,0.000000,-0.066436 RLEG_JOINT4:0.994613,0.074132,0.000000,0.072460 WAIST:0.990630,-0.000000,0.136224,0.009747 WAIST_JOINT0:0.982220,-0.000000,0.183621,0.039087 WAIST_JOINT1:0.998763,0.046318,-0.000000,0.018088 END:
KINECT_DATA_Sensor  AnkleLeft:0.072638,0.714903,-0.066938,-0.692212 AnkleRight:0.079048,0.742082,0.092287,0.659203 ElbowLeft:-0.004458,0.812119,-0.220033,-0.540397 ElbowRight:-0.462614,0.880139,0.074083,0.076518 FootLeft:0.000000,0.000000,0.000000,0.000000 FootRight:0.000000,0.000000,0.000000,0.000000 HandLeft:0.022737,-0.522967,-0.107418,0.845251 HandRight:0.263423,0.374230,-0.566136,0.685602 HandTipLeft:0.000000,0.000000,0.000000,0.000000 HandTipRight:0.000000,0.000000,0.000000,0.000000 Head:0.000000,0.000000,0.000000,0.000000 HipLeft:0.048647,-0.683972,0.722449,-0.088784 HipRight:-0.220226,0.663624,0.674932,-0.235733 KneeLeft:0.013300,-0.604310,0.028319,0.796135 KneeRight:-0.016725,0.797231,0.071668,0.599171 Neck:-0.183235,0.026924,0.980752,-0.061849 ShoulderLeft:0.096128,0.758559,-0.640684,-0.069788 ShoulderRight:-0.142889,0.783666,0.566449,-0.211151 SpineBase:-0.136059,0.019839,0.990165,-0.025832 SpineMid:-0.159332,0.020442,0.986688,-0.025357 SpineShoulder:-0.183352,0.022549,0.981866,-0.042586 ThumbLeft:0.000000,0.000000,0.000000,0.000000 ThumbRight:0.000000,0.000000,0.000000,0.000000 WristLeft:0.130138,-0.501350,-0.090345,0.850617 WristRight:0.233728,0.381428,-0.526500,0.722967 END:
KINECT_DATA POSITION:14.798181,1.465834,8.883071 HEAD_JOINT1:0.992061,0.120889,0.000000,-0.034648 LARM_JOINT2:0.803048,0.000000,0.016541,-0.595685 LARM_JOINT3:0.963958,0.000000,-0.198779,-0.176840 LLEG_JOINT2:0.999865,0.000788,0.000000,0.016399 LLEG_JOINT4:0.996472,0.083881,0.000000,0.002911 RARM_JOINT2:0.812053,0.000000,0.488975,0.318548 RARM_JOINT3:0.894964,0.000000,0.433145,0.106884 RLEG_JOINT2:0.996073,0.052464,0.000000,-0.071314 RLEG_JOINT4:0.994259,0.073018,0.000000,0.078212 WAIST:0.983529,-0.000000,0.180101,0.015310 WAIST_JOINT0:0.970610,-0.000000,0.236191,0.046156 WAIST_JOINT1:0.998395,0.047742,-0.000000,0.030476 END:
KINECT_DATA_Sensor  AnkleLeft:-0.048106,-0.565767,0.074583,0.819775 AnkleRight:0.078510,0.752649,0.096291,0.646594 ElbowLeft:-0.004152,0.766597,-0.199745,-0.610258 ElbowRight:-0.437558,0.895287,-0.043237,0.071652 FootLeft:0.000000,0.000000,0.000000,0.000000 FootRight:0.000000,0.000000,0.000000,0.000000 HandLeft:-0.019430,-0.535847,-0.110181,0.836870 HandRight:0.377191,0.335476,-0.540397,0.673167 HandTipLeft:0.000000,0.000000,0.000000,0.000000 HandTipRight:0.000000,0.000000,0.000000,0.000000 Head:0.000000,0.000000,0.000000,0.000000 HipLeft:0.017568,-0.684683,0.725566,-0.066747 HipRight:-0.243975,0.661611,0.660785,-0.257117 KneeLeft:0.019466,-0.568729,0.024786,0.821921 KneeRight:-0.017739,0.823632,0.072985,0.562128 Neck:-0.236565,0.044108,0.968343,-0.066360 ShoulderLeft:0.129280,0.741011,-0.650729,-0.103643 ShoulderRight:-0.183877,0.767353,0.558669,-0.255434 SpineBase:-0.179826,0.030245,0.982812,-0.028781 SpineMid:-0.207833,0.031054,0.977273,-0.027905 SpineShoulder:-0.236617,0.038163,0.969806,-0.045071 ThumbLeft:0.000000,0.000000,0.000000,0.000000 ThumbRight:0.000000,0.000000,0.000000,0.000000 WristLeft:0.148100,-0.495659,-0.075257,0.852482 WristRight:0.292292,0.304825,-0.514349,0.746386 END:
KINECT_DATA POSITION:14.585426,1.483953,8.639383 HEAD_JOINT1:0.992518,0.117390,0.000000,-0.033591 LARM_JOINT2:0.796134,0.000000,0.029741,-0.604389 LARM_JOINT3:0.964434,0.000000,-0.205847,-0.165814 LLEG_JOINT2:0.999797,0.000923,0.000000,0.020152 LLEG_JOINT4:0.997035,0.076674,0.000000,0.006437 RARM_JOINT2:0.813394,0.000000,0.472096,0.339876 RARM_JOINT3:0.887758,0.000000,0.447083,0.109559 RLEG_JOINT2:0.996178,0.051999,0.000000,-0.070188 RLEG_JOINT4:0.993435,0.076442,0.000000,0.085108 WAIST:0.981382,-0.000000,0.191674,0.012267 WAIST_JOINT0:0.964535,-0.000000,0.261221,0.037891 WAIST_JOINT1:0.998093,0.049185,-0.000000,0.037294 END:
KINECT_DATA_Sensor  AnkleLeft:0.055452,0.715373,-0.063762,-0.693615 AnkleRight:0.083918,0.762763,0.097257,0.633792 ElbowLeft:0.010517,0.754017,-0.196347,-0.626734 ElbowRight:-0.414223,0.904670,-0.052473,0.085075 FootLeft:0.000000,0.000000,0.000000,0.000000 FootRight:0.000000,0.000000,0.000000,0.000000 HandLeft:0.046569,-0.559006,-0.109431,0.820590 HandRight:0.350986,0.385004,-0.557514,0.646342 HandTipLeft:0.000000,0.000000,0.000000,0.000000 HandTipRight:0.000000,0.000000,0.000000,0.000000 Head:0.000000,0.000000,0.000000,0.000000 HipLeft:0.010880,-0.688118,0.722571,-0.065322 HipRight:-0.251608,0.657266,0.658893,-0.265620 KneeLeft:0.019120,-0.559382,0.025933,0.828284 KneeRight:-0.020178,0.830107,0.073786,0.552332 Neck:-0.261581,0.046836,0.961555,-0.069244 ShoulderLeft:0.128718,0.738132,-0.654024,-0.104143 ShoulderRight:-0.226125,0.743466,0.560380,-0.286531 SpineBase:-0.191028,0.033377,0.980518,-0.031280 SpineMid:-0.225717,0.034466,0.973118,-0.030075 SpineShoulder:-0.261532,0.042139,0.963126,-0.047048 ThumbLeft:0.000000,0.000000,0.000000,0.000000 ThumbRight:0.000000,0.000000,0.000000,0.000000 WristLeft:0.142280,-0.535838,-0.056668,0.830315 WristRight:0.271999,0.358932,-0.531748,0.717237 END:
KINECT_DATA POSITION:14.320620,1.480487,8.392906 HEAD_JOINT1:0.992439,0.119588,0.000000,-0.027632 LARM_JOINT2:0.795331,0.000000,0.041863,-0.604728 LARM_JOINT3:0.960640,0.000000,-0.226942,-0.160215 LLEG_JOINT2:0.999666,-0.001823,0.000000,0.025761 LLEG_JOINT4:0.997156,0.075224,0.000000,0.004537 RARM_JOINT2:0.807294,0.000000,0.480924,0.342036 RARM_JOINT3:0.889653,0.000000,0.448185,0.087451 RLEG_JOINT2:0.996571,0.049819,0.000000,-0.066061 RLEG_JOINT4:0.993340,0.075311,0.000000,0.087205 WAIST:0.979342,-0.000000,0.202038,0.008367 WAIST_JOINT0:0.962699,-0.000000,0.268025,0.037067 WAIST_JOINT1:0.997871,0.049844,-0.000000,0.042050 END:
KINECT_DATA_Sensor  AnkleLeft:-0.038719,-0.544963,0.071499,0.834508 AnkleRight:0.094689,0.840175,0.083745,0.527378 ElbowLeft:0.019720,0.735538,-0.199488,-0.647147 ElbowRight:-0.410854,0.904911,-0.072497,0.084143 FootLeft:0.000000,0.000000,0.000000,0.000000 FootRight:0.000000,0.000000,0.000000,0.000000 HandLeft:0.115738,-0.543127,-0.095928,0.826085 HandRight:-0.249528,-0.481536,0.633727,-0.551588 HandTipLeft:0.000000,0.000000,0.000000,0.000000 HandTipRight:0.000000,0.000000,0.000000,0.000000 Head:0.000000,0.000000,0.000000,0.000000 HipLeft:0.005413,-0.691572,0.719500,-0.063396 HipRight:-0.260148,0.652519,0.657602,-0.272217 KneeLeft:0.021542,-0.551051,0.026478,0.833773 KneeRight:-0.021568,0.835747,0.072133,0.543929 Neck:-0.268784,0.046502,0.959444,-0.071125 ShoulderLeft:0.134191,0.734678,-0.656602,-0.105424 ShoulderRight:-0.232815,0.736349,0.563196,-0.293935 SpineBase:-0.200978,0.035800,0.978392,-0.032788 SpineMid:-0.234251,0.036898,0.970963,-0.031547 SpineShoulder:-0.268732,0.042279,0.961034,-0.049093 ThumbLeft:0.000000,0.000000,0.000000,0.000000 ThumbRight:0.000000,0.000000,0.000000,0.000000 WristLeft:0.147700,-0.534434,-0.057066,0.830246 WristRight:-0.176358,-0.488408,0.580261,-0.627417 END:
KINECT_DATA POSITION:14.264051,1.388347,8.364069 HEAD_JOINT1:0.992263,0.120734,0.000000,-0.028942 LARM_JOINT2:0.800245,0.000000,0.043860,-0.598067 LARM_JOINT3:0.953838,0.000000,-0.244801,-0.173969 LLEG_JOINT2:0.999699,-0.001513,0.000000,0.024504 LLEG_JOINT4:0.997152,0.075051,0.000000,0.007369 RARM_JOINT2:0.820972,0.000000,0.468422,0.326474 RARM_JOINT3:0.858421,0.000000,0.505783,0.085423 RLEG_JOINT2:0.996623,0.046070,0.000000,-0.067965 RLEG_JOINT4:0.992852,0.079653,0.000000,0.088881 WAIST:0.980410,-0.000000,0.196766,0.008948 WAIST_JOINT0:0.964188,-0.000000,0.261564,0.043883 WAIST_JOINT1:0.997792,0.050804,-0.000000,0.042778 END:
KINECT_DATA_Sensor  AnkleLeft:-0.037237,-0.549907,0.073514,0.831151 AnkleRight:0.082282,0.748767,0.096748,0.650551 ElbowLeft:0.020863,0.745723,-0.208998,-0.632283 ElbowRight:-0.420404,0.901128,-0.049465,0.093714 FootLeft:0.000000,0.000000,0.000000,0.000000 FootRight:0.000000,0.000000,0.000000,0.000000 HandLeft:0.158822,-0.505839,-0.135392,0.837002 HandRight:0.630010,0.080671,-0.390531,0.666382 HandTipLeft:0.000000,0.000000,0.000000,0.000000 HandTipRight:0.000000,0.000000,0.000000,0.000000 Head:0.000000,0.000000,0.000000,0.000000 HipLeft:0.007818,-0.691261,0.719437,-0.067136 HipRight:-0.256525,0.654236,0.658338,-0.269743 KneeLeft:0.021107,-0.555584,0.025928,0.830788 KneeRight:-0.024445,0.832626,0.069807,0.548874 Neck:-0.263232,0.048636,0.960843,-0.071591 ShoulderLeft:0.138182,0.731365,-0.659488,-0.105291 ShoulderRight:-0.219163,0.745040,0.560962,-0.286713 SpineBase:-0.195699,0.036451,0.979411,-0.033577 SpineMid:-0.228904,0.037572,0.972187,-0.032317 SpineShoulder:-0.263227,0.043508,0.962452,-0.050039 ThumbLeft:0.000000,0.000000,0.000000,0.000000 ThumbRight:0.000000,0.000000,0.000000,0.000000 WristLeft:0.146392,-0.503819,-0.072644,0.848210 WristRight:0.507670,0.035662,-0.365075,0.779564 END:
KINECT_DATA POSITION:14.250858,1.145910,8.331847 HEAD_JOINT1:0.991068,0.131401,0.000000,-0.022778 LARM_JOINT2:0.805568,0.000000,0.048631,-0.590505 LARM_JOINT3:0.953858,0.000000,-0.239192,-0.181500 LLEG_JOINT2:0.999820,-0.000832,0.000000,0.018931 LLEG_JOINT4:0.997120,0.074959,0.000000,0.011556 RARM_JOINT2:0.806110,0.000000,0.499643,0.317087 RARM_JOINT3:0.841727,0.000000,0.537270,0.053252 RLEG_JOINT2:0.996439,0.044458,0.000000,-0.071649 RLEG_JOINT4:0.993080,0.081064,0.000000,0.084974 WAIST:0.981565,-0.000000,0.190708,0.012689 WAIST_JOINT0:0.965698,-0.000000,0.252865,0.059050 WAIST_JOINT1:0.997727,0.055827,-0.000000,0.037737 END:
KINECT_DATA_Sensor  AnkleLeft:-0.035541,-0.556164,0.075565,0.826867 AnkleRight:0.081369,0.760941,0.095336,0.636600 ElbowLeft:0.023963,0.744520,-0.218921,-0.630229 ElbowRight:-0.426461,0.892997,-0.085977,0.115306 FootLeft:0.000000,0.000000,0.000000,0.000000 FootRight:0.000000,0.000000,0.000000,0.000000 HandLeft:0.109236,-0.524324,-0.114644,0.836665 HandRight:0.512125,0.262662,-0.547316,0.607603 HandTipLeft:0.000000,0.000000,0.000000,0.000000 HandTipRight:0.000000,0.000000,0.000000,0.000000 Head:0.000000,0.000000,0.000000,0.000000 HipLeft:0.008347,-0.688069,0.722164,-0.070498 HipRight:-0.250214,0.656874,0.658626,-0.268555 KneeLeft:0.020198,-0.560650,0.024240,0.827452 KneeRight:-0.025326,0.829163,0.068078,0.554267 Neck:-0.255341,0.046800,0.962740,-0.075776 ShoulderLeft:0.145547,0.715702,-0.676618,-0.093677 ShoulderRight:-0.204315,0.747264,0.566642,-0.280657 SpineBase:-0.189856,0.035764,0.980492,-0.036201 SpineMid:-0.222104,0.036939,0.973694,-0.035001 SpineShoulder:-0.255372,0.041869,0.964428,-0.053947 ThumbLeft:0.000000,0.000000,0.000000,0.000000 ThumbRight:0.000000,0.000000,0.000000,0.000000 WristLeft:0.148175,-0.512998,-0.064316,0.843054 WristRight:0.447982,0.252486,-0.516060,0.685015 END:
KINECT_DATA POSITION:14.234964,1.156623,8.424425 HEAD_JOINT1:0.991508,0.126412,0.000000,-0.030530 LARM_JOINT2:0.801289,0.000000,0.040624,-0.596896 LARM_JOINT3:0.952577,0.000000,-0.244630,-0.180980 LLEG_JOINT2:0.999838,-0.002234,0.000000,0.017867 LLEG_JOINT4:0.997202,0.073242,0.000000,0.014986 RARM_JOINT2:0.750588,0.000000,0.573011,0.329053 RARM_JOINT3:0.909450,0.000000,0.414455,0.033595 RLEG_JOINT2:0.996444,0.045226,0.000000,-0.071097 RLEG_JOINT4:0.992318,0.083780,0.000000,0.091024 WAIST:0.981083,-0.000000,0.193152,0.012978 WAIST_JOINT0:0.964440,-0.000000,0.259398,0.050681 WAIST_JOINT1:0.997480,0.057925,-0.000000,0.040976 END:
KINECT_DATA_Sensor  AnkleLeft:0.049688,0.744926,-0.065497,-0.662062 AnkleRight:0.085476,0.739541,0.098203,0.660401 ElbowLeft:0.023252,0.749872,-0.213726,-0.625678 ElbowRight:-0.414518,0.889930,-0.172775,0.079670 FootLeft:0.000000,0.000000,0.000000,0.000000 FootRight:0.000000,0.000000,0.000000,0.000000 HandLeft:0.138171,-0.548962,-0.122283,0.815228 HandRight:-0.270044,-0.472666,0.632201,-0.551348 HandTipLeft:0.000000,0.000000,0.000000,0.000000 HandTipRight:0.000000,0.000000,0.000000,0.000000 Head:0.000000,0.000000,0.000000,0.000000 HipLeft:0.004259,-0.687474,0.722740,-0.070762 HipRight:-0.250558,0.655938,0.658582,-0.270621 KneeLeft:0.020930,-0.558922,0.022817,0.828642 KneeRight:-0.024430,0.830548,0.068114,0.552226 Neck:-0.260897,0.050280,0.960900,-0.077949 ShoulderLeft:0.152768,0.715186,-0.674687,-0.099841 ShoulderRight:-0.206253,0.735818,0.579587,-0.283038 SpineBase:-0.192147,0.037622,0.979873,-0.038901 SpineMid:-0.226061,0.038950,0.972609,-0.037571 SpineShoulder:-0.260927,0.045088,0.962653,-0.056421 ThumbLeft:0.000000,0.000000,0.000000,0.000000 ThumbRight:0.000000,0.000000,0.000000,0.000000 WristLeft:0.147789,-0.543351,-0.067036,0.823671 WristRight:-0.225856,-0.464119,0.616911,-0.594141 END:
KINECT_DATA POSITION:14.278515,1.051096,8.477222 HEAD_JOINT1:0.991953,0.121889,0.000000,-0.034231 LARM_JOINT2:0.797230,0.000000,0.031103,-0.602874 LARM_JOINT3:0.955252,0.000000,-0.238388,-0.175113 LLEG_JOINT2:0.999936,-0.001390,0.000000,0.011213 LLEG_JOINT4:0.996980,0.075231,0.000000,0.019246 RARM_JOINT2:0.740221,0.000000,0.605033,0.293272 RARM_JOINT3:0.929193,0.000000,0.367892,0.035439 RLEG_JOINT2:0.995958,0.047711,0.000000,-0.076103 RLEG_JOINT4:0.992540,0.083883,0.000000,0.088474 WAIST:0.980350,-0.000000,0.196428,0.018135 WAIST_JOINT0:0.965556,-0.000000,0.254142,0.055795 WAIST_JOINT1:0.997272,0.062646,-0.000000,0.039027 END:
KINECT_DATA_Sensor  AnkleLeft:-0.032315,-0.556047,0.078803,0.826776 AnkleRight:0.098051,0.833948,0.086982,0.536052 ElbowLeft:0.022618,0.753014,-0.208770,-0.623597 ElbowRight:-0.442554,0.878312,-0.178508,0.029132 FootLeft:0.000000,0.000000,0.000000,0.000000 FootRight:0.000000,0.000000,0.000000,0.000000 HandLeft:0.127282,-0.514017,-0.101871,0.842145 HandRight:0.357576,0.355353,-0.567822,0.650724 HandTipLeft:0.000000,0.000000,0.000000,0.000000 HandTipRight:0.000000,0.000000,0.000000,0.000000 Head:0.000000,0.000000,0.000000,0.000000 HipLeft:-0.001566,-0.684647,0.725553,-0.069490 HipRight:-0.250276,0.658719,0.654834,-0.273210 KneeLeft:0.020143,-0.556122,0.021429,0.830580 KneeRight:-0.023821,0.832617,0.069214,0.548991 Neck:-0.257455,0.052184,0.961342,-0.082550 ShoulderLeft:0.163430,0.716128,-0.670154,-0.106513 ShoulderRight:-0.185022,0.749398,0.572631,-0.276158 SpineBase:-0.195675,0.038968,0.978989,-0.042105 SpineMid:-0.226185,0.040266,0.972394,-0.040866 SpineShoulder:-0.257487,0.046985,0.963214,-0.060925 ThumbLeft:0.000000,0.000000,0.000000,0.000000 ThumbRight:0.000000,0.000000,0.000000,0.000000 WristLeft:0.142035,-0.509650,-0.076262,0.845143 WristRight:0.332468,0.356143,-0.550377,0.678021 END:
KINECT_DATA POSITION:14.340514,0.946169,8.516275 HEAD_JOINT1:0.991870,0.122519,0.000000,-0.034410 LARM_JOINT2:0.796389,0.000000,0.028333,-0.604120 LARM_JOINT3:0.958743,0.000000,-0.227102,-0.170985 LLEG_JOINT2:0.999980,-0.001149,0.000000,0.006255 LLEG_JOINT4:0.996896,0.076018,0.000000,0.020495 RARM_JOINT2:0.732002,0.000000,0.622169,0.277631 RARM_JOINT3:0.937686,0.000000,0.345938,0.032736 RLEG_JOINT2:0.995633,0.049658,0.000000,-0.079053 RLEG_JOINT4:0.992497,0.081934,0.000000,0.090751 WAIST:0.979816,-0.000000,0.198765,0.021290 WAIST_JOINT0:0.966077,-0.000000,0.251597,0.058260 WAIST_JOINT1:0.997218,0.065154,-0.000000,0.036206 END:
KINECT_DATA_Sensor  AnkleLeft:-0.033449,-0.557356,0.078277,0.825899 AnkleRight:0.099006,0.832735,0.085772,0.537953 ElbowLeft:0.024170,0.755002,-0.207388,-0.621593 ElbowRight:-0.452955,0.871551,-0.187461,0.009457 FootLeft:0.000000,0.000000,0.000000,0.000000 FootRight:0.000000,0.000000,0.000000,0.000000 HandLeft:0.114041,-0.563840,-0.065508,0.815345 HandRight:0.335107,0.392756,-0.581450,0.628778 HandTipLeft:0.000000,0.000000,0.000000,0.000000 HandTipRight:0.000000,0.000000,0.000000,0.000000 Head:0.000000,0.000000,0.000000,0.000000 HipLeft:-0.006386,-0.682060,0.728159,-0.067364 HipRight:-0.248973,0.659358,0.653719,-0.275518 KneeLeft:0.019420,-0.554101,0.019675,0.831990 KneeRight:-0.023160,0.834085,0.070158,0.546666 Neck:-0.255191,0.051482,0.961801,-0.084653 ShoulderLeft:0.170345,0.715835,-0.668108,-0.110433 ShoulderRight:-0.172177,0.755237,0.571371,-0.271124 SpineBase:-0.198224,0.039046,0.978377,-0.044291 SpineMid:-0.226367,0.040308,0.972251,-0.043146 SpineShoulder:-0.255225,0.046548,0.963693,-0.063166 ThumbLeft:0.000000,0.000000,0.000000,0.000000 ThumbRight:0.000000,0.000000,0.000000,0.000000 WristLeft:0.141811,-0.559704,-0.063799,0.813973 WristRight:0.298415,0.388741,-0.562143,0.666202 END:
KINECT_DATA POSITION:14.366731,0.928583,8.547306 HEAD_JOINT1:0.991650,0.124238,0.000000,-0.034565 LARM_JOINT2:0.796050,0.000000,0.026391,-0.604655 LARM_JOINT3:0.957568,0.000000,-0.232496,-0.170321 LLEG_JOINT2:0.999991,-0.001262,0.000000,0.004003 LLEG_JOINT4:0.996697,0.078201,0.000000,0.021907 RARM_JOINT2:0.718684,0.000000,0.636778,0.279297 RARM_JOINT3:0.944445,0.000000,0.328063,0.019963 RLEG_JOINT2:0.995395,0.050051,0.000000,-0.081755 RLEG_JOINT4:0.992604,0.079393,0.000000,0.091833 WAIST:0.979605,-0.000000,0.199629,0.022858 WAIST_JOINT0:0.964704,-0.000000,0.257072,0.057097 WAIST_JOINT1:0.997165,0.066771,-0.000000,0.034706 END:
KINECT_DATA_Sensor  AnkleLeft:0.052432,0.735583,-0.069369,-0.671830 AnkleRight:0.097724,0.835316,0.083558,0.534524 ElbowLeft:0.024731,0.756052,-0.206717,-0.620518 ElbowRight:-0.448539,0.869704,-0.205967,0.002159 FootLeft:0.000000,0.000000,0.000000,0.000000 FootRight:0.000000,0.000000,0.000000,0.000000 HandLeft:0.129919,-0.500312,-0.087378,0.851572 HandRight:0.431358,0.268908,-0.535709,0.674266 HandTipLeft:0.000000,0.000000,0.000000,0.000000 HandTipRight:0.000000,0.000000,0.000000,0.000000 Head:0.000000,0.000000,0.000000,0.000000 HipLeft:-0.008487,-0.680538,0.729541,-0.067571 HipRight:-0.248057,0.659343,0.653358,-0.277233 KneeLeft:0.019379,-0.553378,0.018849,0.832492 KneeRight:-0.024162,0.834575,0.070844,0.545786 Neck:-0.259676,0.051525,0.960505,-0.085691 ShoulderLeft:0.174480,0.714180,-0.668411,-0.112828 ShoulderRight:-0.175425,0.749451,0.576294,-0.274653 SpineBase:-0.199198,0.038890,0.978100,-0.046129 SpineMid:-0.229108,0.040287,0.971529,-0.044914 SpineShoulder:-0.259734,0.046585,0.962407,-0.064344 ThumbLeft:0.000000,0.000000,0.000000,0.000000 ThumbRight:0.000000,0.000000,0.000000,0.000000 WristLeft:0.135465,-0.498532,-0.074545,0.852970 WristRight:0.387742,0.270367,-0.502000,0.724261 END:
KINECT_DATA POSITION:14.386353,0.906185,8.556164 HEAD_JOINT1:0.992052,0.121214,0.000000,-0.033752 LARM_JOINT2:0.795498,0.000000,0.024882,-0.605445 LARM_JOINT3:0.958778,0.000000,-0.231071,-0.165380 LLEG_JOINT2:0.999996,-0.001439,0.000000,0.002587 LLEG_JOINT4:0.996822,0.076615,0.000000,0.021807 RARM_JOINT2:0.712626,0.000000,0.645202,0.275461 RARM_JOINT3:0.948524,0.000000,0.316313,0.015728 RLEG_JOINT2:0.995226,0.050475,0.000000,-0.083532 RLEG_JOINT4:0.992306,0.081603,0.000000,0.093114 WAIST:0.979734,-0.000000,0.198844,0.024141 WAIST_JOINT0:0.964366,-0.000000,0.258054,0.058362 WAIST_JOINT1:0.997069,0.068584,-0.000000,0.033915 END:
KINECT_DATA_Sensor  AnkleLeft:0.051093,0.741371,-0.068126,-0.665670 AnkleRight:0.087343,0.754297,0.097728,0.643317 ElbowLeft:0.024738,0.755738,-0.206440,-0.620992 ElbowRight:-0.448251,0.867547,-0.215475,0.001750 FootLeft:0.000000,0.000000,0.000000,0.000000 FootRight:0.000000,0.000000,0.000000,0.000000 HandLeft:0.138216,-0.553658,-0.065531,0.818575 HandRight:0.416539,0.267492,-0.533931,0.685464 HandTipLeft:0.000000,0.000000,0.000000,0.000000 HandTipRight:0.000000,0.000000,0.000000,0.000000 Head:0.000000,0.000000,0.000000,0.000000 HipLeft:-0.009401,-0.679216,0.730662,-0.068634 HipRight:-0.246520,0.659714,0.653355,-0.277729 KneeLeft:0.019654,-0.554059,0.018476,0.832040 KneeRight:-0.024432,0.834165,0.071311,0.546340 Neck:-0.260736,0.052010,0.960052,-0.087250 ShoulderLeft:0.177906,0.712431,-0.669243,-0.113597 ShoulderRight:-0.173540,0.749076,0.577048,-0.275290 SpineBase:-0.198502,0.039038,0.978164,-0.047634 SpineMid:-0.229300,0.040523,0.971405,-0.046377 SpineShoulder:-0.260811,0.046989,0.961996,-0.065822 ThumbLeft:0.000000,0.000000,0.000000,0.000000 ThumbRight:0.000000,0.000000,0.000000,0.000000 WristLeft:0.139560,-0.553347,-0.063866,0.818689 WristRight:0.385979,0.272215,-0.505900,0.721793 END:
KINECT_DATA POSITION:14.360929,0.930935,8.580029 HEAD_JOINT1:0.991703,0.123864,0.000000,-0.034386 LARM_JOINT2:0.795407,0.000000,0.024153,-0.605595 LARM_JOINT3:0.959240,0.000000,-0.231211,-0.162483 LLEG_JOINT2:0.999990,-0.000577,0.000000,0.004541 LLEG_JOINT4:0.996692,0.078628,0.000000,0.020546 RARM_JOINT2:0.723889,0.000000,0.622575,0.297295 RARM_JOINT3:0.935040,0.000000,0.354542,-0.000312 RLEG_JOINT2:0.995278,0.050804,0.000000,-0.082702 RLEG_JOINT4:0.992409,0.080427,0.000000,0.093039 WAIST:0.980115,-0.000000,0.197047,0.023371 WAIST_JOINT0:0.963985,-0.000000,0.260564,0.053285 WAIST_JOINT1:0.997003,0.069127,-0.000000,0.034743 END:
KINECT_DATA_Sensor  AnkleLeft:0.052971,0.733514,-0.069860,-0.673996 AnkleRight:0.085467,0.741444,0.098543,0.658214 ElbowLeft:0.023793,0.754811,-0.206541,-0.622121 ElbowRight:-0.424393,0.877220,-0.217480,0.055481 FootLeft:0.000000,0.000000,0.000000,0.000000 FootRight:0.000000,0.000000,0.000000,0.000000 HandLeft:0.136990,-0.519245,-0.069560,0.840702 HandRight:-0.298955,-0.438822,0.643221,-0.551660 HandTipLeft:0.000000,0.000000,0.000000,0.000000 HandTipRight:0.000000,0.000000,0.000000,0.000000 Head:0.000000,0.000000,0.000000,0.000000 HipLeft:-0.008013,-0.679139,0.730529,-0.070942 HipRight:-0.245798,0.659128,0.654449,-0.277183 KneeLeft:0.019476,-0.555601,0.020034,0.830980 KneeRight:-0.023939,0.833125,0.071742,0.547889 Neck:-0.263004,0.052408,0.959364,-0.087770 ShoulderLeft:0.178662,0.711250,-0.670314,-0.113496 ShoulderRight:-0.178340,0.740928,0.585107,-0.277254 SpineBase:-0.196624,0.038995,0.978510,-0.048333 SpineMid:-0.229492,0.040602,0.971327,-0.046991 SpineShoulder:-0.263078,0.047413,0.961328,-0.066254 ThumbLeft:0.000000,0.000000,0.000000,0.000000 ThumbRight:0.000000,0.000000,0.000000,0.000000 WristLeft:0.137684,-0.519019,-0.067895,0.840864 WristRight:-0.230489,-0.438059,0.603076,-0.625523 END:
KINECT_DATA POSITION:14.299125,0.986885,8.668530 HEAD_JOINT1:0.989837,0.140704,0.000000,-0.020611 LARM_JOINT2:0.801810,0.000000,0.017991,-0.597309 LARM_JOINT3:0.958467,0.000000,-0.229204,-0.169727 LLEG_JOINT2:0.999940,0.000840,0.000000,0.010934 LLEG_JOINT4:0.996875,0.077241,0.000000,0.016542 RARM_JOINT2:0.766185,0.000000,0.562833,0.310128 RARM_JOINT3:0.888485,0.000000,0.458847,0.007380 RLEG_JOINT2:0.995694,0.048839,0.000000,-0.078793 RLEG_JOINT4:0.992558,0.081836,0.000000,0.090175 WAIST:0.981529,-0.000000,0.190334,0.019346 WAIST_JOINT0:0.964764,-0.000000,0.258535,0.048884 WAIST_JOINT1:0.997269,0.066583,-0.000000,0.031969 END:
KINECT_DATA_Sensor  AnkleLeft:0.053274,0.731918,-0.069588,-0.675734 AnkleRight:0.098949,0.835711,0.084474,0.533536 ElbowLeft:0.016431,0.763843,-0.208340,-0.610629 ElbowRight:-0.425365,0.888790,-0.147325,0.086093 FootLeft:0.000000,0.000000,0.000000,0.000000 FootRight:0.000000,0.000000,0.000000,0.000000 HandLeft:0.123588,-0.508694,-0.114684,0.844277 HandRight:-0.350894,-0.378789,0.685559,-0.513226 HandTipLeft:0.000000,0.000000,0.000000,0.000000 HandTipRight:0.000000,0.000000,0.000000,0.000000 Head:0.000000,0.000000,0.000000,0.000000 HipLeft:0.000836,-0.681442,0.727819,-0.076915 HipRight:-0.243115,0.657192,0.658045,-0.275627 KneeLeft:0.019047,-0.561136,0.023253,0.827177 KneeRight:-0.024055,0.829088,0.071029,0.554066 Neck:-0.259774,0.045650,0.960921,-0.084047 ShoulderLeft:0.171079,0.709243,-0.675825,-0.104723 ShoulderRight:-0.185874,0.729963,0.596699,-0.276686 SpineBase:-0.189740,0.035958,0.980051,-0.046970 SpineMid:-0.224338,0.037599,0.972714,-0.045667 SpineShoulder:-0.259783,0.042086,0.962651,-0.063599 ThumbLeft:0.000000,0.000000,0.000000,0.000000 ThumbRight:0.000000,0.000000,0.000000,0.000000 WristLeft:0.136823,-0.503171,-0.068155,0.850561 WristRight:-0.271047,-0.421563,0.604772,-0.618925 END:
KINECT_DATA POSITION:14.263151,1.021718,8.802152 HEAD_JOINT1:0.988078,0.153611,0.000000,-0.010306 LARM_JOINT2:0.813062,0.000000,0.009383,-0.582101 LARM_JOINT3:0.959171,0.000000,-0.218607,-0.179451 LLEG_JOINT2:0.999894,0.004200,0.000000,0.013943 LLEG_JOINT4:0.997117,0.074790,0.000000,0.012807 RARM_JOINT2:0.781402,0.000000,0.535197,0.320897 RARM_JOINT3:0.862133,0.000000,0.504889,0.042587 RLEG_JOINT2:0.995891,0.046174,0.000000,-0.077905 RLEG_JOINT4:0.992860,0.083025,0.000000,0.085651 WAIST:0.984058,-0.000000,0.176887,0.018441 WAIST_JOINT0:0.966065,-0.000000,0.249842,0.065557 WAIST_JOINT1:0.997496,0.065047,-0.000000,0.027778 END:
KINECT_DATA_Sensor  AnkleLeft:0.053999,0.739916,-0.069416,-0.666926 AnkleRight:0.096493,0.832487,0.084288,0.539027 ElbowLeft:0.006398,0.784050,-0.219042,-0.580728 ElbowRight:-0.421583,0.892944,-0.113497,0.109716 FootLeft:0.000000,0.000000,0.000000,0.000000 FootRight:0.000000,0.000000,0.000000,0.000000 HandLeft:0.091944,-0.430275,-0.153948,0.884709 HandRight:0.627400,0.105639,-0.390054,0.665633 HandTipLeft:0.000000,0.000000,0.000000,0.000000 HandTipRight:0.000000,0.000000,0.000000,0.000000 Head:0.000000,0.000000,0.000000,0.000000 HipLeft:0.014322,-0.681333,0.726649,-0.086956 HipRight:-0.238302,0.658957,0.660200,-0.270415 KneeLeft:0.017498,-0.571994,0.026913,0.819629 KneeRight:-0.024352,0.821292,0.069475,0.565738 Neck:-0.249622,0.042151,0.963981,-0.081564 ShoulderLeft:-0.159351,-0.688261,0.702597,0.085212 ShoulderRight:-0.188435,0.726792,0.601297,-0.273327 SpineBase:-0.176426,0.033428,0.982703,-0.045293 SpineMid:-0.212599,0.035078,0.975516,-0.044028 SpineShoulder:-0.249687,0.038283,0.965628,-0.061268 ThumbLeft:0.000000,0.000000,0.000000,0.000000 ThumbRight:0.000000,0.000000,0.000000,0.000000 WristLeft:0.128931,-0.416927,-0.069752,0.897041 WristRight:0.552349,0.068758,-0.393341,0.731755 END:
KINECT_DATA POSITION:14.227387,1.088333,8.883953 HEAD_JOINT1:0.988506,0.150749,0.000000,-0.011406 LARM_JOINT2:0.810805,0.000000,0.006016,-0.585286 LARM_JOINT3:0.961954,0.000000,-0.209067,-0.175887 LLEG_JOINT2:0.999875,0.002653,0.000000,0.015568 LLEG_JOINT4:0.996891,0.078225,0.000000,0.009396 RARM_JOINT2:0.768260,0.000000,0.551964,0.324209 RARM_JOINT3:0.887048,0.000000,0.458385,0.055035 RLEG_JOINT2:0.996078,0.045672,0.000000,-0.075783 RLEG_JOINT4:0.992796,0.084057,0.000000,0.085385 WAIST:0.984082,-0.000000,0.176921,0.016789 WAIST_JOINT0:0.966601,-0.000000,0.249124,0.060168 WAIST_JOINT1:0.997415,0.065309,-0.000000,0.029961 END:
KINECT_DATA_Sensor  AnkleLeft:0.055892,0.725933,-0.068200,-0.682090 AnkleRight:0.085044,0.753353,0.096958,0.644845 ElbowLeft:0.005097,0.784456,-0.215313,-0.581586 ElbowRight:-0.420503,0.894038,-0.126812,0.088277 FootLeft:0.000000,0.000000,0.000000,0.000000 FootRight:0.000000,0.000000,0.000000,0.000000 HandLeft:0.068889,-0.428597,-0.111290,0.893965 HandRight:-0.288087,-0.467645,0.626591,-0.552899 HandTipLeft:0.000000,0.000000,0.000000,0.000000 HandTipRight:0.000000,0.000000,0.000000,0.000000 Head:0.000000,0.000000,0.000000,0.000000 HipLeft:0.013565,-0.682711,0.725537,-0.085543 HipRight:-0.238103,0.658262,0.661285,-0.269630 KneeLeft:0.018525,-0.572085,0.026201,0.819567 KneeRight:-0.024072,0.821233,0.069011,0.565892 Neck:-0.249061,0.042946,0.964002,-0.082608 ShoulderLeft:-0.158160,-0.693146,0.697853,0.086805 ShoulderRight:-0.187979,0.725379,0.603353,-0.272863 SpineBase:-0.176348,0.032818,0.982756,-0.044890 SpineMid:-0.212331,0.034445,0.975614,-0.043654 SpineShoulder:-0.249160,0.038643,0.965718,-0.061765 ThumbLeft:0.000000,0.000000,0.000000,0.000000 ThumbRight:0.000000,0.000000,0.000000,0.000000 WristLeft:0.128479,-0.415742,-0.076579,0.897099 WristRight:-0.240737,-0.457777,0.611996,-0.598286 END:
KINECT_DATA POSITION:14.248615,1.200849,8.932697 HEAD_JOINT1:0.989569,0.142309,0.000000,-0.022378 LARM_JOINT2:0.802563,0.000000,0.015068,-0.596377 LARM_JOINT3:0.963362,0.000000,-0.212215,-0.164011 LLEG_JOINT2:0.999841,0.001881,0.000000,0.017714 LLEG_JOINT4:0.996944,0.077553,0.000000,0.009397 RARM_JOINT2:0.741248,0.000000,0.582656,0.333263 RARM_JOINT3:0.915614,0.000000,0.399002,0.049475 RLEG_JOINT2:0.996300,0.046524,0.000000,-0.072257 RLEG_JOINT4:0.992988,0.083187,0.000000,0.083994 WAIST:0.983372,-0.000000,0.181021,0.014497 WAIST_JOINT0:0.966074,-0.000000,0.253059,0.051594 WAIST_JOINT1:0.997064,0.067702,-0.000000,0.035784 END:
KINECT_DATA_Sensor  AnkleLeft:0.055496,0.726126,-0.067204,-0.682015 AnkleRight:0.084260,0.753243,0.098028,0.644915 ElbowLeft:0.014408,0.770929,-0.208704,-0.601584 ElbowRight:-0.409377,0.894457,-0.166718,0.067546 FootLeft:0.000000,0.000000,0.000000,0.000000 FootRight:0.000000,0.000000,0.000000,0.000000 HandLeft:0.083309,-0.559494,-0.045693,0.823370 HandRight:0.448471,0.302456,-0.501709,0.675042 HandTipLeft:0.000000,0.000000,0.000000,0.000000 HandTipRight:0.000000,0.000000,0.000000,0.000000 Head:0.000000,0.000000,0.000000,0.000000 HipLeft:0.009521,-0.684067,0.724501,-0.084025 HipRight:-0.240331,0.655655,0.662255,-0.271616 KneeLeft:0.018689,-0.569003,0.025944,0.821714 KneeRight:-0.022641,0.823511,0.069168,0.562612 Neck:-0.253838,0.046843,0.962208,-0.086766 ShoulderLeft:0.168500,0.700802,-0.686870,-0.093236 ShoulderRight:-0.185356,0.723471,0.605752,-0.274403 SpineBase:-0.180136,0.033740,0.981972,-0.046308 SpineMid:-0.216706,0.035447,0.974554,-0.045015 SpineShoulder:-0.254030,0.041401,0.964142,-0.064690 ThumbLeft:0.000000,0.000000,0.000000,0.000000 ThumbRight:0.000000,0.000000,0.000000,0.000000 WristLeft:0.138669,-0.553529,-0.061902,0.818868 WristRight:0.381459,0.267557,-0.508151,0.724352 END:
KINECT_DATA POSITION:14.415129,1.479827,8.950186 HEAD_JOINT1:0.989769,0.138649,0.000000,-0.033686 LARM_JOINT2:0.798631,0.000000,0.017897,-0.601554 LARM_JOINT3:0.962037,0.000000,-0.220205,-0.161230 LLEG_JOINT2:0.999929,-0.000729,0.000000,0.011912 LLEG_JOINT4:0.996676,0.079880,0.000000,0.016006 RARM_JOINT2:0.722332,0.000000,0.607510,0.330406 RARM_JOINT3:0.933080,0.000000,0.357654,0.038027 RLEG_JOINT2:0.995790,0.052338,0.000000,-0.075251 RLEG_JOINT4:0.992662,0.080839,0.000000,0.089931 WAIST:0.979980,-0.000000,0.198308,0.017727 WAIST_JOINT0:0.964885,-0.000000,0.257434,0.052206 WAIST_JOINT1:0.996962,0.068555,-0.000000,0.036981 END:
KINECT_DATA_Sensor  AnkleLeft:0.055729,0.729546,-0.068216,-0.678236 AnkleRight:0.086927,0.750455,0.100750,0.647388 ElbowLeft:0.018552,0.752933,-0.207169,-0.624363 ElbowRight:-0.406209,0.890573,-0.201459,0.035895 FootLeft:0.000000,0.000000,0.000000,0.000000 FootRight:0.000000,0.000000,0.000000,0.000000 HandLeft:0.100350,-0.511836,-0.072427,0.850122 HandRight:0.392500,0.381936,-0.544285,0.635471 HandTipLeft:0.000000,0.000000,0.000000,0.000000 HandTipRight:0.000000,0.000000,0.000000,0.000000 Head:0.000000,0.000000,0.000000,0.000000 HipLeft:-0.005594,-0.681192,0.728528,-0.072066 HipRight:-0.248427,0.652942,0.658582,-0.279680 KneeLeft:0.019667,-0.554714,0.022106,0.831515 KneeRight:-0.020968,0.833663,0.072810,0.547051 Neck:-0.258552,0.049046,0.960649,-0.088872 ShoulderLeft:0.175144,0.703531,-0.681217,-0.101552 ShoulderRight:-0.182230,0.727849,0.600606,-0.276226 SpineBase:-0.197472,0.036478,0.978456,-0.047938 SpineMid:-0.227787,0.037950,0.971846,-0.046782 SpineShoulder:-0.258746,0.043475,0.962678,-0.066420 ThumbLeft:0.000000,0.000000,0.000000,0.000000 ThumbRight:0.000000,0.000000,0.000000,0.000000 WristLeft:0.139703,-0.505154,-0.061528,0.849422 WristRight:0.331271,0.358916,-0.537892,0.687103 END:
KINECT_DATA POSITION:14.561242,1.580022,8.955717 HEAD_JOINT1:0.990208,0.133230,0.000000,-0.041684 LARM_JOINT2:0.797881,0.000000,0.017826,-0.602552 LARM_JOINT3:0.960662,0.000000,-0.224321,-0.163731 LLEG_JOINT2:0.999963,-0.000642,0.000000,0.008524 LLEG_JOINT4:0.996692,0.079127,0.000000,0.018526 RARM_JOINT2:0.728850,0.000000,0.605440,0.319718 RARM_JOINT3:0.933549,0.000000,0.354474,0.053232 RLEG_JOINT2:0.995467,0.054716,0.000000,-0.077793 RLEG_JOINT4:0.992734,0.076871,0.000000,0.092573 WAIST:0.978662,-0.000000,0.204548,0.019542 WAIST_JOINT0:0.963992,-0.000000,0.259982,0.055935 WAIST_JOINT1:0.996807,0.070621,-0.000000,0.037276 END:
KINECT_DATA_Sensor  AnkleLeft:0.055752,0.734957,-0.067533,-0.672435 AnkleRight:0.085579,0.745494,0.099863,0.653408 ElbowLeft:0.020181,0.745866,-0.208313,-0.632362 ElbowRight:-0.414975,0.889495,-0.190546,0.016968 FootLeft:0.000000,0.000000,0.000000,0.000000 FootRight:0.000000,0.000000,0.000000,0.000000 HandLeft:0.104749,-0.566659,-0.082351,0.813108 HandRight:0.346631,0.425204,-0.533610,0.643669 HandTipLeft:0.000000,0.000000,0.000000,0.000000 HandTipRight:0.000000,0.000000,0.000000,0.000000 Head:0.000000,0.000000,0.000000,0.000000 HipLeft:-0.011817,-0.680755,0.729145,-0.069142 HipRight:-0.249838,0.652813,0.656378,-0.283873 KneeLeft:0.018964,-0.549511,0.020649,0.835016 KneeRight:-0.021029,0.837248,0.074705,0.541288 Neck:-0.261344,0.050061,0.959628,-0.091140 ShoulderLeft:0.182070,0.703155,-0.679018,-0.106577 ShoulderRight:-0.176889,0.732511,0.596089,-0.277158 SpineBase:-0.203758,0.037313,0.977027,-0.050091 SpineMid:-0.232365,0.038768,0.970621,-0.048973 SpineShoulder:-0.261544,0.044553,0.961709,-0.068739 ThumbLeft:0.000000,0.000000,0.000000,0.000000 ThumbRight:0.000000,0.000000,0.000000,0.000000 WristLeft:0.145716,-0.557192,-0.049529,0.815997 WristRight:0.309190,0.401580,-0.546726,0.666503 END:
KINECT_DATA POSITION:14.690624,1.669217,8.947849 HEAD_JOINT1:0.990403,0.129741,0.000000,-0.047636 LARM_JOINT2:0.796139,0.000000,0.015535,-0.604914 LARM_JOINT3:0.961092,0.000000,-0.225924,-0.158936 LLEG_JOINT2:0.999989,-0.001199,0.000000,0.004498 LLEG_JOINT4:0.996689,0.078763,0.000000,0.020171 RARM_JOINT2:0.720897,0.000000,0.621216,0.307243 RARM_JOINT3:0.942125,0.000000,0.327687,0.070872 RLEG_JOINT2:0.995040,0.057270,0.000000,-0.081334 RLEG_JOINT4:0.992159,0.076797,0.000000,0.098604 WAIST:0.977433,-0.000000,0.210104,0.021915 WAIST_JOINT0:0.963199,-0.000000,0.261974,0.060139 WAIST_JOINT1:0.996634,0.073419,-0.000000,0.036475 END:
KINECT_DATA_Sensor  AnkleLeft:-0.037280,-0.549290,0.077769,0.831169 AnkleRight:0.103953,0.836693,0.085474,0.530879 ElbowLeft:0.019188,0.733375,-0.207258,-0.647176 ElbowRight:-0.427311,0.883542,-0.189546,-0.028828 FootLeft:0.000000,0.000000,0.000000,0.000000 FootRight:0.000000,0.000000,0.000000,0.000000 HandLeft:0.092061,-0.524936,-0.090950,0.841246 HandRight:-0.257150,-0.547771,0.559151,-0.566719 HandTipLeft:0.000000,0.000000,0.000000,0.000000 HandTipRight:0.000000,0.000000,0.000000,0.000000 Head:0.000000,0.000000,0.000000,0.000000 HipLeft:-0.018745,-0.679639,0.730347,-0.065824 HipRight:-0.250079,0.652901,0.654501,-0.287767 KneeLeft:0.018895,-0.544852,0.018678,0.838111 KneeRight:-0.021413,0.840441,0.076912,0.535990 Neck:-0.263725,0.050431,0.958686,-0.093949 ShoulderLeft:0.190090,0.702632,-0.676512,-0.111828 ShoulderRight:-0.169485,0.737826,0.591497,-0.277522 SpineBase:-0.209438,0.037786,0.975673,-0.052623 SpineMid:-0.236433,0.039232,0.969486,-0.051555 SpineShoulder:-0.263943,0.045026,0.960827,-0.071542 ThumbLeft:0.000000,0.000000,0.000000,0.000000 ThumbRight:0.000000,0.000000,0.000000,0.000000 WristLeft:0.148747,-0.511636,-0.052263,0.844613 WristRight:-0.212299,-0.523048,0.571871,-0.595242 END:
KINECT_DATA POSITION:14.774731,1.556778,8.973921 HEAD_JOINT1:0.990641,0.127572,0.000000,-0.048528 LARM_JOINT2:0.795529,0.000000,0.015109,-0.605727 LARM_JOINT3:0.960906,0.000000,-0.231906,-0.151262 LLEG_JOINT2:0.999983,-0.000555,0.000000,0.005792 LLEG_JOINT4:0.996654,0.078896,0.000000,0.021377 RARM_JOINT2:0.712050,0.000000,0.633132,0.303525 RARM_JOINT3:0.951383,0.000000,0.299058,0.073726 RLEG_JOINT2:0.995130,0.055743,0.000000,-0.081291 RLEG_JOINT4:0.991972,0.077857,0.000000,0.099652 WAIST:0.978057,-0.000000,0.207332,0.020422 WAIST_JOINT0:0.962773,-0.000000,0.263118,0.061949 WAIST_JOINT1:0.996539,0.074200,-0.000000,0.037475 END:
KINECT_DATA_Sensor  AnkleLeft:-0.037192,-0.548720,0.079504,0.831386 AnkleRight:0.086401,0.722707,0.102923,0.677965 ElbowLeft:0.016338,0.724642,-0.206488,-0.657260 ElbowRight:-0.433885,0.879280,-0.188719,-0.054739 FootLeft:0.000000,0.000000,0.000000,0.000000 FootRight:0.000000,0.000000,0.000000,0.000000 HandLeft:0.111804,-0.586688,-0.092095,0.796753 HandRight:-0.217021,-0.548035,0.553818,-0.588086 HandTipLeft:0.000000,0.000000,0.000000,0.000000 HandTipRight:0.000000,0.000000,0.000000,0.000000 Head:0.000000,0.000000,0.000000,0.000000 HipLeft:-0.017098,-0.681072,0.728733,-0.069259 HipRight:-0.247998,0.652619,0.655723,-0.287424 KneeLeft:0.018008,-0.547351,0.019047,0.836493 KneeRight:-0.023019,0.838700,0.076767,0.538664 Neck:-0.265105,0.050319,0.958261,-0.094463 ShoulderLeft:0.194394,0.701880,-0.675489,-0.115281 ShoulderRight:-0.165805,0.740046,0.589992,-0.277038 SpineBase:-0.206509,0.037251,0.976241,-0.054041 SpineMid:-0.235664,0.038853,0.969616,-0.052901 SpineShoulder:-0.265329,0.044990,0.960386,-0.072349 ThumbLeft:0.000000,0.000000,0.000000,0.000000 ThumbRight:0.000000,0.000000,0.000000,0.000000 WristLeft:0.157511,-0.573308,-0.036736,0.803218 WristRight:-0.201318,-0.536425,0.562751,-0.595845 END:
KINECT_DATA POSITION:14.806104,1.521618,8.973408 HEAD_JOINT1:0.990799,0.126389,0.000000,-0.048410 LARM_JOINT2:0.794607,0.000000,0.012921,-0.606987 LARM_JOINT3:0.962221,0.000000,-0.230012,-0.145688 LLEG_JOINT2:0.999980,0.000388,0.000000,0.006270 LLEG_JOINT4:0.996895,0.076725,0.000000,0.017717 RARM_JOINT2:0.710425,0.000000,0.634904,0.303633 RARM_JOINT3:0.953784,0.000000,0.291411,0.073319 RLEG_JOINT2:0.995101,0.054953,0.000000,-0.082179 RLEG_JOINT4:0.992117,0.078238,0.000000,0.097888 WAIST:0.978685,-0.000000,0.204327,0.020663 WAIST_JOINT0:0.962755,-0.000000,0.263230,0.061742 WAIST_JOINT1:0.996520,0.074680,-0.000000,0.037021 END:
KINECT_DATA_Sensor  AnkleLeft:-0.037222,-0.548358,0.076629,0.831893 AnkleRight:0.102546,0.837530,0.085233,0.529871 ElbowLeft:0.012456,0.718601,-0.204700,-0.664496 ElbowRight:-0.435706,0.878705,-0.185084,-0.061491 FootLeft:0.000000,0.000000,0.000000,0.000000 FootRight:0.000000,0.000000,0.000000,0.000000 HandLeft:0.095641,-0.545280,-0.099002,0.826874 HandRight:0.296585,0.431696,-0.516246,0.677618 HandTipLeft:0.000000,0.000000,0.000000,0.000000 HandTipRight:0.000000,0.000000,0.000000,0.000000 Head:0.000000,0.000000,0.000000,0.000000 HipLeft:-0.015034,-0.681058,0.728528,-0.071986 HipRight:-0.246262,0.653442,0.655920,-0.286596 KneeLeft:0.017663,-0.549855,0.020122,0.834831 KneeRight:-0.023753,0.836990,0.076541,0.541318 Neck:-0.265269,0.050520,0.958195,-0.094563 ShoulderLeft:0.194957,0.702649,-0.674348,-0.116323 ShoulderRight:-0.164909,0.740944,0.589194,-0.276869 SpineBase:-0.203528,0.037277,0.976838,-0.054545 SpineMid:-0.234237,0.038979,0.969932,-0.053342 SpineShoulder:-0.265489,0.045207,0.960318,-0.072534 ThumbLeft:0.000000,0.000000,0.000000,0.000000 ThumbRight:0.000000,0.000000,0.000000,0.000000 WristLeft:0.159327,-0.527617,-0.041778,0.833360 WristRight:0.288903,0.428762,-0.516740,0.682406 END:
KINECT_DATA POSITION:14.778227,1.506165,8.946598 HEAD_JOINT1:0.991087,0.125117,0.000000,-0.045740 LARM_JOINT2:0.791764,0.000000,0.009864,-0.610747 LARM_JOINT3:0.963869,0.000000,-0.228737,-0.136510 LLEG_JOINT2:0.999974,0.001193,0.000000,0.007083 LLEG_JOINT4:0.996903,0.076983,0.000000,0.016093 RARM_JOINT2:0.711196,0.000000,0.633500,0.304759 RARM_JOINT3:0.954375,0.000000,0.287302,0.081404 RLEG_JOINT2:0.995215,0.053243,0.000000,-0.081930 RLEG_JOINT4:0.992397,0.078594,0.000000,0.094713 WAIST:0.979559,-0.000000,0.200114,0.020439 WAIST_JOINT0:0.962998,-0.000000,0.262558,0.060806 WAIST_JOINT1:0.996533,0.074563,-0.000000,0.036917 END:
KINECT_DATA_Sensor  AnkleLeft:-0.038143,-0.548606,0.076740,0.831678 AnkleRight:0.084936,0.741131,0.100227,0.658381 ElbowLeft:0.007000,0.708928,-0.199524,-0.676433 ElbowRight:-0.437573,0.879012,-0.177563,-0.065879 FootLeft:0.000000,0.000000,0.000000,0.000000 FootRight:0.000000,0.000000,0.000000,0.000000 HandLeft:0.085700,-0.539451,-0.109946,0.830398 HandRight:0.404315,0.271313,-0.424181,0.763537 HandTipLeft:0.000000,0.000000,0.000000,0.000000 HandTipRight:0.000000,0.000000,0.000000,0.000000 Head:0.000000,0.000000,0.000000,0.000000 HipLeft:-0.012944,-0.681082,0.728306,-0.074367 HipRight:-0.243211,0.654399,0.657114,-0.284275 KneeLeft:0.017301,-0.553396,0.021068,0.832472 KneeRight:-0.024279,0.834554,0.075294,0.545216 Neck:-0.264591,0.050866,0.958427,-0.093927 ShoulderLeft:0.193653,0.703704,-0.673663,-0.116092 ShoulderRight:-0.165165,0.741214,0.589000,-0.276407 SpineBase:-0.199312,0.037111,0.977695,-0.054860 SpineMid:-0.231780,0.038918,0.970511,-0.053593 SpineShoulder:-0.264805,0.045508,0.960517,-0.072212 ThumbLeft:0.000000,0.000000,0.000000,0.000000 ThumbRight:0.000000,0.000000,0.000000,0.000000 WristLeft:0.163759,-0.516329,-0.039496,0.839659 WristRight:0.391670,0.260472,-0.434997,0.767807 END:
KINECT_DATA POSITION:14.748096,1.498526,8.898937 HEAD_JOINT1:0.991063,0.125645,0.000000,-0.044799 LARM_JOINT2:0.789127,0.000000,0.009137,-0.614162 LARM_JOINT3:0.966213,0.000000,-0.222242,-0.130542 LLEG_JOINT2:0.999974,0.001902,0.000000,0.006963 LLEG_JOINT4:0.996928,0.076627,0.000000,0.016196 RARM_JOINT2:0.710399,0.000000,0.634202,0.305157 RARM_JOINT3:0.951851,0.000000,0.289280,0.101469 RLEG_JOINT2:0.995203,0.052530,0.000000,-0.082537 RLEG_JOINT4:0.992260,0.080087,0.000000,0.094906 WAIST:0.980027,-0.000000,0.197773,0.020788 WAIST_JOINT0:0.963142,-0.000000,0.262213,0.060022 WAIST_JOINT1:0.996557,0.074314,-0.000000,0.036776 END:
KINECT_DATA_Sensor  AnkleLeft:-0.037913,-0.549080,0.077358,0.831318 AnkleRight:0.084846,0.735432,0.101242,0.664598 ElbowLeft:0.004795,0.702595,-0.195567,-0.684172 ElbowRight:-0.440943,0.877683,-0.169981,-0.079677 FootLeft:0.000000,0.000000,0.000000,0.000000 FootRight:0.000000,0.000000,0.000000,0.000000 HandLeft:0.054246,-0.496336,-0.097844,0.860892 HandRight:0.187588,0.625579,-0.543752,0.527062 HandTipLeft:0.000000,0.000000,0.000000,0.000000 HandTipRight:0.000000,0.000000,0.000000,0.000000 Head:0.000000,0.000000,0.000000,0.000000 HipLeft:-0.011513,-0.680712,0.728511,-0.075968 HipRight:-0.241806,0.655185,0.657378,-0.283050 KneeLeft:0.016906,-0.555331,0.021597,0.831177 KneeRight:-0.024726,0.833227,0.074883,0.547278 Neck:-0.264175,0.051449,0.958566,-0.093355 ShoulderLeft:0.191716,0.705498,-0.672377,-0.115876 ShoulderRight:-0.166185,0.742092,0.587521,-0.276589 SpineBase:-0.197001,0.037415,0.978147,-0.054943 SpineMid:-0.230397,0.039275,0.970824,-0.053629 SpineShoulder:-0.264374,0.046083,0.960638,-0.071809 ThumbLeft:0.000000,0.000000,0.000000,0.000000 ThumbRight:0.000000,0.000000,0.000000,0.000000 WristLeft:0.163777,-0.469159,-0.047267,0.866506 WristRight:0.138795,0.598877,-0.561855,0.553536 END:
KINECT_DATA POSITION:14.775488,1.749494,8.943105 HEAD_JOINT1:0.991068,0.125637,0.000000,-0.044706 LARM_JOINT2:0.787205,0.000000,0.005492,-0.616666 LARM_JOINT3:0.966728,0.000000,-0.220557,-0.129585 LLEG_JOINT2:0.999978,0.000360,0.000000,0.006667 LLEG_JOINT4:0.996845,0.077635,0.000000,0.016514 RARM_JOINT2:0.697621,0.000000,0.643741,0.314520 RARM_JOINT3:0.962072,0.000000,0.259284,0.084795 RLEG_JOINT2:0.995127,0.055827,0.000000,-0.081270 RLEG_JOINT4:0.992302,0.076106,0.000000,0.097692 WAIST:0.978484,-0.000000,0.205305,0.020451 WAIST_JOINT0:0.963126,-0.000000,0.262240,0.060156 WAIST_JOINT1:0.996514,0.073710,-0.000000,0.039081 END:
KINECT_DATA_Sensor  AnkleLeft:-0.038726,-0.548742,0.076168,0.831614 AnkleRight:0.085408,0.729590,0.101034,0.670966 ElbowLeft:0.003086,0.696465,-0.193169,-0.691096 ElbowRight:-0.431582,0.876826,-0.193531,-0.086363 FootLeft:0.000000,0.000000,0.000000,0.000000 FootRight:0.000000,0.000000,0.000000,0.000000 HandLeft:0.059215,-0.555111,-0.105887,0.822881 HandRight:0.225578,0.566411,-0.534347,0.585463 HandTipLeft:0.000000,0.000000,0.000000,0.000000 HandTipRight:0.000000,0.000000,0.000000,0.000000 Head:0.000000,0.000000,0.000000,0.000000 HipLeft:-0.016235,-0.680569,0.728961,-0.071955 HipRight:-0.246946,0.652978,0.656259,-0.286290 KneeLeft:0.017743,-0.549201,0.020295,0.835256 KneeRight:-0.022747,0.837573,0.076882,0.540410 Neck:-0.264263,0.052360,0.958446,-0.093834 ShoulderLeft:0.192287,0.705786,-0.671766,-0.116720 ShoulderRight:-0.165364,0.742983,0.586733,-0.276361 SpineBase:-0.204364,0.038937,0.976576,-0.054938 SpineMid:-0.234140,0.040599,0.969868,-0.053721 SpineShoulder:-0.264458,0.046901,0.960557,-0.072065 ThumbLeft:0.000000,0.000000,0.000000,0.000000 ThumbRight:0.000000,0.000000,0.000000,0.000000 WristLeft:0.167911,-0.523923,-0.032754,0.834408 WristRight:0.178953,0.546683,-0.542567,0.612156 END:
KINECT_DATA POSITION:14.801004,1.867136,8.953798 HEAD_JOINT1:0.990906,0.126741,0.000000,-0.045192 LARM_JOINT2:0.786394,0.000000,0.004225,-0.617710 LARM_JOINT3:0.966698,0.000000,-0.222460,-0.126519 LLEG_JOINT2:0.999979,-0.000203,0.000000,0.006442 LLEG_JOINT4:0.996871,0.077338,0.000000,0.016342 RARM_JOINT2:0.705857,0.000000,0.638193,0.307367 RARM_JOINT3:0.960125,0.000000,0.264250,0.091281 RLEG_JOINT2:0.995146,0.055851,0.000000,-0.081029 RLEG_JOINT4:0.992679,0.076172,0.000000,0.093737 WAIST:0.978109,-0.000000,0.207080,0.020506 WAIST_JOINT0:0.963204,-0.000000,0.261948,0.060170 WAIST_JOINT1:0.996452,0.074225,-0.000000,0.039670 END:
KINECT_DATA_Sensor  AnkleLeft:-0.038431,-0.548874,0.075243,0.831624 AnkleRight:0.084939,0.750814,0.100243,0.647314 ElbowLeft:0.003475,0.696364,-0.192343,-0.691425 ElbowRight:-0.439014,0.875295,-0.177479,-0.098118 FootLeft:0.000000,0.000000,0.000000,0.000000 FootRight:0.000000,0.000000,0.000000,0.000000 HandLeft:0.069844,-0.477864,-0.113012,0.868329 HandRight:-0.245257,-0.513282,0.516885,-0.639704 HandTipLeft:0.000000,0.000000,0.000000,0.000000 HandTipRight:0.000000,0.000000,0.000000,0.000000 Head:0.000000,0.000000,0.000000,0.000000 HipLeft:-0.017848,-0.680970,0.728616,-0.071273 HipRight:-0.247616,0.652835,0.655669,-0.287387 KneeLeft:0.018120,-0.547795,0.019848,0.836181 KneeRight:-0.022662,0.838549,0.076662,0.538929 Neck:-0.263996,0.052521,0.958408,-0.094877 ShoulderLeft:0.193083,0.706001,-0.671273,-0.116936 ShoulderRight:-0.163944,0.743421,0.586719,-0.276058 SpineBase:-0.206091,0.039385,0.976166,-0.055450 SpineMid:-0.234871,0.041008,0.969644,-0.054261 SpineShoulder:-0.264178,0.047183,0.960571,-0.072711 ThumbLeft:0.000000,0.000000,0.000000,0.000000 ThumbRight:0.000000,0.000000,0.000000,0.000000 WristLeft:0.163230,-0.451500,-0.045463,0.876035 WristRight:-0.226365,-0.503157,0.522773,-0.649845 END:
